uscmakers/ReverseChoreography/pose_data.csv
,NOSE,LEFT_EYE_INNER,LEFT_EYE,LEFT_EYE_OUTER,RIGHT_EYE_INNER,RIGHT_EYE,RIGHT_EYE_OUTER,LEFT_EAR,RIGHT_EAR,MOUTH_LEFT,MOUTH_RIGHT,LEFT_SHOULDER,RIGHT_SHOULDER,LEFT_ELBOW,RIGHT_ELBOW,LEFT_WRIST,RIGHT_WRIST,LEFT_PINKY,RIGHT_PINKY,LEFT_INDEX,RIGHT_INDEX,LEFT_THUMB,RIGHT_THUMB,LEFT_HIP,RIGHT_HIP,LEFT_KNEE,RIGHT_KNEE,LEFT_ANKLE,RIGHT_ANKLE,LEFT_HEEL,RIGHT_HEEL,LEFT_FOOT_INDEX,RIGHT_FOOT_INDEX,WRIST,THUMB_CPC,THUMB_MCP,THUMB_IP,THUMB_TIP,INDEX_FINGER_MCP,INDEX_FINGER_PIP,INDEX_FINGER_DIP,INDEX_FINGER_TIP,MIDDLE_FINGER_MCP,MIDDLE_FINGER_PIP,MIDDLE_FINGER_DIP,MIDDLE_FINGER_TIP,RING_FINGER_PIP,RING_FINGER_DIP,RING_FINGER_TIP,RING_FINGER_MCP,PINKY_MCP,PINKY_PIP,PINKY_DIP,PINKY_TIP,WRIST2,THUMB_CPC2,THUMB_MCP2,THUMB_IP2,THUMB_TIP2,INDEX_FINGER_MCP2,INDEX_FINGER_PIP2,INDEX_FINGER_DIP2,INDEX_FINGER_TIP2,MIDDLE_FINGER_MCP2,MIDDLE_FINGER_PIP2,MIDDLE_FINGER_DIP2,MIDDLE_FINGER_TIP2,RING_FINGER_PIP2,RING_FINGER_DIP2,RING_FINGER_TIP2,RING_FINGER_MCP2,PINKY_MCP2,PINKY_PIP2,PINKY_DIP2,PINKY_TIP2
0,"x: 177.26097106933594
y: 337.8080749511719
z: -0.7775976061820984
visibility: 0.9996126294136047
","x: 192.3180389404297
y: 294.21173095703125
z: -0.7522578835487366
visibility: 0.9988906979560852
","x: 204.48300170898438
y: 292.0736083984375
z: -0.7518221735954285
visibility: 0.998968243598938
","x: 215.5084228515625
y: 291.246337890625
z: -0.7519529461860657
visibility: 0.9989431500434875
","x: 162.43527221679688
y: 301.1148681640625
z: -0.7354152202606201
visibility: 0.998916745185852
","x: 154.23399353027344
y: 303.32037353515625
z: -0.7347300052642822
visibility: 0.9988596439361572
","x: 146.29031372070312
y: 306.07098388671875
z: -0.7352745532989502
visibility: 0.9989789724349976
","x: 237.5855712890625
y: 315.90289306640625
z: -0.5058302879333496
visibility: 0.9992889165878296
","x: 140.37159729003906
y: 331.71075439453125
z: -0.4060424864292145
visibility: 0.9993786811828613
","x: 203.14700317382812
y: 389.7830505371094
z: -0.6771305799484253
visibility: 0.9995942711830139
","x: 166.2525634765625
y: 395.44561767578125
z: -0.6491612195968628
visibility: 0.9996521472930908
","x: 336.6319274902344
y: 559.1434326171875
z: -0.34381580352783203
visibility: 0.9970331192016602
","x: 83.51669311523438
y: 554.0233154296875
z: -0.331708163022995
visibility: 0.9991355538368225
","x: 403.1054992675781
y: 832.8404541015625
z: -0.425210565328598
visibility: 0.1369737833738327
","x: 14.60024356842041
y: 819.978759765625
z: -0.43940478563308716
visibility: 0.18547509610652924
","x: 392.56475830078125
y: 1035.0465087890625
z: -0.6784805655479431
visibility: 0.020770421251654625
","x: 16.10073471069336
y: 1045.0194091796875
z: -0.9910147786140442
visibility: 0.09519028663635254
","x: 406.3553466796875
y: 1105.07666015625
z: -0.76823490858078
visibility: 0.033876076340675354
","x: 0.17972946166992188
y: 1129.00830078125
z: -1.1059969663619995
visibility: 0.14188940823078156
","x: 377.0455322265625
y: 1099.6519775390625
z: -0.7928662896156311
visibility: 0.05892285332083702
","x: 28.30155372619629
y: 1117.0047607421875
z: -1.1708158254623413
visibility: 0.21373578906059265
","x: 367.8702392578125
y: 1073.286376953125
z: -0.7063248157501221
visibility: 0.07290850579738617
","x: 40.20393753051758
y: 1089.150146484375
z: -1.0422697067260742
visibility: 0.2387397438287735
","x: 287.1297607421875
y: 1065.398681640625
z: -0.027374524623155594
visibility: 0.0003018107090611011
","x: 127.42315673828125
y: 1074.089599609375
z: 0.03467215597629547
visibility: 0.0004559511144179851
","x: 289.78167724609375
y: 1472.3525390625
z: 0.03064114972949028
visibility: 3.221883889636956e-05
","x: 138.93922424316406
y: 1472.2576904296875
z: 0.04670778289437294
visibility: 1.5177010027400684e-05
","x: 288.4809875488281
y: 1820.84619140625
z: 0.6973469853401184
visibility: 5.23222354331665e-07
","x: 146.49771118164062
y: 1818.9072265625
z: 0.5139095187187195
visibility: 9.819161306268143e-08
","x: 294.9959411621094
y: 1882.74169921875
z: 0.7313900589942932
visibility: 8.013178671717469e-07
","x: 145.8079833984375
y: 1885.1685791015625
z: 0.5457685589790344
visibility: 1.7982860356369201e-07
","x: 259.5594787597656
y: 1952.287353515625
z: 0.1978098601102829
visibility: 1.3133843594914651e-06
","x: 175.2801971435547
y: 1943.8365478515625
z: -0.03544145077466965
visibility: 8.762748961999023e-07
",,,,,,,,,,,,,,,,,,,,,,,,,,,,,,,,,,,,,,,,,,
1,"x: 177.1419219970703
y: 338.2352294921875
z: -1.0624927282333374
visibility: 0.9996389746665955
","x: 192.6053924560547
y: 294.1353759765625
z: -1.033030390739441
visibility: 0.9989649653434753
","x: 204.73300170898438
y: 292.020751953125
z: -1.0330435037612915
visibility: 0.9990442395210266
","x: 215.97927856445312
y: 291.2185974121094
z: -1.0331075191497803
visibility: 0.9990072846412659
","x: 162.81991577148438
y: 300.9468994140625
z: -1.0016670227050781
visibility: 0.9989848732948303
","x: 154.92953491210938
y: 303.0327453613281
z: -1.000812292098999
visibility: 0.9989424347877502
","x: 147.20726013183594
y: 305.6036682128906
z: -1.0011781454086304
visibility: 0.9990406036376953
","x: 238.04351806640625
y: 314.39349365234375
z: -0.7296550273895264
visibility: 0.9993270635604858
","x: 145.7568359375
y: 327.94439697265625
z: -0.5547215938568115
visibility: 0.9994195103645325
","x: 203.27764892578125
y: 389.6136779785156
z: -0.941431999206543
visibility: 0.9996227622032166
","x: 166.33175659179688
y: 395.05792236328125
z: -0.8915513753890991
visibility: 0.9996750950813293
","x: 336.8460693359375
y: 560.7740478515625
z: -0.47907155752182007
visibility: 0.997087299823761
","x: 83.4761962890625
y: 559.628173828125
z: -0.3977023959159851
visibility: 0.9991214275360107
","x: 395.6459045410156
y: 846.2601318359375
z: -0.4692733883857727
visibility: 0.13002640008926392
","x: 14.60672664642334
y: 842.2569580078125
z: -0.32961705327033997
visibility: 0.19739924371242523
","x: 390.2419738769531
y: 1055.03515625
z: -0.7889764308929443
visibility: 0.021197116002440453
","x: 18.162704467773438
y: 1079.987060546875
z: -0.7488337755203247
visibility: 0.092219777405262
","x: 405.99188232421875
y: 1131.6590576171875
z: -0.9000166654586792
visibility: 0.03349733725190163
","x: 4.470556259155273
y: 1164.7044677734375
z: -0.8639912605285645
visibility: 0.13344810903072357
","x: 375.7507019042969
y: 1132.683837890625
z: -0.950534999370575
visibility: 0.05888946354389191
","x: 33.46530532836914
y: 1167.1046142578125
z: -0.9522451162338257
visibility: 0.20308853685855865
","x: 365.9849853515625
y: 1099.7117919921875
z: -0.8288291692733765
visibility: 0.0721592828631401
","x: 42.94122314453125
y: 1134.108642578125
z: -0.8050247430801392
visibility: 0.2262968122959137
","x: 289.7866516113281
y: 1086.940185546875
z: -0.07189051806926727
visibility: 0.00029122899286448956
","x: 128.12567138671875
y: 1086.938720703125
z: 0.07843277603387833
visibility: 0.00043068823288194835
","x: 288.1745300292969
y: 1513.5350341796875
z: 0.051464058458805084
visibility: 4.257768887327984e-05
","x: 138.0465545654297
y: 1511.985595703125
z: 0.24166324734687805
visibility: 1.8655995518201962e-05
","x: 288.526611328125
y: 1892.3206787109375
z: 0.9106324315071106
visibility: 1.2987344462089823e-06
","x: 146.4932403564453
y: 1889.124267578125
z: 0.9042083024978638
visibility: 1.5920987550543941e-07
","x: 295.28045654296875
y: 1967.5745849609375
z: 0.9625741839408875
visibility: 1.6490736243213178e-06
","x: 145.85194396972656
y: 1962.105224609375
z: 0.9567211270332336
visibility: 4.4886010641675966e-07
","x: 259.3434143066406
y: 2022.4000244140625
z: 0.31893959641456604
visibility: 2.305180714756716e-06
","x: 173.94989013671875
y: 2022.30224609375
z: 0.2652893662452698
visibility: 1.8594762423163047e-06
",,,,,,,,,,,,,,,,,,,,,,,,,,,,,,,,,,,,,,,,,,
2,"x: 178.2201385498047
y: 322.5915222167969
z: -1.0111284255981445
visibility: 0.9996632933616638
","x: 194.04159545898438
y: 277.700927734375
z: -0.9681207537651062
visibility: 0.9990349411964417
","x: 205.88941955566406
y: 276.1251525878906
z: -0.9680725932121277
visibility: 0.9991150498390198
","x: 217.0586700439453
y: 275.7406921386719
z: -0.9682289958000183
visibility: 0.9990713000297546
","x: 164.203857421875
y: 286.62176513671875
z: -0.9465295672416687
visibility: 0.999050498008728
","x: 156.7037811279297
y: 290.07318115234375
z: -0.9456872940063477
visibility: 0.9990207552909851
","x: 148.95367431640625
y: 294.4693603515625
z: -0.9460791349411011
visibility: 0.9991017580032349
","x: 239.0577850341797
y: 302.48583984375
z: -0.6550533175468445
visibility: 0.9993667602539062
","x: 148.0415802001953
y: 320.84735107421875
z: -0.5206160545349121
visibility: 0.9994570016860962
","x: 204.77076721191406
y: 372.08758544921875
z: -0.8881343603134155
visibility: 0.9996470212936401
","x: 166.8786163330078
y: 378.7149658203125
z: -0.8516379594802856
visibility: 0.9996945261955261
","x: 336.7467041015625
y: 560.4509887695312
z: -0.43905457854270935
visibility: 0.9971225261688232
","x: 84.6838607788086
y: 559.4547729492188
z: -0.39003056287765503
visibility: 0.999081552028656
","x: 396.0614013671875
y: 846.4574584960938
z: -0.45773959159851074
visibility: 0.12400174885988235
","x: 14.150263786315918
y: 841.238525390625
z: -0.3288419246673584
visibility: 0.20104050636291504
","x: 390.20452880859375
y: 1058.414794921875
z: -0.7602840662002563
visibility: 0.020623652264475822
","x: 18.233747482299805
y: 1076.5748291015625
z: -0.7574100494384766
visibility: 0.08655055612325668
","x: 406.0155029296875
y: 1137.57958984375
z: -0.8609024286270142
visibility: 0.03213874250650406
","x: 4.732206344604492
y: 1161.141357421875
z: -0.872266411781311
visibility: 0.12397518754005432
","x: 374.8477783203125
y: 1140.2803955078125
z: -0.8995827436447144
visibility: 0.056898366659879684
","x: 34.226253509521484
y: 1164.181640625
z: -0.952200710773468
visibility: 0.18997541069984436
","x: 365.3343811035156
y: 1105.724853515625
z: -0.7937338948249817
visibility: 0.0693565383553505
","x: 43.11388397216797
y: 1131.2557373046875
z: -0.8108482360839844
visibility: 0.21146775782108307
","x: 290.7164306640625
y: 1087.618408203125
z: -0.07128385454416275
visibility: 0.0002818479260895401
","x: 128.48927307128906
y: 1086.609130859375
z: 0.077964648604393
visibility: 0.00040772531065158546
","x: 287.3770446777344
y: 1518.2496337890625
z: 0.031867705285549164
visibility: 4.864619768341072e-05
","x: 136.3870849609375
y: 1516.753173828125
z: 0.22327430546283722
visibility: 2.099947778333444e-05
","x: 287.6576232910156
y: 1899.150634765625
z: 0.8403894305229187
visibility: 1.7214562149092671e-06
","x: 144.3994140625
y: 1893.69970703125
z: 0.8057383298873901
visibility: 2.094558197995866e-07
","x: 294.55029296875
y: 1974.002197265625
z: 0.8857202529907227
visibility: 2.0085278720216593e-06
","x: 143.67547607421875
y: 1965.486572265625
z: 0.8477134704589844
visibility: 6.227544986359135e-07
","x: 257.0732116699219
y: 2026.9947509765625
z: 0.3051301836967468
visibility: 2.880454985643155e-06
","x: 169.5154266357422
y: 2027.3377685546875
z: 0.17905959486961365
visibility: 2.3341494852502365e-06
",,,,,,,,,,,,,,,,,,,,,,,,,,,,,,,,,,,,,,,,,,
3,"x: 179.4886932373047
y: 320.9289855957031
z: -0.9558291435241699
visibility: 0.9996773600578308
","x: 194.7007598876953
y: 277.5643005371094
z: -0.9412256479263306
visibility: 0.9990794658660889
","x: 206.1260223388672
y: 276.1977844238281
z: -0.9418190717697144
visibility: 0.9991651177406311
","x: 217.12890625
y: 275.86383056640625
z: -0.9417687654495239
visibility: 0.9991101622581482
","x: 165.96299743652344
y: 286.4051513671875
z: -0.8802019953727722
visibility: 0.9990900158882141
","x: 159.02723693847656
y: 290.2187805175781
z: -0.8794230222702026
visibility: 0.9990764856338501
","x: 152.0026092529297
y: 294.68212890625
z: -0.8796407580375671
visibility: 0.9991382360458374
","x: 239.06491088867188
y: 301.92767333984375
z: -0.624123215675354
visibility: 0.9993888735771179
","x: 152.3075408935547
y: 320.79644775390625
z: -0.47001785039901733
visibility: 0.999481201171875
","x: 206.09210205078125
y: 368.873046875
z: -0.8649417161941528
visibility: 0.9996563196182251
","x: 168.76840209960938
y: 376.5987854003906
z: -0.8034060597419739
visibility: 0.9997009634971619
","x: 336.7545166015625
y: 560.2716064453125
z: -0.43870171904563904
visibility: 0.9970896244049072
","x: 91.30609130859375
y: 559.1871948242188
z: -0.36699360609054565
visibility: 0.9990342855453491
","x: 393.743896484375
y: 846.0478515625
z: -0.46248120069503784
visibility: 0.11793752759695053
","x: 14.714584350585938
y: 833.052001953125
z: -0.3285985291004181
visibility: 0.1973072588443756
","x: 388.3032531738281
y: 1057.711669921875
z: -0.7340279817581177
visibility: 0.02182590961456299
","x: 23.311691284179688
y: 1062.910888671875
z: -0.7682328224182129
visibility: 0.08176843076944351
","x: 405.1204833984375
y: 1136.5660400390625
z: -0.8347883224487305
visibility: 0.03350840508937836
","x: 11.315130233764648
y: 1145.8837890625
z: -0.8801847696304321
visibility: 0.11647161841392517
","x: 374.2914123535156
y: 1135.98876953125
z: -0.8859098553657532
visibility: 0.059460725635290146
","x: 41.420719146728516
y: 1153.8834228515625
z: -0.952069878578186
visibility: 0.1797952950000763
","x: 364.42279052734375
y: 1103.1082763671875
z: -0.7708497643470764
visibility: 0.07151862978935242
","x: 48.8162727355957
y: 1119.57373046875
z: -0.8206294178962708
visibility: 0.2000202238559723
","x: 292.287353515625
y: 1086.2021484375
z: -0.0767069011926651
visibility: 0.0002745009842328727
","x: 131.76812744140625
y: 1086.0582275390625
z: 0.08322887867689133
visibility: 0.00039238162571564317
","x: 287.3351745605469
y: 1513.04296875
z: 0.03217374533414841
visibility: 5.120369678479619e-05
","x: 136.9222869873047
y: 1511.64013671875
z: 0.22838589549064636
visibility: 2.1615231162286364e-05
","x: 288.0578918457031
y: 1889.25537109375
z: 0.8202574849128723
visibility: 2.0973473056074e-06
","x: 146.04641723632812
y: 1883.269775390625
z: 0.7919303774833679
visibility: 2.408619650395849e-07
","x: 294.925048828125
y: 1960.9666748046875
z: 0.8651736974716187
visibility: 2.369620460740407e-06
","x: 145.78729248046875
y: 1952.9761962890625
z: 0.8341494798660278
visibility: 7.394245358227636e-07
","x: 257.73583984375
y: 2014.5947265625
z: 0.28335270285606384
visibility: 3.552598400347051e-06
","x: 169.62832641601562
y: 2012.8223876953125
z: 0.20247168838977814
visibility: 2.709311729631736e-06
",,,,,,,,,,,,,,,,,,,,,,,,,,,,,,,,,,,,,,,,,,
4,"x: 184.32589721679688
y: 321.7630310058594
z: -1.0133459568023682
visibility: 0.9996944665908813
","x: 198.21209716796875
y: 278.15631103515625
z: -0.9690936207771301
visibility: 0.9991271495819092
","x: 208.9210205078125
y: 276.57025146484375
z: -0.9690922498703003
visibility: 0.999215304851532
","x: 219.1710662841797
y: 276.0043640136719
z: -0.9691686630249023
visibility: 0.9991486072540283
","x: 170.41748046875
y: 286.8832702636719
z: -0.950395405292511
visibility: 0.9991363286972046
","x: 163.16812133789062
y: 290.4520263671875
z: -0.9495645761489868
visibility: 0.9991354942321777
","x: 157.2255401611328
y: 294.82330322265625
z: -0.9499222040176392
visibility: 0.9991800785064697
","x: 239.35394287109375
y: 302.05059814453125
z: -0.6211990118026733
visibility: 0.9994063973426819
","x: 155.1310272216797
y: 320.86688232421875
z: -0.5232178568840027
visibility: 0.9995090961456299
","x: 210.48233032226562
y: 369.7064514160156
z: -0.8831907510757446
visibility: 0.999671995639801
","x: 172.66580200195312
y: 377.1356506347656
z: -0.8544748425483704
visibility: 0.9997146725654602
","x: 336.1343078613281
y: 560.09326171875
z: -0.4279548227787018
visibility: 0.9971305131912231
","x: 91.93146514892578
y: 559.1788330078125
z: -0.39848726987838745
visibility: 0.999032735824585
","x: 388.63787841796875
y: 845.765380859375
z: -0.4155542254447937
visibility: 0.1112908273935318
","x: 14.36367130279541
y: 826.8545532226562
z: -0.33181509375572205
visibility: 0.20168481767177582
","x: 384.15496826171875
y: 1057.3082275390625
z: -0.7415027618408203
visibility: 0.02177228033542633
","x: 23.114601135253906
y: 1057.291259765625
z: -0.8144364356994629
visibility: 0.07907339185476303
","x: 400.88580322265625
y: 1136.1378173828125
z: -0.8488172292709351
visibility: 0.03307919576764107
","x: 10.791646003723145
y: 1138.6046142578125
z: -0.9286929965019226
visibility: 0.11066091805696487
","x: 371.575927734375
y: 1132.8809814453125
z: -0.8978714942932129
visibility: 0.05902858451008797
","x: 40.55711364746094
y: 1153.3216552734375
z: -0.9978912472724915
visibility: 0.17210473120212555
","x: 361.679931640625
y: 1101.0267333984375
z: -0.782099187374115
visibility: 0.07027526944875717
","x: 48.58480453491211
y: 1118.8328857421875
z: -0.867078959941864
visibility: 0.1910339742898941
","x: 292.3912048339844
y: 1085.232177734375
z: -0.07394108921289444
visibility: 0.0002644692431204021
","x: 132.5731964111328
y: 1085.732177734375
z: 0.08040277659893036
visibility: 0.00037304291618056595
","x: 287.33978271484375
y: 1510.329345703125
z: 0.12096297740936279
visibility: 5.232244075159542e-05
","x: 136.99847412109375
y: 1511.57763671875
z: 0.316758930683136
visibility: 2.1650688722729683e-05
","x: 288.87060546875
y: 1883.9146728515625
z: 0.9948158264160156
visibility: 2.6126565444428707e-06
","x: 146.87693786621094
y: 1882.177978515625
z: 1.0022965669631958
visibility: 2.7068224994764023e-07
","x: 295.6241455078125
y: 1953.872314453125
z: 1.0490095615386963
visibility: 2.8797073809982976e-06
","x: 146.71182250976562
y: 1950.657470703125
z: 1.0565636157989502
visibility: 8.628800287624472e-07
","x: 259.4359130859375
y: 2010.05810546875
z: 0.4303341507911682
visibility: 4.171274213149445e-06
","x: 170.0357208251953
y: 2010.17333984375
z: 0.38146573305130005
visibility: 3.041845729967463e-06
",,,,,,,,,,,,,,,,,,,,,,,,,,,,,,,,,,,,,,,,,,
5,"x: 185.41705322265625
y: 328.8825988769531
z: -1.0243918895721436
visibility: 0.9997080564498901
","x: 199.87388610839844
y: 284.2807922363281
z: -0.9786990284919739
visibility: 0.99916672706604
","x: 210.41183471679688
y: 283.15887451171875
z: -0.9786583781242371
visibility: 0.9992556571960449
","x: 220.4696044921875
y: 283.0163269042969
z: -0.9788106083869934
visibility: 0.9991780519485474
","x: 172.0897216796875
y: 291.01824951171875
z: -0.9659968614578247
visibility: 0.9991773962974548
","x: 164.9579620361328
y: 294.0910949707031
z: -0.9651503562927246
visibility: 0.9991869926452637
","x: 159.43687438964844
y: 297.3901672363281
z: -0.9655472636222839
visibility: 0.9992184042930603
","x: 239.58494567871094
y: 305.936767578125
z: -0.622848629951477
visibility: 0.9994156956672668
","x: 156.70541381835938
y: 321.75958251953125
z: -0.5390251874923706
visibility: 0.9995332360267639
","x: 210.82850646972656
y: 374.5108337402344
z: -0.8874880075454712
visibility: 0.9996859431266785
","x: 173.6122589111328
y: 380.0463562011719
z: -0.8638254404067993
visibility: 0.9997283220291138
","x: 334.37786865234375
y: 559.7158203125
z: -0.4241669178009033
visibility: 0.9971708059310913
","x: 91.91385650634766
y: 559.2952270507812
z: -0.39998582005500793
visibility: 0.9990338683128357
","x: 384.8030700683594
y: 845.0205078125
z: -0.40806999802589417
visibility: 0.10654504597187042
","x: 14.260384559631348
y: 824.480712890625
z: -0.34507855772972107
visibility: 0.21049195528030396
","x: 383.9150390625
y: 1056.125244140625
z: -0.757168173789978
visibility: 0.021568404510617256
","x: 22.900964736938477
y: 1056.84326171875
z: -0.8183236122131348
visibility: 0.07694826275110245
","x: 400.8820495605469
y: 1133.9676513671875
z: -0.8702470660209656
visibility: 0.03248277306556702
","x: 10.332376480102539
y: 1137.5606689453125
z: -0.9368919134140015
visibility: 0.10540909320116043
","x: 371.6277160644531
y: 1131.095703125
z: -0.9227955937385559
visibility: 0.058290764689445496
","x: 39.9605827331543
y: 1150.3758544921875
z: -1.0144553184509277
visibility: 0.16513653099536896
","x: 361.7882080078125
y: 1099.760009765625
z: -0.8009141087532043
visibility: 0.06856042891740799
","x: 48.258827209472656
y: 1116.828125
z: -0.8717287182807922
visibility: 0.18249376118183136
","x: 292.1370849609375
y: 1084.66455078125
z: -0.07526431232690811
visibility: 0.00025864472263492644
","x: 133.5990447998047
y: 1085.5313720703125
z: 0.08139731734991074
visibility: 0.00035898509668186307
","x: 286.7639465332031
y: 1509.2784423828125
z: 0.10483098030090332
visibility: 6.340575782814994e-05
","x: 137.47067260742188
y: 1513.0166015625
z: 0.2723531723022461
visibility: 2.4746124836383387e-05
","x: 288.8672790527344
y: 1883.8555908203125
z: 0.9050899744033813
visibility: 4.7493908823526e-06
","x: 148.18783569335938
y: 1885.0283203125
z: 0.8749251365661621
visibility: 4.139900795507856e-07
","x: 295.6168212890625
y: 1952.30322265625
z: 0.9513899683952332
visibility: 4.8860861170396674e-06
","x: 148.2169189453125
y: 1951.9830322265625
z: 0.9195957183837891
visibility: 1.4072310250412556e-06
","x: 259.4393310546875
y: 2009.557373046875
z: 0.4096088409423828
visibility: 6.073317308619153e-06
","x: 170.23426818847656
y: 2010.6365966796875
z: 0.2599634528160095
visibility: 4.1838616198219825e-06
",,,,,,,,,,,,,,,,,,,,,,,,,,,,,,,,,,,,,,,,,,
6,"x: 185.8260498046875
y: 329.65802001953125
z: -1.1072033643722534
visibility: 0.9997115135192871
","x: 200.89645385742188
y: 285.7540588378906
z: -1.057931661605835
visibility: 0.9991728067398071
","x: 211.30824279785156
y: 285.0628967285156
z: -1.0579135417938232
visibility: 0.9992666244506836
","x: 221.2156982421875
y: 285.4598693847656
z: -1.058056116104126
visibility: 0.9991670846939087
","x: 173.1521759033203
y: 291.49981689453125
z: -1.0464646816253662
visibility: 0.9991878867149353
","x: 165.96839904785156
y: 294.37432861328125
z: -1.0456076860427856
visibility: 0.9992119669914246
","x: 160.5980224609375
y: 297.461181640625
z: -1.0460917949676514
visibility: 0.9992279410362244
","x: 239.6260528564453
y: 307.656494140625
z: -0.6752256155014038
visibility: 0.9993815422058105
","x: 157.55873107910156
y: 321.933349609375
z: -0.5965976119041443
visibility: 0.9995388984680176
","x: 210.71743774414062
y: 374.96826171875
z: -0.9606156349182129
visibility: 0.9996909499168396
","x: 173.81150817871094
y: 380.4642028808594
z: -0.9381152987480164
visibility: 0.9997351765632629
","x: 332.54345703125
y: 559.7037353515625
z: -0.42655831575393677
visibility: 0.9971520900726318
","x: 91.6913070678711
y: 559.28515625
z: -0.4416542649269104
visibility: 0.9990246295928955
","x: 383.8289489746094
y: 843.0911254882812
z: -0.4298815131187439
visibility: 0.10250888764858246
","x: 14.411892890930176
y: 824.098388671875
z: -0.39717045426368713
visibility: 0.22169235348701477
","x: 382.3737487792969
y: 1055.4039306640625
z: -0.8380613327026367
visibility: 0.02108515053987503
","x: 23.265735626220703
y: 1057.2645263671875
z: -0.8383522033691406
visibility: 0.07573564350605011
","x: 399.212890625
y: 1132.9456787109375
z: -0.9587821960449219
visibility: 0.03152190148830414
","x: 10.476258277893066
y: 1138.431884765625
z: -0.9697475433349609
visibility: 0.1011122614145279
","x: 370.197509765625
y: 1129.7890625
z: -1.0117499828338623
visibility: 0.05683426186442375
","x: 40.52882766723633
y: 1150.228271484375
z: -1.0617358684539795
visibility: 0.15948961675167084
","x: 360.31158447265625
y: 1098.7073974609375
z: -0.882523238658905
visibility: 0.06612034142017365
","x: 48.66716384887695
y: 1117.617431640625
z: -0.8937562108039856
visibility: 0.1753946840763092
","x: 291.06817626953125
y: 1084.3275146484375
z: -0.07709227502346039
visibility: 0.00025085234665311873
","x: 133.56829833984375
y: 1085.383056640625
z: 0.08301040530204773
visibility: 0.00034327703178860247
","x: 284.9352722167969
y: 1509.3590087890625
z: 0.13263258337974548
visibility: 7.566442218376324e-05
","x: 137.29527282714844
y: 1513.66845703125
z: 0.30016475915908813
visibility: 2.880456122511532e-05
","x: 288.6108703613281
y: 1883.2012939453125
z: 0.984261155128479
visibility: 7.223251941468334e-06
","x: 148.51925659179688
y: 1884.4752197265625
z: 0.9752861261367798
visibility: 6.140393793430121e-07
","x: 295.3235778808594
y: 1950.783203125
z: 1.0345062017440796
visibility: 6.8402528086153325e-06
","x: 148.6728515625
y: 1950.047119140625
z: 1.0275660753250122
visibility: 2.1608568658848526e-06
","x: 259.4325256347656
y: 2009.1748046875
z: 0.4089582860469818
visibility: 8.269647878478281e-06
","x: 170.62852478027344
y: 2010.439697265625
z: 0.33958011865615845
visibility: 5.729474651161581e-06
",,,,,,,,,,,,,,,,,,,,,,,,,,,,,,,,,,,,,,,,,,
7,"x: 186.83905029296875
y: 330.7574157714844
z: -1.089582085609436
visibility: 0.9997244477272034
","x: 202.20167541503906
y: 287.6147155761719
z: -1.0336930751800537
visibility: 0.9992116093635559
","x: 212.6150665283203
y: 287.4389953613281
z: -1.033700942993164
visibility: 0.999303936958313
","x: 222.35145568847656
y: 288.3041687011719
z: -1.0338795185089111
visibility: 0.9991980195045471
","x: 174.36289978027344
y: 292.15753173828125
z: -1.0268057584762573
visibility: 0.9992247819900513
","x: 167.0037078857422
y: 294.8247375488281
z: -1.0259846448898315
visibility: 0.9992562532424927
","x: 161.69497680664062
y: 297.61358642578125
z: -1.0264520645141602
visibility: 0.9992618560791016
","x: 240.03907775878906
y: 309.8034973144531
z: -0.6534335613250732
visibility: 0.9993919730186462
","x: 158.31314086914062
y: 322.0626220703125
z: -0.5797601938247681
visibility: 0.9995598196983337
","x: 211.16778564453125
y: 375.91534423828125
z: -0.9382540583610535
visibility: 0.9997057914733887
","x: 174.4313201904297
y: 380.5286865234375
z: -0.9220041036605835
visibility: 0.9997482895851135
","x: 331.668701171875
y: 559.695556640625
z: -0.38005393743515015
visibility: 0.9972519278526306
","x: 91.57321166992188
y: 559.6038208007812
z: -0.43129387497901917
visibility: 0.9990386366844177
","x: 382.2605895996094
y: 842.8713989257812
z: -0.38162246346473694
visibility: 0.09974241256713867
","x: 14.388486862182617
y: 824.0419921875
z: -0.39699795842170715
visibility: 0.23764459788799286
","x: 381.6418151855469
y: 1054.57958984375
z: -0.8173372149467468
visibility: 0.021090049296617508
","x: 23.235124588012695
y: 1057.6668701171875
z: -0.8451348543167114
visibility: 0.07479599863290787
","x: 398.20623779296875
y: 1132.7119140625
z: -0.9373987913131714
visibility: 0.03089604526758194
","x: 10.568574905395508
y: 1139.4080810546875
z: -0.9874473810195923
visibility: 0.0966913029551506
","x: 370.0183410644531
y: 1128.9559326171875
z: -0.9952683448791504
visibility: 0.055896833539009094
","x: 40.59874725341797
y: 1150.6419677734375
z: -1.0819114446640015
visibility: 0.153403177857399
","x: 360.14300537109375
y: 1098.1156005859375
z: -0.8638244867324829
visibility: 0.06427168846130371
","x: 48.55595779418945
y: 1118.259765625
z: -0.9022656679153442
visibility: 0.1679224669933319
","x: 291.07110595703125
y: 1084.3526611328125
z: -0.0755210891366005
visibility: 0.00025624551926739514
","x: 134.0974884033203
y: 1086.156494140625
z: 0.08150049299001694
visibility: 0.00034179483191110194
","x: 285.6812744140625
y: 1509.80810546875
z: 0.11970788240432739
visibility: 8.499947580276057e-05
","x: 139.4098358154297
y: 1516.179443359375
z: 0.2890068590641022
visibility: 3.290310633019544e-05
","x: 290.05877685546875
y: 1885.9095458984375
z: 0.9712855219841003
visibility: 8.706718290341087e-06
","x: 151.1287078857422
y: 1890.18212890625
z: 0.9492705464363098
visibility: 7.920321536403208e-07
","x: 296.3365173339844
y: 1954.110595703125
z: 1.0212923288345337
visibility: 8.245724529842846e-06
","x: 150.90713500976562
y: 1956.8232421875
z: 0.9985451698303223
visibility: 2.8269257654756075e-06
","x: 263.0487365722656
y: 2012.24560546875
z: 0.3827136754989624
visibility: 9.809360562940128e-06
","x: 173.91323852539062
y: 2015.42578125
z: 0.3009883463382721
visibility: 7.157623713283101e-06
",,,,,,,,,,,,,,,,,,,,,,,,,,,,,,,,,,,,,,,,,,
8,"x: 188.7967071533203
y: 333.02557373046875
z: -1.156070590019226
visibility: 0.9997321367263794
","x: 204.1820526123047
y: 289.5567626953125
z: -1.0995928049087524
visibility: 0.999232292175293
","x: 214.56564331054688
y: 289.6341857910156
z: -1.0996251106262207
visibility: 0.9993284344673157
","x: 223.86012268066406
y: 290.6777648925781
z: -1.0997974872589111
visibility: 0.9992110133171082
","x: 175.6940155029297
y: 293.3144226074219
z: -1.0962098836898804
visibility: 0.9992449283599854
","x: 168.0926055908203
y: 295.8020324707031
z: -1.0954267978668213
visibility: 0.9992873072624207
","x: 162.70785522460938
y: 298.294677734375
z: -1.0959333181381226
visibility: 0.9992812275886536
","x: 240.6593017578125
y: 312.11907958984375
z: -0.6907784938812256
visibility: 0.9993886351585388
","x: 158.6053009033203
y: 322.44091796875
z: -0.6483006477355957
visibility: 0.9995737671852112
","x: 212.52536010742188
y: 378.2207946777344
z: -0.9980446100234985
visibility: 0.9997141361236572
","x: 175.570068359375
y: 381.5324401855469
z: -0.9867979288101196
visibility: 0.9997572898864746
","x: 331.2024230957031
y: 559.6364135742188
z: -0.38624006509780884
visibility: 0.9973199963569641
","x: 91.45236206054688
y: 560.1550903320312
z: -0.47833189368247986
visibility: 0.9990368485450745
","x: 382.09454345703125
y: 842.7050170898438
z: -0.38737428188323975
visibility: 0.09740032255649567
","x: 13.813940048217773
y: 824.1344604492188
z: -0.4141618609428406
visibility: 0.2532351315021515
","x: 381.4549865722656
y: 1053.7230224609375
z: -0.830138087272644
visibility: 0.020658176392316818
","x: 22.73576545715332
y: 1059.279296875
z: -0.84718257188797
visibility: 0.07360663264989853
","x: 397.9158020019531
y: 1131.1876220703125
z: -0.9508407711982727
visibility: 0.029863780364394188
","x: 10.353104591369629
y: 1141.1217041015625
z: -0.9828976392745972
visibility: 0.09236093610525131
","x: 370.0721435546875
y: 1128.57568359375
z: -1.0129985809326172
visibility: 0.054238371551036835
","x: 40.11555480957031
y: 1152.638427734375
z: -1.0801304578781128
visibility: 0.14739760756492615
","x: 360.2062683105469
y: 1097.778076171875
z: -0.8788955807685852
visibility: 0.061731621623039246
","x: 47.57665252685547
y: 1120.49560546875
z: -0.9031867980957031
visibility: 0.1606106460094452
","x: 290.96453857421875
y: 1084.1175537109375
z: -0.07365777343511581
visibility: 0.0002605297777336091
","x: 134.11631774902344
y: 1086.2020263671875
z: 0.07939042896032333
visibility: 0.0003377178800292313
","x: 285.6936950683594
y: 1509.341796875
z: 0.1040278822183609
visibility: 0.00010557329369476065
","x: 139.82174682617188
y: 1515.84228515625
z: 0.2477411925792694
visibility: 4.051738869748078e-05
","x: 290.1888732910156
y: 1887.26220703125
z: 0.9589411616325378
visibility: 1.0950167052214965e-05
","x: 151.66604614257812
y: 1891.817138671875
z: 0.9018470644950867
visibility: 1.0564759804765345e-06
","x: 296.3520812988281
y: 1956.1998291015625
z: 1.0103013515472412
visibility: 1.0355032827646937e-05
","x: 151.3118438720703
y: 1959.2666015625
z: 0.9437216520309448
visibility: 3.6592880405805772e-06
","x: 263.77337646484375
y: 2013.79150390625
z: 0.30600613355636597
visibility: 1.2371812772471458e-05
","x: 174.8968505859375
y: 2016.0205078125
z: 0.18419376015663147
visibility: 9.005671017803252e-06
",,,,,,,,,,,,,,,,,,,,,,,,,,,,,,,,,,,,,,,,,,
9,"x: 189.28677368164062
y: 336.02740478515625
z: -1.099973440170288
visibility: 0.9997337460517883
","x: 204.9202880859375
y: 291.6082763671875
z: -1.0471158027648926
visibility: 0.9992417693138123
","x: 215.29833984375
y: 291.8213195800781
z: -1.0471208095550537
visibility: 0.9993404746055603
","x: 224.50747680664062
y: 292.864501953125
z: -1.047297477722168
visibility: 0.9992107152938843
","x: 176.250732421875
y: 294.67291259765625
z: -1.0399086475372314
visibility: 0.999254584312439
","x: 168.5609130859375
y: 296.924560546875
z: -1.0391381978988647
visibility: 0.99930739402771
","x: 163.20208740234375
y: 299.04058837890625
z: -1.0396382808685303
visibility: 0.9992901682853699
","x: 241.0830078125
y: 314.11578369140625
z: -0.6744751334190369
visibility: 0.9993780851364136
","x: 158.9346160888672
y: 322.726318359375
z: -0.6060842275619507
visibility: 0.9995800852775574
","x: 212.69618225097656
y: 381.0493469238281
z: -0.9522490501403809
visibility: 0.9997180700302124
","x: 175.8831787109375
y: 383.48828125
z: -0.9360798597335815
visibility: 0.9997625946998596
","x: 331.05108642578125
y: 559.6802368164062
z: -0.3809846043586731
visibility: 0.9973406195640564
","x: 91.34457397460938
y: 560.3089599609375
z: -0.45689845085144043
visibility: 0.9990172982215881
","x: 382.66278076171875
y: 842.5908203125
z: -0.38689088821411133
visibility: 0.09592011570930481
","x: 13.750460624694824
y: 824.0546875
z: -0.4125698506832123
visibility: 0.26265567541122437
","x: 381.8982238769531
y: 1053.07763671875
z: -0.8133605718612671
visibility: 0.020415781065821648
","x: 22.669872283935547
y: 1059.210693359375
z: -0.847944438457489
visibility: 0.07171344757080078
","x: 398.5093078613281
y: 1129.9696044921875
z: -0.9312583804130554
visibility: 0.029140133410692215
","x: 10.169479370117188
y: 1141.083251953125
z: -0.9858494997024536
visibility: 0.08817390352487564
","x: 370.93939208984375
y: 1128.7626953125
z: -0.9904502034187317
visibility: 0.05309849977493286
","x: 39.939720153808594
y: 1151.673828125
z: -1.0814948081970215
visibility: 0.14147567749023438
","x: 361.01251220703125
y: 1097.831787109375
z: -0.8599210977554321
visibility: 0.059866391122341156
","x: 47.4814453125
y: 1119.7574462890625
z: -0.903640866279602
visibility: 0.15357953310012817
","x: 290.8419189453125
y: 1084.6549072265625
z: -0.0727415382862091
visibility: 0.00026297991280443966
","x: 134.3168487548828
y: 1087.17333984375
z: 0.07854977250099182
visibility: 0.00033405053545720875
","x: 286.13275146484375
y: 1510.0880126953125
z: 0.05874456837773323
visibility: 0.00011709237878676504
","x: 141.00634765625
y: 1517.548828125
z: 0.22909410297870636
visibility: 4.495601024245843e-05
","x: 291.129638671875
y: 1890.1728515625
z: 0.869827926158905
visibility: 1.21792063509929e-05
","x: 153.44476318359375
y: 1895.6202392578125
z: 0.8234034776687622
visibility: 1.25130350170366e-06
","x: 297.14453125
y: 1959.003662109375
z: 0.9155049324035645
visibility: 1.1440826710895635e-05
","x: 153.0701904296875
y: 1963.33056640625
z: 0.8609760999679565
visibility: 4.259369234205224e-06
","x: 265.3629455566406
y: 2016.6689453125
z: 0.24867741763591766
visibility: 1.3815105376124848e-05
","x: 176.3898162841797
y: 2019.1334228515625
z: 0.13766995072364807
visibility: 1.0189452950726263e-05
",,,,,,,,,,,,,,,,,,,,,,,,,,,,,,,,,,,,,,,,,,
10,"x: 190.5052032470703
y: 336.0870056152344
z: -1.073278784751892
visibility: 0.9997487664222717
","x: 205.9591827392578
y: 292.0447082519531
z: -1.0231982469558716
visibility: 0.9992849826812744
","x: 216.39637756347656
y: 292.4712829589844
z: -1.0231592655181885
visibility: 0.9993804693222046
","x: 225.4980010986328
y: 293.6921081542969
z: -1.0233280658721924
visibility: 0.9992502331733704
","x: 177.28021240234375
y: 294.7059326171875
z: -1.0139453411102295
visibility: 0.9992972016334534
","x: 169.4572296142578
y: 297.0009765625
z: -1.013169527053833
visibility: 0.9993529319763184
","x: 164.03671264648438
y: 299.1571044921875
z: -1.0136463642120361
visibility: 0.999330461025238
","x: 242.17068481445312
y: 315.72332763671875
z: -0.6462861895561218
visibility: 0.999403715133667
","x: 159.50294494628906
y: 322.83123779296875
z: -0.5879855751991272
visibility: 0.9996052980422974
","x: 213.4459228515625
y: 381.3418273925781
z: -0.9310747385025024
visibility: 0.999732494354248
","x: 176.5872344970703
y: 383.65472412109375
z: -0.9125267863273621
visibility: 0.9997758865356445
","x: 330.9130554199219
y: 560.2648315429688
z: -0.36437925696372986
visibility: 0.9974157214164734
","x: 91.31973266601562
y: 560.527587890625
z: -0.44658827781677246
visibility: 0.999042272567749
","x: 382.330322265625
y: 843.01318359375
z: -0.38887572288513184
visibility: 0.09273684769868851
","x: 13.508732795715332
y: 823.3157958984375
z: -0.4182945787906647
visibility: 0.26433348655700684
","x: 379.74346923828125
y: 1052.6048583984375
z: -0.8233504295349121
visibility: 0.020678319036960602
","x: 22.62541389465332
y: 1059.134765625
z: -0.91014164686203
visibility: 0.0712377205491066
","x: 395.4062805175781
y: 1129.131103515625
z: -0.9457755088806152
visibility: 0.02930581569671631
","x: 10.085983276367188
y: 1141.0426025390625
z: -1.0504052639007568
visibility: 0.08614630997180939
","x: 367.7908935546875
y: 1128.67236328125
z: -0.9988840818405151
visibility: 0.05351505056023598
","x: 39.81837844848633
y: 1151.1265869140625
z: -1.1339194774627686
visibility: 0.13905934989452362
","x: 358.10076904296875
y: 1097.710693359375
z: -0.8691253662109375
visibility: 0.05965818092226982
","x: 47.42519760131836
y: 1119.2744140625
z: -0.9641537666320801
visibility: 0.15020376443862915
","x: 290.82958984375
y: 1084.6070556640625
z: -0.07255919277667999
visibility: 0.00026389225968159735
","x: 134.30294799804688
y: 1087.125732421875
z: 0.07840652763843536
visibility: 0.00033204606734216213
","x: 285.9880065917969
y: 1510.012451171875
z: 0.0840047299861908
visibility: 0.00011892618931597099
","x: 140.94607543945312
y: 1517.33203125
z: 0.2320101261138916
visibility: 4.477764741750434e-05
","x: 290.4698791503906
y: 1889.2022705078125
z: 0.9214984178543091
visibility: 1.2518109542725142e-05
","x: 152.9135284423828
y: 1894.2340087890625
z: 0.8525716066360474
visibility: 1.2600484069480444e-06
","x: 296.1469421386719
y: 1958.1085205078125
z: 0.9708371162414551
visibility: 1.1842103958770167e-05
","x: 152.3710479736328
y: 1962.34814453125
z: 0.8965699076652527
visibility: 4.285957857064204e-06
","x: 264.9914245605469
y: 2015.575439453125
z: 0.33382442593574524
visibility: 1.4336428648675792e-05
","x: 175.7749786376953
y: 2017.6923828125
z: 0.1900416910648346
visibility: 1.0430816473672166e-05
",,,,,,,,,,,,,,,,,,,,,,,,,,,,,,,,,,,,,,,,,,
11,"x: 192.5361328125
y: 336.4157409667969
z: -1.06110417842865
visibility: 0.9997650384902954
","x: 208.2623748779297
y: 292.52593994140625
z: -1.0117480754852295
visibility: 0.9993297457695007
","x: 218.59988403320312
y: 293.1624755859375
z: -1.0116991996765137
visibility: 0.9994201064109802
","x: 227.15731811523438
y: 294.56304931640625
z: -1.0118639469146729
visibility: 0.999291181564331
","x: 179.03443908691406
y: 295.01629638671875
z: -1.002148985862732
visibility: 0.9993436932563782
","x: 170.76412963867188
y: 297.2123107910156
z: -1.0013757944107056
visibility: 0.9993999004364014
","x: 164.94589233398438
y: 299.3022766113281
z: -1.0018309354782104
visibility: 0.9993751645088196
","x: 243.90023803710938
y: 317.1410217285156
z: -0.6395124197006226
visibility: 0.9994315505027771
","x: 160.02981567382812
y: 322.9368591308594
z: -0.5794053673744202
visibility: 0.9996331930160522
","x: 214.86300659179688
y: 381.9849853515625
z: -0.9205759763717651
visibility: 0.9997472763061523
","x: 177.7619171142578
y: 383.9634704589844
z: -0.9020813703536987
visibility: 0.9997903108596802
","x: 330.5939636230469
y: 560.3929443359375
z: -0.3638112545013428
visibility: 0.9974286556243896
","x: 91.41516876220703
y: 560.1469116210938
z: -0.440471887588501
visibility: 0.9990735650062561
","x: 385.639404296875
y: 837.606689453125
z: -0.3934357762336731
visibility: 0.09017574787139893
","x: 12.304365158081055
y: 819.6991577148438
z: -0.47949662804603577
visibility: 0.2653523087501526
","x: 385.6780700683594
y: 1048.6806640625
z: -0.830142617225647
visibility: 0.02175930328667164
","x: 21.324016571044922
y: 1055.2357177734375
z: -1.058498740196228
visibility: 0.07452387362718582
","x: 403.68170166015625
y: 1123.93408203125
z: -0.9529876708984375
visibility: 0.030852612107992172
","x: 7.3834991455078125
y: 1137.38720703125
z: -1.2062056064605713
visibility: 0.0891326367855072
","x: 374.7067565917969
y: 1126.57568359375
z: -1.001994252204895
visibility: 0.05614687502384186
","x: 39.214691162109375
y: 1145.90185546875
z: -1.284319281578064
visibility: 0.14418451488018036
","x: 363.5616455078125
y: 1096.3795166015625
z: -0.8750313520431519
visibility: 0.06219641864299774
","x: 47.12049865722656
y: 1114.5655517578125
z: -1.1128942966461182
visibility: 0.15484732389450073
","x: 290.7706604003906
y: 1083.1763916015625
z: -0.07053922861814499
visibility: 0.0002626072964631021
","x: 133.99130249023438
y: 1084.64453125
z: 0.07644261419773102
visibility: 0.0003277288924437016
","x: 285.718994140625
y: 1509.86181640625
z: 0.13408687710762024
visibility: 0.00011498828826006502
","x: 140.2447967529297
y: 1516.93798828125
z: 0.3118630349636078
visibility: 4.279256609152071e-05
","x: 289.36956787109375
y: 1888.751708984375
z: 0.9894267916679382
visibility: 1.2398105354805011e-05
","x: 151.60678100585938
y: 1890.9130859375
z: 1.0218266248703003
visibility: 1.2054350690959836e-06
","x: 294.6940002441406
y: 1957.931640625
z: 1.039580225944519
visibility: 1.1668928891594987e-05
","x: 150.8397979736328
y: 1957.50830078125
z: 1.0760308504104614
visibility: 4.10947177442722e-06
","x: 263.91522216796875
y: 2012.70654296875
z: 0.4075530469417572
visibility: 1.4170586837281007e-05
","x: 175.1014862060547
y: 2015.7818603515625
z: 0.3848342299461365
visibility: 1.0128479516424704e-05
",,,,,,,,,,,,,,,,,,,,,,,,,,,,,,,,,,,,,,,,,,
12,"x: 194.746826171875
y: 336.4254455566406
z: -1.1063035726547241
visibility: 0.9997749328613281
","x: 210.1758270263672
y: 292.66796875
z: -1.0452773571014404
visibility: 0.9993575215339661
","x: 220.2293243408203
y: 293.4835205078125
z: -1.0452371835708618
visibility: 0.9994454979896545
","x: 228.4038543701172
y: 295.07159423828125
z: -1.0454649925231934
visibility: 0.9993153810501099
","x: 181.42529296875
y: 295.10198974609375
z: -1.0397124290466309
visibility: 0.9993695616722107
","x: 172.95858764648438
y: 297.310302734375
z: -1.0389349460601807
visibility: 0.9994284510612488
","x: 166.45767211914062
y: 299.4112243652344
z: -1.0393848419189453
visibility: 0.9993976354598999
","x: 245.29318237304688
y: 318.43377685546875
z: -0.6389301419258118
visibility: 0.9994428753852844
","x: 161.37156677246094
y: 323.0337219238281
z: -0.5870558619499207
visibility: 0.9996455311775208
","x: 216.1560516357422
y: 382.1533508300781
z: -0.9504991769790649
visibility: 0.9997583627700806
","x: 179.1695098876953
y: 384.0980529785156
z: -0.937061607837677
visibility: 0.9997987747192383
","x: 330.61175537109375
y: 560.6720581054688
z: -0.3651094436645508
visibility: 0.9975247979164124
","x: 91.50021362304688
y: 560.1258544921875
z: -0.4363951086997986
visibility: 0.9990898370742798
","x: 389.2720642089844
y: 837.2447509765625
z: -0.3949544429779053
visibility: 0.09156949818134308
","x: 12.184000015258789
y: 819.7171020507812
z: -0.4641294479370117
visibility: 0.2738495469093323
","x: 393.3231201171875
y: 1048.563232421875
z: -0.852996826171875
visibility: 0.022541675716638565
","x: 20.115873336791992
y: 1054.8985595703125
z: -1.0291335582733154
visibility: 0.07530923187732697
","x: 412.118896484375
y: 1123.7999267578125
z: -0.9754779934883118
visibility: 0.031018177047371864
","x: 5.903223991394043
y: 1137.0897216796875
z: -1.1719237565994263
visibility: 0.08747274428606033
","x: 383.0515441894531
y: 1127.9100341796875
z: -1.0313751697540283
visibility: 0.0565325990319252
","x: 37.91004180908203
y: 1145.7811279296875
z: -1.2555572986602783
visibility: 0.14205381274223328
","x: 372.052001953125
y: 1097.4830322265625
z: -0.8999959826469421
visibility: 0.06205981224775314
","x: 45.410804748535156
y: 1114.472412109375
z: -1.0849435329437256
visibility: 0.15202097594738007
","x: 291.365478515625
y: 1083.22998046875
z: -0.07220172137022018
visibility: 0.0002688955282792449
","x: 134.4070587158203
y: 1084.785888671875
z: 0.07820151746273041
visibility: 0.00033068275661207736
","x: 286.5736389160156
y: 1511.064208984375
z: 0.13108502328395844
visibility: 0.00011331569839967415
","x: 140.4019012451172
y: 1517.511962890625
z: 0.34729957580566406
visibility: 4.2465300793992355e-05
","x: 290.0709228515625
y: 1888.6375732421875
z: 1.0153424739837646
visibility: 1.2367957424430642e-05
","x: 151.6892547607422
y: 1891.3433837890625
z: 1.0887410640716553
visibility: 1.2160359119661734e-06
","x: 295.21844482421875
y: 1958.22509765625
z: 1.0682045221328735
visibility: 1.166830406873487e-05
","x: 150.82760620117188
y: 1958.6781005859375
z: 1.1451115608215332
visibility: 4.15767726735794e-06
","x: 265.3724060058594
y: 2012.8990478515625
z: 0.4144924283027649
visibility: 1.4237485629564617e-05
","x: 176.12684631347656
y: 2016.869140625
z: 0.4317778944969177
visibility: 1.0317756277800072e-05
",,,,,,,,,,,,,,,,,,,,,,,,,,,,,,,,,,,,,,,,,,
13,"x: 197.3616485595703
y: 335.9485168457031
z: -1.081629753112793
visibility: 0.9997870326042175
","x: 212.28073120117188
y: 292.6523132324219
z: -1.0096349716186523
visibility: 0.999391496181488
","x: 222.156494140625
y: 293.4917297363281
z: -1.0096157789230347
visibility: 0.9994773864746094
","x: 229.94888305664062
y: 295.13751220703125
z: -1.0098206996917725
visibility: 0.999346137046814
","x: 183.48452758789062
y: 294.98846435546875
z: -1.016007661819458
visibility: 0.9994048476219177
","x: 174.73016357421875
y: 297.0926818847656
z: -1.0151870250701904
visibility: 0.9994664788246155
","x: 167.62887573242188
y: 299.1863708496094
z: -1.01555335521698
visibility: 0.9994326829910278
","x: 246.68348693847656
y: 318.8839416503906
z: -0.5995885133743286
visibility: 0.9994633197784424
","x: 161.81983947753906
y: 322.818359375
z: -0.5856536626815796
visibility: 0.9996672868728638
","x: 218.41891479492188
y: 382.21978759765625
z: -0.9230269193649292
visibility: 0.9997676014900208
","x: 181.09609985351562
y: 383.96966552734375
z: -0.9269310235977173
visibility: 0.9998089075088501
","x: 330.5093688964844
y: 560.9964599609375
z: -0.34296876192092896
visibility: 0.9975419640541077
","x: 91.13419342041016
y: 560.0810546875
z: -0.4338935315608978
visibility: 0.9991092681884766
","x: 389.5094299316406
y: 836.32177734375
z: -0.37068191170692444
visibility: 0.08868551254272461
","x: 11.632583618164062
y: 820.2368774414062
z: -0.44197505712509155
visibility: 0.27500948309898376
","x: 393.0975036621094
y: 1048.2845458984375
z: -0.8198822736740112
visibility: 0.022075150161981583
","x: 20.03687286376953
y: 1054.82470703125
z: -0.9403201937675476
visibility: 0.07407774031162262
","x: 411.6224670410156
y: 1123.6536865234375
z: -0.9396860003471375
visibility: 0.03038816526532173
","x: 5.865584373474121
y: 1136.80615234375
z: -1.068939208984375
visibility: 0.08561601489782333
","x: 382.2431335449219
y: 1127.895751953125
z: -0.9944456815719604
visibility: 0.05559338629245758
","x: 37.875553131103516
y: 1145.70166015625
z: -1.1515122652053833
visibility: 0.13993477821350098
","x: 371.427734375
y: 1097.3514404296875
z: -0.8684364557266235
visibility: 0.060713622719049454
","x: 45.37667465209961
y: 1114.2337646484375
z: -0.9922698736190796
visibility: 0.14894269406795502
","x: 290.70672607421875
y: 1083.3984375
z: -0.07018144428730011
visibility: 0.00025864996132440865
","x: 133.74966430664062
y: 1084.7750244140625
z: 0.0762295052409172
visibility: 0.0003160019696224481
","x: 285.43194580078125
y: 1510.866455078125
z: 0.07336834818124771
visibility: 0.00011149832425871864
","x: 138.99456787109375
y: 1517.1375732421875
z: 0.3117429316043854
visibility: 4.153207191848196e-05
","x: 287.2120056152344
y: 1888.011962890625
z: 0.8740776777267456
visibility: 1.2515531125245616e-05
","x: 148.45399475097656
y: 1890.55126953125
z: 0.9023361206054688
visibility: 1.2122382031520829e-06
","x: 292.0583190917969
y: 1957.45751953125
z: 0.9191180467605591
visibility: 1.1828147762571461e-05
","x: 146.84715270996094
y: 1957.9140625
z: 0.9419061541557312
visibility: 4.1576226976758335e-06
","x: 261.8175354003906
y: 2012.4688720703125
z: 0.2912997007369995
visibility: 1.4650342563982122e-05
","x: 172.45176696777344
y: 2016.34326171875
z: 0.25752323865890503
visibility: 1.0320193723600823e-05
",,,,,,,,,,,,,,,,,,,,,,,,,,,,,,,,,,,,,,,,,,
14,"x: 198.7241668701172
y: 334.7918395996094
z: -1.072656512260437
visibility: 0.999799370765686
","x: 213.5790252685547
y: 292.3153991699219
z: -1.0067580938339233
visibility: 0.9994248747825623
","x: 223.47027587890625
y: 293.2613220214844
z: -1.0067269802093506
visibility: 0.9995079040527344
","x: 231.0972900390625
y: 294.9873046875
z: -1.006920576095581
visibility: 0.9993777275085449
","x: 184.3571319580078
y: 294.5918884277344
z: -1.009028673171997
visibility: 0.9994388222694397
","x: 175.46859741210938
y: 296.6306457519531
z: -1.0082241296768188
visibility: 0.9995014071464539
","x: 168.11976623535156
y: 298.7135009765625
z: -1.0086125135421753
visibility: 0.9994651079177856
","x: 248.24752807617188
y: 318.88616943359375
z: -0.5988398194313049
visibility: 0.999485194683075
","x: 161.98550415039062
y: 322.4023132324219
z: -0.58275306224823
visibility: 0.9996871948242188
","x: 219.7339324951172
y: 381.8812255859375
z: -0.9192566871643066
visibility: 0.9997779130935669
","x: 182.02957153320312
y: 383.2080078125
z: -0.9169265031814575
visibility: 0.9998189210891724
","x: 330.5951232910156
y: 561.482666015625
z: -0.3414797782897949
visibility: 0.9975781440734863
","x: 91.03805541992188
y: 560.0992431640625
z: -0.44081911444664
visibility: 0.999117910861969
","x: 391.4922180175781
y: 836.320556640625
z: -0.34809109568595886
visibility: 0.08702336251735687
","x: 10.928386688232422
y: 821.36767578125
z: -0.441469669342041
visibility: 0.27388811111450195
","x: 397.35406494140625
y: 1049.7232666015625
z: -0.7644155621528625
visibility: 0.02197663113474846
","x: 19.42612648010254
y: 1055.0780029296875
z: -0.9393445253372192
visibility: 0.07316143065690994
","x: 416.8053283691406
y: 1126.5382080078125
z: -0.8788681030273438
visibility: 0.030119122937321663
","x: 5.181087493896484
y: 1136.924072265625
z: -1.0692434310913086
visibility: 0.08398467302322388
","x: 386.529052734375
y: 1132.74365234375
z: -0.9367358088493347
visibility: 0.05533404275774956
","x: 37.43537139892578
y: 1146.146484375
z: -1.1515830755233765
visibility: 0.13806875050067902
","x: 375.7090759277344
y: 1101.006103515625
z: -0.8132451176643372
visibility: 0.06023162975907326
","x: 44.84639358520508
y: 1114.59619140625
z: -0.9918516278266907
visibility: 0.1465187966823578
","x: 290.67926025390625
y: 1085.579345703125
z: -0.06585046648979187
visibility: 0.00025382963940501213
","x: 133.4761199951172
y: 1086.821533203125
z: 0.0720256119966507
visibility: 0.0003068947698920965
","x: 285.4402160644531
y: 1513.6817626953125
z: 0.08975265920162201
visibility: 0.00010905936505878344
","x: 138.8613739013672
y: 1520.24853515625
z: 0.3036864399909973
visibility: 4.020762207801454e-05
","x: 287.2510070800781
y: 1891.0560302734375
z: 0.9268410801887512
visibility: 1.2242670891282614e-05
","x: 148.37042236328125
y: 1892.94189453125
z: 0.9550319910049438
visibility: 1.1778072348533897e-06
","x: 292.12738037109375
y: 1961.609375
z: 0.9765192270278931
visibility: 1.1626481864368543e-05
","x: 146.76779174804688
y: 1961.23388671875
z: 1.0029101371765137
visibility: 4.035121492051985e-06
","x: 261.8529968261719
y: 2015.4200439453125
z: 0.3514575660228729
visibility: 1.4537838978867512e-05
","x: 172.48440551757812
y: 2018.312255859375
z: 0.31980130076408386
visibility: 1.0078944796987344e-05
",,,,,,,,,,,,,,,,,,,,,,,,,,,,,,,,,,,,,,,,,,
15,"x: 200.7896728515625
y: 334.01739501953125
z: -1.0708260536193848
visibility: 0.9998089075088501
","x: 215.3406982421875
y: 292.1133117675781
z: -1.005597710609436
visibility: 0.9994505047798157
","x: 225.03854370117188
y: 293.1239013671875
z: -1.0055620670318604
visibility: 0.9995313286781311
","x: 232.57984924316406
y: 294.9141845703125
z: -1.0057387351989746
visibility: 0.9993996024131775
","x: 185.89474487304688
y: 294.4675598144531
z: -1.0079373121261597
visibility: 0.9994662404060364
","x: 176.7672882080078
y: 296.54730224609375
z: -1.0071768760681152
visibility: 0.9995309114456177
","x: 169.01158142089844
y: 298.698974609375
z: -1.0075901746749878
visibility: 0.9994924664497375
","x: 250.1385498046875
y: 318.995849609375
z: -0.5981762409210205
visibility: 0.9994969964027405
","x: 162.37957763671875
y: 322.4340515136719
z: -0.5860899090766907
visibility: 0.9997044205665588
","x: 221.91131591796875
y: 381.7261047363281
z: -0.9184090495109558
visibility: 0.9997845888137817
","x: 184.16351318359375
y: 383.0775451660156
z: -0.9160996675491333
visibility: 0.9998270273208618
","x: 330.8501281738281
y: 562.3680419921875
z: -0.33387380838394165
visibility: 0.9975360631942749
","x: 91.0197982788086
y: 559.9817504882812
z: -0.44632887840270996
visibility: 0.9991111159324646
","x: 393.01971435546875
y: 835.876220703125
z: -0.33111709356307983
visibility: 0.085286445915699
","x: 10.359245300292969
y: 821.3638916015625
z: -0.45492416620254517
visibility: 0.27273425459861755
","x: 399.2150573730469
y: 1049.3406982421875
z: -0.7442922592163086
visibility: 0.02217537723481655
","x: 19.55025863647461
y: 1054.2955322265625
z: -0.9764491319656372
visibility: 0.07377806305885315
","x: 418.5328674316406
y: 1126.37353515625
z: -0.8581571578979492
visibility: 0.03046070970594883
","x: 5.634206295013428
y: 1136.20068359375
z: -1.1139103174209595
visibility: 0.0845046117901802
","x: 388.60321044921875
y: 1132.54248046875
z: -0.9143427014350891
visibility: 0.0559970997273922
","x: 38.11334228515625
y: 1144.6531982421875
z: -1.1927664279937744
visibility: 0.1392449587583542
","x: 377.683837890625
y: 1100.69970703125
z: -0.7920095324516296
visibility: 0.06055281683802605
","x: 45.42631149291992
y: 1113.023193359375
z: -1.0286529064178467
visibility: 0.14687176048755646
","x: 290.6123352050781
y: 1085.7010498046875
z: -0.06162778288125992
visibility: 0.00024547590874135494
","x: 133.01571655273438
y: 1086.8480224609375
z: 0.06778166443109512
visibility: 0.0002944792795460671
","x: 285.4495849609375
y: 1513.825927734375
z: 0.11145548522472382
visibility: 0.00010671658674255013
","x: 138.85806274414062
y: 1519.980712890625
z: 0.2963341176509857
visibility: 3.905858829966746e-05
","x: 287.21636962890625
y: 1890.8880615234375
z: 0.9603092074394226
visibility: 1.2157403944001999e-05
","x: 148.333740234375
y: 1892.36083984375
z: 0.972399890422821
visibility: 1.1629397249635076e-06
","x: 292.01690673828125
y: 1961.222900390625
z: 1.0094667673110962
visibility: 1.1418630492698867e-05
","x: 146.6352996826172
y: 1960.6531982421875
z: 1.023069143295288
visibility: 3.952663973905146e-06
","x: 261.91412353515625
y: 2015.0009765625
z: 0.3800301253795624
visibility: 1.4692242075398099e-05
","x: 172.76544189453125
y: 2017.7257080078125
z: 0.3345450162887573
visibility: 1.006947786663659e-05
",,,,,,,,,,,,,,,,,,,,,,,,,,,,,,,,,,,,,,,,,,
16,"x: 202.1204833984375
y: 334.0043640136719
z: -1.0846896171569824
visibility: 0.9998189806938171
","x: 216.63662719726562
y: 292.1789855957031
z: -1.02059006690979
visibility: 0.9994767308235168
","x: 226.08663940429688
y: 293.23480224609375
z: -1.0204955339431763
visibility: 0.9995546340942383
","x: 233.5411376953125
y: 295.0677185058594
z: -1.0206551551818848
visibility: 0.9994238615036011
","x: 187.2279510498047
y: 294.48577880859375
z: -1.023011326789856
visibility: 0.9994938373565674
","x: 177.89279174804688
y: 296.574462890625
z: -1.0222506523132324
visibility: 0.9995588660240173
","x: 169.80975341796875
y: 298.7297668457031
z: -1.02263605594635
visibility: 0.9995191693305969
","x: 250.9673309326172
y: 319.58270263671875
z: -0.6125447750091553
visibility: 0.9995126128196716
","x: 162.68592834472656
y: 322.4950866699219
z: -0.6030818223953247
visibility: 0.9997209310531616
","x: 222.9214324951172
y: 381.7433166503906
z: -0.9332329630851746
visibility: 0.9997938275337219
","x: 185.27732849121094
y: 383.1126403808594
z: -0.9303476214408875
visibility: 0.9998362064361572
","x: 330.8521423339844
y: 563.1859741210938
z: -0.34080010652542114
visibility: 0.9975665211677551
","x: 91.01199340820312
y: 559.7352905273438
z: -0.46180033683776855
visibility: 0.9991239905357361
","x: 394.8271179199219
y: 833.1897583007812
z: -0.33834075927734375
visibility: 0.08502212166786194
","x: 10.263882637023926
y: 821.3821411132812
z: -0.48935598134994507
visibility: 0.2751709520816803
","x: 405.0515441894531
y: 1048.8026123046875
z: -0.7286806106567383
visibility: 0.022664658725261688
","x: 19.414508819580078
y: 1052.4644775390625
z: -1.0282166004180908
visibility: 0.07469763606786728
","x: 426.8639831542969
y: 1125.962646484375
z: -0.8425353169441223
visibility: 0.03094642609357834
","x: 5.411222457885742
y: 1133.639404296875
z: -1.16855788230896
visibility: 0.08499820530414581
","x: 396.3450012207031
y: 1132.2728271484375
z: -0.8998894691467285
visibility: 0.05687922239303589
","x: 37.94062042236328
y: 1141.29638671875
z: -1.255086898803711
visibility: 0.1403813362121582
","x: 384.4219970703125
y: 1100.5006103515625
z: -0.7764712572097778
visibility: 0.06149514019489288
","x: 45.29764938354492
y: 1110.20703125
z: -1.0845757722854614
visibility: 0.14787356555461884
","x: 290.5932312011719
y: 1086.076904296875
z: -0.05817384272813797
visibility: 0.00024513580137863755
","x: 132.83587646484375
y: 1087.1949462890625
z: 0.06438364088535309
visibility: 0.0002898436214309186
","x: 285.4747009277344
y: 1514.5289306640625
z: 0.1416369378566742
visibility: 0.00010439405014039949
","x: 138.7676544189453
y: 1520.837890625
z: 0.3077767491340637
visibility: 3.786835077335127e-05
","x: 287.3465576171875
y: 1891.960693359375
z: 1.006500005722046
visibility: 1.1976387213508133e-05
","x: 148.3342742919922
y: 1892.6561279296875
z: 1.01646089553833
visibility: 1.1309031151540694e-06
","x: 292.0975646972656
y: 1962.75732421875
z: 1.0564305782318115
visibility: 1.1189496035513002e-05
","x: 146.6508026123047
y: 1960.70947265625
z: 1.0698240995407104
visibility: 3.837514668703079e-06
","x: 262.2809143066406
y: 2015.4429931640625
z: 0.4198218882083893
visibility: 1.4539866242557764e-05
","x: 172.96839904785156
y: 2018.24560546875
z: 0.37461596727371216
visibility: 9.863724699243903e-06
",,,,,,,,,,,,,,,,,,,,,,,,,,,,,,,,,,,,,,,,,,
17,"x: 202.09210205078125
y: 333.5853576660156
z: -1.0796620845794678
visibility: 0.9998253583908081
","x: 216.807373046875
y: 292.121337890625
z: -1.0179517269134521
visibility: 0.9994942545890808
","x: 226.33099365234375
y: 293.21673583984375
z: -1.0178449153900146
visibility: 0.9995726943016052
","x: 233.79371643066406
y: 295.0655822753906
z: -1.0180079936981201
visibility: 0.9994387626647949
","x: 187.2975311279297
y: 294.3890380859375
z: -1.0182832479476929
visibility: 0.9995121359825134
","x: 177.97984313964844
y: 296.4514465332031
z: -1.0175199508666992
visibility: 0.9995805621147156
","x: 169.902099609375
y: 298.61602783203125
z: -1.0179108381271362
visibility: 0.9995368123054504
","x: 251.27886962890625
y: 319.7888488769531
z: -0.6078359484672546
visibility: 0.9995235204696655
","x: 162.7471160888672
y: 322.48974609375
z: -0.5983445644378662
visibility: 0.999733567237854
","x: 223.0738067626953
y: 381.6906433105469
z: -0.9312459230422974
visibility: 0.9997991323471069
","x: 185.21543884277344
y: 382.87921142578125
z: -0.9247986078262329
visibility: 0.9998414516448975
","x: 331.34490966796875
y: 564.112060546875
z: -0.3278578221797943
visibility: 0.9975787401199341
","x: 91.00167083740234
y: 559.266357421875
z: -0.45744791626930237
visibility: 0.9991304278373718
","x: 394.02557373046875
y: 838.9444580078125
z: -0.311890184879303
visibility: 0.0837024673819542
","x: 9.60251235961914
y: 821.0324096679688
z: -0.46894359588623047
visibility: 0.2770729064941406
","x: 398.7960205078125
y: 1052.9542236328125
z: -0.7139188647270203
visibility: 0.022105172276496887
","x: 18.444774627685547
y: 1052.2855224609375
z: -0.9621180295944214
visibility: 0.0738842710852623
","x: 415.87530517578125
y: 1130.7752685546875
z: -0.824241042137146
visibility: 0.030137790367007256
","x: 4.502079010009766
y: 1133.545654296875
z: -1.0953975915908813
visibility: 0.08341022580862045
","x: 387.4609680175781
y: 1136.7115478515625
z: -0.8814544677734375
visibility: 0.055539753288030624
","x: 36.8853759765625
y: 1141.455078125
z: -1.1742489337921143
visibility: 0.13814610242843628
","x: 377.51385498046875
y: 1103.827880859375
z: -0.7609524726867676
visibility: 0.05970150977373123
","x: 44.11962890625
y: 1110.2366943359375
z: -1.0136834383010864
visibility: 0.1449083685874939
","x: 289.5657653808594
y: 1086.2257080078125
z: -0.05717490240931511
visibility: 0.00024208259128499776
","x: 132.0230255126953
y: 1087.1866455078125
z: 0.06338337063789368
visibility: 0.00028354869573377073
","x: 283.3055419921875
y: 1514.441162109375
z: 0.06468579918146133
visibility: 0.000107046369521413
","x: 136.3704376220703
y: 1520.6409912109375
z: 0.2875044345855713
visibility: 3.802480568992905e-05
","x: 284.4048767089844
y: 1892.080810546875
z: 0.8622505068778992
visibility: 1.2349315511528403e-05
","x: 145.78663635253906
y: 1892.69189453125
z: 0.9439549446105957
visibility: 1.1601938467720174e-06
","x: 288.8739929199219
y: 1962.70654296875
z: 0.906582236289978
visibility: 1.14947752081207e-05
","x: 144.09999084472656
y: 1960.8343505859375
z: 0.9896389245986938
visibility: 3.902197022398468e-06
","x: 259.4218444824219
y: 2015.61572265625
z: 0.2648279070854187
visibility: 1.5241925211739726e-05
","x: 170.5522918701172
y: 2017.8863525390625
z: 0.2915496230125427
visibility: 1.0056600331154186e-05
",,,,,,,,,,,,,,,,,,,,,,,,,,,,,,,,,,,,,,,,,,
18,"x: 201.82838439941406
y: 334.0932922363281
z: -1.098029375076294
visibility: 0.9998307824134827
","x: 216.72491455078125
y: 292.4158935546875
z: -1.0353906154632568
visibility: 0.9995051622390747
","x: 226.3007354736328
y: 293.570068359375
z: -1.0353333950042725
visibility: 0.9995850920677185
","x: 233.7909393310547
y: 295.4569091796875
z: -1.0354831218719482
visibility: 0.9994440674781799
","x: 187.1566925048828
y: 294.63385009765625
z: -1.0359258651733398
visibility: 0.9995254278182983
","x: 177.88021850585938
y: 296.62799072265625
z: -1.035187840461731
visibility: 0.9995983242988586
","x: 169.86703491210938
y: 298.81829833984375
z: -1.0356342792510986
visibility: 0.9995502829551697
","x: 251.28195190429688
y: 320.5220947265625
z: -0.6206610798835754
visibility: 0.9995235800743103
","x: 162.79542541503906
y: 322.81964111328125
z: -0.6054959297180176
visibility: 0.9997435808181763
","x: 222.91136169433594
y: 382.3002624511719
z: -0.9448733329772949
visibility: 0.9998025894165039
","x: 185.04769897460938
y: 383.4214782714844
z: -0.9387584924697876
visibility: 0.9998462200164795
","x: 331.3504638671875
y: 564.9398193359375
z: -0.331069678068161
visibility: 0.9975365400314331
","x: 91.01570129394531
y: 559.09521484375
z: -0.4611609876155853
visibility: 0.9991327524185181
","x: 394.2228088378906
y: 837.00048828125
z: -0.32392752170562744
visibility: 0.08254317939281464
","x: 9.539490699768066
y: 821.23095703125
z: -0.500067949295044
visibility: 0.2792712152004242
","x: 399.94012451171875
y: 1052.2508544921875
z: -0.7798752784729004
visibility: 0.021891308948397636
","x: 16.578327178955078
y: 1052.121826171875
z: -1.0446081161499023
visibility: 0.07521834969520569
","x: 418.69073486328125
y: 1130.6932373046875
z: -0.8940118551254272
visibility: 0.029855191707611084
","x: 1.5375072956085205
y: 1133.347412109375
z: -1.1836615800857544
visibility: 0.08409354090690613
","x: 389.3616943359375
y: 1136.3258056640625
z: -0.9545676112174988
visibility: 0.05511946603655815
","x: 33.8099365234375
y: 1141.35791015625
z: -1.2663921117782593
visibility: 0.13943743705749512
","x: 378.8019104003906
y: 1103.5740966796875
z: -0.8289552927017212
visibility: 0.059030842036008835
","x: 41.660980224609375
y: 1110.176513671875
z: -1.0982625484466553
visibility: 0.1456647515296936
","x: 288.90228271484375
y: 1086.2352294921875
z: -0.05579834058880806
visibility: 0.00024082980235107243
","x: 131.38766479492188
y: 1086.96533203125
z: 0.06195468828082085
visibility: 0.0002776652399916202
","x: 281.9664001464844
y: 1514.371826171875
z: 0.06877768784761429
visibility: 0.00010943099186988547
","x: 134.8806610107422
y: 1520.5762939453125
z: 0.28696614503860474
visibility: 3.8414171285694465e-05
","x: 282.6988525390625
y: 1891.8677978515625
z: 0.8782931566238403
visibility: 1.3288844456837978e-05
","x: 143.8735809326172
y: 1892.3558349609375
z: 0.9531505703926086
visibility: 1.2203717005832004e-06
","x: 287.11419677734375
y: 1962.4168701171875
z: 0.9241407513618469
visibility: 1.2101701940991916e-05
","x: 141.98052978515625
y: 1960.0311279296875
z: 1.0003069639205933
visibility: 4.081367933395086e-06
","x: 257.4813537597656
y: 2015.5682373046875
z: 0.2817797064781189
visibility: 1.6202591723413207e-05
","x: 169.2721710205078
y: 2017.6279296875
z: 0.2967635691165924
visibility: 1.0511058462725487e-05
",,,,,,,,,,,,,,,,,,,,,,,,,,,,,,,,,,,,,,,,,,
19,"x: 202.18429565429688
y: 334.83355712890625
z: -1.0924766063690186
visibility: 0.9998377561569214
","x: 216.9303436279297
y: 292.8210754394531
z: -1.0304993391036987
visibility: 0.999528169631958
","x: 226.42196655273438
y: 293.9482421875
z: -1.0304371118545532
visibility: 0.9996033906936646
","x: 233.8297576904297
y: 295.7827453613281
z: -1.0305793285369873
visibility: 0.9994687438011169
","x: 187.4146270751953
y: 295.070068359375
z: -1.0301949977874756
visibility: 0.9995469450950623
","x: 178.1298065185547
y: 296.9668273925781
z: -1.0294517278671265
visibility: 0.9996169805526733
","x: 170.04881286621094
y: 299.1834716796875
z: -1.029895544052124
visibility: 0.9995699524879456
","x: 251.22564697265625
y: 320.855224609375
z: -0.6131560802459717
visibility: 0.9995397925376892
","x: 162.88990783691406
y: 323.11328125
z: -0.5990786552429199
visibility: 0.9997528791427612
","x: 223.05374145507812
y: 382.7462463378906
z: -0.9403155446052551
visibility: 0.9998108744621277
","x: 185.26165771484375
y: 384.0093688964844
z: -0.9332669377326965
visibility: 0.9998522400856018
","x: 331.55596923828125
y: 565.593994140625
z: -0.3336244523525238
visibility: 0.9976091980934143
","x: 90.90892791748047
y: 559.3074951171875
z: -0.4465160369873047
visibility: 0.9991332292556763
","x: 394.8037109375
y: 838.42724609375
z: -0.33163323998451233
visibility: 0.08253730833530426
","x: 10.064486503601074
y: 829.7525024414062
z: -0.45893675088882446
visibility: 0.28140512108802795
","x: 400.73297119140625
y: 1055.731689453125
z: -0.7704270482063293
visibility: 0.02181597426533699
","x: 17.768449783325195
y: 1057.9130859375
z: -1.0347925424575806
visibility: 0.0729936957359314
","x: 419.9681091308594
y: 1134.4932861328125
z: -0.8854330778121948
visibility: 0.029369357973337173
","x: 3.723695993423462
y: 1139.1243896484375
z: -1.1813706159591675
visibility: 0.08095373213291168
","x: 389.9638977050781
y: 1141.4814453125
z: -0.9463947415351868
visibility: 0.054312001913785934
","x: 35.27694320678711
y: 1146.3551025390625
z: -1.250434160232544
visibility: 0.134813129901886
","x: 379.2502746582031
y: 1108.87353515625
z: -0.819351851940155
visibility: 0.05805797502398491
","x: 42.72089385986328
y: 1115.18408203125
z: -1.0973871946334839
visibility: 0.14073139429092407
","x: 289.5189514160156
y: 1088.3824462890625
z: -0.05996794253587723
visibility: 0.00024132545513566583
","x: 131.54473876953125
y: 1090.0029296875
z: 0.06628958135843277
visibility: 0.00027593053528107703
","x: 284.7124328613281
y: 1518.486572265625
z: 0.07681117951869965
visibility: 0.00010674900113372132
","x: 136.6848907470703
y: 1524.3846435546875
z: 0.35365885496139526
visibility: 3.795974043896422e-05
","x: 285.6091003417969
y: 1895.9193115234375
z: 0.9366168975830078
visibility: 1.2835204870498274e-05
","x: 145.58738708496094
y: 1896.5220947265625
z: 1.1015208959579468
visibility: 1.1949849749726127e-06
","x: 290.1856384277344
y: 1966.38623046875
z: 0.9860040545463562
visibility: 1.167014124803245e-05
","x: 143.55625915527344
y: 1964.3482666015625
z: 1.1588470935821533
visibility: 4.036540303786751e-06
","x: 260.1927185058594
y: 2020.816162109375
z: 0.3220263719558716
visibility: 1.5751547834952362e-05
","x: 171.53146362304688
y: 2023.920166015625
z: 0.4502042233943939
visibility: 1.0402375664853025e-05
",,,,,,,,,,,,,,,,,,,,,,,,,,,,,,,,,,,,,,,,,,
20,"x: 202.00726318359375
y: 335.81109619140625
z: -0.9824643135070801
visibility: 0.9998414516448975
","x: 216.8208770751953
y: 293.5769958496094
z: -0.9326585531234741
visibility: 0.9995373487472534
","x: 226.34132385253906
y: 294.7486572265625
z: -0.9324976205825806
visibility: 0.9996102452278137
","x: 233.78245544433594
y: 296.54443359375
z: -0.9325821995735168
visibility: 0.9994747042655945
","x: 187.33322143554688
y: 295.5294189453125
z: -0.9281027913093567
visibility: 0.9995608925819397
","x: 178.09588623046875
y: 297.2869567871094
z: -0.9273355603218079
visibility: 0.9996317028999329
","x: 170.06396484375
y: 299.4481201171875
z: -0.9276900291442871
visibility: 0.9995863437652588
","x: 251.19696044921875
y: 321.59075927734375
z: -0.5829594731330872
visibility: 0.9995376467704773
","x: 163.00286865234375
y: 323.231689453125
z: -0.5436558127403259
visibility: 0.9997622966766357
","x: 222.95394897460938
y: 383.3299560546875
z: -0.8521739840507507
visibility: 0.9998111128807068
","x: 185.1822052001953
y: 384.47900390625
z: -0.8395072817802429
visibility: 0.9998562335968018
","x: 331.61798095703125
y: 567.0386962890625
z: -0.3343435525894165
visibility: 0.9975058436393738
","x: 90.90264892578125
y: 559.2420043945312
z: -0.43008604645729065
visibility: 0.9991484880447388
","x: 395.5225524902344
y: 837.8450927734375
z: -0.35875222086906433
visibility: 0.08043797314167023
","x: 9.909074783325195
y: 828.871337890625
z: -0.44321975111961365
visibility: 0.28268975019454956
","x: 400.5179748535156
y: 1055.8466796875
z: -0.7543879747390747
visibility: 0.021792912855744362
","x: 16.405179977416992
y: 1057.1595458984375
z: -0.9289623498916626
visibility: 0.07523465156555176
","x: 419.8465576171875
y: 1134.06103515625
z: -0.8699175119400024
visibility: 0.02948523685336113
","x: 1.1880548000335693
y: 1137.419677734375
z: -1.056066870689392
visibility: 0.08347318321466446
","x: 389.65386962890625
y: 1141.081787109375
z: -0.9180670976638794
visibility: 0.05440063029527664
","x: 33.11043930053711
y: 1143.2081298828125
z: -1.1364531517028809
visibility: 0.13905677199363708
","x: 378.9281311035156
y: 1109.0072021484375
z: -0.7987064719200134
visibility: 0.05849924683570862
","x: 41.522335052490234
y: 1113.060791015625
z: -0.9849833250045776
visibility: 0.1452038288116455
","x: 288.7543640136719
y: 1090.579833984375
z: -0.05931056663393974
visibility: 0.0002417391660856083
","x: 130.87924194335938
y: 1090.647705078125
z: 0.06559847295284271
visibility: 0.0002769922139123082
","x: 280.7816162109375
y: 1519.915283203125
z: 0.08466275036334991
visibility: 0.00010813692642841488
","x: 132.59716796875
y: 1524.57666015625
z: 0.3049129843711853
visibility: 3.831709545920603e-05
","x: 281.2085266113281
y: 1896.99072265625
z: 0.9120265245437622
visibility: 1.2806727681891061e-05
","x: 141.79217529296875
y: 1896.16796875
z: 0.9172312021255493
visibility: 1.1675567748170579e-06
","x: 285.9532470703125
y: 1967.3297119140625
z: 0.9584148526191711
visibility: 1.177614012703998e-05
","x: 140.08702087402344
y: 1963.9541015625
z: 0.9629169702529907
visibility: 3.938517238566419e-06
","x: 254.84664916992188
y: 2021.513671875
z: 0.3279503285884857
visibility: 1.5691115549998358e-05
","x: 166.87179565429688
y: 2023.4888916015625
z: 0.31995198130607605
visibility: 1.0177004696743097e-05
",,,,,,,,,,,,,,,,,,,,,,,,,,,,,,,,,,,,,,,,,,
21,"x: 200.76710510253906
y: 336.569091796875
z: -0.999048113822937
visibility: 0.9998432993888855
","x: 216.0352783203125
y: 293.91204833984375
z: -0.9473764300346375
visibility: 0.9995415210723877
","x: 225.84872436523438
y: 294.9256591796875
z: -0.9472304582595825
visibility: 0.9996157884597778
","x: 233.44970703125
y: 296.60198974609375
z: -0.9473379254341125
visibility: 0.9994773268699646
","x: 186.2745819091797
y: 295.997802734375
z: -0.9410250782966614
visibility: 0.9995653033256531
","x: 177.1968231201172
y: 297.74688720703125
z: -0.940268874168396
visibility: 0.9996395707130432
","x: 169.74996948242188
y: 299.7930603027344
z: -0.9406558275222778
visibility: 0.9995918273925781
","x: 251.04112243652344
y: 321.55426025390625
z: -0.5866861939430237
visibility: 0.9995375871658325
","x: 162.99978637695312
y: 323.5243225097656
z: -0.5415623188018799
visibility: 0.9997661113739014
","x: 222.20382690429688
y: 383.505859375
z: -0.8648994565010071
visibility: 0.9998106360435486
","x: 184.5697784423828
y: 385.0421447753906
z: -0.8502330780029297
visibility: 0.9998570084571838
","x: 333.3081970214844
y: 569.1675415039062
z: -0.35137832164764404
visibility: 0.9973899722099304
","x: 91.47921752929688
y: 559.185791015625
z: -0.428786039352417
visibility: 0.9991326332092285
","x: 396.03509521484375
y: 840.5537109375
z: -0.37078410387039185
visibility: 0.07862373441457748
","x: 9.920945167541504
y: 825.12255859375
z: -0.4431604743003845
visibility: 0.2783561944961548
","x: 400.40411376953125
y: 1057.384765625
z: -0.7432590126991272
visibility: 0.021787794306874275
","x: 16.39862060546875
y: 1050.2821044921875
z: -0.9334084391593933
visibility: 0.07433345913887024
","x: 419.64263916015625
y: 1134.76513671875
z: -0.8551206588745117
visibility: 0.029553545638918877
","x: 1.2087076902389526
y: 1130.1475830078125
z: -1.0624420642852783
visibility: 0.08281763643026352
","x: 389.3914794921875
y: 1141.3038330078125
z: -0.9019303321838379
visibility: 0.05447152629494667
","x: 33.14606857299805
y: 1135.4991455078125
z: -1.1437233686447144
visibility: 0.13829606771469116
","x: 378.5641174316406
y: 1109.3717041015625
z: -0.7861721515655518
visibility: 0.05882946029305458
","x: 41.5475959777832
y: 1105.90625
z: -0.9889658093452454
visibility: 0.14472921192646027
","x: 288.8769226074219
y: 1092.6986083984375
z: -0.05827481672167778
visibility: 0.0002377127093495801
","x: 130.8376007080078
y: 1090.7530517578125
z: 0.06460230052471161
visibility: 0.0002719442418310791
","x: 280.6468811035156
y: 1522.8697509765625
z: 0.12996907532215118
visibility: 0.00010447681415826082
","x: 131.55154418945312
y: 1524.8818359375
z: 0.30362173914909363
visibility: 3.722599649336189e-05
","x: 280.64617919921875
y: 1900.774169921875
z: 0.9755999445915222
visibility: 1.2248485290911049e-05
","x: 140.1044158935547
y: 1897.026611328125
z: 0.9225846529006958
visibility: 1.1123274816782214e-06
","x: 285.6242370605469
y: 1971.8414306640625
z: 1.0256962776184082
visibility: 1.1352935871400405e-05
","x: 138.5264129638672
y: 1964.787841796875
z: 0.9690425992012024
visibility: 3.747895107153454e-06
","x: 253.46400451660156
y: 2024.64599609375
z: 0.4149068295955658
visibility: 1.5115094356588088e-05
","x: 165.2714385986328
y: 2025.5548095703125
z: 0.31938010454177856
visibility: 9.739173037814908e-06
",,,,,,,,,,,,,,,,,,,,,,,,,,,,,,,,,,,,,,,,,,
22,"x: 199.96951293945312
y: 336.89996337890625
z: -0.9465638399124146
visibility: 0.9998378753662109
","x: 215.53994750976562
y: 293.96893310546875
z: -0.8995807766914368
visibility: 0.9995269775390625
","x: 225.54522705078125
y: 294.9395446777344
z: -0.8993921279907227
visibility: 0.9996013641357422
","x: 233.27537536621094
y: 296.60406494140625
z: -0.8994764089584351
visibility: 0.9994588494300842
","x: 185.5858917236328
y: 296.22576904296875
z: -0.8900121450424194
visibility: 0.9995569586753845
","x: 176.62335205078125
y: 298.0075378417969
z: -0.8892433047294617
visibility: 0.9996346831321716
","x: 169.53579711914062
y: 300.0029296875
z: -0.8896236419677734
visibility: 0.9995888471603394
","x: 250.86854553222656
y: 321.5506286621094
z: -0.5743750929832458
visibility: 0.9995133876800537
","x: 162.98887634277344
y: 323.5843200683594
z: -0.508671224117279
visibility: 0.9997623562812805
","x: 221.9243621826172
y: 383.7310791015625
z: -0.8247281312942505
visibility: 0.9997990727424622
","x: 184.20558166503906
y: 385.3952331542969
z: -0.8051673769950867
visibility: 0.9998521208763123
","x: 334.1250305175781
y: 570.4536743164062
z: -0.35672661662101746
visibility: 0.9971144199371338
","x: 91.46514892578125
y: 559.1863403320312
z: -0.40913844108581543
visibility: 0.9990953803062439
","x: 396.1282958984375
y: 843.277587890625
z: -0.37192732095718384
visibility: 0.0757325291633606
","x: 9.828316688537598
y: 825.27392578125
z: -0.3924376368522644
visibility: 0.2733539044857025
","x: 394.00653076171875
y: 1061.3758544921875
z: -0.6724281907081604
visibility: 0.02118971385061741
","x: 16.35139274597168
y: 1052.8587646484375
z: -0.8181583285331726
visibility: 0.07271981984376907
","x: 411.3240661621094
y: 1138.029052734375
z: -0.7785120010375977
visibility: 0.02897736057639122
","x: 1.203143835067749
y: 1133.307373046875
z: -0.935207724571228
visibility: 0.08166468143463135
","x: 379.4122009277344
y: 1142.5576171875
z: -0.8152630925178528
visibility: 0.05334775522351265
","x: 33.056427001953125
y: 1136.84423828125
z: -1.0143101215362549
visibility: 0.13671721518039703
","x: 369.0021667480469
y: 1111.0224609375
z: -0.7097780108451843
visibility: 0.05793483182787895
","x: 41.56682586669922
y: 1107.3564453125
z: -0.8707919120788574
visibility: 0.14342382550239563
","x: 288.7991943359375
y: 1093.938232421875
z: -0.05836647003889084
visibility: 0.00022948758851271123
","x: 130.201416015625
y: 1091.0692138671875
z: 0.06470122933387756
visibility: 0.00026320278993807733
","x: 279.9225158691406
y: 1524.1722412109375
z: 0.11826787143945694
visibility: 0.00010154144547414035
","x: 129.97032165527344
y: 1524.89892578125
z: 0.26418763399124146
visibility: 3.667385317385197e-05
","x: 278.9375
y: 1902.2181396484375
z: 0.929967999458313
visibility: 1.163222623290494e-05
","x: 137.9207763671875
y: 1896.8577880859375
z: 0.8474640846252441
visibility: 1.0569973483143258e-06
","x: 284.1661376953125
y: 1972.6148681640625
z: 0.9772923588752747
visibility: 1.0821335308719426e-05
","x: 136.36631774902344
y: 1964.5537109375
z: 0.8915766477584839
visibility: 3.5609557471616426e-06
","x: 250.9979705810547
y: 2026.4483642578125
z: 0.41322293877601624
visibility: 1.4437950085266493e-05
","x: 162.4743194580078
y: 2025.901123046875
z: 0.25071364641189575
visibility: 9.281850907427724e-06
",,,,,,,,,,,,,,,,,,,,,,,,,,,,,,,,,,,,,,,,,,
23,"x: 199.29556274414062
y: 337.3191833496094
z: -0.9997345209121704
visibility: 0.9998338222503662
","x: 215.14627075195312
y: 294.11749267578125
z: -0.9529100656509399
visibility: 0.999517560005188
","x: 225.3020782470703
y: 295.0515441894531
z: -0.952713131904602
visibility: 0.9995900392532349
","x: 233.1555633544922
y: 296.7056884765625
z: -0.9528975486755371
visibility: 0.9994466304779053
","x: 185.1177978515625
y: 296.4371337890625
z: -0.9395067095756531
visibility: 0.9995499849319458
","x: 176.2472686767578
y: 298.2555847167969
z: -0.9386922121047974
visibility: 0.9996275305747986
","x: 169.40774536132812
y: 300.22601318359375
z: -0.9389595985412598
visibility: 0.9995822310447693
","x: 250.79962158203125
y: 321.6060791015625
z: -0.6112422943115234
visibility: 0.9994909167289734
","x: 162.98123168945312
y: 323.8409729003906
z: -0.5272849202156067
visibility: 0.9997538328170776
","x: 221.61534118652344
y: 384.1195068359375
z: -0.8717406988143921
visibility: 0.999795138835907
","x: 183.8249969482422
y: 386.00830078125
z: -0.8455244898796082
visibility: 0.9998496770858765
","x: 334.3644714355469
y: 570.4644165039062
z: -0.4002092778682709
visibility: 0.9970372915267944
","x: 91.256591796875
y: 559.2225341796875
z: -0.4097902774810791
visibility: 0.999069333076477
","x: 396.42767333984375
y: 843.5731201171875
z: -0.40922075510025024
visibility: 0.07365239411592484
","x: 9.984563827514648
y: 827.4097900390625
z: -0.37980514764785767
visibility: 0.27103057503700256
","x: 393.1224670410156
y: 1061.14208984375
z: -0.7151931524276733
visibility: 0.020778946578502655
","x: 17.66387176513672
y: 1058.448486328125
z: -0.8303976058959961
visibility: 0.07054747641086578
","x: 410.57171630859375
y: 1137.818603515625
z: -0.839154064655304
visibility: 0.028313692659139633
","x: 2.822329044342041
y: 1139.7099609375
z: -0.9576733708381653
visibility: 0.07879701256752014
","x: 377.6741638183594
y: 1142.4776611328125
z: -0.8775577545166016
visibility: 0.05220494791865349
","x: 34.92726516723633
y: 1144.0263671875
z: -1.0425069332122803
visibility: 0.1325802505016327
","x: 367.4798583984375
y: 1110.8736572265625
z: -0.7532767057418823
visibility: 0.05690591409802437
","x: 43.37417221069336
y: 1113.7833251953125
z: -0.8855765461921692
visibility: 0.13928544521331787
","x: 289.2177429199219
y: 1094.0677490234375
z: -0.06715970486402512
visibility: 0.00022647921286989003
","x: 130.35791015625
y: 1091.4228515625
z: 0.07357895374298096
visibility: 0.00025956236640922725
","x: 281.17742919921875
y: 1525.0006103515625
z: 0.14793214201927185
visibility: 9.895480616251007e-05
","x: 130.72023010253906
y: 1525.64453125
z: 0.4028450548648834
visibility: 3.573368667275645e-05
","x: 279.89483642578125
y: 1902.820068359375
z: 1.0436724424362183
visibility: 1.1135453860333655e-05
","x: 138.29290771484375
y: 1897.43017578125
z: 1.1802854537963867
visibility: 9.996815606427845e-07
","x: 285.4187316894531
y: 1973.244140625
z: 1.1001763343811035
visibility: 1.0451190973981284e-05
","x: 136.88894653320312
y: 1965.092529296875
z: 1.2445402145385742
visibility: 3.4275767575309146e-06
","x: 251.36839294433594
y: 2029.259765625
z: 0.4814578890800476
visibility: 1.3741809198108967e-05
","x: 162.7825164794922
y: 2028.9573974609375
z: 0.5677943229675293
visibility: 8.884512681106571e-06
",,,,,,,,,,,,,,,,,,,,,,,,,,,,,,,,,,,,,,,,,,
24,"x: 198.23304748535156
y: 337.38067626953125
z: -1.0512707233428955
visibility: 0.9998288750648499
","x: 214.29690551757812
y: 294.2074279785156
z: -0.9977951049804688
visibility: 0.9995035529136658
","x: 224.6516876220703
y: 295.1082763671875
z: -0.9977408647537231
visibility: 0.9995799660682678
","x: 232.77687072753906
y: 296.74151611328125
z: -0.9978972673416138
visibility: 0.9994267225265503
","x: 184.28173828125
y: 296.5026550292969
z: -0.9857007265090942
visibility: 0.999538242816925
","x: 175.61376953125
y: 298.3132019042969
z: -0.9848796129226685
visibility: 0.9996222257614136
","x: 169.13516235351562
y: 300.24713134765625
z: -0.9852705001831055
visibility: 0.9995721578598022
","x: 250.507568359375
y: 321.6137390136719
z: -0.6293458342552185
visibility: 0.9994661808013916
","x: 162.9736785888672
y: 323.8653869628906
z: -0.5455717444419861
visibility: 0.9997469186782837
","x: 220.94500732421875
y: 384.1659851074219
z: -0.9118415713310242
visibility: 0.9997900128364563
","x: 183.1890411376953
y: 386.05596923828125
z: -0.8879170417785645
visibility: 0.9998457431793213
","x: 334.7601013183594
y: 570.787109375
z: -0.3994171917438507
visibility: 0.9969258308410645
","x: 91.24522399902344
y: 559.3038330078125
z: -0.41121774911880493
visibility: 0.9990408420562744
","x: 396.4025573730469
y: 844.0219116210938
z: -0.4045998156070709
visibility: 0.07147271931171417
","x: 10.697494506835938
y: 827.9329833984375
z: -0.3665294945240021
visibility: 0.2715234160423279
","x: 391.6872253417969
y: 1060.9644775390625
z: -0.741021454334259
visibility: 0.02011297270655632
","x: 19.83440399169922
y: 1060.6983642578125
z: -0.8003754615783691
visibility: 0.06867844611406326
","x: 407.9039611816406
y: 1138.052734375
z: -0.8641517758369446
visibility: 0.027387946844100952
","x: 6.239278316497803
y: 1142.68994140625
z: -0.9264477491378784
visibility: 0.07618270814418793
","x: 375.5401306152344
y: 1142.5283203125
z: -0.9082536697387695
visibility: 0.05063389614224434
","x: 38.052242279052734
y: 1148.918212890625
z: -1.0133321285247803
visibility: 0.12880262732505798
","x: 366.0321960449219
y: 1110.7042236328125
z: -0.7817951440811157
visibility: 0.055072396993637085
","x: 45.90901184082031
y: 1117.6181640625
z: -0.8554328083992004
visibility: 0.13510748744010925
","x: 290.026611328125
y: 1094.1761474609375
z: -0.07111483812332153
visibility: 0.00021847370953764766
","x: 131.25616455078125
y: 1091.944091796875
z: 0.07742224633693695
visibility: 0.00025045141228474677
","x: 283.5400695800781
y: 1525.02197265625
z: 0.12994912266731262
visibility: 9.947574289981276e-05
","x: 133.86508178710938
y: 1526.446044921875
z: 0.3676626980304718
visibility: 3.580650081858039e-05
","x: 284.8370361328125
y: 1903.12841796875
z: 1.0165525674819946
visibility: 1.1163584531459492e-05
","x: 144.35032653808594
y: 1899.0557861328125
z: 1.0823084115982056
visibility: 9.91022830021393e-07
","x: 291.04791259765625
y: 1973.556396484375
z: 1.067363977432251
visibility: 1.0517500413698144e-05
","x: 143.35000610351562
y: 1966.684326171875
z: 1.1373940706253052
visibility: 3.4691124710661825e-06
","x: 256.2528381347656
y: 2029.5850830078125
z: 0.4663490355014801
visibility: 1.36761627800297e-05
","x: 169.5267333984375
y: 2029.7978515625
z: 0.46808940172195435
visibility: 8.937888196669519e-06
",,,,,,,,,,,,,,,,,,,,,,,,,,,,,,,,,,,,,,,,,,
25,"x: 198.22215270996094
y: 337.08258056640625
z: -1.0553181171417236
visibility: 0.9998279213905334
","x: 214.27743530273438
y: 294.0833740234375
z: -1.0007450580596924
visibility: 0.9995030164718628
","x: 224.6248321533203
y: 294.9804382324219
z: -1.0007009506225586
visibility: 0.9995809197425842
","x: 232.7406005859375
y: 296.62982177734375
z: -1.0008586645126343
visibility: 0.9994235634803772
","x: 184.268798828125
y: 296.4136962890625
z: -0.9911777377128601
visibility: 0.9995397925376892
","x: 175.59210205078125
y: 298.2299499511719
z: -0.9903489947319031
visibility: 0.9996262788772583
","x: 169.09718322753906
y: 300.18133544921875
z: -0.9907334446907043
visibility: 0.9995736479759216
","x: 250.4691162109375
y: 321.57574462890625
z: -0.6282846331596375
visibility: 0.9994624257087708
","x: 162.98501586914062
y: 323.8244934082031
z: -0.5519436001777649
visibility: 0.9997479319572449
","x: 220.9042510986328
y: 384.1464538574219
z: -0.9140194058418274
visibility: 0.9997889995574951
","x: 183.16397094726562
y: 385.93804931640625
z: -0.8932561874389648
visibility: 0.999845564365387
","x: 334.7924499511719
y: 570.70458984375
z: -0.39530426263809204
visibility: 0.9968971014022827
","x: 91.33338165283203
y: 559.0435791015625
z: -0.41294270753860474
visibility: 0.9990313649177551
","x: 395.9815368652344
y: 845.464599609375
z: -0.3900262415409088
visibility: 0.0695786327123642
","x: 11.316596984863281
y: 828.2172241210938
z: -0.3463936150074005
visibility: 0.2709554135799408
","x: 388.78387451171875
y: 1060.849365234375
z: -0.7143425345420837
visibility: 0.019401760771870613
","x: 21.963512420654297
y: 1060.5982666015625
z: -0.7695624828338623
visibility: 0.0662769228219986
","x: 403.8065185546875
y: 1137.88671875
z: -0.8303896188735962
visibility: 0.026427611708641052
","x: 9.11784553527832
y: 1142.53759765625
z: -0.8904489278793335
visibility: 0.07324464619159698
","x: 371.85687255859375
y: 1142.17578125
z: -0.876716136932373
visibility: 0.049009401351213455
","x: 40.5213508605957
y: 1148.779541015625
z: -0.9751541018486023
visibility: 0.12441619485616684
","x: 363.0245056152344
y: 1109.608154296875
z: -0.7555326223373413
visibility: 0.05320322513580322
","x: 48.07164001464844
y: 1117.476318359375
z: -0.8226897120475769
visibility: 0.1302809864282608
","x: 290.0256042480469
y: 1093.0872802734375
z: -0.07267319411039352
visibility: 0.00021184406068641692
","x: 131.39073181152344
y: 1091.2681884765625
z: 0.0789370983839035
visibility: 0.0002427073777653277
","x: 284.4958190917969
y: 1523.4984130859375
z: 0.07017044723033905
visibility: 9.925377526087686e-05
","x: 136.00990295410156
y: 1525.58984375
z: 0.35109519958496094
visibility: 3.519361052894965e-05
","x: 285.9880676269531
y: 1901.5843505859375
z: 0.8947676420211792
visibility: 1.133249588747276e-05
","x: 146.38551330566406
y: 1898.3819580078125
z: 1.0620626211166382
visibility: 9.795082860364346e-07
","x: 292.3409118652344
y: 1970.984375
z: 0.9425381422042847
visibility: 1.0783449397422373e-05
","x: 145.4044952392578
y: 1965.8828125
z: 1.1170274019241333
visibility: 3.5318807931616902e-06
","x: 256.5398254394531
y: 2029.1383056640625
z: 0.314220130443573
visibility: 1.3639341887028422e-05
","x: 170.27980041503906
y: 2028.7645263671875
z: 0.4458310008049011
visibility: 8.908311428967863e-06
",,,,,,,,,,,,,,,,,,,,,,,,,,,,,,,,,,,,,,,,,,
26,"x: 196.16732788085938
y: 337.47796630859375
z: -1.0496437549591064
visibility: 0.9998220801353455
","x: 213.12327575683594
y: 294.40179443359375
z: -0.9980989694595337
visibility: 0.9994831681251526
","x: 223.74896240234375
y: 295.2822570800781
z: -0.998071551322937
visibility: 0.9995660781860352
","x: 232.2630615234375
y: 296.94000244140625
z: -0.9981728792190552
visibility: 0.9993943572044373
","x: 183.28366088867188
y: 296.5212707519531
z: -0.984174907207489
visibility: 0.9995235204696655
","x: 174.88658142089844
y: 298.2848815917969
z: -0.9833841323852539
visibility: 0.999618411064148
","x: 168.76068115234375
y: 300.1974792480469
z: -0.9838224649429321
visibility: 0.9995604753494263
","x: 250.3472900390625
y: 321.6987609863281
z: -0.6291216611862183
visibility: 0.9994320869445801
","x: 163.0222625732422
y: 323.8367919921875
z: -0.5472505688667297
visibility: 0.9997398853302002
","x: 219.06614685058594
y: 384.62823486328125
z: -0.9134528040885925
visibility: 0.9997789263725281
","x: 181.6812286376953
y: 386.31549072265625
z: -0.8879293203353882
visibility: 0.9998392462730408
","x: 335.1861267089844
y: 570.94189453125
z: -0.3991415798664093
visibility: 0.9966797232627869
","x: 91.56501007080078
y: 558.9635009765625
z: -0.41381463408470154
visibility: 0.9990077018737793
","x: 395.86212158203125
y: 846.647705078125
z: -0.4138582646846771
visibility: 0.06731081008911133
","x: 11.290681838989258
y: 826.720703125
z: -0.3490023612976074
visibility: 0.26916709542274475
","x: 387.660888671875
y: 1060.6868896484375
z: -0.7527878284454346
visibility: 0.019237319007515907
","x: 21.067424774169922
y: 1060.5565185546875
z: -0.7793470621109009
visibility: 0.06582751870155334
","x: 402.62115478515625
y: 1137.723876953125
z: -0.864859402179718
visibility: 0.02630770392715931
","x: 7.628468990325928
y: 1142.46142578125
z: -0.8995767831802368
visibility: 0.07266019284725189
","x: 370.84967041015625
y: 1142.10546875
z: -0.9074931144714355
visibility: 0.04886988177895546
","x: 39.711334228515625
y: 1148.9527587890625
z: -0.9814234972000122
visibility: 0.12399093806743622
","x: 361.9442443847656
y: 1109.38671875
z: -0.7922977209091187
visibility: 0.052947916090488434
","x: 47.5124397277832
y: 1117.55712890625
z: -0.8308364152908325
visibility: 0.12970806658267975
","x: 290.4863586425781
y: 1093.0628662109375
z: -0.07323254644870758
visibility: 0.00020295097783673555
","x: 131.64012145996094
y: 1091.190673828125
z: 0.07946862280368805
visibility: 0.00023351769777946174
","x: 286.21014404296875
y: 1523.43994140625
z: 0.07526837289333344
visibility: 9.633617446525022e-05
","x: 137.7457733154297
y: 1525.525146484375
z: 0.3423253893852234
visibility: 3.411803481867537e-05
","x: 288.7845458984375
y: 1901.46728515625
z: 0.8990930318832397
visibility: 1.1014773917850107e-05
","x: 149.16006469726562
y: 1898.3369140625
z: 1.040071725845337
visibility: 9.475571118855441e-07
","x: 295.3555908203125
y: 1970.881591796875
z: 0.9495865702629089
visibility: 1.0474584996700287e-05
","x: 148.34805297851562
y: 1965.7752685546875
z: 1.0926772356033325
visibility: 3.4549482279544463e-06
","x: 259.3364562988281
y: 2028.910400390625
z: 0.3234631419181824
visibility: 1.3301691978995223e-05
","x: 173.14013671875
y: 2028.688720703125
z: 0.4161601960659027
visibility: 8.76237390912138e-06
",,,,,,,,,,,,,,,,,,,,,,,,,,,,,,,,,,,,,,,,,,
27,"x: 195.62644958496094
y: 337.6752014160156
z: -1.0591343641281128
visibility: 0.9998249411582947
","x: 212.87631225585938
y: 294.60540771484375
z: -1.0060958862304688
visibility: 0.9994895458221436
","x: 223.55990600585938
y: 295.5478210449219
z: -1.006020188331604
visibility: 0.9995717406272888
","x: 232.16867065429688
y: 297.2944030761719
z: -1.0060946941375732
visibility: 0.9993987083435059
","x: 183.06976318359375
y: 296.5636291503906
z: -0.994296669960022
visibility: 0.9995317459106445
","x: 174.74374389648438
y: 298.302001953125
z: -0.9935156106948853
visibility: 0.999626636505127
","x: 168.68663024902344
y: 300.2147216796875
z: -0.9939289093017578
visibility: 0.9995677471160889
","x: 250.31507873535156
y: 322.0852966308594
z: -0.6339632868766785
visibility: 0.9994316697120667
","x: 163.05296325683594
y: 323.83392333984375
z: -0.5557616949081421
visibility: 0.9997438788414001
","x: 218.6195526123047
y: 385.1151123046875
z: -0.9203625917434692
visibility: 0.9997811317443848
","x: 181.17066955566406
y: 386.577392578125
z: -0.8975065350532532
visibility: 0.9998419880867004
","x: 335.1810607910156
y: 570.9717407226562
z: -0.40011367201805115
visibility: 0.9966544508934021
","x: 91.55765533447266
y: 558.941162109375
z: -0.4190158247947693
visibility: 0.9990101456642151
","x: 395.1383361816406
y: 846.6732177734375
z: -0.41550302505493164
visibility: 0.06621460616588593
","x: 11.84716510772705
y: 826.7357177734375
z: -0.386008083820343
visibility: 0.2682473361492157
","x: 386.98309326171875
y: 1060.4625244140625
z: -0.7759729623794556
visibility: 0.019497903063893318
","x: 24.747150421142578
y: 1060.5618896484375
z: -0.8862578272819519
visibility: 0.06596042960882187
","x: 402.43896484375
y: 1137.6219482421875
z: -0.8957046270370483
visibility: 0.026826750487089157
","x: 12.106527328491211
y: 1142.880615234375
z: -1.0236032009124756
visibility: 0.07285889983177185
","x: 370.5752258300781
y: 1141.6697998046875
z: -0.9417554140090942
visibility: 0.049860041588544846
","x: 45.074954986572266
y: 1148.9990234375
z: -1.1008228063583374
visibility: 0.12457489967346191
","x: 361.3881530761719
y: 1108.86328125
z: -0.8176292181015015
visibility: 0.053916215896606445
","x: 52.74568176269531
y: 1117.548583984375
z: -0.9378198385238647
visibility: 0.1300782859325409
","x: 290.5614013671875
y: 1092.5430908203125
z: -0.07295583188533783
visibility: 0.00019883060303982347
","x: 131.6836395263672
y: 1090.9107666015625
z: 0.07919099926948547
visibility: 0.0002288383839186281
","x: 286.9914855957031
y: 1523.03466796875
z: 0.10577201843261719
visibility: 9.345498256152496e-05
","x: 138.8798065185547
y: 1525.1549072265625
z: 0.3604273498058319
visibility: 3.28301903209649e-05
","x: 289.36956787109375
y: 1900.426513671875
z: 0.9568314552307129
visibility: 1.083761435438646e-05
","x: 149.85055541992188
y: 1897.248291015625
z: 1.0948084592819214
visibility: 9.109860457101604e-07
","x: 295.8819274902344
y: 1969.2978515625
z: 1.0082802772521973
visibility: 1.0350151569582522e-05
","x: 148.86663818359375
y: 1964.024169921875
z: 1.1532610654830933
visibility: 3.369113073858898e-06
","x: 259.73760986328125
y: 2028.2935791015625
z: 0.3755353093147278
visibility: 1.295584297622554e-05
","x: 173.91348266601562
y: 2028.1177978515625
z: 0.46949997544288635
visibility: 8.547676770831458e-06
",,,,,,,,,,,,,,,,,,,,,,,,,,,,,,,,,,,,,,,,,,
28,"x: 195.54547119140625
y: 338.1312561035156
z: -1.0920374393463135
visibility: 0.999817967414856
","x: 212.85629272460938
y: 295.0263671875
z: -1.0351022481918335
visibility: 0.9994733929634094
","x: 223.54522705078125
y: 295.9564514160156
z: -1.0351046323776245
visibility: 0.9995576739311218
","x: 232.14749145507812
y: 297.6888122558594
z: -1.0352823734283447
visibility: 0.999373733997345
","x: 183.01150512695312
y: 296.7801513671875
z: -1.0275250673294067
visibility: 0.9995197057723999
","x: 174.687255859375
y: 298.4495849609375
z: -1.0267829895019531
visibility: 0.9996201395988464
","x: 168.66250610351562
y: 300.30706787109375
z: -1.0272495746612549
visibility: 0.9995578527450562
","x: 250.2985382080078
y: 322.3401184082031
z: -0.6453805565834045
visibility: 0.9994074106216431
","x: 163.05162048339844
y: 323.8537902832031
z: -0.5818096399307251
visibility: 0.9997392296791077
","x: 218.51695251464844
y: 385.6912841796875
z: -0.9452213048934937
visibility: 0.999777615070343
","x: 181.01812744140625
y: 386.9662780761719
z: -0.9277951121330261
visibility: 0.9998406171798706
","x: 335.1651306152344
y: 570.9862060546875
z: -0.40028780698776245
visibility: 0.9965918064117432
","x: 91.46391296386719
y: 558.92919921875
z: -0.4358212351799011
visibility: 0.9990005493164062
","x: 394.8842468261719
y: 846.6445922851562
z: -0.41478919982910156
visibility: 0.06619730591773987
","x: 11.740253448486328
y: 827.32421875
z: -0.4425274431705475
visibility: 0.2753548324108124
","x: 387.0580139160156
y: 1060.1978759765625
z: -0.7915704250335693
visibility: 0.019134385511279106
","x: 21.832311630249023
y: 1061.3597412109375
z: -0.9770804643630981
visibility: 0.06586860865354538
","x: 402.65606689453125
y: 1137.4974365234375
z: -0.9107311367988586
visibility: 0.026212237775325775
","x: 8.080252647399902
y: 1144.2305908203125
z: -1.1178200244903564
visibility: 0.07193272560834885
","x: 370.8109436035156
y: 1141.61181640625
z: -0.9615232348442078
visibility: 0.04876437783241272
","x: 41.17706298828125
y: 1150.632568359375
z: -1.2011525630950928
visibility: 0.12315108627080917
","x: 361.469482421875
y: 1108.704345703125
z: -0.8350733518600464
visibility: 0.052579835057258606
","x: 49.4093017578125
y: 1119.060302734375
z: -1.031656265258789
visibility: 0.12829314172267914
","x: 290.5309753417969
y: 1092.770751953125
z: -0.0727245882153511
visibility: 0.00020025584672112018
","x: 131.6883087158203
y: 1091.46630859375
z: 0.07897329330444336
visibility: 0.00022914614237379283
","x: 287.736328125
y: 1523.0076904296875
z: 0.10314126312732697
visibility: 9.674453758634627e-05
","x: 139.96568298339844
y: 1525.4185791015625
z: 0.35224801301956177
visibility: 3.359327820362523e-05
","x: 291.1388244628906
y: 1900.46533203125
z: 0.9494680166244507
visibility: 1.1534495570231229e-05
","x: 152.3440704345703
y: 1897.2650146484375
z: 1.063880443572998
visibility: 9.701399221739848e-07
","x: 297.7983703613281
y: 1969.30126953125
z: 0.9993281364440918
visibility: 1.0816384019562975e-05
","x: 151.2688751220703
y: 1963.9500732421875
z: 1.1193821430206299
visibility: 3.6667131553258514e-06
","x: 261.8788757324219
y: 2028.18408203125
z: 0.35598036646842957
visibility: 1.3301410945132375e-05
","x: 178.0751953125
y: 2028.0645751953125
z: 0.44136518239974976
visibility: 9.000320460472722e-06
",,,,,,,,,,,,,,,,,,,,,,,,,,,,,,,,,,,,,,,,,,
29,"x: 195.15728759765625
y: 338.3468322753906
z: -1.0906602144241333
visibility: 0.9998161792755127
","x: 212.62530517578125
y: 295.1875
z: -1.0331268310546875
visibility: 0.9994679093360901
","x: 223.3812255859375
y: 296.0909118652344
z: -1.0332282781600952
visibility: 0.999556839466095
","x: 232.05577087402344
y: 297.8189697265625
z: -1.0333706140518188
visibility: 0.9993649125099182
","x: 182.72019958496094
y: 296.90716552734375
z: -1.0251009464263916
visibility: 0.999514639377594
","x: 174.4443817138672
y: 298.5531921386719
z: -1.02434504032135
visibility: 0.9996213912963867
","x: 168.51646423339844
y: 300.3653259277344
z: -1.024857759475708
visibility: 0.9995548725128174
","x: 250.2426300048828
y: 322.407958984375
z: -0.6445685625076294
visibility: 0.9994024038314819
","x: 163.04888916015625
y: 323.8613586425781
z: -0.5812655091285706
visibility: 0.9997391104698181
","x: 218.25634765625
y: 385.9207458496094
z: -0.9445163607597351
visibility: 0.999774694442749
","x: 180.6323699951172
y: 387.23486328125
z: -0.9273072481155396
visibility: 0.9998393058776855
","x: 335.2256164550781
y: 571.1610107421875
z: -0.3970748484134674
visibility: 0.996540904045105
","x: 91.34556579589844
y: 559.2417602539062
z: -0.43575605750083923
visibility: 0.9989882707595825
","x: 394.0622863769531
y: 848.7842407226562
z: -0.4017481207847595
visibility: 0.06495337933301926
","x: 11.75493335723877
y: 827.8472290039062
z: -0.4356876015663147
visibility: 0.27921974658966064
","x: 387.1614074707031
y: 1061.476318359375
z: -0.7674384713172913
visibility: 0.018723679706454277
","x: 22.024677276611328
y: 1063.125244140625
z: -0.8979612588882446
visibility: 0.06455869972705841
","x: 402.9561462402344
y: 1139.3399658203125
z: -0.8795768022537231
visibility: 0.025676419958472252
","x: 8.605093002319336
y: 1146.945556640625
