uscmakers/ReverseChoreography/recorded.csv
,NOSE,LEFT_EYE_INNER,LEFT_EYE,LEFT_EYE_OUTER,RIGHT_EYE_INNER,RIGHT_EYE,RIGHT_EYE_OUTER,LEFT_EAR,RIGHT_EAR,MOUTH_LEFT,MOUTH_RIGHT,LEFT_SHOULDER,RIGHT_SHOULDER,LEFT_ELBOW,RIGHT_ELBOW,LEFT_WRIST,RIGHT_WRIST,LEFT_PINKY,RIGHT_PINKY,LEFT_INDEX,RIGHT_INDEX,LEFT_THUMB,RIGHT_THUMB,LEFT_HIP,RIGHT_HIP,LEFT_KNEE,RIGHT_KNEE,LEFT_ANKLE,RIGHT_ANKLE,LEFT_HEEL,RIGHT_HEEL,LEFT_FOOT_INDEX,RIGHT_FOOT_INDEX,WRIST2,THUMB_CPC2,THUMB_MCP2,THUMB_IP2,THUMB_TIP2,INDEX_FINGER_MCP2,INDEX_FINGER_PIP2,INDEX_FINGER_DIP2,INDEX_FINGER_TIP2,MIDDLE_FINGER_MCP2,MIDDLE_FINGER_PIP2,MIDDLE_FINGER_DIP2,MIDDLE_FINGER_TIP2,RING_FINGER_PIP2,RING_FINGER_DIP2,RING_FINGER_TIP2,RING_FINGER_MCP2,PINKY_MCP2,PINKY_PIP2,PINKY_DIP2,PINKY_TIP2,TIMESTAMP,WRIST,THUMB_CPC,THUMB_MCP,THUMB_IP,THUMB_TIP,INDEX_FINGER_MCP,INDEX_FINGER_PIP,INDEX_FINGER_DIP,INDEX_FINGER_TIP,MIDDLE_FINGER_MCP,MIDDLE_FINGER_PIP,MIDDLE_FINGER_DIP,MIDDLE_FINGER_TIP,RING_FINGER_PIP,RING_FINGER_DIP,RING_FINGER_TIP,RING_FINGER_MCP,PINKY_MCP,PINKY_PIP,PINKY_DIP,PINKY_TIP
0,"x: 182.08726501464844
y: 265.80511474609375
z: -0.46432632207870483
visibility: 0.9999792575836182
","x: 181.7901153564453
y: 259.5938720703125
z: -0.46783456206321716
visibility: 0.999921441078186
","x: 182.6519012451172
y: 257.50006103515625
z: -0.4678119719028473
visibility: 0.9999339580535889
","x: 183.49893188476562
y: 255.14486694335938
z: -0.4678594172000885
visibility: 0.9999399185180664
","x: 179.2232666015625
y: 261.9498291015625
z: -0.46263569593429565
visibility: 0.9998860359191895
","x: 178.31765747070312
y: 261.66619873046875
z: -0.46270352602005005
visibility: 0.9998800754547119
","x: 177.29702758789062
y: 261.26666259765625
z: -0.4627205729484558
visibility: 0.9998849630355835
","x: 184.67259216308594
y: 247.4186553955078
z: -0.3777411878108978
visibility: 0.9999591112136841
","x: 175.302734375
y: 255.2688446044922
z: -0.3520388603210449
visibility: 0.9999042749404907
","x: 185.0283966064453
y: 264.5682373046875
z: -0.4211595058441162
visibility: 0.9999924898147583
","x: 182.3397979736328
y: 266.96453857421875
z: -0.41384977102279663
visibility: 0.9999784231185913
","x: 205.58505249023438
y: 252.29042053222656
z: -0.24582001566886902
visibility: 0.9999996423721313
","x: 168.51992797851562
y: 277.7541809082031
z: -0.20034050941467285
visibility: 0.9999843835830688
","x: 234.10641479492188
y: 237.61880493164062
z: -0.2438940554857254
visibility: 0.999776303768158
","x: 168.89102172851562
y: 328.6044616699219
z: -0.06769958138465881
visibility: 0.9869570732116699
","x: 225.7517852783203
y: 278.2964172363281
z: -0.3343625068664551
visibility: 0.9970675110816956
","x: 167.88380432128906
y: 378.4062194824219
z: -0.09554694592952728
visibility: 0.9780013561248779
","x: 222.21905517578125
y: 288.5423889160156
z: -0.3632831871509552
visibility: 0.9810406565666199
","x: 166.97100830078125
y: 394.04547119140625
z: -0.10649807751178741
visibility: 0.9438132047653198
","x: 218.94512939453125
y: 286.13250732421875
z: -0.37417182326316833
visibility: 0.9821589589118958
","x: 168.02178955078125
y: 393.85888671875
z: -0.1470569372177124
visibility: 0.9502131342887878
","x: 219.0110321044922
y: 283.3134765625
z: -0.33907443284988403
visibility: 0.9720146656036377
","x: 169.23968505859375
y: 388.9498596191406
z: -0.1099429577589035
visibility: 0.9322772026062012
","x: 205.39669799804688
y: 365.0509338378906
z: -0.007381746079772711
visibility: 0.9998544454574585
","x: 184.40020751953125
y: 367.8741760253906
z: 0.0074909767135977745
visibility: 0.9996067881584167
","x: 203.23187255859375
y: 444.8043518066406
z: -0.01750664971768856
visibility: 0.9769151210784912
","x: 186.45187377929688
y: 443.981689453125
z: -0.0385294146835804
visibility: 0.9906240105628967
","x: 204.08245849609375
y: 521.2965087890625
z: 0.12749800086021423
visibility: 0.9832640290260315
","x: 188.1302947998047
y: 522.7891845703125
z: 0.08259166032075882
visibility: 0.9824140071868896
","x: 201.90975952148438
y: 530.4503784179688
z: 0.13520169258117676
visibility: 0.8880985975265503
","x: 189.6892852783203
y: 531.92236328125
z: 0.08817732334136963
visibility: 0.8755373358726501
","x: 204.9030303955078
y: 547.487548828125
z: 0.014910330064594746
visibility: 0.978898286819458
","x: 192.49661254882812
y: 547.687744140625
z: -0.03595058247447014
visibility: 0.9821933507919312
","x: 226.4186553955078
y: 277.8436584472656
z: 0.0
","x: 221.7514190673828
y: 274.5205993652344
z: -0.002251671627163887
","x: 217.27784729003906
y: 275.2323913574219
z: -0.0034120550844818354
","x: 214.30479431152344
y: 279.0755920410156
z: -0.0038092334289103746
","x: 214.18016052246094
y: 283.0732421875
z: -0.0035593973007053137
","x: 219.0516357421875
y: 284.7523498535156
z: -0.006732765585184097
","x: 214.02432250976562
y: 286.294921875
z: -0.00701528275385499
","x: 215.09266662597656
y: 282.4185791015625
z: -0.00504590617492795
","x: 217.05003356933594
y: 281.209228515625
z: -0.0035739808809012175
","x: 220.4835968017578
y: 289.3455810546875
z: -0.006074074190109968
","x: 215.4661407470703
y: 291.0031433105469
z: -0.005636591464281082
","x: 216.012451171875
y: 287.6189270019531
z: -0.0027807492297142744
","x: 217.73379516601562
y: 286.0272521972656
z: -0.001098864828236401
","x: 221.67164611816406
y: 292.0520935058594
z: -0.005235420539975166
","x: 217.09136962890625
y: 293.144775390625
z: -0.005134871229529381
","x: 217.41265869140625
y: 289.9908752441406
z: -0.0031000643502920866
","x: 218.95643615722656
y: 288.5593566894531
z: -0.002047307323664427
","x: 222.56675720214844
y: 293.6838684082031
z: -0.004540461115539074
","x: 218.80313110351562
y: 293.943603515625
z: -0.004966020118445158
","x: 219.09434509277344
y: 291.5602722167969
z: -0.00413538096472621
","x: 220.46084594726562
y: 290.43011474609375
z: -0.0034170278813689947
",4.193363904953003,,,,,,,,,,,,,,,,,,,,,
1,"x: 182.08726501464844
y: 265.80511474609375
z: -0.46432632207870483
visibility: 0.9999792575836182
","x: 181.7901153564453
y: 259.5938720703125
z: -0.46783456206321716
visibility: 0.999921441078186
","x: 182.6519012451172
y: 257.50006103515625
z: -0.4678119719028473
visibility: 0.9999339580535889
","x: 183.49893188476562
y: 255.14486694335938
z: -0.4678594172000885
visibility: 0.9999399185180664
","x: 179.2232666015625
y: 261.9498291015625
z: -0.46263569593429565
visibility: 0.9998860359191895
","x: 178.31765747070312
y: 261.66619873046875
z: -0.46270352602005005
visibility: 0.9998800754547119
","x: 177.29702758789062
y: 261.26666259765625
z: -0.4627205729484558
visibility: 0.9998849630355835
","x: 184.67259216308594
y: 247.4186553955078
z: -0.3777411878108978
visibility: 0.9999591112136841
","x: 175.302734375
y: 255.2688446044922
z: -0.3520388603210449
visibility: 0.9999042749404907
","x: 185.0283966064453
y: 264.5682373046875
z: -0.4211595058441162
visibility: 0.9999924898147583
","x: 182.3397979736328
y: 266.96453857421875
z: -0.41384977102279663
visibility: 0.9999784231185913
","x: 205.58505249023438
y: 252.29042053222656
z: -0.24582001566886902
visibility: 0.9999996423721313
","x: 168.51992797851562
y: 277.7541809082031
z: -0.20034050941467285
visibility: 0.9999843835830688
","x: 234.10641479492188
y: 237.61880493164062
z: -0.2438940554857254
visibility: 0.999776303768158
","x: 168.89102172851562
y: 328.6044616699219
z: -0.06769958138465881
visibility: 0.9869570732116699
","x: 225.7517852783203
y: 278.2964172363281
z: -0.3343625068664551
visibility: 0.9970675110816956
","x: 167.88380432128906
y: 378.4062194824219
z: -0.09554694592952728
visibility: 0.9780013561248779
","x: 222.21905517578125
y: 288.5423889160156
z: -0.3632831871509552
visibility: 0.9810406565666199
","x: 166.97100830078125
y: 394.04547119140625
z: -0.10649807751178741
visibility: 0.9438132047653198
","x: 218.94512939453125
y: 286.13250732421875
z: -0.37417182326316833
visibility: 0.9821589589118958
","x: 168.02178955078125
y: 393.85888671875
z: -0.1470569372177124
visibility: 0.9502131342887878
","x: 219.0110321044922
y: 283.3134765625
z: -0.33907443284988403
visibility: 0.9720146656036377
","x: 169.23968505859375
y: 388.9498596191406
z: -0.1099429577589035
visibility: 0.9322772026062012
","x: 205.39669799804688
y: 365.0509338378906
z: -0.007381746079772711
visibility: 0.9998544454574585
","x: 184.40020751953125
y: 367.8741760253906
z: 0.0074909767135977745
visibility: 0.9996067881584167
","x: 203.23187255859375
y: 444.8043518066406
z: -0.01750664971768856
visibility: 0.9769151210784912
","x: 186.45187377929688
y: 443.981689453125
z: -0.0385294146835804
visibility: 0.9906240105628967
","x: 204.08245849609375
y: 521.2965087890625
z: 0.12749800086021423
visibility: 0.9832640290260315
","x: 188.1302947998047
y: 522.7891845703125
z: 0.08259166032075882
visibility: 0.9824140071868896
","x: 201.90975952148438
y: 530.4503784179688
z: 0.13520169258117676
visibility: 0.8880985975265503
","x: 189.6892852783203
y: 531.92236328125
z: 0.08817732334136963
visibility: 0.8755373358726501
","x: 204.9030303955078
y: 547.487548828125
z: 0.014910330064594746
visibility: 0.978898286819458
","x: 192.49661254882812
y: 547.687744140625
z: -0.03595058247447014
visibility: 0.9821933507919312
","x: 226.4186553955078
y: 277.8436584472656
z: 0.0
","x: 221.7514190673828
y: 274.5205993652344
z: -0.002251671627163887
","x: 217.27784729003906
y: 275.2323913574219
z: -0.0034120550844818354
","x: 214.30479431152344
y: 279.0755920410156
z: -0.0038092334289103746
","x: 214.18016052246094
y: 283.0732421875
z: -0.0035593973007053137
","x: 219.0516357421875
y: 284.7523498535156
z: -0.006732765585184097
","x: 214.02432250976562
y: 286.294921875
z: -0.00701528275385499
","x: 215.09266662597656
y: 282.4185791015625
z: -0.00504590617492795
","x: 217.05003356933594
y: 281.209228515625
z: -0.0035739808809012175
","x: 220.4835968017578
y: 289.3455810546875
z: -0.006074074190109968
","x: 215.4661407470703
y: 291.0031433105469
z: -0.005636591464281082
","x: 216.012451171875
y: 287.6189270019531
z: -0.0027807492297142744
","x: 217.73379516601562
y: 286.0272521972656
z: -0.001098864828236401
","x: 221.67164611816406
y: 292.0520935058594
z: -0.005235420539975166
","x: 217.09136962890625
y: 293.144775390625
z: -0.005134871229529381
","x: 217.41265869140625
y: 289.9908752441406
z: -0.0031000643502920866
","x: 218.95643615722656
y: 288.5593566894531
z: -0.002047307323664427
","x: 222.56675720214844
y: 293.6838684082031
z: -0.004540461115539074
","x: 218.80313110351562
y: 293.943603515625
z: -0.004966020118445158
","x: 219.09434509277344
y: 291.5602722167969
z: -0.00413538096472621
","x: 220.46084594726562
y: 290.43011474609375
z: -0.0034170278813689947
",4.193363904953003,,,,,,,,,,,,,,,,,,,,,
2,"x: 182.08726501464844
y: 265.80511474609375
z: -0.46432632207870483
visibility: 0.9999792575836182
","x: 181.7901153564453
y: 259.5938720703125
z: -0.46783456206321716
visibility: 0.999921441078186
","x: 182.6519012451172
y: 257.50006103515625
z: -0.4678119719028473
visibility: 0.9999339580535889
","x: 183.49893188476562
y: 255.14486694335938
z: -0.4678594172000885
visibility: 0.9999399185180664
","x: 179.2232666015625
y: 261.9498291015625
z: -0.46263569593429565
visibility: 0.9998860359191895
","x: 178.31765747070312
y: 261.66619873046875
z: -0.46270352602005005
visibility: 0.9998800754547119
","x: 177.29702758789062
y: 261.26666259765625
z: -0.4627205729484558
visibility: 0.9998849630355835
","x: 184.67259216308594
y: 247.4186553955078
z: -0.3777411878108978
visibility: 0.9999591112136841
","x: 175.302734375
y: 255.2688446044922
z: -0.3520388603210449
visibility: 0.9999042749404907
","x: 185.0283966064453
y: 264.5682373046875
z: -0.4211595058441162
visibility: 0.9999924898147583
","x: 182.3397979736328
y: 266.96453857421875
z: -0.41384977102279663
visibility: 0.9999784231185913
","x: 205.58505249023438
y: 252.29042053222656
z: -0.24582001566886902
visibility: 0.9999996423721313
","x: 168.51992797851562
y: 277.7541809082031
z: -0.20034050941467285
visibility: 0.9999843835830688
","x: 234.10641479492188
y: 237.61880493164062
z: -0.2438940554857254
visibility: 0.999776303768158
","x: 168.89102172851562
y: 328.6044616699219
z: -0.06769958138465881
visibility: 0.9869570732116699
","x: 225.7517852783203
y: 278.2964172363281
z: -0.3343625068664551
visibility: 0.9970675110816956
","x: 167.88380432128906
y: 378.4062194824219
z: -0.09554694592952728
visibility: 0.9780013561248779
","x: 222.21905517578125
y: 288.5423889160156
z: -0.3632831871509552
visibility: 0.9810406565666199
","x: 166.97100830078125
y: 394.04547119140625
z: -0.10649807751178741
visibility: 0.9438132047653198
","x: 218.94512939453125
y: 286.13250732421875
z: -0.37417182326316833
visibility: 0.9821589589118958
","x: 168.02178955078125
y: 393.85888671875
z: -0.1470569372177124
visibility: 0.9502131342887878
","x: 219.0110321044922
y: 283.3134765625
z: -0.33907443284988403
visibility: 0.9720146656036377
","x: 169.23968505859375
y: 388.9498596191406
z: -0.1099429577589035
visibility: 0.9322772026062012
","x: 205.39669799804688
y: 365.0509338378906
z: -0.007381746079772711
visibility: 0.9998544454574585
","x: 184.40020751953125
y: 367.8741760253906
z: 0.0074909767135977745
visibility: 0.9996067881584167
","x: 203.23187255859375
y: 444.8043518066406
z: -0.01750664971768856
visibility: 0.9769151210784912
","x: 186.45187377929688
y: 443.981689453125
z: -0.0385294146835804
visibility: 0.9906240105628967
","x: 204.08245849609375
y: 521.2965087890625
z: 0.12749800086021423
visibility: 0.9832640290260315
","x: 188.1302947998047
y: 522.7891845703125
z: 0.08259166032075882
visibility: 0.9824140071868896
","x: 201.90975952148438
y: 530.4503784179688
z: 0.13520169258117676
visibility: 0.8880985975265503
","x: 189.6892852783203
y: 531.92236328125
z: 0.08817732334136963
visibility: 0.8755373358726501
","x: 204.9030303955078
y: 547.487548828125
z: 0.014910330064594746
visibility: 0.978898286819458
","x: 192.49661254882812
y: 547.687744140625
z: -0.03595058247447014
visibility: 0.9821933507919312
","x: 226.4186553955078
y: 277.8436584472656
z: 0.0
","x: 221.7514190673828
y: 274.5205993652344
z: -0.002251671627163887
","x: 217.27784729003906
y: 275.2323913574219
z: -0.0034120550844818354
","x: 214.30479431152344
y: 279.0755920410156
z: -0.0038092334289103746
","x: 214.18016052246094
y: 283.0732421875
z: -0.0035593973007053137
","x: 219.0516357421875
y: 284.7523498535156
z: -0.006732765585184097
","x: 214.02432250976562
y: 286.294921875
z: -0.00701528275385499
","x: 215.09266662597656
y: 282.4185791015625
z: -0.00504590617492795
","x: 217.05003356933594
y: 281.209228515625
z: -0.0035739808809012175
","x: 220.4835968017578
y: 289.3455810546875
z: -0.006074074190109968
","x: 215.4661407470703
y: 291.0031433105469
z: -0.005636591464281082
","x: 216.012451171875
y: 287.6189270019531
z: -0.0027807492297142744
","x: 217.73379516601562
y: 286.0272521972656
z: -0.001098864828236401
","x: 221.67164611816406
y: 292.0520935058594
z: -0.005235420539975166
","x: 217.09136962890625
y: 293.144775390625
z: -0.005134871229529381
","x: 217.41265869140625
y: 289.9908752441406
z: -0.0031000643502920866
","x: 218.95643615722656
y: 288.5593566894531
z: -0.002047307323664427
","x: 222.56675720214844
y: 293.6838684082031
z: -0.004540461115539074
","x: 218.80313110351562
y: 293.943603515625
z: -0.004966020118445158
","x: 219.09434509277344
y: 291.5602722167969
z: -0.00413538096472621
","x: 220.46084594726562
y: 290.43011474609375
z: -0.0034170278813689947
",4.193363904953003,,,,,,,,,,,,,,,,,,,,,
3,"x: 182.1129913330078
y: 257.5710144042969
z: 0.09567325562238693
visibility: 0.9986294507980347
","x: 181.2021026611328
y: 253.00469970703125
z: 0.05821027606725693
visibility: 0.9982457160949707
","x: 180.930908203125
y: 253.0839385986328
z: 0.05817359685897827
visibility: 0.9986171126365662
","x: 180.42494201660156
y: 252.9287872314453
z: 0.05813201144337654
visibility: 0.9982005953788757
","x: 181.15261840820312
y: 251.7377471923828
z: 0.07229377329349518
visibility: 0.9983464479446411
","x: 181.82785034179688
y: 251.10984802246094
z: 0.07229544967412949
visibility: 0.998634397983551
","x: 182.64910888671875
y: 250.4981689453125
z: 0.07221975177526474
visibility: 0.9983011484146118
","x: 180.7595672607422
y: 248.8731689453125
z: -0.05494282767176628
visibility: 0.9986888766288757
","x: 185.34243774414062
y: 249.72848510742188
z: 0.009672215208411217
visibility: 0.9980580806732178
","x: 183.9852752685547
y: 260.8974304199219
z: 0.06248476356267929
visibility: 0.9979398250579834
","x: 183.6276092529297
y: 260.0108642578125
z: 0.08086953312158585
visibility: 0.9975908994674683
","x: 177.4549560546875
y: 272.876708984375
z: -0.10761477053165436
visibility: 0.9999889731407166
","x: 206.3574981689453
y: 272.0946350097656
z: 0.021430663764476776
visibility: 0.9999226927757263
","x: 166.00399780273438
y: 315.4682312011719
z: -0.09892139583826065
visibility: 0.9990027546882629
","x: 230.0964813232422
y: 303.79345703125
z: 0.08713709563016891
visibility: 0.9873673915863037
","x: 150.00418090820312
y: 336.7513427734375
z: -0.05013282969594002
visibility: 0.9934600591659546
","x: 235.3590087890625
y: 297.40667724609375
z: 0.15725326538085938
visibility: 0.9660690426826477
","x: 145.42733764648438
y: 342.5516052246094
z: -0.05713147670030594
visibility: 0.9758009910583496
","x: 239.1124267578125
y: 297.4410705566406
z: 0.16752871870994568
visibility: 0.9248290657997131
","x: 145.41197204589844
y: 339.3922119140625
z: -0.052648115903139114
visibility: 0.9765832424163818
","x: 236.34188842773438
y: 294.23992919921875
z: 0.16166143119335175
visibility: 0.9289239645004272
","x: 147.47586059570312
y: 338.2000427246094
z: -0.04527822881937027
visibility: 0.9603999257087708
","x: 234.78575134277344
y: 294.85968017578125
z: 0.15704801678657532
visibility: 0.9074156284332275
","x: 188.12474060058594
y: 372.5195007324219
z: -0.05472909286618233
visibility: 0.9997166991233826
","x: 196.9379425048828
y: 373.69439697265625
z: 0.05460116267204285
visibility: 0.9992185831069946
","x: 183.392578125
y: 445.6117248535156
z: -0.05659882351756096
visibility: 0.978514552116394
","x: 192.41445922851562
y: 446.1444091796875
z: 0.08912762999534607
visibility: 0.9870356917381287
","x: 188.4532012939453
y: 522.9424438476562
z: -0.01872372068464756
visibility: 0.9841894507408142
","x: 198.05233764648438
y: 523.054443359375
z: 0.12353304773569107
visibility: 0.9804970026016235
","x: 193.0145263671875
y: 534.8135986328125
z: -0.014967028982937336
visibility: 0.8987284898757935
","x: 201.25704956054688
y: 536.723876953125
z: 0.12556639313697815
visibility: 0.8848387002944946
","x: 176.3404998779297
y: 543.823974609375
z: -0.04822646826505661
visibility: 0.9769651293754578
","x: 190.72618103027344
y: 541.4548950195312
z: 0.08610126376152039
visibility: 0.9656563401222229
",,,,,,,,,,,,,,,,,,,,,,4.768940210342407,,,,,,,,,,,,,,,,,,,,,
4,"x: 182.1129913330078
y: 257.5710144042969
z: 0.09567325562238693
visibility: 0.9986294507980347
","x: 181.2021026611328
y: 253.00469970703125
z: 0.05821027606725693
visibility: 0.9982457160949707
","x: 180.930908203125
y: 253.0839385986328
z: 0.05817359685897827
visibility: 0.9986171126365662
","x: 180.42494201660156
y: 252.9287872314453
z: 0.05813201144337654
visibility: 0.9982005953788757
","x: 181.15261840820312
y: 251.7377471923828
z: 0.07229377329349518
visibility: 0.9983464479446411
","x: 181.82785034179688
y: 251.10984802246094
z: 0.07229544967412949
visibility: 0.998634397983551
","x: 182.64910888671875
y: 250.4981689453125
z: 0.07221975177526474
visibility: 0.9983011484146118
","x: 180.7595672607422
y: 248.8731689453125
z: -0.05494282767176628
visibility: 0.9986888766288757
","x: 185.34243774414062
y: 249.72848510742188
z: 0.009672215208411217
visibility: 0.9980580806732178
","x: 183.9852752685547
y: 260.8974304199219
z: 0.06248476356267929
visibility: 0.9979398250579834
","x: 183.6276092529297
y: 260.0108642578125
z: 0.08086953312158585
visibility: 0.9975908994674683
","x: 177.4549560546875
y: 272.876708984375
z: -0.10761477053165436
visibility: 0.9999889731407166
","x: 206.3574981689453
y: 272.0946350097656
z: 0.021430663764476776
visibility: 0.9999226927757263
","x: 166.00399780273438
y: 315.4682312011719
z: -0.09892139583826065
visibility: 0.9990027546882629
","x: 230.0964813232422
y: 303.79345703125
z: 0.08713709563016891
visibility: 0.9873673915863037
","x: 150.00418090820312
y: 336.7513427734375
z: -0.05013282969594002
visibility: 0.9934600591659546
","x: 235.3590087890625
y: 297.40667724609375
z: 0.15725326538085938
visibility: 0.9660690426826477
","x: 145.42733764648438
y: 342.5516052246094
z: -0.05713147670030594
visibility: 0.9758009910583496
","x: 239.1124267578125
y: 297.4410705566406
z: 0.16752871870994568
visibility: 0.9248290657997131
","x: 145.41197204589844
y: 339.3922119140625
z: -0.052648115903139114
visibility: 0.9765832424163818
","x: 236.34188842773438
y: 294.23992919921875
z: 0.16166143119335175
visibility: 0.9289239645004272
","x: 147.47586059570312
y: 338.2000427246094
z: -0.04527822881937027
visibility: 0.9603999257087708
","x: 234.78575134277344
y: 294.85968017578125
z: 0.15704801678657532
visibility: 0.9074156284332275
","x: 188.12474060058594
y: 372.5195007324219
z: -0.05472909286618233
visibility: 0.9997166991233826
","x: 196.9379425048828
y: 373.69439697265625
z: 0.05460116267204285
visibility: 0.9992185831069946
","x: 183.392578125
y: 445.6117248535156
z: -0.05659882351756096
visibility: 0.978514552116394
","x: 192.41445922851562
y: 446.1444091796875
z: 0.08912762999534607
visibility: 0.9870356917381287
","x: 188.4532012939453
y: 522.9424438476562
z: -0.01872372068464756
visibility: 0.9841894507408142
","x: 198.05233764648438
y: 523.054443359375
z: 0.12353304773569107
visibility: 0.9804970026016235
","x: 193.0145263671875
y: 534.8135986328125
z: -0.014967028982937336
visibility: 0.8987284898757935
","x: 201.25704956054688
y: 536.723876953125
z: 0.12556639313697815
visibility: 0.8848387002944946
","x: 176.3404998779297
y: 543.823974609375
z: -0.04822646826505661
visibility: 0.9769651293754578
","x: 190.72618103027344
y: 541.4548950195312
z: 0.08610126376152039
visibility: 0.9656563401222229
",,,,,,,,,,,,,,,,,,,,,,4.768940210342407,,,,,,,,,,,,,,,,,,,,,
5,"x: 183.7836151123047
y: 279.96319580078125
z: -0.2298252284526825
visibility: 0.9987100958824158
","x: 184.7816162109375
y: 273.849609375
z: -0.2379893958568573
visibility: 0.9982526302337646
","x: 186.06918334960938
y: 272.0117492675781
z: -0.23803123831748962
visibility: 0.9986274242401123
","x: 187.44725036621094
y: 270.0836486816406
z: -0.23811061680316925
visibility: 0.9982377886772156
","x: 182.0000762939453
y: 275.00775146484375
z: -0.22667595744132996
visibility: 0.9981419444084167
","x: 181.73727416992188
y: 274.03265380859375
z: -0.2267046868801117
visibility: 0.9983511567115784
","x: 181.69268798828125
y: 273.12420654296875
z: -0.22674643993377686
visibility: 0.9980265498161316
","x: 189.736083984375
y: 259.25250244140625
z: -0.18971511721611023
visibility: 0.9986990094184875
","x: 182.56240844726562
y: 265.2044677734375
z: -0.13357627391815186
visibility: 0.9977552890777588
","x: 186.96475219726562
y: 276.6156921386719
z: -0.20329590141773224
visibility: 0.9980960488319397
","x: 183.702880859375
y: 278.40289306640625
z: -0.187589630484581
visibility: 0.9977009892463684
","x: 206.7341766357422
y: 270.26165771484375
z: -0.106968954205513
visibility: 0.9999865889549255
","x: 199.7997283935547
y: 273.01190185546875
z: -0.03193309158086777
visibility: 0.9999126195907593
","x: 217.43565368652344
y: 310.0216064453125
z: -0.17203526198863983
visibility: 0.998521089553833
","x: 169.3646240234375
y: 308.8451843261719
z: 0.0035043652169406414
visibility: 0.986976146697998
","x: 234.56300354003906
y: 323.16217041015625
z: -0.35885053873062134
visibility: 0.9933086633682251
","x: 144.51976013183594
y: 296.05596923828125
z: -0.1251445710659027
visibility: 0.968699038028717
","x: 239.58810424804688
y: 295.98321533203125
z: -0.3967917263507843
visibility: 0.9761829376220703
","x: 137.50637817382812
y: 290.43341064453125
z: -0.1491013616323471
visibility: 0.9302161335945129
","x: 238.77008056640625
y: 290.1761474609375
z: -0.41471067070961
visibility: 0.9772131443023682
","x: 137.67996215820312
y: 286.5777587890625
z: -0.17213255167007446
visibility: 0.9342175722122192
","x: 237.07626342773438
y: 294.80938720703125
z: -0.37248343229293823
visibility: 0.9620741009712219
","x: 139.86402893066406
y: 288.33056640625
z: -0.1398843675851822
visibility: 0.9144212603569031
","x: 194.2603302001953
y: 373.7705078125
z: -0.036981042474508286
visibility: 0.9996518492698669
","x: 188.0661163330078
y: 373.9195556640625
z: 0.03708332031965256
visibility: 0.9991940855979919
","x: 185.77984619140625
y: 448.0040283203125
z: -0.06677976995706558
visibility: 0.9797539710998535
","x: 183.04171752929688
y: 446.059326171875
z: 0.022602902725338936
visibility: 0.987449049949646
","x: 190.50201416015625
y: 522.603759765625
z: 0.03495156019926071
visibility: 0.9847717881202698
","x: 187.4729461669922
y: 522.204833984375
z: 0.10813021659851074
visibility: 0.9811592698097229
","x: 198.02029418945312
y: 534.4172973632812
z: 0.040139131247997284
visibility: 0.8978196978569031
","x: 193.74478149414062
y: 533.4415283203125
z: 0.11200156062841415
visibility: 0.8868496417999268
","x: 188.80223083496094
y: 544.1226806640625
z: -0.062100909650325775
visibility: 0.9778248071670532
","x: 178.53265380859375
y: 542.046875
z: 0.021968325600028038
visibility: 0.9674348831176758
",,,,,,,,,,,,,,,,,,,,,,4.9082231521606445,,,,,,,,,,,,,,,,,,,,,
6,"x: 183.7836151123047
y: 279.96319580078125
z: -0.2298252284526825
visibility: 0.9987100958824158
","x: 184.7816162109375
y: 273.849609375
z: -0.2379893958568573
visibility: 0.9982526302337646
","x: 186.06918334960938
y: 272.0117492675781
z: -0.23803123831748962
visibility: 0.9986274242401123
","x: 187.44725036621094
y: 270.0836486816406
z: -0.23811061680316925
visibility: 0.9982377886772156
","x: 182.0000762939453
y: 275.00775146484375
z: -0.22667595744132996
visibility: 0.9981419444084167
","x: 181.73727416992188
y: 274.03265380859375
z: -0.2267046868801117
visibility: 0.9983511567115784
","x: 181.69268798828125
y: 273.12420654296875
z: -0.22674643993377686
visibility: 0.9980265498161316
","x: 189.736083984375
y: 259.25250244140625
z: -0.18971511721611023
visibility: 0.9986990094184875
","x: 182.56240844726562
y: 265.2044677734375
z: -0.13357627391815186
visibility: 0.9977552890777588
","x: 186.96475219726562
y: 276.6156921386719
z: -0.20329590141773224
visibility: 0.9980960488319397
","x: 183.702880859375
y: 278.40289306640625
z: -0.187589630484581
visibility: 0.9977009892463684
","x: 206.7341766357422
y: 270.26165771484375
z: -0.106968954205513
visibility: 0.9999865889549255
","x: 199.7997283935547
y: 273.01190185546875
z: -0.03193309158086777
visibility: 0.9999126195907593
","x: 217.43565368652344
y: 310.0216064453125
z: -0.17203526198863983
visibility: 0.998521089553833
","x: 169.3646240234375
y: 308.8451843261719
z: 0.0035043652169406414
visibility: 0.986976146697998
","x: 234.56300354003906
y: 323.16217041015625
z: -0.35885053873062134
visibility: 0.9933086633682251
","x: 144.51976013183594
y: 296.05596923828125
z: -0.1251445710659027
visibility: 0.968699038028717
","x: 239.58810424804688
y: 295.98321533203125
z: -0.3967917263507843
visibility: 0.9761829376220703
","x: 137.50637817382812
y: 290.43341064453125
z: -0.1491013616323471
visibility: 0.9302161335945129
","x: 238.77008056640625
y: 290.1761474609375
z: -0.41471067070961
visibility: 0.9772131443023682
","x: 137.67996215820312
y: 286.5777587890625
z: -0.17213255167007446
visibility: 0.9342175722122192
","x: 237.07626342773438
y: 294.80938720703125
z: -0.37248343229293823
visibility: 0.9620741009712219
","x: 139.86402893066406
y: 288.33056640625
z: -0.1398843675851822
visibility: 0.9144212603569031
","x: 194.2603302001953
y: 373.7705078125
z: -0.036981042474508286
visibility: 0.9996518492698669
","x: 188.0661163330078
y: 373.9195556640625
z: 0.03708332031965256
visibility: 0.9991940855979919
","x: 185.77984619140625
y: 448.0040283203125
z: -0.06677976995706558
visibility: 0.9797539710998535
","x: 183.04171752929688
y: 446.059326171875
z: 0.022602902725338936
visibility: 0.987449049949646
","x: 190.50201416015625
y: 522.603759765625
z: 0.03495156019926071
visibility: 0.9847717881202698
","x: 187.4729461669922
y: 522.204833984375
z: 0.10813021659851074
visibility: 0.9811592698097229
","x: 198.02029418945312
y: 534.4172973632812
z: 0.040139131247997284
visibility: 0.8978196978569031
","x: 193.74478149414062
y: 533.4415283203125
z: 0.11200156062841415
visibility: 0.8868496417999268
","x: 188.80223083496094
y: 544.1226806640625
z: -0.062100909650325775
visibility: 0.9778248071670532
","x: 178.53265380859375
y: 542.046875
z: 0.021968325600028038
visibility: 0.9674348831176758
",,,,,,,,,,,,,,,,,,,,,,4.9082231521606445,,,,,,,,,,,,,,,,,,,,,
7,"x: 188.33724975585938
y: 280.1847229003906
z: -0.283253014087677
visibility: 0.9987398982048035
","x: 189.50653076171875
y: 273.48193359375
z: -0.28490468859672546
visibility: 0.998177707195282
","x: 190.93309020996094
y: 272.07928466796875
z: -0.28494852781295776
visibility: 0.9985666871070862
","x: 192.3578338623047
y: 270.6531066894531
z: -0.2850498557090759
visibility: 0.9982177019119263
","x: 185.51075744628906
y: 273.6496887207031
z: -0.28240540623664856
visibility: 0.9978159666061401
","x: 184.4686737060547
y: 272.6961975097656
z: -0.2824479639530182
visibility: 0.9979459643363953
","x: 183.57144165039062
y: 271.9859924316406
z: -0.282504677772522
visibility: 0.9975965619087219
","x: 193.3788299560547
y: 260.08001708984375
z: -0.20600327849388123
visibility: 0.998586893081665
","x: 182.74432373046875
y: 265.7013244628906
z: -0.1936209499835968
visibility: 0.9973800778388977
","x: 190.99710083007812
y: 277.55908203125
z: -0.24587424099445343
visibility: 0.9982199668884277
","x: 186.67799377441406
y: 278.29852294921875
z: -0.24217113852500916
visibility: 0.9978044629096985
","x: 210.23922729492188
y: 270.286865234375
z: -0.09912686049938202
visibility: 0.9999827146530151
","x: 192.61473083496094
y: 273.44427490234375
z: -0.09343047440052032
visibility: 0.9998987913131714
","x: 227.81890869140625
y: 307.3935241699219
z: -0.17758817970752716
visibility: 0.9978581666946411
","x: 161.14723205566406
y: 306.8731384277344
z: -0.13048173487186432
visibility: 0.9874831438064575
","x: 238.72686767578125
y: 322.46197509765625
z: -0.39340242743492126
visibility: 0.9930708408355713
","x: 147.75823974609375
y: 276.87066650390625
z: -0.30147045850753784
visibility: 0.9708837270736694
","x: 242.21090698242188
y: 283.2693176269531
z: -0.4326454997062683
visibility: 0.9760237336158752
","x: 142.31924438476562
y: 265.71197509765625
z: -0.3322006165981293
visibility: 0.9345641136169434
","x: 240.60084533691406
y: 277.5357666015625
z: -0.4466724395751953
visibility: 0.9773353934288025
","x: 143.9236602783203
y: 261.9725646972656
z: -0.3474847972393036
visibility: 0.9383736848831177
","x: 239.12335205078125
y: 281.50048828125
z: -0.40528053045272827
visibility: 0.9629560112953186
","x: 146.22341918945312
y: 266.00537109375
z: -0.31240949034690857
visibility: 0.9196237921714783
","x: 199.24594116210938
y: 372.651611328125
z: 0.0013430783292278647
visibility: 0.9995208382606506
","x: 187.3082733154297
y: 373.760986328125
z: -0.001176749705336988
visibility: 0.9990978240966797
","x: 199.18838500976562
y: 449.50909423828125
z: -0.05459430813789368
visibility: 0.9766587018966675
","x: 187.12351989746094
y: 445.6737976074219
z: -0.0661185085773468
visibility: 0.9850979447364807
","x: 192.8253631591797
y: 522.723876953125
z: 0.04475972056388855
visibility: 0.97986900806427
","x: 185.4989776611328
y: 523.0111083984375
z: 0.023815298452973366
visibility: 0.9758420586585999
","x: 198.43011474609375
y: 534.24609375
z: 0.049014393240213394
visibility: 0.8863897919654846
","x: 186.46376037597656
y: 533.5511474609375
z: 0.0265484806150198
visibility: 0.8628237247467041
","x: 193.01174926757812
y: 543.25439453125
z: -0.05703424662351608
visibility: 0.973232626914978
","x: 184.25694274902344
y: 542.2779541015625
z: -0.09229341894388199
visibility: 0.9630962014198303
",,,,,,,,,,,,,,,,,,,,,,5.063067674636841,"x: 146.89578247070312
y: 271.0011291503906
z: 0.0
","x: 148.22128295898438
y: 264.5191650390625
z: -0.0003202887892257422
","x: 148.44227600097656
y: 257.5133056640625
z: -0.0009281124221161008
","x: 148.78704833984375
y: 252.54568481445312
z: -0.0022176243364810944
","x: 148.83860778808594
y: 248.55361938476562
z: -0.003410895587876439
","x: 142.5829620361328
y: 254.64300537109375
z: 0.0022549473214894533
","x: 141.2965850830078
y: 248.34039306640625
z: 0.0002702217025216669
","x: 140.681640625
y: 243.66896057128906
z: -0.0016029919497668743
","x: 140.3112030029297
y: 239.8062286376953
z: -0.0028072658460587263
","x: 141.55502319335938
y: 255.99942016601562
z: 0.0003943073970731348
","x: 140.14767456054688
y: 249.59397888183594
z: -0.0013302783481776714
","x: 139.89833068847656
y: 244.59109497070312
z: -0.00304117938503623
","x: 139.89599609375
y: 240.4875030517578
z: -0.004257954657077789
","x: 140.68646240234375
y: 258.2153625488281
z: -0.0020348140969872475
","x: 139.07388305664062
y: 252.24143981933594
z: -0.0040102554485201836
","x: 138.86871337890625
y: 247.690185546875
z: -0.005280471406877041
","x: 138.99313354492188
y: 243.99932861328125
z: -0.006077731028199196
","x: 140.12832641601562
y: 261.3174133300781
z: -0.004761796910315752
","x: 138.09495544433594
y: 257.057373046875
z: -0.006334962323307991
","x: 137.44300842285156
y: 253.9071044921875
z: -0.007045110687613487
","x: 137.28041076660156
y: 251.118896484375
z: -0.007519301027059555
"
8,"x: 188.33724975585938
y: 280.1847229003906
z: -0.283253014087677
visibility: 0.9987398982048035
","x: 189.50653076171875
y: 273.48193359375
z: -0.28490468859672546
visibility: 0.998177707195282
","x: 190.93309020996094
y: 272.07928466796875
z: -0.28494852781295776
visibility: 0.9985666871070862
","x: 192.3578338623047
y: 270.6531066894531
z: -0.2850498557090759
visibility: 0.9982177019119263
","x: 185.51075744628906
y: 273.6496887207031
z: -0.28240540623664856
visibility: 0.9978159666061401
","x: 184.4686737060547
y: 272.6961975097656
z: -0.2824479639530182
visibility: 0.9979459643363953
","x: 183.57144165039062
y: 271.9859924316406
z: -0.282504677772522
visibility: 0.9975965619087219
","x: 193.3788299560547
y: 260.08001708984375
z: -0.20600327849388123
visibility: 0.998586893081665
","x: 182.74432373046875
y: 265.7013244628906
z: -0.1936209499835968
visibility: 0.9973800778388977
","x: 190.99710083007812
y: 277.55908203125
z: -0.24587424099445343
visibility: 0.9982199668884277
","x: 186.67799377441406
y: 278.29852294921875
z: -0.24217113852500916
visibility: 0.9978044629096985
","x: 210.23922729492188
y: 270.286865234375
z: -0.09912686049938202
visibility: 0.9999827146530151
","x: 192.61473083496094
y: 273.44427490234375
z: -0.09343047440052032
visibility: 0.9998987913131714
","x: 227.81890869140625
y: 307.3935241699219
z: -0.17758817970752716
visibility: 0.9978581666946411
","x: 161.14723205566406
y: 306.8731384277344
z: -0.13048173487186432
visibility: 0.9874831438064575
","x: 238.72686767578125
y: 322.46197509765625
z: -0.39340242743492126
visibility: 0.9930708408355713
","x: 147.75823974609375
y: 276.87066650390625
z: -0.30147045850753784
visibility: 0.9708837270736694
","x: 242.21090698242188
y: 283.2693176269531
z: -0.4326454997062683
visibility: 0.9760237336158752
","x: 142.31924438476562
y: 265.71197509765625
z: -0.3322006165981293
visibility: 0.9345641136169434
","x: 240.60084533691406
y: 277.5357666015625
z: -0.4466724395751953
visibility: 0.9773353934288025
","x: 143.9236602783203
y: 261.9725646972656
z: -0.3474847972393036
visibility: 0.9383736848831177
","x: 239.12335205078125
y: 281.50048828125
z: -0.40528053045272827
visibility: 0.9629560112953186
","x: 146.22341918945312
y: 266.00537109375
z: -0.31240949034690857
visibility: 0.9196237921714783
","x: 199.24594116210938
y: 372.651611328125
z: 0.0013430783292278647
visibility: 0.9995208382606506
","x: 187.3082733154297
y: 373.760986328125
z: -0.001176749705336988
visibility: 0.9990978240966797
","x: 199.18838500976562
y: 449.50909423828125
z: -0.05459430813789368
visibility: 0.9766587018966675
","x: 187.12351989746094
y: 445.6737976074219
z: -0.0661185085773468
visibility: 0.9850979447364807
","x: 192.8253631591797
y: 522.723876953125
z: 0.04475972056388855
visibility: 0.97986900806427
","x: 185.4989776611328
y: 523.0111083984375
z: 0.023815298452973366
visibility: 0.9758420586585999
","x: 198.43011474609375
y: 534.24609375
z: 0.049014393240213394
visibility: 0.8863897919654846
","x: 186.46376037597656
y: 533.5511474609375
z: 0.0265484806150198
visibility: 0.8628237247467041
","x: 193.01174926757812
y: 543.25439453125
z: -0.05703424662351608
visibility: 0.973232626914978
","x: 184.25694274902344
y: 542.2779541015625
z: -0.09229341894388199
visibility: 0.9630962014198303
",,,,,,,,,,,,,,,,,,,,,,5.063067674636841,"x: 146.89578247070312
y: 271.0011291503906
z: 0.0
","x: 148.22128295898438
y: 264.5191650390625
z: -0.0003202887892257422
","x: 148.44227600097656
y: 257.5133056640625
z: -0.0009281124221161008
","x: 148.78704833984375
y: 252.54568481445312
z: -0.0022176243364810944
","x: 148.83860778808594
y: 248.55361938476562
z: -0.003410895587876439
","x: 142.5829620361328
y: 254.64300537109375
z: 0.0022549473214894533
","x: 141.2965850830078
y: 248.34039306640625
z: 0.0002702217025216669
","x: 140.681640625
y: 243.66896057128906
z: -0.0016029919497668743
","x: 140.3112030029297
y: 239.8062286376953
z: -0.0028072658460587263
","x: 141.55502319335938
y: 255.99942016601562
z: 0.0003943073970731348
","x: 140.14767456054688
y: 249.59397888183594
z: -0.0013302783481776714
","x: 139.89833068847656
y: 244.59109497070312
z: -0.00304117938503623
","x: 139.89599609375
y: 240.4875030517578
z: -0.004257954657077789
","x: 140.68646240234375
y: 258.2153625488281
z: -0.0020348140969872475
","x: 139.07388305664062
y: 252.24143981933594
z: -0.0040102554485201836
","x: 138.86871337890625
y: 247.690185546875
z: -0.005280471406877041
","x: 138.99313354492188
y: 243.99932861328125
z: -0.006077731028199196
","x: 140.12832641601562
y: 261.3174133300781
z: -0.004761796910315752
","x: 138.09495544433594
y: 257.057373046875
z: -0.006334962323307991
","x: 137.44300842285156
y: 253.9071044921875
z: -0.007045110687613487
","x: 137.28041076660156
y: 251.118896484375
z: -0.007519301027059555
"
9,"x: 188.33724975585938
y: 280.1847229003906
z: -0.283253014087677
visibility: 0.9987398982048035
","x: 189.50653076171875
y: 273.48193359375
z: -0.28490468859672546
visibility: 0.998177707195282
","x: 190.93309020996094
y: 272.07928466796875
z: -0.28494852781295776
visibility: 0.9985666871070862
","x: 192.3578338623047
y: 270.6531066894531
z: -0.2850498557090759
visibility: 0.9982177019119263
","x: 185.51075744628906
y: 273.6496887207031
z: -0.28240540623664856
visibility: 0.9978159666061401
","x: 184.4686737060547
y: 272.6961975097656
z: -0.2824479639530182
visibility: 0.9979459643363953
","x: 183.57144165039062
y: 271.9859924316406
z: -0.282504677772522
visibility: 0.9975965619087219
","x: 193.3788299560547
y: 260.08001708984375
z: -0.20600327849388123
visibility: 0.998586893081665
","x: 182.74432373046875
y: 265.7013244628906
z: -0.1936209499835968
visibility: 0.9973800778388977
","x: 190.99710083007812
y: 277.55908203125
z: -0.24587424099445343
visibility: 0.9982199668884277
","x: 186.67799377441406
y: 278.29852294921875
z: -0.24217113852500916
visibility: 0.9978044629096985
","x: 210.23922729492188
y: 270.286865234375
z: -0.09912686049938202
visibility: 0.9999827146530151
","x: 192.61473083496094
y: 273.44427490234375
z: -0.09343047440052032
visibility: 0.9998987913131714
","x: 227.81890869140625
y: 307.3935241699219
z: -0.17758817970752716
visibility: 0.9978581666946411
","x: 161.14723205566406
y: 306.8731384277344
z: -0.13048173487186432
visibility: 0.9874831438064575
","x: 238.72686767578125
y: 322.46197509765625
z: -0.39340242743492126
visibility: 0.9930708408355713
","x: 147.75823974609375
y: 276.87066650390625
z: -0.30147045850753784
visibility: 0.9708837270736694
","x: 242.21090698242188
y: 283.2693176269531
z: -0.4326454997062683
visibility: 0.9760237336158752
","x: 142.31924438476562
y: 265.71197509765625
z: -0.3322006165981293
visibility: 0.9345641136169434
","x: 240.60084533691406
y: 277.5357666015625
z: -0.4466724395751953
visibility: 0.9773353934288025
","x: 143.9236602783203
y: 261.9725646972656
z: -0.3474847972393036
visibility: 0.9383736848831177
","x: 239.12335205078125
y: 281.50048828125
z: -0.40528053045272827
visibility: 0.9629560112953186
","x: 146.22341918945312
y: 266.00537109375
z: -0.31240949034690857
visibility: 0.9196237921714783
","x: 199.24594116210938
y: 372.651611328125
z: 0.0013430783292278647
visibility: 0.9995208382606506
","x: 187.3082733154297
y: 373.760986328125
z: -0.001176749705336988
visibility: 0.9990978240966797
","x: 199.18838500976562
y: 449.50909423828125
z: -0.05459430813789368
visibility: 0.9766587018966675
","x: 187.12351989746094
y: 445.6737976074219
z: -0.0661185085773468
visibility: 0.9850979447364807
","x: 192.8253631591797
y: 522.723876953125
z: 0.04475972056388855
visibility: 0.97986900806427
","x: 185.4989776611328
y: 523.0111083984375
z: 0.023815298452973366
visibility: 0.9758420586585999
","x: 198.43011474609375
y: 534.24609375
z: 0.049014393240213394
visibility: 0.8863897919654846
","x: 186.46376037597656
y: 533.5511474609375
z: 0.0265484806150198
visibility: 0.8628237247467041
","x: 193.01174926757812
y: 543.25439453125
z: -0.05703424662351608
visibility: 0.973232626914978
","x: 184.25694274902344
y: 542.2779541015625
z: -0.09229341894388199
visibility: 0.9630962014198303
",,,,,,,,,,,,,,,,,,,,,,5.063067674636841,"x: 146.89578247070312
y: 271.0011291503906
z: 0.0
","x: 148.22128295898438
y: 264.5191650390625
z: -0.0003202887892257422
","x: 148.44227600097656
y: 257.5133056640625
z: -0.0009281124221161008
","x: 148.78704833984375
y: 252.54568481445312
z: -0.0022176243364810944
","x: 148.83860778808594
y: 248.55361938476562
z: -0.003410895587876439
","x: 142.5829620361328
y: 254.64300537109375
z: 0.0022549473214894533
","x: 141.2965850830078
y: 248.34039306640625
z: 0.0002702217025216669
","x: 140.681640625
y: 243.66896057128906
z: -0.0016029919497668743
","x: 140.3112030029297
y: 239.8062286376953
z: -0.0028072658460587263
","x: 141.55502319335938
y: 255.99942016601562
z: 0.0003943073970731348
","x: 140.14767456054688
y: 249.59397888183594
z: -0.0013302783481776714
","x: 139.89833068847656
y: 244.59109497070312
z: -0.00304117938503623
","x: 139.89599609375
y: 240.4875030517578
z: -0.004257954657077789
","x: 140.68646240234375
y: 258.2153625488281
z: -0.0020348140969872475
","x: 139.07388305664062
y: 252.24143981933594
z: -0.0040102554485201836
","x: 138.86871337890625
y: 247.690185546875
z: -0.005280471406877041
","x: 138.99313354492188
y: 243.99932861328125
z: -0.006077731028199196
","x: 140.12832641601562
y: 261.3174133300781
z: -0.004761796910315752
","x: 138.09495544433594
y: 257.057373046875
z: -0.006334962323307991
","x: 137.44300842285156
y: 253.9071044921875
z: -0.007045110687613487
","x: 137.28041076660156
y: 251.118896484375
z: -0.007519301027059555
"
10,"x: 189.25051879882812
y: 283.37420654296875
z: -0.3305647373199463
visibility: 0.9988637566566467
","x: 190.43467712402344
y: 277.1367492675781
z: -0.32891565561294556
visibility: 0.9983559250831604
","x: 191.95140075683594
y: 275.5121154785156
z: -0.3289647698402405
visibility: 0.9987061023712158
","x: 193.47323608398438
y: 273.85028076171875
z: -0.3290998041629791
visibility: 0.9983929395675659
","x: 186.08741760253906
y: 277.4581298828125
z: -0.3371637761592865
visibility: 0.9980264902114868
","x: 184.7480926513672
y: 276.23809814453125
z: -0.33727970719337463
visibility: 0.9981412887573242
","x: 183.53854370117188
y: 275.1443176269531
z: -0.33727318048477173
visibility: 0.9978258609771729
","x: 194.73109436035156
y: 262.5350646972656
z: -0.25367358326911926
visibility: 0.9987248182296753
","x: 182.1212615966797
y: 266.8563537597656
z: -0.25400856137275696
visibility: 0.9976328015327454
","x: 192.02737426757812
y: 280.77288818359375
z: -0.2665005326271057
visibility: 0.9983969330787659
","x: 187.214599609375
y: 281.42987060546875
z: -0.28929054737091064
visibility: 0.9980219006538391
","x: 209.98568725585938
y: 267.8180236816406
z: -0.14784947037696838
visibility: 0.9999842047691345
","x: 179.14102172851562
y: 272.2939758300781
z: -0.17235787212848663
visibility: 0.9999077916145325
","x: 229.5121307373047
y: 299.19134521484375
z: -0.24725890159606934
visibility: 0.9978598952293396
","x: 159.96324157714844
y: 305.51922607421875
z: -0.2584196627140045
visibility: 0.9884933829307556
","x: 233.15377807617188
y: 310.3802795410156
z: -0.5002504587173462
visibility: 0.9933875203132629
","x: 144.25985717773438
y: 280.04412841796875
z: -0.4831739366054535
visibility: 0.9734945297241211
","x: 233.78097534179688
y: 308.68243408203125
z: -0.5536195635795593
visibility: 0.9774590134620667
","x: 138.9348907470703
y: 270.025634765625
z: -0.5305457711219788
visibility: 0.9404317736625671
","x: 230.8206024169922
y: 304.2534484863281
z: -0.5750060677528381
visibility: 0.9788104295730591
","x: 140.32937622070312
y: 266.0000305175781
z: -0.5506369471549988
visibility: 0.9439516067504883
","x: 229.91534423828125
y: 302.9727478027344
z: -0.5149720907211304
visibility: 0.9654372930526733
","x: 142.64462280273438
y: 269.732421875
z: -0.4973853528499603
visibility: 0.9266915917396545
","x: 202.96604919433594
y: 371.98626708984375
z: 0.028354981914162636
visibility: 0.9995521306991577
","x: 187.24569702148438
y: 373.3399963378906
z: -0.028298625722527504
visibility: 0.9991726279258728
","x: 204.2797088623047
y: 449.17315673828125
z: -0.03740839287638664
visibility: 0.9767672419548035
","x: 188.29505920410156
y: 447.1340637207031
z: -0.08575998246669769
visibility: 0.9858553409576416
","x: 200.2162628173828
y: 521.6755981445312
z: 0.06318945437669754
visibility: 0.9796963930130005
","x: 184.1483154296875
y: 523.44287109375
z: 0.001098883105441928
visibility: 0.9771296381950378
","x: 199.55645751953125
y: 531.9495849609375
z: 0.06787383556365967
visibility: 0.8928400278091431
","x: 183.30136108398438
y: 534.2658081054688
z: 0.0026120501570403576
visibility: 0.8650084137916565
","x: 211.53561401367188
y: 543.06884765625
z: -0.03635672852396965
visibility: 0.9738577604293823
","x: 186.58131408691406
y: 542.5746459960938
z: -0.11578734219074249
visibility: 0.9652688503265381
",,,,,,,,,,,,,,,,,,,,,,5.207263469696045,"x: 144.62806701660156
y: 276.724853515625
z: 0.0
","x: 144.8426513671875
y: 269.46112060546875
z: -0.0006333478959277272
","x: 144.50119018554688
y: 262.5885314941406
z: -0.0017067400040104985
","x: 144.5360107421875
y: 257.670166015625
z: -0.003502420149743557
","x: 144.41958618164062
y: 253.974609375
z: -0.005181715823709965
","x: 138.38934326171875
y: 260.5576477050781
z: 0.0007233896758407354
","x: 136.07080078125
y: 254.93507385253906
z: -0.001831057365052402
","x: 135.22830200195312
y: 251.27249145507812
z: -0.00381978927180171
","x: 134.81961059570312
y: 248.21942138671875
z: -0.005042154807597399
","x: 137.4095458984375
y: 263.27923583984375
z: -0.0012537447037175298
","x: 134.9921417236328
y: 257.73236083984375
z: -0.0036418454255908728
","x: 134.27090454101562
y: 253.84970092773438
z: -0.005379830952733755
","x: 134.19546508789062
y: 250.74180603027344
z: -0.006490111351013184
","x: 136.87091064453125
y: 266.9125671386719
z: -0.003766692243516445
","x: 134.49130249023438
y: 262.2925109863281
z: -0.006317168474197388
","x: 133.8216552734375
y: 258.9466552734375
z: -0.007685785181820393
","x: 133.84652709960938
y: 255.99876403808594
z: -0.0084286630153656
","x: 136.89639282226562
y: 271.274169921875
z: -0.006579679436981678
","x: 134.29891967773438
y: 269.3056945800781
z: -0.008541357703506947
","x: 133.0733184814453
y: 267.545654296875
z: -0.009372368454933167
","x: 132.50564575195312
y: 265.5539245605469
z: -0.009853314608335495
"
11,"x: 189.25051879882812
y: 283.37420654296875
z: -0.3305647373199463
visibility: 0.9988637566566467
","x: 190.43467712402344
y: 277.1367492675781
z: -0.32891565561294556
visibility: 0.9983559250831604
","x: 191.95140075683594
y: 275.5121154785156
z: -0.3289647698402405
visibility: 0.9987061023712158
","x: 193.47323608398438
y: 273.85028076171875
z: -0.3290998041629791
visibility: 0.9983929395675659
","x: 186.08741760253906
y: 277.4581298828125
z: -0.3371637761592865
visibility: 0.9980264902114868
","x: 184.7480926513672
y: 276.23809814453125
z: -0.33727970719337463
visibility: 0.9981412887573242
","x: 183.53854370117188
y: 275.1443176269531
z: -0.33727318048477173
visibility: 0.9978258609771729
","x: 194.73109436035156
y: 262.5350646972656
z: -0.25367358326911926
visibility: 0.9987248182296753
","x: 182.1212615966797
y: 266.8563537597656
z: -0.25400856137275696
visibility: 0.9976328015327454
","x: 192.02737426757812
y: 280.77288818359375
z: -0.2665005326271057
visibility: 0.9983969330787659
","x: 187.214599609375
y: 281.42987060546875
z: -0.28929054737091064
visibility: 0.9980219006538391
","x: 209.98568725585938
y: 267.8180236816406
z: -0.14784947037696838
visibility: 0.9999842047691345
","x: 179.14102172851562
y: 272.2939758300781
z: -0.17235787212848663
visibility: 0.9999077916145325
","x: 229.5121307373047
y: 299.19134521484375
z: -0.24725890159606934
visibility: 0.9978598952293396
","x: 159.96324157714844
y: 305.51922607421875
z: -0.2584196627140045
visibility: 0.9884933829307556
","x: 233.15377807617188
y: 310.3802795410156
z: -0.5002504587173462
visibility: 0.9933875203132629
","x: 144.25985717773438
y: 280.04412841796875
z: -0.4831739366054535
visibility: 0.9734945297241211
","x: 233.78097534179688
y: 308.68243408203125
z: -0.5536195635795593
visibility: 0.9774590134620667
","x: 138.9348907470703
y: 270.025634765625
z: -0.5305457711219788
visibility: 0.9404317736625671
","x: 230.8206024169922
y: 304.2534484863281
z: -0.5750060677528381
visibility: 0.9788104295730591
","x: 140.32937622070312
y: 266.0000305175781
z: -0.5506369471549988
visibility: 0.9439516067504883
","x: 229.91534423828125
y: 302.9727478027344
z: -0.5149720907211304
visibility: 0.9654372930526733
","x: 142.64462280273438
y: 269.732421875
z: -0.4973853528499603
visibility: 0.9266915917396545
","x: 202.96604919433594
y: 371.98626708984375
z: 0.028354981914162636
visibility: 0.9995521306991577
","x: 187.24569702148438
y: 373.3399963378906
z: -0.028298625722527504
visibility: 0.9991726279258728
","x: 204.2797088623047
y: 449.17315673828125
z: -0.03740839287638664
visibility: 0.9767672419548035
","x: 188.29505920410156
y: 447.1340637207031
z: -0.08575998246669769
visibility: 0.9858553409576416
","x: 200.2162628173828
y: 521.6755981445312
z: 0.06318945437669754
visibility: 0.9796963930130005
","x: 184.1483154296875
y: 523.44287109375
z: 0.001098883105441928
visibility: 0.9771296381950378
","x: 199.55645751953125
y: 531.9495849609375
z: 0.06787383556365967
visibility: 0.8928400278091431
","x: 183.30136108398438
y: 534.2658081054688
z: 0.0026120501570403576
visibility: 0.8650084137916565
","x: 211.53561401367188
y: 543.06884765625
z: -0.03635672852396965
visibility: 0.9738577604293823
","x: 186.58131408691406
y: 542.5746459960938
z: -0.11578734219074249
visibility: 0.9652688503265381
",,,,,,,,,,,,,,,,,,,,,,5.207263469696045,"x: 144.62806701660156
y: 276.724853515625
z: 0.0
","x: 144.8426513671875
y: 269.46112060546875
z: -0.0006333478959277272
","x: 144.50119018554688
y: 262.5885314941406
z: -0.0017067400040104985
","x: 144.5360107421875
y: 257.670166015625
z: -0.003502420149743557
","x: 144.41958618164062
y: 253.974609375
z: -0.005181715823709965
","x: 138.38934326171875
y: 260.5576477050781
z: 0.0007233896758407354
","x: 136.07080078125
y: 254.93507385253906
z: -0.001831057365052402
","x: 135.22830200195312
y: 251.27249145507812
z: -0.00381978927180171
","x: 134.81961059570312
y: 248.21942138671875
z: -0.005042154807597399
","x: 137.4095458984375
y: 263.27923583984375
z: -0.0012537447037175298
","x: 134.9921417236328
y: 257.73236083984375
z: -0.0036418454255908728
","x: 134.27090454101562
y: 253.84970092773438
z: -0.005379830952733755
","x: 134.19546508789062
y: 250.74180603027344
z: -0.006490111351013184
","x: 136.87091064453125
y: 266.9125671386719
z: -0.003766692243516445
","x: 134.49130249023438
y: 262.2925109863281
z: -0.006317168474197388
","x: 133.8216552734375
y: 258.9466552734375
z: -0.007685785181820393
","x: 133.84652709960938
y: 255.99876403808594
z: -0.0084286630153656
","x: 136.89639282226562
y: 271.274169921875
z: -0.006579679436981678
","x: 134.29891967773438
y: 269.3056945800781
z: -0.008541357703506947
","x: 133.0733184814453
y: 267.545654296875
z: -0.009372368454933167
","x: 132.50564575195312
y: 265.5539245605469
z: -0.009853314608335495
"
12,"x: 189.25051879882812
y: 283.37420654296875
z: -0.3305647373199463
visibility: 0.9988637566566467
","x: 190.43467712402344
y: 277.1367492675781
z: -0.32891565561294556
visibility: 0.9983559250831604
","x: 191.95140075683594
y: 275.5121154785156
z: -0.3289647698402405
visibility: 0.9987061023712158
","x: 193.47323608398438
y: 273.85028076171875
z: -0.3290998041629791
visibility: 0.9983929395675659
","x: 186.08741760253906
y: 277.4581298828125
z: -0.3371637761592865
visibility: 0.9980264902114868
","x: 184.7480926513672
y: 276.23809814453125
z: -0.33727970719337463
visibility: 0.9981412887573242
","x: 183.53854370117188
y: 275.1443176269531
z: -0.33727318048477173
visibility: 0.9978258609771729
","x: 194.73109436035156
y: 262.5350646972656
z: -0.25367358326911926
visibility: 0.9987248182296753
","x: 182.1212615966797
y: 266.8563537597656
z: -0.25400856137275696
visibility: 0.9976328015327454
","x: 192.02737426757812
y: 280.77288818359375
z: -0.2665005326271057
visibility: 0.9983969330787659
","x: 187.214599609375
y: 281.42987060546875
z: -0.28929054737091064
visibility: 0.9980219006538391
","x: 209.98568725585938
y: 267.8180236816406
z: -0.14784947037696838
visibility: 0.9999842047691345
","x: 179.14102172851562
y: 272.2939758300781
z: -0.17235787212848663
visibility: 0.9999077916145325
","x: 229.5121307373047
y: 299.19134521484375
z: -0.24725890159606934
visibility: 0.9978598952293396
","x: 159.96324157714844
y: 305.51922607421875
z: -0.2584196627140045
visibility: 0.9884933829307556
","x: 233.15377807617188
y: 310.3802795410156
z: -0.5002504587173462
visibility: 0.9933875203132629
","x: 144.25985717773438
y: 280.04412841796875
z: -0.4831739366054535
visibility: 0.9734945297241211
","x: 233.78097534179688
y: 308.68243408203125
z: -0.5536195635795593
visibility: 0.9774590134620667
","x: 138.9348907470703
y: 270.025634765625
z: -0.5305457711219788
visibility: 0.9404317736625671
","x: 230.8206024169922
y: 304.2534484863281
z: -0.5750060677528381
visibility: 0.9788104295730591
","x: 140.32937622070312
y: 266.0000305175781
z: -0.5506369471549988
visibility: 0.9439516067504883
","x: 229.91534423828125
y: 302.9727478027344
z: -0.5149720907211304
visibility: 0.9654372930526733
","x: 142.64462280273438
y: 269.732421875
z: -0.4973853528499603
visibility: 0.9266915917396545
","x: 202.96604919433594
y: 371.98626708984375
z: 0.028354981914162636
visibility: 0.9995521306991577
","x: 187.24569702148438
y: 373.3399963378906
z: -0.028298625722527504
visibility: 0.9991726279258728
","x: 204.2797088623047
y: 449.17315673828125
z: -0.03740839287638664
visibility: 0.9767672419548035
","x: 188.29505920410156
y: 447.1340637207031
z: -0.08575998246669769
visibility: 0.9858553409576416
","x: 200.2162628173828
y: 521.6755981445312
z: 0.06318945437669754
visibility: 0.9796963930130005
","x: 184.1483154296875
y: 523.44287109375
z: 0.001098883105441928
visibility: 0.9771296381950378
","x: 199.55645751953125
y: 531.9495849609375
z: 0.06787383556365967
visibility: 0.8928400278091431
","x: 183.30136108398438
y: 534.2658081054688
z: 0.0026120501570403576
visibility: 0.8650084137916565
","x: 211.53561401367188
y: 543.06884765625
z: -0.03635672852396965
visibility: 0.9738577604293823
","x: 186.58131408691406
y: 542.5746459960938
z: -0.11578734219074249
visibility: 0.9652688503265381
",,,,,,,,,,,,,,,,,,,,,,5.207263469696045,"x: 144.62806701660156
y: 276.724853515625
z: 0.0
","x: 144.8426513671875
y: 269.46112060546875
z: -0.0006333478959277272
","x: 144.50119018554688
y: 262.5885314941406
z: -0.0017067400040104985
","x: 144.5360107421875
y: 257.670166015625
z: -0.003502420149743557
","x: 144.41958618164062
y: 253.974609375
z: -0.005181715823709965
","x: 138.38934326171875
y: 260.5576477050781
z: 0.0007233896758407354
","x: 136.07080078125
y: 254.93507385253906
z: -0.001831057365052402
","x: 135.22830200195312
y: 251.27249145507812
z: -0.00381978927180171
","x: 134.81961059570312
y: 248.21942138671875
z: -0.005042154807597399
","x: 137.4095458984375
y: 263.27923583984375
z: -0.0012537447037175298
","x: 134.9921417236328
y: 257.73236083984375
z: -0.0036418454255908728
","x: 134.27090454101562
y: 253.84970092773438
z: -0.005379830952733755
","x: 134.19546508789062
y: 250.74180603027344
z: -0.006490111351013184
","x: 136.87091064453125
y: 266.9125671386719
z: -0.003766692243516445
","x: 134.49130249023438
y: 262.2925109863281
z: -0.006317168474197388
","x: 133.8216552734375
y: 258.9466552734375
z: -0.007685785181820393
","x: 133.84652709960938
y: 255.99876403808594
z: -0.0084286630153656
","x: 136.89639282226562
y: 271.274169921875
z: -0.006579679436981678
","x: 134.29891967773438
y: 269.3056945800781
z: -0.008541357703506947
","x: 133.0733184814453
y: 267.545654296875
z: -0.009372368454933167
","x: 132.50564575195312
y: 265.5539245605469
z: -0.009853314608335495
"
13,"x: 188.3441162109375
y: 280.30572509765625
z: -0.39225777983665466
visibility: 0.998974621295929
","x: 188.84510803222656
y: 274.0334167480469
z: -0.3891603350639343
visibility: 0.9985137581825256
","x: 190.1450653076172
y: 272.5084228515625
z: -0.38910961151123047
visibility: 0.9988287687301636
","x: 191.47508239746094
y: 270.98931884765625
z: -0.38912415504455566
visibility: 0.9985470771789551
","x: 185.19992065429688
y: 274.47955322265625
z: -0.39297574758529663
visibility: 0.9982156753540039
","x: 184.0687255859375
y: 273.49609375
z: -0.39312857389450073
visibility: 0.9983189105987549
","x: 183.0407257080078
y: 272.5881652832031
z: -0.39316391944885254
visibility: 0.9980325102806091
","x: 192.74032592773438
y: 261.26611328125
z: -0.2744480073451996
visibility: 0.9988430738449097
","x: 181.88853454589844
y: 265.3664245605469
z: -0.29821351170539856
visibility: 0.9978563785552979
","x: 191.18560791015625
y: 278.7426452636719
z: -0.3402346670627594
visibility: 0.9985542893409729
","x: 186.4636688232422
y: 279.4322814941406
z: -0.347858190536499
visibility: 0.9982150793075562
","x: 208.8408660888672
y: 270.5090637207031
z: -0.14734366536140442
visibility: 0.9999852180480957
","x: 172.9813690185547
y: 272.4599914550781
z: -0.19534894824028015
visibility: 0.9999157786369324
","x: 224.75112915039062
y: 315.3355712890625
z: -0.08792243897914886
visibility: 0.9977524876594543
","x: 155.63136291503906
y: 303.90899658203125
z: -0.2449314147233963
visibility: 0.989457905292511
","x: 227.81332397460938
y: 367.3001708984375
z: -0.1601199209690094
visibility: 0.993320643901825
","x: 140.0722198486328
y: 274.0680236816406
z: -0.42330893874168396
visibility: 0.9757921695709229
","x: 227.3059539794922
y: 383.1019287109375
z: -0.17637279629707336
visibility: 0.9770533442497253
","x: 135.8982391357422
y: 264.7329406738281
z: -0.45994216203689575
visibility: 0.945265531539917
","x: 223.1273193359375
y: 381.06646728515625
z: -0.20762920379638672
visibility: 0.9786607623100281
","x: 137.479736328125
y: 260.34423828125
z: -0.47993674874305725
visibility: 0.948502779006958
","x: 221.86439514160156
y: 375.8897399902344
z: -0.1717381328344345
visibility: 0.9657796621322632
","x: 139.59127807617188
y: 263.7179870605469
z: -0.4355286955833435
visibility: 0.9324460625648499
","x: 203.77415466308594
y: 373.9466857910156
z: 0.038956232368946075
visibility: 0.9995778799057007
","x: 187.00115966796875
y: 375.2976989746094
z: -0.03905334323644638
visibility: 0.999245822429657
","x: 206.13284301757812
y: 450.7720642089844
z: 0.04037853702902794
visibility: 0.9769681096076965
","x: 188.6007843017578
y: 449.0859375
z: -0.0977700799703598
visibility: 0.9868522882461548
","x: 203.5249786376953
y: 521.6516723632812
z: 0.16355814039707184
visibility: 0.9805849194526672
","x: 183.41746520996094
y: 524.047119140625
z: -0.01909332536160946
visibility: 0.9789407849311829
","x: 201.06907653808594
y: 531.9261474609375
z: 0.16943839192390442
visibility: 0.9000477194786072
","x: 182.58636474609375
y: 535.02783203125
z: -0.018066855147480965
visibility: 0.8710763454437256
","x: 214.90164184570312
y: 543.18798828125
z: 0.06819704174995422
visibility: 0.97541743516922
","x: 187.80296325683594
y: 542.7918090820312
z: -0.1427445262670517
visibility: 0.9681569933891296
",,,,,,,,,,,,,,,,,,,,,,5.347729921340942,"x: 140.95828247070312
y: 273.8832092285156
z: 0.0
","x: 142.3346710205078
y: 267.36920166015625
z: -0.001500738668255508
","x: 142.41165161132812
y: 260.0868835449219
z: -0.003108780365437269
","x: 142.53738403320312
y: 255.0057373046875
z: -0.005285679362714291
","x: 142.8472137451172
y: 251.09254455566406
z: -0.007168504875153303
","x: 135.86463928222656
y: 257.851318359375
z: -0.0010387393413111567
","x: 133.49327087402344
y: 252.27667236328125
z: -0.004028360825031996
","x: 132.97344970703125
y: 248.73146057128906
z: -0.006077674217522144
","x: 132.9232177734375
y: 246.06275939941406
z: -0.007211964577436447
","x: 134.61703491210938
y: 260.98040771484375
z: -0.002274555852636695
","x: 132.890380859375
y: 257.3166198730469
z: -0.005341557320207357
","x: 134.48167419433594
y: 257.4089660644531
z: -0.0060217110440135
","x: 136.16151428222656
y: 258.297119140625
z: -0.005845656152814627
","x: 133.98489379882812
y: 264.7506103515625
z: -0.004010205622762442
","x: 132.94227600097656
y: 261.8748779296875
z: -0.007059711497277021
","x: 134.6291961669922
y: 262.1412048339844
z: -0.006670291535556316
","x: 136.25221252441406
y: 263.12261962890625
z: -0.00571812316775322
","x: 133.92291259765625
y: 268.92071533203125
z: -0.006155968643724918
","x: 133.0563201904297
y: 266.53875732421875
z: -0.008276755921542645
","x: 134.29383850097656
y: 266.2949523925781
z: -0.00797985028475523
","x: 135.59486389160156
y: 266.7967529296875
z: -0.007183878682553768
"
14,"x: 188.3441162109375
y: 280.30572509765625
z: -0.39225777983665466
visibility: 0.998974621295929
","x: 188.84510803222656
y: 274.0334167480469
z: -0.3891603350639343
visibility: 0.9985137581825256
","x: 190.1450653076172
y: 272.5084228515625
z: -0.38910961151123047
visibility: 0.9988287687301636
","x: 191.47508239746094
y: 270.98931884765625
z: -0.38912415504455566
visibility: 0.9985470771789551
","x: 185.19992065429688
y: 274.47955322265625
z: -0.39297574758529663
visibility: 0.9982156753540039
","x: 184.0687255859375
y: 273.49609375
z: -0.39312857389450073
visibility: 0.9983189105987549
","x: 183.0407257080078
y: 272.5881652832031
z: -0.39316391944885254
visibility: 0.9980325102806091
","x: 192.74032592773438
y: 261.26611328125
z: -0.2744480073451996
visibility: 0.9988430738449097
","x: 181.88853454589844
y: 265.3664245605469
z: -0.29821351170539856
visibility: 0.9978563785552979
","x: 191.18560791015625
y: 278.7426452636719
z: -0.3402346670627594
visibility: 0.9985542893409729
","x: 186.4636688232422
y: 279.4322814941406
z: -0.347858190536499
visibility: 0.9982150793075562
","x: 208.8408660888672
y: 270.5090637207031
z: -0.14734366536140442
visibility: 0.9999852180480957
","x: 172.9813690185547
y: 272.4599914550781
z: -0.19534894824028015
visibility: 0.9999157786369324
","x: 224.75112915039062
y: 315.3355712890625
z: -0.08792243897914886
visibility: 0.9977524876594543
","x: 155.63136291503906
y: 303.90899658203125
z: -0.2449314147233963
visibility: 0.989457905292511
","x: 227.81332397460938
y: 367.3001708984375
z: -0.1601199209690094
visibility: 0.993320643901825
","x: 140.0722198486328
y: 274.0680236816406
z: -0.42330893874168396
visibility: 0.9757921695709229
","x: 227.3059539794922
y: 383.1019287109375
z: -0.17637279629707336
visibility: 0.9770533442497253
","x: 135.8982391357422
y: 264.7329406738281
z: -0.45994216203689575
visibility: 0.945265531539917
","x: 223.1273193359375
y: 381.06646728515625
z: -0.20762920379638672
visibility: 0.9786607623100281
","x: 137.479736328125
y: 260.34423828125
z: -0.47993674874305725
visibility: 0.948502779006958
","x: 221.86439514160156
y: 375.8897399902344
z: -0.1717381328344345
visibility: 0.9657796621322632
","x: 139.59127807617188
y: 263.7179870605469
z: -0.4355286955833435
visibility: 0.9324460625648499
","x: 203.77415466308594
y: 373.9466857910156
z: 0.038956232368946075
visibility: 0.9995778799057007
","x: 187.00115966796875
y: 375.2976989746094
z: -0.03905334323644638
visibility: 0.999245822429657
","x: 206.13284301757812
y: 450.7720642089844
z: 0.04037853702902794
visibility: 0.9769681096076965
","x: 188.6007843017578
y: 449.0859375
z: -0.0977700799703598
visibility: 0.9868522882461548
","x: 203.5249786376953
y: 521.6516723632812
z: 0.16355814039707184
visibility: 0.9805849194526672
","x: 183.41746520996094
y: 524.047119140625
z: -0.01909332536160946
visibility: 0.9789407849311829
","x: 201.06907653808594
y: 531.9261474609375
z: 0.16943839192390442
visibility: 0.9000477194786072
","x: 182.58636474609375
y: 535.02783203125
z: -0.018066855147480965
visibility: 0.8710763454437256
","x: 214.90164184570312
y: 543.18798828125
z: 0.06819704174995422
visibility: 0.97541743516922
","x: 187.80296325683594
y: 542.7918090820312
z: -0.1427445262670517
visibility: 0.9681569933891296
",,,,,,,,,,,,,,,,,,,,,,5.347729921340942,"x: 140.95828247070312
y: 273.8832092285156
z: 0.0
","x: 142.3346710205078
y: 267.36920166015625
z: -0.001500738668255508
","x: 142.41165161132812
y: 260.0868835449219
z: -0.003108780365437269
","x: 142.53738403320312
y: 255.0057373046875
z: -0.005285679362714291
","x: 142.8472137451172
y: 251.09254455566406
z: -0.007168504875153303
","x: 135.86463928222656
y: 257.851318359375
z: -0.0010387393413111567
","x: 133.49327087402344
y: 252.27667236328125
z: -0.004028360825031996
","x: 132.97344970703125
y: 248.73146057128906
z: -0.006077674217522144
","x: 132.9232177734375
y: 246.06275939941406
z: -0.007211964577436447
","x: 134.61703491210938
y: 260.98040771484375
z: -0.002274555852636695
","x: 132.890380859375
y: 257.3166198730469
z: -0.005341557320207357
","x: 134.48167419433594
y: 257.4089660644531
z: -0.0060217110440135
","x: 136.16151428222656
y: 258.297119140625
z: -0.005845656152814627
","x: 133.98489379882812
y: 264.7506103515625
z: -0.004010205622762442
","x: 132.94227600097656
y: 261.8748779296875
z: -0.007059711497277021
","x: 134.6291961669922
y: 262.1412048339844
z: -0.006670291535556316
","x: 136.25221252441406
y: 263.12261962890625
z: -0.00571812316775322
","x: 133.92291259765625
y: 268.92071533203125
z: -0.006155968643724918
","x: 133.0563201904297
y: 266.53875732421875
z: -0.008276755921542645
","x: 134.29383850097656
y: 266.2949523925781
z: -0.00797985028475523
","x: 135.59486389160156
y: 266.7967529296875
z: -0.007183878682553768
"
15,"x: 188.3441162109375
y: 280.30572509765625
z: -0.39225777983665466
visibility: 0.998974621295929
","x: 188.84510803222656
y: 274.0334167480469
z: -0.3891603350639343
visibility: 0.9985137581825256
","x: 190.1450653076172
y: 272.5084228515625
z: -0.38910961151123047
visibility: 0.9988287687301636
","x: 191.47508239746094
y: 270.98931884765625
z: -0.38912415504455566
visibility: 0.9985470771789551
","x: 185.19992065429688
y: 274.47955322265625
z: -0.39297574758529663
visibility: 0.9982156753540039
","x: 184.0687255859375
y: 273.49609375
z: -0.39312857389450073
visibility: 0.9983189105987549
","x: 183.0407257080078
y: 272.5881652832031
z: -0.39316391944885254
visibility: 0.9980325102806091
","x: 192.74032592773438
y: 261.26611328125
z: -0.2744480073451996
visibility: 0.9988430738449097
","x: 181.88853454589844
y: 265.3664245605469
z: -0.29821351170539856
visibility: 0.9978563785552979
","x: 191.18560791015625
y: 278.7426452636719
z: -0.3402346670627594
visibility: 0.9985542893409729
","x: 186.4636688232422
y: 279.4322814941406
z: -0.347858190536499
visibility: 0.9982150793075562
","x: 208.8408660888672
y: 270.5090637207031
z: -0.14734366536140442
visibility: 0.9999852180480957
","x: 172.9813690185547
y: 272.4599914550781
z: -0.19534894824028015
visibility: 0.9999157786369324
","x: 224.75112915039062
y: 315.3355712890625
z: -0.08792243897914886
visibility: 0.9977524876594543
","x: 155.63136291503906
y: 303.90899658203125
z: -0.2449314147233963
visibility: 0.989457905292511
","x: 227.81332397460938
y: 367.3001708984375
z: -0.1601199209690094
visibility: 0.993320643901825
","x: 140.0722198486328
y: 274.0680236816406
z: -0.42330893874168396
visibility: 0.9757921695709229
","x: 227.3059539794922
y: 383.1019287109375
z: -0.17637279629707336
visibility: 0.9770533442497253
","x: 135.8982391357422
y: 264.7329406738281
z: -0.45994216203689575
visibility: 0.945265531539917
","x: 223.1273193359375
y: 381.06646728515625
z: -0.20762920379638672
visibility: 0.9786607623100281
","x: 137.479736328125
y: 260.34423828125
z: -0.47993674874305725
visibility: 0.948502779006958
","x: 221.86439514160156
y: 375.8897399902344
z: -0.1717381328344345
visibility: 0.9657796621322632
","x: 139.59127807617188
y: 263.7179870605469
z: -0.4355286955833435
visibility: 0.9324460625648499
","x: 203.77415466308594
y: 373.9466857910156
z: 0.038956232368946075
visibility: 0.9995778799057007
","x: 187.00115966796875
y: 375.2976989746094
z: -0.03905334323644638
visibility: 0.999245822429657
","x: 206.13284301757812
y: 450.7720642089844
z: 0.04037853702902794
visibility: 0.9769681096076965
","x: 188.6007843017578
y: 449.0859375
z: -0.0977700799703598
visibility: 0.9868522882461548
","x: 203.5249786376953
y: 521.6516723632812
z: 0.16355814039707184
visibility: 0.9805849194526672
","x: 183.41746520996094
y: 524.047119140625
z: -0.01909332536160946
visibility: 0.9789407849311829
","x: 201.06907653808594
y: 531.9261474609375
z: 0.16943839192390442
visibility: 0.9000477194786072
","x: 182.58636474609375
y: 535.02783203125
z: -0.018066855147480965
visibility: 0.8710763454437256
","x: 214.90164184570312
y: 543.18798828125
z: 0.06819704174995422
visibility: 0.97541743516922
","x: 187.80296325683594
y: 542.7918090820312
z: -0.1427445262670517
visibility: 0.9681569933891296
",,,,,,,,,,,,,,,,,,,,,,5.347729921340942,"x: 140.95828247070312
y: 273.8832092285156
z: 0.0
","x: 142.3346710205078
y: 267.36920166015625
z: -0.001500738668255508
","x: 142.41165161132812
y: 260.0868835449219
z: -0.003108780365437269
","x: 142.53738403320312
y: 255.0057373046875
z: -0.005285679362714291
","x: 142.8472137451172
y: 251.09254455566406
z: -0.007168504875153303
","x: 135.86463928222656
y: 257.851318359375
z: -0.0010387393413111567
","x: 133.49327087402344
y: 252.27667236328125
z: -0.004028360825031996
","x: 132.97344970703125
y: 248.73146057128906
z: -0.006077674217522144
","x: 132.9232177734375
y: 246.06275939941406
z: -0.007211964577436447
","x: 134.61703491210938
y: 260.98040771484375
z: -0.002274555852636695
","x: 132.890380859375
y: 257.3166198730469
z: -0.005341557320207357
","x: 134.48167419433594
y: 257.4089660644531
z: -0.0060217110440135
","x: 136.16151428222656
y: 258.297119140625
z: -0.005845656152814627
","x: 133.98489379882812
y: 264.7506103515625
z: -0.004010205622762442
","x: 132.94227600097656
y: 261.8748779296875
z: -0.007059711497277021
","x: 134.6291961669922
y: 262.1412048339844
z: -0.006670291535556316
","x: 136.25221252441406
y: 263.12261962890625
z: -0.00571812316775322
","x: 133.92291259765625
y: 268.92071533203125
z: -0.006155968643724918
","x: 133.0563201904297
y: 266.53875732421875
z: -0.008276755921542645
","x: 134.29383850097656
y: 266.2949523925781
z: -0.00797985028475523
","x: 135.59486389160156
y: 266.7967529296875
z: -0.007183878682553768
"
16,"x: 185.69912719726562
y: 278.6108093261719
z: -0.3788890838623047
visibility: 0.99904465675354
","x: 186.24627685546875
y: 272.3290710449219
z: -0.37910711765289307
visibility: 0.9985940456390381
","x: 187.3152313232422
y: 270.8230285644531
z: -0.37908440828323364
visibility: 0.9988887906074524
","x: 188.50885009765625
y: 269.3289489746094
z: -0.3791137933731079
visibility: 0.998643159866333
","x: 183.69265747070312
y: 273.13116455078125
z: -0.37797433137893677
visibility: 0.9982208013534546
","x: 182.91348266601562
y: 272.43939208984375
z: -0.37806347012519836
visibility: 0.998272180557251
","x: 182.18798828125
y: 271.73876953125
z: -0.3781028389930725
visibility: 0.9979373812675476
","x: 190.75079345703125
y: 260.4100646972656
z: -0.28806832432746887
visibility: 0.9988811016082764
","x: 181.7992706298828
y: 264.492919921875
z: -0.2883296012878418
visibility: 0.997622013092041
","x: 187.35289001464844
y: 277.5530090332031
z: -0.33774039149284363
visibility: 0.9986669421195984
","x: 184.04786682128906
y: 278.15509033203125
z: -0.3372105658054352
visibility: 0.9983205795288086
","x: 206.03411865234375
y: 275.740478515625
z: -0.18551665544509888
visibility: 0.9999853372573853
","x: 169.6669921875
y: 272.6236267089844
z: -0.17531535029411316
visibility: 0.9999130368232727
","x: 203.81874084472656
y: 334.6702575683594
z: -0.14491187036037445
visibility: 0.9969835877418518
","x: 155.3967742919922
y: 301.8235168457031
z: -0.13596610724925995
visibility: 0.9894446730613708
","x: 199.5514678955078
y: 387.722412109375
z: -0.2168298065662384
visibility: 0.9928473830223083
","x: 139.35992431640625
y: 267.91790771484375
z: -0.15030844509601593
visibility: 0.9767693281173706
","x: 199.8414306640625
y: 403.0400085449219
z: -0.2360166311264038
visibility: 0.9761943817138672
","x: 135.28045654296875
y: 258.3103332519531
z: -0.16102592647075653
visibility: 0.9470792412757874
","x: 195.02484130859375
y: 401.9932861328125
z: -0.2636849284172058
visibility: 0.9780027866363525
","x: 136.7709197998047
y: 254.6162109375
z: -0.18777544796466827
visibility: 0.9502797722816467
","x: 194.1390380859375
y: 397.7395324707031
z: -0.2269231379032135
visibility: 0.9652573466300964
","x: 138.88487243652344
y: 257.9464111328125
z: -0.16198217868804932
visibility: 0.9347545504570007
","x: 201.39083862304688
y: 373.79583740234375
z: 0.028746936470270157
visibility: 0.9995929598808289
","x: 186.05038452148438
y: 376.1728515625
z: -0.02883332595229149
visibility: 0.9992967247962952
","x: 205.46136474609375
y: 450.68524169921875
z: 0.014053583145141602
visibility: 0.9758023619651794
","x: 188.55502319335938
y: 449.776611328125
z: -0.08146746456623077
visibility: 0.9876233339309692
","x: 203.6182403564453
y: 521.6976318359375
z: 0.13883629441261292
visibility: 0.9812760353088379
","x: 183.24754333496094
y: 524.5338745117188
z: 0.003987045492976904
visibility: 0.9803325533866882
","x: 200.26318359375
y: 532.2319946289062
z: 0.1459495723247528
visibility: 0.9066892266273499
","x: 182.0219268798828
y: 536.3306274414062
z: 0.006557381711900234
visibility: 0.8753862977027893
","x: 213.55718994140625
y: 543.3762817382812
z: 0.05021124333143234
visibility: 0.9767326712608337
","x: 189.07196044921875
y: 543.099609375
z: -0.10707952082157135
visibility: 0.9704497456550598
","x: 197.2159881591797
y: 393.05364990234375
z: 0.0
","x: 192.7062225341797
y: 393.0572204589844
z: -0.0036784883122891188
","x: 188.8280029296875
y: 396.2733154296875
z: -0.005250384099781513
","x: 186.53321838378906
y: 400.4119567871094
z: -0.006247100420296192
","x: 185.49761962890625
y: 403.35064697265625
z: -0.006973342038691044
","x: 190.91754150390625
y: 408.28363037109375
z: -0.0035096046049147844
","x: 189.3050079345703
y: 416.4032287597656
z: -0.004754976369440556
","x: 188.6205291748047
y: 420.6688232421875
z: -0.005179374013096094
","x: 188.3684539794922
y: 423.65911865234375
z: -0.0052154152654111385
","x: 193.5096893310547
y: 410.89410400390625
z: -0.0025618146173655987
","x: 192.01339721679688
y: 419.4134826660156
z: -0.0032987918239086866
","x: 191.12449645996094
y: 423.4324951171875
z: -0.003208290785551071
","x: 190.6012420654297
y: 425.8832092285156
z: -0.00314401020295918
","x: 195.5731658935547
y: 411.8806457519531
z: -0.001959568355232477
","x: 194.32073974609375
y: 419.63629150390625
z: -0.0032405981328338385
","x: 193.3631134033203
y: 423.35150146484375
z: -0.003705529263243079
","x: 192.6270751953125
y: 425.4455261230469
z: -0.003875552909448743
","x: 197.36111450195312
y: 411.6996765136719
z: -0.0017476226203143597
","x: 196.60635375976562
y: 418.3874816894531
z: -0.003161598462611437
","x: 195.942626953125
y: 421.7294921875
z: -0.0037471167743206024
","x: 195.25233459472656
y: 423.68109130859375
z: -0.003933244850486517
",5.506389141082764,"x: 141.03741455078125
y: 270.92425537109375
z: 0.0
","x: 142.28805541992188
y: 263.63665771484375
z: -0.0008621768793091178
","x: 142.70652770996094
y: 256.61669921875
z: -0.0019973749294877052
","x: 142.85752868652344
y: 251.40769958496094
z: -0.0037548744585365057
","x: 142.87423706054688
y: 247.30838012695312
z: -0.005242088809609413
","x: 136.5032196044922
y: 254.08834838867188
z: 0.0008201549644581974
","x: 134.87789916992188
y: 248.33023071289062
z: -0.0011394238099455833
","x: 133.7315216064453
y: 244.51890563964844
z: -0.0027578147128224373
","x: 132.7447967529297
y: 241.17051696777344
z: -0.003756229765713215
","x: 135.0618896484375
y: 256.8908996582031
z: -0.0004836128791794181
","x: 133.8978729248047
y: 252.67996215820312
z: -0.002310479059815407
","x: 134.4046630859375
y: 251.6475067138672
z: -0.002758418908342719
","x: 134.89894104003906
y: 250.86712646484375
z: -0.0027082334272563457
","x: 134.1298828125
y: 260.4559631347656
z: -0.002295213518664241
","x: 133.29315185546875
y: 257.6368713378906
z: -0.0041472455486655235
","x: 134.67921447753906
y: 258.2086486816406
z: -0.0033945587929338217
","x: 136.0634307861328
y: 258.701904296875
z: -0.002423584461212158
","x: 133.59449768066406
y: 264.421630859375
z: -0.004548377823084593
","x: 132.32704162597656
y: 262.05419921875
z: -0.005821142345666885
","x: 132.79495239257812
y: 261.6631774902344
z: -0.0052665346302092075
","x: 133.541748046875
y: 261.49072265625
z: -0.004442066885530949
"
17,"x: 185.69912719726562
y: 278.6108093261719
z: -0.3788890838623047
visibility: 0.99904465675354
","x: 186.24627685546875
y: 272.3290710449219
z: -0.37910711765289307
visibility: 0.9985940456390381
","x: 187.3152313232422
y: 270.8230285644531
z: -0.37908440828323364
visibility: 0.9988887906074524
","x: 188.50885009765625
y: 269.3289489746094
z: -0.3791137933731079
visibility: 0.998643159866333
","x: 183.69265747070312
y: 273.13116455078125
z: -0.37797433137893677
visibility: 0.9982208013534546
","x: 182.91348266601562
y: 272.43939208984375
z: -0.37806347012519836
visibility: 0.998272180557251
","x: 182.18798828125
y: 271.73876953125
z: -0.3781028389930725
visibility: 0.9979373812675476
","x: 190.75079345703125
y: 260.4100646972656
z: -0.28806832432746887
visibility: 0.9988811016082764
","x: 181.7992706298828
y: 264.492919921875
z: -0.2883296012878418
visibility: 0.997622013092041
","x: 187.35289001464844
y: 277.5530090332031
z: -0.33774039149284363
visibility: 0.9986669421195984
","x: 184.04786682128906
y: 278.15509033203125
z: -0.3372105658054352
visibility: 0.9983205795288086
","x: 206.03411865234375
y: 275.740478515625
z: -0.18551665544509888
visibility: 0.9999853372573853
","x: 169.6669921875
y: 272.6236267089844
z: -0.17531535029411316
visibility: 0.9999130368232727
","x: 203.81874084472656
y: 334.6702575683594
z: -0.14491187036037445
visibility: 0.9969835877418518
","x: 155.3967742919922
y: 301.8235168457031
z: -0.13596610724925995
visibility: 0.9894446730613708
","x: 199.5514678955078
y: 387.722412109375
z: -0.2168298065662384
visibility: 0.9928473830223083
","x: 139.35992431640625
y: 267.91790771484375
z: -0.15030844509601593
visibility: 0.9767693281173706
","x: 199.8414306640625
y: 403.0400085449219
z: -0.2360166311264038
visibility: 0.9761943817138672
","x: 135.28045654296875
y: 258.3103332519531
z: -0.16102592647075653
visibility: 0.9470792412757874
","x: 195.02484130859375
y: 401.9932861328125
z: -0.2636849284172058
visibility: 0.9780027866363525
","x: 136.7709197998047
y: 254.6162109375
z: -0.18777544796466827
visibility: 0.9502797722816467
","x: 194.1390380859375
y: 397.7395324707031
z: -0.2269231379032135
visibility: 0.9652573466300964
","x: 138.88487243652344
y: 257.9464111328125
z: -0.16198217868804932
visibility: 0.9347545504570007
","x: 201.39083862304688
y: 373.79583740234375
z: 0.028746936470270157
visibility: 0.9995929598808289
","x: 186.05038452148438
y: 376.1728515625
z: -0.02883332595229149
visibility: 0.9992967247962952
","x: 205.46136474609375
y: 450.68524169921875
z: 0.014053583145141602
visibility: 0.9758023619651794
","x: 188.55502319335938
y: 449.776611328125
z: -0.08146746456623077
visibility: 0.9876233339309692
","x: 203.6182403564453
y: 521.6976318359375
z: 0.13883629441261292
visibility: 0.9812760353088379
","x: 183.24754333496094
y: 524.5338745117188
z: 0.003987045492976904
visibility: 0.9803325533866882
","x: 200.26318359375
y: 532.2319946289062
z: 0.1459495723247528
visibility: 0.9066892266273499
","x: 182.0219268798828
y: 536.3306274414062
z: 0.006557381711900234
visibility: 0.8753862977027893
","x: 213.55718994140625
y: 543.3762817382812
z: 0.05021124333143234
visibility: 0.9767326712608337
","x: 189.07196044921875
y: 543.099609375
z: -0.10707952082157135
visibility: 0.9704497456550598
","x: 197.2159881591797
y: 393.05364990234375
z: 0.0
","x: 192.7062225341797
y: 393.0572204589844
z: -0.0036784883122891188
","x: 188.8280029296875
y: 396.2733154296875
z: -0.005250384099781513
","x: 186.53321838378906
y: 400.4119567871094
z: -0.006247100420296192
","x: 185.49761962890625
y: 403.35064697265625
z: -0.006973342038691044
","x: 190.91754150390625
y: 408.28363037109375
z: -0.0035096046049147844
","x: 189.3050079345703
y: 416.4032287597656
z: -0.004754976369440556
","x: 188.6205291748047
y: 420.6688232421875
z: -0.005179374013096094
","x: 188.3684539794922
y: 423.65911865234375
z: -0.0052154152654111385
","x: 193.5096893310547
y: 410.89410400390625
z: -0.0025618146173655987
","x: 192.01339721679688
y: 419.4134826660156
z: -0.0032987918239086866
","x: 191.12449645996094
y: 423.4324951171875
z: -0.003208290785551071
","x: 190.6012420654297
y: 425.8832092285156
z: -0.00314401020295918
","x: 195.5731658935547
y: 411.8806457519531
z: -0.001959568355232477
","x: 194.32073974609375
y: 419.63629150390625
z: -0.0032405981328338385
","x: 193.3631134033203
y: 423.35150146484375
z: -0.003705529263243079
","x: 192.6270751953125
y: 425.4455261230469
z: -0.003875552909448743
","x: 197.36111450195312
y: 411.6996765136719
z: -0.0017476226203143597
","x: 196.60635375976562
y: 418.3874816894531
z: -0.003161598462611437
","x: 195.942626953125
y: 421.7294921875
z: -0.0037471167743206024
","x: 195.25233459472656
y: 423.68109130859375
z: -0.003933244850486517
",5.506389141082764,"x: 141.03741455078125
y: 270.92425537109375
z: 0.0
","x: 142.28805541992188
y: 263.63665771484375
z: -0.0008621768793091178
","x: 142.70652770996094
y: 256.61669921875
z: -0.0019973749294877052
","x: 142.85752868652344
y: 251.40769958496094
z: -0.0037548744585365057
","x: 142.87423706054688
y: 247.30838012695312
z: -0.005242088809609413
","x: 136.5032196044922
y: 254.08834838867188
z: 0.0008201549644581974
","x: 134.87789916992188
y: 248.33023071289062
z: -0.0011394238099455833
","x: 133.7315216064453
y: 244.51890563964844
z: -0.0027578147128224373
","x: 132.7447967529297
y: 241.17051696777344
z: -0.003756229765713215
","x: 135.0618896484375
y: 256.8908996582031
z: -0.0004836128791794181
","x: 133.8978729248047
y: 252.67996215820312
z: -0.002310479059815407
","x: 134.4046630859375
y: 251.6475067138672
z: -0.002758418908342719
","x: 134.89894104003906
y: 250.86712646484375
z: -0.0027082334272563457
","x: 134.1298828125
y: 260.4559631347656
z: -0.002295213518664241
","x: 133.29315185546875
y: 257.6368713378906
z: -0.0041472455486655235
","x: 134.67921447753906
y: 258.2086486816406
z: -0.0033945587929338217
","x: 136.0634307861328
y: 258.701904296875
z: -0.002423584461212158
","x: 133.59449768066406
y: 264.421630859375
z: -0.004548377823084593
","x: 132.32704162597656
y: 262.05419921875
z: -0.005821142345666885
","x: 132.79495239257812
y: 261.6631774902344
z: -0.0052665346302092075
","x: 133.541748046875
y: 261.49072265625
z: -0.004442066885530949
"
18,"x: 185.69912719726562
y: 278.6108093261719
z: -0.3788890838623047
visibility: 0.99904465675354
","x: 186.24627685546875
y: 272.3290710449219
z: -0.37910711765289307
visibility: 0.9985940456390381
","x: 187.3152313232422
y: 270.8230285644531
z: -0.37908440828323364
visibility: 0.9988887906074524
","x: 188.50885009765625
y: 269.3289489746094
z: -0.3791137933731079
visibility: 0.998643159866333
","x: 183.69265747070312
y: 273.13116455078125
z: -0.37797433137893677
visibility: 0.9982208013534546
","x: 182.91348266601562
y: 272.43939208984375
z: -0.37806347012519836
visibility: 0.998272180557251
","x: 182.18798828125
y: 271.73876953125
z: -0.3781028389930725
visibility: 0.9979373812675476
","x: 190.75079345703125
y: 260.4100646972656
z: -0.28806832432746887
visibility: 0.9988811016082764
","x: 181.7992706298828
y: 264.492919921875
z: -0.2883296012878418
visibility: 0.997622013092041
","x: 187.35289001464844
y: 277.5530090332031
z: -0.33774039149284363
visibility: 0.9986669421195984
","x: 184.04786682128906
y: 278.15509033203125
z: -0.3372105658054352
visibility: 0.9983205795288086
","x: 206.03411865234375
y: 275.740478515625
z: -0.18551665544509888
visibility: 0.9999853372573853
","x: 169.6669921875
y: 272.6236267089844
z: -0.17531535029411316
visibility: 0.9999130368232727
","x: 203.81874084472656
y: 334.6702575683594
z: -0.14491187036037445
visibility: 0.9969835877418518
","x: 155.3967742919922
y: 301.8235168457031
z: -0.13596610724925995
visibility: 0.9894446730613708
","x: 199.5514678955078
y: 387.722412109375
z: -0.2168298065662384
visibility: 0.9928473830223083
","x: 139.35992431640625
y: 267.91790771484375
z: -0.15030844509601593
visibility: 0.9767693281173706
","x: 199.8414306640625
y: 403.0400085449219
z: -0.2360166311264038
visibility: 0.9761943817138672
","x: 135.28045654296875
y: 258.3103332519531
z: -0.16102592647075653
visibility: 0.9470792412757874
","x: 195.02484130859375
y: 401.9932861328125
z: -0.2636849284172058
visibility: 0.9780027866363525
","x: 136.7709197998047
y: 254.6162109375
z: -0.18777544796466827
visibility: 0.9502797722816467
","x: 194.1390380859375
y: 397.7395324707031
z: -0.2269231379032135
visibility: 0.9652573466300964
","x: 138.88487243652344
y: 257.9464111328125
z: -0.16198217868804932
visibility: 0.9347545504570007
","x: 201.39083862304688
y: 373.79583740234375
z: 0.028746936470270157
visibility: 0.9995929598808289
","x: 186.05038452148438
y: 376.1728515625
z: -0.02883332595229149
visibility: 0.9992967247962952
","x: 205.46136474609375
y: 450.68524169921875
z: 0.014053583145141602
visibility: 0.9758023619651794
","x: 188.55502319335938
y: 449.776611328125
z: -0.08146746456623077
visibility: 0.9876233339309692
","x: 203.6182403564453
y: 521.6976318359375
z: 0.13883629441261292
visibility: 0.9812760353088379
","x: 183.24754333496094
y: 524.5338745117188
z: 0.003987045492976904
visibility: 0.9803325533866882
","x: 200.26318359375
y: 532.2319946289062
z: 0.1459495723247528
visibility: 0.9066892266273499
","x: 182.0219268798828
y: 536.3306274414062
z: 0.006557381711900234
visibility: 0.8753862977027893
","x: 213.55718994140625
y: 543.3762817382812
z: 0.05021124333143234
visibility: 0.9767326712608337
","x: 189.07196044921875
y: 543.099609375
z: -0.10707952082157135
visibility: 0.9704497456550598
","x: 197.2159881591797
y: 393.05364990234375
z: 0.0
","x: 192.7062225341797
y: 393.0572204589844
z: -0.0036784883122891188
","x: 188.8280029296875
y: 396.2733154296875
z: -0.005250384099781513
","x: 186.53321838378906
y: 400.4119567871094
z: -0.006247100420296192
","x: 185.49761962890625
y: 403.35064697265625
z: -0.006973342038691044
","x: 190.91754150390625
y: 408.28363037109375
z: -0.0035096046049147844
","x: 189.3050079345703
y: 416.4032287597656
z: -0.004754976369440556
","x: 188.6205291748047
y: 420.6688232421875
z: -0.005179374013096094
","x: 188.3684539794922
y: 423.65911865234375
z: -0.0052154152654111385
","x: 193.5096893310547
y: 410.89410400390625
z: -0.0025618146173655987
","x: 192.01339721679688
y: 419.4134826660156
z: -0.0032987918239086866
","x: 191.12449645996094
y: 423.4324951171875
z: -0.003208290785551071
","x: 190.6012420654297
y: 425.8832092285156
z: -0.00314401020295918
","x: 195.5731658935547
y: 411.8806457519531
z: -0.001959568355232477
","x: 194.32073974609375
y: 419.63629150390625
z: -0.0032405981328338385
","x: 193.3631134033203
y: 423.35150146484375
z: -0.003705529263243079
","x: 192.6270751953125
y: 425.4455261230469
z: -0.003875552909448743
","x: 197.36111450195312
y: 411.6996765136719
z: -0.0017476226203143597
","x: 196.60635375976562
y: 418.3874816894531
z: -0.003161598462611437
","x: 195.942626953125
y: 421.7294921875
z: -0.0037471167743206024
","x: 195.25233459472656
y: 423.68109130859375
z: -0.003933244850486517
",5.506389141082764,"x: 141.03741455078125
y: 270.92425537109375
z: 0.0
","x: 142.28805541992188
y: 263.63665771484375
z: -0.0008621768793091178
","x: 142.70652770996094
y: 256.61669921875
z: -0.0019973749294877052
","x: 142.85752868652344
y: 251.40769958496094
z: -0.0037548744585365057
","x: 142.87423706054688
y: 247.30838012695312
z: -0.005242088809609413
","x: 136.5032196044922
y: 254.08834838867188
z: 0.0008201549644581974
","x: 134.87789916992188
y: 248.33023071289062
z: -0.0011394238099455833
","x: 133.7315216064453
y: 244.51890563964844
z: -0.0027578147128224373
","x: 132.7447967529297
y: 241.17051696777344
z: -0.003756229765713215
","x: 135.0618896484375
y: 256.8908996582031
z: -0.0004836128791794181
","x: 133.8978729248047
y: 252.67996215820312
z: -0.002310479059815407
","x: 134.4046630859375
y: 251.6475067138672
z: -0.002758418908342719
","x: 134.89894104003906
y: 250.86712646484375
z: -0.0027082334272563457
","x: 134.1298828125
y: 260.4559631347656
z: -0.002295213518664241
","x: 133.29315185546875
y: 257.6368713378906
z: -0.0041472455486655235
","x: 134.67921447753906
y: 258.2086486816406
z: -0.0033945587929338217
","x: 136.0634307861328
y: 258.701904296875
z: -0.002423584461212158
","x: 133.59449768066406
y: 264.421630859375
z: -0.004548377823084593
","x: 132.32704162597656
y: 262.05419921875
z: -0.005821142345666885
","x: 132.79495239257812
y: 261.6631774902344
z: -0.0052665346302092075
","x: 133.541748046875
y: 261.49072265625
z: -0.004442066885530949
"
19,"x: 185.69912719726562
y: 278.6108093261719
z: -0.3788890838623047
visibility: 0.99904465675354
","x: 186.24627685546875
y: 272.3290710449219
z: -0.37910711765289307
visibility: 0.9985940456390381
","x: 187.3152313232422
y: 270.8230285644531
z: -0.37908440828323364
visibility: 0.9988887906074524
","x: 188.50885009765625
y: 269.3289489746094
z: -0.3791137933731079
visibility: 0.998643159866333
","x: 183.69265747070312
y: 273.13116455078125
z: -0.37797433137893677
visibility: 0.9982208013534546
","x: 182.91348266601562
y: 272.43939208984375
z: -0.37806347012519836
visibility: 0.998272180557251
","x: 182.18798828125
y: 271.73876953125
z: -0.3781028389930725
visibility: 0.9979373812675476
","x: 190.75079345703125
y: 260.4100646972656
z: -0.28806832432746887
visibility: 0.9988811016082764
","x: 181.7992706298828
y: 264.492919921875
z: -0.2883296012878418
visibility: 0.997622013092041
","x: 187.35289001464844
y: 277.5530090332031
z: -0.33774039149284363
visibility: 0.9986669421195984
","x: 184.04786682128906
y: 278.15509033203125
z: -0.3372105658054352
visibility: 0.9983205795288086
","x: 206.03411865234375
y: 275.740478515625
z: -0.18551665544509888
visibility: 0.9999853372573853
","x: 169.6669921875
y: 272.6236267089844
z: -0.17531535029411316
visibility: 0.9999130368232727
","x: 203.81874084472656
y: 334.6702575683594
z: -0.14491187036037445
visibility: 0.9969835877418518
","x: 155.3967742919922
y: 301.8235168457031
z: -0.13596610724925995
visibility: 0.9894446730613708
","x: 199.5514678955078
y: 387.722412109375
z: -0.2168298065662384
visibility: 0.9928473830223083
","x: 139.35992431640625
y: 267.91790771484375
z: -0.15030844509601593
visibility: 0.9767693281173706
","x: 199.8414306640625
y: 403.0400085449219
z: -0.2360166311264038
visibility: 0.9761943817138672
","x: 135.28045654296875
y: 258.3103332519531
z: -0.16102592647075653
visibility: 0.9470792412757874
","x: 195.02484130859375
y: 401.9932861328125
z: -0.2636849284172058
visibility: 0.9780027866363525
","x: 136.7709197998047
y: 254.6162109375
z: -0.18777544796466827
visibility: 0.9502797722816467
","x: 194.1390380859375
y: 397.7395324707031
z: -0.2269231379032135
visibility: 0.9652573466300964
","x: 138.88487243652344
y: 257.9464111328125
z: -0.16198217868804932
visibility: 0.9347545504570007
","x: 201.39083862304688
y: 373.79583740234375
z: 0.028746936470270157
visibility: 0.9995929598808289
","x: 186.05038452148438
y: 376.1728515625
z: -0.02883332595229149
visibility: 0.9992967247962952
","x: 205.46136474609375
y: 450.68524169921875
z: 0.014053583145141602
visibility: 0.9758023619651794
","x: 188.55502319335938
y: 449.776611328125
z: -0.08146746456623077
visibility: 0.9876233339309692
","x: 203.6182403564453
y: 521.6976318359375
z: 0.13883629441261292
visibility: 0.9812760353088379
","x: 183.24754333496094
y: 524.5338745117188
z: 0.003987045492976904
visibility: 0.9803325533866882
","x: 200.26318359375
y: 532.2319946289062
z: 0.1459495723247528
visibility: 0.9066892266273499
","x: 182.0219268798828
y: 536.3306274414062
z: 0.006557381711900234
visibility: 0.8753862977027893
","x: 213.55718994140625
y: 543.3762817382812
z: 0.05021124333143234
visibility: 0.9767326712608337
","x: 189.07196044921875
y: 543.099609375
z: -0.10707952082157135
visibility: 0.9704497456550598
","x: 197.2159881591797
y: 393.05364990234375
z: 0.0
","x: 192.7062225341797
y: 393.0572204589844
z: -0.0036784883122891188
","x: 188.8280029296875
y: 396.2733154296875
z: -0.005250384099781513
","x: 186.53321838378906
y: 400.4119567871094
z: -0.006247100420296192
","x: 185.49761962890625
y: 403.35064697265625
z: -0.006973342038691044
","x: 190.91754150390625
y: 408.28363037109375
z: -0.0035096046049147844
","x: 189.3050079345703
y: 416.4032287597656
z: -0.004754976369440556
","x: 188.6205291748047
y: 420.6688232421875
z: -0.005179374013096094
","x: 188.3684539794922
y: 423.65911865234375
z: -0.0052154152654111385
","x: 193.5096893310547
y: 410.89410400390625
z: -0.0025618146173655987
","x: 192.01339721679688
y: 419.4134826660156
z: -0.0032987918239086866
","x: 191.12449645996094
y: 423.4324951171875
z: -0.003208290785551071
","x: 190.6012420654297
y: 425.8832092285156
z: -0.00314401020295918
","x: 195.5731658935547
y: 411.8806457519531
z: -0.001959568355232477
","x: 194.32073974609375
y: 419.63629150390625
z: -0.0032405981328338385
","x: 193.3631134033203
y: 423.35150146484375
z: -0.003705529263243079
","x: 192.6270751953125
y: 425.4455261230469
z: -0.003875552909448743
","x: 197.36111450195312
y: 411.6996765136719
z: -0.0017476226203143597
","x: 196.60635375976562
y: 418.3874816894531
z: -0.003161598462611437
","x: 195.942626953125
y: 421.7294921875
z: -0.0037471167743206024
","x: 195.25233459472656
y: 423.68109130859375
z: -0.003933244850486517
",5.506389141082764,"x: 141.03741455078125
y: 270.92425537109375
z: 0.0
","x: 142.28805541992188
y: 263.63665771484375
z: -0.0008621768793091178
","x: 142.70652770996094
y: 256.61669921875
z: -0.0019973749294877052
","x: 142.85752868652344
y: 251.40769958496094
z: -0.0037548744585365057
","x: 142.87423706054688
y: 247.30838012695312
z: -0.005242088809609413
","x: 136.5032196044922
y: 254.08834838867188
z: 0.0008201549644581974
","x: 134.87789916992188
y: 248.33023071289062
z: -0.0011394238099455833
","x: 133.7315216064453
y: 244.51890563964844
z: -0.0027578147128224373
","x: 132.7447967529297
y: 241.17051696777344
z: -0.003756229765713215
","x: 135.0618896484375
y: 256.8908996582031
z: -0.0004836128791794181
","x: 133.8978729248047
y: 252.67996215820312
z: -0.002310479059815407
","x: 134.4046630859375
y: 251.6475067138672
z: -0.002758418908342719
","x: 134.89894104003906
y: 250.86712646484375
z: -0.0027082334272563457
","x: 134.1298828125
y: 260.4559631347656
z: -0.002295213518664241
","x: 133.29315185546875
y: 257.6368713378906
z: -0.0041472455486655235
","x: 134.67921447753906
y: 258.2086486816406
z: -0.0033945587929338217
","x: 136.0634307861328
y: 258.701904296875
z: -0.002423584461212158
","x: 133.59449768066406
y: 264.421630859375
z: -0.004548377823084593
","x: 132.32704162597656
y: 262.05419921875
z: -0.005821142345666885
","x: 132.79495239257812
y: 261.6631774902344
z: -0.0052665346302092075
","x: 133.541748046875
y: 261.49072265625
z: -0.004442066885530949
"
20,"x: 178.53103637695312
y: 277.9975280761719
z: -0.39825063943862915
visibility: 0.9991211295127869
","x: 178.4281005859375
y: 271.4791564941406
z: -0.4023498594760895
visibility: 0.9986931085586548
","x: 179.1525421142578
y: 270.05413818359375
z: -0.4023405611515045
visibility: 0.9989678859710693
","x: 179.99630737304688
y: 268.6335144042969
z: -0.402402400970459
visibility: 0.9987488389015198
","x: 176.7400665283203
y: 272.1834716796875
z: -0.39116033911705017
visibility: 0.9982739090919495
","x: 176.21823120117188
y: 271.4608459472656
z: -0.39121800661087036
visibility: 0.9982919096946716
","x: 175.6761474609375
y: 270.76031494140625
z: -0.3912339508533478
visibility: 0.9979543685913086
","x: 183.28753662109375
y: 260.6723327636719
z: -0.33336594700813293
visibility: 0.9989638328552246
","x: 176.46142578125
y: 263.9292297363281
z: -0.2852983772754669
visibility: 0.9974073171615601
","x: 180.31497192382812
y: 277.9366760253906
z: -0.36430659890174866
visibility: 0.9987836480140686
","x: 178.1708984375
y: 278.38909912109375
z: -0.35037368535995483
visibility: 0.9984333515167236
","x: 200.56637573242188
y: 280.19757080078125
z: -0.26402610540390015
visibility: 0.9999862909317017
","x: 169.68043518066406
y: 276.68682861328125
z: -0.15607383847236633
visibility: 0.9999027252197266
","x: 197.6404266357422
y: 334.0838623046875
z: -0.2549649477005005
visibility: 0.9970417022705078
","x: 154.89361572265625
y: 297.53729248046875
z: -0.13458606600761414
visibility: 0.9875255823135376
","x: 187.9963836669922
y: 387.2064514160156
z: -0.3097161650657654
visibility: 0.9930434226989746
","x: 141.99635314941406
y: 263.71844482421875
z: -0.26437801122665405
visibility: 0.9769426584243774
","x: 185.71371459960938
y: 404.2333984375
z: -0.33746546506881714
visibility: 0.9769753813743591
","x: 138.0173797607422
y: 251.9608917236328
z: -0.2918688952922821
visibility: 0.9478428959846497
","x: 182.55934143066406
y: 402.916259765625
z: -0.3604310154914856
visibility: 0.9786830544471741
","x: 139.5558624267578
y: 250.26873779296875
z: -0.31522732973098755
visibility: 0.950860321521759
","x: 182.96286010742188
y: 397.7331848144531
z: -0.31631532311439514
visibility: 0.966187059879303
","x: 141.84927368164062
y: 254.2355194091797
z: -0.2781412899494171
visibility: 0.935667872428894
","x: 194.91717529296875
y: 373.9386291503906
z: -0.023913204669952393
visibility: 0.9996090531349182
","x: 181.88803100585938
y: 375.90631103515625
z: 0.023878242820501328
visibility: 0.9993357062339783
","x: 188.34225463867188
y: 448.0749206542969
z: 0.008392094634473324
visibility: 0.97562175989151
","x: 185.21571350097656
y: 447.3344421386719
z: 0.007001233287155628
visibility: 0.9857496023178101
","x: 191.1940155029297
y: 520.5498657226562
z: 0.16278627514839172
visibility: 0.9817990660667419
","x: 189.218994140625
y: 520.0411376953125
z: 0.1310417354106903
