uscmakers/ReverseChoreography/slow_dancing.csv
,NOSE,LEFT_EYE_INNER,LEFT_EYE,LEFT_EYE_OUTER,RIGHT_EYE_INNER,RIGHT_EYE,RIGHT_EYE_OUTER,LEFT_EAR,RIGHT_EAR,MOUTH_LEFT,MOUTH_RIGHT,LEFT_SHOULDER,RIGHT_SHOULDER,LEFT_ELBOW,RIGHT_ELBOW,LEFT_WRIST,RIGHT_WRIST,LEFT_PINKY,RIGHT_PINKY,LEFT_INDEX,RIGHT_INDEX,LEFT_THUMB,RIGHT_THUMB,LEFT_HIP,RIGHT_HIP,LEFT_KNEE,RIGHT_KNEE,LEFT_ANKLE,RIGHT_ANKLE,LEFT_HEEL,RIGHT_HEEL,LEFT_FOOT_INDEX,RIGHT_FOOT_INDEX,WRIST,THUMB_CPC,THUMB_MCP,THUMB_IP,THUMB_TIP,INDEX_FINGER_MCP,INDEX_FINGER_PIP,INDEX_FINGER_DIP,INDEX_FINGER_TIP,MIDDLE_FINGER_MCP,MIDDLE_FINGER_PIP,MIDDLE_FINGER_DIP,MIDDLE_FINGER_TIP,RING_FINGER_PIP,RING_FINGER_DIP,RING_FINGER_TIP,RING_FINGER_MCP,PINKY_MCP,PINKY_PIP,PINKY_DIP,PINKY_TIP,WRIST2,THUMB_CPC2,THUMB_MCP2,THUMB_IP2,THUMB_TIP2,INDEX_FINGER_MCP2,INDEX_FINGER_PIP2,INDEX_FINGER_DIP2,INDEX_FINGER_TIP2,MIDDLE_FINGER_MCP2,MIDDLE_FINGER_PIP2,MIDDLE_FINGER_DIP2,MIDDLE_FINGER_TIP2,RING_FINGER_PIP2,RING_FINGER_DIP2,RING_FINGER_TIP2,RING_FINGER_MCP2,PINKY_MCP2,PINKY_PIP2,PINKY_DIP2,PINKY_TIP2
0,"x: 189.12887573242188
y: 166.38345336914062
z: -0.2856190502643585
visibility: 0.9999967813491821
","x: 191.8753204345703
y: 156.96607971191406
z: -0.2749920189380646
visibility: 0.9999920129776001
","x: 193.9850616455078
y: 156.41192626953125
z: -0.2750665545463562
visibility: 0.9999924898147583
","x: 195.87094116210938
y: 155.95706176757812
z: -0.27513858675956726
visibility: 0.9999914169311523
","x: 186.41598510742188
y: 158.09060668945312
z: -0.2676200568675995
visibility: 0.999991774559021
","x: 185.10302734375
y: 158.3609619140625
z: -0.2676286995410919
visibility: 0.9999904632568359
","x: 183.7111358642578
y: 158.7540283203125
z: -0.2675861418247223
visibility: 0.9999876022338867
","x: 199.21929931640625
y: 156.8692626953125
z: -0.16287554800510406
visibility: 0.9999963045120239
","x: 182.6227264404297
y: 161.21522521972656
z: -0.12724237143993378
visibility: 0.9999841451644897
","x: 193.1512451171875
y: 173.2466278076172
z: -0.2390892058610916
visibility: 0.9999977350234985
","x: 186.5489501953125
y: 174.51748657226562
z: -0.2291184365749359
visibility: 0.9999943971633911
","x: 219.84303283691406
y: 196.2291259765625
z: -0.0952581986784935
visibility: 0.9999979734420776
","x: 172.51235961914062
y: 209.66366577148438
z: 0.0017825460527092218
visibility: 0.9998888969421387
","x: 241.8115997314453
y: 246.09454345703125
z: -0.06280836462974548
visibility: 0.9988917708396912
","x: 171.4241485595703
y: 273.33465576171875
z: -0.064531110227108
visibility: 0.9113517999649048
","x: 238.23329162597656
y: 298.2977600097656
z: -0.1545635461807251
visibility: 0.9951255917549133
","x: 177.32818603515625
y: 280.51019287109375
z: -0.34043407440185547
visibility: 0.9685091972351074
","x: 236.77044677734375
y: 316.2937316894531
z: -0.18956755101680756
visibility: 0.9869723916053772
","x: 179.38906860351562
y: 289.52508544921875
z: -0.39448559284210205
visibility: 0.9539221525192261
","x: 232.8545684814453
y: 313.7530822753906
z: -0.22040581703186035
visibility: 0.9876318573951721
","x: 179.81419372558594
y: 274.5478515625
z: -0.41419467329978943
visibility: 0.954245924949646
","x: 232.03590393066406
y: 307.1793518066406
z: -0.16581501066684723
visibility: 0.9826827049255371
","x: 179.96449279785156
y: 271.900634765625
z: -0.3547152280807495
visibility: 0.9341004490852356
","x: 211.4525146484375
y: 334.06036376953125
z: -0.05438270419836044
visibility: 0.9998528957366943
","x: 186.48037719726562
y: 336.3441467285156
z: 0.05446409061551094
visibility: 0.9996046423912048
","x: 209.93710327148438
y: 433.6114196777344
z: -0.08181149512529373
visibility: 0.9953354001045227
","x: 185.21852111816406
y: 435.671630859375
z: 0.0760493278503418
visibility: 0.9828919172286987
","x: 218.2001953125
y: 533.733642578125
z: 0.0170985609292984
visibility: 0.9954124093055725
","x: 201.2700653076172
y: 514.8877563476562
z: 0.2500738799571991
visibility: 0.9878097772598267
","x: 218.68540954589844
y: 547.0977783203125
z: 0.01609209179878235
visibility: 0.9329214692115784
","x: 206.49916076660156
y: 526.8656005859375
z: 0.25902459025382996
visibility: 0.9540294408798218
","x: 214.36386108398438
y: 561.2958984375
z: -0.13812308013439178
visibility: 0.9921190738677979
","x: 186.8740692138672
y: 542.80859375
z: 0.14500534534454346
visibility: 0.9855600595474243
",,,,,,,,,,,,,,,,,,,,,,,,,,,,,,,,,,,,,,,,,,
1,"x: 195.37533569335938
y: 168.37257385253906
z: -0.31709808111190796
visibility: 0.9999957084655762
","x: 197.3748016357422
y: 159.4095458984375
z: -0.30486106872558594
visibility: 0.9999873638153076
","x: 199.16053771972656
y: 159.05648803710938
z: -0.3048916459083557
visibility: 0.9999872446060181
","x: 200.99261474609375
y: 158.7061767578125
z: -0.3049514889717102
visibility: 0.9999865889549255
","x: 192.44239807128906
y: 159.77200317382812
z: -0.30484411120414734
visibility: 0.9999886751174927
","x: 190.7763671875
y: 159.80010986328125
z: -0.3048376739025116
visibility: 0.9999865889549255
","x: 188.91314697265625
y: 159.8985137939453
z: -0.30480414628982544
visibility: 0.9999840259552002
","x: 204.1494140625
y: 159.079833984375
z: -0.180440753698349
visibility: 0.9999909996986389
","x: 185.93060302734375
y: 161.5260467529297
z: -0.17607317864894867
visibility: 0.99997878074646
","x: 198.21578979492188
y: 176.17349243164062
z: -0.26455897092819214
visibility: 0.9999962449073792
","x: 192.27169799804688
y: 176.23915100097656
z: -0.26355594396591187
visibility: 0.9999927282333374
","x: 221.17881774902344
y: 196.229248046875
z: -0.09487558156251907
visibility: 0.9999978542327881
","x: 172.48756408691406
y: 202.05715942382812
z: -0.04753907769918442
visibility: 0.9998944997787476
","x: 249.50758361816406
y: 233.515625
z: -0.06194248050451279
visibility: 0.9988893866539001
","x: 170.26287841796875
y: 267.0963439941406
z: -0.02076082117855549
visibility: 0.9167765378952026
","x: 258.0045471191406
y: 283.08935546875
z: -0.20870327949523926
visibility: 0.9948844313621521
","x: 183.1717987060547
y: 300.77197265625
z: -0.16892142593860626
visibility: 0.969451904296875
","x: 259.2255859375
y: 299.239501953125
z: -0.2530544102191925
visibility: 0.986374020576477
","x: 186.2039337158203
y: 313.4859924316406
z: -0.21048542857170105
visibility: 0.9543532729148865
","x: 254.45692443847656
y: 299.889892578125
z: -0.28920334577560425
visibility: 0.9870799779891968
","x: 189.3760986328125
y: 308.24029541015625
z: -0.24584892392158508
visibility: 0.9548474550247192
","x: 252.75335693359375
y: 295.3344421386719
z: -0.2250446379184723
visibility: 0.9818664193153381
","x: 188.58302307128906
y: 303.18365478515625
z: -0.1846258044242859
visibility: 0.9352409839630127
","x: 213.0589141845703
y: 333.7655334472656
z: -0.049671366810798645
visibility: 0.9998398423194885
","x: 186.80841064453125
y: 336.3441467285156
z: 0.04979219660162926
visibility: 0.999566912651062
","x: 220.4315948486328
y: 433.679931640625
z: -0.12565898895263672
visibility: 0.9955573081970215
","x: 184.572509765625
y: 435.6228942871094
z: 0.06750594824552536
visibility: 0.9831100106239319
","x: 228.51068115234375
y: 534.6973266601562
z: -0.08171328902244568
visibility: 0.9956027865409851
","x: 201.31103515625
y: 515.1044311523438
z: 0.24235987663269043
visibility: 0.9877985715866089
","x: 229.28622436523438
y: 548.9467163085938
z: -0.08891520649194717
visibility: 0.9309157133102417
","x: 207.96932983398438
y: 527.108642578125
z: 0.25082066655158997
visibility: 0.9543299078941345
","x: 226.6439208984375
y: 570.5193481445312
z: -0.26025885343551636
visibility: 0.9922131299972534
","x: 185.9622039794922
y: 543.5745849609375
z: 0.13601741194725037
visibility: 0.9854880571365356
",,,,,,,,,,,,,,,,,,,,,,,,,,,,,,,,,,,,,,,,,,
2,"x: 197.8186492919922
y: 173.2313690185547
z: -0.41350388526916504
visibility: 0.9999924302101135
","x: 199.86048889160156
y: 164.2244110107422
z: -0.4051257073879242
visibility: 0.9999698400497437
","x: 201.5181427001953
y: 163.87905883789062
z: -0.40515509247779846
visibility: 0.9999694228172302
","x: 203.09471130371094
y: 163.37158203125
z: -0.40526142716407776
visibility: 0.9999704957008362
","x: 194.9988555908203
y: 163.96542358398438
z: -0.40570569038391113
visibility: 0.999976396560669
","x: 193.16119384765625
y: 163.63775634765625
z: -0.4057271480560303
visibility: 0.9999710917472839
","x: 191.32412719726562
y: 163.2293701171875
z: -0.4056869149208069
visibility: 0.9999682307243347
","x: 205.46543884277344
y: 162.0578155517578
z: -0.2791847884654999
visibility: 0.9999752044677734
","x: 187.23397827148438
y: 162.94927978515625
z: -0.2748637795448303
visibility: 0.9999552369117737
","x: 200.3467559814453
y: 180.85565185546875
z: -0.3582439422607422
visibility: 0.9999922513961792
","x: 194.40859985351562
y: 180.7429656982422
z: -0.35738512873649597
visibility: 0.9999871253967285
","x: 221.36097717285156
y: 195.51031494140625
z: -0.1782412827014923
visibility: 0.9999978542327881
","x: 172.26199340820312
y: 198.90740966796875
z: -0.11491011083126068
visibility: 0.9998992085456848
","x: 252.2567596435547
y: 223.5746612548828
z: -0.1554199755191803
visibility: 0.9989388585090637
","x: 169.7306365966797
y: 266.77593994140625
z: -0.02644803561270237
visibility: 0.9223436117172241
","x: 267.1556091308594
y: 267.41009521484375
z: -0.32986098527908325
visibility: 0.9948381781578064
","x: 182.34652709960938
y: 315.5638427734375
z: -0.1791696846485138
visibility: 0.9697860479354858
","x: 270.5614929199219
y: 286.5538330078125
z: -0.3793279826641083
visibility: 0.9861409068107605
","x: 185.29933166503906
y: 334.183837890625
z: -0.21721729636192322
visibility: 0.9532791376113892
","x: 265.0531921386719
y: 289.5287780761719
z: -0.4188055098056793
visibility: 0.9869406223297119
","x: 187.98886108398438
y: 329.01995849609375
z: -0.2603064179420471
visibility: 0.9541915059089661
","x: 263.4432678222656
y: 283.9519958496094
z: -0.3485924005508423
visibility: 0.9815388321876526
","x: 187.71578979492188
y: 322.19976806640625
z: -0.19760999083518982
visibility: 0.935024619102478
","x: 213.76048278808594
y: 333.59197998046875
z: -0.05562914162874222
visibility: 0.9998245239257812
","x: 187.4961395263672
y: 336.6270751953125
z: 0.055781859904527664
visibility: 0.9995206594467163
","x: 226.82904052734375
y: 432.7016906738281
z: -0.1667289435863495
visibility: 0.9958794713020325
","x: 182.465576171875
y: 434.96478271484375
z: 0.08387678116559982
visibility: 0.983656108379364
","x: 245.0956573486328
y: 531.8049926757812
z: -0.13218338787555695
visibility: 0.9959240555763245
","x: 202.43934631347656
y: 515.10888671875
z: 0.27599814534187317
visibility: 0.9880731105804443
","x: 252.47775268554688
y: 548.5267333984375
z: -0.14067964255809784
visibility: 0.9303633570671082
","x: 210.37310791015625
y: 527.2528076171875
z: 0.2856523394584656
visibility: 0.9558804631233215
","x: 230.4075927734375
y: 570.403564453125
z: -0.3238005042076111
visibility: 0.9925616979598999
","x: 185.23272705078125
y: 543.5693359375
z: 0.1723814606666565
visibility: 0.9857119917869568
",,,,,,,,,,,,,,,,,,,,,,,,,,,,,,,,,,,,,,,,,,
3,"x: 197.99758911132812
y: 179.97206115722656
z: -0.45409440994262695
visibility: 0.9999886751174927
","x: 199.66561889648438
y: 170.32815551757812
z: -0.44839972257614136
visibility: 0.9999462366104126
","x: 201.17459106445312
y: 169.43972778320312
z: -0.4484553933143616
visibility: 0.9999485015869141
","x: 202.7237091064453
y: 168.341796875
z: -0.44859427213668823
visibility: 0.9999510049819946
","x: 194.87965393066406
y: 171.12796020507812
z: -0.44344139099121094
visibility: 0.9999570250511169
","x: 193.03817749023438
y: 170.94708251953125
z: -0.4434402883052826
visibility: 0.9999458193778992
","x: 191.15328979492188
y: 170.58876037597656
z: -0.4433837831020355
visibility: 0.9999380707740784
","x: 204.79701232910156
y: 164.78070068359375
z: -0.3277762830257416
visibility: 0.9999592304229736
","x: 187.0784454345703
y: 167.94761657714844
z: -0.29687970876693726
visibility: 0.9999052286148071
","x: 200.65374755859375
y: 185.95416259765625
z: -0.39998847246170044
visibility: 0.9999854564666748
","x: 194.80503845214844
y: 187.4075469970703
z: -0.39157116413116455
visibility: 0.9999741911888123
","x: 221.7117919921875
y: 193.97108459472656
z: -0.23241381347179413
visibility: 0.9999979138374329
","x: 172.67950439453125
y: 199.27789306640625
z: -0.11580761522054672
visibility: 0.9998998641967773
","x: 255.302978515625
y: 215.23507690429688
z: -0.21968750655651093
visibility: 0.9990183711051941
","x: 169.8226318359375
y: 267.1517333984375
z: -0.022543568164110184
visibility: 0.9257169365882874
","x: 279.2228698730469
y: 256.9539794921875
z: -0.3630219101905823
visibility: 0.9949455857276917
","x: 178.38629150390625
y: 322.3077697753906
z: -0.13500088453292847
visibility: 0.9692363142967224
","x: 284.2503662109375
y: 273.8182678222656
z: -0.4067091941833496
visibility: 0.9862044453620911
","x: 178.1371307373047
y: 342.0226745605469
z: -0.1632622927427292
visibility: 0.9506568312644958
","x: 280.1796569824219
y: 278.7426452636719
z: -0.44674643874168396
visibility: 0.9870919585227966
","x: 183.96482849121094
y: 337.7525634765625
z: -0.21268291771411896
visibility: 0.95228111743927
","x: 277.21197509765625
y: 274.1221923828125
z: -0.3812982141971588
visibility: 0.9816662073135376
","x: 185.3075408935547
y: 331.0104064941406
z: -0.15583211183547974
visibility: 0.9337697625160217
","x: 216.5929718017578
y: 334.1116943359375
z: -0.07459114491939545
visibility: 0.9998113512992859
","x: 191.2318878173828
y: 338.2427673339844
z: 0.07474856078624725
visibility: 0.9994821548461914
","x: 228.9232177734375
y: 432.2291259765625
z: -0.17781634628772736
visibility: 0.9961674213409424
","x: 183.18960571289062
y: 428.0855712890625
z: 0.09120908379554749
visibility: 0.9838660359382629
","x: 253.01226806640625
y: 531.898681640625
z: -0.1274663656949997
visibility: 0.9962314367294312
","x: 203.7642059326172
y: 516.9052734375
z: 0.28011780977249146
visibility: 0.988359272480011
","x: 260.6823425292969
y: 548.506103515625
z: -0.13390015065670013
visibility: 0.9320382475852966
","x: 211.6917724609375
y: 532.5032958984375
z: 0.28942233324050903
visibility: 0.9578688144683838
","x: 234.31533813476562
y: 569.7473754882812
z: -0.31727030873298645
visibility: 0.9929109811782837
","x: 184.15406799316406
y: 543.1504516601562
z: 0.1760653555393219
visibility: 0.9858124256134033
","x: 172.72396850585938
y: 324.1006774902344
z: 0.0
","x: 178.13365173339844
y: 326.5989685058594
z: -0.00238797371275723
","x: 183.04766845703125
y: 331.75579833984375
z: -0.0037676391657441854
","x: 187.28712463378906
y: 334.812255859375
z: -0.004640839993953705
","x: 190.52365112304688
y: 335.3096008300781
z: -0.005189876072108746
","x: 178.0630645751953
y: 345.2574157714844
z: -0.002223080489784479
","x: 179.6832275390625
y: 356.2904052734375
z: -0.00333087588660419
","x: 181.33941650390625
y: 362.1978759765625
z: -0.0036642684135586023
","x: 183.05213928222656
y: 366.0232238769531
z: -0.0035233325324952602
","x: 175.68125915527344
y: 347.349365234375
z: -0.0015167735982686281
","x: 177.09332275390625
y: 358.7215881347656
z: -0.00205740868113935
","x: 179.29092407226562
y: 364.78570556640625
z: -0.002037330297753215
","x: 181.5056915283203
y: 368.81536865234375
z: -0.0020783948712050915
","x: 174.25584411621094
y: 348.03643798828125
z: -0.0010173089103773236
","x: 175.60086059570312
y: 358.4361267089844
z: -0.001895817113108933
","x: 177.6883544921875
y: 364.1807861328125
z: -0.0024453348014503717
","x: 179.8208465576172
y: 367.96563720703125
z: -0.0026671604719012976
","x: 173.7276611328125
y: 347.641357421875
z: -0.0008047419833019376
","x: 174.7913055419922
y: 356.201416015625
z: -0.0016108941053971648
","x: 176.3637237548828
y: 361.4100341796875
z: -0.0020737864542752504
","x: 178.09205627441406
y: 365.0000305175781
z: -0.0021782368421554565
",,,,,,,,,,,,,,,,,,,,,
4,"x: 197.99758911132812
y: 179.97206115722656
z: -0.45409440994262695
visibility: 0.9999886751174927
","x: 199.66561889648438
y: 170.32815551757812
z: -0.44839972257614136
visibility: 0.9999462366104126
","x: 201.17459106445312
y: 169.43972778320312
z: -0.4484553933143616
visibility: 0.9999485015869141
","x: 202.7237091064453
y: 168.341796875
z: -0.44859427213668823
visibility: 0.9999510049819946
","x: 194.87965393066406
y: 171.12796020507812
z: -0.44344139099121094
visibility: 0.9999570250511169
","x: 193.03817749023438
y: 170.94708251953125
z: -0.4434402883052826
visibility: 0.9999458193778992
","x: 191.15328979492188
y: 170.58876037597656
z: -0.4433837831020355
visibility: 0.9999380707740784
","x: 204.79701232910156
y: 164.78070068359375
z: -0.3277762830257416
visibility: 0.9999592304229736
","x: 187.0784454345703
y: 167.94761657714844
z: -0.29687970876693726
visibility: 0.9999052286148071
","x: 200.65374755859375
y: 185.95416259765625
z: -0.39998847246170044
visibility: 0.9999854564666748
","x: 194.80503845214844
y: 187.4075469970703
z: -0.39157116413116455
visibility: 0.9999741911888123
","x: 221.7117919921875
y: 193.97108459472656
z: -0.23241381347179413
visibility: 0.9999979138374329
","x: 172.67950439453125
y: 199.27789306640625
z: -0.11580761522054672
visibility: 0.9998998641967773
","x: 255.302978515625
y: 215.23507690429688
z: -0.21968750655651093
visibility: 0.9990183711051941
","x: 169.8226318359375
y: 267.1517333984375
z: -0.022543568164110184
visibility: 0.9257169365882874
","x: 279.2228698730469
y: 256.9539794921875
z: -0.3630219101905823
visibility: 0.9949455857276917
","x: 178.38629150390625
y: 322.3077697753906
z: -0.13500088453292847
visibility: 0.9692363142967224
","x: 284.2503662109375
y: 273.8182678222656
z: -0.4067091941833496
visibility: 0.9862044453620911
","x: 178.1371307373047
y: 342.0226745605469
z: -0.1632622927427292
visibility: 0.9506568312644958
","x: 280.1796569824219
y: 278.7426452636719
z: -0.44674643874168396
visibility: 0.9870919585227966
","x: 183.96482849121094
y: 337.7525634765625
z: -0.21268291771411896
visibility: 0.95228111743927
","x: 277.21197509765625
y: 274.1221923828125
z: -0.3812982141971588
visibility: 0.9816662073135376
","x: 185.3075408935547
y: 331.0104064941406
z: -0.15583211183547974
visibility: 0.9337697625160217
","x: 216.5929718017578
y: 334.1116943359375
z: -0.07459114491939545
visibility: 0.9998113512992859
","x: 191.2318878173828
y: 338.2427673339844
z: 0.07474856078624725
visibility: 0.9994821548461914
","x: 228.9232177734375
y: 432.2291259765625
z: -0.17781634628772736
visibility: 0.9961674213409424
","x: 183.18960571289062
y: 428.0855712890625
z: 0.09120908379554749
visibility: 0.9838660359382629
","x: 253.01226806640625
y: 531.898681640625
z: -0.1274663656949997
visibility: 0.9962314367294312
","x: 203.7642059326172
y: 516.9052734375
z: 0.28011780977249146
visibility: 0.988359272480011
","x: 260.6823425292969
y: 548.506103515625
z: -0.13390015065670013
visibility: 0.9320382475852966
","x: 211.6917724609375
y: 532.5032958984375
z: 0.28942233324050903
visibility: 0.9578688144683838
","x: 234.31533813476562
y: 569.7473754882812
z: -0.31727030873298645
visibility: 0.9929109811782837
","x: 184.15406799316406
y: 543.1504516601562
z: 0.1760653555393219
visibility: 0.9858124256134033
","x: 172.72396850585938
y: 324.1006774902344
z: 0.0
","x: 178.13365173339844
y: 326.5989685058594
z: -0.00238797371275723
","x: 183.04766845703125
y: 331.75579833984375
z: -0.0037676391657441854
","x: 187.28712463378906
y: 334.812255859375
z: -0.004640839993953705
","x: 190.52365112304688
y: 335.3096008300781
z: -0.005189876072108746
","x: 178.0630645751953
y: 345.2574157714844
z: -0.002223080489784479
","x: 179.6832275390625
y: 356.2904052734375
z: -0.00333087588660419
","x: 181.33941650390625
y: 362.1978759765625
z: -0.0036642684135586023
","x: 183.05213928222656
y: 366.0232238769531
z: -0.0035233325324952602
","x: 175.68125915527344
y: 347.349365234375
z: -0.0015167735982686281
","x: 177.09332275390625
y: 358.7215881347656
z: -0.00205740868113935
","x: 179.29092407226562
y: 364.78570556640625
z: -0.002037330297753215
","x: 181.5056915283203
y: 368.81536865234375
z: -0.0020783948712050915
","x: 174.25584411621094
y: 348.03643798828125
z: -0.0010173089103773236
","x: 175.60086059570312
y: 358.4361267089844
z: -0.001895817113108933
","x: 177.6883544921875
y: 364.1807861328125
z: -0.0024453348014503717
","x: 179.8208465576172
y: 367.96563720703125
z: -0.0026671604719012976
","x: 173.7276611328125
y: 347.641357421875
z: -0.0008047419833019376
","x: 174.7913055419922
y: 356.201416015625
z: -0.0016108941053971648
","x: 176.3637237548828
y: 361.4100341796875
z: -0.0020737864542752504
","x: 178.09205627441406
y: 365.0000305175781
z: -0.0021782368421554565
",,,,,,,,,,,,,,,,,,,,,
5,"x: 198.91287231445312
y: 181.78985595703125
z: -0.5195043087005615
visibility: 0.9999788403511047
","x: 200.16021728515625
y: 171.86524963378906
z: -0.5140576958656311
visibility: 0.9998884797096252
","x: 201.5454864501953
y: 170.89598083496094
z: -0.5141136646270752
visibility: 0.9998968243598938
","x: 202.99876403808594
y: 169.72866821289062
z: -0.5142719745635986
visibility: 0.9999021887779236
","x: 195.51968383789062
y: 173.05702209472656
z: -0.5110021829605103
visibility: 0.9999111890792847
","x: 193.59469604492188
y: 173.13995361328125
z: -0.5110273361206055
visibility: 0.9998887777328491
","x: 191.5877227783203
y: 173.07464599609375
z: -0.5109802484512329
visibility: 0.9998660087585449
","x: 204.53701782226562
y: 166.1654815673828
z: -0.3886251747608185
visibility: 0.9999209642410278
","x: 186.97425842285156
y: 171.2600555419922
z: -0.3657020926475525
visibility: 0.9997851252555847
","x: 201.4629669189453
y: 187.99786376953125
z: -0.46317848563194275
visibility: 0.9999735951423645
","x: 195.63763427734375
y: 189.9558868408203
z: -0.45701971650123596
visibility: 0.9999488592147827
","x: 222.13031005859375
y: 193.5989990234375
z: -0.2818078100681305
visibility: 0.9999979734420776
","x: 172.86959838867188
y: 199.80496215820312
z: -0.1784578114748001
visibility: 0.9998983144760132
","x: 257.2962646484375
y: 212.7517852783203
z: -0.26276081800460815
visibility: 0.999093770980835
","x: 170.0240936279297
y: 272.132568359375
z: -0.08381115645170212
visibility: 0.929150402545929
","x: 283.0788879394531
y: 255.76287841796875
z: -0.39600133895874023
visibility: 0.9950700402259827
","x: 176.302734375
y: 327.20574951171875
z: -0.1997043937444687
visibility: 0.9680094122886658
","x: 288.4689636230469
y: 273.392333984375
z: -0.4391862452030182
visibility: 0.9862948656082153
","x: 175.77320861816406
y: 347.98590087890625
z: -0.2314397543668747
visibility: 0.9469312429428101
","x: 284.68133544921875
y: 278.65692138671875
z: -0.48139190673828125
visibility: 0.9872636198997498
","x: 181.44354248046875
y: 344.01611328125
z: -0.2807122468948364
visibility: 0.9493733048439026
","x: 281.9405822753906
y: 273.7708435058594
z: -0.4148876667022705
visibility: 0.9818306565284729
","x: 183.38507080078125
y: 336.8180847167969
z: -0.2207070291042328
visibility: 0.9312198758125305
","x: 218.56700134277344
y: 334.5765380859375
z: -0.07486210018396378
visibility: 0.9997986555099487
","x: 192.9982452392578
y: 340.1730041503906
z: 0.07503537833690643
visibility: 0.9994223713874817
","x: 230.7036895751953
y: 432.3056335449219
z: -0.17159201204776764
visibility: 0.996465802192688
","x: 184.04576110839844
y: 428.8656005859375
z: 0.13441137969493866
visibility: 0.9842116832733154
","x: 254.6463165283203
y: 531.857177734375
z: -0.11751456558704376
visibility: 0.996540904045105
","x: 203.92677307128906
y: 518.97900390625
z: 0.3497679829597473
visibility: 0.9887542128562927
","x: 261.7815246582031
y: 548.4786376953125
z: -0.1245289295911789
visibility: 0.9337033629417419
","x: 212.0112762451172
y: 534.8507080078125
z: 0.36130189895629883
visibility: 0.9596432447433472
","x: 234.5869903564453
y: 569.611572265625
z: -0.3169656991958618
visibility: 0.993319034576416
","x: 183.93890380859375
y: 543.0062255859375
z: 0.24365945160388947
visibility: 0.9861649870872498
","x: 172.37120056152344
y: 325.1253662109375
z: 0.0
","x: 177.27032470703125
y: 329.5178527832031
z: -0.0017431924352422357
","x: 181.67898559570312
y: 335.6058044433594
z: -0.0038453980814665556
","x: 185.89144897460938
y: 338.48675537109375
z: -0.005912826396524906
","x: 189.5925750732422
y: 339.3766784667969
z: -0.007773488759994507
","x: 177.2985382080078
y: 347.161376953125
z: -0.0029165472369641066
","x: 178.69210815429688
y: 357.9275817871094
z: -0.0052390010096132755
","x: 180.07542419433594
y: 364.43450927734375
z: -0.006660661660134792
","x: 181.46817016601562
y: 369.04888916015625
z: -0.0073732477612793446
","x: 175.61199951171875
y: 347.8810119628906
z: -0.003363544587045908
","x: 176.49273681640625
y: 358.82452392578125
z: -0.005250108893960714
","x: 177.90467834472656
y: 364.8672790527344
z: -0.005760800559073687
","x: 179.419677734375
y: 369.464111328125
z: -0.006144154351204634
","x: 174.51190185546875
y: 347.28057861328125
z: -0.004006292205303907
","x: 175.40695190429688
y: 357.26171875
z: -0.005750915501266718
","x: 176.86740112304688
y: 363.245849609375
z: -0.00614013010635972
","x: 178.4206085205078
y: 367.9259033203125
z: -0.006326145492494106
","x: 174.05917358398438
y: 345.8822326660156
z: -0.004927407950162888
","x: 174.8258819580078
y: 353.8357849121094
z: -0.006094800308346748
","x: 176.11529541015625
y: 359.0089111328125
z: -0.006259002257138491
","x: 177.42689514160156
y: 363.16766357421875
z: -0.006295960862189531
",,,,,,,,,,,,,,,,,,,,,
6,"x: 198.91287231445312
y: 181.78985595703125
z: -0.5195043087005615
visibility: 0.9999788403511047
","x: 200.16021728515625
y: 171.86524963378906
z: -0.5140576958656311
visibility: 0.9998884797096252
","x: 201.5454864501953
y: 170.89598083496094
z: -0.5141136646270752
visibility: 0.9998968243598938
","x: 202.99876403808594
y: 169.72866821289062
z: -0.5142719745635986
visibility: 0.9999021887779236
","x: 195.51968383789062
y: 173.05702209472656
z: -0.5110021829605103
visibility: 0.9999111890792847
","x: 193.59469604492188
y: 173.13995361328125
z: -0.5110273361206055
visibility: 0.9998887777328491
","x: 191.5877227783203
y: 173.07464599609375
z: -0.5109802484512329
visibility: 0.9998660087585449
","x: 204.53701782226562
y: 166.1654815673828
z: -0.3886251747608185
visibility: 0.9999209642410278
","x: 186.97425842285156
y: 171.2600555419922
z: -0.3657020926475525
visibility: 0.9997851252555847
","x: 201.4629669189453
y: 187.99786376953125
z: -0.46317848563194275
visibility: 0.9999735951423645
","x: 195.63763427734375
y: 189.9558868408203
z: -0.45701971650123596
visibility: 0.9999488592147827
","x: 222.13031005859375
y: 193.5989990234375
z: -0.2818078100681305
visibility: 0.9999979734420776
","x: 172.86959838867188
y: 199.80496215820312
z: -0.1784578114748001
visibility: 0.9998983144760132
","x: 257.2962646484375
y: 212.7517852783203
z: -0.26276081800460815
visibility: 0.999093770980835
","x: 170.0240936279297
y: 272.132568359375
z: -0.08381115645170212
visibility: 0.929150402545929
","x: 283.0788879394531
y: 255.76287841796875
z: -0.39600133895874023
visibility: 0.9950700402259827
","x: 176.302734375
y: 327.20574951171875
z: -0.1997043937444687
visibility: 0.9680094122886658
","x: 288.4689636230469
y: 273.392333984375
z: -0.4391862452030182
visibility: 0.9862948656082153
","x: 175.77320861816406
y: 347.98590087890625
z: -0.2314397543668747
visibility: 0.9469312429428101
","x: 284.68133544921875
y: 278.65692138671875
z: -0.48139190673828125
visibility: 0.9872636198997498
","x: 181.44354248046875
y: 344.01611328125
z: -0.2807122468948364
visibility: 0.9493733048439026
","x: 281.9405822753906
y: 273.7708435058594
z: -0.4148876667022705
visibility: 0.9818306565284729
","x: 183.38507080078125
y: 336.8180847167969
z: -0.2207070291042328
visibility: 0.9312198758125305
","x: 218.56700134277344
y: 334.5765380859375
z: -0.07486210018396378
visibility: 0.9997986555099487
","x: 192.9982452392578
y: 340.1730041503906
z: 0.07503537833690643
visibility: 0.9994223713874817
","x: 230.7036895751953
y: 432.3056335449219
z: -0.17159201204776764
visibility: 0.996465802192688
","x: 184.04576110839844
y: 428.8656005859375
z: 0.13441137969493866
visibility: 0.9842116832733154
","x: 254.6463165283203
y: 531.857177734375
z: -0.11751456558704376
visibility: 0.996540904045105
","x: 203.92677307128906
y: 518.97900390625
z: 0.3497679829597473
visibility: 0.9887542128562927
","x: 261.7815246582031
y: 548.4786376953125
z: -0.1245289295911789
visibility: 0.9337033629417419
","x: 212.0112762451172
y: 534.8507080078125
z: 0.36130189895629883
visibility: 0.9596432447433472
","x: 234.5869903564453
y: 569.611572265625
z: -0.3169656991958618
visibility: 0.993319034576416
","x: 183.93890380859375
y: 543.0062255859375
z: 0.24365945160388947
visibility: 0.9861649870872498
","x: 172.37120056152344
y: 325.1253662109375
z: 0.0
","x: 177.27032470703125
y: 329.5178527832031
z: -0.0017431924352422357
","x: 181.67898559570312
y: 335.6058044433594
z: -0.0038453980814665556
","x: 185.89144897460938
y: 338.48675537109375
z: -0.005912826396524906
","x: 189.5925750732422
y: 339.3766784667969
z: -0.007773488759994507
","x: 177.2985382080078
y: 347.161376953125
z: -0.0029165472369641066
","x: 178.69210815429688
y: 357.9275817871094
z: -0.0052390010096132755
","x: 180.07542419433594
y: 364.43450927734375
z: -0.006660661660134792
","x: 181.46817016601562
y: 369.04888916015625
z: -0.0073732477612793446
","x: 175.61199951171875
y: 347.8810119628906
z: -0.003363544587045908
","x: 176.49273681640625
y: 358.82452392578125
z: -0.005250108893960714
","x: 177.90467834472656
y: 364.8672790527344
z: -0.005760800559073687
","x: 179.419677734375
y: 369.464111328125
z: -0.006144154351204634
","x: 174.51190185546875
y: 347.28057861328125
z: -0.004006292205303907
","x: 175.40695190429688
y: 357.26171875
z: -0.005750915501266718
","x: 176.86740112304688
y: 363.245849609375
z: -0.00614013010635972
","x: 178.4206085205078
y: 367.9259033203125
z: -0.006326145492494106
","x: 174.05917358398438
y: 345.8822326660156
z: -0.004927407950162888
","x: 174.8258819580078
y: 353.8357849121094
z: -0.006094800308346748
","x: 176.11529541015625
y: 359.0089111328125
z: -0.006259002257138491
","x: 177.42689514160156
y: 363.16766357421875
z: -0.006295960862189531
",,,,,,,,,,,,,,,,,,,,,
7,"x: 201.99832153320312
y: 181.4710235595703
z: -0.48516854643821716
visibility: 0.9999760389328003
","x: 201.8626708984375
y: 171.6276397705078
z: -0.47742897272109985
visibility: 0.9998612403869629
","x: 203.14064025878906
y: 170.53488159179688
z: -0.4775010645389557
visibility: 0.999877393245697
","x: 204.36917114257812
y: 169.27230834960938
z: -0.47762879729270935
visibility: 0.9998801350593567
","x: 197.3493194580078
y: 173.8001251220703
z: -0.47260579466819763
visibility: 0.9998868703842163
","x: 195.13186645507812
y: 174.55706787109375
z: -0.4726025462150574
visibility: 0.999859631061554
","x: 192.9408416748047
y: 175.273681640625
z: -0.4725520610809326
visibility: 0.999822735786438
","x: 205.3052520751953
y: 167.08349609375
z: -0.3547669053077698
visibility: 0.9999051094055176
","x: 187.7556915283203
y: 177.23451232910156
z: -0.32329338788986206
visibility: 0.9997345805168152
","x: 204.82151794433594
y: 187.54554748535156
z: -0.43176349997520447
visibility: 0.9999681711196899
","x: 199.59307861328125
y: 190.9335479736328
z: -0.4229127764701843
visibility: 0.9999355673789978
","x: 227.47183227539062
y: 194.17030334472656
z: -0.25897976756095886
visibility: 0.9999980330467224
","x: 176.6675567626953
y: 214.83929443359375
z: -0.14558187127113342
visibility: 0.9998968243598938
","x: 265.50299072265625
y: 214.26971435546875
z: -0.2712097764015198
visibility: 0.9991610050201416
","x: 172.6165313720703
y: 283.7806091308594
z: -0.08034812659025192
visibility: 0.9331522583961487
","x: 295.359130859375
y: 256.9296875
z: -0.4414140284061432
visibility: 0.9953092336654663
","x: 175.4620819091797
y: 345.7138671875
z: -0.16790398955345154
visibility: 0.9685350060462952
","x: 303.6263427734375
y: 273.2556457519531
z: -0.4875880777835846
visibility: 0.9868246912956238
","x: 175.2962188720703
y: 366.26513671875
z: -0.1939065158367157
visibility: 0.9460273385047913
","x: 299.05133056640625
y: 279.52288818359375
z: -0.5317585468292236
visibility: 0.987828254699707
","x: 179.6165771484375
y: 364.7962646484375
z: -0.24740421772003174
visibility: 0.9489370584487915
","x: 295.56689453125
y: 275.3262939453125
z: -0.4623464047908783
visibility: 0.9826645851135254
","x: 181.74740600585938
y: 357.61273193359375
z: -0.19061246514320374
visibility: 0.9318552017211914
","x: 227.77780151367188
y: 337.8119201660156
z: -0.07322011888027191
visibility: 0.999786913394928
","x: 200.27316284179688
y: 343.4859619140625
z: 0.07343603670597076
visibility: 0.9993910193443298
","x: 235.62271118164062
y: 434.7401123046875
z: -0.16465207934379578
visibility: 0.9966998100280762
","x: 186.324462890625
y: 429.32513427734375
z: 0.13110145926475525
visibility: 0.9850816130638123
","x: 257.7489929199219
y: 532.8431396484375
z: -0.09435175359249115
visibility: 0.9967655539512634
","x: 204.10963439941406
y: 519.04833984375
z: 0.31470006704330444
visibility: 0.9891560673713684
","x: 264.88232421875
y: 550.2062377929688
z: -0.09987495839595795
visibility: 0.9340659976005554
","x: 211.79751586914062
y: 535.1447143554688
z: 0.32585495710372925
visibility: 0.9612298607826233
","x: 235.58258056640625
y: 569.2347412109375
z: -0.2872580289840698
visibility: 0.9935083389282227
","x: 183.1616973876953
y: 542.3143920898438
z: 0.2113325148820877
visibility: 0.9863474369049072
","x: 171.56869506835938
y: 348.7786865234375
z: 0.0
","x: 175.84385681152344
y: 351.2165832519531
z: -0.0064596268348395824
","x: 179.472900390625
y: 357.3961181640625
z: -0.007191467098891735
","x: 183.10382080078125
y: 362.3332214355469
z: -0.006065576337277889
","x: 186.27389526367188
y: 366.0703125
z: -0.004305865615606308
","x: 175.10023498535156
y: 371.8273620605469
z: -0.0018067100318148732
","x: 176.78021240234375
y: 382.91717529296875
z: 0.0006067611975595355
","x: 178.02500915527344
y: 388.47882080078125
z: 0.0029196268878877163
","x: 179.02676391601562
y: 392.3578186035156
z: 0.0050124311819672585
","x: 173.5126495361328
y: 372.7096862792969
z: 0.0037301562260836363
","x: 175.09225463867188
y: 382.862060546875
z: 0.008211974054574966
","x: 176.58587646484375
y: 388.183349609375
z: 0.011676597408950329
","x: 177.6004638671875
y: 392.1224670410156
z: 0.014008257538080215
","x: 172.54598999023438
y: 372.23175048828125
z: 0.008747299201786518
","x: 174.03456115722656
y: 380.7268981933594
z: 0.012923363596200943
","x: 175.60935974121094
y: 385.587890625
z: 0.014959724619984627
","x: 176.69839477539062
y: 389.021484375
z: 0.01614774763584137
","x: 172.25039672851562
y: 370.9952392578125
z: 0.013036363758146763
","x: 173.58694458007812
y: 377.7706298828125
z: 0.016271742060780525
","x: 174.9268035888672
y: 382.3603515625
z: 0.017478104680776596
","x: 175.96340942382812
y: 385.3780517578125
z: 0.018445653840899467
","x: 296.0439453125
y: 257.2942810058594
z: 0.0
","x: 294.56121826171875
y: 267.82110595703125
z: -0.0011645640479400754
","x: 294.3696594238281
y: 277.8968200683594
z: -0.0020507012959569693
","x: 294.1976623535156
y: 286.12945556640625
z: -0.0032078882213681936
","x: 294.03076171875
y: 291.90386962890625
z: -0.004078242927789688
","x: 302.18389892578125
y: 281.6640319824219
z: 0.00021988330991007388
","x: 305.0185546875
y: 291.67816162109375
z: -0.0010086308466270566
","x: 306.1780700683594
y: 297.7200622558594
z: -0.0015978760784491897
","x: 306.86981201171875
y: 302.42926025390625
z: -0.0017802101792767644
","x: 304.6620178222656
y: 278.8231506347656
z: -0.0006161308265291154
","x: 308.34405517578125
y: 288.05706787109375
z: -0.0009275488555431366
","x: 309.1570739746094
y: 293.16961669921875
z: -0.000751508807297796
","x: 309.2364196777344
y: 296.73809814453125
z: -0.000650951114948839
","x: 306.33160400390625
y: 275.21771240234375
z: -0.0018619990441948175
","x: 310.0080871582031
y: 282.9181213378906
z: -0.0028245619032531977
","x: 311.09735107421875
y: 287.178955078125
z: -0.003036359092220664
","x: 311.2961730957031
y: 290.382568359375
z: -0.003100968897342682
","x: 307.0912170410156
y: 271.0239562988281
z: -0.0034662841353565454
","x: 310.4759216308594
y: 276.31658935546875
z: -0.004559675231575966
","x: 311.48309326171875
y: 279.6886901855469
z: -0.004687527660280466
","x: 311.62261962890625
y: 282.6155090332031
z: -0.004569679964333773
"
8,"x: 201.99832153320312
y: 181.4710235595703
z: -0.48516854643821716
visibility: 0.9999760389328003
","x: 201.8626708984375
y: 171.6276397705078
z: -0.47742897272109985
visibility: 0.9998612403869629
","x: 203.14064025878906
y: 170.53488159179688
z: -0.4775010645389557
visibility: 0.999877393245697
","x: 204.36917114257812
y: 169.27230834960938
z: -0.47762879729270935
visibility: 0.9998801350593567
","x: 197.3493194580078
y: 173.8001251220703
z: -0.47260579466819763
visibility: 0.9998868703842163
","x: 195.13186645507812
y: 174.55706787109375
z: -0.4726025462150574
visibility: 0.999859631061554
","x: 192.9408416748047
y: 175.273681640625
z: -0.4725520610809326
visibility: 0.999822735786438
","x: 205.3052520751953
y: 167.08349609375
z: -0.3547669053077698
visibility: 0.9999051094055176
","x: 187.7556915283203
y: 177.23451232910156
z: -0.32329338788986206
visibility: 0.9997345805168152
","x: 204.82151794433594
y: 187.54554748535156
z: -0.43176349997520447
visibility: 0.9999681711196899
","x: 199.59307861328125
y: 190.9335479736328
z: -0.4229127764701843
visibility: 0.9999355673789978
","x: 227.47183227539062
y: 194.17030334472656
z: -0.25897976756095886
visibility: 0.9999980330467224
","x: 176.6675567626953
y: 214.83929443359375
z: -0.14558187127113342
visibility: 0.9998968243598938
","x: 265.50299072265625
y: 214.26971435546875
z: -0.2712097764015198
visibility: 0.9991610050201416
","x: 172.6165313720703
y: 283.7806091308594
z: -0.08034812659025192
visibility: 0.9331522583961487
","x: 295.359130859375
y: 256.9296875
z: -0.4414140284061432
visibility: 0.9953092336654663
","x: 175.4620819091797
y: 345.7138671875
z: -0.16790398955345154
visibility: 0.9685350060462952
","x: 303.6263427734375
y: 273.2556457519531
z: -0.4875880777835846
visibility: 0.9868246912956238
","x: 175.2962188720703
y: 366.26513671875
z: -0.1939065158367157
visibility: 0.9460273385047913
","x: 299.05133056640625
y: 279.52288818359375
z: -0.5317585468292236
visibility: 0.987828254699707
","x: 179.6165771484375
y: 364.7962646484375
z: -0.24740421772003174
visibility: 0.9489370584487915
","x: 295.56689453125
y: 275.3262939453125
z: -0.4623464047908783
visibility: 0.9826645851135254
","x: 181.74740600585938
y: 357.61273193359375
z: -0.19061246514320374
visibility: 0.9318552017211914
","x: 227.77780151367188
y: 337.8119201660156
z: -0.07322011888027191
visibility: 0.999786913394928
","x: 200.27316284179688
y: 343.4859619140625
z: 0.07343603670597076
visibility: 0.9993910193443298
","x: 235.62271118164062
y: 434.7401123046875
z: -0.16465207934379578
visibility: 0.9966998100280762
","x: 186.324462890625
y: 429.32513427734375
z: 0.13110145926475525
visibility: 0.9850816130638123
","x: 257.7489929199219
y: 532.8431396484375
z: -0.09435175359249115
visibility: 0.9967655539512634
","x: 204.10963439941406
y: 519.04833984375
z: 0.31470006704330444
visibility: 0.9891560673713684
","x: 264.88232421875
y: 550.2062377929688
z: -0.09987495839595795
visibility: 0.9340659976005554
","x: 211.79751586914062
y: 535.1447143554688
z: 0.32585495710372925
visibility: 0.9612298607826233
","x: 235.58258056640625
y: 569.2347412109375
z: -0.2872580289840698
visibility: 0.9935083389282227
","x: 183.1616973876953
y: 542.3143920898438
z: 0.2113325148820877
visibility: 0.9863474369049072
","x: 171.56869506835938
y: 348.7786865234375
z: 0.0
","x: 175.84385681152344
y: 351.2165832519531
z: -0.0064596268348395824
","x: 179.472900390625
y: 357.3961181640625
z: -0.007191467098891735
","x: 183.10382080078125
y: 362.3332214355469
z: -0.006065576337277889
","x: 186.27389526367188
y: 366.0703125
z: -0.004305865615606308
","x: 175.10023498535156
y: 371.8273620605469
z: -0.0018067100318148732
","x: 176.78021240234375
y: 382.91717529296875
z: 0.0006067611975595355
","x: 178.02500915527344
y: 388.47882080078125
z: 0.0029196268878877163
","x: 179.02676391601562
y: 392.3578186035156
z: 0.0050124311819672585
","x: 173.5126495361328
y: 372.7096862792969
z: 0.0037301562260836363
","x: 175.09225463867188
y: 382.862060546875
z: 0.008211974054574966
","x: 176.58587646484375
y: 388.183349609375
z: 0.011676597408950329
","x: 177.6004638671875
y: 392.1224670410156
z: 0.014008257538080215
","x: 172.54598999023438
y: 372.23175048828125
z: 0.008747299201786518
","x: 174.03456115722656
y: 380.7268981933594
z: 0.012923363596200943
","x: 175.60935974121094
y: 385.587890625
z: 0.014959724619984627
","x: 176.69839477539062
y: 389.021484375
z: 0.01614774763584137
","x: 172.25039672851562
y: 370.9952392578125
z: 0.013036363758146763
","x: 173.58694458007812
y: 377.7706298828125
z: 0.016271742060780525
","x: 174.9268035888672
y: 382.3603515625
z: 0.017478104680776596
","x: 175.96340942382812
y: 385.3780517578125
z: 0.018445653840899467
","x: 296.0439453125
y: 257.2942810058594
z: 0.0
","x: 294.56121826171875
y: 267.82110595703125
z: -0.0011645640479400754
","x: 294.3696594238281
y: 277.8968200683594
z: -0.0020507012959569693
","x: 294.1976623535156
y: 286.12945556640625
z: -0.0032078882213681936
","x: 294.03076171875
y: 291.90386962890625
z: -0.004078242927789688
","x: 302.18389892578125
y: 281.6640319824219
z: 0.00021988330991007388
","x: 305.0185546875
y: 291.67816162109375
z: -0.0010086308466270566
","x: 306.1780700683594
y: 297.7200622558594
z: -0.0015978760784491897
","x: 306.86981201171875
y: 302.42926025390625
z: -0.0017802101792767644
","x: 304.6620178222656
y: 278.8231506347656
z: -0.0006161308265291154
","x: 308.34405517578125
y: 288.05706787109375
z: -0.0009275488555431366
","x: 309.1570739746094
y: 293.16961669921875
z: -0.000751508807297796
","x: 309.2364196777344
y: 296.73809814453125
z: -0.000650951114948839
","x: 306.33160400390625
y: 275.21771240234375
z: -0.0018619990441948175
","x: 310.0080871582031
y: 282.9181213378906
z: -0.0028245619032531977
","x: 311.09735107421875
y: 287.178955078125
z: -0.003036359092220664
","x: 311.2961730957031
y: 290.382568359375
z: -0.003100968897342682
","x: 307.0912170410156
y: 271.0239562988281
z: -0.0034662841353565454
","x: 310.4759216308594
y: 276.31658935546875
z: -0.004559675231575966
","x: 311.48309326171875
y: 279.6886901855469
z: -0.004687527660280466
","x: 311.62261962890625
y: 282.6155090332031
z: -0.004569679964333773
"
9,"x: 201.99832153320312
y: 181.4710235595703
z: -0.48516854643821716
visibility: 0.9999760389328003
","x: 201.8626708984375
y: 171.6276397705078
z: -0.47742897272109985
visibility: 0.9998612403869629
","x: 203.14064025878906
y: 170.53488159179688
z: -0.4775010645389557
visibility: 0.999877393245697
","x: 204.36917114257812
y: 169.27230834960938
z: -0.47762879729270935
visibility: 0.9998801350593567
","x: 197.3493194580078
y: 173.8001251220703
z: -0.47260579466819763
visibility: 0.9998868703842163
","x: 195.13186645507812
y: 174.55706787109375
z: -0.4726025462150574
visibility: 0.999859631061554
","x: 192.9408416748047
y: 175.273681640625
z: -0.4725520610809326
visibility: 0.999822735786438
","x: 205.3052520751953
y: 167.08349609375
z: -0.3547669053077698
visibility: 0.9999051094055176
","x: 187.7556915283203
y: 177.23451232910156
z: -0.32329338788986206
visibility: 0.9997345805168152
","x: 204.82151794433594
y: 187.54554748535156
z: -0.43176349997520447
visibility: 0.9999681711196899
","x: 199.59307861328125
y: 190.9335479736328
z: -0.4229127764701843
visibility: 0.9999355673789978
","x: 227.47183227539062
y: 194.17030334472656
z: -0.25897976756095886
visibility: 0.9999980330467224
","x: 176.6675567626953
y: 214.83929443359375
z: -0.14558187127113342
visibility: 0.9998968243598938
","x: 265.50299072265625
y: 214.26971435546875
z: -0.2712097764015198
visibility: 0.9991610050201416
","x: 172.6165313720703
y: 283.7806091308594
z: -0.08034812659025192
visibility: 0.9331522583961487
","x: 295.359130859375
y: 256.9296875
z: -0.4414140284061432
visibility: 0.9953092336654663
","x: 175.4620819091797
y: 345.7138671875
z: -0.16790398955345154
visibility: 0.9685350060462952
","x: 303.6263427734375
y: 273.2556457519531
z: -0.4875880777835846
visibility: 0.9868246912956238
","x: 175.2962188720703
y: 366.26513671875
z: -0.1939065158367157
visibility: 0.9460273385047913
","x: 299.05133056640625
y: 279.52288818359375
z: -0.5317585468292236
visibility: 0.987828254699707
","x: 179.6165771484375
y: 364.7962646484375
z: -0.24740421772003174
visibility: 0.9489370584487915
","x: 295.56689453125
y: 275.3262939453125
z: -0.4623464047908783
visibility: 0.9826645851135254
","x: 181.74740600585938
y: 357.61273193359375
z: -0.19061246514320374
visibility: 0.9318552017211914
","x: 227.77780151367188
y: 337.8119201660156
z: -0.07322011888027191
visibility: 0.999786913394928
","x: 200.27316284179688
y: 343.4859619140625
z: 0.07343603670597076
visibility: 0.9993910193443298
","x: 235.62271118164062
y: 434.7401123046875
z: -0.16465207934379578
visibility: 0.9966998100280762
","x: 186.324462890625
y: 429.32513427734375
z: 0.13110145926475525
visibility: 0.9850816130638123
","x: 257.7489929199219
y: 532.8431396484375
z: -0.09435175359249115
visibility: 0.9967655539512634
","x: 204.10963439941406
y: 519.04833984375
z: 0.31470006704330444
visibility: 0.9891560673713684
","x: 264.88232421875
y: 550.2062377929688
z: -0.09987495839595795
visibility: 0.9340659976005554
","x: 211.79751586914062
y: 535.1447143554688
z: 0.32585495710372925
visibility: 0.9612298607826233
","x: 235.58258056640625
y: 569.2347412109375
z: -0.2872580289840698
visibility: 0.9935083389282227
","x: 183.1616973876953
y: 542.3143920898438
z: 0.2113325148820877
visibility: 0.9863474369049072
","x: 171.56869506835938
y: 348.7786865234375
z: 0.0
","x: 175.84385681152344
y: 351.2165832519531
z: -0.0064596268348395824
","x: 179.472900390625
y: 357.3961181640625
z: -0.007191467098891735
","x: 183.10382080078125
y: 362.3332214355469
z: -0.006065576337277889
","x: 186.27389526367188
y: 366.0703125
z: -0.004305865615606308
","x: 175.10023498535156
y: 371.8273620605469
z: -0.0018067100318148732
","x: 176.78021240234375
y: 382.91717529296875
z: 0.0006067611975595355
","x: 178.02500915527344
y: 388.47882080078125
z: 0.0029196268878877163
","x: 179.02676391601562
y: 392.3578186035156
z: 0.0050124311819672585
","x: 173.5126495361328
y: 372.7096862792969
z: 0.0037301562260836363
","x: 175.09225463867188
y: 382.862060546875
z: 0.008211974054574966
","x: 176.58587646484375
y: 388.183349609375
z: 0.011676597408950329
","x: 177.6004638671875
y: 392.1224670410156
z: 0.014008257538080215
","x: 172.54598999023438
y: 372.23175048828125
z: 0.008747299201786518
","x: 174.03456115722656
y: 380.7268981933594
z: 0.012923363596200943
","x: 175.60935974121094
y: 385.587890625
z: 0.014959724619984627
","x: 176.69839477539062
y: 389.021484375
z: 0.01614774763584137
","x: 172.25039672851562
y: 370.9952392578125
z: 0.013036363758146763
","x: 173.58694458007812
y: 377.7706298828125
z: 0.016271742060780525
","x: 174.9268035888672
y: 382.3603515625
z: 0.017478104680776596
","x: 175.96340942382812
y: 385.3780517578125
z: 0.018445653840899467
","x: 296.0439453125
y: 257.2942810058594
z: 0.0
","x: 294.56121826171875
y: 267.82110595703125
z: -0.0011645640479400754
","x: 294.3696594238281
y: 277.8968200683594
z: -0.0020507012959569693
","x: 294.1976623535156
y: 286.12945556640625
z: -0.0032078882213681936
","x: 294.03076171875
y: 291.90386962890625
z: -0.004078242927789688
","x: 302.18389892578125
y: 281.6640319824219
z: 0.00021988330991007388
","x: 305.0185546875
y: 291.67816162109375
z: -0.0010086308466270566
","x: 306.1780700683594
y: 297.7200622558594
z: -0.0015978760784491897
","x: 306.86981201171875
y: 302.42926025390625
z: -0.0017802101792767644
","x: 304.6620178222656
y: 278.8231506347656
z: -0.0006161308265291154
","x: 308.34405517578125
y: 288.05706787109375
z: -0.0009275488555431366
","x: 309.1570739746094
y: 293.16961669921875
z: -0.000751508807297796
","x: 309.2364196777344
y: 296.73809814453125
z: -0.000650951114948839
","x: 306.33160400390625
y: 275.21771240234375
z: -0.0018619990441948175
","x: 310.0080871582031
y: 282.9181213378906
z: -0.0028245619032531977
","x: 311.09735107421875
y: 287.178955078125
z: -0.003036359092220664
","x: 311.2961730957031
y: 290.382568359375
z: -0.003100968897342682
","x: 307.0912170410156
y: 271.0239562988281
z: -0.0034662841353565454
","x: 310.4759216308594
y: 276.31658935546875
z: -0.004559675231575966
","x: 311.48309326171875
y: 279.6886901855469
z: -0.004687527660280466
","x: 311.62261962890625
y: 282.6155090332031
z: -0.004569679964333773
"
10,"x: 205.00405883789062
y: 182.4796905517578
z: -0.48998862504959106
visibility: 0.9999759197235107
","x: 204.7724609375
y: 172.6785125732422
z: -0.48152977228164673
visibility: 0.9998593926429749
","x: 206.0296630859375
y: 171.59400939941406
z: -0.4815787374973297
visibility: 0.9998759031295776
","x: 207.20077514648438
y: 170.28465270996094
z: -0.4816884398460388
visibility: 0.9998778700828552
","x: 200.08567810058594
y: 174.68931579589844
z: -0.4762541651725769
visibility: 0.9998873472213745
","x: 197.72735595703125
y: 175.31272888183594
z: -0.4762926995754242
visibility: 0.999862015247345
","x: 195.46478271484375
y: 175.95030212402344
z: -0.4762514531612396
visibility: 0.9998260736465454
","x: 208.1702423095703
y: 167.92884826660156
z: -0.3627937436103821
visibility: 0.9999035596847534
","x: 190.27613830566406
y: 177.94654846191406
z: -0.3312416672706604
visibility: 0.9997415542602539
","x: 207.7228240966797
y: 188.73016357421875
z: -0.4393630921840668
visibility: 0.9999678730964661
","x: 202.40481567382812
y: 192.17153930664062
z: -0.4303883910179138
visibility: 0.9999356269836426
","x: 233.4917449951172
y: 196.36468505859375
z: -0.26981213688850403
visibility: 0.9999980330467224
","x: 180.57899475097656
y: 224.1008758544922
z: -0.16167771816253662
visibility: 0.9999034404754639
","x: 274.0219421386719
y: 227.53033447265625
z: -0.25468510389328003
visibility: 0.9992271661758423
","x: 176.76953125
y: 293.3523254394531
z: -0.08080635219812393
visibility: 0.9377903342247009
","x: 298.61474609375
y: 270.32989501953125
z: -0.3867722153663635
visibility: 0.9954447150230408
","x: 175.61483764648438
y: 352.7859191894531
z: -0.18932673335075378
visibility: 0.9695429801940918
","x: 307.6819152832031
y: 284.14898681640625
z: -0.42643171548843384
visibility: 0.9869115948677063
","x: 175.67990112304688
y: 372.97808837890625
z: -0.21765728294849396
visibility: 0.946178138256073
","x: 302.2158508300781
y: 291.9353942871094
z: -0.4696555733680725
visibility: 0.9879937171936035
","x: 179.58285522460938
y: 372.5408935546875
z: -0.26816242933273315
visibility: 0.9493761658668518
","x: 298.8750305175781
y: 288.94464111328125
z: -0.40611734986305237
visibility: 0.9830574989318848
","x: 181.69764709472656
y: 365.2510070800781
z: -0.2113240659236908
visibility: 0.9333297610282898
","x: 235.40061950683594
y: 338.5419921875
z: -0.07153205573558807
visibility: 0.9997657537460327
","x: 206.88304138183594
y: 344.5792236328125
z: 0.071724534034729
visibility: 0.9993932247161865
","x: 239.8482208251953
y: 437.9656677246094
z: -0.15281686186790466
visibility: 0.9967787265777588
","x: 191.87664794921875
y: 429.4927673339844
z: 0.028481151908636093
visibility: 0.9856534600257874
","x: 258.5159606933594
y: 534.850830078125
z: -0.08510317653417587
visibility: 0.9968069195747375
","x: 204.13650512695312
y: 519.836669921875
z: 0.191043421626091
visibility: 0.9893595576286316
","x: 265.8946533203125
y: 553.0841674804688
z: -0.09184147417545319
visibility: 0.9321106672286987
","x: 211.86607360839844
y: 538.060302734375
z: 0.19751334190368652
visibility: 0.9612532258033752
","x: 236.88082885742188
y: 568.5593872070312
z: -0.2739160358905792
visibility: 0.9932596683502197
","x: 183.29461669921875
y: 542.3905639648438
z: 0.08156374096870422
visibility: 0.9862940907478333
","x: 173.49143981933594
y: 350.603515625
z: 0.0
","x: 177.1641387939453
y: 356.7626647949219
z: -0.0001651530183153227
","x: 180.06253051757812
y: 365.9021301269531
z: -0.0009309994638897479
","x: 182.73985290527344
y: 373.0207824707031
z: -0.0016117714112624526
","x: 185.09213256835938
y: 378.7039489746094
z: -0.0020047302823513746
","x: 176.7595672607422
y: 373.4851379394531
z: -0.001733893877826631
","x: 178.7596893310547
y: 384.21392822265625
z: -0.0028780458960682154
","x: 180.50428771972656
y: 391.6817932128906
z: -0.003349088132381439
","x: 181.9128875732422
y: 397.1402282714844
z: -0.003476457204669714
","x: 175.7051239013672
y: 373.9137268066406
z: -0.002340911887586117
","x: 177.95164489746094
y: 384.4923400878906
z: -0.003359492402523756
","x: 180.25054931640625
y: 390.971435546875
z: -0.0034374205861240625
","x: 182.2298126220703
y: 395.9814453125
z: -0.0035211932845413685
","x: 175.40882873535156
y: 373.3239440917969
z: -0.0028426419012248516
","x: 177.94332885742188
y: 383.2677917480469
z: -0.003906297963112593
","x: 180.01443481445312
y: 389.5535583496094
z: -0.004132692702114582
","x: 181.62158203125
y: 394.48974609375
z: -0.004290803801268339
","x: 175.7325897216797
y: 371.94549560546875
z: -0.0033977446146309376
","x: 178.44737243652344
y: 380.1942138671875
z: -0.003993533086031675
","x: 180.35427856445312
y: 385.22760009765625
z: -0.004022845532745123
","x: 181.70391845703125
y: 389.1845397949219
z: -0.004050913732498884
","x: 296.23291015625
y: 279.4971618652344
z: 0.0
","x: 295.7554626464844
y: 290.3382873535156
z: 0.00040056000580079854
","x: 296.0546569824219
y: 300.17950439453125
z: -0.0014205845072865486
","x: 295.49237060546875
y: 307.30230712890625
z: -0.004471981897950172
","x: 294.52911376953125
y: 312.8573303222656
z: -0.0078004831448197365
","x: 302.4387512207031
y: 304.595947265625
z: -0.0019448715029284358
","x: 304.8871765136719
y: 314.63079833984375
z: -0.006489723455160856
","x: 306.1932067871094
y: 320.8704833984375
z: -0.00952028390020132
","x: 307.2533264160156
y: 326.4834289550781
z: -0.011472823098301888
","x: 304.5316162109375
y: 301.3702392578125
z: -0.005987843964248896
","x: 309.74749755859375
y: 309.73345947265625
z: -0.010082011111080647
","x: 311.8943786621094
y: 315.25872802734375
z: -0.012271464802324772
","x: 313.1583557128906
y: 320.16204833984375
z: -0.013892069458961487
","x: 305.6922607421875
y: 296.8023376464844
z: -0.010468765161931515
","x: 311.1232604980469
y: 303.44024658203125
z: -0.014586685225367546
","x: 313.1179504394531
y: 308.8526306152344
z: -0.016402583569288254
","x: 314.2167663574219
y: 313.84283447265625
z: -0.01764608919620514
","x: 305.87506103515625
y: 291.398193359375
z: -0.015159930102527142
","x: 309.9599914550781
y: 295.02679443359375
z: -0.01838887669146061
","x: 311.416748046875
y: 298.5781555175781
z: -0.019483771175146103
","x: 312.107177734375
y: 302.2516784667969
z: -0.02030836045742035
"
11,"x: 205.00405883789062
y: 182.4796905517578
z: -0.48998862504959106
visibility: 0.9999759197235107
","x: 204.7724609375
y: 172.6785125732422
z: -0.48152977228164673
visibility: 0.9998593926429749
","x: 206.0296630859375
y: 171.59400939941406
z: -0.4815787374973297
visibility: 0.9998759031295776
","x: 207.20077514648438
y: 170.28465270996094
z: -0.4816884398460388
visibility: 0.9998778700828552
","x: 200.08567810058594
y: 174.68931579589844
z: -0.4762541651725769
visibility: 0.9998873472213745
","x: 197.72735595703125
y: 175.31272888183594
z: -0.4762926995754242
visibility: 0.999862015247345
","x: 195.46478271484375
y: 175.95030212402344
z: -0.4762514531612396
visibility: 0.9998260736465454
","x: 208.1702423095703
y: 167.92884826660156
z: -0.3627937436103821
visibility: 0.9999035596847534
","x: 190.27613830566406
y: 177.94654846191406
z: -0.3312416672706604
visibility: 0.9997415542602539
","x: 207.7228240966797
y: 188.73016357421875
z: -0.4393630921840668
visibility: 0.9999678730964661
","x: 202.40481567382812
y: 192.17153930664062
z: -0.4303883910179138
visibility: 0.9999356269836426
","x: 233.4917449951172
y: 196.36468505859375
z: -0.26981213688850403
visibility: 0.9999980330467224
","x: 180.57899475097656
y: 224.1008758544922
z: -0.16167771816253662
visibility: 0.9999034404754639
","x: 274.0219421386719
y: 227.53033447265625
z: -0.25468510389328003
visibility: 0.9992271661758423
","x: 176.76953125
y: 293.3523254394531
z: -0.08080635219812393
visibility: 0.9377903342247009
","x: 298.61474609375
y: 270.32989501953125
z: -0.3867722153663635
visibility: 0.9954447150230408
","x: 175.61483764648438
y: 352.7859191894531
z: -0.18932673335075378
visibility: 0.9695429801940918
","x: 307.6819152832031
y: 284.14898681640625
z: -0.42643171548843384
visibility: 0.9869115948677063
","x: 175.67990112304688
y: 372.97808837890625
z: -0.21765728294849396
visibility: 0.946178138256073
","x: 302.2158508300781
y: 291.9353942871094
z: -0.4696555733680725
visibility: 0.9879937171936035
","x: 179.58285522460938
y: 372.5408935546875
z: -0.26816242933273315
visibility: 0.9493761658668518
","x: 298.8750305175781
y: 288.94464111328125
z: -0.40611734986305237
visibility: 0.9830574989318848
","x: 181.69764709472656
y: 365.2510070800781
z: -0.2113240659236908
visibility: 0.9333297610282898
","x: 235.40061950683594
y: 338.5419921875
z: -0.07153205573558807
visibility: 0.9997657537460327
","x: 206.88304138183594
y: 344.5792236328125
z: 0.071724534034729
visibility: 0.9993932247161865
","x: 239.8482208251953
y: 437.9656677246094
z: -0.15281686186790466
visibility: 0.9967787265777588
","x: 191.87664794921875
y: 429.4927673339844
z: 0.028481151908636093
visibility: 0.9856534600257874
","x: 258.5159606933594
y: 534.850830078125
z: -0.08510317653417587
visibility: 0.9968069195747375
","x: 204.13650512695312
y: 519.836669921875
z: 0.191043421626091
visibility: 0.9893595576286316
","x: 265.8946533203125
y: 553.0841674804688
z: -0.09184147417545319
visibility: 0.9321106672286987
","x: 211.86607360839844
y: 538.060302734375
z: 0.19751334190368652
visibility: 0.9612532258033752
","x: 236.88082885742188
y: 568.5593872070312
z: -0.2739160358905792
visibility: 0.9932596683502197
","x: 183.29461669921875
y: 542.3905639648438
z: 0.08156374096870422
visibility: 0.9862940907478333
","x: 173.49143981933594
y: 350.603515625
z: 0.0
","x: 177.1641387939453
y: 356.7626647949219
z: -0.0001651530183153227
","x: 180.06253051757812
y: 365.9021301269531
z: -0.0009309994638897479
","x: 182.73985290527344
y: 373.0207824707031
z: -0.0016117714112624526
","x: 185.09213256835938
y: 378.7039489746094
z: -0.0020047302823513746
","x: 176.7595672607422
y: 373.4851379394531
z: -0.001733893877826631
","x: 178.7596893310547
y: 384.21392822265625
z: -0.0028780458960682154
","x: 180.50428771972656
y: 391.6817932128906
z: -0.003349088132381439
","x: 181.9128875732422
y: 397.1402282714844
z: -0.003476457204669714
","x: 175.7051239013672
y: 373.9137268066406
z: -0.002340911887586117
","x: 177.95164489746094
y: 384.4923400878906
z: -0.003359492402523756
","x: 180.25054931640625
y: 390.971435546875
z: -0.0034374205861240625
","x: 182.2298126220703
y: 395.9814453125
z: -0.0035211932845413685
","x: 175.40882873535156
y: 373.3239440917969
z: -0.0028426419012248516
","x: 177.94332885742188
y: 383.2677917480469
z: -0.003906297963112593
","x: 180.01443481445312
y: 389.5535583496094
z: -0.004132692702114582
","x: 181.62158203125
y: 394.48974609375
z: -0.004290803801268339
","x: 175.7325897216797
y: 371.94549560546875
z: -0.0033977446146309376
","x: 178.44737243652344
y: 380.1942138671875
z: -0.003993533086031675
","x: 180.35427856445312
y: 385.22760009765625
z: -0.004022845532745123
","x: 181.70391845703125
y: 389.1845397949219
z: -0.004050913732498884
","x: 296.23291015625
y: 279.4971618652344
z: 0.0
","x: 295.7554626464844
y: 290.3382873535156
z: 0.00040056000580079854
","x: 296.0546569824219
y: 300.17950439453125
z: -0.0014205845072865486
","x: 295.49237060546875
y: 307.30230712890625
z: -0.004471981897950172
","x: 294.52911376953125
y: 312.8573303222656
z: -0.0078004831448197365
","x: 302.4387512207031
y: 304.595947265625
z: -0.0019448715029284358
","x: 304.8871765136719
y: 314.63079833984375
z: -0.006489723455160856
","x: 306.1932067871094
y: 320.8704833984375
z: -0.00952028390020132
","x: 307.2533264160156
y: 326.4834289550781
z: -0.011472823098301888
","x: 304.5316162109375
y: 301.3702392578125
z: -0.005987843964248896
","x: 309.74749755859375
y: 309.73345947265625
z: -0.010082011111080647
","x: 311.8943786621094
y: 315.25872802734375
z: -0.012271464802324772
","x: 313.1583557128906
y: 320.16204833984375
z: -0.013892069458961487
","x: 305.6922607421875
y: 296.8023376464844
z: -0.010468765161931515
","x: 311.1232604980469
y: 303.44024658203125
z: -0.014586685225367546
","x: 313.1179504394531
y: 308.8526306152344
z: -0.016402583569288254
","x: 314.2167663574219
y: 313.84283447265625
z: -0.01764608919620514
","x: 305.87506103515625
y: 291.398193359375
z: -0.015159930102527142
","x: 309.9599914550781
y: 295.02679443359375
z: -0.01838887669146061
","x: 311.416748046875
y: 298.5781555175781
z: -0.019483771175146103
","x: 312.107177734375
y: 302.2516784667969
z: -0.02030836045742035
"
12,"x: 205.00405883789062
y: 182.4796905517578
z: -0.48998862504959106
visibility: 0.9999759197235107
","x: 204.7724609375
y: 172.6785125732422
z: -0.48152977228164673
visibility: 0.9998593926429749
","x: 206.0296630859375
y: 171.59400939941406
z: -0.4815787374973297
visibility: 0.9998759031295776
","x: 207.20077514648438
y: 170.28465270996094
z: -0.4816884398460388
visibility: 0.9998778700828552
","x: 200.08567810058594
y: 174.68931579589844
z: -0.4762541651725769
visibility: 0.9998873472213745
","x: 197.72735595703125
y: 175.31272888183594
z: -0.4762926995754242
visibility: 0.999862015247345
","x: 195.46478271484375
y: 175.95030212402344
z: -0.4762514531612396
visibility: 0.9998260736465454
","x: 208.1702423095703
y: 167.92884826660156
z: -0.3627937436103821
visibility: 0.9999035596847534
","x: 190.27613830566406
y: 177.94654846191406
z: -0.3312416672706604
visibility: 0.9997415542602539
","x: 207.7228240966797
y: 188.73016357421875
z: -0.4393630921840668
visibility: 0.9999678730964661
","x: 202.40481567382812
y: 192.17153930664062
z: -0.4303883910179138
visibility: 0.9999356269836426
","x: 233.4917449951172
y: 196.36468505859375
z: -0.26981213688850403
visibility: 0.9999980330467224
","x: 180.57899475097656
y: 224.1008758544922
z: -0.16167771816253662
visibility: 0.9999034404754639
","x: 274.0219421386719
y: 227.53033447265625
z: -0.25468510389328003
visibility: 0.9992271661758423
","x: 176.76953125
y: 293.3523254394531
z: -0.08080635219812393
visibility: 0.9377903342247009
","x: 298.61474609375
y: 270.32989501953125
z: -0.3867722153663635
visibility: 0.9954447150230408
","x: 175.61483764648438
y: 352.7859191894531
z: -0.18932673335075378
visibility: 0.9695429801940918
","x: 307.6819152832031
y: 284.14898681640625
z: -0.42643171548843384
visibility: 0.9869115948677063
","x: 175.67990112304688
y: 372.97808837890625
z: -0.21765728294849396
visibility: 0.946178138256073
","x: 302.2158508300781
y: 291.9353942871094
z: -0.4696555733680725
visibility: 0.9879937171936035
","x: 179.58285522460938
y: 372.5408935546875
z: -0.26816242933273315
visibility: 0.9493761658668518
","x: 298.8750305175781
y: 288.94464111328125
z: -0.40611734986305237
visibility: 0.9830574989318848
","x: 181.69764709472656
y: 365.2510070800781
z: -0.2113240659236908
visibility: 0.9333297610282898
","x: 235.40061950683594
y: 338.5419921875
z: -0.07153205573558807
visibility: 0.9997657537460327
","x: 206.88304138183594
y: 344.5792236328125
z: 0.071724534034729
visibility: 0.9993932247161865
","x: 239.8482208251953
y: 437.9656677246094
z: -0.15281686186790466
visibility: 0.9967787265777588
","x: 191.87664794921875
y: 429.4927673339844
z: 0.028481151908636093
visibility: 0.9856534600257874
","x: 258.5159606933594
y: 534.850830078125
z: -0.08510317653417587
visibility: 0.9968069195747375
","x: 204.13650512695312
y: 519.836669921875
z: 0.191043421626091
visibility: 0.9893595576286316
","x: 265.8946533203125
y: 553.0841674804688
z: -0.09184147417545319
visibility: 0.9321106672286987
","x: 211.86607360839844
y: 538.060302734375
z: 0.19751334190368652
visibility: 0.9612532258033752
","x: 236.88082885742188
y: 568.5593872070312
z: -0.2739160358905792
visibility: 0.9932596683502197
","x: 183.29461669921875
y: 542.3905639648438
z: 0.08156374096870422
visibility: 0.9862940907478333
","x: 173.49143981933594
y: 350.603515625
z: 0.0
","x: 177.1641387939453
y: 356.7626647949219
z: -0.0001651530183153227
","x: 180.06253051757812
y: 365.9021301269531
z: -0.0009309994638897479
","x: 182.73985290527344
y: 373.0207824707031
z: -0.0016117714112624526
","x: 185.09213256835938
y: 378.7039489746094
z: -0.0020047302823513746
","x: 176.7595672607422
y: 373.4851379394531
z: -0.001733893877826631
","x: 178.7596893310547
y: 384.21392822265625
z: -0.0028780458960682154
","x: 180.50428771972656
y: 391.6817932128906
z: -0.003349088132381439
","x: 181.9128875732422
y: 397.1402282714844
z: -0.003476457204669714
","x: 175.7051239013672
y: 373.9137268066406
z: -0.002340911887586117
","x: 177.95164489746094
y: 384.4923400878906
z: -0.003359492402523756
","x: 180.25054931640625
y: 390.971435546875
z: -0.0034374205861240625
","x: 182.2298126220703
y: 395.9814453125
z: -0.0035211932845413685
","x: 175.40882873535156
y: 373.3239440917969
z: -0.0028426419012248516
","x: 177.94332885742188
y: 383.2677917480469
z: -0.003906297963112593
","x: 180.01443481445312
y: 389.5535583496094
z: -0.004132692702114582
","x: 181.62158203125
y: 394.48974609375
z: -0.004290803801268339
","x: 175.7325897216797
y: 371.94549560546875
z: -0.0033977446146309376
","x: 178.44737243652344
y: 380.1942138671875
z: -0.003993533086031675
","x: 180.35427856445312
y: 385.22760009765625
z: -0.004022845532745123
","x: 181.70391845703125
y: 389.1845397949219
z: -0.004050913732498884
","x: 296.23291015625
y: 279.4971618652344
z: 0.0
","x: 295.7554626464844
y: 290.3382873535156
z: 0.00040056000580079854
","x: 296.0546569824219
y: 300.17950439453125
z: -0.0014205845072865486
","x: 295.49237060546875
y: 307.30230712890625
z: -0.004471981897950172
","x: 294.52911376953125
y: 312.8573303222656
z: -0.0078004831448197365
","x: 302.4387512207031
y: 304.595947265625
z: -0.0019448715029284358
","x: 304.8871765136719
y: 314.63079833984375
z: -0.006489723455160856
","x: 306.1932067871094
y: 320.8704833984375
z: -0.00952028390020132
","x: 307.2533264160156
y: 326.4834289550781
z: -0.011472823098301888
","x: 304.5316162109375
y: 301.3702392578125
z: -0.005987843964248896
","x: 309.74749755859375
y: 309.73345947265625
z: -0.010082011111080647
","x: 311.8943786621094
y: 315.25872802734375
z: -0.012271464802324772
","x: 313.1583557128906
y: 320.16204833984375
z: -0.013892069458961487
","x: 305.6922607421875
y: 296.8023376464844
z: -0.010468765161931515
","x: 311.1232604980469
y: 303.44024658203125
z: -0.014586685225367546
","x: 313.1179504394531
y: 308.8526306152344
z: -0.016402583569288254
","x: 314.2167663574219
y: 313.84283447265625
z: -0.01764608919620514
","x: 305.87506103515625
y: 291.398193359375
z: -0.015159930102527142
","x: 309.9599914550781
y: 295.02679443359375
z: -0.01838887669146061
","x: 311.416748046875
y: 298.5781555175781
z: -0.019483771175146103
","x: 312.107177734375
y: 302.2516784667969
z: -0.02030836045742035
"
13,"x: 208.58876037597656
y: 182.4539794921875
z: -0.49145108461380005
visibility: 0.9999776482582092
","x: 208.65399169921875
y: 172.47354125976562
z: -0.481130987405777
visibility: 0.9998700022697449
","x: 209.95567321777344
y: 171.32473754882812
z: -0.4811488687992096
visibility: 0.9998852014541626
","x: 211.41680908203125
y: 170.01983642578125
z: -0.4812135100364685
visibility: 0.9998867511749268
","x: 203.71548461914062
y: 174.7034454345703
z: -0.47872194647789
visibility: 0.9998961091041565
","x: 201.4727783203125
y: 175.3436279296875
z: -0.47879520058631897
visibility: 0.9998733997344971
","x: 199.11183166503906
y: 176.02001953125
z: -0.4787796139717102
visibility: 0.9998403787612915
","x: 212.54954528808594
y: 167.99325561523438
z: -0.35939615964889526
visibility: 0.9999098181724548
","x: 194.6301727294922
y: 178.23179626464844
z: -0.34365206956863403
visibility: 0.9997624754905701
","x: 211.46697998046875
y: 188.88099670410156
z: -0.4403991103172302
visibility: 0.999970018863678
","x: 206.23085021972656
y: 192.39105224609375
z: -0.43592625856399536
visibility: 0.9999401569366455
","x: 237.13427734375
y: 199.100830078125
z: -0.26462215185165405
visibility: 0.9999980330467224
","x: 185.5004119873047
y: 230.7121124267578
z: -0.17958886921405792
visibility: 0.9999098777770996
","x: 270.5956115722656
y: 247.1085968017578
z: -0.22365185618400574
visibility: 0.9992693662643433
","x: 182.72752380371094
y: 302.97216796875
z: -0.10683474689722061
visibility: 0.9418135285377502
","x: 293.1767883300781
y: 305.1397705078125
z: -0.3461191952228546
visibility: 0.9955153465270996
","x: 181.90921020507812
y: 365.4024658203125
z: -0.2028297632932663
visibility: 0.9699936509132385
","x: 300.7376708984375
y: 322.3470458984375
z: -0.38445955514907837
visibility: 0.9868949055671692
","x: 179.69483947753906
y: 384.510009765625
z: -0.2394528090953827
visibility: 0.945320188999176
","x: 294.5003662109375
y: 326.6465759277344
z: -0.42696791887283325
visibility: 0.9880566000938416
","x: 182.19656372070312
y: 384.6124572753906
z: -0.28050118684768677
visibility: 0.9489215612411499
","x: 290.59649658203125
y: 323.26837158203125
z: -0.3651213049888611
visibility: 0.9833725094795227
","x: 184.52285766601562
y: 377.48834228515625
z: -0.21849997341632843
visibility: 0.9338034391403198
","x: 242.19915771484375
y: 338.6222839355469
z: -0.06585200130939484
visibility: 0.9997672438621521
","x: 212.3858184814453
y: 346.02777099609375
z: 0.06592356413602829
visibility: 0.9994099140167236
","x: 245.04266357421875
y: 438.3089599609375
z: -0.151333287358284
visibility: 0.9967644810676575
","x: 200.38917541503906
y: 436.52294921875
z: 0.0519750639796257
visibility: 0.9849926829338074
","x: 259.9531555175781
y: 535.46533203125
z: -0.08431379497051239
visibility: 0.9967411756515503
","x: 206.0101318359375
y: 523.6411743164062
z: 0.21229708194732666
visibility: 0.988653838634491
","x: 266.4302978515625
y: 554.4530029296875
z: -0.08967065066099167
visibility: 0.9286389946937561
","x: 213.60919189453125
y: 538.9266357421875
z: 0.21812693774700165
visibility: 0.9585323333740234
","x: 241.3944854736328
y: 568.5711059570312
z: -0.2601783573627472
visibility: 0.9929007887840271
","x: 186.54652404785156
y: 548.2666625976562
z: 0.1051034927368164
visibility: 0.9853728413581848
",,,,,,,,,,,,,,,,,,,,,,"x: 290.6822204589844
y: 313.9285888671875
z: 0.0
","x: 288.7031555175781
y: 321.2138671875
z: -0.0022208045702427626
","x: 287.592529296875
y: 328.817626953125
z: -0.003100364003330469
","x: 286.5679626464844
y: 334.3393249511719
z: -0.0045282780192792416
","x: 285.3923645019531
y: 338.5194091796875
z: -0.005854911636561155
","x: 293.3347473144531
y: 338.7991943359375
z: 0.0021884003654122353
","x: 294.7269287109375
y: 347.49041748046875
z: 0.00021442385332193226
","x: 295.7990417480469
y: 352.3675231933594
z: -0.0016563624376431108
","x: 296.88507080078125
y: 356.35858154296875
z: -0.002749062143266201
","x: 295.96319580078125
y: 337.677490234375
z: 0.0010077451588585973
","x: 298.25933837890625
y: 346.2709045410156
z: -0.00010726664186222479
","x: 299.8049011230469
y: 351.391357421875
z: -0.0016070622950792313
","x: 301.2729187011719
y: 355.60528564453125
z: -0.002745947800576687
","x: 298.23516845703125
y: 335.1610107421875
z: -0.0010972266318276525
","x: 300.50396728515625
y: 343.2784423828125
z: -0.002827213378623128
","x: 301.80792236328125
y: 348.223876953125
z: -0.00429424038156867
","x: 302.84210205078125
y: 352.178466796875
z: -0.005195149686187506
","x: 300.10137939453125
y: 331.31439208984375
z: -0.003794891992583871
","x: 302.2790832519531
y: 337.8121643066406
z: -0.005257777404040098
","x: 303.4381408691406
y: 341.85723876953125
z: -0.006081565283238888
","x: 304.2872619628906
y: 345.2548522949219
z: -0.006574567873030901
"
14,"x: 208.58876037597656
y: 182.4539794921875
z: -0.49145108461380005
visibility: 0.9999776482582092
","x: 208.65399169921875
y: 172.47354125976562
z: -0.481130987405777
visibility: 0.9998700022697449
","x: 209.95567321777344
y: 171.32473754882812
z: -0.4811488687992096
visibility: 0.9998852014541626
","x: 211.41680908203125
y: 170.01983642578125
z: -0.4812135100364685
visibility: 0.9998867511749268
","x: 203.71548461914062
y: 174.7034454345703
z: -0.47872194647789
visibility: 0.9998961091041565
","x: 201.4727783203125
y: 175.3436279296875
z: -0.47879520058631897
visibility: 0.9998733997344971
","x: 199.11183166503906
y: 176.02001953125
z: -0.4787796139717102
visibility: 0.9998403787612915
","x: 212.54954528808594
y: 167.99325561523438
z: -0.35939615964889526
visibility: 0.9999098181724548
","x: 194.6301727294922
y: 178.23179626464844
z: -0.34365206956863403
visibility: 0.9997624754905701
","x: 211.46697998046875
y: 188.88099670410156
z: -0.4403991103172302
visibility: 0.999970018863678
","x: 206.23085021972656
y: 192.39105224609375
z: -0.43592625856399536
visibility: 0.9999401569366455
","x: 237.13427734375
y: 199.100830078125
z: -0.26462215185165405
visibility: 0.9999980330467224
","x: 185.5004119873047
y: 230.7121124267578
z: -0.17958886921405792
visibility: 0.9999098777770996
","x: 270.5956115722656
y: 247.1085968017578
z: -0.22365185618400574
visibility: 0.9992693662643433
","x: 182.72752380371094
y: 302.97216796875
z: -0.10683474689722061
visibility: 0.9418135285377502
","x: 293.1767883300781
y: 305.1397705078125
z: -0.3461191952228546
visibility: 0.9955153465270996
","x: 181.90921020507812
y: 365.4024658203125
z: -0.2028297632932663
visibility: 0.9699936509132385
","x: 300.7376708984375
y: 322.3470458984375
z: -0.38445955514907837
visibility: 0.9868949055671692
","x: 179.69483947753906
y: 384.510009765625
z: -0.2394528090953827
visibility: 0.945320188999176
","x: 294.5003662109375
y: 326.6465759277344
z: -0.42696791887283325
visibility: 0.9880566000938416
","x: 182.19656372070312
y: 384.6124572753906
z: -0.28050118684768677
visibility: 0.9489215612411499
","x: 290.59649658203125
y: 323.26837158203125
z: -0.3651213049888611
visibility: 0.9833725094795227
","x: 184.52285766601562
y: 377.48834228515625
z: -0.21849997341632843
visibility: 0.9338034391403198
","x: 242.19915771484375
y: 338.6222839355469
z: -0.06585200130939484
visibility: 0.9997672438621521
","x: 212.3858184814453
y: 346.02777099609375
z: 0.06592356413602829
visibility: 0.9994099140167236
","x: 245.04266357421875
y: 438.3089599609375
z: -0.151333287358284
visibility: 0.9967644810676575
","x: 200.38917541503906
y: 436.52294921875
z: 0.0519750639796257
visibility: 0.9849926829338074
","x: 259.9531555175781
y: 535.46533203125
z: -0.08431379497051239
visibility: 0.9967411756515503
","x: 206.0101318359375
y: 523.6411743164062
z: 0.21229708194732666
visibility: 0.988653838634491
","x: 266.4302978515625
y: 554.4530029296875
z: -0.08967065066099167
visibility: 0.9286389946937561
","x: 213.60919189453125
y: 538.9266357421875
z: 0.21812693774700165
visibility: 0.9585323333740234
","x: 241.3944854736328
y: 568.5711059570312
z: -0.2601783573627472
visibility: 0.9929007887840271
","x: 186.54652404785156
y: 548.2666625976562
z: 0.1051034927368164
visibility: 0.9853728413581848
",,,,,,,,,,,,,,,,,,,,,,"x: 290.6822204589844
y: 313.9285888671875
z: 0.0
","x: 288.7031555175781
y: 321.2138671875
z: -0.0022208045702427626
","x: 287.592529296875
y: 328.817626953125
z: -0.003100364003330469
","x: 286.5679626464844
y: 334.3393249511719
z: -0.0045282780192792416
","x: 285.3923645019531
y: 338.5194091796875
z: -0.005854911636561155
","x: 293.3347473144531
y: 338.7991943359375
z: 0.0021884003654122353
","x: 294.7269287109375
y: 347.49041748046875
z: 0.00021442385332193226
","x: 295.7990417480469
y: 352.3675231933594
z: -0.0016563624376431108
","x: 296.88507080078125
y: 356.35858154296875
z: -0.002749062143266201
","x: 295.96319580078125
y: 337.677490234375
z: 0.0010077451588585973
","x: 298.25933837890625
y: 346.2709045410156
z: -0.00010726664186222479
","x: 299.8049011230469
y: 351.391357421875
z: -0.0016070622950792313
","x: 301.2729187011719
y: 355.60528564453125
z: -0.002745947800576687
","x: 298.23516845703125
y: 335.1610107421875
z: -0.0010972266318276525
","x: 300.50396728515625
y: 343.2784423828125
z: -0.002827213378623128
","x: 301.80792236328125
y: 348.223876953125
z: -0.00429424038156867
","x: 302.84210205078125
y: 352.178466796875
z: -0.005195149686187506
","x: 300.10137939453125
y: 331.31439208984375
z: -0.003794891992583871
","x: 302.2790832519531
y: 337.8121643066406
z: -0.005257777404040098
","x: 303.4381408691406
y: 341.85723876953125
z: -0.006081565283238888
","x: 304.2872619628906
y: 345.2548522949219
z: -0.006574567873030901
"
15,"x: 212.91400146484375
y: 182.07821655273438
z: -0.5040783882141113
visibility: 0.9999791979789734
","x: 213.0799560546875
y: 171.83956909179688
z: -0.49262627959251404
visibility: 0.9998803734779358
","x: 214.71670532226562
y: 170.739501953125
z: -0.49260467290878296
visibility: 0.9998941421508789
","x: 216.1153564453125
y: 169.55848693847656
z: -0.4926207661628723
visibility: 0.9998955726623535
","x: 207.96762084960938
y: 173.99441528320312
z: -0.49345874786376953
visibility: 0.9999042749404907
","x: 205.9621124267578
y: 174.5972900390625
z: -0.4935477674007416
visibility: 0.9998839497566223
","x: 203.72398376464844
y: 175.2771759033203
z: -0.4935475289821625
visibility: 0.9998539090156555
","x: 217.11932373046875
y: 168.00332641601562
z: -0.37078768014907837
visibility: 0.9999152421951294
","x: 199.43545532226562
y: 177.75140380859375
z: -0.3726067543029785
visibility: 0.999782383441925
","x: 216.1918487548828
y: 189.15805053710938
z: -0.4535326361656189
visibility: 0.9999722838401794
","x: 210.81153869628906
y: 192.41140747070312
z: -0.45409879088401794
visibility: 0.9999450445175171
","x: 241.13829040527344
y: 202.95484924316406
z: -0.27053162455558777
visibility: 0.9999979138374329
","x: 189.475341796875
y: 236.25491333007812
z: -0.222502663731575
visibility: 0.9999158978462219
","x: 266.6007080078125
y: 266.8069763183594
z: -0.20833854377269745
visibility: 0.9992275238037109
","x: 188.077392578125
y: 310.2298583984375
z: -0.14591355621814728
visibility: 0.9463814496994019
","x: 288.03399658203125
y: 337.94207763671875
z: -0.29668954014778137
visibility: 0.9953927993774414
","x: 189.73887634277344
y: 376.85791015625
z: -0.22121305763721466
visibility: 0.9708449840545654
","x: 294.1697692871094
y: 359.83526611328125
z: -0.3259371817111969
visibility: 0.9864580035209656
","x: 187.73655700683594
y: 395.37176513671875
z: -0.24348393082618713
visibility: 0.9456003308296204
","x: 288.9902648925781
y: 361.8560791015625
z: -0.3656870722770691
visibility: 0.9876764416694641
","x: 190.06333923339844
y: 394.1710205078125
z: -0.29012173414230347
visibility: 0.9493985772132874
","x: 285.6468811035156
y: 355.3405456542969
z: -0.31286853551864624
visibility: 0.9832084774971008
","x: 192.0123748779297
y: 388.2488708496094
z: -0.23951585590839386
visibility: 0.9352658987045288
","x: 248.54086303710938
y: 338.55511474609375
z: -0.039380237460136414
visibility: 0.9997768402099609
","x: 217.2879180908203
y: 347.3821716308594
z: 0.03937745839357376
visibility: 0.9994302988052368
","x: 251.51206970214844
y: 438.1025390625
z: -0.12106300890445709
visibility: 0.9965043663978577
","x: 207.90768432617188
y: 441.02093505859375
z: 0.06607449799776077
visibility: 0.9837520718574524
","x: 262.15875244140625
y: 536.610595703125
z: -0.05363333970308304
visibility: 0.996407151222229
","x: 208.8549041748047
y: 524.8296508789062
z: 0.22824835777282715
visibility: 0.9873234629631042
","x: 266.0091857910156
y: 555.0606689453125
z: -0.05811196565628052
visibility: 0.9216386079788208
","x: 214.887451171875
y: 538.4937133789062
z: 0.23459556698799133
visibility: 0.9499201774597168
","x: 253.17335510253906
y: 570.2659912109375
z: -0.21238037943840027
visibility: 0.9923139214515686
","x: 198.99574279785156
y: 554.0015258789062
z: 0.12045272439718246
visibility: 0.9842198491096497
",,,,,,,,,,,,,,,,,,,,,,,,,,,,,,,,,,,,,,,,,,
16,"x: 218.79510498046875
y: 184.6864471435547
z: -0.49186959862709045
visibility: 0.9999799132347107
","x: 219.72991943359375
y: 174.08827209472656
z: -0.47953271865844727
visibility: 0.9998880624771118
","x: 221.57785034179688
y: 172.95285034179688
z: -0.47950562834739685
visibility: 0.9998999238014221
","x: 223.18817138671875
y: 171.8909454345703
z: -0.4795045852661133
visibility: 0.9999008774757385
","x: 214.1454620361328
y: 175.9640655517578
z: -0.481407105922699
visibility: 0.9999092817306519
","x: 212.11410522460938
y: 176.3882293701172
z: -0.48150888085365295
visibility: 0.9998913407325745
","x: 209.99615478515625
y: 176.81369018554688
z: -0.4815518260002136
visibility: 0.999864399433136
","x: 224.3187255859375
y: 170.9483642578125
z: -0.35369178652763367
visibility: 0.9999077320098877
","x: 206.42958068847656
y: 178.84469604492188
z: -0.3638803958892822
visibility: 0.9997971057891846
","x: 222.7416229248047
y: 192.431884765625
z: -0.44042348861694336
visibility: 0.9999731779098511
","x: 216.84463500976562
y: 194.6593475341797
z: -0.44333893060684204
visibility: 0.9999489784240723
","x: 246.03890991210938
y: 208.63125610351562
z: -0.2447371482849121
visibility: 0.9999963641166687
","x: 195.23025512695312
y: 242.2071533203125
z: -0.24960751831531525
visibility: 0.9999210834503174
","x: 258.0545654296875
y: 284.80328369140625
z: -0.17886574566364288
visibility: 0.9970310926437378
","x: 196.19656372070312
y: 315.6478576660156
z: -0.1919923722743988
visibility: 0.9511088132858276
","x: 262.4976501464844
y: 357.9553527832031
z: -0.26755791902542114
visibility: 0.9932387471199036
","x: 198.61001586914062
y: 382.63726806640625
z: -0.26850640773773193
visibility: 0.9718549251556396
","x: 265.4065246582031
y: 379.21575927734375
z: -0.29813504219055176
visibility: 0.9825039505958557
","x: 198.30996704101562
y: 399.90618896484375
z: -0.2975747287273407
visibility: 0.946878969669342
","x: 260.8045959472656
y: 380.3876953125
z: -0.33294716477394104
visibility: 0.9838951230049133
","x: 199.82611083984375
y: 398.49798583984375
z: -0.33563628792762756
visibility: 0.9506285786628723
","x: 258.455322265625
y: 374.2858581542969
z: -0.2818782925605774
visibility: 0.9786880016326904
","x: 200.92666625976562
y: 393.3739013671875
z: -0.2839339077472687
visibility: 0.9373161792755127
","x: 250.989013671875
y: 343.8548278808594
z: 0.009569535963237286
visibility: 0.9997917413711548
","x: 220.504638671875
y: 354.2218017578125
z: -0.009746911935508251
visibility: 0.9994738101959229
","x: 261.8691101074219
y: 442.66900634765625
z: -0.028202399611473083
visibility: 0.9959990978240967
","x: 216.849609375
y: 448.8664245605469
z: -0.01843656785786152
visibility: 0.9845455288887024
","x: 264.9543151855469
y: 538.3648681640625
z: 0.13785503804683685
visibility: 0.9960260391235352
","x: 209.75999450683594
y: 524.6107177734375
z: 0.2136126011610031
visibility: 0.9867722988128662
","x: 263.9199523925781
y: 556.513916015625
z: 0.1467001736164093
visibility: 0.9219578504562378
","x: 214.67613220214844
y: 536.682861328125
z: 0.22960586845874786
visibility: 0.9325234293937683
","x: 273.1402893066406
y: 570.0159912109375
z: 0.021760955452919006
visibility: 0.9918238520622253
","x: 209.05206298828125
y: 558.11083984375
z: 0.11890864372253418
visibility: 0.9831212162971497
","x: 199.6258544921875
y: 382.33941650390625
z: 0.0
","x: 200.477294921875
y: 388.26763916015625
z: -0.006364640314131975
","x: 200.950927734375
y: 396.04852294921875
z: -0.007522370666265488
","x: 202.14356994628906
y: 403.2681579589844
z: -0.007379523944109678
","x: 203.4104766845703
y: 409.47802734375
z: -0.0066623929888010025
","x: 198.12054443359375
y: 403.53387451171875
z: -0.001666308380663395
","x: 200.77023315429688
y: 411.38153076171875
z: -0.0010309069184586406
","x: 202.9954071044922
y: 414.0328369140625
z: -0.00048244334175251424
","x: 204.55136108398438
y: 415.6309814453125
z: 0.00013963175297249109
","x: 199.00558471679688
y: 402.88580322265625
z: 0.0018848561448976398
","x: 201.150390625
y: 410.0662536621094
z: 0.003169706091284752
","x: 203.23446655273438
y: 412.0555419921875
z: 0.0034334564115852118
","x: 204.7857208251953
y: 413.2139892578125
z: 0.0036000346299260855
","x: 199.98486328125
y: 401.63433837890625
z: 0.0047477674670517445
","x: 202.07789611816406
y: 408.1292419433594
z: 0.00562994135543704
","x: 203.9748992919922
y: 410.2923583984375
z: 0.005011663772165775
","x: 205.26712036132812
y: 411.6628723144531
z: 0.004618257749825716
","x: 201.13331604003906
y: 399.91351318359375
z: 0.006946979556232691
","x: 202.88050842285156
y: 405.9212646484375
z: 0.007519247476011515
","x: 204.17697143554688
y: 408.6958312988281
z: 0.0070350696332752705
","x: 205.00250244140625
y: 410.6302185058594
z: 0.006827676668763161
",,,,,,,,,,,,,,,,,,,,,
17,"x: 218.79510498046875
y: 184.6864471435547
z: -0.49186959862709045
visibility: 0.9999799132347107
","x: 219.72991943359375
y: 174.08827209472656
z: -0.47953271865844727
visibility: 0.9998880624771118
","x: 221.57785034179688
y: 172.95285034179688
z: -0.47950562834739685
visibility: 0.9998999238014221
","x: 223.18817138671875
y: 171.8909454345703
z: -0.4795045852661133
visibility: 0.9999008774757385
","x: 214.1454620361328
y: 175.9640655517578
z: -0.481407105922699
visibility: 0.9999092817306519
","x: 212.11410522460938
y: 176.3882293701172
z: -0.48150888085365295
visibility: 0.9998913407325745
","x: 209.99615478515625
y: 176.81369018554688
z: -0.4815518260002136
visibility: 0.999864399433136
","x: 224.3187255859375
y: 170.9483642578125
z: -0.35369178652763367
visibility: 0.9999077320098877
","x: 206.42958068847656
y: 178.84469604492188
z: -0.3638803958892822
visibility: 0.9997971057891846
","x: 222.7416229248047
y: 192.431884765625
z: -0.44042348861694336
visibility: 0.9999731779098511
","x: 216.84463500976562
y: 194.6593475341797
z: -0.44333893060684204
visibility: 0.9999489784240723
","x: 246.03890991210938
y: 208.63125610351562
z: -0.2447371482849121
visibility: 0.9999963641166687
","x: 195.23025512695312
y: 242.2071533203125
z: -0.24960751831531525
visibility: 0.9999210834503174
","x: 258.0545654296875
y: 284.80328369140625
z: -0.17886574566364288
visibility: 0.9970310926437378
","x: 196.19656372070312
y: 315.6478576660156
z: -0.1919923722743988
visibility: 0.9511088132858276
","x: 262.4976501464844
y: 357.9553527832031
z: -0.26755791902542114
visibility: 0.9932387471199036
","x: 198.61001586914062
y: 382.63726806640625
z: -0.26850640773773193
visibility: 0.9718549251556396
","x: 265.4065246582031
y: 379.21575927734375
z: -0.29813504219055176
visibility: 0.9825039505958557
","x: 198.30996704101562
y: 399.90618896484375
z: -0.2975747287273407
visibility: 0.946878969669342
","x: 260.8045959472656
y: 380.3876953125
z: -0.33294716477394104
visibility: 0.9838951230049133
","x: 199.82611083984375
y: 398.49798583984375
z: -0.33563628792762756
visibility: 0.9506285786628723
","x: 258.455322265625
y: 374.2858581542969
z: -0.2818782925605774
visibility: 0.9786880016326904
","x: 200.92666625976562
y: 393.3739013671875
z: -0.2839339077472687
visibility: 0.9373161792755127
","x: 250.989013671875
y: 343.8548278808594
z: 0.009569535963237286
visibility: 0.9997917413711548
","x: 220.504638671875
y: 354.2218017578125
z: -0.009746911935508251
visibility: 0.9994738101959229
","x: 261.8691101074219
y: 442.66900634765625
z: -0.028202399611473083
visibility: 0.9959990978240967
","x: 216.849609375
y: 448.8664245605469
z: -0.01843656785786152
visibility: 0.9845455288887024
","x: 264.9543151855469
y: 538.3648681640625
z: 0.13785503804683685
visibility: 0.9960260391235352
","x: 209.75999450683594
y: 524.6107177734375
z: 0.2136126011610031
visibility: 0.9867722988128662
","x: 263.9199523925781
y: 556.513916015625
z: 0.1467001736164093
visibility: 0.9219578504562378
","x: 214.67613220214844
y: 536.682861328125
z: 0.22960586845874786
visibility: 0.9325234293937683
","x: 273.1402893066406
y: 570.0159912109375
z: 0.021760955452919006
visibility: 0.9918238520622253
","x: 209.05206298828125
y: 558.11083984375
z: 0.11890864372253418
visibility: 0.9831212162971497
","x: 199.6258544921875
y: 382.33941650390625
z: 0.0
","x: 200.477294921875
y: 388.26763916015625
z: -0.006364640314131975
","x: 200.950927734375
y: 396.04852294921875
z: -0.007522370666265488
","x: 202.14356994628906
y: 403.2681579589844
z: -0.007379523944109678
","x: 203.4104766845703
y: 409.47802734375
z: -0.0066623929888010025
","x: 198.12054443359375
y: 403.53387451171875
z: -0.001666308380663395
","x: 200.77023315429688
y: 411.38153076171875
z: -0.0010309069184586406
","x: 202.9954071044922
y: 414.0328369140625
z: -0.00048244334175251424
","x: 204.55136108398438
y: 415.6309814453125
z: 0.00013963175297249109
","x: 199.00558471679688
y: 402.88580322265625
z: 0.0018848561448976398
","x: 201.150390625
y: 410.0662536621094
z: 0.003169706091284752
","x: 203.23446655273438
y: 412.0555419921875
z: 0.0034334564115852118
","x: 204.7857208251953
y: 413.2139892578125
z: 0.0036000346299260855
","x: 199.98486328125
y: 401.63433837890625
z: 0.0047477674670517445
","x: 202.07789611816406
y: 408.1292419433594
z: 0.00562994135543704
","x: 203.9748992919922
y: 410.2923583984375
z: 0.005011663772165775
","x: 205.26712036132812
y: 411.6628723144531
z: 0.004618257749825716
","x: 201.13331604003906
y: 399.91351318359375
z: 0.006946979556232691
","x: 202.88050842285156
y: 405.9212646484375
z: 0.007519247476011515
","x: 204.17697143554688
y: 408.6958312988281
z: 0.0070350696332752705
","x: 205.00250244140625
y: 410.6302185058594
z: 0.006827676668763161
",,,,,,,,,,,,,,,,,,,,,
18,"x: 228.6591339111328
y: 185.02984619140625
z: -0.48374128341674805
visibility: 0.9999797940254211
","x: 229.68719482421875
y: 173.8157958984375
z: -0.4711790978908539
visibility: 0.9998934268951416
","x: 231.5660400390625
y: 172.78643798828125
z: -0.4708799421787262
visibility: 0.9999029040336609
","x: 233.03965759277344
y: 171.8869171142578
z: -0.47060689330101013
visibility: 0.9999037384986877
","x: 223.7432861328125
y: 175.76202392578125
z: -0.47144800424575806
visibility: 0.9999130368232727
","x: 221.61746215820312
y: 176.25714111328125
z: -0.4713221490383148
visibility: 0.9998969435691833
","x: 219.46322631835938
y: 176.81825256347656
z: -0.47104620933532715
visibility: 0.9998732209205627
","x: 234.10629272460938
y: 171.9650421142578
z: -0.3377987742424011
visibility: 0.999893307685852
","x: 216.3314666748047
y: 178.87193298339844
z: -0.34056994318962097
visibility: 0.999807596206665
","x: 231.90545654296875
y: 193.27471923828125
z: -0.4205217957496643
visibility: 0.9999720454216003
","x: 225.74539184570312
y: 195.929931640625
z: -0.4192602038383484
visibility: 0.9999514818191528
","x: 255.37229919433594
y: 218.9507293701172
z: -0.24513570964336395
visibility: 0.9999884963035583
","x: 201.74293518066406
y: 243.7922821044922
z: -0.24202200770378113
visibility: 0.9999237656593323
","x: 258.0057678222656
y: 297.0762939453125
z: -0.19021600484848022
visibility: 0.9927533864974976
","x: 203.5504913330078
y: 316.60784912109375
z: -0.1970539391040802
visibility: 0.9549586772918701
","x: 253.2292022705078
y: 372.6181335449219
z: -0.2531115412712097
visibility: 0.9868567585945129
","x: 208.60455322265625
y: 386.5574645996094
z: -0.25682714581489563
visibility: 0.9710381031036377
","x: 256.2865295410156
y: 392.2738342285156
z: -0.28043487668037415
visibility: 0.9720488786697388
","x: 208.16058349609375
y: 404.27001953125
z: -0.2855929434299469
visibility: 0.9446905255317688
","x: 249.9317626953125
y: 393.20147705078125
z: -0.30593398213386536
visibility: 0.9735077619552612
","x: 210.7505340576172
y: 403.24212646484375
z: -0.32598161697387695
visibility: 0.9484182000160217
","x: 247.97181701660156
y: 387.07720947265625
z: -0.26291540265083313
visibility: 0.9668447971343994
","x: 212.17247009277344
y: 397.77294921875
z: -0.2718009352684021
visibility: 0.9357976913452148
","x: 255.9176788330078
y: 347.9362487792969
z: 0.006909404881298542
visibility: 0.9998055100440979
","x: 224.64137268066406
y: 357.7170104980469
z: -0.007075093686580658
visibility: 0.9995150566101074
","x: 272.24053955078125
y: 442.4726867675781
z: -0.05764319747686386
visibility: 0.9951415657997131
","x: 218.6869354248047
y: 449.2549133300781
z: 0.01870524324476719
visibility: 0.9842272400856018
","x: 268.5631103515625
y: 539.3515625
z: 0.06462927162647247
visibility: 0.9954796433448792
","x: 210.4240264892578
y: 526.3385009765625
z: 0.2095199078321457
visibility: 0.9863666892051697
","x: 264.8738708496094
y: 557.8671875
z: 0.06910543888807297
visibility: 0.9227645397186279
","x: 214.20521545410156
y: 537.0355834960938
z: 0.22174718976020813
visibility: 0.9179193377494812
","x: 285.94573974609375
y: 569.94677734375
z: -0.05192679166793823
visibility: 0.9910619258880615
","x: 207.60855102539062
y: 558.7432250976562
z: 0.11371657997369766
visibility: 0.9820534586906433
",,,,,,,,,,,,,,,,,,,,,,"x: 250.99107360839844
y: 372.46856689453125
z: 0.0
","x: 244.9518585205078
y: 376.2649841308594
z: -0.004337324760854244
","x: 241.5900115966797
y: 383.6020202636719
z: -0.0061104875057935715
","x: 240.37376403808594
y: 391.2061767578125
z: -0.007240710314363241
","x: 239.08668518066406
y: 396.51708984375
z: -0.008414744399487972
","x: 246.7073516845703
y: 394.9588623046875
z: -0.005327794700860977
","x: 245.4029541015625
y: 406.07073974609375
z: -0.007493470795452595
","x: 244.68186950683594
y: 412.6676025390625
z: -0.008621277287602425
","x: 244.18504333496094
y: 417.8780517578125
z: -0.009379917755723
","x: 250.6703338623047
y: 395.9095764160156
z: -0.005028785206377506
","x: 250.578857421875
y: 408.1044921875
z: -0.006807021331042051
","x: 250.4962921142578
y: 415.6564025878906
z: -0.008019612170755863
","x: 250.56332397460938
y: 421.6090393066406
z: -0.009192357771098614
","x: 253.90989685058594
y: 394.6722717285156
z: -0.005097793880850077
","x: 254.54347229003906
y: 404.97955322265625
z: -0.007823081687092781
","x: 254.83737182617188
y: 411.51397705078125
z: -0.010106322355568409
","x: 255.0710906982422
y: 416.7129211425781
z: -0.011675974354147911
","x: 256.6319274902344
y: 391.7357177734375
z: -0.0055678351782262325
","x: 258.0673522949219
y: 399.2049560546875
z: -0.00872948206961155
","x: 258.97064208984375
y: 403.9590759277344
z: -0.010747147724032402
","x: 259.6875
y: 407.9585266113281
z: -0.012019455432891846
"
19,"x: 228.6591339111328
y: 185.02984619140625
z: -0.48374128341674805
visibility: 0.9999797940254211
","x: 229.68719482421875
y: 173.8157958984375
z: -0.4711790978908539
visibility: 0.9998934268951416
","x: 231.5660400390625
y: 172.78643798828125
z: -0.4708799421787262
visibility: 0.9999029040336609
","x: 233.03965759277344
y: 171.8869171142578
z: -0.47060689330101013
visibility: 0.9999037384986877
","x: 223.7432861328125
y: 175.76202392578125
z: -0.47144800424575806
visibility: 0.9999130368232727
","x: 221.61746215820312
y: 176.25714111328125
z: -0.4713221490383148
visibility: 0.9998969435691833
","x: 219.46322631835938
y: 176.81825256347656
z: -0.47104620933532715
visibility: 0.9998732209205627
","x: 234.10629272460938
y: 171.9650421142578
z: -0.3377987742424011
visibility: 0.999893307685852
","x: 216.3314666748047
y: 178.87193298339844
z: -0.34056994318962097
visibility: 0.999807596206665
","x: 231.90545654296875
y: 193.27471923828125
z: -0.4205217957496643
visibility: 0.9999720454216003
","x: 225.74539184570312
y: 195.929931640625
z: -0.4192602038383484
visibility: 0.9999514818191528
","x: 255.37229919433594
y: 218.9507293701172
z: -0.24513570964336395
visibility: 0.9999884963035583
","x: 201.74293518066406
y: 243.7922821044922
z: -0.24202200770378113
visibility: 0.9999237656593323
","x: 258.0057678222656
y: 297.0762939453125
z: -0.19021600484848022
visibility: 0.9927533864974976
","x: 203.5504913330078
y: 316.60784912109375
z: -0.1970539391040802
visibility: 0.9549586772918701
","x: 253.2292022705078
y: 372.6181335449219
z: -0.2531115412712097
visibility: 0.9868567585945129
","x: 208.60455322265625
y: 386.5574645996094
z: -0.25682714581489563
visibility: 0.9710381031036377
","x: 256.2865295410156
y: 392.2738342285156
z: -0.28043487668037415
visibility: 0.9720488786697388
","x: 208.16058349609375
y: 404.27001953125
z: -0.2855929434299469
visibility: 0.9446905255317688
","x: 249.9317626953125
y: 393.20147705078125
z: -0.30593398213386536
visibility: 0.9735077619552612
","x: 210.7505340576172
y: 403.24212646484375
z: -0.32598161697387695
visibility: 0.9484182000160217
","x: 247.97181701660156
y: 387.07720947265625
z: -0.26291540265083313
visibility: 0.9668447971343994
","x: 212.17247009277344
y: 397.77294921875
z: -0.2718009352684021
visibility: 0.9357976913452148
","x: 255.9176788330078
y: 347.9362487792969
z: 0.006909404881298542
visibility: 0.9998055100440979
","x: 224.64137268066406
y: 357.7170104980469
z: -0.007075093686580658
visibility: 0.9995150566101074
","x: 272.24053955078125
y: 442.4726867675781
z: -0.05764319747686386
visibility: 0.9951415657997131
","x: 218.6869354248047
y: 449.2549133300781
z: 0.01870524324476719
visibility: 0.9842272400856018
","x: 268.5631103515625
y: 539.3515625
z: 0.06462927162647247
visibility: 0.9954796433448792
","x: 210.4240264892578
y: 526.3385009765625
z: 0.2095199078321457
visibility: 0.9863666892051697
","x: 264.8738708496094
y: 557.8671875
z: 0.06910543888807297
visibility: 0.9227645397186279
","x: 214.20521545410156
y: 537.0355834960938
z: 0.22174718976020813
visibility: 0.9179193377494812
","x: 285.94573974609375
y: 569.94677734375
z: -0.05192679166793823
visibility: 0.9910619258880615
","x: 207.60855102539062
y: 558.7432250976562
z: 0.11371657997369766
visibility: 0.9820534586906433
",,,,,,,,,,,,,,,,,,,,,,"x: 250.99107360839844
y: 372.46856689453125
z: 0.0
","x: 244.9518585205078
y: 376.2649841308594
z: -0.004337324760854244
","x: 241.5900115966797
y: 383.6020202636719
z: -0.0061104875057935715
","x: 240.37376403808594
y: 391.2061767578125
z: -0.007240710314363241
","x: 239.08668518066406
y: 396.51708984375
z: -0.008414744399487972
","x: 246.7073516845703
y: 394.9588623046875
z: -0.005327794700860977
","x: 245.4029541015625
y: 406.07073974609375
z: -0.007493470795452595
","x: 244.68186950683594
y: 412.6676025390625
z: -0.008621277287602425
","x: 244.18504333496094
y: 417.8780517578125
z: -0.009379917755723
","x: 250.6703338623047
y: 395.9095764160156
z: -0.005028785206377506
","x: 250.578857421875
y: 408.1044921875
z: -0.006807021331042051
","x: 250.4962921142578
y: 415.6564025878906
z: -0.008019612170755863
","x: 250.56332397460938
y: 421.6090393066406
z: -0.009192357771098614
","x: 253.90989685058594
y: 394.6722717285156
z: -0.005097793880850077
","x: 254.54347229003906
y: 404.97955322265625
z: -0.007823081687092781
","x: 254.83737182617188
y: 411.51397705078125
z: -0.010106322355568409
","x: 255.0710906982422
y: 416.7129211425781
z: -0.011675974354147911
","x: 256.6319274902344
y: 391.7357177734375
z: -0.0055678351782262325
","x: 258.0673522949219
y: 399.2049560546875
z: -0.00872948206961155
","x: 258.97064208984375
y: 403.9590759277344
z: -0.010747147724032402
","x: 259.6875
y: 407.9585266113281
z: -0.012019455432891846
"
20,"x: 233.75384521484375
y: 185.00918579101562
z: -0.48036447167396545
visibility: 0.999979555606842
","x: 235.1683349609375
y: 173.5447540283203
z: -0.46405380964279175
visibility: 0.9998980164527893
","x: 236.9217987060547
y: 172.6319580078125
z: -0.4640001356601715
visibility: 0.9999054670333862
","x: 238.63815307617188
y: 171.8771209716797
z: -0.4639798700809479
visibility: 0.9999058246612549
","x: 229.17564392089844
y: 175.4113006591797
z: -0.4659980237483978
visibility: 0.9999158978462219
","x: 226.89144897460938
y: 175.8920135498047
