uscmakers/ReverseChoreography/data/10_all_i_wanna_do_jay_park.csv
,NOSE,LEFT_EYE_INNER,LEFT_EYE,LEFT_EYE_OUTER,RIGHT_EYE_INNER,RIGHT_EYE,RIGHT_EYE_OUTER,LEFT_EAR,RIGHT_EAR,MOUTH_LEFT,MOUTH_RIGHT,LEFT_SHOULDER,RIGHT_SHOULDER,LEFT_ELBOW,RIGHT_ELBOW,LEFT_WRIST,RIGHT_WRIST,LEFT_PINKY,RIGHT_PINKY,LEFT_INDEX,RIGHT_INDEX,LEFT_THUMB,RIGHT_THUMB,LEFT_HIP,RIGHT_HIP,LEFT_KNEE,RIGHT_KNEE,LEFT_ANKLE,RIGHT_ANKLE,LEFT_HEEL,RIGHT_HEEL,LEFT_FOOT_INDEX,RIGHT_FOOT_INDEX,WRIST2,THUMB_CPC2,THUMB_MCP2,THUMB_IP2,THUMB_TIP2,INDEX_FINGER_MCP2,INDEX_FINGER_PIP2,INDEX_FINGER_DIP2,INDEX_FINGER_TIP2,MIDDLE_FINGER_MCP2,MIDDLE_FINGER_PIP2,MIDDLE_FINGER_DIP2,MIDDLE_FINGER_TIP2,RING_FINGER_PIP2,RING_FINGER_DIP2,RING_FINGER_TIP2,RING_FINGER_MCP2,PINKY_MCP2,PINKY_PIP2,PINKY_DIP2,PINKY_TIP2,TIMESTAMP,WRIST,THUMB_CPC,THUMB_MCP,THUMB_IP,THUMB_TIP,INDEX_FINGER_MCP,INDEX_FINGER_PIP,INDEX_FINGER_DIP,INDEX_FINGER_TIP,MIDDLE_FINGER_MCP,MIDDLE_FINGER_PIP,MIDDLE_FINGER_DIP,MIDDLE_FINGER_TIP,RING_FINGER_PIP,RING_FINGER_DIP,RING_FINGER_TIP,RING_FINGER_MCP,PINKY_MCP,PINKY_PIP,PINKY_DIP,PINKY_TIP
0,"x: 251.43896484375
y: 256.73785400390625
z: -0.2640387713909149
visibility: 0.9996349811553955
","x: 252.50733947753906
y: 251.90106201171875
z: -0.24524721503257751
visibility: 0.9986056685447693
","x: 253.5476837158203
y: 252.23153686523438
z: -0.24526366591453552
visibility: 0.9982725381851196
","x: 254.84310913085938
y: 252.58053588867188
z: -0.24526819586753845
visibility: 0.9980297684669495
","x: 249.2479705810547
y: 251.4667510986328
z: -0.2523750960826874
visibility: 0.9991175532341003
","x: 247.90274047851562
y: 251.60977172851562
z: -0.25240278244018555
visibility: 0.9990643858909607
","x: 246.42774963378906
y: 251.90016174316406
z: -0.2524595856666565
visibility: 0.9991325736045837
","x: 256.4557189941406
y: 256.4208679199219
z: -0.1346152126789093
visibility: 0.9930949211120605
","x: 243.82598876953125
y: 256.57086181640625
z: -0.16895125806331635
visibility: 0.9979192614555359
","x: 253.21435546875
y: 264.89202880859375
z: -0.22156259417533875
visibility: 0.9984381794929504
","x: 248.8609619140625
y: 264.4033508300781
z: -0.23142480850219727
visibility: 0.9992606043815613
","x: 264.3231506347656
y: 291.2676696777344
z: -0.03948492184281349
visibility: 0.9989724159240723
","x: 235.8679656982422
y: 290.7491149902344
z: -0.11882438510656357
visibility: 0.9996565580368042
","x: 273.1168518066406
y: 327.6484680175781
z: 0.0057550822384655476
visibility: 0.9182800650596619
","x: 227.35443115234375
y: 332.3832702636719
z: -0.12518244981765747
visibility: 0.990540623664856
","x: 274.0141296386719
y: 357.2674255371094
z: -0.10185752063989639
visibility: 0.9307831525802612
","x: 241.3365478515625
y: 356.025390625
z: -0.22083166241645813
visibility: 0.973264217376709
","x: 274.3961486816406
y: 369.6737365722656
z: -0.1292577087879181
visibility: 0.875475287437439
","x: 245.10011291503906
y: 368.4042053222656
z: -0.2524561583995819
visibility: 0.937338650226593
","x: 272.3739318847656
y: 367.7965087890625
z: -0.15318645536899567
visibility: 0.8843238949775696
","x: 247.87716674804688
y: 365.576171875
z: -0.2615801990032196
visibility: 0.9359579086303711
","x: 271.4956970214844
y: 363.4060974121094
z: -0.11409871280193329
visibility: 0.8520095944404602
","x: 247.2256317138672
y: 362.057373046875
z: -0.22450175881385803
visibility: 0.9050959944725037
","x: 259.7679138183594
y: 376.67547607421875
z: 0.02203836478292942
visibility: 0.9963226318359375
","x: 243.30210876464844
y: 374.893310546875
z: -0.02195325307548046
visibility: 0.9984769225120544
","x: 255.04637145996094
y: 432.1886901855469
z: 0.012975916266441345
visibility: 0.7476466298103333
","x: 248.98619079589844
y: 432.11663818359375
z: -0.05336369201540947
visibility: 0.8678818345069885
","x: 246.73129272460938
y: 487.0338134765625
z: 0.15083932876586914
visibility: 0.7417171001434326
","x: 250.7329864501953
y: 495.8999938964844
z: 0.05485282465815544
visibility: 0.9167313575744629
","x: 241.83998107910156
y: 494.6725158691406
z: 0.16002598404884338
visibility: 0.7476058602333069
","x: 250.8317413330078
y: 505.59161376953125
z: 0.059846363961696625
visibility: 0.7875991463661194
","x: 250.73744201660156
y: 505.07763671875
z: 0.07578589767217636
visibility: 0.7951745390892029
","x: 253.51077270507812
y: 512.5482177734375
z: -0.0500924289226532
visibility: 0.8970739245414734
","x: 273.0550537109375
y: 359.821044921875
z: 0.0
","x: 270.208984375
y: 362.80377197265625
z: -0.0037086461670696735
","x: 268.8883361816406
y: 368.3426513671875
z: -0.00468317000195384
","x: 268.5574645996094
y: 373.5385437011719
z: -0.004435828421264887
","x: 268.63092041015625
y: 377.5238342285156
z: -0.003912143409252167
","x: 272.6414489746094
y: 372.3788146972656
z: -0.0056863329373300076
","x: 272.33978271484375
y: 380.1164245605469
z: -0.006016614846885204
","x: 271.2497863769531
y: 384.03216552734375
z: -0.005227687768638134
","x: 270.2830810546875
y: 386.0955810546875
z: -0.004319953732192516
","x: 274.4278564453125
y: 372.77691650390625
z: -0.0033636721782386303
","x: 273.9788513183594
y: 380.375
z: -0.0036092931404709816
","x: 272.47955322265625
y: 384.22894287109375
z: -0.0026372603606432676
","x: 271.15673828125
y: 386.3394775390625
z: -0.0017605765024200082
","x: 275.2538146972656
y: 372.8707275390625
z: -0.0010265655582770705
","x: 274.8680419921875
y: 379.71002197265625
z: -0.0014295207802206278
","x: 273.5970764160156
y: 383.26910400390625
z: -0.0012763399863615632
","x: 272.52398681640625
y: 385.3298645019531
z: -0.0009687741985544562
","x: 275.5097961425781
y: 372.6343078613281
z: 0.0011271017137914896
","x: 275.2205810546875
y: 378.3415222167969
z: 0.0006752964691258967
","x: 274.24871826171875
y: 381.6548156738281
z: 0.000538964755833149
","x: 273.29254150390625
y: 383.6174011230469
z: 0.0007233145879581571
",4.182207345962524,,,,,,,,,,,,,,,,,,,,,
1,"x: 251.43896484375
y: 256.73785400390625
z: -0.2640387713909149
visibility: 0.9996349811553955
","x: 252.50733947753906
y: 251.90106201171875
z: -0.24524721503257751
visibility: 0.9986056685447693
","x: 253.5476837158203
y: 252.23153686523438
z: -0.24526366591453552
visibility: 0.9982725381851196
","x: 254.84310913085938
y: 252.58053588867188
z: -0.24526819586753845
visibility: 0.9980297684669495
","x: 249.2479705810547
y: 251.4667510986328
z: -0.2523750960826874
visibility: 0.9991175532341003
","x: 247.90274047851562
y: 251.60977172851562
z: -0.25240278244018555
visibility: 0.9990643858909607
","x: 246.42774963378906
y: 251.90016174316406
z: -0.2524595856666565
visibility: 0.9991325736045837
","x: 256.4557189941406
y: 256.4208679199219
z: -0.1346152126789093
visibility: 0.9930949211120605
","x: 243.82598876953125
y: 256.57086181640625
z: -0.16895125806331635
visibility: 0.9979192614555359
","x: 253.21435546875
y: 264.89202880859375
z: -0.22156259417533875
visibility: 0.9984381794929504
","x: 248.8609619140625
y: 264.4033508300781
z: -0.23142480850219727
visibility: 0.9992606043815613
","x: 264.3231506347656
y: 291.2676696777344
z: -0.03948492184281349
visibility: 0.9989724159240723
","x: 235.8679656982422
y: 290.7491149902344
z: -0.11882438510656357
visibility: 0.9996565580368042
","x: 273.1168518066406
y: 327.6484680175781
z: 0.0057550822384655476
visibility: 0.9182800650596619
","x: 227.35443115234375
y: 332.3832702636719
z: -0.12518244981765747
visibility: 0.990540623664856
","x: 274.0141296386719
y: 357.2674255371094
z: -0.10185752063989639
visibility: 0.9307831525802612
","x: 241.3365478515625
y: 356.025390625
z: -0.22083166241645813
visibility: 0.973264217376709
","x: 274.3961486816406
y: 369.6737365722656
z: -0.1292577087879181
visibility: 0.875475287437439
","x: 245.10011291503906
y: 368.4042053222656
z: -0.2524561583995819
visibility: 0.937338650226593
","x: 272.3739318847656
y: 367.7965087890625
z: -0.15318645536899567
visibility: 0.8843238949775696
","x: 247.87716674804688
y: 365.576171875
z: -0.2615801990032196
visibility: 0.9359579086303711
","x: 271.4956970214844
y: 363.4060974121094
z: -0.11409871280193329
visibility: 0.8520095944404602
","x: 247.2256317138672
y: 362.057373046875
z: -0.22450175881385803
visibility: 0.9050959944725037
","x: 259.7679138183594
y: 376.67547607421875
z: 0.02203836478292942
visibility: 0.9963226318359375
","x: 243.30210876464844
y: 374.893310546875
z: -0.02195325307548046
visibility: 0.9984769225120544
","x: 255.04637145996094
y: 432.1886901855469
z: 0.012975916266441345
visibility: 0.7476466298103333
","x: 248.98619079589844
y: 432.11663818359375
z: -0.05336369201540947
visibility: 0.8678818345069885
","x: 246.73129272460938
y: 487.0338134765625
z: 0.15083932876586914
visibility: 0.7417171001434326
","x: 250.7329864501953
y: 495.8999938964844
z: 0.05485282465815544
visibility: 0.9167313575744629
","x: 241.83998107910156
y: 494.6725158691406
z: 0.16002598404884338
visibility: 0.7476058602333069
","x: 250.8317413330078
y: 505.59161376953125
z: 0.059846363961696625
visibility: 0.7875991463661194
","x: 250.73744201660156
y: 505.07763671875
z: 0.07578589767217636
visibility: 0.7951745390892029
","x: 253.51077270507812
y: 512.5482177734375
z: -0.0500924289226532
visibility: 0.8970739245414734
","x: 273.0550537109375
y: 359.821044921875
z: 0.0
","x: 270.208984375
y: 362.80377197265625
z: -0.0037086461670696735
","x: 268.8883361816406
y: 368.3426513671875
z: -0.00468317000195384
","x: 268.5574645996094
y: 373.5385437011719
z: -0.004435828421264887
","x: 268.63092041015625
y: 377.5238342285156
z: -0.003912143409252167
","x: 272.6414489746094
y: 372.3788146972656
z: -0.0056863329373300076
","x: 272.33978271484375
y: 380.1164245605469
z: -0.006016614846885204
","x: 271.2497863769531
y: 384.03216552734375
z: -0.005227687768638134
","x: 270.2830810546875
y: 386.0955810546875
z: -0.004319953732192516
","x: 274.4278564453125
y: 372.77691650390625
z: -0.0033636721782386303
","x: 273.9788513183594
y: 380.375
z: -0.0036092931404709816
","x: 272.47955322265625
y: 384.22894287109375
z: -0.0026372603606432676
","x: 271.15673828125
y: 386.3394775390625
z: -0.0017605765024200082
","x: 275.2538146972656
y: 372.8707275390625
z: -0.0010265655582770705
","x: 274.8680419921875
y: 379.71002197265625
z: -0.0014295207802206278
","x: 273.5970764160156
y: 383.26910400390625
z: -0.0012763399863615632
","x: 272.52398681640625
y: 385.3298645019531
z: -0.0009687741985544562
","x: 275.5097961425781
y: 372.6343078613281
z: 0.0011271017137914896
","x: 275.2205810546875
y: 378.3415222167969
z: 0.0006752964691258967
","x: 274.24871826171875
y: 381.6548156738281
z: 0.000538964755833149
","x: 273.29254150390625
y: 383.6174011230469
z: 0.0007233145879581571
",4.182207345962524,,,,,,,,,,,,,,,,,,,,,
2,"x: 251.43896484375
y: 256.73785400390625
z: -0.2640387713909149
visibility: 0.9996349811553955
","x: 252.50733947753906
y: 251.90106201171875
z: -0.24524721503257751
visibility: 0.9986056685447693
","x: 253.5476837158203
y: 252.23153686523438
z: -0.24526366591453552
visibility: 0.9982725381851196
","x: 254.84310913085938
y: 252.58053588867188
z: -0.24526819586753845
visibility: 0.9980297684669495
","x: 249.2479705810547
y: 251.4667510986328
z: -0.2523750960826874
visibility: 0.9991175532341003
","x: 247.90274047851562
y: 251.60977172851562
z: -0.25240278244018555
visibility: 0.9990643858909607
","x: 246.42774963378906
y: 251.90016174316406
z: -0.2524595856666565
visibility: 0.9991325736045837
","x: 256.4557189941406
y: 256.4208679199219
z: -0.1346152126789093
visibility: 0.9930949211120605
","x: 243.82598876953125
y: 256.57086181640625
z: -0.16895125806331635
visibility: 0.9979192614555359
","x: 253.21435546875
y: 264.89202880859375
z: -0.22156259417533875
visibility: 0.9984381794929504
","x: 248.8609619140625
y: 264.4033508300781
z: -0.23142480850219727
visibility: 0.9992606043815613
","x: 264.3231506347656
y: 291.2676696777344
z: -0.03948492184281349
visibility: 0.9989724159240723
","x: 235.8679656982422
y: 290.7491149902344
z: -0.11882438510656357
visibility: 0.9996565580368042
","x: 273.1168518066406
y: 327.6484680175781
z: 0.0057550822384655476
visibility: 0.9182800650596619
","x: 227.35443115234375
y: 332.3832702636719
z: -0.12518244981765747
visibility: 0.990540623664856
","x: 274.0141296386719
y: 357.2674255371094
z: -0.10185752063989639
visibility: 0.9307831525802612
","x: 241.3365478515625
y: 356.025390625
z: -0.22083166241645813
visibility: 0.973264217376709
","x: 274.3961486816406
y: 369.6737365722656
z: -0.1292577087879181
visibility: 0.875475287437439
","x: 245.10011291503906
y: 368.4042053222656
z: -0.2524561583995819
visibility: 0.937338650226593
","x: 272.3739318847656
y: 367.7965087890625
z: -0.15318645536899567
visibility: 0.8843238949775696
","x: 247.87716674804688
y: 365.576171875
z: -0.2615801990032196
visibility: 0.9359579086303711
","x: 271.4956970214844
y: 363.4060974121094
z: -0.11409871280193329
visibility: 0.8520095944404602
","x: 247.2256317138672
y: 362.057373046875
z: -0.22450175881385803
visibility: 0.9050959944725037
","x: 259.7679138183594
y: 376.67547607421875
z: 0.02203836478292942
visibility: 0.9963226318359375
","x: 243.30210876464844
y: 374.893310546875
z: -0.02195325307548046
visibility: 0.9984769225120544
","x: 255.04637145996094
y: 432.1886901855469
z: 0.012975916266441345
visibility: 0.7476466298103333
","x: 248.98619079589844
y: 432.11663818359375
z: -0.05336369201540947
visibility: 0.8678818345069885
","x: 246.73129272460938
y: 487.0338134765625
z: 0.15083932876586914
visibility: 0.7417171001434326
","x: 250.7329864501953
y: 495.8999938964844
z: 0.05485282465815544
visibility: 0.9167313575744629
","x: 241.83998107910156
y: 494.6725158691406
z: 0.16002598404884338
visibility: 0.7476058602333069
","x: 250.8317413330078
y: 505.59161376953125
z: 0.059846363961696625
visibility: 0.7875991463661194
","x: 250.73744201660156
y: 505.07763671875
z: 0.07578589767217636
visibility: 0.7951745390892029
","x: 253.51077270507812
y: 512.5482177734375
z: -0.0500924289226532
visibility: 0.8970739245414734
","x: 273.0550537109375
y: 359.821044921875
z: 0.0
","x: 270.208984375
y: 362.80377197265625
z: -0.0037086461670696735
","x: 268.8883361816406
y: 368.3426513671875
z: -0.00468317000195384
","x: 268.5574645996094
y: 373.5385437011719
z: -0.004435828421264887
","x: 268.63092041015625
y: 377.5238342285156
z: -0.003912143409252167
","x: 272.6414489746094
y: 372.3788146972656
z: -0.0056863329373300076
","x: 272.33978271484375
y: 380.1164245605469
z: -0.006016614846885204
","x: 271.2497863769531
y: 384.03216552734375
z: -0.005227687768638134
","x: 270.2830810546875
y: 386.0955810546875
z: -0.004319953732192516
","x: 274.4278564453125
y: 372.77691650390625
z: -0.0033636721782386303
","x: 273.9788513183594
y: 380.375
z: -0.0036092931404709816
","x: 272.47955322265625
y: 384.22894287109375
z: -0.0026372603606432676
","x: 271.15673828125
y: 386.3394775390625
z: -0.0017605765024200082
","x: 275.2538146972656
y: 372.8707275390625
z: -0.0010265655582770705
","x: 274.8680419921875
y: 379.71002197265625
z: -0.0014295207802206278
","x: 273.5970764160156
y: 383.26910400390625
z: -0.0012763399863615632
","x: 272.52398681640625
y: 385.3298645019531
z: -0.0009687741985544562
","x: 275.5097961425781
y: 372.6343078613281
z: 0.0011271017137914896
","x: 275.2205810546875
y: 378.3415222167969
z: 0.0006752964691258967
","x: 274.24871826171875
y: 381.6548156738281
z: 0.000538964755833149
","x: 273.29254150390625
y: 383.6174011230469
z: 0.0007233145879581571
",4.182207345962524,,,,,,,,,,,,,,,,,,,,,
3,"x: 248.1699676513672
y: 255.9822235107422
z: -0.31485503911972046
visibility: 0.999664843082428
","x: 249.7630157470703
y: 250.87008666992188
z: -0.3017241358757019
visibility: 0.9987186789512634
","x: 251.11529541015625
y: 250.94384765625
z: -0.3017292618751526
visibility: 0.9984171986579895
","x: 252.44639587402344
y: 251.01873779296875
z: -0.3017652630805969
visibility: 0.9981944561004639
","x: 245.98513793945312
y: 251.15740966796875
z: -0.3025229275226593
visibility: 0.9991831183433533
","x: 244.69590759277344
y: 251.46417236328125
z: -0.30256229639053345
visibility: 0.9991347193717957
","x: 243.5963897705078
y: 251.82821655273438
z: -0.30260351300239563
visibility: 0.9991953372955322
","x: 254.4175567626953
y: 254.6060028076172
z: -0.20701631903648376
visibility: 0.9937357902526855
","x: 241.77743530273438
y: 256.4834899902344
z: -0.21135099232196808
visibility: 0.9980624914169312
","x: 251.06793212890625
y: 263.6718444824219
z: -0.2780095338821411
visibility: 0.99858558177948
","x: 246.06883239746094
y: 264.03839111328125
z: -0.27942413091659546
visibility: 0.9993282556533813
","x: 264.6010437011719
y: 287.48193359375
z: -0.12882910668849945
visibility: 0.9990624189376831
","x: 233.28567504882812
y: 292.42535400390625
z: -0.13146308064460754
visibility: 0.9996804594993591
","x: 274.66455078125
y: 325.6105041503906
z: -0.0787198543548584
visibility: 0.9224866628646851
","x: 228.39537048339844
y: 337.0288391113281
z: -0.09348033368587494
visibility: 0.9859375953674316
","x: 274.76214599609375
y: 357.95538330078125
z: -0.1494361311197281
visibility: 0.9181519150733948
","x: 233.8212890625
y: 371.1313171386719
z: -0.16050580143928528
visibility: 0.9540454149246216
","x: 275.0745849609375
y: 370.46319580078125
z: -0.17031803727149963
visibility: 0.8551223874092102
","x: 234.71400451660156
y: 385.4512939453125
z: -0.18223950266838074
visibility: 0.9121070504188538
","x: 273.197265625
y: 369.64111328125
z: -0.19473080337047577
visibility: 0.8639057874679565
","x: 236.9458465576172
y: 384.7381896972656
z: -0.20444054901599884
visibility: 0.9117410182952881
","x: 271.9085693359375
y: 365.31103515625
z: -0.1597961187362671
visibility: 0.8321958780288696
","x: 237.25445556640625
y: 379.75933837890625
z: -0.17000630497932434
visibility: 0.8794317841529846
","x: 261.1499328613281
y: 375.3733825683594
z: 0.006470981054008007
visibility: 0.9966261386871338
","x: 243.19894409179688
y: 375.9920654296875
z: -0.006443859543651342
visibility: 0.9986121654510498
","x: 266.4453430175781
y: 432.17083740234375
z: 0.013051521964371204
visibility: 0.7710275650024414
","x: 248.46490478515625
y: 435.8140563964844
z: -0.026800760999321938
visibility: 0.8799476027488708
","x: 262.1546936035156
y: 462.8218994140625
z: 0.3116433620452881
visibility: 0.7564202547073364
","x: 250.5699005126953
y: 497.4157409667969
z: 0.12858989834785461
visibility: 0.923841118812561
","x: 259.57940673828125
y: 464.05706787109375
z: 0.3387557864189148
visibility: 0.740506649017334
","x: 250.74908447265625
y: 505.9818115234375
z: 0.13859689235687256
visibility: 0.7943272590637207
","x: 264.4515686035156
y: 491.84686279296875
z: 0.2728537619113922
visibility: 0.8057617545127869
","x: 253.08026123046875
y: 515.5906372070312
z: 0.03173035755753517
visibility: 0.9052316546440125
",,,,,,,,,,,,,,,,,,,,,,4.823431730270386,,,,,,,,,,,,,,,,,,,,,
4,"x: 248.1699676513672
y: 255.9822235107422
z: -0.31485503911972046
visibility: 0.999664843082428
","x: 249.7630157470703
y: 250.87008666992188
z: -0.3017241358757019
visibility: 0.9987186789512634
","x: 251.11529541015625
y: 250.94384765625
z: -0.3017292618751526
visibility: 0.9984171986579895
","x: 252.44639587402344
y: 251.01873779296875
z: -0.3017652630805969
visibility: 0.9981944561004639
","x: 245.98513793945312
y: 251.15740966796875
z: -0.3025229275226593
visibility: 0.9991831183433533
","x: 244.69590759277344
y: 251.46417236328125
z: -0.30256229639053345
visibility: 0.9991347193717957
","x: 243.5963897705078
y: 251.82821655273438
z: -0.30260351300239563
visibility: 0.9991953372955322
","x: 254.4175567626953
y: 254.6060028076172
z: -0.20701631903648376
visibility: 0.9937357902526855
","x: 241.77743530273438
y: 256.4834899902344
z: -0.21135099232196808
visibility: 0.9980624914169312
","x: 251.06793212890625
y: 263.6718444824219
z: -0.2780095338821411
visibility: 0.99858558177948
","x: 246.06883239746094
y: 264.03839111328125
z: -0.27942413091659546
visibility: 0.9993282556533813
","x: 264.6010437011719
y: 287.48193359375
z: -0.12882910668849945
visibility: 0.9990624189376831
","x: 233.28567504882812
y: 292.42535400390625
z: -0.13146308064460754
visibility: 0.9996804594993591
","x: 274.66455078125
y: 325.6105041503906
z: -0.0787198543548584
visibility: 0.9224866628646851
","x: 228.39537048339844
y: 337.0288391113281
z: -0.09348033368587494
visibility: 0.9859375953674316
","x: 274.76214599609375
y: 357.95538330078125
z: -0.1494361311197281
visibility: 0.9181519150733948
","x: 233.8212890625
y: 371.1313171386719
z: -0.16050580143928528
visibility: 0.9540454149246216
","x: 275.0745849609375
y: 370.46319580078125
z: -0.17031803727149963
visibility: 0.8551223874092102
","x: 234.71400451660156
y: 385.4512939453125
z: -0.18223950266838074
visibility: 0.9121070504188538
","x: 273.197265625
y: 369.64111328125
z: -0.19473080337047577
visibility: 0.8639057874679565
","x: 236.9458465576172
y: 384.7381896972656
z: -0.20444054901599884
visibility: 0.9117410182952881
","x: 271.9085693359375
y: 365.31103515625
z: -0.1597961187362671
visibility: 0.8321958780288696
","x: 237.25445556640625
y: 379.75933837890625
z: -0.17000630497932434
visibility: 0.8794317841529846
","x: 261.1499328613281
y: 375.3733825683594
z: 0.006470981054008007
visibility: 0.9966261386871338
","x: 243.19894409179688
y: 375.9920654296875
z: -0.006443859543651342
visibility: 0.9986121654510498
","x: 266.4453430175781
y: 432.17083740234375
z: 0.013051521964371204
visibility: 0.7710275650024414
","x: 248.46490478515625
y: 435.8140563964844
z: -0.026800760999321938
visibility: 0.8799476027488708
","x: 262.1546936035156
y: 462.8218994140625
z: 0.3116433620452881
visibility: 0.7564202547073364
","x: 250.5699005126953
y: 497.4157409667969
z: 0.12858989834785461
visibility: 0.923841118812561
","x: 259.57940673828125
y: 464.05706787109375
z: 0.3387557864189148
visibility: 0.740506649017334
","x: 250.74908447265625
y: 505.9818115234375
z: 0.13859689235687256
visibility: 0.7943272590637207
","x: 264.4515686035156
y: 491.84686279296875
z: 0.2728537619113922
visibility: 0.8057617545127869
","x: 253.08026123046875
y: 515.5906372070312
z: 0.03173035755753517
visibility: 0.9052316546440125
",,,,,,,,,,,,,,,,,,,,,,4.823431730270386,,,,,,,,,,,,,,,,,,,,,
5,"x: 248.9934844970703
y: 253.41732788085938
z: -0.3427378833293915
visibility: 0.9996978044509888
","x: 250.7833709716797
y: 248.31626892089844
z: -0.3288593590259552
visibility: 0.9988452792167664
","x: 252.13076782226562
y: 248.256591796875
z: -0.32886990904808044
visibility: 0.9985741972923279
","x: 253.3998565673828
y: 248.14230346679688
z: -0.3289014995098114
visibility: 0.9983735084533691
","x: 246.81410217285156
y: 248.9895477294922
z: -0.32969602942466736
visibility: 0.9992626905441284
","x: 245.40579223632812
y: 249.46347045898438
z: -0.32973983883857727
visibility: 0.9992190599441528
","x: 244.11614990234375
y: 250.00823974609375
z: -0.32972899079322815
visibility: 0.9992730021476746
","x: 255.78778076171875
y: 251.95587158203125
z: -0.22963014245033264
visibility: 0.9943597316741943
","x: 242.62232971191406
y: 254.88587951660156
z: -0.23509478569030762
visibility: 0.9982524514198303
","x: 252.2186279296875
y: 260.2181701660156
z: -0.30496835708618164
visibility: 0.9987264275550842
","x: 247.20370483398438
y: 261.6745300292969
z: -0.3066599667072296
visibility: 0.9993946552276611
","x: 268.3580322265625
y: 287.14190673828125
z: -0.1488414704799652
visibility: 0.9991554021835327
","x: 233.4059600830078
y: 292.2493591308594
z: -0.1481809765100479
visibility: 0.9997063875198364
","x: 277.9642333984375
y: 327.760986328125
z: -0.09837393462657928
visibility: 0.9299318790435791
","x: 230.27053833007812
y: 336.4631652832031
z: -0.09392807632684708
visibility: 0.9846760034561157
","x: 279.1567687988281
y: 368.677001953125
z: -0.16749057173728943
visibility: 0.9253630042076111
","x: 232.4553680419922
y: 371.2120056152344
z: -0.14984405040740967
visibility: 0.9486773014068604
","x: 279.5376281738281
y: 381.80914306640625
z: -0.18827028572559357
visibility: 0.8663507699966431
","x: 232.38079833984375
y: 385.9091796875
z: -0.17007650434970856
visibility: 0.9026405215263367
","x: 277.44366455078125
y: 381.0926513671875
z: -0.21748098731040955
visibility: 0.8745151162147522
","x: 234.22447204589844
y: 384.7958068847656
z: -0.1959533393383026
visibility: 0.9029741287231445
","x: 276.18359375
y: 378.0334167480469
z: -0.17943212389945984
visibility: 0.8449236750602722
","x: 234.80056762695312
y: 379.6282653808594
z: -0.16096611320972443
visibility: 0.8710256218910217
","x: 263.9722900390625
y: 374.027099609375
z: 0.008353980258107185
visibility: 0.9969449639320374
","x: 243.28302001953125
y: 375.9661560058594
z: -0.008371979929506779
visibility: 0.9987308382987976
","x: 272.093505859375
y: 438.09881591796875
z: 0.012931354343891144
visibility: 0.7934326529502869
","x: 248.19677734375
y: 438.7580871582031
z: -0.029183480888605118
visibility: 0.8916252851486206
","x: 276.1571044921875
y: 490.9088439941406
z: 0.1897733509540558
visibility: 0.7802838683128357
","x: 250.54495239257812
y: 499.37255859375
z: 0.11704246699810028
visibility: 0.9311036467552185
","x: 272.901123046875
y: 497.7909851074219
z: 0.19592779874801636
visibility: 0.7612349390983582
","x: 250.99862670898438
y: 507.162353515625
z: 0.12469159066677094
visibility: 0.8056548237800598
","x: 285.1085510253906
y: 514.9190673828125
z: 0.07625015079975128
visibility: 0.8242415189743042
","x: 252.2950439453125
y: 517.1333618164062
z: 0.009882470592856407
visibility: 0.9140302538871765
",,,,,,,,,,,,,,,,,,,,,,5.023131370544434,,,,,,,,,,,,,,,,,,,,,
6,"x: 248.9934844970703
y: 253.41732788085938
z: -0.3427378833293915
visibility: 0.9996978044509888
","x: 250.7833709716797
y: 248.31626892089844
z: -0.3288593590259552
visibility: 0.9988452792167664
","x: 252.13076782226562
y: 248.256591796875
z: -0.32886990904808044
visibility: 0.9985741972923279
","x: 253.3998565673828
y: 248.14230346679688
z: -0.3289014995098114
visibility: 0.9983735084533691
","x: 246.81410217285156
y: 248.9895477294922
z: -0.32969602942466736
visibility: 0.9992626905441284
","x: 245.40579223632812
y: 249.46347045898438
z: -0.32973983883857727
visibility: 0.9992190599441528
","x: 244.11614990234375
y: 250.00823974609375
z: -0.32972899079322815
visibility: 0.9992730021476746
","x: 255.78778076171875
y: 251.95587158203125
z: -0.22963014245033264
visibility: 0.9943597316741943
","x: 242.62232971191406
y: 254.88587951660156
z: -0.23509478569030762
visibility: 0.9982524514198303
","x: 252.2186279296875
y: 260.2181701660156
z: -0.30496835708618164
visibility: 0.9987264275550842
","x: 247.20370483398438
y: 261.6745300292969
z: -0.3066599667072296
visibility: 0.9993946552276611
","x: 268.3580322265625
y: 287.14190673828125
z: -0.1488414704799652
visibility: 0.9991554021835327
","x: 233.4059600830078
y: 292.2493591308594
z: -0.1481809765100479
visibility: 0.9997063875198364
","x: 277.9642333984375
y: 327.760986328125
z: -0.09837393462657928
visibility: 0.9299318790435791
","x: 230.27053833007812
y: 336.4631652832031
z: -0.09392807632684708
visibility: 0.9846760034561157
","x: 279.1567687988281
y: 368.677001953125
z: -0.16749057173728943
visibility: 0.9253630042076111
","x: 232.4553680419922
y: 371.2120056152344
z: -0.14984405040740967
visibility: 0.9486773014068604
","x: 279.5376281738281
y: 381.80914306640625
z: -0.18827028572559357
visibility: 0.8663507699966431
","x: 232.38079833984375
y: 385.9091796875
z: -0.17007650434970856
visibility: 0.9026405215263367
","x: 277.44366455078125
y: 381.0926513671875
z: -0.21748098731040955
visibility: 0.8745151162147522
","x: 234.22447204589844
y: 384.7958068847656
z: -0.1959533393383026
visibility: 0.9029741287231445
","x: 276.18359375
y: 378.0334167480469
z: -0.17943212389945984
visibility: 0.8449236750602722
","x: 234.80056762695312
y: 379.6282653808594
z: -0.16096611320972443
visibility: 0.8710256218910217
","x: 263.9722900390625
y: 374.027099609375
z: 0.008353980258107185
visibility: 0.9969449639320374
","x: 243.28302001953125
y: 375.9661560058594
z: -0.008371979929506779
visibility: 0.9987308382987976
","x: 272.093505859375
y: 438.09881591796875
z: 0.012931354343891144
visibility: 0.7934326529502869
","x: 248.19677734375
y: 438.7580871582031
z: -0.029183480888605118
visibility: 0.8916252851486206
","x: 276.1571044921875
y: 490.9088439941406
z: 0.1897733509540558
visibility: 0.7802838683128357
","x: 250.54495239257812
y: 499.37255859375
z: 0.11704246699810028
visibility: 0.9311036467552185
","x: 272.901123046875
y: 497.7909851074219
z: 0.19592779874801636
visibility: 0.7612349390983582
","x: 250.99862670898438
y: 507.162353515625
z: 0.12469159066677094
visibility: 0.8056548237800598
","x: 285.1085510253906
y: 514.9190673828125
z: 0.07625015079975128
visibility: 0.8242415189743042
","x: 252.2950439453125
y: 517.1333618164062
z: 0.009882470592856407
visibility: 0.9140302538871765
",,,,,,,,,,,,,,,,,,,,,,5.023131370544434,,,,,,,,,,,,,,,,,,,,,
7,"x: 254.242919921875
y: 253.02879333496094
z: -0.2855207324028015
visibility: 0.9997275471687317
","x: 256.33978271484375
y: 248.38949584960938
z: -0.2791835069656372
visibility: 0.9989591836929321
","x: 257.7725524902344
y: 248.42271423339844
z: -0.2791706621646881
visibility: 0.9987151622772217
","x: 259.1900939941406
y: 248.3995819091797
z: -0.27912312746047974
visibility: 0.9985343217849731
","x: 252.49249267578125
y: 248.7088623046875
z: -0.2755630612373352
visibility: 0.9993347525596619
","x: 251.0121612548828
y: 249.01333618164062
z: -0.27559953927993774
visibility: 0.9992953538894653
","x: 249.59701538085938
y: 249.30833435058594
z: -0.2755606174468994
visibility: 0.9993435144424438
","x: 261.5453796386719
y: 252.20899963378906
z: -0.18759852647781372
visibility: 0.9949191808700562
","x: 247.3948516845703
y: 253.982421875
z: -0.20238646864891052
visibility: 0.9984240531921387
","x: 256.8230895996094
y: 260.27716064453125
z: -0.2621011435985565
visibility: 0.9988530278205872
","x: 252.00213623046875
y: 260.7928771972656
z: -0.25660091638565063
visibility: 0.9994545578956604
","x: 272.619384765625
y: 287.487548828125
z: -0.10856825113296509
visibility: 0.9992386102676392
","x: 236.7396697998047
y: 292.2051696777344
z: -0.12176265567541122
visibility: 0.9997342228889465
","x: 280.9143981933594
y: 331.5480041503906
z: -0.06258465349674225
visibility: 0.9363680481910706
","x: 232.09628295898438
y: 336.76239013671875
z: -0.07261823117733002
visibility: 0.9846824407577515
","x: 280.8404846191406
y: 373.7344055175781
z: -0.141315758228302
visibility: 0.9318299889564514
","x: 232.5145721435547
y: 373.04302978515625
z: -0.12959684431552887
visibility: 0.949766218662262
","x: 281.25714111328125
y: 388.9181823730469
z: -0.17019252479076385
visibility: 0.8771042227745056
","x: 231.58895874023438
y: 387.3207092285156
z: -0.14877967536449432
visibility: 0.9046558141708374
","x: 278.6033630371094
y: 388.3555603027344
z: -0.19912181794643402
visibility: 0.8846049904823303
","x: 233.17831420898438
y: 386.4193420410156
z: -0.17476364970207214
visibility: 0.905256986618042
","x: 277.38665771484375
y: 383.806884765625
z: -0.15458810329437256
visibility: 0.8571586012840271
","x: 234.15985107421875
y: 381.7634582519531
z: -0.1406635344028473
visibility: 0.8751668930053711
","x: 266.5981750488281
y: 376.33221435546875
z: 0.010814978741109371
visibility: 0.9972369074821472
","x: 245.24705505371094
y: 377.759033203125
z: -0.010787895880639553
visibility: 0.9988453984260559
","x: 274.0340576171875
y: 444.3279724121094
z: 0.03090265393257141
visibility: 0.8132442235946655
","x: 249.03456115722656
y: 442.36407470703125
z: -0.020197229459881783
visibility: 0.9021244049072266
","x: 282.082275390625
y: 503.1927490234375
z: 0.1412041187286377
visibility: 0.8016912937164307
","x: 250.5413818359375
y: 500.8759765625
z: 0.10389230400323868
visibility: 0.9374979734420776
","x: 279.73077392578125
y: 513.6474609375
z: 0.14435002207756042
visibility: 0.7806500196456909
","x: 250.96670532226562
y: 508.40631103515625
z: 0.11010462045669556
visibility: 0.8149081468582153
","x: 290.909912109375
y: 518.6207275390625
z: 0.04653281718492508
visibility: 0.8407681584358215
","x: 251.6897430419922
y: 517.69482421875
z: 0.007625899277627468
visibility: 0.9216611385345459
",,,,,,,,,,,,,,,,,,,,,,5.192723512649536,,,,,,,,,,,,,,,,,,,,,
8,"x: 254.242919921875
y: 253.02879333496094
z: -0.2855207324028015
visibility: 0.9997275471687317
","x: 256.33978271484375
y: 248.38949584960938
z: -0.2791835069656372
visibility: 0.9989591836929321
","x: 257.7725524902344
y: 248.42271423339844
z: -0.2791706621646881
visibility: 0.9987151622772217
","x: 259.1900939941406
y: 248.3995819091797
z: -0.27912312746047974
visibility: 0.9985343217849731
","x: 252.49249267578125
y: 248.7088623046875
z: -0.2755630612373352
visibility: 0.9993347525596619
","x: 251.0121612548828
y: 249.01333618164062
z: -0.27559953927993774
visibility: 0.9992953538894653
","x: 249.59701538085938
y: 249.30833435058594
z: -0.2755606174468994
visibility: 0.9993435144424438
","x: 261.5453796386719
y: 252.20899963378906
z: -0.18759852647781372
visibility: 0.9949191808700562
","x: 247.3948516845703
y: 253.982421875
z: -0.20238646864891052
visibility: 0.9984240531921387
","x: 256.8230895996094
y: 260.27716064453125
z: -0.2621011435985565
visibility: 0.9988530278205872
","x: 252.00213623046875
y: 260.7928771972656
z: -0.25660091638565063
visibility: 0.9994545578956604
","x: 272.619384765625
y: 287.487548828125
z: -0.10856825113296509
visibility: 0.9992386102676392
","x: 236.7396697998047
y: 292.2051696777344
z: -0.12176265567541122
visibility: 0.9997342228889465
","x: 280.9143981933594
y: 331.5480041503906
z: -0.06258465349674225
visibility: 0.9363680481910706
","x: 232.09628295898438
y: 336.76239013671875
z: -0.07261823117733002
visibility: 0.9846824407577515
","x: 280.8404846191406
y: 373.7344055175781
z: -0.141315758228302
visibility: 0.9318299889564514
","x: 232.5145721435547
y: 373.04302978515625
z: -0.12959684431552887
visibility: 0.949766218662262
","x: 281.25714111328125
y: 388.9181823730469
z: -0.17019252479076385
visibility: 0.8771042227745056
","x: 231.58895874023438
y: 387.3207092285156
z: -0.14877967536449432
visibility: 0.9046558141708374
","x: 278.6033630371094
y: 388.3555603027344
z: -0.19912181794643402
visibility: 0.8846049904823303
","x: 233.17831420898438
y: 386.4193420410156
z: -0.17476364970207214
visibility: 0.905256986618042
","x: 277.38665771484375
y: 383.806884765625
z: -0.15458810329437256
visibility: 0.8571586012840271
","x: 234.15985107421875
y: 381.7634582519531
z: -0.1406635344028473
visibility: 0.8751668930053711
","x: 266.5981750488281
y: 376.33221435546875
z: 0.010814978741109371
visibility: 0.9972369074821472
","x: 245.24705505371094
y: 377.759033203125
z: -0.010787895880639553
visibility: 0.9988453984260559
","x: 274.0340576171875
y: 444.3279724121094
z: 0.03090265393257141
visibility: 0.8132442235946655
","x: 249.03456115722656
y: 442.36407470703125
z: -0.020197229459881783
visibility: 0.9021244049072266
","x: 282.082275390625
y: 503.1927490234375
z: 0.1412041187286377
visibility: 0.8016912937164307
","x: 250.5413818359375
y: 500.8759765625
z: 0.10389230400323868
visibility: 0.9374979734420776
","x: 279.73077392578125
y: 513.6474609375
z: 0.14435002207756042
visibility: 0.7806500196456909
","x: 250.96670532226562
y: 508.40631103515625
z: 0.11010462045669556
visibility: 0.8149081468582153
","x: 290.909912109375
y: 518.6207275390625
z: 0.04653281718492508
visibility: 0.8407681584358215
","x: 251.6897430419922
y: 517.69482421875
z: 0.007625899277627468
visibility: 0.9216611385345459
",,,,,,,,,,,,,,,,,,,,,,5.192723512649536,,,,,,,,,,,,,,,,,,,,,
9,"x: 261.9425048828125
y: 253.1156005859375
z: -0.26139867305755615
visibility: 0.9997544288635254
","x: 264.0346374511719
y: 248.47410583496094
z: -0.24859309196472168
visibility: 0.9990622997283936
","x: 265.4382019042969
y: 248.59585571289062
z: -0.24861113727092743
visibility: 0.9988426566123962
","x: 266.62481689453125
y: 248.67486572265625
z: -0.24860401451587677
visibility: 0.9986798763275146
","x: 259.84515380859375
y: 248.74795532226562
z: -0.2485085278749466
visibility: 0.9994000792503357
","x: 258.3656311035156
y: 249.03053283691406
z: -0.24853286147117615
visibility: 0.9993645548820496
","x: 257.02008056640625
y: 249.3612518310547
z: -0.24851854145526886
visibility: 0.9994077086448669
","x: 268.493896484375
y: 252.5260009765625
z: -0.16135667264461517
visibility: 0.995424747467041
","x: 255.36927795410156
y: 254.10577392578125
z: -0.1643386036157608
visibility: 0.9985791444778442
","x: 264.4450988769531
y: 260.5574951171875
z: -0.22992756962776184
visibility: 0.998967170715332
","x: 259.2935791015625
y: 261.01116943359375
z: -0.22976264357566833
visibility: 0.9995085597038269
","x: 278.57989501953125
y: 288.66400146484375
z: -0.09640471637248993
visibility: 0.9993135333061218
","x: 243.47877502441406
y: 292.1780700683594
z: -0.0880691260099411
visibility: 0.9997559785842896
","x: 283.30633544921875
y: 333.5644226074219
z: -0.06953750550746918
visibility: 0.9421703815460205
","x: 236.7201690673828
y: 336.5188293457031
z: -0.046810053288936615
visibility: 0.9846320152282715
","x: 279.87371826171875
y: 369.9026184082031
z: -0.16832932829856873
visibility: 0.9378213882446289
","x: 239.88543701171875
y: 370.6666259765625
z: -0.12396460771560669
visibility: 0.9498004913330078
","x: 279.32427978515625
y: 384.0382385253906
z: -0.20033791661262512
visibility: 0.8873406648635864
","x: 238.50003051757812
y: 384.6488952636719
z: -0.1497470885515213
visibility: 0.9047154784202576
","x: 275.745849609375
y: 383.7596130371094
z: -0.22415295243263245
visibility: 0.8942119479179382
","x: 241.3463134765625
y: 382.7746276855469
z: -0.17328719794750214
visibility: 0.905605137348175
","x: 275.5118713378906
y: 379.4839172363281
z: -0.1790994107723236
visibility: 0.8684961199760437
","x: 242.55690002441406
y: 378.1105041503906
z: -0.13444466888904572
visibility: 0.8764371871948242
","x: 271.89825439453125
y: 376.9456481933594
z: 0.0062354258261621
visibility: 0.9974992871284485
","x: 251.0657196044922
y: 378.1131591796875
z: -0.006257263477891684
visibility: 0.9989439845085144
","x: 278.06671142578125
y: 445.4537658691406
z: 0.016311772167682648
visibility: 0.8315685987472534
","x: 250.0705108642578
y: 444.3177490234375
z: -0.0010805714409798384
visibility: 0.9116166234016418
","x: 284.27874755859375
y: 506.2629699707031
z: 0.1239229068160057
visibility: 0.821202278137207
","x: 250.51663208007812
y: 500.9094543457031
z: 0.12397994846105576
visibility: 0.9432989358901978
","x: 281.7499694824219
y: 516.349609375
z: 0.12837150692939758
visibility: 0.7968882918357849
","x: 250.91334533691406
y: 508.31494140625
z: 0.12998268008232117
visibility: 0.8203936219215393
","x: 289.98974609375
y: 524.4854125976562
z: 0.022305160760879517
visibility: 0.8559888005256653
","x: 251.0963897705078
y: 518.072265625
z: 0.025932401418685913
visibility: 0.9285350441932678
",,,,,,,,,,,,,,,,,,,,,,5.334811449050903,,,,,,,,,,,,,,,,,,,,,
10,"x: 261.9425048828125
y: 253.1156005859375
z: -0.26139867305755615
visibility: 0.9997544288635254
","x: 264.0346374511719
y: 248.47410583496094
z: -0.24859309196472168
visibility: 0.9990622997283936
","x: 265.4382019042969
y: 248.59585571289062
z: -0.24861113727092743
visibility: 0.9988426566123962
","x: 266.62481689453125
y: 248.67486572265625
z: -0.24860401451587677
visibility: 0.9986798763275146
","x: 259.84515380859375
y: 248.74795532226562
z: -0.2485085278749466
visibility: 0.9994000792503357
","x: 258.3656311035156
y: 249.03053283691406
z: -0.24853286147117615
visibility: 0.9993645548820496
","x: 257.02008056640625
y: 249.3612518310547
z: -0.24851854145526886
visibility: 0.9994077086448669
","x: 268.493896484375
y: 252.5260009765625
z: -0.16135667264461517
visibility: 0.995424747467041
","x: 255.36927795410156
y: 254.10577392578125
z: -0.1643386036157608
visibility: 0.9985791444778442
","x: 264.4450988769531
y: 260.5574951171875
z: -0.22992756962776184
visibility: 0.998967170715332
","x: 259.2935791015625
y: 261.01116943359375
z: -0.22976264357566833
visibility: 0.9995085597038269
","x: 278.57989501953125
y: 288.66400146484375
z: -0.09640471637248993
visibility: 0.9993135333061218
","x: 243.47877502441406
y: 292.1780700683594
z: -0.0880691260099411
visibility: 0.9997559785842896
","x: 283.30633544921875
y: 333.5644226074219
z: -0.06953750550746918
visibility: 0.9421703815460205
","x: 236.7201690673828
y: 336.5188293457031
z: -0.046810053288936615
visibility: 0.9846320152282715
","x: 279.87371826171875
y: 369.9026184082031
z: -0.16832932829856873
visibility: 0.9378213882446289
","x: 239.88543701171875
y: 370.6666259765625
z: -0.12396460771560669
visibility: 0.9498004913330078
","x: 279.32427978515625
y: 384.0382385253906
z: -0.20033791661262512
visibility: 0.8873406648635864
","x: 238.50003051757812
y: 384.6488952636719
z: -0.1497470885515213
visibility: 0.9047154784202576
","x: 275.745849609375
y: 383.7596130371094
z: -0.22415295243263245
visibility: 0.8942119479179382
","x: 241.3463134765625
y: 382.7746276855469
z: -0.17328719794750214
visibility: 0.905605137348175
","x: 275.5118713378906
y: 379.4839172363281
z: -0.1790994107723236
visibility: 0.8684961199760437
","x: 242.55690002441406
y: 378.1105041503906
z: -0.13444466888904572
visibility: 0.8764371871948242
","x: 271.89825439453125
y: 376.9456481933594
z: 0.0062354258261621
visibility: 0.9974992871284485
","x: 251.0657196044922
y: 378.1131591796875
z: -0.006257263477891684
visibility: 0.9989439845085144
","x: 278.06671142578125
y: 445.4537658691406
z: 0.016311772167682648
visibility: 0.8315685987472534
","x: 250.0705108642578
y: 444.3177490234375
z: -0.0010805714409798384
visibility: 0.9116166234016418
","x: 284.27874755859375
y: 506.2629699707031
z: 0.1239229068160057
visibility: 0.821202278137207
","x: 250.51663208007812
y: 500.9094543457031
z: 0.12397994846105576
visibility: 0.9432989358901978
","x: 281.7499694824219
y: 516.349609375
z: 0.12837150692939758
visibility: 0.7968882918357849
","x: 250.91334533691406
y: 508.31494140625
z: 0.12998268008232117
visibility: 0.8203936219215393
","x: 289.98974609375
y: 524.4854125976562
z: 0.022305160760879517
visibility: 0.8559888005256653
","x: 251.0963897705078
y: 518.072265625
z: 0.025932401418685913
visibility: 0.9285350441932678
",,,,,,,,,,,,,,,,,,,,,,5.334811449050903,,,,,,,,,,,,,,,,,,,,,
11,"x: 265.85052490234375
y: 254.05853271484375
z: -0.2531242370605469
visibility: 0.9997787475585938
","x: 267.97265625
y: 249.37225341796875
z: -0.23954102396965027
visibility: 0.9991555213928223
","x: 269.5381164550781
y: 249.6171417236328
z: -0.23955929279327393
visibility: 0.9989577531814575
","x: 270.8489685058594
y: 249.8489990234375
z: -0.23955535888671875
visibility: 0.9988111257553101
","x: 263.7286071777344
y: 249.47450256347656
z: -0.23897027969360352
visibility: 0.9994595646858215
","x: 262.3182067871094
y: 249.63929748535156
z: -0.23899833858013153
visibility: 0.9994274973869324
","x: 261.1600646972656
y: 249.9267578125
z: -0.23898927867412567
visibility: 0.9994662404060364
","x: 272.7627868652344
y: 253.421142578125
z: -0.14440013468265533
visibility: 0.9958807826042175
","x: 259.4032897949219
y: 254.38473510742188
z: -0.14136798679828644
visibility: 0.9987204074859619
","x: 268.27978515625
y: 261.5267639160156
z: -0.21666166186332703
visibility: 0.9990701675415039
","x: 263.2100830078125
y: 261.608154296875
z: -0.21590252220630646
visibility: 0.9995574951171875
","x: 282.71966552734375
y: 288.8741455078125
z: -0.0879080593585968
visibility: 0.9993812441825867
","x: 248.5615234375
y: 290.8758850097656
z: -0.07686823606491089
visibility: 0.9997777938842773
","x: 288.4007568359375
y: 332.8359680175781
z: -0.10343041270971298
visibility: 0.9472249150276184
","x: 240.53546142578125
y: 334.1861267089844
z: -0.09330233931541443
visibility: 0.985108494758606
","x: 279.1938781738281
y: 357.433349609375
z: -0.2584293484687805
visibility: 0.9431757926940918
","x: 248.85354614257812
y: 357.6593322753906
z: -0.2618440091609955
visibility: 0.9526095986366272
","x: 277.6920166015625
y: 370.001953125
z: -0.300119549036026
visibility: 0.8968481421470642
","x: 250.92587280273438
y: 368.059326171875
z: -0.3037707805633545
visibility: 0.9102048873901367
","x: 274.2891845703125
y: 365.748779296875
z: -0.31741049885749817
visibility: 0.903100848197937
","x: 254.68568420410156
y: 364.4002990722656
z: -0.3174639046192169
visibility: 0.9109569191932678
","x: 275.1992492675781
y: 362.21484375
z: -0.26801398396492004
visibility: 0.8788986802101135
","x: 254.7181854248047
y: 360.8692626953125
z: -0.2700555920600891
visibility: 0.8828071355819702
","x: 274.3047790527344
y: 377.7844543457031
z: 0.003905645338818431
visibility: 0.9977458715438843
","x: 253.15786743164062
y: 378.09039306640625
z: -0.003952827304601669
visibility: 0.9990441799163818
","x: 280.8988952636719
y: 445.88763427734375
z: -0.02436518296599388
visibility: 0.8482359647750854
","x: 248.63462829589844
y: 443.59625244140625
z: -0.014630438759922981
visibility: 0.9203141927719116
","x: 285.4446105957031
y: 506.9776611328125
z: 0.10947825014591217
visibility: 0.8388382196426392
","x: 247.622314453125
y: 497.9197692871094
z: 0.17327244579792023
visibility: 0.9485223293304443
","x: 282.8141174316406
y: 516.7607421875
z: 0.11683198064565659
visibility: 0.8132441639900208
","x: 248.91641235351562
y: 502.4345703125
z: 0.187668114900589
visibility: 0.8298081755638123
","x: 291.4294738769531
y: 526.669189453125
z: 0.008079661056399345
visibility: 0.8698833584785461
","x: 247.6429443359375
y: 518.793701171875
z: 0.09574638307094574
visibility: 0.9347872138023376
",,,,,,,,,,,,,,,,,,,,,,5.42788290977478,,,,,,,,,,,,,,,,,,,,,
12,"x: 265.85052490234375
y: 254.05853271484375
z: -0.2531242370605469
visibility: 0.9997787475585938
","x: 267.97265625
y: 249.37225341796875
z: -0.23954102396965027
visibility: 0.9991555213928223
","x: 269.5381164550781
y: 249.6171417236328
z: -0.23955929279327393
visibility: 0.9989577531814575
","x: 270.8489685058594
y: 249.8489990234375
z: -0.23955535888671875
visibility: 0.9988111257553101
","x: 263.7286071777344
y: 249.47450256347656
z: -0.23897027969360352
visibility: 0.9994595646858215
","x: 262.3182067871094
y: 249.63929748535156
z: -0.23899833858013153
visibility: 0.9994274973869324
","x: 261.1600646972656
y: 249.9267578125
z: -0.23898927867412567
visibility: 0.9994662404060364
","x: 272.7627868652344
y: 253.421142578125
z: -0.14440013468265533
visibility: 0.9958807826042175
","x: 259.4032897949219
y: 254.38473510742188
z: -0.14136798679828644
visibility: 0.9987204074859619
","x: 268.27978515625
y: 261.5267639160156
z: -0.21666166186332703
visibility: 0.9990701675415039
","x: 263.2100830078125
y: 261.608154296875
z: -0.21590252220630646
visibility: 0.9995574951171875
","x: 282.71966552734375
y: 288.8741455078125
z: -0.0879080593585968
visibility: 0.9993812441825867
","x: 248.5615234375
y: 290.8758850097656
z: -0.07686823606491089
visibility: 0.9997777938842773
","x: 288.4007568359375
y: 332.8359680175781
z: -0.10343041270971298
visibility: 0.9472249150276184
","x: 240.53546142578125
y: 334.1861267089844
z: -0.09330233931541443
visibility: 0.985108494758606
","x: 279.1938781738281
y: 357.433349609375
z: -0.2584293484687805
visibility: 0.9431757926940918
","x: 248.85354614257812
y: 357.6593322753906
z: -0.2618440091609955
visibility: 0.9526095986366272
","x: 277.6920166015625
y: 370.001953125
z: -0.300119549036026
visibility: 0.8968481421470642
","x: 250.92587280273438
y: 368.059326171875
z: -0.3037707805633545
visibility: 0.9102048873901367
","x: 274.2891845703125
y: 365.748779296875
z: -0.31741049885749817
visibility: 0.903100848197937
","x: 254.68568420410156
y: 364.4002990722656
z: -0.3174639046192169
visibility: 0.9109569191932678
","x: 275.1992492675781
y: 362.21484375
z: -0.26801398396492004
visibility: 0.8788986802101135
","x: 254.7181854248047
y: 360.8692626953125
z: -0.2700555920600891
visibility: 0.8828071355819702
","x: 274.3047790527344
y: 377.7844543457031
z: 0.003905645338818431
visibility: 0.9977458715438843
","x: 253.15786743164062
y: 378.09039306640625
z: -0.003952827304601669
visibility: 0.9990441799163818
","x: 280.8988952636719
y: 445.88763427734375
z: -0.02436518296599388
visibility: 0.8482359647750854
","x: 248.63462829589844
y: 443.59625244140625
z: -0.014630438759922981
visibility: 0.9203141927719116
","x: 285.4446105957031
y: 506.9776611328125
z: 0.10947825014591217
visibility: 0.8388382196426392
","x: 247.622314453125
y: 497.9197692871094
z: 0.17327244579792023
visibility: 0.9485223293304443
","x: 282.8141174316406
y: 516.7607421875
z: 0.11683198064565659
visibility: 0.8132441639900208
","x: 248.91641235351562
y: 502.4345703125
z: 0.187668114900589
visibility: 0.8298081755638123
","x: 291.4294738769531
y: 526.669189453125
z: 0.008079661056399345
visibility: 0.8698833584785461
","x: 247.6429443359375
y: 518.793701171875
z: 0.09574638307094574
visibility: 0.9347872138023376
",,,,,,,,,,,,,,,,,,,,,,5.42788290977478,,,,,,,,,,,,,,,,,,,,,
13,"x: 267.48455810546875
y: 254.87384033203125
z: -0.25296467542648315
visibility: 0.9997999668121338
","x: 269.5872802734375
y: 249.89341735839844
z: -0.239188551902771
visibility: 0.9992380738258362
","x: 271.0412292480469
y: 250.1280059814453
z: -0.23921260237693787
visibility: 0.9990596771240234
","x: 272.37152099609375
y: 250.4205322265625
z: -0.23922400176525116
visibility: 0.9989272356033325
","x: 265.760009765625
y: 249.73458862304688
z: -0.23859846591949463
visibility: 0.9995118975639343
","x: 264.3633117675781
y: 249.79391479492188
z: -0.23862627148628235
visibility: 0.9994827508926392
","x: 262.8740539550781
y: 249.95523071289062
z: -0.23862597346305847
visibility: 0.9995173811912537
","x: 274.41357421875
y: 253.93115234375
z: -0.14365513622760773
visibility: 0.996288001537323
","x: 260.5166015625
y: 254.43946838378906
z: -0.14012084901332855
visibility: 0.998845636844635
","x: 269.2682189941406
y: 262.60772705078125
z: -0.21592994034290314
visibility: 0.9991613626480103
","x: 264.8994140625
y: 262.2749938964844
z: -0.21510586142539978
visibility: 0.9996001720428467
","x: 283.5330505371094
y: 289.44927978515625
z: -0.08522512018680573
visibility: 0.9994356632232666
","x: 250.47254943847656
y: 288.4880676269531
z: -0.07463710010051727
visibility: 0.9997904300689697
","x: 288.8059997558594
y: 333.62384033203125
z: -0.12847700715065002
visibility: 0.9507071375846863
","x: 243.49411010742188
y: 332.17596435546875
z: -0.10830789804458618
visibility: 0.9829102158546448
","x: 277.0245666503906
y: 350.19244384765625
z: -0.2796693742275238
visibility: 0.945300817489624
","x: 254.05706787109375
y: 345.93328857421875
z: -0.2640523910522461
visibility: 0.9511680006980896
","x: 272.43096923828125
y: 358.48828125
z: -0.31805169582366943
visibility: 0.9006127715110779
","x: 258.9434509277344
y: 355.8684997558594
z: -0.30189937353134155
visibility: 0.9090960025787354
","x: 269.4988098144531
y: 352.79931640625
z: -0.329858660697937
visibility: 0.9063759446144104
","x: 262.5389404296875
y: 351.32513427734375
z: -0.31133371591567993
visibility: 0.9095526337623596
","x: 271.305908203125
y: 350.06549072265625
z: -0.28680741786956787
visibility: 0.8814137578010559
","x: 262.5180969238281
y: 348.2475280761719
z: -0.27008095383644104
visibility: 0.8799147605895996
","x: 275.1300048828125
y: 378.74871826171875
z: -0.001855890965089202
visibility: 0.9979627132415771
","x: 253.51109313964844
y: 377.6248779296875
z: 0.0018353263149037957
visibility: 0.99913090467453
","x: 281.3613586425781
y: 446.5357666015625
z: -0.027918357402086258
visibility: 0.8631544709205627
","x: 245.26336669921875
y: 442.76971435546875
z: 0.014480520971119404
visibility: 0.9281207919120789
","x: 285.4019775390625
y: 507.8019714355469
z: 0.08587812632322311
visibility: 0.8547156453132629
","x: 239.13677978515625
y: 497.88812255859375
z: 0.17366454005241394
visibility: 0.9535081386566162
","x: 282.232421875
y: 517.7218017578125
z: 0.09061175584793091
visibility: 0.8282755017280579
","x: 240.5897674560547
y: 502.9898376464844
z: 0.1838548481464386
visibility: 0.8434826731681824
","x: 291.7684631347656
y: 528.162109375
z: -0.016144458204507828
visibility: 0.882347047328949
","x: 232.6680908203125
y: 519.42919921875
z: 0.09175252169370651
visibility: 0.9408611059188843
",,,,,,,,,,,,,,,,,,,,,,5.522379398345947,,,,,,,,,,,,,,,,,,,,,
14,"x: 267.48455810546875
y: 254.87384033203125
z: -0.25296467542648315
visibility: 0.9997999668121338
","x: 269.5872802734375
y: 249.89341735839844
z: -0.239188551902771
visibility: 0.9992380738258362
","x: 271.0412292480469
y: 250.1280059814453
z: -0.23921260237693787
visibility: 0.9990596771240234
","x: 272.37152099609375
y: 250.4205322265625
z: -0.23922400176525116
visibility: 0.9989272356033325
","x: 265.760009765625
y: 249.73458862304688
z: -0.23859846591949463
visibility: 0.9995118975639343
","x: 264.3633117675781
y: 249.79391479492188
z: -0.23862627148628235
visibility: 0.9994827508926392
","x: 262.8740539550781
y: 249.95523071289062
z: -0.23862597346305847
visibility: 0.9995173811912537
","x: 274.41357421875
y: 253.93115234375
z: -0.14365513622760773
visibility: 0.996288001537323
","x: 260.5166015625
y: 254.43946838378906
z: -0.14012084901332855
visibility: 0.998845636844635
","x: 269.2682189941406
y: 262.60772705078125
z: -0.21592994034290314
visibility: 0.9991613626480103
","x: 264.8994140625
y: 262.2749938964844
z: -0.21510586142539978
visibility: 0.9996001720428467
","x: 283.5330505371094
y: 289.44927978515625
z: -0.08522512018680573
visibility: 0.9994356632232666
","x: 250.47254943847656
y: 288.4880676269531
z: -0.07463710010051727
visibility: 0.9997904300689697
","x: 288.8059997558594
y: 333.62384033203125
z: -0.12847700715065002
visibility: 0.9507071375846863
","x: 243.49411010742188
y: 332.17596435546875
z: -0.10830789804458618
visibility: 0.9829102158546448
","x: 277.0245666503906
y: 350.19244384765625
z: -0.2796693742275238
visibility: 0.945300817489624
","x: 254.05706787109375
y: 345.93328857421875
z: -0.2640523910522461
visibility: 0.9511680006980896
","x: 272.43096923828125
y: 358.48828125
z: -0.31805169582366943
visibility: 0.9006127715110779
","x: 258.9434509277344
y: 355.8684997558594
z: -0.30189937353134155
visibility: 0.9090960025787354
","x: 269.4988098144531
y: 352.79931640625
z: -0.329858660697937
visibility: 0.9063759446144104
","x: 262.5389404296875
y: 351.32513427734375
z: -0.31133371591567993
visibility: 0.9095526337623596
","x: 271.305908203125
y: 350.06549072265625
z: -0.28680741786956787
visibility: 0.8814137578010559
","x: 262.5180969238281
y: 348.2475280761719
z: -0.27008095383644104
visibility: 0.8799147605895996
","x: 275.1300048828125
y: 378.74871826171875
z: -0.001855890965089202
visibility: 0.9979627132415771
","x: 253.51109313964844
y: 377.6248779296875
z: 0.0018353263149037957
visibility: 0.99913090467453
","x: 281.3613586425781
y: 446.5357666015625
z: -0.027918357402086258
visibility: 0.8631544709205627
","x: 245.26336669921875
y: 442.76971435546875
z: 0.014480520971119404
visibility: 0.9281207919120789
","x: 285.4019775390625
y: 507.8019714355469
z: 0.08587812632322311
visibility: 0.8547156453132629
","x: 239.13677978515625
y: 497.88812255859375
z: 0.17366454005241394
visibility: 0.9535081386566162
","x: 282.232421875
y: 517.7218017578125
z: 0.09061175584793091
visibility: 0.8282755017280579
","x: 240.5897674560547
y: 502.9898376464844
z: 0.1838548481464386
visibility: 0.8434826731681824
","x: 291.7684631347656
y: 528.162109375
z: -0.016144458204507828
visibility: 0.882347047328949
","x: 232.6680908203125
y: 519.42919921875
z: 0.09175252169370651
visibility: 0.9408611059188843
",,,,,,,,,,,,,,,,,,,,,,5.522379398345947,,,,,,,,,,,,,,,,,,,,,
15,"x: 265.90777587890625
y: 255.23733520507812
z: -0.2478475570678711
visibility: 0.9998193979263306
","x: 268.15216064453125
y: 250.05404663085938
z: -0.23291261494159698
visibility: 0.9993134140968323
","x: 269.4002685546875
y: 250.28733825683594
z: -0.2329341173171997
visibility: 0.999152660369873
","x: 270.74951171875
y: 250.5685577392578
z: -0.23294532299041748
visibility: 0.9990331530570984
","x: 263.80609130859375
y: 249.8419952392578
z: -0.23430688679218292
visibility: 0.9995598793029785
","x: 262.1487731933594
y: 249.89736938476562
z: -0.23434588313102722
visibility: 0.9995335936546326
","x: 260.695556640625
y: 250.04905700683594
z: -0.23435655236244202
visibility: 0.9995647072792053
","x: 272.7997131347656
y: 254.06411743164062
z: -0.127701535820961
visibility: 0.9966567158699036
","x: 258.55999755859375
y: 254.49449157714844
z: -0.13462817668914795
visibility: 0.9989602565765381
","x: 268.124755859375
y: 263.012939453125
z: -0.20695772767066956
visibility: 0.9992443919181824
","x: 262.9222412109375
y: 262.71343994140625
z: -0.20912465453147888
visibility: 0.999639630317688
","x: 282.5494384765625
y: 289.4619140625
z: -0.0503857247531414
visibility: 0.9994884729385376
","x: 248.1974639892578
y: 287.92059326171875
z: -0.07692413032054901
visibility: 0.9998084306716919
","x: 287.0260925292969
y: 333.5250244140625
z: -0.09487508237361908
visibility: 0.9533438682556152
","x: 241.2311553955078
y: 331.56634521484375
z: -0.13196618854999542
visibility: 0.9832653403282166
","x: 273.3134460449219
y: 349.6270751953125
z: -0.25521522760391235
visibility: 0.9468907713890076
","x: 255.76943969726562
y: 342.39581298828125
z: -0.28430235385894775
visibility: 0.952600359916687
","x: 268.3265686035156
y: 357.99212646484375
z: -0.29414814710617065
visibility: 0.9029214978218079
","x: 260.99554443359375
y: 351.705322265625
z: -0.32331588864326477
visibility: 0.9114205837249756
","x: 266.1791076660156
y: 352.71124267578125
z: -0.3056759238243103
visibility: 0.9082721471786499
","x: 263.7149353027344
y: 346.77288818359375
z: -0.3293013572692871
visibility: 0.9116654992103577
","x: 267.6373291015625
y: 349.6986389160156
z: -0.2628437578678131
visibility: 0.8824440836906433
","x: 262.4302062988281
y: 343.6947326660156
z: -0.2883850932121277
visibility: 0.8812576532363892
","x: 272.93475341796875
y: 378.64862060546875
z: 0.0042852493934333324
visibility: 0.9981572031974792
","x: 251.73739624023438
y: 377.5503234863281
z: -0.004373069852590561
visibility: 0.9992114305496216
","x: 279.12689208984375
y: 446.6369934082031
z: 0.01018627267330885
visibility: 0.8765536546707153
","x: 242.74191284179688
y: 443.38720703125
z: 0.001438412582501769
visibility: 0.9351826906204224
","x: 284.7332458496094
y: 508.27557373046875
z: 0.13800252974033356
visibility: 0.8690280318260193
","x: 230.04443359375
y: 505.240966796875
z: 0.10390347242355347
visibility: 0.9580273032188416
","x: 281.67926025390625
y: 518.8056030273438
z: 0.14295779168605804
visibility: 0.8423883318901062
","x: 229.75054931640625
y: 513.2391967773438
z: 0.10933546721935272
visibility: 0.8528972268104553
","x: 292.0690002441406
y: 529.2235717773438
z: -0.010434544645249844
visibility: 0.8935593366622925
","x: 228.2790985107422
y: 527.1671142578125
z: -0.005635422188788652
visibility: 0.946351170539856
",,,,,,,,,,,,,,,,,,,,,,5.629831552505493,,,,,,,,,,,,,,,,,,,,,
16,"x: 265.90777587890625
y: 255.23733520507812
z: -0.2478475570678711
visibility: 0.9998193979263306
","x: 268.15216064453125
y: 250.05404663085938
z: -0.23291261494159698
visibility: 0.9993134140968323
","x: 269.4002685546875
y: 250.28733825683594
z: -0.2329341173171997
visibility: 0.999152660369873
","x: 270.74951171875
y: 250.5685577392578
z: -0.23294532299041748
visibility: 0.9990331530570984
","x: 263.80609130859375
y: 249.8419952392578
z: -0.23430688679218292
visibility: 0.9995598793029785
","x: 262.1487731933594
y: 249.89736938476562
z: -0.23434588313102722
visibility: 0.9995335936546326
","x: 260.695556640625
y: 250.04905700683594
z: -0.23435655236244202
visibility: 0.9995647072792053
","x: 272.7997131347656
y: 254.06411743164062
z: -0.127701535820961
visibility: 0.9966567158699036
","x: 258.55999755859375
y: 254.49449157714844
z: -0.13462817668914795
visibility: 0.9989602565765381
","x: 268.124755859375
y: 263.012939453125
z: -0.20695772767066956
visibility: 0.9992443919181824
","x: 262.9222412109375
y: 262.71343994140625
z: -0.20912465453147888
visibility: 0.999639630317688
","x: 282.5494384765625
y: 289.4619140625
z: -0.0503857247531414
visibility: 0.9994884729385376
","x: 248.1974639892578
y: 287.92059326171875
z: -0.07692413032054901
visibility: 0.9998084306716919
","x: 287.0260925292969
y: 333.5250244140625
z: -0.09487508237361908
visibility: 0.9533438682556152
","x: 241.2311553955078
y: 331.56634521484375
z: -0.13196618854999542
visibility: 0.9832653403282166
","x: 273.3134460449219
y: 349.6270751953125
z: -0.25521522760391235
visibility: 0.9468907713890076
","x: 255.76943969726562
y: 342.39581298828125
z: -0.28430235385894775
visibility: 0.952600359916687
","x: 268.3265686035156
y: 357.99212646484375
z: -0.29414814710617065
visibility: 0.9029214978218079
","x: 260.99554443359375
y: 351.705322265625
z: -0.32331588864326477
visibility: 0.9114205837249756
","x: 266.1791076660156
y: 352.71124267578125
z: -0.3056759238243103
visibility: 0.9082721471786499
","x: 263.7149353027344
y: 346.77288818359375
z: -0.3293013572692871
visibility: 0.9116654992103577
","x: 267.6373291015625
y: 349.6986389160156
z: -0.2628437578678131
visibility: 0.8824440836906433
","x: 262.4302062988281
y: 343.6947326660156
z: -0.2883850932121277
visibility: 0.8812576532363892
","x: 272.93475341796875
y: 378.64862060546875
z: 0.0042852493934333324
visibility: 0.9981572031974792
","x: 251.73739624023438
y: 377.5503234863281
z: -0.004373069852590561
visibility: 0.9992114305496216
","x: 279.12689208984375
y: 446.6369934082031
z: 0.01018627267330885
visibility: 0.8765536546707153
","x: 242.74191284179688
y: 443.38720703125
z: 0.001438412582501769
visibility: 0.9351826906204224
","x: 284.7332458496094
y: 508.27557373046875
z: 0.13800252974033356
visibility: 0.8690280318260193
","x: 230.04443359375
y: 505.240966796875
z: 0.10390347242355347
visibility: 0.9580273032188416
","x: 281.67926025390625
y: 518.8056030273438
z: 0.14295779168605804
visibility: 0.8423883318901062
","x: 229.75054931640625
y: 513.2391967773438
z: 0.10933546721935272
visibility: 0.8528972268104553
","x: 292.0690002441406
y: 529.2235717773438
z: -0.010434544645249844
visibility: 0.8935593366622925
","x: 228.2790985107422
y: 527.1671142578125
z: -0.005635422188788652
visibility: 0.946351170539856
",,,,,,,,,,,,,,,,,,,,,,5.629831552505493,,,,,,,,,,,,,,,,,,,,,
17,"x: 263.2088317871094
y: 258.1040344238281
z: -0.2743021845817566
visibility: 0.9998371601104736
","x: 266.3773193359375
y: 252.14883422851562
z: -0.2574578523635864
visibility: 0.999381422996521
","x: 267.8649597167969
y: 252.4766845703125
z: -0.2574790120124817
visibility: 0.9992367029190063
","x: 269.0372619628906
y: 252.8647003173828
z: -0.25750595331192017
visibility: 0.999129056930542
","x: 262.2193603515625
y: 251.54432678222656
z: -0.26472729444503784
visibility: 0.9996031522750854
","x: 260.7042236328125
y: 251.3834228515625
z: -0.26475515961647034
visibility: 0.9995794296264648
","x: 258.96630859375
y: 251.27027893066406
z: -0.26476892828941345
visibility: 0.999607264995575
","x: 270.03411865234375
y: 256.63861083984375
z: -0.1428101807832718
visibility: 0.9969886541366577
","x: 255.09779357910156
y: 255.04696655273438
z: -0.1776062250137329
visibility: 0.9990631341934204
","x: 263.5572204589844
y: 265.9720458984375
z: -0.22990667819976807
visibility: 0.9993194341659546
","x: 259.1379089355469
y: 265.14202880859375
z: -0.2396106719970703
visibility: 0.9996752142906189
","x: 274.88543701171875
y: 290.73297119140625
z: -0.0517268106341362
visibility: 0.9995384216308594
","x: 241.81935119628906
y: 288.3910827636719
z: -0.1483369767665863
visibility: 0.999825119972229
","x: 276.83624267578125
y: 334.8544921875
z: -0.06324794888496399
visibility: 0.955580472946167
","x: 241.88143920898438
y: 334.89642333984375
z: -0.16225408017635345
visibility: 0.9843222498893738
","x: 268.9650573730469
y: 366.4264221191406
z: -0.21410326659679413
visibility: 0.9498392939567566
","x: 257.7214660644531
y: 367.6043395996094
z: -0.2453329861164093
visibility: 0.9559850692749023
","x: 266.5049133300781
y: 380.66949462890625
z: -0.24761545658111572
visibility: 0.9078144431114197
","x: 260.2747497558594
y: 381.415283203125
z: -0.27885201573371887
visibility: 0.9172459244728088
","x: 263.7087097167969
y: 378.5799560546875
z: -0.26690447330474854
visibility: 0.9128878712654114
","x: 263.1712646484375
y: 380.435791015625
z: -0.2905659079551697
visibility: 0.9174371361732483
","x: 264.5268249511719
y: 371.6481018066406
z: -0.22322948276996613
visibility: 0.8881298303604126
","x: 262.7630310058594
y: 374.42694091796875
z: -0.2519056499004364
visibility: 0.8881837725639343
","x: 266.82135009765625
y: 378.57720947265625
z: 0.026382645592093468
visibility: 0.9983357787132263
","x: 245.5061492919922
y: 377.4842529296875
z: -0.02644476294517517
visibility: 0.9992836117744446
","x: 278.0166015625
y: 445.86041259765625
z: 0.03019200637936592
visibility: 0.8885223865509033
","x: 237.1562957763672
y: 446.6083984375
z: -0.028420811519026756
visibility: 0.941436231136322
","x: 284.0382385253906
y: 507.17974853515625
z: 0.1629997193813324
visibility: 0.8817898631095886
","x: 226.54156494140625
y: 509.05865478515625
z: 0.08330100774765015
visibility: 0.9620093703269958
","x: 280.1503601074219
y: 517.1161499023438
z: 0.16975072026252747
visibility: 0.8552212715148926
","x: 225.70431518554688
y: 516.98779296875
z: 0.08932780474424362
visibility: 0.8585917353630066
","x: 292.8179626464844
y: 530.4178466796875
z: 0.06388096511363983
visibility: 0.9033716320991516
","x: 226.91029357910156
y: 530.483642578125
z: -0.023516546934843063
visibility: 0.9511076807975769
",,,,,,,,,,,,,,,,,,,,,,5.8020617961883545,,,,,,,,,,,,,,,,,,,,,
18,"x: 263.2088317871094
y: 258.1040344238281
z: -0.2743021845817566
visibility: 0.9998371601104736
","x: 266.3773193359375
y: 252.14883422851562
z: -0.2574578523635864
visibility: 0.999381422996521
","x: 267.8649597167969
y: 252.4766845703125
z: -0.2574790120124817
visibility: 0.9992367029190063
","x: 269.0372619628906
y: 252.8647003173828
z: -0.25750595331192017
visibility: 0.999129056930542
","x: 262.2193603515625
y: 251.54432678222656
z: -0.26472729444503784
visibility: 0.9996031522750854
","x: 260.7042236328125
y: 251.3834228515625
z: -0.26475515961647034
visibility: 0.9995794296264648
","x: 258.96630859375
y: 251.27027893066406
z: -0.26476892828941345
visibility: 0.999607264995575
","x: 270.03411865234375
y: 256.63861083984375
z: -0.1428101807832718
visibility: 0.9969886541366577
","x: 255.09779357910156
y: 255.04696655273438
z: -0.1776062250137329
visibility: 0.9990631341934204
","x: 263.5572204589844
y: 265.9720458984375
z: -0.22990667819976807
visibility: 0.9993194341659546
","x: 259.1379089355469
y: 265.14202880859375
z: -0.2396106719970703
visibility: 0.9996752142906189
","x: 274.88543701171875
y: 290.73297119140625
z: -0.0517268106341362
visibility: 0.9995384216308594
","x: 241.81935119628906
y: 288.3910827636719
z: -0.1483369767665863
visibility: 0.999825119972229
","x: 276.83624267578125
y: 334.8544921875
z: -0.06324794888496399
visibility: 0.955580472946167
","x: 241.88143920898438
y: 334.89642333984375
z: -0.16225408017635345
visibility: 0.9843222498893738
","x: 268.9650573730469
y: 366.4264221191406
z: -0.21410326659679413
visibility: 0.9498392939567566
","x: 257.7214660644531
y: 367.6043395996094
z: -0.2453329861164093
visibility: 0.9559850692749023
","x: 266.5049133300781
y: 380.66949462890625
z: -0.24761545658111572
visibility: 0.9078144431114197
","x: 260.2747497558594
y: 381.415283203125
z: -0.27885201573371887
visibility: 0.9172459244728088
","x: 263.7087097167969
y: 378.5799560546875
z: -0.26690447330474854
visibility: 0.9128878712654114
","x: 263.1712646484375
y: 380.435791015625
z: -0.2905659079551697
visibility: 0.9174371361732483
","x: 264.5268249511719
y: 371.6481018066406
z: -0.22322948276996613
visibility: 0.8881298303604126
","x: 262.7630310058594
y: 374.42694091796875
z: -0.2519056499004364
visibility: 0.8881837725639343
","x: 266.82135009765625
y: 378.57720947265625
z: 0.026382645592093468
visibility: 0.9983357787132263
","x: 245.5061492919922
y: 377.4842529296875
z: -0.02644476294517517
visibility: 0.9992836117744446
","x: 278.0166015625
y: 445.86041259765625
z: 0.03019200637936592
visibility: 0.8885223865509033
","x: 237.1562957763672
y: 446.6083984375
z: -0.028420811519026756
visibility: 0.941436231136322
","x: 284.0382385253906
y: 507.17974853515625
z: 0.1629997193813324
visibility: 0.8817898631095886
","x: 226.54156494140625
y: 509.05865478515625
z: 0.08330100774765015
visibility: 0.9620093703269958
","x: 280.1503601074219
y: 517.1161499023438
z: 0.16975072026252747
visibility: 0.8552212715148926
","x: 225.70431518554688
y: 516.98779296875
z: 0.08932780474424362
visibility: 0.8585917353630066
","x: 292.8179626464844
y: 530.4178466796875
z: 0.06388096511363983
visibility: 0.9033716320991516
","x: 226.91029357910156
y: 530.483642578125
z: -0.023516546934843063
visibility: 0.9511076807975769
",,,,,,,,,,,,,,,,,,,,,,5.8020617961883545,,,,,,,,,,,,,,,,,,,,,
19,"x: 258.2093200683594
y: 258.2970886230469
z: -0.26174288988113403
visibility: 0.9998533725738525
","x: 260.72674560546875
y: 252.2460174560547
z: -0.2452765703201294
visibility: 0.9994431138038635
","x: 262.2194519042969
y: 252.50729370117188
z: -0.24529656767845154
visibility: 0.9993128776550293
","x: 263.6650695800781
y: 252.8563690185547
z: -0.24532870948314667
visibility: 0.9992159605026245
","x: 256.90655517578125
y: 251.89706420898438
z: -0.2479376494884491
visibility: 0.9996426105499268
","x: 255.59274291992188
y: 251.83419799804688
z: -0.24795711040496826
visibility: 0.9996212124824524
","x: 253.93878173828125
y: 251.85739135742188
z: -0.24795635044574738
visibility: 0.9996461868286133
","x: 265.75994873046875
y: 256.5804443359375
z: -0.1394740492105484
visibility: 0.9972895383834839
","x: 251.2747802734375
y: 255.40521240234375
z: -0.15184429287910461
visibility: 0.9991563558578491
","x: 259.3323669433594
y: 265.9562072753906
z: -0.22130611538887024
visibility: 0.9993874430656433
","x: 255.2523651123047
y: 265.3589172363281
z: -0.22513532638549805
visibility: 0.9997076392173767
","x: 273.06927490234375
y: 291.8232421875
z: -0.05765390396118164
visibility: 0.9995841979980469
","x: 239.23492431640625
y: 288.4891662597656
z: -0.13401220738887787
visibility: 0.9998409748077393
","x: 277.2415466308594
y: 338.62347412109375
z: -0.07808779180049896
visibility: 0.9585533738136292
","x: 238.7853240966797
y: 335.06591796875
z: -0.15839792788028717
visibility: 0.9851289391517639
","x: 269.33880615234375
y: 374.5670166015625
z: -0.23764356970787048
visibility: 0.953366756439209
","x: 257.0736389160156
y: 368.03057861328125
z: -0.28988775610923767
visibility: 0.9587575793266296
","x: 270.0752258300781
y: 389.1302490234375
z: -0.279174268245697
visibility: 0.914364755153656
","x: 257.4730224609375
y: 381.2516784667969
z: -0.329963356256485
visibility: 0.9225937724113464
","x: 266.1552429199219
y: 385.9745788574219
z: -0.3015536069869995
visibility: 0.919029951095581
","x: 262.82598876953125
y: 378.44830322265625
z: -0.34027308225631714
visibility: 0.9226897954940796
","x: 265.1551513671875
y: 381.1416931152344
z: -0.24987351894378662
visibility: 0.8957992196083069
","x: 261.0274963378906
y: 373.3943176269531
z: -0.29574674367904663
visibility: 0.8946234583854675
","x: 265.8410949707031
y: 380.7644958496094
z: 0.02273773029446602
visibility: 0.9985007047653198
","x: 245.2433624267578
y: 379.5692443847656
z: -0.022770952433347702
visibility: 0.9993520975112915
","x: 283.9228515625
y: 440.0120544433594
z: -0.0910683274269104
visibility: 0.8995137810707092
","x: 237.02410888671875
y: 447.78515625
z: -0.04674997925758362
visibility: 0.947124183177948
","x: 284.06768798828125
y: 498.54803466796875
z: 0.08439526706933975
visibility: 0.893322229385376
","x: 226.38763427734375
y: 509.08319091796875
z: 0.09006811678409576
visibility: 0.9655648469924927
","x: 278.76708984375
y: 507.11407470703125
z: 0.09689553081989288
visibility: 0.8675025701522827
","x: 225.92018127441406
y: 516.7042236328125
z: 0.0918479785323143
visibility: 0.8641124367713928
","x: 292.5482482910156
y: 527.8768310546875
z: -0.0021528650540858507
visibility: 0.9124755859375
","x: 227.34388732910156
y: 530.926025390625
z: -0.013173973187804222
visibility: 0.9552110433578491
","x: 274.30218505859375
y: 379.3651123046875
z: 0.0
","x: 271.00689697265625
y: 379.1694641113281
z: -0.0019929734990000725
","x: 268.4258728027344
y: 381.89166259765625
z: -0.003241920843720436
","x: 266.22857666015625
y: 385.1850891113281
z: -0.00417162524536252
","x: 264.525390625
y: 387.7549743652344
z: -0.004699481185525656
","x: 270.630126953125
y: 390.93048095703125
z: -0.003646774450317025
","x: 268.52044677734375
y: 398.46148681640625
z: -0.00446447404101491
","x: 267.3053283691406
y: 398.6615295410156
z: -0.003786782966926694
","x: 267.105224609375
y: 397.61358642578125
z: -0.0029370009433478117
","x: 272.43719482421875
y: 393.52587890625
z: -0.0032852585427463055
","x: 270.1560363769531
y: 402.04718017578125
z: -0.003989663906395435
","x: 268.8486022949219
y: 402.2577209472656
z: -0.0029797551687806845
","x: 268.5437316894531
y: 400.8345947265625
z: -0.0019057048484683037
","x: 273.7361755371094
y: 394.8663330078125
z: -0.0029576881788671017
","x: 271.7320861816406
y: 402.5126647949219
z: -0.0036170731764286757
","x: 270.4627380371094
y: 402.6751708984375
z: -0.0026498830411583185
","x: 269.98529052734375
y: 401.1191101074219
z: -0.0017087387386709452
","x: 274.5706481933594
y: 395.090576171875
z: -0.00286291865631938
","x: 273.0255126953125
y: 401.417724609375
z: -0.0035986281000077724
","x: 271.8656005859375
y: 402.532958984375
z: -0.003195039229467511
","x: 271.11773681640625
y: 401.7862548828125
z: -0.002507168799638748
",5.94732403755188,,,,,,,,,,,,,,,,,,,,,
20,"x: 258.2093200683594
y: 258.2970886230469
z: -0.26174288988113403
visibility: 0.9998533725738525
","x: 260.72674560546875
y: 252.2460174560547
z: -0.2452765703201294
visibility: 0.9994431138038635
","x: 262.2194519042969
y: 252.50729370117188
z: -0.24529656767845154
visibility: 0.9993128776550293
","x: 263.6650695800781
y: 252.8563690185547
z: -0.24532870948314667
visibility: 0.9992159605026245
","x: 256.90655517578125
y: 251.89706420898438
z: -0.2479376494884491
visibility: 0.9996426105499268
","x: 255.59274291992188
y: 251.83419799804688
z: -0.24795711040496826
visibility: 0.9996212124824524
","x: 253.93878173828125
y: 251.85739135742188
z: -0.24795635044574738
visibility: 0.9996461868286133
","x: 265.75994873046875
y: 256.5804443359375
z: -0.1394740492105484
visibility: 0.9972895383834839
","x: 251.2747802734375
y: 255.40521240234375
z: -0.15184429287910461
visibility: 0.9991563558578491
","x: 259.3323669433594
y: 265.9562072753906
z: -0.22130611538887024
visibility: 0.9993874430656433
","x: 255.2523651123047
y: 265.3589172363281
z: -0.22513532638549805
visibility: 0.9997076392173767
","x: 273.06927490234375
y: 291.8232421875
z: -0.05765390396118164
visibility: 0.9995841979980469
","x: 239.23492431640625
y: 288.4891662597656
z: -0.13401220738887787
visibility: 0.9998409748077393
","x: 277.2415466308594
y: 338.62347412109375
z: -0.07808779180049896
visibility: 0.9585533738136292
","x: 238.7853240966797
y: 335.06591796875
z: -0.15839792788028717
visibility: 0.9851289391517639
","x: 269.33880615234375
y: 374.5670166015625
z: -0.23764356970787048
visibility: 0.953366756439209
","x: 257.0736389160156
y: 368.03057861328125
z: -0.28988775610923767
visibility: 0.9587575793266296
","x: 270.0752258300781
y: 389.1302490234375
z: -0.279174268245697
visibility: 0.914364755153656
","x: 257.4730224609375
y: 381.2516784667969
z: -0.329963356256485
visibility: 0.9225937724113464
","x: 266.1552429199219
y: 385.9745788574219
z: -0.3015536069869995
visibility: 0.919029951095581
","x: 262.82598876953125
y: 378.44830322265625
z: -0.34027308225631714
visibility: 0.9226897954940796
","x: 265.1551513671875
y: 381.1416931152344
z: -0.24987351894378662
visibility: 0.8957992196083069
","x: 261.0274963378906
y: 373.3943176269531
z: -0.29574674367904663
visibility: 0.8946234583854675
","x: 265.8410949707031
y: 380.7644958496094
z: 0.02273773029446602
visibility: 0.9985007047653198
","x: 245.2433624267578
y: 379.5692443847656
z: -0.022770952433347702
visibility: 0.9993520975112915
","x: 283.9228515625
y: 440.0120544433594
z: -0.0910683274269104
visibility: 0.8995137810707092
","x: 237.02410888671875
y: 447.78515625
z: -0.04674997925758362
visibility: 0.947124183177948
","x: 284.06768798828125
y: 498.54803466796875
z: 0.08439526706933975
visibility: 0.893322229385376
","x: 226.38763427734375
y: 509.08319091796875
z: 0.09006811678409576
visibility: 0.9655648469924927
","x: 278.76708984375
y: 507.11407470703125
z: 0.09689553081989288
visibility: 0.8675025701522827
","x: 225.92018127441406
y: 516.7042236328125
z: 0.0918479785323143
visibility: 0.8641124367713928
","x: 292.5482482910156
y: 527.8768310546875
z: -0.0021528650540858507
visibility: 0.9124755859375
","x: 227.34388732910156
y: 530.926025390625
z: -0.013173973187804222
visibility: 0.9552110433578491
","x: 274.30218505859375
y: 379.3651123046875
z: 0.0
","x: 271.00689697265625
y: 379.1694641113281
z: -0.0019929734990000725
","x: 268.4258728027344
y: 381.89166259765625
z: -0.003241920843720436
","x: 266.22857666015625
y: 385.1850891113281
z: -0.00417162524536252
","x: 264.525390625
y: 387.7549743652344
z: -0.004699481185525656
","x: 270.630126953125
y: 390.93048095703125
z: -0.003646774450317025
","x: 268.52044677734375
y: 398.46148681640625
z: -0.00446447404101491
","x: 267.3053283691406
y: 398.6615295410156
z: -0.003786782966926694
","x: 267.105224609375
y: 397.61358642578125
z: -0.0029370009433478117
","x: 272.43719482421875
y: 393.52587890625
z: -0.0032852585427463055
","x: 270.1560363769531
y: 402.04718017578125
z: -0.003989663906395435
","x: 268.8486022949219
y: 402.2577209472656
z: -0.0029797551687806845
","x: 268.5437316894531
y: 400.8345947265625
z: -0.0019057048484683037
","x: 273.7361755371094
y: 394.8663330078125
z: -0.0029576881788671017
","x: 271.7320861816406
y: 402.5126647949219
z: -0.0036170731764286757
","x: 270.4627380371094
y: 402.6751708984375
z: -0.0026498830411583185
","x: 269.98529052734375
y: 401.1191101074219
z: -0.0017087387386709452
","x: 274.5706481933594
y: 395.090576171875
z: -0.00286291865631938
","x: 273.0255126953125
y: 401.417724609375
z: -0.0035986281000077724
","x: 271.8656005859375
y: 402.532958984375
z: -0.003195039229467511
","x: 271.11773681640625
y: 401.7862548828125
z: -0.002507168799638748
",5.94732403755188,,,,,,,,,,,,,,,,,,,,,
21,"x: 258.2093200683594
y: 258.2970886230469
z: -0.26174288988113403
visibility: 0.9998533725738525
","x: 260.72674560546875
y: 252.2460174560547
z: -0.2452765703201294
visibility: 0.9994431138038635
","x: 262.2194519042969
y: 252.50729370117188
z: -0.24529656767845154
visibility: 0.9993128776550293
","x: 263.6650695800781
y: 252.8563690185547
z: -0.24532870948314667
visibility: 0.9992159605026245
","x: 256.90655517578125
y: 251.89706420898438
z: -0.2479376494884491
visibility: 0.9996426105499268
","x: 255.59274291992188
y: 251.83419799804688
z: -0.24795711040496826
visibility: 0.9996212124824524
","x: 253.93878173828125
y: 251.85739135742188
z: -0.24795635044574738
visibility: 0.9996461868286133
","x: 265.75994873046875
y: 256.5804443359375
z: -0.1394740492105484
visibility: 0.9972895383834839
","x: 251.2747802734375
y: 255.40521240234375
z: -0.15184429287910461
visibility: 0.9991563558578491
","x: 259.3323669433594
y: 265.9562072753906
z: -0.22130611538887024
visibility: 0.9993874430656433
","x: 255.2523651123047
y: 265.3589172363281
z: -0.22513532638549805
visibility: 0.9997076392173767
","x: 273.06927490234375
y: 291.8232421875
z: -0.05765390396118164
visibility: 0.9995841979980469
","x: 239.23492431640625
y: 288.4891662597656
z: -0.13401220738887787
visibility: 0.9998409748077393
","x: 277.2415466308594
y: 338.62347412109375
z: -0.07808779180049896
visibility: 0.9585533738136292
","x: 238.7853240966797
y: 335.06591796875
z: -0.15839792788028717
visibility: 0.9851289391517639
","x: 269.33880615234375
y: 374.5670166015625
z: -0.23764356970787048
visibility: 0.953366756439209
","x: 257.0736389160156
y: 368.03057861328125
z: -0.28988775610923767
visibility: 0.9587575793266296
","x: 270.0752258300781
y: 389.1302490234375
z: -0.279174268245697
visibility: 0.914364755153656
","x: 257.4730224609375
y: 381.2516784667969
z: -0.329963356256485
visibility: 0.9225937724113464
","x: 266.1552429199219
y: 385.9745788574219
z: -0.3015536069869995
visibility: 0.919029951095581
","x: 262.82598876953125
y: 378.44830322265625
z: -0.34027308225631714
visibility: 0.9226897954940796
","x: 265.1551513671875
y: 381.1416931152344
z: -0.24987351894378662
visibility: 0.8957992196083069
","x: 261.0274963378906
y: 373.3943176269531
z: -0.29574674367904663
visibility: 0.8946234583854675
","x: 265.8410949707031
y: 380.7644958496094
z: 0.02273773029446602
visibility: 0.9985007047653198
","x: 245.2433624267578
y: 379.5692443847656
z: -0.022770952433347702
visibility: 0.9993520975112915
","x: 283.9228515625
y: 440.0120544433594
z: -0.0910683274269104
visibility: 0.8995137810707092
","x: 237.02410888671875
y: 447.78515625
z: -0.04674997925758362
visibility: 0.947124183177948
","x: 284.06768798828125
y: 498.54803466796875
z: 0.08439526706933975
visibility: 0.893322229385376
","x: 226.38763427734375
y: 509.08319091796875
z: 0.09006811678409576
visibility: 0.9655648469924927
","x: 278.76708984375
y: 507.11407470703125
z: 0.09689553081989288
visibility: 0.8675025701522827
","x: 225.92018127441406
y: 516.7042236328125
z: 0.0918479785323143
visibility: 0.8641124367713928
","x: 292.5482482910156
y: 527.8768310546875
z: -0.0021528650540858507
visibility: 0.9124755859375
","x: 227.34388732910156
y: 530.926025390625
z: -0.013173973187804222
visibility: 0.9552110433578491
","x: 274.30218505859375
y: 379.3651123046875
z: 0.0
","x: 271.00689697265625
y: 379.1694641113281
z: -0.0019929734990000725
","x: 268.4258728027344
y: 381.89166259765625
z: -0.003241920843720436
","x: 266.22857666015625
y: 385.1850891113281
z: -0.00417162524536252
","x: 264.525390625
y: 387.7549743652344
z: -0.004699481185525656
","x: 270.630126953125
y: 390.93048095703125
z: -0.003646774450317025
","x: 268.52044677734375
y: 398.46148681640625
z: -0.00446447404101491
","x: 267.3053283691406
y: 398.6615295410156
z: -0.003786782966926694
","x: 267.105224609375
y: 397.61358642578125
z: -0.0029370009433478117
","x: 272.43719482421875
y: 393.52587890625
z: -0.0032852585427463055
","x: 270.1560363769531
y: 402.04718017578125
z: -0.003989663906395435
","x: 268.8486022949219
y: 402.2577209472656
z: -0.0029797551687806845
","x: 268.5437316894531
y: 400.8345947265625
z: -0.0019057048484683037
","x: 273.7361755371094
y: 394.8663330078125
z: -0.0029576881788671017
","x: 271.7320861816406
y: 402.5126647949219
z: -0.0036170731764286757
","x: 270.4627380371094
y: 402.6751708984375
z: -0.0026498830411583185
","x: 269.98529052734375
y: 401.1191101074219
z: -0.0017087387386709452
","x: 274.5706481933594
y: 395.090576171875
z: -0.00286291865631938
","x: 273.0255126953125
y: 401.417724609375
z: -0.0035986281000077724
","x: 271.8656005859375
y: 402.532958984375
z: -0.003195039229467511
","x: 271.11773681640625
y: 401.7862548828125
z: -0.002507168799638748
",5.94732403755188,,,,,,,,,,,,,,,,,,,,,
22,"x: 261.2084045410156
y: 256.6532287597656
z: -0.2618843615055084
visibility: 0.9998679757118225
","x: 262.9439697265625
y: 251.12738037109375
z: -0.24367067217826843
visibility: 0.9994986653327942
","x: 264.1987609863281
y: 251.30906677246094
z: -0.24369747936725616
visibility: 0.999381422996521
","x: 265.2927551269531
y: 251.54885864257812
z: -0.2437201291322708
visibility: 0.999294102191925
","x: 259.0190734863281
y: 250.96536254882812
z: -0.24675007164478302
visibility: 0.9996781945228577
","x: 257.505859375
y: 251.08689880371094
z: -0.24677643179893494
visibility: 0.9996589422225952
","x: 255.89186096191406
y: 251.28030395507812
z: -0.24677050113677979
visibility: 0.9996814131736755
","x: 267.23504638671875
y: 254.9584197998047
z: -0.1259390115737915
visibility: 0.9975600242614746
","x: 253.3587188720703
y: 255.0334014892578
z: -0.14082327485084534
visibility: 0.9992405772209167
","x: 263.2041931152344
y: 264.1818542480469
z: -0.21815693378448486
visibility: 0.9994485378265381
","x: 258.5067138671875
y: 264.0802001953125
z: -0.22250130772590637
visibility: 0.9997367858886719
","x: 275.7151184082031
y: 291.3591613769531
z: -0.03686271980404854
visibility: 0.9996245503425598
","x: 241.53736877441406
y: 288.4012756347656
z: -0.08433903753757477
visibility: 0.9998555183410645
","x: 282.06256103515625
y: 330.3768615722656
z: -0.061926793307065964
visibility: 0.9563997983932495
","x: 232.41004943847656
y: 330.7025146484375
z: -0.14032186567783356
visibility: 0.9860436320304871
","x: 282.1614074707031
y: 357.432861328125
z: -0.23888035118579865
visibility: 0.9522665143013
","x: 243.44850158691406
y: 356.7701721191406
z: -0.2792917490005493
visibility: 0.9611473083496094
","x: 281.9232482910156
y: 369.63818359375
z: -0.28260916471481323
visibility: 0.9145675301551819
","x: 245.5361328125
y: 367.3692321777344
z: -0.3202280104160309
visibility: 0.9267863631248474
","x: 279.9739990234375
y: 366.5848388671875
z: -0.3049246668815613
visibility: 0.9194319248199463
","x: 249.5657196044922
y: 363.1634521484375
z: -0.3335212767124176
visibility: 0.9269077181816101
","x: 279.17999267578125
y: 362.4234313964844
z: -0.2523263096809387
visibility: 0.8957613706588745
","x: 248.81466674804688
y: 359.69830322265625
z: -0.2867301404476166
visibility: 0.9000119566917419
","x: 269.2522277832031
y: 380.52362060546875
z: 0.02085537649691105
visibility: 0.9986451268196106
","x: 247.36398315429688
y: 379.4158935546875
z: -0.020882392302155495
visibility: 0.9994102120399475
","x: 284.79180908203125
y: 441.04473876953125
z: -0.043897710740566254
visibility: 0.9093605279922485
","x: 238.79823303222656
y: 447.9083251953125
z: -0.037975165992975235
visibility: 0.9522237777709961
","x: 294.60107421875
y: 502.9014587402344
z: 0.11929620802402496
visibility: 0.9037633538246155
","x: 226.8416748046875
y: 509.3853759765625
z: 0.12815283238887787
visibility: 0.9688007235527039
","x: 291.1914367675781
y: 510.3691101074219
z: 0.13125482201576233
visibility: 0.8777469992637634
","x: 226.5312957763672
y: 516.7452392578125
z: 0.13808085024356842
visibility: 0.8693000674247742
","x: 302.5417175292969
y: 529.3046264648438
z: 0.018002241849899292
visibility: 0.9206666946411133
","x: 226.4916534423828
y: 531.5732421875
z: 0.022445660084486008
visibility: 0.9590628147125244
",,,,,,,,,,,,,,,,,,,,,,6.087559223175049,,,,,,,,,,,,,,,,,,,,,
23,"x: 261.2084045410156
y: 256.6532287597656
z: -0.2618843615055084
visibility: 0.9998679757118225
","x: 262.9439697265625
y: 251.12738037109375
z: -0.24367067217826843
visibility: 0.9994986653327942
","x: 264.1987609863281
y: 251.30906677246094
z: -0.24369747936725616
visibility: 0.999381422996521
","x: 265.2927551269531
y: 251.54885864257812
z: -0.2437201291322708
visibility: 0.999294102191925
","x: 259.0190734863281
y: 250.96536254882812
z: -0.24675007164478302
visibility: 0.9996781945228577
","x: 257.505859375
y: 251.08689880371094
z: -0.24677643179893494
visibility: 0.9996589422225952
","x: 255.89186096191406
y: 251.28030395507812
z: -0.24677050113677979
visibility: 0.9996814131736755
","x: 267.23504638671875
y: 254.9584197998047
z: -0.1259390115737915
visibility: 0.9975600242614746
","x: 253.3587188720703
y: 255.0334014892578
z: -0.14082327485084534
visibility: 0.9992405772209167
","x: 263.2041931152344
y: 264.1818542480469
z: -0.21815693378448486
visibility: 0.9994485378265381
","x: 258.5067138671875
y: 264.0802001953125
z: -0.22250130772590637
visibility: 0.9997367858886719
","x: 275.7151184082031
y: 291.3591613769531
z: -0.03686271980404854
visibility: 0.9996245503425598
","x: 241.53736877441406
y: 288.4012756347656
z: -0.08433903753757477
visibility: 0.9998555183410645
","x: 282.06256103515625
y: 330.3768615722656
z: -0.061926793307065964
visibility: 0.9563997983932495
","x: 232.41004943847656
y: 330.7025146484375
z: -0.14032186567783356
visibility: 0.9860436320304871
","x: 282.1614074707031
y: 357.432861328125
z: -0.23888035118579865
visibility: 0.9522665143013
","x: 243.44850158691406
y: 356.7701721191406
z: -0.2792917490005493
visibility: 0.9611473083496094
","x: 281.9232482910156
y: 369.63818359375
z: -0.28260916471481323
visibility: 0.9145675301551819
","x: 245.5361328125
y: 367.3692321777344
z: -0.3202280104160309
visibility: 0.9267863631248474
","x: 279.9739990234375
y: 366.5848388671875
z: -0.3049246668815613
visibility: 0.9194319248199463
","x: 249.5657196044922
y: 363.1634521484375
z: -0.3335212767124176
visibility: 0.9269077181816101
","x: 279.17999267578125
y: 362.4234313964844
z: -0.2523263096809387
visibility: 0.8957613706588745
","x: 248.81466674804688
y: 359.69830322265625
z: -0.2867301404476166
visibility: 0.9000119566917419
","x: 269.2522277832031
y: 380.52362060546875
z: 0.02085537649691105
visibility: 0.9986451268196106
","x: 247.36398315429688
y: 379.4158935546875
z: -0.020882392302155495
visibility: 0.9994102120399475
","x: 284.79180908203125
y: 441.04473876953125
z: -0.043897710740566254
visibility: 0.9093605279922485
","x: 238.79823303222656
y: 447.9083251953125
z: -0.037975165992975235
visibility: 0.9522237777709961
","x: 294.60107421875
y: 502.9014587402344
z: 0.11929620802402496
visibility: 0.9037633538246155
","x: 226.8416748046875
y: 509.3853759765625
z: 0.12815283238887787
visibility: 0.9688007235527039
","x: 291.1914367675781
y: 510.3691101074219
z: 0.13125482201576233
visibility: 0.8777469992637634
","x: 226.5312957763672
y: 516.7452392578125
z: 0.13808085024356842
visibility: 0.8693000674247742
","x: 302.5417175292969
y: 529.3046264648438
z: 0.018002241849899292
visibility: 0.9206666946411133
","x: 226.4916534423828
y: 531.5732421875
z: 0.022445660084486008
visibility: 0.9590628147125244
",,,,,,,,,,,,,,,,,,,,,,6.087559223175049,,,,,,,,,,,,,,,,,,,,,
24,"x: 266.1150207519531
y: 256.38250732421875
z: -0.26166728138923645
visibility: 0.9998810887336731
","x: 267.9796447753906
y: 250.8887481689453
z: -0.24292290210723877
visibility: 0.999548614025116
","x: 269.2514953613281
y: 251.09799194335938
z: -0.24294288456439972
visibility: 0.999442994594574
","x: 270.4790344238281
y: 251.3566436767578
z: -0.2429606020450592
visibility: 0.9993643760681152
","x: 264.3134460449219
y: 250.56704711914062
z: -0.2472366988658905
visibility: 0.999710202217102
","x: 262.9057922363281
y: 250.5810546875
z: -0.2472640573978424
visibility: 0.9996928572654724
","x: 261.2509765625
y: 250.610595703125
z: -0.24725496768951416
visibility: 0.9997130632400513
","x: 272.18310546875
y: 254.78604125976562
z: -0.12127149105072021
visibility: 0.9978030323982239
","x: 258.38238525390625
y: 254.2808837890625
z: -0.14394494891166687
visibility: 0.9993163347244263
","x: 267.8128662109375
y: 263.87127685546875
z: -0.21542620658874512
visibility: 0.9995033740997314
","x: 263.5112609863281
y: 263.385009765625
z: -0.2218782901763916
visibility: 0.9997629523277283
","x: 279.75531005859375
y: 289.2969970703125
z: -0.020213764160871506
visibility: 0.9996598362922668
","x: 246.0733184814453
y: 287.71435546875
z: -0.08024164289236069
visibility: 0.9998681545257568
","x: 285.79290771484375
y: 327.1651611328125
z: 0.004837014712393284
visibility: 0.9493628144264221
","x: 233.81614685058594
y: 326.4825439453125
z: -0.09118571877479553
visibility: 0.9862973093986511
","x: 284.7781677246094
y: 353.6568603515625
z: -0.1336880922317505
visibility: 0.9457264542579651
","x: 243.7378692626953
y: 349.1053771972656
z: -0.21204765141010284
visibility: 0.9611901640892029
","x: 284.04852294921875
y: 365.0543212890625
z: -0.16768893599510193
visibility: 0.9065582752227783
","x: 245.4947967529297
y: 357.6925354003906
z: -0.24648654460906982
visibility: 0.9267953038215637
","x: 282.5240478515625
y: 362.36962890625
z: -0.1925514042377472
visibility: 0.9120303988456726
","x: 248.44155883789062
y: 352.70257568359375
z: -0.26465874910354614
visibility: 0.9270663857460022
","x: 281.78350830078125
y: 358.25030517578125
z: -0.14709188044071198
visibility: 0.8867900967597961
","x: 248.19906616210938
y: 350.373291015625
z: -0.22059741616249084
visibility: 0.9000897407531738
","x: 273.5085144042969
y: 380.3993225097656
z: 0.023763876408338547
visibility: 0.9987724423408508
","x: 251.965087890625
y: 379.2698974609375
z: -0.023842576891183853
visibility: 0.9994612336158752
","x: 285.1078796386719
y: 443.7698059082031
z: 0.011461143381893635
visibility: 0.9181395173072815
","x: 239.95684814453125
y: 447.38397216796875
z: -0.039258923381567
visibility: 0.9568932056427002
","x: 295.7803649902344
y: 505.7479248046875
z: 0.17063960433006287
visibility: 0.9131956100463867
","x: 226.677734375
y: 508.3001708984375
z: 0.11313555389642715
visibility: 0.9718090891838074
","x: 292.3016357421875
y: 513.4610595703125
z: 0.1800694465637207
visibility: 0.8878173232078552
","x: 226.10037231445312
y: 516.3109741210938
z: 0.12291071563959122
visibility: 0.8774898052215576
","x: 304.04742431640625
y: 530.6322021484375
z: 0.0755232572555542
visibility: 0.9281327724456787
","x: 226.42922973632812
y: 530.7406005859375
z: 0.0062352693639695644
visibility: 0.9628123044967651
",,,,,,,,,,,,,,,,,,,,,,6.247443675994873,,,,,,,,,,,,,,,,,,,,,
25,"x: 266.1150207519531
y: 256.38250732421875
z: -0.26166728138923645
visibility: 0.9998810887336731
","x: 267.9796447753906
y: 250.8887481689453
z: -0.24292290210723877
visibility: 0.999548614025116
","x: 269.2514953613281
y: 251.09799194335938
z: -0.24294288456439972
visibility: 0.999442994594574
","x: 270.4790344238281
y: 251.3566436767578
z: -0.2429606020450592
visibility: 0.9993643760681152
","x: 264.3134460449219
y: 250.56704711914062
z: -0.2472366988658905
visibility: 0.999710202217102
","x: 262.9057922363281
y: 250.5810546875
z: -0.2472640573978424
visibility: 0.9996928572654724
","x: 261.2509765625
y: 250.610595703125
z: -0.24725496768951416
visibility: 0.9997130632400513
","x: 272.18310546875
y: 254.78604125976562
z: -0.12127149105072021
visibility: 0.9978030323982239
","x: 258.38238525390625
y: 254.2808837890625
z: -0.14394494891166687
visibility: 0.9993163347244263
","x: 267.8128662109375
y: 263.87127685546875
z: -0.21542620658874512
visibility: 0.9995033740997314
","x: 263.5112609863281
y: 263.385009765625
z: -0.2218782901763916
visibility: 0.9997629523277283
","x: 279.75531005859375
y: 289.2969970703125
z: -0.020213764160871506
visibility: 0.9996598362922668
","x: 246.0733184814453
y: 287.71435546875
z: -0.08024164289236069
visibility: 0.9998681545257568
","x: 285.79290771484375
y: 327.1651611328125
z: 0.004837014712393284
visibility: 0.9493628144264221
","x: 233.81614685058594
y: 326.4825439453125
z: -0.09118571877479553
visibility: 0.9862973093986511
","x: 284.7781677246094
y: 353.6568603515625
z: -0.1336880922317505
visibility: 0.9457264542579651
","x: 243.7378692626953
y: 349.1053771972656
z: -0.21204765141010284
visibility: 0.9611901640892029
","x: 284.04852294921875
y: 365.0543212890625
z: -0.16768893599510193
visibility: 0.9065582752227783
","x: 245.4947967529297
y: 357.6925354003906
z: -0.24648654460906982
visibility: 0.9267953038215637
","x: 282.5240478515625
y: 362.36962890625
z: -0.1925514042377472
visibility: 0.9120303988456726
","x: 248.44155883789062
y: 352.70257568359375
z: -0.26465874910354614
visibility: 0.9270663857460022
","x: 281.78350830078125
y: 358.25030517578125
z: -0.14709188044071198
visibility: 0.8867900967597961
","x: 248.19906616210938
y: 350.373291015625
z: -0.22059741616249084
visibility: 0.9000897407531738
","x: 273.5085144042969
y: 380.3993225097656
z: 0.023763876408338547
visibility: 0.9987724423408508
","x: 251.965087890625
y: 379.2698974609375
z: -0.023842576891183853
visibility: 0.9994612336158752
","x: 285.1078796386719
y: 443.7698059082031
z: 0.011461143381893635
visibility: 0.9181395173072815
","x: 239.95684814453125
y: 447.38397216796875
z: -0.039258923381567
visibility: 0.9568932056427002
","x: 295.7803649902344
y: 505.7479248046875
z: 0.17063960433006287
visibility: 0.9131956100463867
","x: 226.677734375
y: 508.3001708984375
z: 0.11313555389642715
visibility: 0.9718090891838074
","x: 292.3016357421875
y: 513.4610595703125
z: 0.1800694465637207
visibility: 0.8878173232078552
","x: 226.10037231445312
y: 516.3109741210938
z: 0.12291071563959122
visibility: 0.8774898052215576
","x: 304.04742431640625
y: 530.6322021484375
z: 0.0755232572555542
visibility: 0.9281327724456787
","x: 226.42922973632812
y: 530.7406005859375
z: 0.0062352693639695644
visibility: 0.9628123044967651
",,,,,,,,,,,,,,,,,,,,,,6.247443675994873,,,,,,,,,,,,,,,,,,,,,
26,"x: 264.3720397949219
y: 256.97039794921875
z: -0.1947546899318695
visibility: 0.9998927712440491
","x: 266.223876953125
y: 251.24356079101562
z: -0.17769157886505127
visibility: 0.9995934367179871
","x: 267.471923828125
y: 251.3642120361328
z: -0.17769992351531982
visibility: 0.9994983077049255
","x: 268.6875305175781
y: 251.49583435058594
z: -0.177688866853714
visibility: 0.9994274377822876
","x: 262.4429931640625
y: 250.98562622070312
z: -0.18169482052326202
visibility: 0.9997388124465942
","x: 261.0060119628906
y: 250.92721557617188
z: -0.18170896172523499
visibility: 0.9997231364250183
","x: 259.4427490234375
y: 250.87698364257812
z: -0.1816921830177307
visibility: 0.9997413158416748
","x: 270.4698486328125
y: 254.8020782470703
z: -0.06801638752222061
visibility: 0.9980218410491943
","x: 256.7821960449219
y: 254.31210327148438
z: -0.0874517485499382
visibility: 0.999384343624115
","x: 266.24896240234375
y: 264.0845031738281
z: -0.15258382260799408
visibility: 0.9995529055595398
","x: 261.6997985839844
y: 263.96746826171875
z: -0.1584443897008896
visibility: 0.9997865557670593
","x: 278.855712890625
y: 288.8865966796875
z: 0.007943703792989254
visibility: 0.9996936917304993
","x: 245.60479736328125
y: 286.5833435058594
z: -0.02961936593055725
visibility: 0.999880850315094
","x: 287.0074768066406
y: 325.41796875
z: -0.036342818289995193
visibility: 0.9537655115127563
","x: 224.994384765625
y: 321.3531188964844
z: -0.09687034785747528
visibility: 0.9874718189239502
","x: 283.82684326171875
y: 338.2565612792969
z: -0.2692374587059021
visibility: 0.9507688283920288
","x: 240.8048095703125
y: 329.88507080078125
z: -0.2612555921077728
visibility: 0.9646639823913574
","x: 281.5283508300781
y: 347.17022705078125
z: -0.3151766061782837
visibility: 0.9149791598320007
","x: 245.45033264160156
y: 333.5091857910156
z: -0.30086809396743774
visibility: 0.9329597353935242
","x: 279.4019775390625
y: 342.9051208496094
z: -0.3189241290092468
visibility: 0.9199104905128479
","x: 248.8015899658203
y: 328.3427734375
z: -0.2999332547187805
visibility: 0.93313068151474
","x: 279.09405517578125
y: 340.19293212890625
z: -0.27478164434432983
visibility: 0.8964670896530151
","x: 248.1571807861328
y: 326.3402099609375
z: -0.2623816728591919
visibility: 0.9078990817070007
","x: 272.4600830078125
y: 379.37237548828125
z: 0.022426648065447807
visibility: 0.9988915920257568
","x: 251.0983123779297
y: 378.7112731933594
z: -0.02246650867164135
visibility: 0.9995089173316956
","x: 285.0311584472656
y: 443.9942932128906
z: -0.014938036911189556
visibility: 0.926142692565918
","x: 238.5858154296875
y: 447.57666015625
z: -0.06417915970087051
visibility: 0.9610177278518677
","x: 297.58734130859375
y: 505.5143737792969
z: 0.16017606854438782
visibility: 0.9217175245285034
","x: 221.9871826171875
y: 508.0144958496094
z: 0.07364466041326523
visibility: 0.9744530916213989
","x: 294.4515075683594
y: 513.2109375
z: 0.1678626388311386
visibility: 0.8954121470451355
","x: 218.8848876953125
y: 515.544677734375
z: 0.08250601589679718
visibility: 0.8819107413291931
","x: 304.2511901855469
y: 530.6531982421875
z: 0.07243341207504272
visibility: 0.9348455667495728
","x: 227.1433868408203
y: 531.3008422851562
