uscmakers/ReverseChoreography/data/10_bum_bum_tam_tam_mc_fioti.csv
,NOSE,LEFT_EYE_INNER,LEFT_EYE,LEFT_EYE_OUTER,RIGHT_EYE_INNER,RIGHT_EYE,RIGHT_EYE_OUTER,LEFT_EAR,RIGHT_EAR,MOUTH_LEFT,MOUTH_RIGHT,LEFT_SHOULDER,RIGHT_SHOULDER,LEFT_ELBOW,RIGHT_ELBOW,LEFT_WRIST,RIGHT_WRIST,LEFT_PINKY,RIGHT_PINKY,LEFT_INDEX,RIGHT_INDEX,LEFT_THUMB,RIGHT_THUMB,LEFT_HIP,RIGHT_HIP,LEFT_KNEE,RIGHT_KNEE,LEFT_ANKLE,RIGHT_ANKLE,LEFT_HEEL,RIGHT_HEEL,LEFT_FOOT_INDEX,RIGHT_FOOT_INDEX,WRIST2,THUMB_CPC2,THUMB_MCP2,THUMB_IP2,THUMB_TIP2,INDEX_FINGER_MCP2,INDEX_FINGER_PIP2,INDEX_FINGER_DIP2,INDEX_FINGER_TIP2,MIDDLE_FINGER_MCP2,MIDDLE_FINGER_PIP2,MIDDLE_FINGER_DIP2,MIDDLE_FINGER_TIP2,RING_FINGER_PIP2,RING_FINGER_DIP2,RING_FINGER_TIP2,RING_FINGER_MCP2,PINKY_MCP2,PINKY_PIP2,PINKY_DIP2,PINKY_TIP2,TIMESTAMP,WRIST,THUMB_CPC,THUMB_MCP,THUMB_IP,THUMB_TIP,INDEX_FINGER_MCP,INDEX_FINGER_PIP,INDEX_FINGER_DIP,INDEX_FINGER_TIP,MIDDLE_FINGER_MCP,MIDDLE_FINGER_PIP,MIDDLE_FINGER_DIP,MIDDLE_FINGER_TIP,RING_FINGER_PIP,RING_FINGER_DIP,RING_FINGER_TIP,RING_FINGER_MCP,PINKY_MCP,PINKY_PIP,PINKY_DIP,PINKY_TIP
0,"x: 284.1826477050781
y: 252.16275024414062
z: -0.3394108712673187
visibility: 0.9999581575393677
","x: 285.52435302734375
y: 247.6908721923828
z: -0.32765522599220276
visibility: 0.9998242259025574
","x: 286.48797607421875
y: 247.8620147705078
z: -0.32764434814453125
visibility: 0.9998534917831421
","x: 287.5143127441406
y: 248.025390625
z: -0.327674925327301
visibility: 0.9998530149459839
","x: 282.5131530761719
y: 247.57032775878906
z: -0.3283885419368744
visibility: 0.9997424483299255
","x: 281.3433837890625
y: 247.6637420654297
z: -0.3284119665622711
visibility: 0.9997324347496033
","x: 280.021240234375
y: 247.74208068847656
z: -0.3284118175506592
visibility: 0.9996342658996582
","x: 288.69921875
y: 251.6724395751953
z: -0.23141124844551086
visibility: 0.9996787309646606
","x: 277.800048828125
y: 251.27098083496094
z: -0.2373248040676117
visibility: 0.9990118741989136
","x: 285.5780944824219
y: 259.28887939453125
z: -0.30150866508483887
visibility: 0.9998539686203003
","x: 281.9808349609375
y: 258.38507080078125
z: -0.30342787504196167
visibility: 0.9997687935829163
","x: 297.38946533203125
y: 285.1089172363281
z: -0.15152055025100708
visibility: 0.9999605417251587
","x: 266.789306640625
y: 278.59136962890625
z: -0.1455831527709961
visibility: 0.999685525894165
","x: 304.99810791015625
y: 325.8020324707031
z: -0.09949105232954025
visibility: 0.9930353164672852
","x: 258.5610656738281
y: 317.3960266113281
z: -0.1217530220746994
visibility: 0.9410015344619751
","x: 314.15673828125
y: 368.2281188964844
z: -0.15696242451667786
visibility: 0.99250727891922
","x: 253.2469940185547
y: 351.89227294921875
z: -0.21005097031593323
visibility: 0.9080879092216492
","x: 318.0904235839844
y: 379.662353515625
z: -0.1749994307756424
visibility: 0.9788447022438049
","x: 252.06475830078125
y: 362.9571838378906
z: -0.23289021849632263
visibility: 0.8441658616065979
","x: 317.3971252441406
y: 381.9747619628906
z: -0.2085246741771698
visibility: 0.9819642305374146
","x: 252.75872802734375
y: 362.8434753417969
z: -0.2615815997123718
visibility: 0.8585237264633179
","x: 315.6513977050781
y: 377.9346923828125
z: -0.17136484384536743
visibility: 0.9774632453918457
","x: 254.1182861328125
y: 360.12799072265625
z: -0.22415569424629211
visibility: 0.8485835194587708
","x: 290.48651123046875
y: 362.8089599609375
z: -0.0012306056451052427
visibility: 0.9995604157447815
","x: 270.4023742675781
y: 365.53826904296875
z: 0.0011582227889448404
visibility: 0.9994176626205444
","x: 292.1171875
y: 435.7525634765625
z: -0.010974339209496975
visibility: 0.9899541139602661
","x: 273.173583984375
y: 437.65673828125
z: -0.0012675203615799546
visibility: 0.9887344241142273
","x: 296.763916015625
y: 498.15673828125
z: 0.08920110017061234
visibility: 0.9920225143432617
","x: 273.36773681640625
y: 500.0999755859375
z: 0.10485820472240448
visibility: 0.9901381731033325
","x: 294.7088623046875
y: 507.40911865234375
z: 0.09262261539697647
visibility: 0.8680176138877869
","x: 274.6007080078125
y: 507.41656494140625
z: 0.10873498767614365
visibility: 0.8381302952766418
","x: 300.3787841796875
y: 521.2396850585938
z: -0.020968830212950706
visibility: 0.9883910417556763
","x: 270.4652099609375
y: 522.5785522460938
z: 0.00015980824537109584
visibility: 0.9860417246818542
","x: 314.84063720703125
y: 367.95367431640625
z: 0.0
","x: 313.1376953125
y: 373.80902099609375
z: -0.0036045981105417013
","x: 313.7685546875
y: 379.5889587402344
z: -0.005565137602388859
","x: 314.913818359375
y: 385.084228515625
z: -0.0067949797958135605
","x: 315.5734558105469
y: 389.410888671875
z: -0.007746103219687939
","x: 318.45355224609375
y: 380.349609375
z: -0.0068572708405554295
","x: 318.7270812988281
y: 388.1588439941406
z: -0.009615213610231876
","x: 317.56072998046875
y: 392.7688903808594
z: -0.010448113083839417
","x: 316.47027587890625
y: 395.55694580078125
z: -0.010552200488746166
","x: 320.1528625488281
y: 380.93304443359375
z: -0.005968073848634958
","x: 322.164306640625
y: 389.10345458984375
z: -0.008837544359266758
","x: 322.98736572265625
y: 394.448486328125
z: -0.009666199795901775
","x: 323.5112609863281
y: 398.22796630859375
z: -0.010105576366186142
","x: 320.7030334472656
y: 381.68072509765625
z: -0.005150164477527142
","x: 322.4856872558594
y: 389.3431396484375
z: -0.008012056350708008
","x: 323.0486145019531
y: 394.2840881347656
z: -0.009174363687634468
","x: 323.4397277832031
y: 398.1103820800781
z: -0.00973558984696865
","x: 320.3448791503906
y: 382.36688232421875
z: -0.004528327379375696
","x: 321.6385498046875
y: 388.2950134277344
z: -0.006685907952487469
","x: 322.07464599609375
y: 392.35040283203125
z: -0.007509705610573292
","x: 322.14935302734375
y: 395.87738037109375
z: -0.00794741790741682
",3.7164852619171143,,,,,,,,,,,,,,,,,,,,,
1,"x: 284.1826477050781
y: 252.16275024414062
z: -0.3394108712673187
visibility: 0.9999581575393677
","x: 285.52435302734375
y: 247.6908721923828
z: -0.32765522599220276
visibility: 0.9998242259025574
","x: 286.48797607421875
y: 247.8620147705078
z: -0.32764434814453125
visibility: 0.9998534917831421
","x: 287.5143127441406
y: 248.025390625
z: -0.327674925327301
visibility: 0.9998530149459839
","x: 282.5131530761719
y: 247.57032775878906
z: -0.3283885419368744
visibility: 0.9997424483299255
","x: 281.3433837890625
y: 247.6637420654297
z: -0.3284119665622711
visibility: 0.9997324347496033
","x: 280.021240234375
y: 247.74208068847656
z: -0.3284118175506592
visibility: 0.9996342658996582
","x: 288.69921875
y: 251.6724395751953
z: -0.23141124844551086
visibility: 0.9996787309646606
","x: 277.800048828125
y: 251.27098083496094
z: -0.2373248040676117
visibility: 0.9990118741989136
","x: 285.5780944824219
y: 259.28887939453125
z: -0.30150866508483887
visibility: 0.9998539686203003
","x: 281.9808349609375
y: 258.38507080078125
z: -0.30342787504196167
visibility: 0.9997687935829163
","x: 297.38946533203125
y: 285.1089172363281
z: -0.15152055025100708
visibility: 0.9999605417251587
","x: 266.789306640625
y: 278.59136962890625
z: -0.1455831527709961
visibility: 0.999685525894165
","x: 304.99810791015625
y: 325.8020324707031
z: -0.09949105232954025
visibility: 0.9930353164672852
","x: 258.5610656738281
y: 317.3960266113281
z: -0.1217530220746994
visibility: 0.9410015344619751
","x: 314.15673828125
y: 368.2281188964844
z: -0.15696242451667786
visibility: 0.99250727891922
","x: 253.2469940185547
y: 351.89227294921875
z: -0.21005097031593323
visibility: 0.9080879092216492
","x: 318.0904235839844
y: 379.662353515625
z: -0.1749994307756424
visibility: 0.9788447022438049
","x: 252.06475830078125
y: 362.9571838378906
z: -0.23289021849632263
visibility: 0.8441658616065979
","x: 317.3971252441406
y: 381.9747619628906
z: -0.2085246741771698
visibility: 0.9819642305374146
","x: 252.75872802734375
y: 362.8434753417969
z: -0.2615815997123718
visibility: 0.8585237264633179
","x: 315.6513977050781
y: 377.9346923828125
z: -0.17136484384536743
visibility: 0.9774632453918457
","x: 254.1182861328125
y: 360.12799072265625
z: -0.22415569424629211
visibility: 0.8485835194587708
","x: 290.48651123046875
y: 362.8089599609375
z: -0.0012306056451052427
visibility: 0.9995604157447815
","x: 270.4023742675781
y: 365.53826904296875
z: 0.0011582227889448404
visibility: 0.9994176626205444
","x: 292.1171875
y: 435.7525634765625
z: -0.010974339209496975
visibility: 0.9899541139602661
","x: 273.173583984375
y: 437.65673828125
z: -0.0012675203615799546
visibility: 0.9887344241142273
","x: 296.763916015625
y: 498.15673828125
z: 0.08920110017061234
visibility: 0.9920225143432617
","x: 273.36773681640625
y: 500.0999755859375
z: 0.10485820472240448
visibility: 0.9901381731033325
","x: 294.7088623046875
y: 507.40911865234375
z: 0.09262261539697647
visibility: 0.8680176138877869
","x: 274.6007080078125
y: 507.41656494140625
z: 0.10873498767614365
visibility: 0.8381302952766418
","x: 300.3787841796875
y: 521.2396850585938
z: -0.020968830212950706
visibility: 0.9883910417556763
","x: 270.4652099609375
y: 522.5785522460938
z: 0.00015980824537109584
visibility: 0.9860417246818542
","x: 314.84063720703125
y: 367.95367431640625
z: 0.0
","x: 313.1376953125
y: 373.80902099609375
z: -0.0036045981105417013
","x: 313.7685546875
y: 379.5889587402344
z: -0.005565137602388859
","x: 314.913818359375
y: 385.084228515625
z: -0.0067949797958135605
","x: 315.5734558105469
y: 389.410888671875
z: -0.007746103219687939
","x: 318.45355224609375
y: 380.349609375
z: -0.0068572708405554295
","x: 318.7270812988281
y: 388.1588439941406
z: -0.009615213610231876
","x: 317.56072998046875
y: 392.7688903808594
z: -0.010448113083839417
","x: 316.47027587890625
y: 395.55694580078125
z: -0.010552200488746166
","x: 320.1528625488281
y: 380.93304443359375
z: -0.005968073848634958
","x: 322.164306640625
y: 389.10345458984375
z: -0.008837544359266758
","x: 322.98736572265625
y: 394.448486328125
z: -0.009666199795901775
","x: 323.5112609863281
y: 398.22796630859375
z: -0.010105576366186142
","x: 320.7030334472656
y: 381.68072509765625
z: -0.005150164477527142
","x: 322.4856872558594
y: 389.3431396484375
z: -0.008012056350708008
","x: 323.0486145019531
y: 394.2840881347656
z: -0.009174363687634468
","x: 323.4397277832031
y: 398.1103820800781
z: -0.00973558984696865
","x: 320.3448791503906
y: 382.36688232421875
z: -0.004528327379375696
","x: 321.6385498046875
y: 388.2950134277344
z: -0.006685907952487469
","x: 322.07464599609375
y: 392.35040283203125
z: -0.007509705610573292
","x: 322.14935302734375
y: 395.87738037109375
z: -0.00794741790741682
",3.7164852619171143,,,,,,,,,,,,,,,,,,,,,
2,"x: 284.1826477050781
y: 252.16275024414062
z: -0.3394108712673187
visibility: 0.9999581575393677
","x: 285.52435302734375
y: 247.6908721923828
z: -0.32765522599220276
visibility: 0.9998242259025574
","x: 286.48797607421875
y: 247.8620147705078
z: -0.32764434814453125
visibility: 0.9998534917831421
","x: 287.5143127441406
y: 248.025390625
z: -0.327674925327301
visibility: 0.9998530149459839
","x: 282.5131530761719
y: 247.57032775878906
z: -0.3283885419368744
visibility: 0.9997424483299255
","x: 281.3433837890625
y: 247.6637420654297
z: -0.3284119665622711
visibility: 0.9997324347496033
","x: 280.021240234375
y: 247.74208068847656
z: -0.3284118175506592
visibility: 0.9996342658996582
","x: 288.69921875
y: 251.6724395751953
z: -0.23141124844551086
visibility: 0.9996787309646606
","x: 277.800048828125
y: 251.27098083496094
z: -0.2373248040676117
visibility: 0.9990118741989136
","x: 285.5780944824219
y: 259.28887939453125
z: -0.30150866508483887
visibility: 0.9998539686203003
","x: 281.9808349609375
y: 258.38507080078125
z: -0.30342787504196167
visibility: 0.9997687935829163
","x: 297.38946533203125
y: 285.1089172363281
z: -0.15152055025100708
visibility: 0.9999605417251587
","x: 266.789306640625
y: 278.59136962890625
z: -0.1455831527709961
visibility: 0.999685525894165
","x: 304.99810791015625
y: 325.8020324707031
z: -0.09949105232954025
visibility: 0.9930353164672852
","x: 258.5610656738281
y: 317.3960266113281
z: -0.1217530220746994
visibility: 0.9410015344619751
","x: 314.15673828125
y: 368.2281188964844
z: -0.15696242451667786
visibility: 0.99250727891922
","x: 253.2469940185547
y: 351.89227294921875
z: -0.21005097031593323
visibility: 0.9080879092216492
","x: 318.0904235839844
y: 379.662353515625
z: -0.1749994307756424
visibility: 0.9788447022438049
","x: 252.06475830078125
y: 362.9571838378906
z: -0.23289021849632263
visibility: 0.8441658616065979
","x: 317.3971252441406
y: 381.9747619628906
z: -0.2085246741771698
visibility: 0.9819642305374146
","x: 252.75872802734375
y: 362.8434753417969
z: -0.2615815997123718
visibility: 0.8585237264633179
","x: 315.6513977050781
y: 377.9346923828125
z: -0.17136484384536743
visibility: 0.9774632453918457
","x: 254.1182861328125
y: 360.12799072265625
z: -0.22415569424629211
visibility: 0.8485835194587708
","x: 290.48651123046875
y: 362.8089599609375
z: -0.0012306056451052427
visibility: 0.9995604157447815
","x: 270.4023742675781
y: 365.53826904296875
z: 0.0011582227889448404
visibility: 0.9994176626205444
","x: 292.1171875
y: 435.7525634765625
z: -0.010974339209496975
visibility: 0.9899541139602661
","x: 273.173583984375
y: 437.65673828125
z: -0.0012675203615799546
visibility: 0.9887344241142273
","x: 296.763916015625
y: 498.15673828125
z: 0.08920110017061234
visibility: 0.9920225143432617
","x: 273.36773681640625
y: 500.0999755859375
z: 0.10485820472240448
visibility: 0.9901381731033325
","x: 294.7088623046875
y: 507.40911865234375
z: 0.09262261539697647
visibility: 0.8680176138877869
","x: 274.6007080078125
y: 507.41656494140625
z: 0.10873498767614365
visibility: 0.8381302952766418
","x: 300.3787841796875
y: 521.2396850585938
z: -0.020968830212950706
visibility: 0.9883910417556763
","x: 270.4652099609375
y: 522.5785522460938
z: 0.00015980824537109584
visibility: 0.9860417246818542
","x: 314.84063720703125
y: 367.95367431640625
z: 0.0
","x: 313.1376953125
y: 373.80902099609375
z: -0.0036045981105417013
","x: 313.7685546875
y: 379.5889587402344
z: -0.005565137602388859
","x: 314.913818359375
y: 385.084228515625
z: -0.0067949797958135605
","x: 315.5734558105469
y: 389.410888671875
z: -0.007746103219687939
","x: 318.45355224609375
y: 380.349609375
z: -0.0068572708405554295
","x: 318.7270812988281
y: 388.1588439941406
z: -0.009615213610231876
","x: 317.56072998046875
y: 392.7688903808594
z: -0.010448113083839417
","x: 316.47027587890625
y: 395.55694580078125
z: -0.010552200488746166
","x: 320.1528625488281
y: 380.93304443359375
z: -0.005968073848634958
","x: 322.164306640625
y: 389.10345458984375
z: -0.008837544359266758
","x: 322.98736572265625
y: 394.448486328125
z: -0.009666199795901775
","x: 323.5112609863281
y: 398.22796630859375
z: -0.010105576366186142
","x: 320.7030334472656
y: 381.68072509765625
z: -0.005150164477527142
","x: 322.4856872558594
y: 389.3431396484375
z: -0.008012056350708008
","x: 323.0486145019531
y: 394.2840881347656
z: -0.009174363687634468
","x: 323.4397277832031
y: 398.1103820800781
z: -0.00973558984696865
","x: 320.3448791503906
y: 382.36688232421875
z: -0.004528327379375696
","x: 321.6385498046875
y: 388.2950134277344
z: -0.006685907952487469
","x: 322.07464599609375
y: 392.35040283203125
z: -0.007509705610573292
","x: 322.14935302734375
y: 395.87738037109375
z: -0.00794741790741682
",3.7164852619171143,,,,,,,,,,,,,,,,,,,,,
3,"x: 289.0111083984375
y: 252.16409301757812
z: -0.29501378536224365
visibility: 0.9999610185623169
","x: 290.3965148925781
y: 247.69110107421875
z: -0.2819250226020813
visibility: 0.9998360872268677
","x: 291.4101867675781
y: 247.86212158203125
z: -0.2819201350212097
visibility: 0.9998629093170166
","x: 292.4123840332031
y: 248.02664184570312
z: -0.28191691637039185
visibility: 0.9998618960380554
","x: 287.15594482421875
y: 247.5960693359375
z: -0.28354665637016296
visibility: 0.9997630715370178
","x: 285.8343811035156
y: 247.7240753173828
z: -0.2835891544818878
visibility: 0.9997542500495911
","x: 284.5178527832031
y: 247.84437561035156
z: -0.2835933566093445
visibility: 0.9996650218963623
","x: 293.56097412109375
y: 251.68020629882812
z: -0.1920323520898819
visibility: 0.9996970891952515
","x: 282.2375183105469
y: 251.3665008544922
z: -0.2013501673936844
visibility: 0.9990959167480469
","x: 290.3858337402344
y: 259.2798156738281
z: -0.26087918877601624
visibility: 0.9998648166656494
","x: 286.6363525390625
y: 258.53839111328125
z: -0.26363229751586914
visibility: 0.9997885227203369
","x: 302.5668640136719
y: 285.1658935546875
z: -0.12603679299354553
visibility: 0.9999611377716064
","x: 271.221435546875
y: 286.0409851074219
z: -0.12232933938503265
visibility: 0.9997105598449707
","x: 310.1993103027344
y: 325.39312744140625
z: -0.08962158858776093
visibility: 0.9932672381401062
","x: 261.8304138183594
y: 326.87066650390625
z: -0.08199954032897949
visibility: 0.9456892609596252
","x: 311.3938903808594
y: 367.6764221191406
z: -0.15932802855968475
visibility: 0.9925711154937744
","x: 255.7996826171875
y: 369.7142028808594
z: -0.14577226340770721
visibility: 0.9144250750541687
","x: 312.2301330566406
y: 379.34942626953125
z: -0.1805138885974884
visibility: 0.9788599610328674
","x: 252.1644744873047
y: 381.30450439453125
z: -0.16699346899986267
visibility: 0.853508710861206
","x: 309.5577087402344
y: 379.6659851074219
z: -0.20863094925880432
visibility: 0.9818439483642578
","x: 253.44671630859375
y: 382.5735778808594
z: -0.19246965646743774
visibility: 0.8669745922088623
","x: 308.5158386230469
y: 376.16046142578125
z: -0.17170239984989166
visibility: 0.9771851897239685
","x: 255.9002227783203
y: 378.4761962890625
z: -0.15745683014392853
visibility: 0.8570187091827393
","x: 295.6637268066406
y: 366.287109375
z: 0.0035655503161251545
visibility: 0.9995203614234924
","x: 275.3066101074219
y: 366.63250732421875
z: -0.0036140240263193846
visibility: 0.9994453191757202
","x: 294.9480895996094
y: 434.67791748046875
z: 0.02535736933350563
visibility: 0.990012526512146
","x: 276.3019714355469
y: 437.13323974609375
z: -0.04563731700181961
visibility: 0.9894082546234131
","x: 296.6124572753906
y: 489.66571044921875
z: 0.1468510627746582
visibility: 0.9917447566986084
","x: 273.47198486328125
y: 499.27130126953125
z: 0.03529008477926254
visibility: 0.9905368089675903
","x: 294.628173828125
y: 497.3746337890625
z: 0.15320000052452087
visibility: 0.8707945942878723
","x: 274.5390625
y: 506.5801696777344
z: 0.036881811916828156
visibility: 0.8383881449699402
","x: 300.8418884277344
y: 511.0345458984375
z: 0.05875661224126816
visibility: 0.9879920482635498
","x: 271.2807312011719
y: 521.3071899414062
z: -0.0733804851770401
visibility: 0.9862916469573975
",,,,,,,,,,,,,,,,,,,,,,4.388895034790039,,,,,,,,,,,,,,,,,,,,,
4,"x: 289.0111083984375
y: 252.16409301757812
z: -0.29501378536224365
visibility: 0.9999610185623169
","x: 290.3965148925781
y: 247.69110107421875
z: -0.2819250226020813
visibility: 0.9998360872268677
","x: 291.4101867675781
y: 247.86212158203125
z: -0.2819201350212097
visibility: 0.9998629093170166
","x: 292.4123840332031
y: 248.02664184570312
z: -0.28191691637039185
visibility: 0.9998618960380554
","x: 287.15594482421875
y: 247.5960693359375
z: -0.28354665637016296
visibility: 0.9997630715370178
","x: 285.8343811035156
y: 247.7240753173828
z: -0.2835891544818878
visibility: 0.9997542500495911
","x: 284.5178527832031
y: 247.84437561035156
z: -0.2835933566093445
visibility: 0.9996650218963623
","x: 293.56097412109375
y: 251.68020629882812
z: -0.1920323520898819
visibility: 0.9996970891952515
","x: 282.2375183105469
y: 251.3665008544922
z: -0.2013501673936844
visibility: 0.9990959167480469
","x: 290.3858337402344
y: 259.2798156738281
z: -0.26087918877601624
visibility: 0.9998648166656494
","x: 286.6363525390625
y: 258.53839111328125
z: -0.26363229751586914
visibility: 0.9997885227203369
","x: 302.5668640136719
y: 285.1658935546875
z: -0.12603679299354553
visibility: 0.9999611377716064
","x: 271.221435546875
y: 286.0409851074219
z: -0.12232933938503265
visibility: 0.9997105598449707
","x: 310.1993103027344
y: 325.39312744140625
z: -0.08962158858776093
visibility: 0.9932672381401062
","x: 261.8304138183594
y: 326.87066650390625
z: -0.08199954032897949
visibility: 0.9456892609596252
","x: 311.3938903808594
y: 367.6764221191406
z: -0.15932802855968475
visibility: 0.9925711154937744
","x: 255.7996826171875
y: 369.7142028808594
z: -0.14577226340770721
visibility: 0.9144250750541687
","x: 312.2301330566406
y: 379.34942626953125
z: -0.1805138885974884
visibility: 0.9788599610328674
","x: 252.1644744873047
y: 381.30450439453125
z: -0.16699346899986267
visibility: 0.853508710861206
","x: 309.5577087402344
y: 379.6659851074219
z: -0.20863094925880432
visibility: 0.9818439483642578
","x: 253.44671630859375
y: 382.5735778808594
z: -0.19246965646743774
visibility: 0.8669745922088623
","x: 308.5158386230469
y: 376.16046142578125
z: -0.17170239984989166
visibility: 0.9771851897239685
","x: 255.9002227783203
y: 378.4761962890625
z: -0.15745683014392853
visibility: 0.8570187091827393
","x: 295.6637268066406
y: 366.287109375
z: 0.0035655503161251545
visibility: 0.9995203614234924
","x: 275.3066101074219
y: 366.63250732421875
z: -0.0036140240263193846
visibility: 0.9994453191757202
","x: 294.9480895996094
y: 434.67791748046875
z: 0.02535736933350563
visibility: 0.990012526512146
","x: 276.3019714355469
y: 437.13323974609375
z: -0.04563731700181961
visibility: 0.9894082546234131
","x: 296.6124572753906
y: 489.66571044921875
z: 0.1468510627746582
visibility: 0.9917447566986084
","x: 273.47198486328125
y: 499.27130126953125
z: 0.03529008477926254
visibility: 0.9905368089675903
","x: 294.628173828125
y: 497.3746337890625
z: 0.15320000052452087
visibility: 0.8707945942878723
","x: 274.5390625
y: 506.5801696777344
z: 0.036881811916828156
visibility: 0.8383881449699402
","x: 300.8418884277344
y: 511.0345458984375
z: 0.05875661224126816
visibility: 0.9879920482635498
","x: 271.2807312011719
y: 521.3071899414062
z: -0.0733804851770401
visibility: 0.9862916469573975
",,,,,,,,,,,,,,,,,,,,,,4.388895034790039,,,,,,,,,,,,,,,,,,,,,
5,"x: 292.5039367675781
y: 252.6860809326172
z: -0.274531751871109
visibility: 0.9999644756317139
","x: 294.0244445800781
y: 248.20143127441406
z: -0.26159733533859253
visibility: 0.9998505711555481
","x: 294.9986572265625
y: 248.41433715820312
z: -0.2615799605846405
visibility: 0.9998747706413269
","x: 296.036865234375
y: 248.65914916992188
z: -0.2615639269351959
visibility: 0.9998736381530762
","x: 290.90155029296875
y: 247.97967529296875
z: -0.2633156180381775
visibility: 0.9997851252555847
","x: 289.81085205078125
y: 248.05169677734375
z: -0.26335006952285767
visibility: 0.9997771978378296
","x: 288.5682067871094
y: 248.15675354003906
z: -0.26334553956985474
visibility: 0.9996965527534485
","x: 297.188232421875
y: 252.30380249023438
z: -0.17293110489845276
visibility: 0.9997214078903198
","x: 286.4131774902344
y: 251.48928833007812
z: -0.18324406445026398
visibility: 0.999181866645813
","x: 293.7958679199219
y: 259.7786865234375
z: -0.24095189571380615
visibility: 0.9998770356178284
","x: 290.1801452636719
y: 259.09808349609375
z: -0.24394457042217255
visibility: 0.9998085498809814
","x: 306.0132751464844
y: 286.9410095214844
z: -0.10225512832403183
visibility: 0.999963104724884
","x: 274.9657897949219
y: 288.5440368652344
z: -0.11326619237661362
visibility: 0.9997370839118958
","x: 315.482421875
y: 325.52935791015625
z: -0.05540528893470764
visibility: 0.9935752749443054
","x: 266.33856201171875
y: 331.12255859375
z: -0.0730476826429367
visibility: 0.9502863883972168
","x: 318.9648742675781
y: 366.3641662597656
z: -0.1265123188495636
visibility: 0.9928869009017944
","x: 263.7073669433594
y: 373.97991943359375
z: -0.13129781186580658
visibility: 0.9210701584815979
","x: 320.06890869140625
y: 378.8349609375
z: -0.14610102772712708
visibility: 0.979623556137085
","x: 261.62725830078125
y: 385.66790771484375
z: -0.15087662637233734
visibility: 0.8636659383773804
","x: 318.6484375
y: 379.28912353515625
z: -0.1738455891609192
visibility: 0.9824695587158203
","x: 263.11590576171875
y: 386.5887145996094
z: -0.17507141828536987
visibility: 0.8761135339736938
","x: 317.5232238769531
y: 375.5581970214844
z: -0.13865771889686584
visibility: 0.977924108505249
","x: 264.4974365234375
y: 382.61370849609375
z: -0.14186635613441467
visibility: 0.86616051197052
","x: 299.579345703125
y: 368.02569580078125
z: 0.00987649243324995
visibility: 0.9994940757751465
","x: 279.7032775878906
y: 368.9754943847656
z: -0.009940129704773426
visibility: 0.9994667768478394
","x: 297.08380126953125
y: 434.28704833984375
z: 0.032327014952898026
visibility: 0.9896504282951355
","x: 279.1125183105469
y: 436.71014404296875
z: -0.03839392215013504
visibility: 0.9900038838386536
","x: 296.61138916015625
y: 486.8147277832031
z: 0.15041276812553406
visibility: 0.9912119507789612
","x: 274.2823181152344
y: 497.1194763183594
z: 0.0510079450905323
visibility: 0.9907498955726624
","x: 294.6289978027344
y: 494.4434814453125
z: 0.15664348006248474
visibility: 0.8743247985839844
","x: 274.73944091796875
y: 504.7964782714844
z: 0.05373875051736832
visibility: 0.8372756242752075
","x: 301.0348815917969
y: 507.77880859375
z: 0.06677282601594925
visibility: 0.9874016642570496
","x: 272.7704162597656
y: 516.7659301757812
z: -0.05195430666208267
visibility: 0.9862954020500183
",,,,,,,,,,,,,,,,,,,,,,4.529386520385742,,,,,,,,,,,,,,,,,,,,,
6,"x: 292.5039367675781
y: 252.6860809326172
z: -0.274531751871109
visibility: 0.9999644756317139
","x: 294.0244445800781
y: 248.20143127441406
z: -0.26159733533859253
visibility: 0.9998505711555481
","x: 294.9986572265625
y: 248.41433715820312
z: -0.2615799605846405
visibility: 0.9998747706413269
","x: 296.036865234375
y: 248.65914916992188
z: -0.2615639269351959
visibility: 0.9998736381530762
","x: 290.90155029296875
y: 247.97967529296875
z: -0.2633156180381775
visibility: 0.9997851252555847
","x: 289.81085205078125
y: 248.05169677734375
z: -0.26335006952285767
visibility: 0.9997771978378296
","x: 288.5682067871094
y: 248.15675354003906
z: -0.26334553956985474
visibility: 0.9996965527534485
","x: 297.188232421875
y: 252.30380249023438
z: -0.17293110489845276
visibility: 0.9997214078903198
","x: 286.4131774902344
y: 251.48928833007812
z: -0.18324406445026398
visibility: 0.999181866645813
","x: 293.7958679199219
y: 259.7786865234375
z: -0.24095189571380615
visibility: 0.9998770356178284
","x: 290.1801452636719
y: 259.09808349609375
z: -0.24394457042217255
visibility: 0.9998085498809814
","x: 306.0132751464844
y: 286.9410095214844
z: -0.10225512832403183
visibility: 0.999963104724884
","x: 274.9657897949219
y: 288.5440368652344
z: -0.11326619237661362
visibility: 0.9997370839118958
","x: 315.482421875
y: 325.52935791015625
z: -0.05540528893470764
visibility: 0.9935752749443054
","x: 266.33856201171875
y: 331.12255859375
z: -0.0730476826429367
visibility: 0.9502863883972168
","x: 318.9648742675781
y: 366.3641662597656
z: -0.1265123188495636
visibility: 0.9928869009017944
","x: 263.7073669433594
y: 373.97991943359375
z: -0.13129781186580658
visibility: 0.9210701584815979
","x: 320.06890869140625
y: 378.8349609375
z: -0.14610102772712708
visibility: 0.979623556137085
","x: 261.62725830078125
y: 385.66790771484375
z: -0.15087662637233734
visibility: 0.8636659383773804
","x: 318.6484375
y: 379.28912353515625
z: -0.1738455891609192
visibility: 0.9824695587158203
","x: 263.11590576171875
y: 386.5887145996094
z: -0.17507141828536987
visibility: 0.8761135339736938
","x: 317.5232238769531
y: 375.5581970214844
z: -0.13865771889686584
visibility: 0.977924108505249
","x: 264.4974365234375
y: 382.61370849609375
z: -0.14186635613441467
visibility: 0.86616051197052
","x: 299.579345703125
y: 368.02569580078125
z: 0.00987649243324995
visibility: 0.9994940757751465
","x: 279.7032775878906
y: 368.9754943847656
z: -0.009940129704773426
visibility: 0.9994667768478394
","x: 297.08380126953125
y: 434.28704833984375
z: 0.032327014952898026
visibility: 0.9896504282951355
","x: 279.1125183105469
y: 436.71014404296875
z: -0.03839392215013504
visibility: 0.9900038838386536
","x: 296.61138916015625
y: 486.8147277832031
z: 0.15041276812553406
visibility: 0.9912119507789612
","x: 274.2823181152344
y: 497.1194763183594
z: 0.0510079450905323
visibility: 0.9907498955726624
","x: 294.6289978027344
y: 494.4434814453125
z: 0.15664348006248474
visibility: 0.8743247985839844
","x: 274.73944091796875
y: 504.7964782714844
z: 0.05373875051736832
visibility: 0.8372756242752075
","x: 301.0348815917969
y: 507.77880859375
z: 0.06677282601594925
visibility: 0.9874016642570496
","x: 272.7704162597656
y: 516.7659301757812
z: -0.05195430666208267
visibility: 0.9862954020500183
",,,,,,,,,,,,,,,,,,,,,,4.529386520385742,,,,,,,,,,,,,,,,,,,,,
7,"x: 294.616455078125
y: 253.41554260253906
z: -0.29885104298591614
visibility: 0.9999669790267944
","x: 295.7762451171875
y: 249.13616943359375
z: -0.2848481833934784
visibility: 0.9998601675033569
","x: 296.6635437011719
y: 249.19923400878906
z: -0.2848617136478424
visibility: 0.9998824596405029
","x: 297.56494140625
y: 249.29257202148438
z: -0.28487223386764526
visibility: 0.9998813271522522
","x: 292.80224609375
y: 249.3621063232422
z: -0.2866976857185364
visibility: 0.9998016953468323
","x: 291.6950988769531
y: 249.5751953125
z: -0.2867158055305481
visibility: 0.999794602394104
","x: 290.4779052734375
y: 249.8671112060547
z: -0.2867051362991333
visibility: 0.9997209310531616
","x: 298.9090270996094
y: 252.55758666992188
z: -0.1929844617843628
visibility: 0.9997381567955017
","x: 288.5931396484375
y: 252.82867431640625
z: -0.18501204252243042
visibility: 0.9992489814758301
","x: 296.32574462890625
y: 259.97503662109375
z: -0.2593362629413605
visibility: 0.9998863339424133
","x: 292.5655822753906
y: 259.8851623535156
z: -0.26375943422317505
visibility: 0.9998241066932678
","x: 308.2703552246094
y: 287.24041748046875
z: -0.11530119180679321
visibility: 0.9999632835388184
","x: 278.3453369140625
y: 288.2052307128906
z: -0.13380149006843567
visibility: 0.9997568726539612
","x: 318.0828857421875
y: 325.4365234375
z: -0.0722016915678978
visibility: 0.9938429594039917
","x: 271.20880126953125
y: 331.4788818359375
z: -0.08899140357971191
visibility: 0.9535496830940247
","x: 326.627197265625
y: 363.1600646972656
z: -0.13616399466991425
visibility: 0.9930585026741028
","x: 270.870849609375
y: 371.7744140625
z: -0.1518232375383377
visibility: 0.9248485565185547
","x: 330.56585693359375
y: 375.6263732910156
z: -0.15345512330532074
visibility: 0.979960024356842
","x: 269.8804016113281
y: 383.4921569824219
z: -0.1705300658941269
visibility: 0.8682807087898254
","x: 330.2667541503906
y: 376.57843017578125
z: -0.18447184562683105
visibility: 0.9827722907066345
","x: 272.10418701171875
y: 383.7810974121094
z: -0.19608309864997864
visibility: 0.8801080584526062
","x: 328.6264343261719
y: 373.5206604003906
z: -0.1494089812040329
visibility: 0.9782705307006836
","x: 273.06707763671875
y: 379.8653564453125
z: -0.16311228275299072
visibility: 0.8695393204689026
","x: 302.5140075683594
y: 367.544189453125
z: 0.009747467935085297
visibility: 0.9994370937347412
","x: 283.00128173828125
y: 368.77557373046875
z: -0.009855307638645172
visibility: 0.9994646906852722
","x: 298.7308349609375
y: 432.8839416503906
z: 0.020542632788419724
visibility: 0.989811360836029
","x: 282.7810363769531
y: 433.21307373046875
z: -0.012000162154436111
visibility: 0.9905034899711609
","x: 296.65167236328125
y: 487.2329406738281
z: 0.1347605139017105
visibility: 0.9911959767341614
","x: 280.2920837402344
y: 491.2740783691406
z: 0.09568945318460464
visibility: 0.9910656213760376
","x: 294.5450439453125
y: 494.72607421875
z: 0.1401435285806656
visibility: 0.8776353001594543
","x: 281.8428649902344
y: 498.0643310546875
z: 0.09969746321439743
visibility: 0.8407511115074158
","x: 300.96929931640625
y: 507.341796875
z: 0.04223330691456795
visibility: 0.987400472164154
","x: 276.7566833496094
y: 512.2015380859375
z: -0.003059335984289646
visibility: 0.9866135120391846
",,,,,,,,,,,,,,,,,,,,,,4.683987855911255,,,,,,,,,,,,,,,,,,,,,
8,"x: 294.616455078125
y: 253.41554260253906
z: -0.29885104298591614
visibility: 0.9999669790267944
","x: 295.7762451171875
y: 249.13616943359375
z: -0.2848481833934784
visibility: 0.9998601675033569
","x: 296.6635437011719
y: 249.19923400878906
z: -0.2848617136478424
visibility: 0.9998824596405029
","x: 297.56494140625
y: 249.29257202148438
z: -0.28487223386764526
visibility: 0.9998813271522522
","x: 292.80224609375
y: 249.3621063232422
z: -0.2866976857185364
visibility: 0.9998016953468323
","x: 291.6950988769531
y: 249.5751953125
z: -0.2867158055305481
visibility: 0.999794602394104
","x: 290.4779052734375
y: 249.8671112060547
z: -0.2867051362991333
visibility: 0.9997209310531616
","x: 298.9090270996094
y: 252.55758666992188
z: -0.1929844617843628
visibility: 0.9997381567955017
","x: 288.5931396484375
y: 252.82867431640625
z: -0.18501204252243042
visibility: 0.9992489814758301
","x: 296.32574462890625
y: 259.97503662109375
z: -0.2593362629413605
visibility: 0.9998863339424133
","x: 292.5655822753906
y: 259.8851623535156
z: -0.26375943422317505
visibility: 0.9998241066932678
","x: 308.2703552246094
y: 287.24041748046875
z: -0.11530119180679321
visibility: 0.9999632835388184
","x: 278.3453369140625
y: 288.2052307128906
z: -0.13380149006843567
visibility: 0.9997568726539612
","x: 318.0828857421875
y: 325.4365234375
z: -0.0722016915678978
visibility: 0.9938429594039917
","x: 271.20880126953125
y: 331.4788818359375
z: -0.08899140357971191
visibility: 0.9535496830940247
","x: 326.627197265625
y: 363.1600646972656
z: -0.13616399466991425
visibility: 0.9930585026741028
","x: 270.870849609375
y: 371.7744140625
z: -0.1518232375383377
visibility: 0.9248485565185547
","x: 330.56585693359375
y: 375.6263732910156
z: -0.15345512330532074
visibility: 0.979960024356842
","x: 269.8804016113281
y: 383.4921569824219
z: -0.1705300658941269
visibility: 0.8682807087898254
","x: 330.2667541503906
y: 376.57843017578125
z: -0.18447184562683105
visibility: 0.9827722907066345
","x: 272.10418701171875
y: 383.7810974121094
z: -0.19608309864997864
visibility: 0.8801080584526062
","x: 328.6264343261719
y: 373.5206604003906
z: -0.1494089812040329
visibility: 0.9782705307006836
","x: 273.06707763671875
y: 379.8653564453125
z: -0.16311228275299072
visibility: 0.8695393204689026
","x: 302.5140075683594
y: 367.544189453125
z: 0.009747467935085297
visibility: 0.9994370937347412
","x: 283.00128173828125
y: 368.77557373046875
z: -0.009855307638645172
visibility: 0.9994646906852722
","x: 298.7308349609375
y: 432.8839416503906
z: 0.020542632788419724
visibility: 0.989811360836029
","x: 282.7810363769531
y: 433.21307373046875
z: -0.012000162154436111
visibility: 0.9905034899711609
","x: 296.65167236328125
y: 487.2329406738281
z: 0.1347605139017105
visibility: 0.9911959767341614
","x: 280.2920837402344
y: 491.2740783691406
z: 0.09568945318460464
visibility: 0.9910656213760376
","x: 294.5450439453125
y: 494.72607421875
z: 0.1401435285806656
visibility: 0.8776353001594543
","x: 281.8428649902344
y: 498.0643310546875
z: 0.09969746321439743
visibility: 0.8407511115074158
","x: 300.96929931640625
y: 507.341796875
z: 0.04223330691456795
visibility: 0.987400472164154
","x: 276.7566833496094
y: 512.2015380859375
z: -0.003059335984289646
visibility: 0.9866135120391846
",,,,,,,,,,,,,,,,,,,,,,4.683987855911255,,,,,,,,,,,,,,,,,,,,,
9,"x: 294.3769836425781
y: 252.66024780273438
z: -0.28199195861816406
visibility: 0.9999693632125854
","x: 295.6288757324219
y: 248.61236572265625
z: -0.2683314085006714
visibility: 0.9998706579208374
","x: 296.53802490234375
y: 248.77169799804688
z: -0.2683197855949402
visibility: 0.9998906850814819
","x: 297.4860534667969
y: 248.92620849609375
z: -0.268329381942749
visibility: 0.9998897910118103
","x: 292.7481689453125
y: 248.43930053710938
z: -0.2700563371181488
visibility: 0.9998179078102112
","x: 291.6158447265625
y: 248.49810791015625
z: -0.2700800597667694
visibility: 0.999811589717865
","x: 290.37286376953125
y: 248.60548400878906
z: -0.2700823247432709
visibility: 0.9997448325157166
","x: 298.8135986328125
y: 252.2038116455078
z: -0.17831116914749146
visibility: 0.9997548460960388
","x: 288.3080139160156
y: 252.23680114746094
z: -0.18618299067020416
visibility: 0.9993140697479248
","x: 295.7943420410156
y: 258.9544372558594
z: -0.2474055290222168
visibility: 0.9998952150344849
","x: 292.21966552734375
y: 258.6175842285156
z: -0.25042417645454407
visibility: 0.9998390078544617
","x: 307.9447021484375
y: 287.1773681640625
z: -0.1054881364107132
visibility: 0.9999638795852661
","x: 278.56573486328125
y: 287.08038330078125
z: -0.11860086023807526
visibility: 0.9997725486755371
","x: 317.2328186035156
y: 322.75238037109375
z: -0.0561596043407917
visibility: 0.9936537146568298
","x: 270.175048828125
y: 331.0046691894531
z: -0.08766229450702667
visibility: 0.9567320346832275
","x: 324.5335693359375
y: 359.4057922363281
z: -0.1282108724117279
visibility: 0.9922942519187927
","x: 276.3733825683594
y: 361.2564392089844
z: -0.1531212031841278
visibility: 0.9286109209060669
","x: 327.3030700683594
y: 370.8815002441406
z: -0.14850829541683197
visibility: 0.9780712127685547
","x: 277.24786376953125
y: 372.44915771484375
z: -0.17334240674972534
visibility: 0.873473048210144
","x: 326.6155700683594
y: 372.6011962890625
z: -0.17713893949985504
visibility: 0.9810968637466431
","x: 279.61785888671875
y: 371.0977478027344
z: -0.19627699255943298
visibility: 0.8845201730728149
","x: 325.2253112792969
y: 369.57281494140625
z: -0.14085595309734344
visibility: 0.9760283827781677
","x: 279.52899169921875
y: 366.6375732421875
z: -0.16276147961616516
visibility: 0.8725220561027527
","x: 302.3372497558594
y: 366.0262756347656
z: 0.00849907286465168
visibility: 0.9994758367538452
","x: 283.0953369140625
y: 365.9472351074219
z: -0.008605021052062511
visibility: 0.9994871020317078
","x: 299.3545227050781
y: 431.23583984375
z: -0.06903325021266937
visibility: 0.9900821447372437
","x: 282.89990234375
y: 430.31719970703125
z: -0.011527718976140022
visibility: 0.9905551671981812
","x: 297.31048583984375
y: 486.72015380859375
z: 0.023371387273073196
visibility: 0.991454005241394
","x: 278.9727478027344
y: 483.3830261230469
z: 0.09342565387487411
visibility: 0.9909259080886841
","x: 294.9512939453125
y: 493.98297119140625
z: 0.026446420699357986
visibility: 0.883633553981781
","x: 280.1307067871094
y: 488.8016052246094
z: 0.09717965126037598
visibility: 0.8416568636894226
","x: 300.96514892578125
y: 507.94537353515625
z: -0.08126267045736313
visibility: 0.9878460168838501
","x: 276.030517578125
y: 506.3774108886719
z: -0.005273866467177868
visibility: 0.9864891767501831
","x: 323.6378173828125
y: 357.348876953125
z: 0.0
","x: 322.0199279785156
y: 364.86480712890625
z: 0.001128491829149425
","x: 322.4627990722656
y: 370.78082275390625
z: 0.0014078279491513968
","x: 323.1019592285156
y: 374.86944580078125
z: 0.001019012532196939
","x: 324.2460021972656
y: 376.5087890625
z: 0.0011356865288689733
","x: 327.6731262207031
y: 373.05682373046875
z: 0.0030980645678937435
","x: 327.21441650390625
y: 378.8460998535156
z: 0.002195898210629821
","x: 325.2905578613281
y: 380.4425354003906
z: 0.0017811619909480214
","x: 323.6435852050781
y: 380.3172302246094
z: 0.001803165185265243
","x: 328.3951416015625
y: 372.53619384765625
z: 0.001631184364669025
","x: 327.80859375
y: 379.0520935058594
z: 0.0007944952812977135
","x: 325.8509216308594
y: 380.1910400390625
z: 0.0006122177001088858
","x: 324.3570861816406
y: 379.4720764160156
z: 0.0007637521484866738
","x: 328.4427795410156
y: 371.85321044921875
z: -0.000120753567898646
","x: 327.7010192871094
y: 377.99176025390625
z: -0.0009156481246463954
","x: 326.0384521484375
y: 379.50537109375
z: -0.0006394717493094504
","x: 324.8182373046875
y: 379.2685241699219
z: -0.00018331719911657274
","x: 327.7829895019531
y: 370.97918701171875
z: -0.0020149401389062405
","x: 327.2478332519531
y: 376.2103271484375
z: -0.002591970143839717
","x: 326.048095703125
y: 378.2481384277344
z: -0.002225576899945736
","x: 324.963623046875
y: 378.7742919921875
z: -0.0016717835096642375
",4.858783483505249,,,,,,,,,,,,,,,,,,,,,
10,"x: 294.3769836425781
y: 252.66024780273438
z: -0.28199195861816406
visibility: 0.9999693632125854
","x: 295.6288757324219
y: 248.61236572265625
z: -0.2683314085006714
visibility: 0.9998706579208374
","x: 296.53802490234375
y: 248.77169799804688
z: -0.2683197855949402
visibility: 0.9998906850814819
","x: 297.4860534667969
y: 248.92620849609375
z: -0.268329381942749
visibility: 0.9998897910118103
","x: 292.7481689453125
y: 248.43930053710938
z: -0.2700563371181488
visibility: 0.9998179078102112
","x: 291.6158447265625
y: 248.49810791015625
z: -0.2700800597667694
visibility: 0.999811589717865
","x: 290.37286376953125
y: 248.60548400878906
z: -0.2700823247432709
visibility: 0.9997448325157166
","x: 298.8135986328125
y: 252.2038116455078
z: -0.17831116914749146
visibility: 0.9997548460960388
","x: 288.3080139160156
y: 252.23680114746094
z: -0.18618299067020416
visibility: 0.9993140697479248
","x: 295.7943420410156
y: 258.9544372558594
z: -0.2474055290222168
visibility: 0.9998952150344849
","x: 292.21966552734375
y: 258.6175842285156
z: -0.25042417645454407
visibility: 0.9998390078544617
","x: 307.9447021484375
y: 287.1773681640625
z: -0.1054881364107132
visibility: 0.9999638795852661
","x: 278.56573486328125
y: 287.08038330078125
z: -0.11860086023807526
visibility: 0.9997725486755371
","x: 317.2328186035156
y: 322.75238037109375
z: -0.0561596043407917
visibility: 0.9936537146568298
","x: 270.175048828125
y: 331.0046691894531
z: -0.08766229450702667
visibility: 0.9567320346832275
","x: 324.5335693359375
y: 359.4057922363281
z: -0.1282108724117279
visibility: 0.9922942519187927
","x: 276.3733825683594
y: 361.2564392089844
z: -0.1531212031841278
visibility: 0.9286109209060669
","x: 327.3030700683594
y: 370.8815002441406
z: -0.14850829541683197
visibility: 0.9780712127685547
","x: 277.24786376953125
y: 372.44915771484375
z: -0.17334240674972534
visibility: 0.873473048210144
","x: 326.6155700683594
y: 372.6011962890625
z: -0.17713893949985504
visibility: 0.9810968637466431
","x: 279.61785888671875
y: 371.0977478027344
z: -0.19627699255943298
visibility: 0.8845201730728149
","x: 325.2253112792969
y: 369.57281494140625
z: -0.14085595309734344
visibility: 0.9760283827781677
","x: 279.52899169921875
y: 366.6375732421875
z: -0.16276147961616516
visibility: 0.8725220561027527
","x: 302.3372497558594
y: 366.0262756347656
z: 0.00849907286465168
visibility: 0.9994758367538452
","x: 283.0953369140625
y: 365.9472351074219
z: -0.008605021052062511
visibility: 0.9994871020317078
","x: 299.3545227050781
y: 431.23583984375
z: -0.06903325021266937
visibility: 0.9900821447372437
","x: 282.89990234375
y: 430.31719970703125
z: -0.011527718976140022
visibility: 0.9905551671981812
","x: 297.31048583984375
y: 486.72015380859375
z: 0.023371387273073196
visibility: 0.991454005241394
","x: 278.9727478027344
y: 483.3830261230469
z: 0.09342565387487411
visibility: 0.9909259080886841
","x: 294.9512939453125
y: 493.98297119140625
z: 0.026446420699357986
visibility: 0.883633553981781
","x: 280.1307067871094
y: 488.8016052246094
z: 0.09717965126037598
visibility: 0.8416568636894226
","x: 300.96514892578125
y: 507.94537353515625
z: -0.08126267045736313
visibility: 0.9878460168838501
","x: 276.030517578125
y: 506.3774108886719
z: -0.005273866467177868
visibility: 0.9864891767501831
","x: 323.6378173828125
y: 357.348876953125
z: 0.0
","x: 322.0199279785156
y: 364.86480712890625
z: 0.001128491829149425
","x: 322.4627990722656
y: 370.78082275390625
z: 0.0014078279491513968
","x: 323.1019592285156
y: 374.86944580078125
z: 0.001019012532196939
","x: 324.2460021972656
y: 376.5087890625
z: 0.0011356865288689733
","x: 327.6731262207031
y: 373.05682373046875
z: 0.0030980645678937435
","x: 327.21441650390625
y: 378.8460998535156
z: 0.002195898210629821
","x: 325.2905578613281
y: 380.4425354003906
z: 0.0017811619909480214
","x: 323.6435852050781
y: 380.3172302246094
z: 0.001803165185265243
","x: 328.3951416015625
y: 372.53619384765625
z: 0.001631184364669025
","x: 327.80859375
y: 379.0520935058594
z: 0.0007944952812977135
","x: 325.8509216308594
y: 380.1910400390625
z: 0.0006122177001088858
","x: 324.3570861816406
y: 379.4720764160156
z: 0.0007637521484866738
","x: 328.4427795410156
y: 371.85321044921875
z: -0.000120753567898646
","x: 327.7010192871094
y: 377.99176025390625
z: -0.0009156481246463954
","x: 326.0384521484375
y: 379.50537109375
z: -0.0006394717493094504
","x: 324.8182373046875
y: 379.2685241699219
z: -0.00018331719911657274
","x: 327.7829895019531
y: 370.97918701171875
z: -0.0020149401389062405
","x: 327.2478332519531
y: 376.2103271484375
z: -0.002591970143839717
","x: 326.048095703125
y: 378.2481384277344
z: -0.002225576899945736
","x: 324.963623046875
y: 378.7742919921875
z: -0.0016717835096642375
",4.858783483505249,,,,,,,,,,,,,,,,,,,,,
11,"x: 294.3769836425781
y: 252.66024780273438
z: -0.28199195861816406
visibility: 0.9999693632125854
","x: 295.6288757324219
y: 248.61236572265625
z: -0.2683314085006714
visibility: 0.9998706579208374
","x: 296.53802490234375
y: 248.77169799804688
z: -0.2683197855949402
visibility: 0.9998906850814819
","x: 297.4860534667969
y: 248.92620849609375
z: -0.268329381942749
visibility: 0.9998897910118103
","x: 292.7481689453125
y: 248.43930053710938
z: -0.2700563371181488
visibility: 0.9998179078102112
","x: 291.6158447265625
y: 248.49810791015625
z: -0.2700800597667694
visibility: 0.999811589717865
","x: 290.37286376953125
y: 248.60548400878906
z: -0.2700823247432709
visibility: 0.9997448325157166
","x: 298.8135986328125
y: 252.2038116455078
z: -0.17831116914749146
visibility: 0.9997548460960388
","x: 288.3080139160156
y: 252.23680114746094
z: -0.18618299067020416
visibility: 0.9993140697479248
","x: 295.7943420410156
y: 258.9544372558594
z: -0.2474055290222168
visibility: 0.9998952150344849
","x: 292.21966552734375
y: 258.6175842285156
z: -0.25042417645454407
visibility: 0.9998390078544617
","x: 307.9447021484375
y: 287.1773681640625
z: -0.1054881364107132
visibility: 0.9999638795852661
","x: 278.56573486328125
y: 287.08038330078125
z: -0.11860086023807526
visibility: 0.9997725486755371
","x: 317.2328186035156
y: 322.75238037109375
z: -0.0561596043407917
visibility: 0.9936537146568298
","x: 270.175048828125
y: 331.0046691894531
z: -0.08766229450702667
visibility: 0.9567320346832275
","x: 324.5335693359375
y: 359.4057922363281
z: -0.1282108724117279
visibility: 0.9922942519187927
","x: 276.3733825683594
y: 361.2564392089844
z: -0.1531212031841278
visibility: 0.9286109209060669
","x: 327.3030700683594
y: 370.8815002441406
z: -0.14850829541683197
visibility: 0.9780712127685547
","x: 277.24786376953125
y: 372.44915771484375
z: -0.17334240674972534
visibility: 0.873473048210144
","x: 326.6155700683594
y: 372.6011962890625
z: -0.17713893949985504
visibility: 0.9810968637466431
","x: 279.61785888671875
y: 371.0977478027344
z: -0.19627699255943298
visibility: 0.8845201730728149
","x: 325.2253112792969
y: 369.57281494140625
z: -0.14085595309734344
visibility: 0.9760283827781677
","x: 279.52899169921875
y: 366.6375732421875
z: -0.16276147961616516
visibility: 0.8725220561027527
","x: 302.3372497558594
y: 366.0262756347656
z: 0.00849907286465168
visibility: 0.9994758367538452
","x: 283.0953369140625
y: 365.9472351074219
z: -0.008605021052062511
visibility: 0.9994871020317078
","x: 299.3545227050781
y: 431.23583984375
z: -0.06903325021266937
visibility: 0.9900821447372437
","x: 282.89990234375
y: 430.31719970703125
z: -0.011527718976140022
visibility: 0.9905551671981812
","x: 297.31048583984375
y: 486.72015380859375
z: 0.023371387273073196
visibility: 0.991454005241394
","x: 278.9727478027344
y: 483.3830261230469
z: 0.09342565387487411
visibility: 0.9909259080886841
","x: 294.9512939453125
y: 493.98297119140625
z: 0.026446420699357986
visibility: 0.883633553981781
","x: 280.1307067871094
y: 488.8016052246094
z: 0.09717965126037598
visibility: 0.8416568636894226
","x: 300.96514892578125
y: 507.94537353515625
z: -0.08126267045736313
visibility: 0.9878460168838501
","x: 276.030517578125
y: 506.3774108886719
z: -0.005273866467177868
visibility: 0.9864891767501831
","x: 323.6378173828125
y: 357.348876953125
z: 0.0
","x: 322.0199279785156
y: 364.86480712890625
z: 0.001128491829149425
","x: 322.4627990722656
y: 370.78082275390625
z: 0.0014078279491513968
","x: 323.1019592285156
y: 374.86944580078125
z: 0.001019012532196939
","x: 324.2460021972656
y: 376.5087890625
z: 0.0011356865288689733
","x: 327.6731262207031
y: 373.05682373046875
z: 0.0030980645678937435
","x: 327.21441650390625
y: 378.8460998535156
z: 0.002195898210629821
","x: 325.2905578613281
y: 380.4425354003906
z: 0.0017811619909480214
","x: 323.6435852050781
y: 380.3172302246094
z: 0.001803165185265243
","x: 328.3951416015625
y: 372.53619384765625
z: 0.001631184364669025
","x: 327.80859375
y: 379.0520935058594
z: 0.0007944952812977135
","x: 325.8509216308594
y: 380.1910400390625
z: 0.0006122177001088858
","x: 324.3570861816406
y: 379.4720764160156
z: 0.0007637521484866738
","x: 328.4427795410156
y: 371.85321044921875
z: -0.000120753567898646
","x: 327.7010192871094
y: 377.99176025390625
z: -0.0009156481246463954
","x: 326.0384521484375
y: 379.50537109375
z: -0.0006394717493094504
","x: 324.8182373046875
y: 379.2685241699219
z: -0.00018331719911657274
","x: 327.7829895019531
y: 370.97918701171875
z: -0.0020149401389062405
","x: 327.2478332519531
y: 376.2103271484375
z: -0.002591970143839717
","x: 326.048095703125
y: 378.2481384277344
z: -0.002225576899945736
","x: 324.963623046875
y: 378.7742919921875
z: -0.0016717835096642375
",4.858783483505249,,,,,,,,,,,,,,,,,,,,,
12,"x: 293.251708984375
y: 257.3812561035156
z: -0.22215905785560608
visibility: 0.9999643564224243
","x: 294.6789245605469
y: 252.7600860595703
z: -0.20668646693229675
visibility: 0.9998658299446106
","x: 295.563720703125
y: 252.83267211914062
z: -0.20669150352478027
visibility: 0.9998826384544373
","x: 296.5009460449219
y: 252.90594482421875
z: -0.20671053230762482
visibility: 0.9998821020126343
","x: 291.817138671875
y: 252.87863159179688
z: -0.20883695781230927
visibility: 0.9998133778572083
","x: 290.6525573730469
y: 253.04893493652344
z: -0.20885881781578064
visibility: 0.9998063445091248
","x: 289.40533447265625
y: 253.28614807128906
z: -0.20885837078094482
visibility: 0.9997410178184509
","x: 297.9478759765625
y: 255.74278259277344
z: -0.11223220825195312
visibility: 0.9997495412826538
","x: 287.1224060058594
y: 256.2881774902344
z: -0.1243797317147255
visibility: 0.9992963075637817
","x: 294.79608154296875
y: 263.8857727050781
z: -0.18685050308704376
visibility: 0.9998799562454224
","x: 291.1174621582031
y: 263.95684814453125
z: -0.19041816890239716
visibility: 0.9998130798339844
","x: 306.54071044921875
y: 288.6709289550781
z: -0.04746343940496445
visibility: 0.9999481439590454
","x: 278.6010437011719
y: 289.66546630859375
z: -0.06949705630540848
visibility: 0.9994714856147766
","x: 316.10955810546875
y: 322.90509033203125
z: -0.013027680106461048
visibility: 0.9914471507072449
","x: 270.7381286621094
y: 330.92596435546875
z: -0.1472441852092743
visibility: 0.9459181427955627
","x: 323.56231689453125
y: 355.7394714355469
z: -0.06372839212417603
visibility: 0.990919828414917
","x: 279.22894287109375
y: 319.0257568359375
z: -0.3221338391304016
visibility: 0.9218858480453491
","x: 326.43280029296875
y: 365.7056884765625
z: -0.07836861163377762
visibility: 0.9751401543617249
","x: 280.9900817871094
y: 317.21893310546875
z: -0.3559539020061493
visibility: 0.8665080070495605
","x: 324.91094970703125
y: 367.50830078125
z: -0.10092484951019287
visibility: 0.97835373878479
","x: 282.4927062988281
y: 310.92047119140625
z: -0.3636091351509094
visibility: 0.8764688968658447
","x: 323.53436279296875
y: 364.7879333496094
z: -0.0732131227850914
visibility: 0.9724665284156799
","x: 282.3499450683594
y: 311.2884216308594
z: -0.32938942313194275
visibility: 0.8609614372253418
","x: 301.1211853027344
y: 366.82818603515625
z: 0.007351885549724102
visibility: 0.9994543790817261
","x: 282.404541015625
y: 366.69384765625
z: -0.0074117230251431465
visibility: 0.9994337558746338
","x: 298.63897705078125
y: 432.23773193359375
z: -0.06338981539011002
visibility: 0.9900515675544739
","x: 281.6278991699219
y: 431.1658935546875
z: -0.014463650062680244
visibility: 0.9903400540351868
","x: 297.06842041015625
y: 485.87255859375
z: 0.07068728655576706
visibility: 0.9912418127059937
","x: 277.9163818359375
y: 486.27978515625
z: 0.09171853959560394
visibility: 0.9908934235572815
","x: 294.8705139160156
y: 491.9406433105469
z: 0.07595803588628769
visibility: 0.885872483253479
","x: 279.0858459472656
y: 492.8441162109375
z: 0.09633812308311462
visibility: 0.841578483581543
","x: 300.6513366699219
y: 507.5777587890625
z: -0.010269828140735626
visibility: 0.9873907566070557
","x: 274.9486083984375
y: 507.4087219238281
z: -0.007784664630889893
visibility: 0.9861830472946167
",,,,,,,,,,,,,,,,,,,,,,4.9996256828308105,,,,,,,,,,,,,,,,,,,,,
13,"x: 293.251708984375
y: 257.3812561035156
z: -0.22215905785560608
visibility: 0.9999643564224243
","x: 294.6789245605469
y: 252.7600860595703
z: -0.20668646693229675
visibility: 0.9998658299446106
","x: 295.563720703125
y: 252.83267211914062
z: -0.20669150352478027
visibility: 0.9998826384544373
","x: 296.5009460449219
y: 252.90594482421875
z: -0.20671053230762482
visibility: 0.9998821020126343
","x: 291.817138671875
y: 252.87863159179688
z: -0.20883695781230927
visibility: 0.9998133778572083
","x: 290.6525573730469
y: 253.04893493652344
z: -0.20885881781578064
visibility: 0.9998063445091248
","x: 289.40533447265625
y: 253.28614807128906
z: -0.20885837078094482
visibility: 0.9997410178184509
","x: 297.9478759765625
y: 255.74278259277344
z: -0.11223220825195312
visibility: 0.9997495412826538
","x: 287.1224060058594
y: 256.2881774902344
z: -0.1243797317147255
visibility: 0.9992963075637817
","x: 294.79608154296875
y: 263.8857727050781
z: -0.18685050308704376
visibility: 0.9998799562454224
","x: 291.1174621582031
y: 263.95684814453125
z: -0.19041816890239716
visibility: 0.9998130798339844
","x: 306.54071044921875
y: 288.6709289550781
z: -0.04746343940496445
visibility: 0.9999481439590454
","x: 278.6010437011719
y: 289.66546630859375
z: -0.06949705630540848
visibility: 0.9994714856147766
","x: 316.10955810546875
y: 322.90509033203125
z: -0.013027680106461048
visibility: 0.9914471507072449
","x: 270.7381286621094
y: 330.92596435546875
z: -0.1472441852092743
visibility: 0.9459181427955627
","x: 323.56231689453125
y: 355.7394714355469
z: -0.06372839212417603
visibility: 0.990919828414917
","x: 279.22894287109375
y: 319.0257568359375
z: -0.3221338391304016
visibility: 0.9218858480453491
","x: 326.43280029296875
y: 365.7056884765625
z: -0.07836861163377762
visibility: 0.9751401543617249
","x: 280.9900817871094
y: 317.21893310546875
z: -0.3559539020061493
visibility: 0.8665080070495605
","x: 324.91094970703125
y: 367.50830078125
z: -0.10092484951019287
visibility: 0.97835373878479
","x: 282.4927062988281
y: 310.92047119140625
z: -0.3636091351509094
visibility: 0.8764688968658447
","x: 323.53436279296875
y: 364.7879333496094
z: -0.0732131227850914
visibility: 0.9724665284156799
","x: 282.3499450683594
y: 311.2884216308594
z: -0.32938942313194275
visibility: 0.8609614372253418
","x: 301.1211853027344
y: 366.82818603515625
z: 0.007351885549724102
visibility: 0.9994543790817261
","x: 282.404541015625
y: 366.69384765625
z: -0.0074117230251431465
visibility: 0.9994337558746338
","x: 298.63897705078125
y: 432.23773193359375
z: -0.06338981539011002
visibility: 0.9900515675544739
","x: 281.6278991699219
y: 431.1658935546875
z: -0.014463650062680244
visibility: 0.9903400540351868
","x: 297.06842041015625
y: 485.87255859375
z: 0.07068728655576706
visibility: 0.9912418127059937
","x: 277.9163818359375
y: 486.27978515625
z: 0.09171853959560394
visibility: 0.9908934235572815
","x: 294.8705139160156
y: 491.9406433105469
z: 0.07595803588628769
visibility: 0.885872483253479
","x: 279.0858459472656
y: 492.8441162109375
z: 0.09633812308311462
visibility: 0.841578483581543
","x: 300.6513366699219
y: 507.5777587890625
z: -0.010269828140735626
visibility: 0.9873907566070557
","x: 274.9486083984375
y: 507.4087219238281
z: -0.007784664630889893
visibility: 0.9861830472946167
",,,,,,,,,,,,,,,,,,,,,,4.9996256828308105,,,,,,,,,,,,,,,,,,,,,
14,"x: 292.8275451660156
y: 259.1009216308594
z: -0.1508689671754837
visibility: 0.9999650120735168
","x: 294.1780700683594
y: 254.49928283691406
z: -0.13478851318359375
visibility: 0.9998721480369568
","x: 295.00738525390625
y: 254.6123504638672
z: -0.13477455079555511
visibility: 0.9998862743377686
","x: 295.9183044433594
y: 254.75144958496094
z: -0.13478000462055206
visibility: 0.9998863935470581
","x: 291.2728271484375
y: 254.40945434570312
z: -0.14130575954914093
visibility: 0.9998235106468201
","x: 290.05938720703125
y: 254.48692321777344
z: -0.14131291210651398
visibility: 0.9998176097869873
","x: 288.78753662109375
y: 254.63409423828125
z: -0.14130376279354095
visibility: 0.9997583627700806
","x: 297.1705322265625
y: 257.55792236328125
z: -0.04496908560395241
visibility: 0.9997668266296387
","x: 286.2509460449219
y: 258.0096130371094
z: -0.07520443201065063
visibility: 0.9993477463722229
","x: 294.336669921875
y: 265.5429382324219
z: -0.11692190170288086
visibility: 0.9998868703842163
","x: 290.5199890136719
y: 265.115966796875
z: -0.12574928998947144
visibility: 0.9998238682746887
","x: 305.88214111328125
y: 290.1520080566406
z: 0.016892680898308754
visibility: 0.9999504685401917
","x: 277.20233154296875
y: 291.1583557128906
z: -0.04464748129248619
visibility: 0.9994863271713257
","x: 314.75079345703125
y: 321.82244873046875
z: 0.05721985176205635
visibility: 0.9907816648483276
","x: 273.5415954589844
y: 329.52484130859375
z: -0.14767777919769287
visibility: 0.9503889679908752
","x: 323.7313232421875
y: 346.9659729003906
z: -0.0023349805269390345
visibility: 0.9912172555923462
","x: 286.9322204589844
y: 308.9364318847656
z: -0.3102889060974121
visibility: 0.9292289018630981
","x: 328.38134765625
y: 355.715576171875
z: -0.014894423075020313
visibility: 0.9760632514953613
","x: 291.6213073730469
y: 303.2361145019531
z: -0.3451646864414215
visibility: 0.878634512424469
","x: 328.30169677734375
y: 356.66912841796875
z: -0.038935646414756775
visibility: 0.9791283011436462
","x: 292.0867614746094
y: 299.4622497558594
z: -0.3444128632545471
visibility: 0.8875296711921692
","x: 326.2355041503906
y: 353.81768798828125
z: -0.013049555011093616
visibility: 0.9733993411064148
","x: 290.7024230957031
y: 301.64361572265625
z: -0.31324589252471924
visibility: 0.8726541996002197
","x: 301.1218566894531
y: 366.6900634765625
z: 0.008425170555710793
visibility: 0.9994927048683167
","x: 282.260498046875
y: 366.75665283203125
z: -0.008427525870501995
visibility: 0.999457061290741
","x: 300.95013427734375
y: 432.24591064453125
z: -0.06809823960065842
visibility: 0.9907807111740112
","x: 279.4001159667969
y: 431.197509765625
z: -0.03655395656824112
visibility: 0.9905040264129639
","x: 299.1817932128906
y: 484.13568115234375
z: 0.06629027426242828
visibility: 0.9913435578346252
","x: 275.65277099609375
y: 488.1524658203125
z: 0.0713009238243103
visibility: 0.9910707473754883
","x: 296.6299743652344
y: 488.4773254394531
z: 0.07384758442640305
visibility: 0.8840858340263367
","x: 277.4085998535156
y: 494.8735046386719
z: 0.07661725580692291
visibility: 0.8434624671936035
","x: 300.7989807128906
y: 508.34552001953125
z: -0.02256503514945507
visibility: 0.987579345703125
","x: 273.021484375
y: 508.4640197753906
z: -0.024668287485837936
visibility: 0.9865491986274719
",,,,,,,,,,,,,,,,,,,,,,5.143580436706543,,,,,,,,,,,,,,,,,,,,,
15,"x: 292.8275451660156
y: 259.1009216308594
z: -0.1508689671754837
visibility: 0.9999650120735168
","x: 294.1780700683594
y: 254.49928283691406
z: -0.13478851318359375
visibility: 0.9998721480369568
","x: 295.00738525390625
y: 254.6123504638672
z: -0.13477455079555511
visibility: 0.9998862743377686
","x: 295.9183044433594
y: 254.75144958496094
z: -0.13478000462055206
visibility: 0.9998863935470581
","x: 291.2728271484375
y: 254.40945434570312
z: -0.14130575954914093
visibility: 0.9998235106468201
","x: 290.05938720703125
y: 254.48692321777344
z: -0.14131291210651398
visibility: 0.9998176097869873
","x: 288.78753662109375
y: 254.63409423828125
z: -0.14130376279354095
visibility: 0.9997583627700806
","x: 297.1705322265625
y: 257.55792236328125
z: -0.04496908560395241
visibility: 0.9997668266296387
","x: 286.2509460449219
y: 258.0096130371094
z: -0.07520443201065063
visibility: 0.9993477463722229
","x: 294.336669921875
y: 265.5429382324219
z: -0.11692190170288086
visibility: 0.9998868703842163
","x: 290.5199890136719
y: 265.115966796875
z: -0.12574928998947144
visibility: 0.9998238682746887
","x: 305.88214111328125
y: 290.1520080566406
z: 0.016892680898308754
visibility: 0.9999504685401917
","x: 277.20233154296875
y: 291.1583557128906
z: -0.04464748129248619
visibility: 0.9994863271713257
","x: 314.75079345703125
y: 321.82244873046875
z: 0.05721985176205635
visibility: 0.9907816648483276
","x: 273.5415954589844
y: 329.52484130859375
z: -0.14767777919769287
visibility: 0.9503889679908752
","x: 323.7313232421875
y: 346.9659729003906
z: -0.0023349805269390345
visibility: 0.9912172555923462
","x: 286.9322204589844
y: 308.9364318847656
z: -0.3102889060974121
visibility: 0.9292289018630981
","x: 328.38134765625
y: 355.715576171875
z: -0.014894423075020313
visibility: 0.9760632514953613
","x: 291.6213073730469
y: 303.2361145019531
z: -0.3451646864414215
visibility: 0.878634512424469
","x: 328.30169677734375
y: 356.66912841796875
z: -0.038935646414756775
visibility: 0.9791283011436462
","x: 292.0867614746094
y: 299.4622497558594
z: -0.3444128632545471
visibility: 0.8875296711921692
","x: 326.2355041503906
y: 353.81768798828125
z: -0.013049555011093616
visibility: 0.9733993411064148
","x: 290.7024230957031
y: 301.64361572265625
z: -0.31324589252471924
visibility: 0.8726541996002197
","x: 301.1218566894531
y: 366.6900634765625
z: 0.008425170555710793
visibility: 0.9994927048683167
","x: 282.260498046875
y: 366.75665283203125
z: -0.008427525870501995
visibility: 0.999457061290741
","x: 300.95013427734375
y: 432.24591064453125
z: -0.06809823960065842
visibility: 0.9907807111740112
","x: 279.4001159667969
y: 431.197509765625
z: -0.03655395656824112
visibility: 0.9905040264129639
","x: 299.1817932128906
y: 484.13568115234375
z: 0.06629027426242828
visibility: 0.9913435578346252
","x: 275.65277099609375
y: 488.1524658203125
z: 0.0713009238243103
visibility: 0.9910707473754883
","x: 296.6299743652344
y: 488.4773254394531
z: 0.07384758442640305
visibility: 0.8840858340263367
","x: 277.4085998535156
y: 494.8735046386719
z: 0.07661725580692291
visibility: 0.8434624671936035
","x: 300.7989807128906
y: 508.34552001953125
z: -0.02256503514945507
visibility: 0.987579345703125
","x: 273.021484375
y: 508.4640197753906
z: -0.024668287485837936
visibility: 0.9865491986274719
",,,,,,,,,,,,,,,,,,,,,,5.143580436706543,,,,,,,,,,,,,,,,,,,,,
16,"x: 293.73870849609375
y: 258.5703125
z: -0.10676733404397964
visibility: 0.9999666810035706
","x: 295.1604309082031
y: 254.40673828125
z: -0.08909812569618225
visibility: 0.9998801946640015
","x: 295.9355773925781
y: 254.71322631835938
z: -0.08908464014530182
visibility: 0.9998910427093506
","x: 296.7508544921875
y: 255.03201293945312
z: -0.08910247683525085
visibility: 0.9998922348022461
","x: 292.56048583984375
y: 253.9413604736328
z: -0.09687812626361847
visibility: 0.9998364448547363
","x: 291.4271545410156
y: 253.9279022216797
z: -0.09686582535505295
visibility: 0.9998308420181274
","x: 290.22955322265625
y: 253.94163513183594
z: -0.09687241911888123
visibility: 0.9997776746749878
","x: 297.515625
y: 258.4684143066406
z: 0.0022456247825175524
visibility: 0.9997839331626892
","x: 286.9010314941406
y: 257.42901611328125
z: -0.03349921107292175
visibility: 0.9994075894355774
","x: 294.5997314453125
y: 265.6962890625
z: -0.07254616171121597
visibility: 0.9998955726623535
","x: 291.0372314453125
y: 264.57110595703125
z: -0.0830715149641037
visibility: 0.9998387098312378
","x: 305.3623046875
y: 291.80352783203125
z: 0.05645940825343132
visibility: 0.9999523162841797
","x: 277.6305847167969
y: 289.9063415527344
z: -0.0415537990629673
visibility: 0.9995294809341431
","x: 315.4719543457031
y: 320.8951416015625
z: 0.07200251519680023
visibility: 0.9876582026481628
","x: 278.09124755859375
y: 314.9273681640625
z: -0.16259774565696716
visibility: 0.9546031951904297
","x: 329.55731201171875
y: 346.29229736328125
z: -0.0005050352192483842
visibility: 0.990388810634613
","x: 299.3865966796875
y: 318.5747375488281
z: -0.298850953578949
visibility: 0.9357641339302063
","x: 334.6751708984375
y: 352.87542724609375
z: -0.017965050414204597
visibility: 0.975172221660614
","x: 304.12548828125
y: 321.1270446777344
z: -0.3366042971611023
visibility: 0.8895633816719055
","x: 334.7837829589844
y: 353.3697509765625
z: -0.04066462069749832
visibility: 0.9782288074493408
","x: 305.69024658203125
y: 318.98712158203125
z: -0.3332618474960327
visibility: 0.8974964022636414
","x: 332.90179443359375
y: 351.36859130859375
z: -0.012253240682184696
visibility: 0.972377598285675
","x: 304.4886779785156
y: 318.08251953125
z: -0.30064839124679565
visibility: 0.8832030892372131
","x: 302.82464599609375
y: 368.3184509277344
z: 0.013273012824356556
visibility: 0.9995388388633728
","x: 282.50079345703125
y: 370.39483642578125
z: -0.013230524957180023
visibility: 0.9995058178901672
","x: 314.7255859375
y: 431.4346618652344
z: -0.07322678714990616
visibility: 0.9915574789047241
","x: 274.97857666015625
y: 434.4886779785156
z: -0.08357013016939163
visibility: 0.9913411736488342
","x: 310.537109375
y: 480.80194091796875
z: 0.07956522703170776
visibility: 0.991805374622345
","x: 274.7107238769531
y: 488.9352722167969
z: 0.06584236025810242
visibility: 0.9918469190597534
","x: 305.74261474609375
y: 487.2301025390625
z: 0.09752216190099716
visibility: 0.8905789256095886
","x: 277.2377624511719
y: 495.82330322265625
z: 0.07543738186359406
visibility: 0.8562123775482178
","x: 316.65557861328125
y: 506.10211181640625
z: 0.014464223757386208
visibility: 0.9881178140640259
","x: 270.3080139160156
y: 508.6903381347656
z: -0.023198671638965607
visibility: 0.9876306056976318
",,,,,,,,,,,,,,,,,,,,,,5.2674102783203125,"x: 299.9046936035156
y: 317.8061828613281
z: 0.0
","x: 303.9184265136719
y: 320.1940612792969
z: 0.0014583832817152143
","x: 307.5052185058594
y: 322.8280029296875
z: 0.00035546731669455767
","x: 309.62115478515625
y: 325.7069091796875
z: -0.00145100022200495
","x: 310.8895263671875
y: 328.12640380859375
z: -0.003129364224150777
","x: 308.77032470703125
y: 318.9966735839844
z: -0.002889320719987154
","x: 311.6350402832031
y: 322.5186462402344
z: -0.005714919418096542
","x: 312.20355224609375
y: 326.03082275390625
z: -0.006924118846654892
","x: 312.37677001953125
y: 328.4908752441406
z: -0.007534390781074762
","x: 307.36492919921875
y: 318.3485107421875
z: -0.0055213370360434055
","x: 309.8385925292969
y: 322.88134765625
z: -0.0083855502307415
","x: 310.31884765625
y: 326.58563232421875
z: -0.008704142645001411
","x: 310.4173278808594
y: 328.8271789550781
z: -0.008861356414854527
","x: 305.4253234863281
y: 318.3538513183594
z: -0.00798780843615532
","x: 307.4307861328125
y: 323.3389892578125
z: -0.01055237464606762
","x: 307.8847961425781
y: 326.6878662109375
z: -0.01002703607082367
","x: 308.0576477050781
y: 328.3731384277344
z: -0.009587349370121956
","x: 303.1712341308594
y: 319.0421447753906
z: -0.010374709963798523
","x: 304.3482971191406
y: 323.1252746582031
z: -0.012356107123196125
","x: 304.923583984375
y: 325.5158996582031
z: -0.012018246576189995
","x: 305.38690185546875
y: 326.7642822265625
z: -0.011613682843744755
"
17,"x: 293.73870849609375
y: 258.5703125
z: -0.10676733404397964
visibility: 0.9999666810035706
","x: 295.1604309082031
y: 254.40673828125
z: -0.08909812569618225
visibility: 0.9998801946640015
","x: 295.9355773925781
y: 254.71322631835938
z: -0.08908464014530182
visibility: 0.9998910427093506
","x: 296.7508544921875
y: 255.03201293945312
z: -0.08910247683525085
visibility: 0.9998922348022461
","x: 292.56048583984375
y: 253.9413604736328
z: -0.09687812626361847
visibility: 0.9998364448547363
","x: 291.4271545410156
y: 253.9279022216797
z: -0.09686582535505295
visibility: 0.9998308420181274
","x: 290.22955322265625
y: 253.94163513183594
z: -0.09687241911888123
visibility: 0.9997776746749878
","x: 297.515625
y: 258.4684143066406
z: 0.0022456247825175524
visibility: 0.9997839331626892
","x: 286.9010314941406
y: 257.42901611328125
z: -0.03349921107292175
visibility: 0.9994075894355774
","x: 294.5997314453125
y: 265.6962890625
z: -0.07254616171121597
visibility: 0.9998955726623535
","x: 291.0372314453125
y: 264.57110595703125
z: -0.0830715149641037
visibility: 0.9998387098312378
","x: 305.3623046875
y: 291.80352783203125
z: 0.05645940825343132
visibility: 0.9999523162841797
","x: 277.6305847167969
y: 289.9063415527344
z: -0.0415537990629673
visibility: 0.9995294809341431
","x: 315.4719543457031
y: 320.8951416015625
z: 0.07200251519680023
visibility: 0.9876582026481628
","x: 278.09124755859375
y: 314.9273681640625
z: -0.16259774565696716
visibility: 0.9546031951904297
","x: 329.55731201171875
y: 346.29229736328125
z: -0.0005050352192483842
visibility: 0.990388810634613
","x: 299.3865966796875
y: 318.5747375488281
z: -0.298850953578949
visibility: 0.9357641339302063
","x: 334.6751708984375
y: 352.87542724609375
z: -0.017965050414204597
visibility: 0.975172221660614
","x: 304.12548828125
y: 321.1270446777344
z: -0.3366042971611023
visibility: 0.8895633816719055
","x: 334.7837829589844
y: 353.3697509765625
z: -0.04066462069749832
visibility: 0.9782288074493408
","x: 305.69024658203125
y: 318.98712158203125
z: -0.3332618474960327
visibility: 0.8974964022636414
","x: 332.90179443359375
y: 351.36859130859375
z: -0.012253240682184696
visibility: 0.972377598285675
","x: 304.4886779785156
y: 318.08251953125
z: -0.30064839124679565
visibility: 0.8832030892372131
","x: 302.82464599609375
y: 368.3184509277344
z: 0.013273012824356556
visibility: 0.9995388388633728
","x: 282.50079345703125
y: 370.39483642578125
z: -0.013230524957180023
visibility: 0.9995058178901672
","x: 314.7255859375
y: 431.4346618652344
z: -0.07322678714990616
visibility: 0.9915574789047241
","x: 274.97857666015625
y: 434.4886779785156
z: -0.08357013016939163
visibility: 0.9913411736488342
","x: 310.537109375
y: 480.80194091796875
z: 0.07956522703170776
visibility: 0.991805374622345
","x: 274.7107238769531
y: 488.9352722167969
z: 0.06584236025810242
visibility: 0.9918469190597534
","x: 305.74261474609375
y: 487.2301025390625
z: 0.09752216190099716
visibility: 0.8905789256095886
","x: 277.2377624511719
y: 495.82330322265625
z: 0.07543738186359406
visibility: 0.8562123775482178
","x: 316.65557861328125
y: 506.10211181640625
z: 0.014464223757386208
visibility: 0.9881178140640259
","x: 270.3080139160156
y: 508.6903381347656
z: -0.023198671638965607
visibility: 0.9876306056976318
",,,,,,,,,,,,,,,,,,,,,,5.2674102783203125,"x: 299.9046936035156
y: 317.8061828613281
z: 0.0
","x: 303.9184265136719
y: 320.1940612792969
z: 0.0014583832817152143
","x: 307.5052185058594
y: 322.8280029296875
z: 0.00035546731669455767
","x: 309.62115478515625
y: 325.7069091796875
z: -0.00145100022200495
","x: 310.8895263671875
y: 328.12640380859375
z: -0.003129364224150777
","x: 308.77032470703125
y: 318.9966735839844
z: -0.002889320719987154
","x: 311.6350402832031
y: 322.5186462402344
z: -0.005714919418096542
","x: 312.20355224609375
y: 326.03082275390625
z: -0.006924118846654892
","x: 312.37677001953125
y: 328.4908752441406
z: -0.007534390781074762
","x: 307.36492919921875
y: 318.3485107421875
z: -0.0055213370360434055
","x: 309.8385925292969
y: 322.88134765625
z: -0.0083855502307415
","x: 310.31884765625
y: 326.58563232421875
z: -0.008704142645001411
","x: 310.4173278808594
y: 328.8271789550781
z: -0.008861356414854527
","x: 305.4253234863281
y: 318.3538513183594
z: -0.00798780843615532
","x: 307.4307861328125
y: 323.3389892578125
z: -0.01055237464606762
","x: 307.8847961425781
y: 326.6878662109375
z: -0.01002703607082367
","x: 308.0576477050781
y: 328.3731384277344
z: -0.009587349370121956
","x: 303.1712341308594
y: 319.0421447753906
z: -0.010374709963798523
","x: 304.3482971191406
y: 323.1252746582031
z: -0.012356107123196125
","x: 304.923583984375
y: 325.5158996582031
z: -0.012018246576189995
","x: 305.38690185546875
y: 326.7642822265625
z: -0.011613682843744755
"
18,"x: 293.73870849609375
y: 258.5703125
z: -0.10676733404397964
visibility: 0.9999666810035706
","x: 295.1604309082031
y: 254.40673828125
z: -0.08909812569618225
visibility: 0.9998801946640015
","x: 295.9355773925781
y: 254.71322631835938
z: -0.08908464014530182
visibility: 0.9998910427093506
","x: 296.7508544921875
y: 255.03201293945312
z: -0.08910247683525085
visibility: 0.9998922348022461
","x: 292.56048583984375
y: 253.9413604736328
z: -0.09687812626361847
visibility: 0.9998364448547363
","x: 291.4271545410156
y: 253.9279022216797
z: -0.09686582535505295
visibility: 0.9998308420181274
","x: 290.22955322265625
y: 253.94163513183594
z: -0.09687241911888123
visibility: 0.9997776746749878
","x: 297.515625
y: 258.4684143066406
z: 0.0022456247825175524
visibility: 0.9997839331626892
","x: 286.9010314941406
y: 257.42901611328125
z: -0.03349921107292175
visibility: 0.9994075894355774
","x: 294.5997314453125
y: 265.6962890625
z: -0.07254616171121597
visibility: 0.9998955726623535
","x: 291.0372314453125
y: 264.57110595703125
z: -0.0830715149641037
visibility: 0.9998387098312378
","x: 305.3623046875
y: 291.80352783203125
z: 0.05645940825343132
visibility: 0.9999523162841797
","x: 277.6305847167969
y: 289.9063415527344
z: -0.0415537990629673
visibility: 0.9995294809341431
","x: 315.4719543457031
y: 320.8951416015625
z: 0.07200251519680023
visibility: 0.9876582026481628
","x: 278.09124755859375
y: 314.9273681640625
z: -0.16259774565696716
visibility: 0.9546031951904297
","x: 329.55731201171875
y: 346.29229736328125
z: -0.0005050352192483842
visibility: 0.990388810634613
","x: 299.3865966796875
y: 318.5747375488281
z: -0.298850953578949
visibility: 0.9357641339302063
","x: 334.6751708984375
y: 352.87542724609375
z: -0.017965050414204597
visibility: 0.975172221660614
","x: 304.12548828125
y: 321.1270446777344
z: -0.3366042971611023
visibility: 0.8895633816719055
","x: 334.7837829589844
y: 353.3697509765625
z: -0.04066462069749832
visibility: 0.9782288074493408
","x: 305.69024658203125
y: 318.98712158203125
z: -0.3332618474960327
visibility: 0.8974964022636414
","x: 332.90179443359375
y: 351.36859130859375
z: -0.012253240682184696
visibility: 0.972377598285675
","x: 304.4886779785156
y: 318.08251953125
z: -0.30064839124679565
visibility: 0.8832030892372131
","x: 302.82464599609375
y: 368.3184509277344
z: 0.013273012824356556
visibility: 0.9995388388633728
","x: 282.50079345703125
y: 370.39483642578125
z: -0.013230524957180023
visibility: 0.9995058178901672
","x: 314.7255859375
y: 431.4346618652344
z: -0.07322678714990616
visibility: 0.9915574789047241
","x: 274.97857666015625
y: 434.4886779785156
z: -0.08357013016939163
visibility: 0.9913411736488342
","x: 310.537109375
y: 480.80194091796875
z: 0.07956522703170776
visibility: 0.991805374622345
","x: 274.7107238769531
y: 488.9352722167969
z: 0.06584236025810242
visibility: 0.9918469190597534
","x: 305.74261474609375
y: 487.2301025390625
z: 0.09752216190099716
visibility: 0.8905789256095886
","x: 277.2377624511719
y: 495.82330322265625
z: 0.07543738186359406
visibility: 0.8562123775482178
","x: 316.65557861328125
y: 506.10211181640625
z: 0.014464223757386208
visibility: 0.9881178140640259
","x: 270.3080139160156
y: 508.6903381347656
z: -0.023198671638965607
visibility: 0.9876306056976318
",,,,,,,,,,,,,,,,,,,,,,5.2674102783203125,"x: 299.9046936035156
y: 317.8061828613281
z: 0.0
","x: 303.9184265136719
y: 320.1940612792969
z: 0.0014583832817152143
","x: 307.5052185058594
y: 322.8280029296875
z: 0.00035546731669455767
","x: 309.62115478515625
y: 325.7069091796875
z: -0.00145100022200495
","x: 310.8895263671875
y: 328.12640380859375
z: -0.003129364224150777
","x: 308.77032470703125
y: 318.9966735839844
z: -0.002889320719987154
","x: 311.6350402832031
y: 322.5186462402344
z: -0.005714919418096542
","x: 312.20355224609375
y: 326.03082275390625
z: -0.006924118846654892
","x: 312.37677001953125
y: 328.4908752441406
z: -0.007534390781074762
","x: 307.36492919921875
y: 318.3485107421875
z: -0.0055213370360434055
","x: 309.8385925292969
y: 322.88134765625
z: -0.0083855502307415
","x: 310.31884765625
y: 326.58563232421875
z: -0.008704142645001411
","x: 310.4173278808594
y: 328.8271789550781
z: -0.008861356414854527
","x: 305.4253234863281
y: 318.3538513183594
z: -0.00798780843615532
","x: 307.4307861328125
y: 323.3389892578125
z: -0.01055237464606762
","x: 307.8847961425781
y: 326.6878662109375
z: -0.01002703607082367
","x: 308.0576477050781
y: 328.3731384277344
z: -0.009587349370121956
","x: 303.1712341308594
y: 319.0421447753906
z: -0.010374709963798523
","x: 304.3482971191406
y: 323.1252746582031
z: -0.012356107123196125
","x: 304.923583984375
y: 325.5158996582031
z: -0.012018246576189995
","x: 305.38690185546875
y: 326.7642822265625
z: -0.011613682843744755
"
19,"x: 295.42352294921875
y: 263.85687255859375
z: -0.15433281660079956
visibility: 0.9999694228172302
","x: 296.44451904296875
y: 259.6044616699219
z: -0.13618779182434082
visibility: 0.9998899102210999
","x: 297.2275085449219
y: 259.83111572265625
z: -0.13619455695152283
visibility: 0.9998992085456848
","x: 297.99810791015625
y: 260.0384216308594
z: -0.1362377405166626
visibility: 0.9999005198478699
","x: 293.7363586425781
y: 259.34271240234375
z: -0.14356370270252228
visibility: 0.9998505711555481
","x: 292.537353515625
y: 259.4449768066406
z: -0.14356915652751923
visibility: 0.9998457431793213
","x: 291.29443359375
y: 259.5641174316406
z: -0.1435810923576355
visibility: 0.9997977614402771
","x: 298.2855224609375
y: 263.9903564453125
z: -0.04437445104122162
visibility: 0.9998018741607666
","x: 288.0901794433594
y: 263.40643310546875
z: -0.0771208181977272
visibility: 0.9994642734527588
","x: 296.2574157714844
y: 270.78607177734375
z: -0.12038855254650116
visibility: 0.9999048709869385
","x: 292.8679504394531
y: 270.571044921875
z: -0.13005639612674713
visibility: 0.999853253364563
","x: 307.2557373046875
y: 298.12847900390625
z: 0.018058519810438156
visibility: 0.9999544620513916
","x: 279.940673828125
y: 293.2980651855469
z: -0.06915858387947083
visibility: 0.9995689392089844
","x: 320.67401123046875
y: 328.486083984375
z: 0.039617110043764114
visibility: 0.9842076301574707
","x: 281.50732421875
y: 317.1490478515625
z: -0.17079848051071167
visibility: 0.9564422369003296
","x: 338.1583557128906
y: 348.55706787109375
z: -0.03989951312541962
visibility: 0.9889845252037048
","x: 291.74566650390625
y: 344.7230224609375
z: -0.31561079621315
visibility: 0.9403857588768005
","x: 344.2834777832031
y: 358.8140869140625
z: -0.05642176419496536
visibility: 0.9734497666358948
","x: 292.44439697265625
y: 354.98944091796875
z: -0.3563369810581207
visibility: 0.897443950176239
","x: 344.6341552734375
y: 359.6995544433594
z: -0.08447779715061188
visibility: 0.9767925143241882
","x: 294.9332275390625
y: 354.6878356933594
z: -0.36008161306381226
visibility: 0.9045346975326538
","x: 342.7867736816406
y: 357.1295471191406
z: -0.05430208891630173
visibility: 0.9707424640655518
","x: 295.3419189453125
y: 351.5091247558594
z: -0.3214249014854431
visibility: 0.8899553418159485
","x: 307.9954528808594
y: 373.0794677734375
z: 0.011910578235983849
visibility: 0.9995794892311096
","x: 287.3137512207031
y: 376.3670349121094
z: -0.011888459324836731
visibility: 0.9995505213737488
","x: 320.5361328125
y: 432.9881286621094
z: -0.08394112437963486
visibility: 0.9922838807106018
","x: 268.9474792480469
y: 432.75030517578125
z: -0.1307816207408905
visibility: 0.9921679496765137
","x: 323.26348876953125
y: 482.53668212890625
z: 0.09609488397836685
visibility: 0.9923223257064819
","x: 272.5624084472656
y: 484.5894775390625
z: 0.04327983781695366
visibility: 0.9925883412361145
","x: 320.7838134765625
y: 489.03363037109375
z: 0.11191679537296295
visibility: 0.8938829302787781
","x: 276.9947204589844
y: 490.41943359375
z: 0.05607757717370987
visibility: 0.8685503602027893
","x: 327.3678283691406
y: 506.1430358886719
z: 0.01989297941327095
visibility: 0.988560140132904
","x: 269.5841979980469
y: 508.8243103027344
z: -0.03276340290904045
visibility: 0.9886696934700012
",,,,,,,,,,,,,,,,,,,,,,5.394546031951904,"x: 289.6377258300781
y: 348.24908447265625
z: 0.0
","x: 292.4102478027344
y: 353.2607421875
z: 0.001506499364040792
","x: 293.966064453125
y: 358.73211669921875
z: 0.0009195625316351652
","x: 294.1704406738281
y: 363.4997253417969
z: -0.0001906806428451091
","x: 293.8480224609375
y: 367.07952880859375
z: -0.0012313694460317492
","x: 295.2510070800781
y: 359.201416015625
z: -0.002061564940959215
","x: 296.1279296875
y: 366.0235900878906
z: -0.003971768543124199
","x: 296.24114990234375
y: 370.3472595214844
z: -0.004687577486038208
","x: 296.1752624511719
y: 373.64312744140625
z: -0.005048395600169897
","x: 293.4507141113281
y: 359.1444396972656
z: -0.004336037673056126
","x: 293.95635986328125
y: 366.9411926269531
z: -0.006344865541905165
","x: 293.8418273925781
y: 371.6895751953125
z: -0.006611694116145372
","x: 293.6528625488281
y: 375.1800842285156
z: -0.006815049797296524
","x: 291.23590087890625
y: 358.8992004394531
z: -0.006397312972694635
","x: 291.34234619140625
y: 366.2086181640625
z: -0.008025829680263996
","x: 290.8882751464844
y: 370.0137023925781
z: -0.007583191618323326
","x: 290.4881896972656
y: 372.657958984375
z: -0.007314920891076326
","x: 288.91400146484375
y: 358.5589294433594
z: -0.008408880792558193
","x: 288.873779296875
y: 364.1913146972656
z: -0.009673119522631168
","x: 288.7198791503906
y: 367.4410705566406
z: -0.00949257705360651
","x: 288.59368896484375
y: 370.09912109375
z: -0.009319573640823364
"
20,"x: 295.42352294921875
y: 263.85687255859375
z: -0.15433281660079956
visibility: 0.9999694228172302
","x: 296.44451904296875
y: 259.6044616699219
z: -0.13618779182434082
visibility: 0.9998899102210999
","x: 297.2275085449219
y: 259.83111572265625
z: -0.13619455695152283
visibility: 0.9998992085456848
","x: 297.99810791015625
y: 260.0384216308594
z: -0.1362377405166626
visibility: 0.9999005198478699
","x: 293.7363586425781
y: 259.34271240234375
z: -0.14356370270252228
visibility: 0.9998505711555481
","x: 292.537353515625
y: 259.4449768066406
z: -0.14356915652751923
visibility: 0.9998457431793213
","x: 291.29443359375
y: 259.5641174316406
z: -0.1435810923576355
visibility: 0.9997977614402771
","x: 298.2855224609375
y: 263.9903564453125
z: -0.04437445104122162
visibility: 0.9998018741607666
","x: 288.0901794433594
y: 263.40643310546875
z: -0.0771208181977272
visibility: 0.9994642734527588
","x: 296.2574157714844
y: 270.78607177734375
z: -0.12038855254650116
visibility: 0.9999048709869385
","x: 292.8679504394531
y: 270.571044921875
z: -0.13005639612674713
visibility: 0.999853253364563
","x: 307.2557373046875
y: 298.12847900390625
z: 0.018058519810438156
visibility: 0.9999544620513916
","x: 279.940673828125
y: 293.2980651855469
z: -0.06915858387947083
visibility: 0.9995689392089844
","x: 320.67401123046875
y: 328.486083984375
z: 0.039617110043764114
visibility: 0.9842076301574707
","x: 281.50732421875
y: 317.1490478515625
z: -0.17079848051071167
visibility: 0.9564422369003296
","x: 338.1583557128906
y: 348.55706787109375
z: -0.03989951312541962
visibility: 0.9889845252037048
","x: 291.74566650390625
y: 344.7230224609375
z: -0.31561079621315
visibility: 0.9403857588768005
","x: 344.2834777832031
y: 358.8140869140625
z: -0.05642176419496536
visibility: 0.9734497666358948
","x: 292.44439697265625
y: 354.98944091796875
z: -0.3563369810581207
visibility: 0.897443950176239
","x: 344.6341552734375
y: 359.6995544433594
z: -0.08447779715061188
visibility: 0.9767925143241882
","x: 294.9332275390625
y: 354.6878356933594
z: -0.36008161306381226
visibility: 0.9045346975326538
","x: 342.7867736816406
y: 357.1295471191406
z: -0.05430208891630173
visibility: 0.9707424640655518
","x: 295.3419189453125
y: 351.5091247558594
z: -0.3214249014854431
visibility: 0.8899553418159485
","x: 307.9954528808594
y: 373.0794677734375
z: 0.011910578235983849
visibility: 0.9995794892311096
","x: 287.3137512207031
y: 376.3670349121094
z: -0.011888459324836731
visibility: 0.9995505213737488
","x: 320.5361328125
y: 432.9881286621094
z: -0.08394112437963486
visibility: 0.9922838807106018
","x: 268.9474792480469
y: 432.75030517578125
z: -0.1307816207408905
visibility: 0.9921679496765137
","x: 323.26348876953125
y: 482.53668212890625
z: 0.09609488397836685
visibility: 0.9923223257064819
","x: 272.5624084472656
y: 484.5894775390625
z: 0.04327983781695366
visibility: 0.9925883412361145
","x: 320.7838134765625
y: 489.03363037109375
z: 0.11191679537296295
visibility: 0.8938829302787781
","x: 276.9947204589844
y: 490.41943359375
z: 0.05607757717370987
visibility: 0.8685503602027893
","x: 327.3678283691406
y: 506.1430358886719
z: 0.01989297941327095
visibility: 0.988560140132904
","x: 269.5841979980469
y: 508.8243103027344
z: -0.03276340290904045
visibility: 0.9886696934700012
",,,,,,,,,,,,,,,,,,,,,,5.394546031951904,"x: 289.6377258300781
y: 348.24908447265625
z: 0.0
","x: 292.4102478027344
y: 353.2607421875
z: 0.001506499364040792
","x: 293.966064453125
y: 358.73211669921875
z: 0.0009195625316351652
","x: 294.1704406738281
y: 363.4997253417969
z: -0.0001906806428451091
","x: 293.8480224609375
y: 367.07952880859375
z: -0.0012313694460317492
","x: 295.2510070800781
y: 359.201416015625
z: -0.002061564940959215
","x: 296.1279296875
y: 366.0235900878906
z: -0.003971768543124199
","x: 296.24114990234375
y: 370.3472595214844
z: -0.004687577486038208
","x: 296.1752624511719
y: 373.64312744140625
z: -0.005048395600169897
","x: 293.4507141113281
y: 359.1444396972656
z: -0.004336037673056126
","x: 293.95635986328125
y: 366.9411926269531
z: -0.006344865541905165
","x: 293.8418273925781
y: 371.6895751953125
z: -0.006611694116145372
","x: 293.6528625488281
y: 375.1800842285156
z: -0.006815049797296524
","x: 291.23590087890625
y: 358.8992004394531
z: -0.006397312972694635
","x: 291.34234619140625
y: 366.2086181640625
z: -0.008025829680263996
","x: 290.8882751464844
y: 370.0137023925781
z: -0.007583191618323326
","x: 290.4881896972656
y: 372.657958984375
z: -0.007314920891076326
","x: 288.91400146484375
y: 358.5589294433594
z: -0.008408880792558193
","x: 288.873779296875
y: 364.1913146972656
z: -0.009673119522631168
","x: 288.7198791503906
y: 367.4410705566406
z: -0.00949257705360651
","x: 288.59368896484375
y: 370.09912109375
z: -0.009319573640823364
"
21,"x: 295.42352294921875
y: 263.85687255859375
z: -0.15433281660079956
visibility: 0.9999694228172302
","x: 296.44451904296875
y: 259.6044616699219
z: -0.13618779182434082
visibility: 0.9998899102210999
","x: 297.2275085449219
y: 259.83111572265625
z: -0.13619455695152283
visibility: 0.9998992085456848
","x: 297.99810791015625
y: 260.0384216308594
z: -0.1362377405166626
visibility: 0.9999005198478699
","x: 293.7363586425781
y: 259.34271240234375
z: -0.14356370270252228
visibility: 0.9998505711555481
","x: 292.537353515625
y: 259.4449768066406
z: -0.14356915652751923
visibility: 0.9998457431793213
","x: 291.29443359375
y: 259.5641174316406
z: -0.1435810923576355
visibility: 0.9997977614402771
","x: 298.2855224609375
y: 263.9903564453125
z: -0.04437445104122162
visibility: 0.9998018741607666
","x: 288.0901794433594
y: 263.40643310546875
z: -0.0771208181977272
visibility: 0.9994642734527588
","x: 296.2574157714844
y: 270.78607177734375
z: -0.12038855254650116
visibility: 0.9999048709869385
","x: 292.8679504394531
y: 270.571044921875
z: -0.13005639612674713
visibility: 0.999853253364563
","x: 307.2557373046875
y: 298.12847900390625
z: 0.018058519810438156
visibility: 0.9999544620513916
","x: 279.940673828125
y: 293.2980651855469
z: -0.06915858387947083
visibility: 0.9995689392089844
","x: 320.67401123046875
y: 328.486083984375
z: 0.039617110043764114
visibility: 0.9842076301574707
","x: 281.50732421875
y: 317.1490478515625
z: -0.17079848051071167
visibility: 0.9564422369003296
","x: 338.1583557128906
y: 348.55706787109375
z: -0.03989951312541962
visibility: 0.9889845252037048
","x: 291.74566650390625
y: 344.7230224609375
z: -0.31561079621315
visibility: 0.9403857588768005
","x: 344.2834777832031
y: 358.8140869140625
z: -0.05642176419496536
visibility: 0.9734497666358948
","x: 292.44439697265625
y: 354.98944091796875
z: -0.3563369810581207
visibility: 0.897443950176239
","x: 344.6341552734375
y: 359.6995544433594
z: -0.08447779715061188
visibility: 0.9767925143241882
","x: 294.9332275390625
y: 354.6878356933594
z: -0.36008161306381226
visibility: 0.9045346975326538
","x: 342.7867736816406
y: 357.1295471191406
z: -0.05430208891630173
visibility: 0.9707424640655518
","x: 295.3419189453125
y: 351.5091247558594
z: -0.3214249014854431
visibility: 0.8899553418159485
","x: 307.9954528808594
y: 373.0794677734375
z: 0.011910578235983849
visibility: 0.9995794892311096
","x: 287.3137512207031
y: 376.3670349121094
z: -0.011888459324836731
visibility: 0.9995505213737488
","x: 320.5361328125
y: 432.9881286621094
z: -0.08394112437963486
visibility: 0.9922838807106018
","x: 268.9474792480469
y: 432.75030517578125
z: -0.1307816207408905
visibility: 0.9921679496765137
","x: 323.26348876953125
y: 482.53668212890625
z: 0.09609488397836685
visibility: 0.9923223257064819
","x: 272.5624084472656
y: 484.5894775390625
z: 0.04327983781695366
visibility: 0.9925883412361145
","x: 320.7838134765625
y: 489.03363037109375
z: 0.11191679537296295
visibility: 0.8938829302787781
","x: 276.9947204589844
y: 490.41943359375
z: 0.05607757717370987
visibility: 0.8685503602027893
","x: 327.3678283691406
y: 506.1430358886719
z: 0.01989297941327095
visibility: 0.988560140132904
","x: 269.5841979980469
y: 508.8243103027344
z: -0.03276340290904045
visibility: 0.9886696934700012
",,,,,,,,,,,,,,,,,,,,,,5.394546031951904,"x: 289.6377258300781
y: 348.24908447265625
z: 0.0
","x: 292.4102478027344
y: 353.2607421875
z: 0.001506499364040792
","x: 293.966064453125
y: 358.73211669921875
z: 0.0009195625316351652
","x: 294.1704406738281
y: 363.4997253417969
z: -0.0001906806428451091
","x: 293.8480224609375
y: 367.07952880859375
z: -0.0012313694460317492
","x: 295.2510070800781
y: 359.201416015625
z: -0.002061564940959215
","x: 296.1279296875
y: 366.0235900878906
z: -0.003971768543124199
","x: 296.24114990234375
y: 370.3472595214844
z: -0.004687577486038208
","x: 296.1752624511719
y: 373.64312744140625
z: -0.005048395600169897
","x: 293.4507141113281
y: 359.1444396972656
z: -0.004336037673056126
","x: 293.95635986328125
y: 366.9411926269531
z: -0.006344865541905165
","x: 293.8418273925781
y: 371.6895751953125
z: -0.006611694116145372
","x: 293.6528625488281
y: 375.1800842285156
z: -0.006815049797296524
","x: 291.23590087890625
y: 358.8992004394531
z: -0.006397312972694635
","x: 291.34234619140625
y: 366.2086181640625
z: -0.008025829680263996
","x: 290.8882751464844
y: 370.0137023925781
z: -0.007583191618323326
","x: 290.4881896972656
y: 372.657958984375
z: -0.007314920891076326
","x: 288.91400146484375
y: 358.5589294433594
z: -0.008408880792558193
","x: 288.873779296875
y: 364.1913146972656
z: -0.009673119522631168
","x: 288.7198791503906
y: 367.4410705566406
z: -0.00949257705360651
","x: 288.59368896484375
y: 370.09912109375
z: -0.009319573640823364
"
22,"x: 294.7279357910156
y: 266.0283203125
z: -0.25639426708221436
visibility: 0.999972403049469
","x: 295.985107421875
y: 260.9756774902344
z: -0.243496373295784
visibility: 0.9999003410339355
","x: 296.90728759765625
y: 260.96484375
z: -0.24350647628307343
visibility: 0.9999087452888489
","x: 297.8035583496094
y: 260.9757385253906
z: -0.24353119730949402
visibility: 0.9999097585678101
","x: 293.08416748046875
y: 261.2237243652344
z: -0.2437802106142044
visibility: 0.9998648166656494
","x: 291.8555908203125
y: 261.4853515625
z: -0.24379988014698029
visibility: 0.9998604655265808
","x: 290.5650939941406
y: 261.86566162109375
z: -0.24376580119132996
visibility: 0.9998171329498291
","x: 299.00946044921875
y: 263.6562805175781
z: -0.15368294715881348
visibility: 0.9998204112052917
","x: 287.86480712890625
y: 264.9036865234375
z: -0.15394948422908783
visibility: 0.9995164275169373
","x: 296.1474304199219
y: 272.7972717285156
z: -0.22175724804401398
visibility: 0.99991375207901
","x: 292.4018249511719
y: 272.970458984375
z: -0.22188155353069305
visibility: 0.9998670220375061
","x: 307.9261169433594
y: 296.0196228027344
z: -0.07441668212413788
visibility: 0.9999583959579468
","x: 280.22991943359375
y: 296.2838134765625
z: -0.07831750810146332
visibility: 0.9996080994606018
","x: 318.9007873535156
y: 324.2972412109375
z: -0.012497073039412498
visibility: 0.9846222996711731
","x: 277.5041809082031
y: 331.2422180175781
z: -0.05314011499285698
visibility: 0.9595652222633362
","x: 331.6697082519531
y: 343.67242431640625
z: -0.06660240143537521
visibility: 0.9890596866607666
","x: 267.6354064941406
y: 360.8489990234375
z: -0.10941983759403229
visibility: 0.9445933699607849
","x: 336.5791320800781
y: 350.91754150390625
z: -0.07716331630945206
visibility: 0.9733328819274902
","x: 262.7225646972656
y: 371.4637451171875
z: -0.12663637101650238
visibility: 0.9031438231468201
","x: 336.5428771972656
y: 350.6834411621094
z: -0.1047210693359375
visibility: 0.9767281413078308
","x: 262.3734130859375
y: 372.4236755371094
z: -0.15547527372837067
visibility: 0.9099663496017456
","x: 334.95001220703125
y: 348.1869812011719
z: -0.07928072661161423
visibility: 0.9706904888153076
","x: 264.4726867675781
y: 369.8363037109375
z: -0.12277708202600479
visibility: 0.8965390920639038
","x: 305.7270812988281
y: 373.7702941894531
z: 0.005228062160313129
visibility: 0.9996147155761719
","x: 285.4281921386719
y: 375.8030700683594
z: -0.005313598085194826
visibility: 0.9995867609977722
","x: 314.7720947265625
y: 434.665283203125
z: -0.02676961198449135
visibility: 0.9929656386375427
","x: 271.2051086425781
y: 435.8578796386719
z: -0.04093048721551895
visibility: 0.9928892850875854
","x: 322.8048400878906
y: 483.49224853515625
z: 0.11500535905361176
visibility: 0.9929927587509155
","x: 272.7911682128906
y: 484.9525451660156
z: 0.11714667081832886
visibility: 0.9932368397712708
","x: 321.7354736328125
y: 490.168212890625
z: 0.12389318645000458
visibility: 0.9008988738059998
","x: 276.9266357421875
y: 490.0892333984375
z: 0.127370223402977
visibility: 0.8781086206436157
","x: 328.86419677734375
y: 505.8173828125
z: 0.03023303672671318
visibility: 0.9894692301750183
","x: 269.7586669921875
y: 509.1021423339844
z: 0.04145762696862221
visibility: 0.9895880222320557
",,,,,,,,,,,,,,,,,,,,,,5.520102262496948,,,,,,,,,,,,,,,,,,,,,
23,"x: 294.7279357910156
y: 266.0283203125
z: -0.25639426708221436
visibility: 0.999972403049469
","x: 295.985107421875
y: 260.9756774902344
z: -0.243496373295784
visibility: 0.9999003410339355
","x: 296.90728759765625
y: 260.96484375
z: -0.24350647628307343
visibility: 0.9999087452888489
","x: 297.8035583496094
y: 260.9757385253906
z: -0.24353119730949402
visibility: 0.9999097585678101
","x: 293.08416748046875
y: 261.2237243652344
z: -0.2437802106142044
visibility: 0.9998648166656494
","x: 291.8555908203125
y: 261.4853515625
z: -0.24379988014698029
visibility: 0.9998604655265808
","x: 290.5650939941406
y: 261.86566162109375
z: -0.24376580119132996
visibility: 0.9998171329498291
","x: 299.00946044921875
y: 263.6562805175781
z: -0.15368294715881348
visibility: 0.9998204112052917
","x: 287.86480712890625
y: 264.9036865234375
z: -0.15394948422908783
visibility: 0.9995164275169373
","x: 296.1474304199219
y: 272.7972717285156
z: -0.22175724804401398
visibility: 0.99991375207901
","x: 292.4018249511719
y: 272.970458984375
z: -0.22188155353069305
visibility: 0.9998670220375061
","x: 307.9261169433594
y: 296.0196228027344
z: -0.07441668212413788
visibility: 0.9999583959579468
","x: 280.22991943359375
y: 296.2838134765625
z: -0.07831750810146332
visibility: 0.9996080994606018
","x: 318.9007873535156
y: 324.2972412109375
z: -0.012497073039412498
visibility: 0.9846222996711731
","x: 277.5041809082031
y: 331.2422180175781
z: -0.05314011499285698
visibility: 0.9595652222633362
","x: 331.6697082519531
y: 343.67242431640625
z: -0.06660240143537521
visibility: 0.9890596866607666
","x: 267.6354064941406
y: 360.8489990234375
z: -0.10941983759403229
visibility: 0.9445933699607849
","x: 336.5791320800781
y: 350.91754150390625
z: -0.07716331630945206
visibility: 0.9733328819274902
","x: 262.7225646972656
y: 371.4637451171875
z: -0.12663637101650238
visibility: 0.9031438231468201
","x: 336.5428771972656
y: 350.6834411621094
z: -0.1047210693359375
visibility: 0.9767281413078308
","x: 262.3734130859375
y: 372.4236755371094
z: -0.15547527372837067
visibility: 0.9099663496017456
","x: 334.95001220703125
y: 348.1869812011719
z: -0.07928072661161423
visibility: 0.9706904888153076
","x: 264.4726867675781
y: 369.8363037109375
z: -0.12277708202600479
visibility: 0.8965390920639038
","x: 305.7270812988281
y: 373.7702941894531
z: 0.005228062160313129
visibility: 0.9996147155761719
","x: 285.4281921386719
y: 375.8030700683594
z: -0.005313598085194826
visibility: 0.9995867609977722
","x: 314.7720947265625
y: 434.665283203125
z: -0.02676961198449135
visibility: 0.9929656386375427
","x: 271.2051086425781
y: 435.8578796386719
z: -0.04093048721551895
visibility: 0.9928892850875854
","x: 322.8048400878906
y: 483.49224853515625
z: 0.11500535905361176
visibility: 0.9929927587509155
","x: 272.7911682128906
y: 484.9525451660156
z: 0.11714667081832886
visibility: 0.9932368397712708
","x: 321.7354736328125
y: 490.168212890625
z: 0.12389318645000458
visibility: 0.9008988738059998
","x: 276.9266357421875
y: 490.0892333984375
z: 0.127370223402977
visibility: 0.8781086206436157
","x: 328.86419677734375
y: 505.8173828125
z: 0.03023303672671318
visibility: 0.9894692301750183
","x: 269.7586669921875
y: 509.1021423339844
z: 0.04145762696862221
visibility: 0.9895880222320557
",,,,,,,,,,,,,,,,,,,,,,5.520102262496948,,,,,,,,,,,,,,,,,,,,,
24,"x: 292.6407470703125
y: 263.96051025390625
z: -0.277034193277359
visibility: 0.9999741315841675
","x: 294.380859375
y: 259.1731872558594
z: -0.26317518949508667
visibility: 0.9999067783355713
","x: 295.44927978515625
y: 259.2355651855469
z: -0.26319432258605957
visibility: 0.9999139904975891
","x: 296.3842468261719
y: 259.3130187988281
z: -0.2632126212120056
visibility: 0.9999144673347473
","x: 291.08941650390625
y: 259.2659606933594
z: -0.26484447717666626
visibility: 0.999874472618103
","x: 289.8672790527344
y: 259.4799499511719
z: -0.2648688852787018
visibility: 0.9998700618743896
","x: 288.71240234375
y: 259.7928466796875
z: -0.264855295419693
visibility: 0.9998308420181274
","x: 297.8214111328125
y: 262.295166015625
z: -0.17162752151489258
visibility: 0.9998294115066528
","x: 286.7314453125
y: 263.2381286621094
z: -0.177700012922287
visibility: 0.9995542168617249
","x: 294.4891662597656
y: 271.04681396484375
z: -0.24199862778186798
visibility: 0.9999199509620667
","x: 290.0774841308594
y: 270.9178466796875
z: -0.24381503462791443
visibility: 0.9998772740364075
","x: 305.22723388671875
y: 294.9576416015625
z: -0.1068410873413086
visibility: 0.9999611377716064
","x: 277.4324645996094
y: 294.64202880859375
z: -0.09371305257081985
visibility: 0.9996359944343567
","x: 317.91497802734375
y: 310.15264892578125
