uscmakers/ReverseChoreography/data/10_brukka_jack_and_lewis.csv
,NOSE,LEFT_EYE_INNER,LEFT_EYE,LEFT_EYE_OUTER,RIGHT_EYE_INNER,RIGHT_EYE,RIGHT_EYE_OUTER,LEFT_EAR,RIGHT_EAR,MOUTH_LEFT,MOUTH_RIGHT,LEFT_SHOULDER,RIGHT_SHOULDER,LEFT_ELBOW,RIGHT_ELBOW,LEFT_WRIST,RIGHT_WRIST,LEFT_PINKY,RIGHT_PINKY,LEFT_INDEX,RIGHT_INDEX,LEFT_THUMB,RIGHT_THUMB,LEFT_HIP,RIGHT_HIP,LEFT_KNEE,RIGHT_KNEE,LEFT_ANKLE,RIGHT_ANKLE,LEFT_HEEL,RIGHT_HEEL,LEFT_FOOT_INDEX,RIGHT_FOOT_INDEX,TIMESTAMP,WRIST2,THUMB_CPC2,THUMB_MCP2,THUMB_IP2,THUMB_TIP2,INDEX_FINGER_MCP2,INDEX_FINGER_PIP2,INDEX_FINGER_DIP2,INDEX_FINGER_TIP2,MIDDLE_FINGER_MCP2,MIDDLE_FINGER_PIP2,MIDDLE_FINGER_DIP2,MIDDLE_FINGER_TIP2,RING_FINGER_PIP2,RING_FINGER_DIP2,RING_FINGER_TIP2,RING_FINGER_MCP2,PINKY_MCP2,PINKY_PIP2,PINKY_DIP2,PINKY_TIP2,WRIST,THUMB_CPC,THUMB_MCP,THUMB_IP,THUMB_TIP,INDEX_FINGER_MCP,INDEX_FINGER_PIP,INDEX_FINGER_DIP,INDEX_FINGER_TIP,MIDDLE_FINGER_MCP,MIDDLE_FINGER_PIP,MIDDLE_FINGER_DIP,MIDDLE_FINGER_TIP,RING_FINGER_PIP,RING_FINGER_DIP,RING_FINGER_TIP,RING_FINGER_MCP,PINKY_MCP,PINKY_PIP,PINKY_DIP,PINKY_TIP
0,"x: 295.3074645996094
y: 257.37347412109375
z: -0.3550015985965729
visibility: 0.9998570680618286
","x: 296.7626647949219
y: 252.21771240234375
z: -0.3457389771938324
visibility: 0.9994121789932251
","x: 297.90679931640625
y: 252.3723602294922
z: -0.34572330117225647
visibility: 0.9995303153991699
","x: 298.9905090332031
y: 252.50897216796875
z: -0.3457578718662262
visibility: 0.9995682835578918
","x: 293.3840637207031
y: 252.27688598632812
z: -0.3435295820236206
visibility: 0.9992953538894653
","x: 292.2743225097656
y: 252.4653778076172
z: -0.3435781002044678
visibility: 0.9993144273757935
","x: 291.14190673828125
y: 252.5355224609375
z: -0.34359657764434814
visibility: 0.9991911053657532
","x: 300.52813720703125
y: 255.7713623046875
z: -0.2627498209476471
visibility: 0.9989815354347229
","x: 289.0600891113281
y: 255.96473693847656
z: -0.2540249228477478
visibility: 0.9974295496940613
","x: 297.7397766113281
y: 264.74383544921875
z: -0.32220181822776794
visibility: 0.9996815919876099
","x: 293.0252685546875
y: 264.19342041015625
z: -0.31974729895591736
visibility: 0.9994980096817017
","x: 311.7751159667969
y: 285.4385070800781
z: -0.19131405651569366
visibility: 0.9999316930770874
","x: 282.1685485839844
y: 293.04730224609375
z: -0.16180875897407532
visibility: 0.9996203184127808
","x: 321.1824035644531
y: 325.00762939453125
z: -0.15524983406066895
visibility: 0.9954814910888672
","x: 279.72198486328125
y: 337.7132568359375
z: -0.10751806199550629
visibility: 0.9178355932235718
","x: 323.73187255859375
y: 368.3502197265625
z: -0.2068708837032318
visibility: 0.985325276851654
","x: 275.846435546875
y: 376.8459777832031
z: -0.16461101174354553
visibility: 0.8121885061264038
","x: 325.8177795410156
y: 381.28558349609375
z: -0.22638526558876038
visibility: 0.9565266966819763
","x: 275.52435302734375
y: 387.4918212890625
z: -0.18451303243637085
visibility: 0.7083346247673035
","x: 323.7176208496094
y: 383.48211669921875
z: -0.25064897537231445
visibility: 0.9596756100654602
","x: 276.5699768066406
y: 388.8948059082031
z: -0.21186237037181854
visibility: 0.7235576510429382
","x: 322.1719970703125
y: 379.00396728515625
z: -0.21665403246879578
visibility: 0.9487370848655701
","x: 277.3196105957031
y: 385.2841796875
z: -0.17735357582569122
visibility: 0.7046098113059998
","x: 304.7314147949219
y: 363.5369567871094
z: -0.003937352914363146
visibility: 0.9992725253105164
","x: 285.9691467285156
y: 362.3749084472656
z: 0.0038949414156377316
visibility: 0.9994207620620728
","x: 300.81365966796875
y: 427.4386291503906
z: -0.0009676160989329219
visibility: 0.972694993019104
","x: 284.5874938964844
y: 425.8999328613281
z: -0.05043592303991318
visibility: 0.9841984510421753
","x: 298.89056396484375
y: 482.3302001953125
z: 0.12892639636993408
visibility: 0.974501371383667
","x: 284.3392333984375
y: 484.0345458984375
z: 0.0700174942612648
visibility: 0.9819139838218689
","x: 297.0504150390625
y: 488.9065856933594
z: 0.13610310852527618
visibility: 0.7964164018630981
","x: 285.2301940917969
y: 490.2044677734375
z: 0.07589749246835709
visibility: 0.7821381688117981
","x: 299.6116027832031
y: 502.4981994628906
z: 0.035479284822940826
visibility: 0.9671726822853088
","x: 282.6226806640625
y: 502.9453125
z: -0.030815964564681053
visibility: 0.9783244729042053
",3.652193069458008,,,,,,,,,,,,,,,,,,,,,,,,,,,,,,,,,,,,,,,,,,
1,"x: 295.3074645996094
y: 257.37347412109375
z: -0.3550015985965729
visibility: 0.9998570680618286
","x: 296.7626647949219
y: 252.21771240234375
z: -0.3457389771938324
visibility: 0.9994121789932251
","x: 297.90679931640625
y: 252.3723602294922
z: -0.34572330117225647
visibility: 0.9995303153991699
","x: 298.9905090332031
y: 252.50897216796875
z: -0.3457578718662262
visibility: 0.9995682835578918
","x: 293.3840637207031
y: 252.27688598632812
z: -0.3435295820236206
visibility: 0.9992953538894653
","x: 292.2743225097656
y: 252.4653778076172
z: -0.3435781002044678
visibility: 0.9993144273757935
","x: 291.14190673828125
y: 252.5355224609375
z: -0.34359657764434814
visibility: 0.9991911053657532
","x: 300.52813720703125
y: 255.7713623046875
z: -0.2627498209476471
visibility: 0.9989815354347229
","x: 289.0600891113281
y: 255.96473693847656
z: -0.2540249228477478
visibility: 0.9974295496940613
","x: 297.7397766113281
y: 264.74383544921875
z: -0.32220181822776794
visibility: 0.9996815919876099
","x: 293.0252685546875
y: 264.19342041015625
z: -0.31974729895591736
visibility: 0.9994980096817017
","x: 311.7751159667969
y: 285.4385070800781
z: -0.19131405651569366
visibility: 0.9999316930770874
","x: 282.1685485839844
y: 293.04730224609375
z: -0.16180875897407532
visibility: 0.9996203184127808
","x: 321.1824035644531
y: 325.00762939453125
z: -0.15524983406066895
visibility: 0.9954814910888672
","x: 279.72198486328125
y: 337.7132568359375
z: -0.10751806199550629
visibility: 0.9178355932235718
","x: 323.73187255859375
y: 368.3502197265625
z: -0.2068708837032318
visibility: 0.985325276851654
","x: 275.846435546875
y: 376.8459777832031
z: -0.16461101174354553
visibility: 0.8121885061264038
","x: 325.8177795410156
y: 381.28558349609375
z: -0.22638526558876038
visibility: 0.9565266966819763
","x: 275.52435302734375
y: 387.4918212890625
z: -0.18451303243637085
visibility: 0.7083346247673035
","x: 323.7176208496094
y: 383.48211669921875
z: -0.25064897537231445
visibility: 0.9596756100654602
","x: 276.5699768066406
y: 388.8948059082031
z: -0.21186237037181854
visibility: 0.7235576510429382
","x: 322.1719970703125
y: 379.00396728515625
z: -0.21665403246879578
visibility: 0.9487370848655701
","x: 277.3196105957031
y: 385.2841796875
z: -0.17735357582569122
visibility: 0.7046098113059998
","x: 304.7314147949219
y: 363.5369567871094
z: -0.003937352914363146
visibility: 0.9992725253105164
","x: 285.9691467285156
y: 362.3749084472656
z: 0.0038949414156377316
visibility: 0.9994207620620728
","x: 300.81365966796875
y: 427.4386291503906
z: -0.0009676160989329219
visibility: 0.972694993019104
","x: 284.5874938964844
y: 425.8999328613281
z: -0.05043592303991318
visibility: 0.9841984510421753
","x: 298.89056396484375
y: 482.3302001953125
z: 0.12892639636993408
visibility: 0.974501371383667
","x: 284.3392333984375
y: 484.0345458984375
z: 0.0700174942612648
visibility: 0.9819139838218689
","x: 297.0504150390625
y: 488.9065856933594
z: 0.13610310852527618
visibility: 0.7964164018630981
","x: 285.2301940917969
y: 490.2044677734375
z: 0.07589749246835709
visibility: 0.7821381688117981
","x: 299.6116027832031
y: 502.4981994628906
z: 0.035479284822940826
visibility: 0.9671726822853088
","x: 282.6226806640625
y: 502.9453125
z: -0.030815964564681053
visibility: 0.9783244729042053
",3.652193069458008,,,,,,,,,,,,,,,,,,,,,,,,,,,,,,,,,,,,,,,,,,
2,"x: 293.0553894042969
y: 255.84678649902344
z: -0.18998856842517853
visibility: 0.9998530745506287
","x: 293.9497375488281
y: 250.98565673828125
z: -0.1830361932516098
visibility: 0.9994454979896545
","x: 294.9659423828125
y: 250.73342895507812
z: -0.1830855756998062
visibility: 0.9995540976524353
","x: 296.03582763671875
y: 250.4711151123047
z: -0.18312643468379974
visibility: 0.9995929598808289
","x: 291.255126953125
y: 251.90438842773438
z: -0.17697297036647797
visibility: 0.9993184804916382
","x: 290.4221496582031
y: 252.24266052246094
z: -0.17698846757411957
visibility: 0.9993196725845337
","x: 289.48876953125
y: 252.47479248046875
z: -0.17701861262321472
visibility: 0.9992019534111023
","x: 298.73651123046875
y: 252.8754425048828
z: -0.11727354675531387
visibility: 0.9990562796592712
","x: 288.483642578125
y: 255.6916961669922
z: -0.08863994479179382
visibility: 0.9975201487541199
","x: 295.8238830566406
y: 261.2684326171875
z: -0.1639901101589203
visibility: 0.9997020959854126
","x: 292.13262939453125
y: 262.39886474609375
z: -0.15575376152992249
visibility: 0.9995095729827881
","x: 311.7861633300781
y: 281.5274963378906
z: -0.0755537897348404
visibility: 0.9999352693557739
","x: 282.1490173339844
y: 289.1063232421875
z: -0.015402810648083687
visibility: 0.9995786547660828
","x: 320.5518798828125
y: 319.90399169921875
z: -0.13369598984718323
visibility: 0.9954110383987427
","x: 274.7091979980469
y: 322.4140625
z: 0.022392991930246353
visibility: 0.9136319160461426
","x: 306.62255859375
y: 327.4389953613281
z: -0.26880839467048645
visibility: 0.9863653779029846
","x: 258.04168701171875
y: 335.36480712890625
z: -0.063531294465065
visibility: 0.8195233345031738
","x: 302.21099853515625
y: 332.04449462890625
z: -0.30321624875068665
visibility: 0.9596546292304993
","x: 252.69802856445312
y: 340.88714599609375
z: -0.08430596441030502
visibility: 0.7205496430397034
","x: 300.39666748046875
y: 326.96478271484375
z: -0.309878408908844
visibility: 0.962515652179718
","x: 252.34689331054688
y: 340.18511962890625
z: -0.11129863560199738
visibility: 0.7359588146209717
","x: 301.6195068359375
y: 325.53082275390625
z: -0.2730531394481659
visibility: 0.9516291618347168
","x: 254.4180145263672
y: 338.6229248046875
z: -0.07746253162622452
visibility: 0.7172581553459167
","x: 305.3285217285156
y: 360.3651428222656
z: -0.005275451112538576
visibility: 0.9991694092750549
","x: 286.1997985839844
y: 360.45550537109375
z: 0.005281937308609486
visibility: 0.9992905855178833
","x: 301.01995849609375
y: 426.762451171875
z: -0.01876286044716835
visibility: 0.9737164378166199
","x: 284.82977294921875
y: 425.9034729003906
z: -0.028495635837316513
visibility: 0.9841452836990356
","x: 299.2357177734375
y: 482.2110595703125
z: 0.09174320846796036
visibility: 0.9752561450004578
","x: 284.23797607421875
y: 484.1064453125
z: 0.06350748240947723
visibility: 0.9819573760032654
","x: 297.4753723144531
y: 488.87872314453125
z: 0.09786835312843323
visibility: 0.8029985427856445
","x: 285.1866149902344
y: 490.8904724121094
z: 0.06690843403339386
visibility: 0.7793933749198914
","x: 299.6118469238281
y: 502.28265380859375
z: 0.0014298597816377878
visibility: 0.9677460789680481
","x: 283.0721435546875
y: 502.95758056640625
z: -0.034015391021966934
visibility: 0.9774628281593323
",4.238488435745239,,,,,,,,,,,,,,,,,,,,,,,,,,,,,,,,,,,,,,,,,,
3,"x: 293.0553894042969
y: 255.84678649902344
z: -0.18998856842517853
visibility: 0.9998530745506287
","x: 293.9497375488281
y: 250.98565673828125
z: -0.1830361932516098
visibility: 0.9994454979896545
","x: 294.9659423828125
y: 250.73342895507812
z: -0.1830855756998062
visibility: 0.9995540976524353
","x: 296.03582763671875
y: 250.4711151123047
z: -0.18312643468379974
visibility: 0.9995929598808289
","x: 291.255126953125
y: 251.90438842773438
z: -0.17697297036647797
visibility: 0.9993184804916382
","x: 290.4221496582031
y: 252.24266052246094
z: -0.17698846757411957
visibility: 0.9993196725845337
","x: 289.48876953125
y: 252.47479248046875
z: -0.17701861262321472
visibility: 0.9992019534111023
","x: 298.73651123046875
y: 252.8754425048828
z: -0.11727354675531387
visibility: 0.9990562796592712
","x: 288.483642578125
y: 255.6916961669922
z: -0.08863994479179382
visibility: 0.9975201487541199
","x: 295.8238830566406
y: 261.2684326171875
z: -0.1639901101589203
visibility: 0.9997020959854126
","x: 292.13262939453125
y: 262.39886474609375
z: -0.15575376152992249
visibility: 0.9995095729827881
","x: 311.7861633300781
y: 281.5274963378906
z: -0.0755537897348404
visibility: 0.9999352693557739
","x: 282.1490173339844
y: 289.1063232421875
z: -0.015402810648083687
visibility: 0.9995786547660828
","x: 320.5518798828125
y: 319.90399169921875
z: -0.13369598984718323
visibility: 0.9954110383987427
","x: 274.7091979980469
y: 322.4140625
z: 0.022392991930246353
visibility: 0.9136319160461426
","x: 306.62255859375
y: 327.4389953613281
z: -0.26880839467048645
visibility: 0.9863653779029846
","x: 258.04168701171875
y: 335.36480712890625
z: -0.063531294465065
visibility: 0.8195233345031738
","x: 302.21099853515625
y: 332.04449462890625
z: -0.30321624875068665
visibility: 0.9596546292304993
","x: 252.69802856445312
y: 340.88714599609375
z: -0.08430596441030502
visibility: 0.7205496430397034
","x: 300.39666748046875
y: 326.96478271484375
z: -0.309878408908844
visibility: 0.962515652179718
","x: 252.34689331054688
y: 340.18511962890625
z: -0.11129863560199738
visibility: 0.7359588146209717
","x: 301.6195068359375
y: 325.53082275390625
z: -0.2730531394481659
visibility: 0.9516291618347168
","x: 254.4180145263672
y: 338.6229248046875
z: -0.07746253162622452
visibility: 0.7172581553459167
","x: 305.3285217285156
y: 360.3651428222656
z: -0.005275451112538576
visibility: 0.9991694092750549
","x: 286.1997985839844
y: 360.45550537109375
z: 0.005281937308609486
visibility: 0.9992905855178833
","x: 301.01995849609375
y: 426.762451171875
z: -0.01876286044716835
visibility: 0.9737164378166199
","x: 284.82977294921875
y: 425.9034729003906
z: -0.028495635837316513
visibility: 0.9841452836990356
","x: 299.2357177734375
y: 482.2110595703125
z: 0.09174320846796036
visibility: 0.9752561450004578
","x: 284.23797607421875
y: 484.1064453125
z: 0.06350748240947723
visibility: 0.9819573760032654
","x: 297.4753723144531
y: 488.87872314453125
z: 0.09786835312843323
visibility: 0.8029985427856445
","x: 285.1866149902344
y: 490.8904724121094
z: 0.06690843403339386
visibility: 0.7793933749198914
","x: 299.6118469238281
y: 502.28265380859375
z: 0.0014298597816377878
visibility: 0.9677460789680481
","x: 283.0721435546875
y: 502.95758056640625
z: -0.034015391021966934
visibility: 0.9774628281593323
",4.238488435745239,,,,,,,,,,,,,,,,,,,,,,,,,,,,,,,,,,,,,,,,,,
4,"x: 292.0325012207031
y: 253.97470092773438
z: -0.21046295762062073
visibility: 0.999858021736145
","x: 292.91082763671875
y: 249.2438507080078
z: -0.20526139438152313
visibility: 0.999484658241272
","x: 293.86895751953125
y: 248.86534118652344
z: -0.20529110729694366
visibility: 0.9995846748352051
","x: 294.8860778808594
y: 248.52041625976562
z: -0.20531754195690155
visibility: 0.9996211528778076
","x: 290.37615966796875
y: 250.60972595214844
z: -0.19803652167320251
visibility: 0.9993558526039124
","x: 289.5715637207031
y: 251.08621215820312
z: -0.1980641931295395
visibility: 0.9993506073951721
","x: 288.6580505371094
y: 251.5328826904297
z: -0.19809557497501373
visibility: 0.999239981174469
","x: 297.71002197265625
y: 251.02420043945312
z: -0.14478830993175507
visibility: 0.9991341233253479
","x: 288.15020751953125
y: 254.6182098388672
z: -0.11109888553619385
visibility: 0.9976712465286255
","x: 294.8741760253906
y: 258.88812255859375
z: -0.18613767623901367
visibility: 0.9997251629829407
","x: 291.36090087890625
y: 260.39923095703125
z: -0.1764572262763977
visibility: 0.999538004398346
","x: 311.778564453125
y: 279.42315673828125
z: -0.10085996240377426
visibility: 0.9999397993087769
","x: 281.82696533203125
y: 286.8900146484375
z: -0.03500745818018913
visibility: 0.9995825290679932
","x: 319.79296875
y: 319.0377197265625
z: -0.13673794269561768
visibility: 0.9955365657806396
","x: 271.3937072753906
y: 319.28179931640625
z: 0.011838049627840519
visibility: 0.9171674251556396
","x: 301.271484375
y: 325.66571044921875
z: -0.28301554918289185
visibility: 0.9874857664108276
","x: 253.80288696289062
y: 334.4001770019531
z: -0.06458689272403717
visibility: 0.8328056335449219
","x: 296.525390625
y: 330.3112487792969
z: -0.31593024730682373
visibility: 0.9629390835762024
","x: 249.25314331054688
y: 339.9789123535156
z: -0.0846724733710289
visibility: 0.7399231195449829
","x: 294.3450622558594
y: 325.3298645019531
z: -0.3227468430995941
visibility: 0.9655129909515381
","x: 248.71896362304688
y: 339.4801025390625
z: -0.1109139546751976
visibility: 0.7546568512916565
","x: 295.5912170410156
y: 323.8114929199219
z: -0.28667324781417847
visibility: 0.954974889755249
","x: 250.43780517578125
y: 338.07745361328125
z: -0.07788196206092834
visibility: 0.7365742325782776
","x: 305.3725280761719
y: 358.4896240234375
z: -0.0077613345347344875
visibility: 0.9991395473480225
","x: 286.08837890625
y: 358.9823913574219
z: 0.007762599736452103
visibility: 0.9992374181747437
","x: 301.0733337402344
y: 425.9289855957031
z: -0.03900928050279617
visibility: 0.9753110408782959
","x: 284.8799743652344
y: 425.1422119140625
z: -0.02899373695254326
visibility: 0.9845128655433655
","x: 299.55859375
y: 482.11871337890625
z: 0.06513310968875885
visibility: 0.9765663146972656
","x: 283.4476318359375
y: 483.9837341308594
z: 0.05905873328447342
visibility: 0.9825215339660645
","x: 297.84088134765625
y: 488.67181396484375
z: 0.07066507637500763
visibility: 0.8091585040092468
","x: 284.6795654296875
y: 490.9161071777344
z: 0.06225571781396866
visibility: 0.7805054187774658
","x: 299.60595703125
y: 502.2857971191406
z: -0.028109947219491005
visibility: 0.9692556858062744
","x: 282.41937255859375
y: 503.6990661621094
z: -0.036986611783504486
visibility: 0.9777231812477112
",4.382667064666748,"x: 298.71722412109375
y: 324.0472106933594
z: 0.0
","x: 295.689208984375
y: 321.10809326171875
z: 0.0002611135714687407
","x: 292.4258728027344
y: 321.5149230957031
z: -0.0003547068336047232
","x: 290.0973815917969
y: 323.35723876953125
z: -0.0009294383344240487
","x: 288.38128662109375
y: 325.0027160644531
z: -0.0014943135902285576
","x: 291.3553161621094
y: 322.4844665527344
z: -0.003417625790461898
","x: 287.5809020996094
y: 324.75262451171875
z: -0.0047523388639092445
","x: 285.5381774902344
y: 326.6000671386719
z: -0.004631334915757179
","x: 284.3289489746094
y: 327.91973876953125
z: -0.004269490484148264
","x: 292.0937805175781
y: 325.8634033203125
z: -0.004188734572380781
","x: 288.16412353515625
y: 329.0225524902344
z: -0.005716993007808924
","x: 285.9059143066406
y: 330.68157958984375
z: -0.005212034098803997
","x: 284.4067687988281
y: 331.56597900390625
z: -0.004642802756279707
","x: 293.09088134765625
y: 329.03582763671875
z: -0.004713944159448147
","x: 289.6448669433594
y: 332.3414611816406
z: -0.006348737049847841
","x: 287.56805419921875
y: 333.56768798828125
z: -0.005859379656612873
","x: 286.0799865722656
y: 334.07232666015625
z: -0.005226051434874535
","x: 294.2025451660156
y: 331.8857421875
z: -0.005130925215780735
","x: 291.66839599609375
y: 334.7918701171875
z: -0.006371350958943367
","x: 290.10931396484375
y: 335.76080322265625
z: -0.006096642464399338
","x: 288.8537902832031
y: 335.95751953125
z: -0.005639547947794199
",,,,,,,,,,,,,,,,,,,,,
5,"x: 292.0325012207031
y: 253.97470092773438
z: -0.21046295762062073
visibility: 0.999858021736145
","x: 292.91082763671875
y: 249.2438507080078
z: -0.20526139438152313
visibility: 0.999484658241272
","x: 293.86895751953125
y: 248.86534118652344
z: -0.20529110729694366
visibility: 0.9995846748352051
","x: 294.8860778808594
y: 248.52041625976562
z: -0.20531754195690155
visibility: 0.9996211528778076
","x: 290.37615966796875
y: 250.60972595214844
z: -0.19803652167320251
visibility: 0.9993558526039124
","x: 289.5715637207031
y: 251.08621215820312
z: -0.1980641931295395
visibility: 0.9993506073951721
","x: 288.6580505371094
y: 251.5328826904297
z: -0.19809557497501373
visibility: 0.999239981174469
","x: 297.71002197265625
y: 251.02420043945312
z: -0.14478830993175507
visibility: 0.9991341233253479
","x: 288.15020751953125
y: 254.6182098388672
z: -0.11109888553619385
visibility: 0.9976712465286255
","x: 294.8741760253906
y: 258.88812255859375
z: -0.18613767623901367
visibility: 0.9997251629829407
","x: 291.36090087890625
y: 260.39923095703125
z: -0.1764572262763977
visibility: 0.999538004398346
","x: 311.778564453125
y: 279.42315673828125
z: -0.10085996240377426
visibility: 0.9999397993087769
","x: 281.82696533203125
y: 286.8900146484375
z: -0.03500745818018913
visibility: 0.9995825290679932
","x: 319.79296875
y: 319.0377197265625
z: -0.13673794269561768
visibility: 0.9955365657806396
","x: 271.3937072753906
y: 319.28179931640625
z: 0.011838049627840519
visibility: 0.9171674251556396
","x: 301.271484375
y: 325.66571044921875
z: -0.28301554918289185
visibility: 0.9874857664108276
","x: 253.80288696289062
y: 334.4001770019531
z: -0.06458689272403717
visibility: 0.8328056335449219
","x: 296.525390625
y: 330.3112487792969
z: -0.31593024730682373
visibility: 0.9629390835762024
","x: 249.25314331054688
y: 339.9789123535156
z: -0.0846724733710289
visibility: 0.7399231195449829
","x: 294.3450622558594
y: 325.3298645019531
z: -0.3227468430995941
visibility: 0.9655129909515381
","x: 248.71896362304688
y: 339.4801025390625
z: -0.1109139546751976
visibility: 0.7546568512916565
","x: 295.5912170410156
y: 323.8114929199219
z: -0.28667324781417847
visibility: 0.954974889755249
","x: 250.43780517578125
y: 338.07745361328125
z: -0.07788196206092834
visibility: 0.7365742325782776
","x: 305.3725280761719
y: 358.4896240234375
z: -0.0077613345347344875
visibility: 0.9991395473480225
","x: 286.08837890625
y: 358.9823913574219
z: 0.007762599736452103
visibility: 0.9992374181747437
","x: 301.0733337402344
y: 425.9289855957031
z: -0.03900928050279617
visibility: 0.9753110408782959
","x: 284.8799743652344
y: 425.1422119140625
z: -0.02899373695254326
visibility: 0.9845128655433655
","x: 299.55859375
y: 482.11871337890625
z: 0.06513310968875885
visibility: 0.9765663146972656
","x: 283.4476318359375
y: 483.9837341308594
z: 0.05905873328447342
visibility: 0.9825215339660645
","x: 297.84088134765625
y: 488.67181396484375
z: 0.07066507637500763
visibility: 0.8091585040092468
","x: 284.6795654296875
y: 490.9161071777344
z: 0.06225571781396866
visibility: 0.7805054187774658
","x: 299.60595703125
y: 502.2857971191406
z: -0.028109947219491005
visibility: 0.9692556858062744
","x: 282.41937255859375
y: 503.6990661621094
z: -0.036986611783504486
visibility: 0.9777231812477112
",4.382667064666748,"x: 298.71722412109375
y: 324.0472106933594
z: 0.0
","x: 295.689208984375
y: 321.10809326171875
z: 0.0002611135714687407
","x: 292.4258728027344
y: 321.5149230957031
z: -0.0003547068336047232
","x: 290.0973815917969
y: 323.35723876953125
z: -0.0009294383344240487
","x: 288.38128662109375
y: 325.0027160644531
z: -0.0014943135902285576
","x: 291.3553161621094
y: 322.4844665527344
z: -0.003417625790461898
","x: 287.5809020996094
y: 324.75262451171875
z: -0.0047523388639092445
","x: 285.5381774902344
y: 326.6000671386719
z: -0.004631334915757179
","x: 284.3289489746094
y: 327.91973876953125
z: -0.004269490484148264
","x: 292.0937805175781
y: 325.8634033203125
z: -0.004188734572380781
","x: 288.16412353515625
y: 329.0225524902344
z: -0.005716993007808924
","x: 285.9059143066406
y: 330.68157958984375
z: -0.005212034098803997
","x: 284.4067687988281
y: 331.56597900390625
z: -0.004642802756279707
","x: 293.09088134765625
y: 329.03582763671875
z: -0.004713944159448147
","x: 289.6448669433594
y: 332.3414611816406
z: -0.006348737049847841
","x: 287.56805419921875
y: 333.56768798828125
z: -0.005859379656612873
","x: 286.0799865722656
y: 334.07232666015625
z: -0.005226051434874535
","x: 294.2025451660156
y: 331.8857421875
z: -0.005130925215780735
","x: 291.66839599609375
y: 334.7918701171875
z: -0.006371350958943367
","x: 290.10931396484375
y: 335.76080322265625
z: -0.006096642464399338
","x: 288.8537902832031
y: 335.95751953125
z: -0.005639547947794199
",,,,,,,,,,,,,,,,,,,,,
6,"x: 292.0325012207031
y: 253.97470092773438
z: -0.21046295762062073
visibility: 0.999858021736145
","x: 292.91082763671875
y: 249.2438507080078
z: -0.20526139438152313
visibility: 0.999484658241272
","x: 293.86895751953125
y: 248.86534118652344
z: -0.20529110729694366
visibility: 0.9995846748352051
","x: 294.8860778808594
y: 248.52041625976562
z: -0.20531754195690155
visibility: 0.9996211528778076
","x: 290.37615966796875
y: 250.60972595214844
z: -0.19803652167320251
visibility: 0.9993558526039124
","x: 289.5715637207031
y: 251.08621215820312
z: -0.1980641931295395
visibility: 0.9993506073951721
","x: 288.6580505371094
y: 251.5328826904297
z: -0.19809557497501373
visibility: 0.999239981174469
","x: 297.71002197265625
y: 251.02420043945312
z: -0.14478830993175507
visibility: 0.9991341233253479
","x: 288.15020751953125
y: 254.6182098388672
z: -0.11109888553619385
visibility: 0.9976712465286255
","x: 294.8741760253906
y: 258.88812255859375
z: -0.18613767623901367
visibility: 0.9997251629829407
","x: 291.36090087890625
y: 260.39923095703125
z: -0.1764572262763977
visibility: 0.999538004398346
","x: 311.778564453125
y: 279.42315673828125
z: -0.10085996240377426
visibility: 0.9999397993087769
","x: 281.82696533203125
y: 286.8900146484375
z: -0.03500745818018913
visibility: 0.9995825290679932
","x: 319.79296875
y: 319.0377197265625
z: -0.13673794269561768
visibility: 0.9955365657806396
","x: 271.3937072753906
y: 319.28179931640625
z: 0.011838049627840519
visibility: 0.9171674251556396
","x: 301.271484375
y: 325.66571044921875
z: -0.28301554918289185
visibility: 0.9874857664108276
","x: 253.80288696289062
y: 334.4001770019531
z: -0.06458689272403717
visibility: 0.8328056335449219
","x: 296.525390625
y: 330.3112487792969
z: -0.31593024730682373
visibility: 0.9629390835762024
","x: 249.25314331054688
y: 339.9789123535156
z: -0.0846724733710289
visibility: 0.7399231195449829
","x: 294.3450622558594
y: 325.3298645019531
z: -0.3227468430995941
visibility: 0.9655129909515381
","x: 248.71896362304688
y: 339.4801025390625
z: -0.1109139546751976
visibility: 0.7546568512916565
","x: 295.5912170410156
y: 323.8114929199219
z: -0.28667324781417847
visibility: 0.954974889755249
","x: 250.43780517578125
y: 338.07745361328125
z: -0.07788196206092834
visibility: 0.7365742325782776
","x: 305.3725280761719
y: 358.4896240234375
z: -0.0077613345347344875
visibility: 0.9991395473480225
","x: 286.08837890625
y: 358.9823913574219
z: 0.007762599736452103
visibility: 0.9992374181747437
","x: 301.0733337402344
y: 425.9289855957031
z: -0.03900928050279617
visibility: 0.9753110408782959
","x: 284.8799743652344
y: 425.1422119140625
z: -0.02899373695254326
visibility: 0.9845128655433655
","x: 299.55859375
y: 482.11871337890625
z: 0.06513310968875885
visibility: 0.9765663146972656
","x: 283.4476318359375
y: 483.9837341308594
z: 0.05905873328447342
visibility: 0.9825215339660645
","x: 297.84088134765625
y: 488.67181396484375
z: 0.07066507637500763
visibility: 0.8091585040092468
","x: 284.6795654296875
y: 490.9161071777344
z: 0.06225571781396866
visibility: 0.7805054187774658
","x: 299.60595703125
y: 502.2857971191406
z: -0.028109947219491005
visibility: 0.9692556858062744
","x: 282.41937255859375
y: 503.6990661621094
z: -0.036986611783504486
visibility: 0.9777231812477112
",4.382667064666748,"x: 298.71722412109375
y: 324.0472106933594
z: 0.0
","x: 295.689208984375
y: 321.10809326171875
z: 0.0002611135714687407
","x: 292.4258728027344
y: 321.5149230957031
z: -0.0003547068336047232
","x: 290.0973815917969
y: 323.35723876953125
z: -0.0009294383344240487
","x: 288.38128662109375
y: 325.0027160644531
z: -0.0014943135902285576
","x: 291.3553161621094
y: 322.4844665527344
z: -0.003417625790461898
","x: 287.5809020996094
y: 324.75262451171875
z: -0.0047523388639092445
","x: 285.5381774902344
y: 326.6000671386719
z: -0.004631334915757179
","x: 284.3289489746094
y: 327.91973876953125
z: -0.004269490484148264
","x: 292.0937805175781
y: 325.8634033203125
z: -0.004188734572380781
","x: 288.16412353515625
y: 329.0225524902344
z: -0.005716993007808924
","x: 285.9059143066406
y: 330.68157958984375
z: -0.005212034098803997
","x: 284.4067687988281
y: 331.56597900390625
z: -0.004642802756279707
","x: 293.09088134765625
y: 329.03582763671875
z: -0.004713944159448147
","x: 289.6448669433594
y: 332.3414611816406
z: -0.006348737049847841
","x: 287.56805419921875
y: 333.56768798828125
z: -0.005859379656612873
","x: 286.0799865722656
y: 334.07232666015625
z: -0.005226051434874535
","x: 294.2025451660156
y: 331.8857421875
z: -0.005130925215780735
","x: 291.66839599609375
y: 334.7918701171875
z: -0.006371350958943367
","x: 290.10931396484375
y: 335.76080322265625
z: -0.006096642464399338
","x: 288.8537902832031
y: 335.95751953125
z: -0.005639547947794199
",,,,,,,,,,,,,,,,,,,,,
7,"x: 291.09722900390625
y: 254.76995849609375
z: -0.23304302990436554
visibility: 0.9998565912246704
","x: 291.8984680175781
y: 249.687255859375
z: -0.22603225708007812
visibility: 0.9994878768920898
","x: 292.80133056640625
y: 249.14422607421875
z: -0.22605569660663605
visibility: 0.9995848536491394
","x: 293.76519775390625
y: 248.64422607421875
z: -0.2260594666004181
visibility: 0.999618411064148
","x: 289.33746337890625
y: 251.4102325439453
z: -0.22015853226184845
visibility: 0.9993669390678406
","x: 288.42108154296875
y: 252.04510498046875
z: -0.22019700706005096
visibility: 0.9993549585342407
","x: 287.4447937011719
y: 252.65689086914062
z: -0.22025029361248016
visibility: 0.9992532134056091
","x: 296.3623962402344
y: 251.2981414794922
z: -0.16563932597637177
visibility: 0.9991523027420044
","x: 286.9626159667969
y: 256.51611328125
z: -0.13946719467639923
visibility: 0.9976746439933777
","x: 293.78363037109375
y: 259.5492248535156
z: -0.2094767838716507
visibility: 0.9997286200523376
","x: 290.4625549316406
y: 262.0742492675781
z: -0.20201615989208221
visibility: 0.9995486736297607
","x: 310.03350830078125
y: 284.4578857421875
z: -0.13256515562534332
visibility: 0.9999376535415649
","x: 279.4437255859375
y: 289.3253479003906
z: -0.05942758172750473
visibility: 0.9996004104614258
","x: 313.0699768066406
y: 325.671142578125
z: -0.14215460419654846
visibility: 0.995550274848938
","x: 268.5199890136719
y: 323.5966491699219
z: -0.010205114260315895
visibility: 0.9167149662971497
","x: 296.3061828613281
y: 332.2769470214844
z: -0.23137709498405457
visibility: 0.9881283044815063
","x: 254.393798828125
y: 348.2864685058594
z: -0.08366216719150543
visibility: 0.8412408828735352
","x: 293.1160888671875
y: 341.1947021484375
z: -0.25891774892807007
visibility: 0.9649843573570251
","x: 249.63787841796875
y: 356.69732666015625
z: -0.1030486449599266
visibility: 0.7527559399604797
","x: 289.99609375
y: 341.877197265625
z: -0.26808157563209534
visibility: 0.9673189520835876
","x: 248.96066284179688
y: 357.05401611328125
z: -0.1293642371892929
visibility: 0.7672511339187622
","x: 290.2126159667969
y: 339.697021484375
z: -0.23407228291034698
visibility: 0.9565584659576416
","x: 250.527099609375
y: 354.50396728515625
z: -0.09680289775133133
visibility: 0.7496883869171143
","x: 304.55841064453125
y: 363.07501220703125
z: -0.012090076692402363
visibility: 0.998959481716156
","x: 285.18035888671875
y: 363.8909606933594
z: 0.012080839835107327
visibility: 0.9992693066596985
","x: 300.3863220214844
y: 427.7525634765625
z: 0.0073313480243086815
visibility: 0.9757554531097412
","x: 283.8263854980469
y: 425.493896484375
z: -0.07921957969665527
visibility: 0.9841111302375793
","x: 299.486328125
y: 481.9465637207031
z: 0.12433232367038727
visibility: 0.9750876426696777
","x: 283.5006103515625
y: 485.72491455078125
z: -0.02197897434234619
visibility: 0.9826431274414062
","x: 297.90966796875
y: 488.6718444824219
z: 0.13076087832450867
visibility: 0.7982786297798157
","x: 285.3212890625
y: 494.0359802246094
z: -0.022449743002653122
visibility: 0.7793213725090027
","x: 299.2386779785156
y: 501.287109375
z: 0.042610712349414825
visibility: 0.967816948890686
","x: 280.8859558105469
y: 503.71575927734375
z: -0.12712612748146057
visibility: 0.9775876998901367
",4.522013187408447,"x: 298.5981750488281
y: 345.3067626953125
z: 0.0
","x: 293.4381408691406
y: 345.9889221191406
z: 0.0014349010307341814
","x: 289.4596862792969
y: 348.3079833984375
z: 0.0018762920517474413
","x: 286.5198974609375
y: 349.81195068359375
z: 0.0016287032049149275
","x: 284.1881408691406
y: 350.26422119140625
z: 0.0014597063418477774
","x: 289.0618896484375
y: 357.2184753417969
z: 0.0027205427177250385
","x: 286.0739440917969
y: 363.61151123046875
z: 0.002011446049436927
","x: 284.41424560546875
y: 367.43792724609375
z: 0.0016656556399539113
","x: 283.20684814453125
y: 370.4806213378906
z: 0.0016330147627741098
","x: 290.56298828125
y: 360.30169677734375
z: 0.0008865534910000861
","x: 287.72479248046875
y: 367.77655029296875
z: 0.0007128260331228375
","x: 286.00213623046875
y: 372.013916015625
z: 0.0007970206788741052
","x: 284.7580871582031
y: 375.3834228515625
z: 0.0007651897612959146
","x: 292.39862060546875
y: 362.3546142578125
z: -0.0011710665421560407
","x: 290.0727233886719
y: 369.6698303222656
z: -0.0018297533970326185
","x: 288.597412109375
y: 373.54144287109375
z: -0.001989462412893772
","x: 287.37347412109375
y: 376.4225769042969
z: -0.0020710884127765894
","x: 294.4181823730469
y: 363.4036865234375
z: -0.0033144005574285984
","x: 293.0171813964844
y: 369.65655517578125
z: -0.004097287543118
","x: 291.96209716796875
y: 373.21142578125
z: -0.004201122559607029
","x: 290.9267578125
y: 375.7998962402344
z: -0.004169837571680546
",,,,,,,,,,,,,,,,,,,,,
8,"x: 291.09722900390625
y: 254.76995849609375
z: -0.23304302990436554
visibility: 0.9998565912246704
","x: 291.8984680175781
y: 249.687255859375
z: -0.22603225708007812
visibility: 0.9994878768920898
","x: 292.80133056640625
y: 249.14422607421875
z: -0.22605569660663605
visibility: 0.9995848536491394
","x: 293.76519775390625
y: 248.64422607421875
z: -0.2260594666004181
visibility: 0.999618411064148
","x: 289.33746337890625
y: 251.4102325439453
z: -0.22015853226184845
visibility: 0.9993669390678406
","x: 288.42108154296875
y: 252.04510498046875
z: -0.22019700706005096
visibility: 0.9993549585342407
","x: 287.4447937011719
y: 252.65689086914062
z: -0.22025029361248016
visibility: 0.9992532134056091
","x: 296.3623962402344
y: 251.2981414794922
z: -0.16563932597637177
visibility: 0.9991523027420044
","x: 286.9626159667969
y: 256.51611328125
z: -0.13946719467639923
visibility: 0.9976746439933777
","x: 293.78363037109375
y: 259.5492248535156
z: -0.2094767838716507
visibility: 0.9997286200523376
","x: 290.4625549316406
y: 262.0742492675781
z: -0.20201615989208221
visibility: 0.9995486736297607
","x: 310.03350830078125
y: 284.4578857421875
z: -0.13256515562534332
visibility: 0.9999376535415649
","x: 279.4437255859375
y: 289.3253479003906
z: -0.05942758172750473
visibility: 0.9996004104614258
","x: 313.0699768066406
y: 325.671142578125
z: -0.14215460419654846
visibility: 0.995550274848938
","x: 268.5199890136719
y: 323.5966491699219
z: -0.010205114260315895
visibility: 0.9167149662971497
","x: 296.3061828613281
y: 332.2769470214844
z: -0.23137709498405457
visibility: 0.9881283044815063
","x: 254.393798828125
y: 348.2864685058594
z: -0.08366216719150543
visibility: 0.8412408828735352
","x: 293.1160888671875
y: 341.1947021484375
z: -0.25891774892807007
visibility: 0.9649843573570251
","x: 249.63787841796875
y: 356.69732666015625
z: -0.1030486449599266
visibility: 0.7527559399604797
","x: 289.99609375
y: 341.877197265625
z: -0.26808157563209534
visibility: 0.9673189520835876
","x: 248.96066284179688
y: 357.05401611328125
z: -0.1293642371892929
visibility: 0.7672511339187622
","x: 290.2126159667969
y: 339.697021484375
z: -0.23407228291034698
visibility: 0.9565584659576416
","x: 250.527099609375
y: 354.50396728515625
z: -0.09680289775133133
visibility: 0.7496883869171143
","x: 304.55841064453125
y: 363.07501220703125
z: -0.012090076692402363
visibility: 0.998959481716156
","x: 285.18035888671875
y: 363.8909606933594
z: 0.012080839835107327
visibility: 0.9992693066596985
","x: 300.3863220214844
y: 427.7525634765625
z: 0.0073313480243086815
visibility: 0.9757554531097412
","x: 283.8263854980469
y: 425.493896484375
z: -0.07921957969665527
visibility: 0.9841111302375793
","x: 299.486328125
y: 481.9465637207031
z: 0.12433232367038727
visibility: 0.9750876426696777
","x: 283.5006103515625
y: 485.72491455078125
z: -0.02197897434234619
visibility: 0.9826431274414062
","x: 297.90966796875
y: 488.6718444824219
z: 0.13076087832450867
visibility: 0.7982786297798157
","x: 285.3212890625
y: 494.0359802246094
z: -0.022449743002653122
visibility: 0.7793213725090027
","x: 299.2386779785156
y: 501.287109375
z: 0.042610712349414825
visibility: 0.967816948890686
","x: 280.8859558105469
y: 503.71575927734375
z: -0.12712612748146057
visibility: 0.9775876998901367
",4.522013187408447,"x: 298.5981750488281
y: 345.3067626953125
z: 0.0
","x: 293.4381408691406
y: 345.9889221191406
z: 0.0014349010307341814
","x: 289.4596862792969
y: 348.3079833984375
z: 0.0018762920517474413
","x: 286.5198974609375
y: 349.81195068359375
z: 0.0016287032049149275
","x: 284.1881408691406
y: 350.26422119140625
z: 0.0014597063418477774
","x: 289.0618896484375
y: 357.2184753417969
z: 0.0027205427177250385
","x: 286.0739440917969
y: 363.61151123046875
z: 0.002011446049436927
","x: 284.41424560546875
y: 367.43792724609375
z: 0.0016656556399539113
","x: 283.20684814453125
y: 370.4806213378906
z: 0.0016330147627741098
","x: 290.56298828125
y: 360.30169677734375
z: 0.0008865534910000861
","x: 287.72479248046875
y: 367.77655029296875
z: 0.0007128260331228375
","x: 286.00213623046875
y: 372.013916015625
z: 0.0007970206788741052
","x: 284.7580871582031
y: 375.3834228515625
z: 0.0007651897612959146
","x: 292.39862060546875
y: 362.3546142578125
z: -0.0011710665421560407
","x: 290.0727233886719
y: 369.6698303222656
z: -0.0018297533970326185
","x: 288.597412109375
y: 373.54144287109375
z: -0.001989462412893772
","x: 287.37347412109375
y: 376.4225769042969
z: -0.0020710884127765894
","x: 294.4181823730469
y: 363.4036865234375
z: -0.0033144005574285984
","x: 293.0171813964844
y: 369.65655517578125
z: -0.004097287543118
","x: 291.96209716796875
y: 373.21142578125
z: -0.004201122559607029
","x: 290.9267578125
y: 375.7998962402344
z: -0.004169837571680546
",,,,,,,,,,,,,,,,,,,,,
9,"x: 291.09722900390625
y: 254.76995849609375
z: -0.23304302990436554
visibility: 0.9998565912246704
","x: 291.8984680175781
y: 249.687255859375
z: -0.22603225708007812
visibility: 0.9994878768920898
","x: 292.80133056640625
y: 249.14422607421875
z: -0.22605569660663605
visibility: 0.9995848536491394
","x: 293.76519775390625
y: 248.64422607421875
z: -0.2260594666004181
visibility: 0.999618411064148
","x: 289.33746337890625
y: 251.4102325439453
z: -0.22015853226184845
visibility: 0.9993669390678406
","x: 288.42108154296875
y: 252.04510498046875
z: -0.22019700706005096
visibility: 0.9993549585342407
","x: 287.4447937011719
y: 252.65689086914062
z: -0.22025029361248016
visibility: 0.9992532134056091
","x: 296.3623962402344
y: 251.2981414794922
z: -0.16563932597637177
visibility: 0.9991523027420044
","x: 286.9626159667969
y: 256.51611328125
z: -0.13946719467639923
visibility: 0.9976746439933777
","x: 293.78363037109375
y: 259.5492248535156
z: -0.2094767838716507
visibility: 0.9997286200523376
","x: 290.4625549316406
y: 262.0742492675781
z: -0.20201615989208221
visibility: 0.9995486736297607
","x: 310.03350830078125
y: 284.4578857421875
z: -0.13256515562534332
visibility: 0.9999376535415649
","x: 279.4437255859375
y: 289.3253479003906
z: -0.05942758172750473
visibility: 0.9996004104614258
","x: 313.0699768066406
y: 325.671142578125
z: -0.14215460419654846
visibility: 0.995550274848938
","x: 268.5199890136719
y: 323.5966491699219
z: -0.010205114260315895
visibility: 0.9167149662971497
","x: 296.3061828613281
y: 332.2769470214844
z: -0.23137709498405457
visibility: 0.9881283044815063
","x: 254.393798828125
y: 348.2864685058594
z: -0.08366216719150543
visibility: 0.8412408828735352
","x: 293.1160888671875
y: 341.1947021484375
z: -0.25891774892807007
visibility: 0.9649843573570251
","x: 249.63787841796875
y: 356.69732666015625
z: -0.1030486449599266
visibility: 0.7527559399604797
","x: 289.99609375
y: 341.877197265625
z: -0.26808157563209534
visibility: 0.9673189520835876
","x: 248.96066284179688
y: 357.05401611328125
z: -0.1293642371892929
visibility: 0.7672511339187622
","x: 290.2126159667969
y: 339.697021484375
z: -0.23407228291034698
visibility: 0.9565584659576416
","x: 250.527099609375
y: 354.50396728515625
z: -0.09680289775133133
visibility: 0.7496883869171143
","x: 304.55841064453125
y: 363.07501220703125
z: -0.012090076692402363
visibility: 0.998959481716156
","x: 285.18035888671875
y: 363.8909606933594
z: 0.012080839835107327
visibility: 0.9992693066596985
","x: 300.3863220214844
y: 427.7525634765625
z: 0.0073313480243086815
visibility: 0.9757554531097412
","x: 283.8263854980469
y: 425.493896484375
z: -0.07921957969665527
visibility: 0.9841111302375793
","x: 299.486328125
y: 481.9465637207031
z: 0.12433232367038727
visibility: 0.9750876426696777
","x: 283.5006103515625
y: 485.72491455078125
z: -0.02197897434234619
visibility: 0.9826431274414062
","x: 297.90966796875
y: 488.6718444824219
z: 0.13076087832450867
visibility: 0.7982786297798157
","x: 285.3212890625
y: 494.0359802246094
z: -0.022449743002653122
visibility: 0.7793213725090027
","x: 299.2386779785156
y: 501.287109375
z: 0.042610712349414825
visibility: 0.967816948890686
","x: 280.8859558105469
y: 503.71575927734375
z: -0.12712612748146057
visibility: 0.9775876998901367
",4.522013187408447,"x: 298.5981750488281
y: 345.3067626953125
z: 0.0
","x: 293.4381408691406
y: 345.9889221191406
z: 0.0014349010307341814
","x: 289.4596862792969
y: 348.3079833984375
z: 0.0018762920517474413
","x: 286.5198974609375
y: 349.81195068359375
z: 0.0016287032049149275
","x: 284.1881408691406
y: 350.26422119140625
z: 0.0014597063418477774
","x: 289.0618896484375
y: 357.2184753417969
z: 0.0027205427177250385
","x: 286.0739440917969
y: 363.61151123046875
z: 0.002011446049436927
","x: 284.41424560546875
y: 367.43792724609375
z: 0.0016656556399539113
","x: 283.20684814453125
y: 370.4806213378906
z: 0.0016330147627741098
","x: 290.56298828125
y: 360.30169677734375
z: 0.0008865534910000861
","x: 287.72479248046875
y: 367.77655029296875
z: 0.0007128260331228375
","x: 286.00213623046875
y: 372.013916015625
z: 0.0007970206788741052
","x: 284.7580871582031
y: 375.3834228515625
z: 0.0007651897612959146
","x: 292.39862060546875
y: 362.3546142578125
z: -0.0011710665421560407
","x: 290.0727233886719
y: 369.6698303222656
z: -0.0018297533970326185
","x: 288.597412109375
y: 373.54144287109375
z: -0.001989462412893772
","x: 287.37347412109375
y: 376.4225769042969
z: -0.0020710884127765894
","x: 294.4181823730469
y: 363.4036865234375
z: -0.0033144005574285984
","x: 293.0171813964844
y: 369.65655517578125
z: -0.004097287543118
","x: 291.96209716796875
y: 373.21142578125
z: -0.004201122559607029
","x: 290.9267578125
y: 375.7998962402344
z: -0.004169837571680546
",,,,,,,,,,,,,,,,,,,,,
10,"x: 290.94549560546875
y: 259.71392822265625
z: -0.2355409860610962
visibility: 0.9998650550842285
","x: 291.298583984375
y: 254.72694396972656
z: -0.2285388708114624
visibility: 0.9995036125183105
","x: 291.8351135253906
y: 254.7807159423828
z: -0.22853145003318787
visibility: 0.9995942711830139
","x: 292.39154052734375
y: 254.82049560546875
z: -0.22852623462677002
visibility: 0.9996212720870972
","x: 289.2691650390625
y: 255.1553955078125
z: -0.2248334139585495
visibility: 0.9993950128555298
","x: 288.41064453125
y: 255.55169677734375
z: -0.22485587000846863
visibility: 0.999384343624115
","x: 287.4688415527344
y: 255.91676330566406
z: -0.22490212321281433
visibility: 0.9992928504943848
","x: 292.44744873046875
y: 258.3294982910156
z: -0.16920194029808044
visibility: 0.9991841316223145
","x: 285.66217041015625
y: 259.9629821777344
z: -0.1514071524143219
visibility: 0.9977858066558838
","x: 292.2048645019531
y: 265.7210693359375
z: -0.21191835403442383
visibility: 0.9997463226318359
","x: 289.6707458496094
y: 266.4239501953125
z: -0.2070322483778
visibility: 0.999582827091217
","x: 305.4598388671875
y: 290.1741943359375
z: -0.13648124039173126
visibility: 0.9999417662620544
","x: 275.23126220703125
y: 292.5570068359375
z: -0.07821036875247955
visibility: 0.9996364712715149
","x: 309.5353698730469
y: 333.78924560546875
z: -0.12197418510913849
visibility: 0.9956834316253662
","x: 268.8856201171875
y: 334.70947265625
z: -0.03572379797697067
visibility: 0.9218788743019104
","x: 304.2038879394531
y: 371.4565734863281
z: -0.18437770009040833
visibility: 0.9887555837631226
","x: 261.3971862792969
y: 377.5114440917969
z: -0.09933878481388092
visibility: 0.8548985719680786
","x: 303.4736022949219
y: 384.725830078125
z: -0.20792126655578613
visibility: 0.9671527743339539
","x: 259.7294921875
y: 388.8024597167969
z: -0.11781434714794159
visibility: 0.7733086943626404
","x: 300.82366943359375
y: 384.09228515625
z: -0.22677867114543915
visibility: 0.9693182110786438
","x: 262.582275390625
y: 389.5638427734375
z: -0.14404480159282684
visibility: 0.786668062210083
","x: 300.2158203125
y: 380.3695983886719
z: -0.19184400141239166
visibility: 0.9589995741844177
","x: 263.96856689453125
y: 385.8172302246094
z: -0.11115692555904388
visibility: 0.7698686122894287
","x: 300.7187805175781
y: 370.0957946777344
z: -0.022936692461371422
visibility: 0.9990383982658386
","x: 282.7447509765625
y: 373.06884765625
z: 0.022917479276657104
visibility: 0.9993380308151245
","x: 299.3330383300781
y: 431.2191162109375
z: 0.003952985629439354
visibility: 0.9778268337249756
","x: 280.5596008300781
y: 428.9532775878906
z: -0.03108164109289646
visibility: 0.9850814938545227
","x: 303.0555419921875
y: 475.88763427734375
z: 0.1911456137895584
visibility: 0.9768484830856323
","x: 283.34686279296875
y: 486.5021057128906
z: 0.06666926294565201
visibility: 0.983951985836029
","x: 304.5312194824219
y: 480.1184387207031
z: 0.2058911770582199
visibility: 0.8053737282752991
","x: 285.3267822265625
y: 494.5596618652344
z: 0.07111681997776031
visibility: 0.7969449758529663
","x: 299.1307678222656
y: 499.6741943359375
z: 0.1343740075826645
visibility: 0.9700603485107422
","x: 278.9848327636719
y: 505.53472900390625
z: -0.00782259926199913
visibility: 0.9791625738143921
",4.663780450820923,"x: 307.75604248046875
y: 373.5818786621094
z: 0.0
","x: 307.8848876953125
y: 382.95928955078125
z: 0.003201455110684037
","x: 307.2255554199219
y: 391.00732421875
z: 0.003244139486923814
","x: 305.55499267578125
y: 396.7986755371094
z: 0.002346806460991502
","x: 303.8903503417969
y: 401.2830810546875
z: 0.0017014865297824144
","x: 310.0459289550781
y: 392.3968811035156
z: 0.001694801147095859
","x: 308.7476806640625
y: 399.37017822265625
z: 0.00031309647602029145
","x: 307.5669860839844
y: 402.4820251464844
z: 0.0002121758443536237
","x: 306.73779296875
y: 404.20098876953125
z: 0.00043066905345767736
","x: 308.9683837890625
y: 390.9237365722656
z: -0.0014082002453505993
","x: 307.2952575683594
y: 398.9555358886719
z: -0.003069342114031315
","x: 306.2966613769531
y: 401.39862060546875
z: -0.0026552288327366114
","x: 305.6756591796875
y: 402.8246765136719
z: -0.0020662411116063595
","x: 307.24981689453125
y: 388.9552001953125
z: -0.004459475167095661
","x: 305.69989013671875
y: 396.9443359375
z: -0.005864607635885477
","x: 305.01519775390625
y: 400.0096130371094
z: -0.004669042769819498
","x: 304.5765686035156
y: 402.16827392578125
z: -0.0036810883320868015
","x: 304.97369384765625
y: 386.7608642578125
z: -0.0073982649482786655
","x: 303.53729248046875
y: 393.8298034667969
z: -0.008434906601905823
","x: 302.9354553222656
y: 398.01177978515625
z: -0.007847641594707966
","x: 302.3961181640625
y: 401.6697998046875
z: -0.0072172353975474834
",,,,,,,,,,,,,,,,,,,,,
11,"x: 290.94549560546875
y: 259.71392822265625
z: -0.2355409860610962
visibility: 0.9998650550842285
","x: 291.298583984375
y: 254.72694396972656
z: -0.2285388708114624
visibility: 0.9995036125183105
","x: 291.8351135253906
y: 254.7807159423828
z: -0.22853145003318787
visibility: 0.9995942711830139
","x: 292.39154052734375
y: 254.82049560546875
z: -0.22852623462677002
visibility: 0.9996212720870972
","x: 289.2691650390625
y: 255.1553955078125
z: -0.2248334139585495
visibility: 0.9993950128555298
","x: 288.41064453125
y: 255.55169677734375
z: -0.22485587000846863
visibility: 0.999384343624115
","x: 287.4688415527344
y: 255.91676330566406
z: -0.22490212321281433
visibility: 0.9992928504943848
","x: 292.44744873046875
y: 258.3294982910156
z: -0.16920194029808044
visibility: 0.9991841316223145
","x: 285.66217041015625
y: 259.9629821777344
z: -0.1514071524143219
visibility: 0.9977858066558838
","x: 292.2048645019531
y: 265.7210693359375
z: -0.21191835403442383
visibility: 0.9997463226318359
","x: 289.6707458496094
y: 266.4239501953125
z: -0.2070322483778
visibility: 0.999582827091217
","x: 305.4598388671875
y: 290.1741943359375
z: -0.13648124039173126
visibility: 0.9999417662620544
","x: 275.23126220703125
y: 292.5570068359375
z: -0.07821036875247955
visibility: 0.9996364712715149
","x: 309.5353698730469
y: 333.78924560546875
z: -0.12197418510913849
visibility: 0.9956834316253662
","x: 268.8856201171875
y: 334.70947265625
z: -0.03572379797697067
visibility: 0.9218788743019104
","x: 304.2038879394531
y: 371.4565734863281
z: -0.18437770009040833
visibility: 0.9887555837631226
","x: 261.3971862792969
y: 377.5114440917969
z: -0.09933878481388092
visibility: 0.8548985719680786
","x: 303.4736022949219
y: 384.725830078125
z: -0.20792126655578613
visibility: 0.9671527743339539
","x: 259.7294921875
y: 388.8024597167969
z: -0.11781434714794159
visibility: 0.7733086943626404
","x: 300.82366943359375
y: 384.09228515625
z: -0.22677867114543915
visibility: 0.9693182110786438
","x: 262.582275390625
y: 389.5638427734375
z: -0.14404480159282684
visibility: 0.786668062210083
","x: 300.2158203125
y: 380.3695983886719
z: -0.19184400141239166
visibility: 0.9589995741844177
","x: 263.96856689453125
y: 385.8172302246094
z: -0.11115692555904388
visibility: 0.7698686122894287
","x: 300.7187805175781
y: 370.0957946777344
z: -0.022936692461371422
visibility: 0.9990383982658386
","x: 282.7447509765625
y: 373.06884765625
z: 0.022917479276657104
visibility: 0.9993380308151245
","x: 299.3330383300781
y: 431.2191162109375
z: 0.003952985629439354
visibility: 0.9778268337249756
","x: 280.5596008300781
y: 428.9532775878906
z: -0.03108164109289646
visibility: 0.9850814938545227
","x: 303.0555419921875
y: 475.88763427734375
z: 0.1911456137895584
visibility: 0.9768484830856323
","x: 283.34686279296875
y: 486.5021057128906
z: 0.06666926294565201
visibility: 0.983951985836029
","x: 304.5312194824219
y: 480.1184387207031
z: 0.2058911770582199
visibility: 0.8053737282752991
","x: 285.3267822265625
y: 494.5596618652344
z: 0.07111681997776031
visibility: 0.7969449758529663
","x: 299.1307678222656
y: 499.6741943359375
z: 0.1343740075826645
visibility: 0.9700603485107422
","x: 278.9848327636719
y: 505.53472900390625
z: -0.00782259926199913
visibility: 0.9791625738143921
",4.663780450820923,"x: 307.75604248046875
y: 373.5818786621094
z: 0.0
","x: 307.8848876953125
y: 382.95928955078125
z: 0.003201455110684037
","x: 307.2255554199219
y: 391.00732421875
z: 0.003244139486923814
","x: 305.55499267578125
y: 396.7986755371094
z: 0.002346806460991502
","x: 303.8903503417969
y: 401.2830810546875
z: 0.0017014865297824144
","x: 310.0459289550781
y: 392.3968811035156
z: 0.001694801147095859
","x: 308.7476806640625
y: 399.37017822265625
z: 0.00031309647602029145
","x: 307.5669860839844
y: 402.4820251464844
z: 0.0002121758443536237
","x: 306.73779296875
y: 404.20098876953125
z: 0.00043066905345767736
","x: 308.9683837890625
y: 390.9237365722656
z: -0.0014082002453505993
","x: 307.2952575683594
y: 398.9555358886719
z: -0.003069342114031315
","x: 306.2966613769531
y: 401.39862060546875
z: -0.0026552288327366114
","x: 305.6756591796875
y: 402.8246765136719
z: -0.0020662411116063595
","x: 307.24981689453125
y: 388.9552001953125
z: -0.004459475167095661
","x: 305.69989013671875
y: 396.9443359375
z: -0.005864607635885477
","x: 305.01519775390625
y: 400.0096130371094
z: -0.004669042769819498
","x: 304.5765686035156
y: 402.16827392578125
z: -0.0036810883320868015
","x: 304.97369384765625
y: 386.7608642578125
z: -0.0073982649482786655
","x: 303.53729248046875
y: 393.8298034667969
z: -0.008434906601905823
","x: 302.9354553222656
y: 398.01177978515625
z: -0.007847641594707966
","x: 302.3961181640625
y: 401.6697998046875
z: -0.0072172353975474834
",,,,,,,,,,,,,,,,,,,,,
12,"x: 290.94549560546875
y: 259.71392822265625
z: -0.2355409860610962
visibility: 0.9998650550842285
","x: 291.298583984375
y: 254.72694396972656
z: -0.2285388708114624
visibility: 0.9995036125183105
","x: 291.8351135253906
y: 254.7807159423828
z: -0.22853145003318787
visibility: 0.9995942711830139
","x: 292.39154052734375
y: 254.82049560546875
z: -0.22852623462677002
visibility: 0.9996212720870972
","x: 289.2691650390625
y: 255.1553955078125
z: -0.2248334139585495
visibility: 0.9993950128555298
","x: 288.41064453125
y: 255.55169677734375
z: -0.22485587000846863
visibility: 0.999384343624115
","x: 287.4688415527344
y: 255.91676330566406
z: -0.22490212321281433
visibility: 0.9992928504943848
","x: 292.44744873046875
y: 258.3294982910156
z: -0.16920194029808044
visibility: 0.9991841316223145
","x: 285.66217041015625
y: 259.9629821777344
z: -0.1514071524143219
visibility: 0.9977858066558838
","x: 292.2048645019531
y: 265.7210693359375
z: -0.21191835403442383
visibility: 0.9997463226318359
","x: 289.6707458496094
y: 266.4239501953125
z: -0.2070322483778
visibility: 0.999582827091217
","x: 305.4598388671875
y: 290.1741943359375
z: -0.13648124039173126
visibility: 0.9999417662620544
","x: 275.23126220703125
y: 292.5570068359375
z: -0.07821036875247955
visibility: 0.9996364712715149
","x: 309.5353698730469
y: 333.78924560546875
z: -0.12197418510913849
visibility: 0.9956834316253662
","x: 268.8856201171875
y: 334.70947265625
z: -0.03572379797697067
visibility: 0.9218788743019104
","x: 304.2038879394531
y: 371.4565734863281
z: -0.18437770009040833
visibility: 0.9887555837631226
","x: 261.3971862792969
y: 377.5114440917969
z: -0.09933878481388092
visibility: 0.8548985719680786
","x: 303.4736022949219
y: 384.725830078125
z: -0.20792126655578613
visibility: 0.9671527743339539
","x: 259.7294921875
y: 388.8024597167969
z: -0.11781434714794159
visibility: 0.7733086943626404
","x: 300.82366943359375
y: 384.09228515625
z: -0.22677867114543915
visibility: 0.9693182110786438
","x: 262.582275390625
y: 389.5638427734375
z: -0.14404480159282684
visibility: 0.786668062210083
","x: 300.2158203125
y: 380.3695983886719
z: -0.19184400141239166
visibility: 0.9589995741844177
","x: 263.96856689453125
y: 385.8172302246094
z: -0.11115692555904388
visibility: 0.7698686122894287
","x: 300.7187805175781
y: 370.0957946777344
z: -0.022936692461371422
visibility: 0.9990383982658386
","x: 282.7447509765625
y: 373.06884765625
z: 0.022917479276657104
visibility: 0.9993380308151245
","x: 299.3330383300781
y: 431.2191162109375
z: 0.003952985629439354
visibility: 0.9778268337249756
","x: 280.5596008300781
y: 428.9532775878906
z: -0.03108164109289646
visibility: 0.9850814938545227
","x: 303.0555419921875
y: 475.88763427734375
z: 0.1911456137895584
visibility: 0.9768484830856323
","x: 283.34686279296875
y: 486.5021057128906
z: 0.06666926294565201
visibility: 0.983951985836029
","x: 304.5312194824219
y: 480.1184387207031
z: 0.2058911770582199
visibility: 0.8053737282752991
","x: 285.3267822265625
y: 494.5596618652344
z: 0.07111681997776031
visibility: 0.7969449758529663
","x: 299.1307678222656
y: 499.6741943359375
z: 0.1343740075826645
visibility: 0.9700603485107422
","x: 278.9848327636719
y: 505.53472900390625
z: -0.00782259926199913
visibility: 0.9791625738143921
",4.663780450820923,"x: 307.75604248046875
y: 373.5818786621094
z: 0.0
","x: 307.8848876953125
y: 382.95928955078125
z: 0.003201455110684037
","x: 307.2255554199219
y: 391.00732421875
z: 0.003244139486923814
","x: 305.55499267578125
y: 396.7986755371094
z: 0.002346806460991502
","x: 303.8903503417969
y: 401.2830810546875
z: 0.0017014865297824144
","x: 310.0459289550781
y: 392.3968811035156
z: 0.001694801147095859
","x: 308.7476806640625
y: 399.37017822265625
z: 0.00031309647602029145
","x: 307.5669860839844
y: 402.4820251464844
z: 0.0002121758443536237
","x: 306.73779296875
y: 404.20098876953125
z: 0.00043066905345767736
","x: 308.9683837890625
y: 390.9237365722656
z: -0.0014082002453505993
","x: 307.2952575683594
y: 398.9555358886719
z: -0.003069342114031315
","x: 306.2966613769531
y: 401.39862060546875
z: -0.0026552288327366114
","x: 305.6756591796875
y: 402.8246765136719
z: -0.0020662411116063595
","x: 307.24981689453125
y: 388.9552001953125
z: -0.004459475167095661
","x: 305.69989013671875
y: 396.9443359375
z: -0.005864607635885477
","x: 305.01519775390625
y: 400.0096130371094
z: -0.004669042769819498
","x: 304.5765686035156
y: 402.16827392578125
z: -0.0036810883320868015
","x: 304.97369384765625
y: 386.7608642578125
z: -0.0073982649482786655
","x: 303.53729248046875
y: 393.8298034667969
z: -0.008434906601905823
","x: 302.9354553222656
y: 398.01177978515625
z: -0.007847641594707966
","x: 302.3961181640625
y: 401.6697998046875
z: -0.0072172353975474834
",,,,,,,,,,,,,,,,,,,,,
13,"x: 289.0105285644531
y: 259.97454833984375
z: -0.24456307291984558
visibility: 0.9998778104782104
","x: 289.9278869628906
y: 255.2888641357422
z: -0.2316080629825592
visibility: 0.9995497465133667
","x: 290.77899169921875
y: 255.32400512695312
z: -0.23158137500286102
visibility: 0.9996314644813538
","x: 291.60272216796875
y: 255.36532592773438
z: -0.23159225285053253
visibility: 0.999655544757843
","x: 287.25830078125
y: 255.71868896484375
z: -0.23147661983966827
visibility: 0.9994518160820007
","x: 286.2591552734375
y: 256.0363464355469
z: -0.23151250183582306
visibility: 0.9994423985481262
","x: 285.2234191894531
y: 256.3445739746094
z: -0.2315586507320404
visibility: 0.9993597269058228
","x: 292.67242431640625
y: 258.5293273925781
z: -0.15048442780971527
visibility: 0.9992599487304688
","x: 283.4278869628906
y: 259.9124755859375
z: -0.15084992349147797
visibility: 0.9979975819587708
","x: 290.8504638671875
y: 266.22186279296875
z: -0.2141638696193695
visibility: 0.9997705221176147
","x: 287.2684326171875
y: 266.6836853027344
z: -0.21426570415496826
visibility: 0.9996227622032166
","x: 303.7443542480469
y: 292.1911926269531
z: -0.08570782840251923
visibility: 0.9999441504478455
","x: 274.13006591796875
y: 292.7832336425781
z: -0.09516576677560806
visibility: 0.9996664524078369
","x: 312.2071228027344
y: 332.28485107421875
z: -0.05030359700322151
visibility: 0.9951522946357727
","x: 270.44378662109375
y: 334.8559875488281
z: -0.1265200525522232
visibility: 0.927361786365509
","x: 320.3843994140625
y: 369.7398681640625
z: -0.1191907525062561
visibility: 0.9877009987831116
","x: 283.248046875
y: 373.2823486328125
z: -0.22065043449401855
visibility: 0.8658905625343323
","x: 323.653076171875
y: 381.9308166503906
z: -0.1375638097524643
visibility: 0.965822160243988
","x: 284.5149230957031
y: 383.1859130859375
z: -0.24763920903205872
visibility: 0.7896648049354553
","x: 322.4824523925781
y: 383.1051940917969
z: -0.1630183309316635
visibility: 0.968379557132721
","x: 288.0386962890625
y: 384.6312255859375
z: -0.2614387273788452
visibility: 0.801806628704071
","x: 321.2585144042969
y: 378.86785888671875
z: -0.13046984374523163
visibility: 0.9582479000091553
","x: 288.496337890625
y: 381.2735595703125
z: -0.22723576426506042
visibility: 0.7837001085281372
","x: 298.3385314941406
y: 369.1114807128906
z: -0.007879494689404964
visibility: 0.9991297125816345
","x: 279.61651611328125
y: 371.8704833984375
z: 0.007777483202517033
visibility: 0.9993962049484253
","x: 298.0346374511719
y: 426.51385498046875
z: -0.17735132575035095
visibility: 0.9797558188438416
","x: 277.53814697265625
y: 431.6012878417969
z: -0.035446200519800186
visibility: 0.9858629107475281
","x: 303.6637878417969
y: 474.444091796875
z: -0.04642576724290848
visibility: 0.9788311123847961
","x: 283.2789001464844
y: 486.4366149902344
z: 0.09824076294898987
visibility: 0.985001266002655
","x: 303.4957580566406
y: 478.83868408203125
z: -0.03762165829539299
visibility: 0.8208644986152649
","x: 285.9404602050781
y: 493.498291015625
z: 0.10635707527399063
visibility: 0.8100835084915161
","x: 304.9366149902344
y: 499.68505859375
z: -0.1394226849079132
visibility: 0.9726693034172058
","x: 279.3549499511719
y: 507.7205810546875
z: 0.013509100303053856
visibility: 0.9802483916282654
",4.805431365966797,,,,,,,,,,,,,,,,,,,,,,"x: 285.0788269042969
y: 365.5888366699219
z: 0.0
","x: 288.1932373046875
y: 369.2324523925781
z: 0.0026712329126894474
","x: 290.3152160644531
y: 374.03680419921875
z: 0.003156609833240509
","x: 290.8673095703125
y: 378.21533203125
z: 0.0028355573303997517
","x: 290.5122985839844
y: 381.1340026855469
z: 0.0025757779367268085
","x: 290.951171875
y: 376.71337890625
z: -0.0005123242153786123
","x: 292.5133972167969
y: 382.849853515625
z: -0.0015000615967437625
","x: 292.4336853027344
y: 384.5492858886719
z: -0.0004875938466284424
","x: 292.25762939453125
y: 384.6477966308594
z: 0.0005854302435182035
","x: 289.3210754394531
y: 378.64715576171875
z: -0.0028434814885258675
","x: 291.02166748046875
y: 387.8648681640625
z: -0.0035009821876883507
","x: 290.6732482910156
y: 388.0396728515625
z: -0.0015764280688017607
","x: 290.265869140625
y: 386.2253112792969
z: 0.00012149142276030034
","x: 287.15838623046875
y: 379.362548828125
z: -0.004999521188437939
","x: 288.050537109375
y: 387.63238525390625
z: -0.005998887587338686
","x: 287.9236145019531
y: 386.8397521972656
z: -0.004214350134134293
","x: 287.83441162109375
y: 384.80535888671875
z: -0.002595348283648491
","x: 284.70819091796875
y: 379.08642578125
z: -0.007011668756604195
","x: 284.4942932128906
y: 384.4730224609375
z: -0.007886486127972603
","x: 284.3887023925781
y: 384.0492248535156
z: -0.006935765501111746
","x: 284.4021301269531
y: 382.64056396484375
z: -0.005750641692429781
"
14,"x: 289.0105285644531
y: 259.97454833984375
z: -0.24456307291984558
visibility: 0.9998778104782104
","x: 289.9278869628906
y: 255.2888641357422
z: -0.2316080629825592
visibility: 0.9995497465133667
","x: 290.77899169921875
y: 255.32400512695312
z: -0.23158137500286102
visibility: 0.9996314644813538
","x: 291.60272216796875
y: 255.36532592773438
z: -0.23159225285053253
visibility: 0.999655544757843
","x: 287.25830078125
y: 255.71868896484375
z: -0.23147661983966827
visibility: 0.9994518160820007
","x: 286.2591552734375
y: 256.0363464355469
z: -0.23151250183582306
visibility: 0.9994423985481262
","x: 285.2234191894531
y: 256.3445739746094
z: -0.2315586507320404
visibility: 0.9993597269058228
","x: 292.67242431640625
y: 258.5293273925781
z: -0.15048442780971527
visibility: 0.9992599487304688
","x: 283.4278869628906
y: 259.9124755859375
z: -0.15084992349147797
visibility: 0.9979975819587708
","x: 290.8504638671875
y: 266.22186279296875
z: -0.2141638696193695
visibility: 0.9997705221176147
","x: 287.2684326171875
y: 266.6836853027344
z: -0.21426570415496826
visibility: 0.9996227622032166
","x: 303.7443542480469
y: 292.1911926269531
z: -0.08570782840251923
visibility: 0.9999441504478455
","x: 274.13006591796875
y: 292.7832336425781
z: -0.09516576677560806
visibility: 0.9996664524078369
","x: 312.2071228027344
y: 332.28485107421875
z: -0.05030359700322151
visibility: 0.9951522946357727
","x: 270.44378662109375
y: 334.8559875488281
z: -0.1265200525522232
visibility: 0.927361786365509
","x: 320.3843994140625
y: 369.7398681640625
z: -0.1191907525062561
visibility: 0.9877009987831116
","x: 283.248046875
y: 373.2823486328125
z: -0.22065043449401855
visibility: 0.8658905625343323
","x: 323.653076171875
y: 381.9308166503906
z: -0.1375638097524643
visibility: 0.965822160243988
","x: 284.5149230957031
y: 383.1859130859375
z: -0.24763920903205872
visibility: 0.7896648049354553
","x: 322.4824523925781
y: 383.1051940917969
z: -0.1630183309316635
visibility: 0.968379557132721
","x: 288.0386962890625
y: 384.6312255859375
z: -0.2614387273788452
visibility: 0.801806628704071
","x: 321.2585144042969
y: 378.86785888671875
z: -0.13046984374523163
visibility: 0.9582479000091553
","x: 288.496337890625
y: 381.2735595703125
z: -0.22723576426506042
visibility: 0.7837001085281372
","x: 298.3385314941406
y: 369.1114807128906
z: -0.007879494689404964
visibility: 0.9991297125816345
","x: 279.61651611328125
y: 371.8704833984375
z: 0.007777483202517033
visibility: 0.9993962049484253
","x: 298.0346374511719
y: 426.51385498046875
z: -0.17735132575035095
visibility: 0.9797558188438416
","x: 277.53814697265625
y: 431.6012878417969
z: -0.035446200519800186
visibility: 0.9858629107475281
","x: 303.6637878417969
y: 474.444091796875
z: -0.04642576724290848
visibility: 0.9788311123847961
","x: 283.2789001464844
y: 486.4366149902344
z: 0.09824076294898987
visibility: 0.985001266002655
","x: 303.4957580566406
y: 478.83868408203125
z: -0.03762165829539299
visibility: 0.8208644986152649
","x: 285.9404602050781
y: 493.498291015625
z: 0.10635707527399063
visibility: 0.8100835084915161
","x: 304.9366149902344
y: 499.68505859375
z: -0.1394226849079132
visibility: 0.9726693034172058
","x: 279.3549499511719
y: 507.7205810546875
z: 0.013509100303053856
visibility: 0.9802483916282654
",4.805431365966797,,,,,,,,,,,,,,,,,,,,,,"x: 285.0788269042969
y: 365.5888366699219
z: 0.0
","x: 288.1932373046875
y: 369.2324523925781
z: 0.0026712329126894474
","x: 290.3152160644531
y: 374.03680419921875
z: 0.003156609833240509
","x: 290.8673095703125
y: 378.21533203125
z: 0.0028355573303997517
","x: 290.5122985839844
y: 381.1340026855469
z: 0.0025757779367268085
","x: 290.951171875
y: 376.71337890625
z: -0.0005123242153786123
","x: 292.5133972167969
y: 382.849853515625
z: -0.0015000615967437625
","x: 292.4336853027344
y: 384.5492858886719
z: -0.0004875938466284424
","x: 292.25762939453125
y: 384.6477966308594
z: 0.0005854302435182035
","x: 289.3210754394531
y: 378.64715576171875
z: -0.0028434814885258675
","x: 291.02166748046875
y: 387.8648681640625
z: -0.0035009821876883507
","x: 290.6732482910156
y: 388.0396728515625
z: -0.0015764280688017607
","x: 290.265869140625
y: 386.2253112792969
z: 0.00012149142276030034
","x: 287.15838623046875
y: 379.362548828125
z: -0.004999521188437939
","x: 288.050537109375
y: 387.63238525390625
z: -0.005998887587338686
","x: 287.9236145019531
y: 386.8397521972656
z: -0.004214350134134293
","x: 287.83441162109375
y: 384.80535888671875
z: -0.002595348283648491
","x: 284.70819091796875
y: 379.08642578125
z: -0.007011668756604195
","x: 284.4942932128906
y: 384.4730224609375
z: -0.007886486127972603
","x: 284.3887023925781
y: 384.0492248535156
z: -0.006935765501111746
","x: 284.4021301269531
y: 382.64056396484375
z: -0.005750641692429781
"
15,"x: 289.0105285644531
y: 259.97454833984375
z: -0.24456307291984558
visibility: 0.9998778104782104
","x: 289.9278869628906
y: 255.2888641357422
z: -0.2316080629825592
visibility: 0.9995497465133667
","x: 290.77899169921875
y: 255.32400512695312
z: -0.23158137500286102
visibility: 0.9996314644813538
","x: 291.60272216796875
y: 255.36532592773438
z: -0.23159225285053253
visibility: 0.999655544757843
","x: 287.25830078125
y: 255.71868896484375
z: -0.23147661983966827
visibility: 0.9994518160820007
","x: 286.2591552734375
y: 256.0363464355469
z: -0.23151250183582306
visibility: 0.9994423985481262
","x: 285.2234191894531
y: 256.3445739746094
z: -0.2315586507320404
visibility: 0.9993597269058228
","x: 292.67242431640625
y: 258.5293273925781
z: -0.15048442780971527
visibility: 0.9992599487304688
","x: 283.4278869628906
y: 259.9124755859375
z: -0.15084992349147797
visibility: 0.9979975819587708
","x: 290.8504638671875
y: 266.22186279296875
z: -0.2141638696193695
visibility: 0.9997705221176147
","x: 287.2684326171875
y: 266.6836853027344
z: -0.21426570415496826
visibility: 0.9996227622032166
","x: 303.7443542480469
y: 292.1911926269531
z: -0.08570782840251923
visibility: 0.9999441504478455
","x: 274.13006591796875
y: 292.7832336425781
z: -0.09516576677560806
visibility: 0.9996664524078369
","x: 312.2071228027344
y: 332.28485107421875
z: -0.05030359700322151
visibility: 0.9951522946357727
","x: 270.44378662109375
y: 334.8559875488281
z: -0.1265200525522232
visibility: 0.927361786365509
","x: 320.3843994140625
y: 369.7398681640625
z: -0.1191907525062561
visibility: 0.9877009987831116
","x: 283.248046875
y: 373.2823486328125
z: -0.22065043449401855
visibility: 0.8658905625343323
","x: 323.653076171875
y: 381.9308166503906
z: -0.1375638097524643
visibility: 0.965822160243988
","x: 284.5149230957031
y: 383.1859130859375
z: -0.24763920903205872
visibility: 0.7896648049354553
","x: 322.4824523925781
y: 383.1051940917969
z: -0.1630183309316635
visibility: 0.968379557132721
","x: 288.0386962890625
y: 384.6312255859375
z: -0.2614387273788452
visibility: 0.801806628704071
","x: 321.2585144042969
y: 378.86785888671875
z: -0.13046984374523163
visibility: 0.9582479000091553
","x: 288.496337890625
y: 381.2735595703125
z: -0.22723576426506042
visibility: 0.7837001085281372
","x: 298.3385314941406
y: 369.1114807128906
z: -0.007879494689404964
visibility: 0.9991297125816345
","x: 279.61651611328125
y: 371.8704833984375
z: 0.007777483202517033
visibility: 0.9993962049484253
","x: 298.0346374511719
y: 426.51385498046875
z: -0.17735132575035095
visibility: 0.9797558188438416
","x: 277.53814697265625
y: 431.6012878417969
z: -0.035446200519800186
visibility: 0.9858629107475281
","x: 303.6637878417969
y: 474.444091796875
z: -0.04642576724290848
visibility: 0.9788311123847961
","x: 283.2789001464844
y: 486.4366149902344
z: 0.09824076294898987
visibility: 0.985001266002655
","x: 303.4957580566406
y: 478.83868408203125
z: -0.03762165829539299
visibility: 0.8208644986152649
","x: 285.9404602050781
y: 493.498291015625
z: 0.10635707527399063
visibility: 0.8100835084915161
","x: 304.9366149902344
y: 499.68505859375
z: -0.1394226849079132
visibility: 0.9726693034172058
","x: 279.3549499511719
y: 507.7205810546875
z: 0.013509100303053856
visibility: 0.9802483916282654
",4.805431365966797,,,,,,,,,,,,,,,,,,,,,,"x: 285.0788269042969
y: 365.5888366699219
z: 0.0
","x: 288.1932373046875
y: 369.2324523925781
z: 0.0026712329126894474
","x: 290.3152160644531
y: 374.03680419921875
z: 0.003156609833240509
","x: 290.8673095703125
y: 378.21533203125
z: 0.0028355573303997517
","x: 290.5122985839844
y: 381.1340026855469
z: 0.0025757779367268085
","x: 290.951171875
y: 376.71337890625
z: -0.0005123242153786123
","x: 292.5133972167969
y: 382.849853515625
z: -0.0015000615967437625
","x: 292.4336853027344
y: 384.5492858886719
z: -0.0004875938466284424
","x: 292.25762939453125
y: 384.6477966308594
z: 0.0005854302435182035
","x: 289.3210754394531
y: 378.64715576171875
z: -0.0028434814885258675
","x: 291.02166748046875
y: 387.8648681640625
z: -0.0035009821876883507
","x: 290.6732482910156
y: 388.0396728515625
z: -0.0015764280688017607
","x: 290.265869140625
y: 386.2253112792969
z: 0.00012149142276030034
","x: 287.15838623046875
y: 379.362548828125
z: -0.004999521188437939
","x: 288.050537109375
y: 387.63238525390625
z: -0.005998887587338686
","x: 287.9236145019531
y: 386.8397521972656
z: -0.004214350134134293
","x: 287.83441162109375
y: 384.80535888671875
z: -0.002595348283648491
","x: 284.70819091796875
y: 379.08642578125
z: -0.007011668756604195
","x: 284.4942932128906
y: 384.4730224609375
z: -0.007886486127972603
","x: 284.3887023925781
y: 384.0492248535156
z: -0.006935765501111746
","x: 284.4021301269531
y: 382.64056396484375
z: -0.005750641692429781
"
16,"x: 289.3619689941406
y: 260.00262451171875
z: -0.12908431887626648
visibility: 0.999889612197876
","x: 290.5362548828125
y: 255.36439514160156
z: -0.11225952208042145
visibility: 0.9995937943458557
","x: 291.44580078125
y: 255.40682983398438
z: -0.1123061329126358
visibility: 0.9996669888496399
","x: 292.31561279296875
y: 255.45877075195312
z: -0.11236695200204849
visibility: 0.9996889233589172
","x: 287.56170654296875
y: 255.685791015625
z: -0.11818389594554901
visibility: 0.9995051026344299
","x: 286.4063415527344
y: 255.93722534179688
z: -0.11815464496612549
visibility: 0.9994962811470032
","x: 285.2210998535156
y: 256.18438720703125
z: -0.11813583225011826
visibility: 0.9994217157363892
","x: 293.29949951171875
y: 258.6354675292969
z: -0.018177252262830734
visibility: 0.9993326663970947
","x: 283.0423278808594
y: 259.6114807128906
z: -0.04694020375609398
visibility: 0.9981957077980042
","x: 291.14794921875
y: 266.2460632324219
z: -0.09346915781497955
visibility: 0.9997929334640503
","x: 286.9999694824219
y: 266.4723815917969
z: -0.10188337415456772
visibility: 0.9996592998504639
","x: 301.53619384765625
y: 291.159912109375
z: 0.03671017289161682
visibility: 0.9999493956565857
","x: 274.5617980957031
y: 292.66192626953125
z: -0.02253193035721779
visibility: 0.9996851086616516
","x: 312.1851501464844
y: 322.6002197265625
z: 0.060542456805706024
visibility: 0.9924892783164978
","x: 272.14276123046875
y: 330.5810241699219
z: -0.10897327959537506
visibility: 0.9118795394897461
","x: 327.135986328125
y: 347.31036376953125
z: -0.023494409397244453
visibility: 0.9878833889961243
","x: 285.5719909667969
y: 340.4256591796875
z: -0.2702818214893341
visibility: 0.867729127407074
","x: 332.02850341796875
y: 355.80242919921875
z: -0.042455341666936874
visibility: 0.9672837257385254
","x: 286.8503112792969
y: 346.6315002441406
z: -0.30959486961364746
visibility: 0.7980263233184814
","x: 332.04327392578125
y: 356.0740661621094
z: -0.06799905747175217
visibility: 0.969846785068512
","x: 287.92169189453125
y: 341.54498291015625
z: -0.3181062638759613
visibility: 0.8091802000999451
","x: 330.2454833984375
y: 353.37884521484375
z: -0.0360860750079155
visibility: 0.9601810574531555
","x: 287.98992919921875
y: 339.8163146972656
z: -0.2783116400241852
visibility: 0.7883232831954956
","x: 299.0445861816406
y: 370.3809814453125
z: 0.002000814536586404
visibility: 0.9992144703865051
","x: 279.8546447753906
y: 371.5098571777344
z: -0.0019827759824693203
visibility: 0.9994522929191589
","x: 301.7018737792969
y: 435.264892578125
z: -0.07041152566671371
visibility: 0.9810192584991455
","x: 268.0780944824219
y: 434.76513671875
z: -0.13509303331375122
visibility: 0.987050473690033
","x: 300.17498779296875
y: 495.896484375
z: 0.06261783838272095
visibility: 0.9800113439559937
","x: 280.7955017089844
y: 483.34619140625
z: 0.04350537806749344
visibility: 0.9859200716018677
","x: 296.16741943359375
y: 502.6331787109375
z: 0.07997789233922958
visibility: 0.8298274874687195
","x: 285.16204833984375
y: 487.65692138671875
z: 0.059240616858005524
visibility: 0.8233128190040588
","x: 304.6119079589844
y: 520.065185546875
z: -0.01161708403378725
visibility: 0.973947286605835
","x: 278.6135559082031
y: 508.4927062988281
z: 0.0008716750890016556
visibility: 0.9813892245292664
",4.930998802185059,,,,,,,,,,,,,,,,,,,,,,"x: 286.1120910644531
y: 334.8238525390625
z: 0.0
","x: 288.6610107421875
y: 336.5884704589844
z: -0.0008893277263268828
","x: 290.63720703125
y: 340.2200622558594
z: -0.002160036703571677
","x: 291.1830139160156
y: 343.479248046875
z: -0.0037404291797429323
","x: 290.9659423828125
y: 345.8768005371094
z: -0.005319120362401009
","x: 290.141845703125
y: 343.6187438964844
z: -0.0029478948563337326
","x: 291.1889953613281
y: 348.26177978515625
z: -0.005813713185489178
","x: 291.8046875
y: 350.7676696777344
z: -0.007105449680238962
","x: 292.35693359375
y: 352.53314208984375
z: -0.007750255987048149
","x: 288.1924133300781
y: 343.9288635253906
z: -0.004296064376831055
","x: 288.5612487792969
y: 348.6515808105469
z: -0.007756541483104229
","x: 288.53668212890625
y: 346.7401428222656
z: -0.007837511599063873
","x: 288.573974609375
y: 344.783447265625
z: -0.00713731674477458
","x: 286.1495361328125
y: 343.3326721191406
z: -0.0058599854819476604
","x: 285.9523010253906
y: 346.9245910644531
z: -0.00919000431895256
","x: 286.0959777832031
y: 344.887939453125
z: -0.00823967531323433
","x: 286.31884765625
y: 343.2344055175781
z: -0.006848671939224005
","x: 284.0814208984375
y: 342.0830993652344
z: -0.007636308204382658
","x: 283.441650390625
y: 344.7972106933594
z: -0.01003742404282093
","x: 283.3870544433594
y: 343.7484436035156
z: -0.009551998227834702
","x: 283.43841552734375
y: 342.75579833984375
z: -0.008560440503060818
"
17,"x: 289.3619689941406
y: 260.00262451171875
z: -0.12908431887626648
visibility: 0.999889612197876
","x: 290.5362548828125
y: 255.36439514160156
z: -0.11225952208042145
visibility: 0.9995937943458557
","x: 291.44580078125
y: 255.40682983398438
z: -0.1123061329126358
visibility: 0.9996669888496399
","x: 292.31561279296875
y: 255.45877075195312
z: -0.11236695200204849
visibility: 0.9996889233589172
","x: 287.56170654296875
y: 255.685791015625
z: -0.11818389594554901
visibility: 0.9995051026344299
","x: 286.4063415527344
y: 255.93722534179688
z: -0.11815464496612549
visibility: 0.9994962811470032
","x: 285.2210998535156
y: 256.18438720703125
z: -0.11813583225011826
visibility: 0.9994217157363892
","x: 293.29949951171875
y: 258.6354675292969
z: -0.018177252262830734
visibility: 0.9993326663970947
","x: 283.0423278808594
y: 259.6114807128906
z: -0.04694020375609398
visibility: 0.9981957077980042
","x: 291.14794921875
y: 266.2460632324219
z: -0.09346915781497955
visibility: 0.9997929334640503
","x: 286.9999694824219
y: 266.4723815917969
z: -0.10188337415456772
visibility: 0.9996592998504639
","x: 301.53619384765625
y: 291.159912109375
z: 0.03671017289161682
visibility: 0.9999493956565857
","x: 274.5617980957031
y: 292.66192626953125
z: -0.02253193035721779
visibility: 0.9996851086616516
","x: 312.1851501464844
y: 322.6002197265625
z: 0.060542456805706024
visibility: 0.9924892783164978
","x: 272.14276123046875
y: 330.5810241699219
z: -0.10897327959537506
visibility: 0.9118795394897461
","x: 327.135986328125
y: 347.31036376953125
z: -0.023494409397244453
visibility: 0.9878833889961243
","x: 285.5719909667969
y: 340.4256591796875
z: -0.2702818214893341
visibility: 0.867729127407074
","x: 332.02850341796875
y: 355.80242919921875
z: -0.042455341666936874
visibility: 0.9672837257385254
","x: 286.8503112792969
y: 346.6315002441406
z: -0.30959486961364746
visibility: 0.7980263233184814
","x: 332.04327392578125
y: 356.0740661621094
z: -0.06799905747175217
visibility: 0.969846785068512
","x: 287.92169189453125
y: 341.54498291015625
z: -0.3181062638759613
visibility: 0.8091802000999451
","x: 330.2454833984375
y: 353.37884521484375
z: -0.0360860750079155
visibility: 0.9601810574531555
","x: 287.98992919921875
y: 339.8163146972656
z: -0.2783116400241852
visibility: 0.7883232831954956
","x: 299.0445861816406
y: 370.3809814453125
z: 0.002000814536586404
visibility: 0.9992144703865051
","x: 279.8546447753906
y: 371.5098571777344
z: -0.0019827759824693203
visibility: 0.9994522929191589
","x: 301.7018737792969
y: 435.264892578125
z: -0.07041152566671371
visibility: 0.9810192584991455
","x: 268.0780944824219
y: 434.76513671875
z: -0.13509303331375122
visibility: 0.987050473690033
","x: 300.17498779296875
y: 495.896484375
z: 0.06261783838272095
visibility: 0.9800113439559937
","x: 280.7955017089844
y: 483.34619140625
z: 0.04350537806749344
visibility: 0.9859200716018677
","x: 296.16741943359375
y: 502.6331787109375
z: 0.07997789233922958
visibility: 0.8298274874687195
","x: 285.16204833984375
y: 487.65692138671875
z: 0.059240616858005524
visibility: 0.8233128190040588
","x: 304.6119079589844
y: 520.065185546875
z: -0.01161708403378725
visibility: 0.973947286605835
","x: 278.6135559082031
y: 508.4927062988281
z: 0.0008716750890016556
visibility: 0.9813892245292664
",4.930998802185059,,,,,,,,,,,,,,,,,,,,,,"x: 286.1120910644531
y: 334.8238525390625
z: 0.0
","x: 288.6610107421875
y: 336.5884704589844
z: -0.0008893277263268828
","x: 290.63720703125
y: 340.2200622558594
z: -0.002160036703571677
","x: 291.1830139160156
y: 343.479248046875
z: -0.0037404291797429323
","x: 290.9659423828125
y: 345.8768005371094
z: -0.005319120362401009
","x: 290.141845703125
y: 343.6187438964844
z: -0.0029478948563337326
","x: 291.1889953613281
y: 348.26177978515625
z: -0.005813713185489178
","x: 291.8046875
y: 350.7676696777344
z: -0.007105449680238962
","x: 292.35693359375
y: 352.53314208984375
z: -0.007750255987048149
","x: 288.1924133300781
y: 343.9288635253906
z: -0.004296064376831055
","x: 288.5612487792969
y: 348.6515808105469
z: -0.007756541483104229
","x: 288.53668212890625
y: 346.7401428222656
z: -0.007837511599063873
","x: 288.573974609375
y: 344.783447265625
z: -0.00713731674477458
","x: 286.1495361328125
y: 343.3326721191406
z: -0.0058599854819476604
","x: 285.9523010253906
y: 346.9245910644531
z: -0.00919000431895256
","x: 286.0959777832031
y: 344.887939453125
z: -0.00823967531323433
","x: 286.31884765625
y: 343.2344055175781
z: -0.006848671939224005
","x: 284.0814208984375
y: 342.0830993652344
z: -0.007636308204382658
","x: 283.441650390625
y: 344.7972106933594
z: -0.01003742404282093
","x: 283.3870544433594
y: 343.7484436035156
z: -0.009551998227834702
","x: 283.43841552734375
y: 342.75579833984375
z: -0.008560440503060818
"
18,"x: 289.3619689941406
y: 260.00262451171875
z: -0.12908431887626648
visibility: 0.999889612197876
","x: 290.5362548828125
y: 255.36439514160156
z: -0.11225952208042145
visibility: 0.9995937943458557
","x: 291.44580078125
y: 255.40682983398438
z: -0.1123061329126358
visibility: 0.9996669888496399
","x: 292.31561279296875
y: 255.45877075195312
z: -0.11236695200204849
visibility: 0.9996889233589172
","x: 287.56170654296875
y: 255.685791015625
z: -0.11818389594554901
visibility: 0.9995051026344299
","x: 286.4063415527344
y: 255.93722534179688
z: -0.11815464496612549
visibility: 0.9994962811470032
","x: 285.2210998535156
y: 256.18438720703125
z: -0.11813583225011826
visibility: 0.9994217157363892
","x: 293.29949951171875
y: 258.6354675292969
z: -0.018177252262830734
visibility: 0.9993326663970947
","x: 283.0423278808594
y: 259.6114807128906
z: -0.04694020375609398
visibility: 0.9981957077980042
","x: 291.14794921875
y: 266.2460632324219
z: -0.09346915781497955
visibility: 0.9997929334640503
","x: 286.9999694824219
y: 266.4723815917969
z: -0.10188337415456772
visibility: 0.9996592998504639
","x: 301.53619384765625
y: 291.159912109375
z: 0.03671017289161682
visibility: 0.9999493956565857
","x: 274.5617980957031
y: 292.66192626953125
z: -0.02253193035721779
visibility: 0.9996851086616516
","x: 312.1851501464844
y: 322.6002197265625
z: 0.060542456805706024
visibility: 0.9924892783164978
","x: 272.14276123046875
y: 330.5810241699219
z: -0.10897327959537506
visibility: 0.9118795394897461
","x: 327.135986328125
y: 347.31036376953125
z: -0.023494409397244453
visibility: 0.9878833889961243
","x: 285.5719909667969
y: 340.4256591796875
z: -0.2702818214893341
visibility: 0.867729127407074
","x: 332.02850341796875
y: 355.80242919921875
z: -0.042455341666936874
visibility: 0.9672837257385254
","x: 286.8503112792969
y: 346.6315002441406
z: -0.30959486961364746
visibility: 0.7980263233184814
","x: 332.04327392578125
y: 356.0740661621094
z: -0.06799905747175217
visibility: 0.969846785068512
","x: 287.92169189453125
y: 341.54498291015625
z: -0.3181062638759613
visibility: 0.8091802000999451
","x: 330.2454833984375
y: 353.37884521484375
z: -0.0360860750079155
visibility: 0.9601810574531555
","x: 287.98992919921875
y: 339.8163146972656
z: -0.2783116400241852
visibility: 0.7883232831954956
","x: 299.0445861816406
y: 370.3809814453125
z: 0.002000814536586404
visibility: 0.9992144703865051
","x: 279.8546447753906
y: 371.5098571777344
z: -0.0019827759824693203
visibility: 0.9994522929191589
","x: 301.7018737792969
y: 435.264892578125
z: -0.07041152566671371
visibility: 0.9810192584991455
","x: 268.0780944824219
y: 434.76513671875
z: -0.13509303331375122
visibility: 0.987050473690033
","x: 300.17498779296875
y: 495.896484375
z: 0.06261783838272095
visibility: 0.9800113439559937
","x: 280.7955017089844
y: 483.34619140625
z: 0.04350537806749344
visibility: 0.9859200716018677
","x: 296.16741943359375
y: 502.6331787109375
z: 0.07997789233922958
visibility: 0.8298274874687195
","x: 285.16204833984375
y: 487.65692138671875
z: 0.059240616858005524
visibility: 0.8233128190040588
","x: 304.6119079589844
y: 520.065185546875
z: -0.01161708403378725
visibility: 0.973947286605835
","x: 278.6135559082031
y: 508.4927062988281
z: 0.0008716750890016556
visibility: 0.9813892245292664
",4.930998802185059,,,,,,,,,,,,,,,,,,,,,,"x: 286.1120910644531
y: 334.8238525390625
z: 0.0
","x: 288.6610107421875
y: 336.5884704589844
z: -0.0008893277263268828
","x: 290.63720703125
y: 340.2200622558594
z: -0.002160036703571677
","x: 291.1830139160156
y: 343.479248046875
z: -0.0037404291797429323
","x: 290.9659423828125
y: 345.8768005371094
z: -0.005319120362401009
","x: 290.141845703125
y: 343.6187438964844
z: -0.0029478948563337326
","x: 291.1889953613281
y: 348.26177978515625
z: -0.005813713185489178
","x: 291.8046875
y: 350.7676696777344
z: -0.007105449680238962
","x: 292.35693359375
y: 352.53314208984375
z: -0.007750255987048149
","x: 288.1924133300781
y: 343.9288635253906
z: -0.004296064376831055
","x: 288.5612487792969
y: 348.6515808105469
z: -0.007756541483104229
","x: 288.53668212890625
y: 346.7401428222656
z: -0.007837511599063873
","x: 288.573974609375
y: 344.783447265625
z: -0.00713731674477458
","x: 286.1495361328125
y: 343.3326721191406
z: -0.0058599854819476604
","x: 285.9523010253906
y: 346.9245910644531
z: -0.00919000431895256
","x: 286.0959777832031
y: 344.887939453125
z: -0.00823967531323433
","x: 286.31884765625
y: 343.2344055175781
z: -0.006848671939224005
","x: 284.0814208984375
y: 342.0830993652344
z: -0.007636308204382658
","x: 283.441650390625
y: 344.7972106933594
z: -0.01003742404282093
","x: 283.3870544433594
y: 343.7484436035156
z: -0.009551998227834702
","x: 283.43841552734375
y: 342.75579833984375
z: -0.008560440503060818
"
19,"x: 289.8554382324219
y: 262.54681396484375
z: -0.10734932124614716
visibility: 0.9998986721038818
","x: 291.0323181152344
y: 258.2583923339844
z: -0.0906888097524643
visibility: 0.9996300339698792
","x: 291.9525451660156
y: 258.4212341308594
z: -0.09072380512952805
visibility: 0.9996947646141052
","x: 292.8315734863281
y: 258.60955810546875
z: -0.09079721570014954
visibility: 0.9997155070304871
","x: 288.0817565917969
y: 258.1152648925781
z: -0.09487229585647583
visibility: 0.9995482563972473
","x: 286.96826171875
y: 258.2226257324219
z: -0.09485530853271484
visibility: 0.9995391964912415
","x: 285.8187561035156
y: 258.39410400390625
z: -0.09484829753637314
visibility: 0.9994723200798035
","x: 293.9833984375
y: 261.6414794921875
z: -0.0037517682649195194
visibility: 0.9993920922279358
","x: 283.66778564453125
y: 261.5448913574219
z: -0.0260198712348938
visibility: 0.9983661770820618
","x: 291.7597351074219
y: 269.0430603027344
z: -0.0756257027387619
visibility: 0.9998093247413635
","x: 287.61468505859375
y: 268.47509765625
z: -0.08208175003528595
visibility: 0.9996830224990845
","x: 301.51776123046875
y: 292.79669189453125
z: 0.04235171899199486
visibility: 0.9999508857727051
","x: 275.55657958984375
y: 292.8036193847656
z: 0.0019951597787439823
visibility: 0.9996154308319092
","x: 310.226806640625
y: 317.59588623046875
z: 0.08588608354330063
visibility: 0.9805571436882019
","x: 272.54974365234375
y: 320.10626220703125
z: -0.1064797043800354
visibility: 0.8803988695144653
","x: 328.5547790527344
y: 324.0894775390625
z: 0.05289528891444206
visibility: 0.9856404066085815
","x: 284.13323974609375
y: 318.2132263183594
z: -0.2187105417251587
visibility: 0.8521167635917664
","x: 334.3201599121094
y: 327.32501220703125
z: 0.04598776251077652
visibility: 0.9643805623054504
","x: 283.68994140625
y: 320.0133056640625
z: -0.2471153289079666
visibility: 0.7865378856658936
","x: 335.1119689941406
y: 326.18780517578125
z: 0.023640785366296768
visibility: 0.9675078988075256
","x: 287.2751770019531
y: 316.7877197265625
z: -0.2568347752094269
visibility: 0.7969515323638916
","x: 333.02471923828125
y: 325.3273010253906
z: 0.04254649579524994
visibility: 0.9573139548301697
","x: 287.0292053222656
y: 316.239501953125
z: -0.22719287872314453
visibility: 0.775737464427948
","x: 299.8586120605469
y: 372.6358642578125
z: 0.003670988604426384
visibility: 0.9992876648902893
","x: 280.7630310058594
y: 373.770263671875
z: -0.003723424393683672
visibility: 0.9994959831237793
","x: 302.3236999511719
y: 438.3321533203125
z: -0.061126161366701126
visibility: 0.9821941256523132
","x: 269.8270263671875
y: 438.4036865234375
z: -0.08993444591760635
visibility: 0.9878568649291992
","x: 299.64801025390625
y: 498.6831970214844
z: 0.08594398200511932
visibility: 0.9810234308242798
","x: 279.0292053222656
y: 483.08770751953125
z: 0.10880360752344131
visibility: 0.9860801696777344
","x: 295.6272277832031
y: 507.31884765625
z: 0.09551306813955307
visibility: 0.836195170879364
","x: 283.1798095703125
y: 486.701171875
z: 0.12420026957988739
visibility: 0.8297542929649353
","x: 304.24993896484375
y: 522.3084716796875
z: 0.005125934723764658
visibility: 0.9751096367835999
","x: 276.9014587402344
y: 508.5079345703125
z: 0.05878213793039322
visibility: 0.981692373752594
",5.07081937789917,,,,,,,,,,,,,,,,,,,,,,,,,,,,,,,,,,,,,,,,,,
20,"x: 289.8554382324219
y: 262.54681396484375
z: -0.10734932124614716
visibility: 0.9998986721038818
","x: 291.0323181152344
y: 258.2583923339844
z: -0.0906888097524643
visibility: 0.9996300339698792
","x: 291.9525451660156
y: 258.4212341308594
z: -0.09072380512952805
visibility: 0.9996947646141052
","x: 292.8315734863281
y: 258.60955810546875
z: -0.09079721570014954
visibility: 0.9997155070304871
","x: 288.0817565917969
y: 258.1152648925781
z: -0.09487229585647583
visibility: 0.9995482563972473
","x: 286.96826171875
y: 258.2226257324219
z: -0.09485530853271484
visibility: 0.9995391964912415
","x: 285.8187561035156
y: 258.39410400390625
z: -0.09484829753637314
visibility: 0.9994723200798035
","x: 293.9833984375
y: 261.6414794921875
z: -0.0037517682649195194
visibility: 0.9993920922279358
","x: 283.66778564453125
y: 261.5448913574219
z: -0.0260198712348938
visibility: 0.9983661770820618
","x: 291.7597351074219
y: 269.0430603027344
z: -0.0756257027387619
visibility: 0.9998093247413635
","x: 287.61468505859375
y: 268.47509765625
z: -0.08208175003528595
visibility: 0.9996830224990845
","x: 301.51776123046875
y: 292.79669189453125
z: 0.04235171899199486
visibility: 0.9999508857727051
","x: 275.55657958984375
y: 292.8036193847656
z: 0.0019951597787439823
visibility: 0.9996154308319092
","x: 310.226806640625
y: 317.59588623046875
z: 0.08588608354330063
visibility: 0.9805571436882019
","x: 272.54974365234375
y: 320.10626220703125
z: -0.1064797043800354
visibility: 0.8803988695144653
","x: 328.5547790527344
y: 324.0894775390625
z: 0.05289528891444206
visibility: 0.9856404066085815
","x: 284.13323974609375
y: 318.2132263183594
z: -0.2187105417251587
visibility: 0.8521167635917664
","x: 334.3201599121094
y: 327.32501220703125
z: 0.04598776251077652
visibility: 0.9643805623054504
","x: 283.68994140625
y: 320.0133056640625
z: -0.2471153289079666
visibility: 0.7865378856658936
","x: 335.1119689941406
y: 326.18780517578125
z: 0.023640785366296768
visibility: 0.9675078988075256
","x: 287.2751770019531
y: 316.7877197265625
z: -0.2568347752094269
visibility: 0.7969515323638916
","x: 333.02471923828125
y: 325.3273010253906
z: 0.04254649579524994
visibility: 0.9573139548301697
","x: 287.0292053222656
y: 316.239501953125
z: -0.22719287872314453
visibility: 0.775737464427948
","x: 299.8586120605469
y: 372.6358642578125
z: 0.003670988604426384
visibility: 0.9992876648902893
","x: 280.7630310058594
y: 373.770263671875
z: -0.003723424393683672
visibility: 0.9994959831237793
","x: 302.3236999511719
y: 438.3321533203125
z: -0.061126161366701126
visibility: 0.9821941256523132
","x: 269.8270263671875
y: 438.4036865234375
z: -0.08993444591760635
visibility: 0.9878568649291992
","x: 299.64801025390625
y: 498.6831970214844
z: 0.08594398200511932
visibility: 0.9810234308242798
","x: 279.0292053222656
y: 483.08770751953125
z: 0.10880360752344131
visibility: 0.9860801696777344
","x: 295.6272277832031
y: 507.31884765625
z: 0.09551306813955307
visibility: 0.836195170879364
","x: 283.1798095703125
y: 486.701171875
z: 0.12420026957988739
visibility: 0.8297542929649353
","x: 304.24993896484375
y: 522.3084716796875
z: 0.005125934723764658
visibility: 0.9751096367835999
","x: 276.9014587402344
y: 508.5079345703125
z: 0.05878213793039322
visibility: 0.981692373752594
",5.07081937789917,,,,,,,,,,,,,,,,,,,,,,,,,,,,,,,,,,,,,,,,,,
21,"x: 289.9328308105469
y: 262.2004089355469
z: -0.13618716597557068
visibility: 0.9999085664749146
","x: 291.2713317871094
y: 257.8960876464844
z: -0.12873247265815735
visibility: 0.9996662139892578
","x: 292.1888427734375
y: 257.99700927734375
z: -0.129074364900589
visibility: 0.9997243285179138
","x: 293.0612487792969
y: 258.1269226074219
z: -0.12887345254421234
visibility: 0.9997427463531494
","x: 288.2864685058594
y: 257.985595703125
z: -0.10473506152629852
visibility: 0.9995928406715393
","x: 287.1465148925781
y: 258.1104431152344
z: -0.10501237213611603
visibility: 0.9995847940444946
","x: 285.9862060546875
y: 258.26947021484375
z: -0.10493385791778564
visibility: 0.9995244741439819
","x: 294.3148498535156
y: 261.0985107421875
z: -0.0939003974199295
visibility: 0.9994520545005798
","x: 283.694580078125
y: 261.33856201171875
z: -0.08625113219022751
visibility: 0.9985287189483643
","x: 291.901123046875
y: 268.64312744140625
z: -0.12603844702243805
visibility: 0.9998279213905334
","x: 287.6291198730469
y: 268.2000427246094
z: -0.09181810915470123
visibility: 0.9997138977050781
","x: 302.4800109863281
y: 292.5181884765625
z: -0.031673066318035126
visibility: 0.9999545812606812
","x: 275.4775695800781
y: 292.2415466308594
z: -0.013305069878697395
visibility: 0.9996485710144043
","x: 311.4264831542969
y: 306.8770446777344
z: 0.08191732317209244
visibility: 0.9809608459472656
","x: 262.40594482421875
y: 315.6844482421875
z: -0.17118868231773376
visibility: 0.8917912840843201
","x: 331.35308837890625
y: 312.38482666015625
z: 0.12642791867256165
visibility: 0.9861543774604797
","x: 255.269287109375
y: 309.95001220703125
z: -0.37956613302230835
visibility: 0.8666871190071106
","x: 336.1976318359375
y: 314.97607421875
z: 0.1374719738960266
visibility: 0.9662544131278992
","x: 251.40269470214844
y: 306.5894775390625
z: -0.4160288870334625
visibility: 0.8072561621665955
","x: 336.9557800292969
y: 314.35028076171875
z: 0.11239512264728546
visibility: 0.9694035649299622
","x: 252.86495971679688
y: 304.21490478515625
z: -0.4279820919036865
visibility: 0.8167285919189453
","x: 334.9753723144531
y: 313.61895751953125
z: 0.1187419667840004
visibility: 0.9599180817604065
","x: 254.64125061035156
y: 306.6990051269531
z: -0.3900180459022522
visibility: 0.7974428534507751
","x: 300.12542724609375
y: 371.9635009765625
z: -0.004781875293701887
visibility: 0.9993579983711243
","x: 280.9285888671875
y: 372.3457336425781
z: 0.004629149101674557
visibility: 0.9995409846305847
","x: 301.92596435546875
y: 437.0361633300781
z: -0.11780686676502228
visibility: 0.9838969707489014
","x: 277.559326171875
y: 437.1688232421875
z: 0.054412730038166046
visibility: 0.9869513511657715
","x: 307.63726806640625
y: 497.05078125
z: -0.05574093386530876
visibility: 0.9827111959457397
","x: 279.67413330078125
y: 482.9783935546875
z: 0.2584248185157776
visibility: 0.9836093187332153
","x: 310.1798095703125
y: 504.93756103515625
z: -0.055831409990787506
visibility: 0.8368063569068909
","x: 283.3461608886719
y: 487.1331787109375
z: 0.2746885120868683
visibility: 0.8261726498603821
","x: 303.67425537109375
y: 523.36572265625
z: -0.17293187975883484
visibility: 0.9772658348083496
","x: 277.4139099121094
y: 508.4826965332031
z: 0.1964438408613205
visibility: 0.981439471244812
",5.1990015506744385,,,,,,,,,,,,,,,,,,,,,,,,,,,,,,,,,,,,,,,,,,
22,"x: 289.9328308105469
y: 262.2004089355469
z: -0.13618716597557068
visibility: 0.9999085664749146
","x: 291.2713317871094
y: 257.8960876464844
z: -0.12873247265815735
visibility: 0.9996662139892578
","x: 292.1888427734375
y: 257.99700927734375
z: -0.129074364900589
visibility: 0.9997243285179138
","x: 293.0612487792969
y: 258.1269226074219
z: -0.12887345254421234
visibility: 0.9997427463531494
","x: 288.2864685058594
y: 257.985595703125
z: -0.10473506152629852
visibility: 0.9995928406715393
","x: 287.1465148925781
y: 258.1104431152344
z: -0.10501237213611603
visibility: 0.9995847940444946
","x: 285.9862060546875
y: 258.26947021484375
z: -0.10493385791778564
visibility: 0.9995244741439819
","x: 294.3148498535156
y: 261.0985107421875
z: -0.0939003974199295
visibility: 0.9994520545005798
","x: 283.694580078125
y: 261.33856201171875
z: -0.08625113219022751
visibility: 0.9985287189483643
","x: 291.901123046875
y: 268.64312744140625
z: -0.12603844702243805
visibility: 0.9998279213905334
","x: 287.6291198730469
y: 268.2000427246094
z: -0.09181810915470123
visibility: 0.9997138977050781
","x: 302.4800109863281
y: 292.5181884765625
z: -0.031673066318035126
visibility: 0.9999545812606812
","x: 275.4775695800781
y: 292.2415466308594
z: -0.013305069878697395
visibility: 0.9996485710144043
","x: 311.4264831542969
y: 306.8770446777344
z: 0.08191732317209244
visibility: 0.9809608459472656
","x: 262.40594482421875
y: 315.6844482421875
z: -0.17118868231773376
visibility: 0.8917912840843201
","x: 331.35308837890625
y: 312.38482666015625
z: 0.12642791867256165
visibility: 0.9861543774604797
","x: 255.269287109375
y: 309.95001220703125
z: -0.37956613302230835
visibility: 0.8666871190071106
","x: 336.1976318359375
y: 314.97607421875
z: 0.1374719738960266
visibility: 0.9662544131278992
","x: 251.40269470214844
y: 306.5894775390625
z: -0.4160288870334625
visibility: 0.8072561621665955
","x: 336.9557800292969
y: 314.35028076171875
z: 0.11239512264728546
visibility: 0.9694035649299622
","x: 252.86495971679688
y: 304.21490478515625
z: -0.4279820919036865
visibility: 0.8167285919189453
","x: 334.9753723144531
y: 313.61895751953125
z: 0.1187419667840004
visibility: 0.9599180817604065
","x: 254.64125061035156
y: 306.6990051269531
z: -0.3900180459022522
visibility: 0.7974428534507751
","x: 300.12542724609375
y: 371.9635009765625
z: -0.004781875293701887
visibility: 0.9993579983711243
","x: 280.9285888671875
y: 372.3457336425781
z: 0.004629149101674557
visibility: 0.9995409846305847
","x: 301.92596435546875
y: 437.0361633300781
z: -0.11780686676502228
visibility: 0.9838969707489014
","x: 277.559326171875
y: 437.1688232421875
z: 0.054412730038166046
visibility: 0.9869513511657715
","x: 307.63726806640625
y: 497.05078125
z: -0.05574093386530876
visibility: 0.9827111959457397
","x: 279.67413330078125
y: 482.9783935546875
z: 0.2584248185157776
visibility: 0.9836093187332153
","x: 310.1798095703125
y: 504.93756103515625
z: -0.055831409990787506
visibility: 0.8368063569068909
","x: 283.3461608886719
y: 487.1331787109375
z: 0.2746885120868683
visibility: 0.8261726498603821
","x: 303.67425537109375
y: 523.36572265625
z: -0.17293187975883484
visibility: 0.9772658348083496
","x: 277.4139099121094
y: 508.4826965332031
z: 0.1964438408613205
visibility: 0.981439471244812
",5.1990015506744385,,,,,,,,,,,,,,,,,,,,,,,,,,,,,,,,,,,,,,,,,,
23,"x: 289.9160461425781
y: 261.7544250488281
z: -0.18481484055519104
visibility: 0.9999176263809204
","x: 291.3892517089844
y: 257.5433654785156
z: -0.18103834986686707
visibility: 0.9996991753578186
","x: 292.31158447265625
y: 257.8012390136719
z: -0.18115225434303284
visibility: 0.9997513294219971
","x: 293.18292236328125
