uscmakers/ReverseChoreography/data/10_candy_baekhyun.csv
,NOSE,LEFT_EYE_INNER,LEFT_EYE,LEFT_EYE_OUTER,RIGHT_EYE_INNER,RIGHT_EYE,RIGHT_EYE_OUTER,LEFT_EAR,RIGHT_EAR,MOUTH_LEFT,MOUTH_RIGHT,LEFT_SHOULDER,RIGHT_SHOULDER,LEFT_ELBOW,RIGHT_ELBOW,LEFT_WRIST,RIGHT_WRIST,LEFT_PINKY,RIGHT_PINKY,LEFT_INDEX,RIGHT_INDEX,LEFT_THUMB,RIGHT_THUMB,LEFT_HIP,RIGHT_HIP,LEFT_KNEE,RIGHT_KNEE,LEFT_ANKLE,RIGHT_ANKLE,LEFT_HEEL,RIGHT_HEEL,LEFT_FOOT_INDEX,RIGHT_FOOT_INDEX,TIMESTAMP,WRIST,THUMB_CPC,THUMB_MCP,THUMB_IP,THUMB_TIP,INDEX_FINGER_MCP,INDEX_FINGER_PIP,INDEX_FINGER_DIP,INDEX_FINGER_TIP,MIDDLE_FINGER_MCP,MIDDLE_FINGER_PIP,MIDDLE_FINGER_DIP,MIDDLE_FINGER_TIP,RING_FINGER_PIP,RING_FINGER_DIP,RING_FINGER_TIP,RING_FINGER_MCP,PINKY_MCP,PINKY_PIP,PINKY_DIP,PINKY_TIP,WRIST2,THUMB_CPC2,THUMB_MCP2,THUMB_IP2,THUMB_TIP2,INDEX_FINGER_MCP2,INDEX_FINGER_PIP2,INDEX_FINGER_DIP2,INDEX_FINGER_TIP2,MIDDLE_FINGER_MCP2,MIDDLE_FINGER_PIP2,MIDDLE_FINGER_DIP2,MIDDLE_FINGER_TIP2,RING_FINGER_PIP2,RING_FINGER_DIP2,RING_FINGER_TIP2,RING_FINGER_MCP2,PINKY_MCP2,PINKY_PIP2,PINKY_DIP2,PINKY_TIP2
0,"x: 282.115234375
y: 252.38182067871094
z: -0.36615538597106934
visibility: 0.9999140501022339
","x: 283.3944396972656
y: 248.2854461669922
z: -0.3553408980369568
visibility: 0.9995416402816772
","x: 284.4317932128906
y: 248.5150146484375
z: -0.35532572865486145
visibility: 0.9996090531349182
","x: 285.452392578125
y: 248.69345092773438
z: -0.3553597331047058
visibility: 0.9995942711830139
","x: 280.3114929199219
y: 248.16168212890625
z: -0.3550911545753479
visibility: 0.9995185136795044
","x: 279.2430419921875
y: 248.38523864746094
z: -0.3551631271839142
visibility: 0.999559223651886
","x: 278.16644287109375
y: 248.53965759277344
z: -0.35520675778388977
visibility: 0.9994707703590393
","x: 286.8312072753906
y: 251.4890899658203
z: -0.2639305591583252
visibility: 0.998974084854126
","x: 275.92230224609375
y: 251.07656860351562
z: -0.26491838693618774
visibility: 0.998536229133606
","x: 284.0718078613281
y: 258.8244323730469
z: -0.3303948640823364
visibility: 0.9997490048408508
","x: 279.8109436035156
y: 258.68792724609375
z: -0.33075717091560364
visibility: 0.9996806383132935
","x: 296.8531799316406
y: 285.05712890625
z: -0.1809116005897522
visibility: 0.9999029636383057
","x: 265.4782409667969
y: 281.8990783691406
z: -0.17653465270996094
visibility: 0.9998412132263184
","x: 306.8692932128906
y: 322.4296569824219
z: -0.13498002290725708
visibility: 0.9939508438110352
","x: 254.39222717285156
y: 322.1447448730469
z: -0.1337331235408783
visibility: 0.9872828722000122
","x: 315.4483642578125
y: 357.2070617675781
z: -0.20596596598625183
visibility: 0.9891549944877625
","x: 243.7053985595703
y: 353.8940734863281
z: -0.1991376429796219
visibility: 0.9726811051368713
","x: 319.48095703125
y: 368.2318420410156
z: -0.2257889211177826
visibility: 0.9669091701507568
","x: 238.84817504882812
y: 363.2571105957031
z: -0.22057917714118958
visibility: 0.9379814267158508
","x: 319.4816589355469
y: 369.5075988769531
z: -0.25777554512023926
visibility: 0.9715622067451477
","x: 238.46109008789062
y: 364.3196105957031
z: -0.252158522605896
visibility: 0.945025622844696
","x: 317.9891052246094
y: 366.81500244140625
z: -0.22034206986427307
visibility: 0.9661720395088196
","x: 240.58119201660156
y: 361.9613342285156
z: -0.21408721804618835
visibility: 0.9369097948074341
","x: 290.16058349609375
y: 365.9839172363281
z: 0.0013513279845938087
visibility: 0.9988803267478943
","x: 270.025390625
y: 366.4163818359375
z: -0.0014051321195438504
visibility: 0.9993353486061096
","x: 285.4725036621094
y: 436.4291687011719
z: 0.019559532403945923
visibility: 0.9879157543182373
","x: 270.3694152832031
y: 436.74822998046875
z: -0.00588651467114687
visibility: 0.9909199476242065
","x: 281.44818115234375
y: 491.05780029296875
z: 0.16188138723373413
visibility: 0.986646294593811
","x: 268.8731994628906
y: 493.34637451171875
z: 0.11973690986633301
visibility: 0.9882102012634277
","x: 279.0235900878906
y: 497.53778076171875
z: 0.17025291919708252
visibility: 0.8802565336227417
","x: 270.6241455078125
y: 500.05963134765625
z: 0.12545783817768097
visibility: 0.7987227439880371
","x: 284.9556579589844
y: 513.3508911132812
z: 0.06688576936721802
visibility: 0.9835193753242493
","x: 266.2377014160156
y: 515.5449829101562
z: 0.01436108909547329
visibility: 0.9831162095069885
",3.7112083435058594,,,,,,,,,,,,,,,,,,,,,,,,,,,,,,,,,,,,,,,,,,
1,"x: 282.115234375
y: 252.38182067871094
z: -0.36615538597106934
visibility: 0.9999140501022339
","x: 283.3944396972656
y: 248.2854461669922
z: -0.3553408980369568
visibility: 0.9995416402816772
","x: 284.4317932128906
y: 248.5150146484375
z: -0.35532572865486145
visibility: 0.9996090531349182
","x: 285.452392578125
y: 248.69345092773438
z: -0.3553597331047058
visibility: 0.9995942711830139
","x: 280.3114929199219
y: 248.16168212890625
z: -0.3550911545753479
visibility: 0.9995185136795044
","x: 279.2430419921875
y: 248.38523864746094
z: -0.3551631271839142
visibility: 0.999559223651886
","x: 278.16644287109375
y: 248.53965759277344
z: -0.35520675778388977
visibility: 0.9994707703590393
","x: 286.8312072753906
y: 251.4890899658203
z: -0.2639305591583252
visibility: 0.998974084854126
","x: 275.92230224609375
y: 251.07656860351562
z: -0.26491838693618774
visibility: 0.998536229133606
","x: 284.0718078613281
y: 258.8244323730469
z: -0.3303948640823364
visibility: 0.9997490048408508
","x: 279.8109436035156
y: 258.68792724609375
z: -0.33075717091560364
visibility: 0.9996806383132935
","x: 296.8531799316406
y: 285.05712890625
z: -0.1809116005897522
visibility: 0.9999029636383057
","x: 265.4782409667969
y: 281.8990783691406
z: -0.17653465270996094
visibility: 0.9998412132263184
","x: 306.8692932128906
y: 322.4296569824219
z: -0.13498002290725708
visibility: 0.9939508438110352
","x: 254.39222717285156
y: 322.1447448730469
z: -0.1337331235408783
visibility: 0.9872828722000122
","x: 315.4483642578125
y: 357.2070617675781
z: -0.20596596598625183
visibility: 0.9891549944877625
","x: 243.7053985595703
y: 353.8940734863281
z: -0.1991376429796219
visibility: 0.9726811051368713
","x: 319.48095703125
y: 368.2318420410156
z: -0.2257889211177826
visibility: 0.9669091701507568
","x: 238.84817504882812
y: 363.2571105957031
z: -0.22057917714118958
visibility: 0.9379814267158508
","x: 319.4816589355469
y: 369.5075988769531
z: -0.25777554512023926
visibility: 0.9715622067451477
","x: 238.46109008789062
y: 364.3196105957031
z: -0.252158522605896
visibility: 0.945025622844696
","x: 317.9891052246094
y: 366.81500244140625
z: -0.22034206986427307
visibility: 0.9661720395088196
","x: 240.58119201660156
y: 361.9613342285156
z: -0.21408721804618835
visibility: 0.9369097948074341
","x: 290.16058349609375
y: 365.9839172363281
z: 0.0013513279845938087
visibility: 0.9988803267478943
","x: 270.025390625
y: 366.4163818359375
z: -0.0014051321195438504
visibility: 0.9993353486061096
","x: 285.4725036621094
y: 436.4291687011719
z: 0.019559532403945923
visibility: 0.9879157543182373
","x: 270.3694152832031
y: 436.74822998046875
z: -0.00588651467114687
visibility: 0.9909199476242065
","x: 281.44818115234375
y: 491.05780029296875
z: 0.16188138723373413
visibility: 0.986646294593811
","x: 268.8731994628906
y: 493.34637451171875
z: 0.11973690986633301
visibility: 0.9882102012634277
","x: 279.0235900878906
y: 497.53778076171875
z: 0.17025291919708252
visibility: 0.8802565336227417
","x: 270.6241455078125
y: 500.05963134765625
z: 0.12545783817768097
visibility: 0.7987227439880371
","x: 284.9556579589844
y: 513.3508911132812
z: 0.06688576936721802
visibility: 0.9835193753242493
","x: 266.2377014160156
y: 515.5449829101562
z: 0.01436108909547329
visibility: 0.9831162095069885
",3.7112083435058594,,,,,,,,,,,,,,,,,,,,,,,,,,,,,,,,,,,,,,,,,,
2,"x: 283.17303466796875
y: 252.88656616210938
z: -0.15395137667655945
visibility: 0.9999179840087891
","x: 284.3819580078125
y: 248.38584899902344
z: -0.13755592703819275
visibility: 0.9995794296264648
","x: 285.3330383300781
y: 248.57601928710938
z: -0.137601837515831
visibility: 0.9996397495269775
","x: 286.3337097167969
y: 248.7382354736328
z: -0.1376161277294159
visibility: 0.9996280074119568
","x: 281.22552490234375
y: 248.39846801757812
z: -0.1386147290468216
visibility: 0.9995572566986084
","x: 279.96026611328125
y: 248.665283203125
z: -0.13863582909107208
visibility: 0.9995930790901184
","x: 278.70452880859375
y: 248.90069580078125
z: -0.13866417109966278
visibility: 0.9995157122612
","x: 288.0664978027344
y: 251.68124389648438
z: -0.04744286090135574
visibility: 0.9990634322166443
","x: 276.01025390625
y: 251.93310546875
z: -0.05281594395637512
visibility: 0.9986658692359924
","x: 285.15771484375
y: 260.2096862792969
z: -0.12011351436376572
visibility: 0.9997681379318237
","x: 280.8323669433594
y: 259.828125
z: -0.12184202671051025
visibility: 0.9997074604034424
","x: 297.1854248046875
y: 284.63665771484375
z: -0.0032418067567050457
visibility: 0.9999086856842041
","x: 266.9803161621094
y: 281.8990783691406
z: -0.007338394410908222
visibility: 0.999846875667572
","x: 303.76007080078125
y: 322.67694091796875
z: -0.048845257610082626
visibility: 0.9935389757156372
","x: 261.1328430175781
y: 321.8984375
z: -0.040384478867053986
visibility: 0.9869427680969238
","x: 289.09320068359375
y: 340.8727722167969
z: -0.18456491827964783
visibility: 0.9891077876091003
","x: 274.6810302734375
y: 347.63726806640625
z: -0.15721085667610168
visibility: 0.9715607166290283
","x: 285.520263671875
y: 350.4602355957031
z: -0.22073015570640564
visibility: 0.9676888585090637
","x: 277.96453857421875
y: 358.33685302734375
z: -0.19021572172641754
visibility: 0.9369592070579529
","x: 282.9497375488281
y: 345.65313720703125
z: -0.22939172387123108
visibility: 0.9718145132064819
","x: 280.77978515625
y: 353.3771057128906
z: -0.19766873121261597
visibility: 0.9429218173027039
","x: 283.8346862792969
y: 341.8096618652344
z: -0.19005799293518066
visibility: 0.9652830362319946
","x: 280.339111328125
y: 349.4218444824219
z: -0.1615249216556549
visibility: 0.9319142699241638
","x: 290.19219970703125
y: 363.9886779785156
z: 0.003373872023075819
visibility: 0.9989596605300903
","x: 270.3125305175781
y: 362.42181396484375
z: -0.0033116950653493404
visibility: 0.999367892742157
","x: 286.76519775390625
y: 424.20086669921875
z: -0.12621113657951355
visibility: 0.9850992560386658
","x: 273.2172546386719
y: 423.67413330078125
z: -0.15305501222610474
visibility: 0.9893629550933838
","x: 281.42657470703125
y: 484.96881103515625
z: -0.08076867461204529
visibility: 0.98157799243927
","x: 273.6214294433594
y: 488.22882080078125
z: -0.12193214893341064
visibility: 0.984799861907959
","x: 278.9739990234375
y: 492.5186767578125
z: -0.08154314011335373
visibility: 0.8707616925239563
","x: 273.1744384765625
y: 498.0815124511719
z: -0.12414857000112534
visibility: 0.7926169037818909
","x: 284.15869140625
y: 509.54705810546875
z: -0.19217543303966522
visibility: 0.9793288707733154
","x: 277.2427062988281
y: 510.9414367675781
z: -0.23858042061328888
visibility: 0.9793511629104614
",4.323553562164307,"x: 275.7874755859375
y: 341.58349609375
z: 0.0
","x: 278.8066711425781
y: 340.6979675292969
z: -0.0010573427425697446
","x: 281.98809814453125
y: 341.4923400878906
z: -0.0022711558267474174
","x: 284.1894226074219
y: 342.9803161621094
z: -0.003696577390655875
","x: 285.45465087890625
y: 344.2578125
z: -0.005196284968405962
","x: 282.9192199707031
y: 348.964599609375
z: -0.002232884056866169
","x: 285.9297180175781
y: 353.77581787109375
z: -0.004239402245730162
","x: 287.7334899902344
y: 356.87298583984375
z: -0.0055072251707315445
","x: 289.1755676269531
y: 359.45538330078125
z: -0.006281160283833742
","x: 281.91656494140625
y: 351.6242980957031
z: -0.0032584599684923887
","x: 284.6800842285156
y: 357.08831787109375
z: -0.005208533722907305
","x: 286.6050720214844
y: 360.6850891113281
z: -0.00621971907094121
","x: 288.1980285644531
y: 363.4034423828125
z: -0.006948358844965696
","x: 280.5798034667969
y: 353.6028747558594
z: -0.004436942283064127
","x: 282.87066650390625
y: 359.0697937011719
z: -0.0064917150884866714
","x: 284.4947204589844
y: 362.6645202636719
z: -0.007356968708336353
","x: 285.79217529296875
y: 365.3356628417969
z: -0.007932846434414387
","x: 278.9588623046875
y: 354.9000549316406
z: -0.005791947245597839
","x: 280.48199462890625
y: 359.48187255859375
z: -0.007412566337734461
","x: 281.55560302734375
y: 362.41571044921875
z: -0.007979107089340687
","x: 282.4732666015625
y: 364.6759338378906
z: -0.008361704647541046
","x: 283.06744384765625
y: 337.19775390625
z: 0.0
","x: 283.6724853515625
y: 341.67218017578125
z: 4.225816155667417e-05
","x: 283.3438415527344
y: 346.6224670410156
z: -0.0006777855451218784
","x: 282.462158203125
y: 349.7724914550781
z: -0.0016177291981875896
","x: 282.0765380859375
y: 351.7448425292969
z: -0.0025989555288106203
","x: 282.0035400390625
y: 348.53363037109375
z: -0.0025259796530008316
","x: 280.8828430175781
y: 354.2364501953125
z: -0.004343013744801283
","x: 279.89715576171875
y: 356.4098815917969
z: -0.004607369191944599
","x: 279.1891784667969
y: 357.4137878417969
z: -0.004480086732655764
","x: 280.0632019042969
y: 347.2206115722656
z: -0.0036539603024721146
","x: 277.52117919921875
y: 353.0715637207031
z: -0.005396821070462465
","x: 275.7572326660156
y: 356.04150390625
z: -0.005561057012528181
","x: 274.47021484375
y: 358.1368713378906
z: -0.0055651115253567696
","x: 278.3004455566406
y: 345.1376647949219
z: -0.004767979960888624
","x: 275.6204528808594
y: 350.468505859375
z: -0.006538053508847952
","x: 273.9075927734375
y: 353.36053466796875
z: -0.006714516319334507
","x: 272.62652587890625
y: 355.4222412109375
z: -0.006691272836178541
","x: 276.721923828125
y: 342.4970703125
z: -0.00586713757365942
","x: 274.4191589355469
y: 346.5773010253906
z: -0.00726154213771224
","x: 272.9595642089844
y: 349.29931640625
z: -0.0076191481202840805
","x: 271.74017333984375
y: 351.4962158203125
z: -0.007751376833766699
"
3,"x: 283.17303466796875
y: 252.88656616210938
z: -0.15395137667655945
visibility: 0.9999179840087891
","x: 284.3819580078125
y: 248.38584899902344
z: -0.13755592703819275
visibility: 0.9995794296264648
","x: 285.3330383300781
y: 248.57601928710938
z: -0.137601837515831
visibility: 0.9996397495269775
","x: 286.3337097167969
y: 248.7382354736328
z: -0.1376161277294159
visibility: 0.9996280074119568
","x: 281.22552490234375
y: 248.39846801757812
z: -0.1386147290468216
visibility: 0.9995572566986084
","x: 279.96026611328125
y: 248.665283203125
z: -0.13863582909107208
visibility: 0.9995930790901184
","x: 278.70452880859375
y: 248.90069580078125
z: -0.13866417109966278
visibility: 0.9995157122612
","x: 288.0664978027344
y: 251.68124389648438
z: -0.04744286090135574
visibility: 0.9990634322166443
","x: 276.01025390625
y: 251.93310546875
z: -0.05281594395637512
visibility: 0.9986658692359924
","x: 285.15771484375
y: 260.2096862792969
z: -0.12011351436376572
visibility: 0.9997681379318237
","x: 280.8323669433594
y: 259.828125
z: -0.12184202671051025
visibility: 0.9997074604034424
","x: 297.1854248046875
y: 284.63665771484375
z: -0.0032418067567050457
visibility: 0.9999086856842041
","x: 266.9803161621094
y: 281.8990783691406
z: -0.007338394410908222
visibility: 0.999846875667572
","x: 303.76007080078125
y: 322.67694091796875
z: -0.048845257610082626
visibility: 0.9935389757156372
","x: 261.1328430175781
y: 321.8984375
z: -0.040384478867053986
visibility: 0.9869427680969238
","x: 289.09320068359375
y: 340.8727722167969
z: -0.18456491827964783
visibility: 0.9891077876091003
","x: 274.6810302734375
y: 347.63726806640625
z: -0.15721085667610168
visibility: 0.9715607166290283
","x: 285.520263671875
y: 350.4602355957031
z: -0.22073015570640564
visibility: 0.9676888585090637
","x: 277.96453857421875
y: 358.33685302734375
z: -0.19021572172641754
visibility: 0.9369592070579529
","x: 282.9497375488281
y: 345.65313720703125
z: -0.22939172387123108
visibility: 0.9718145132064819
","x: 280.77978515625
y: 353.3771057128906
z: -0.19766873121261597
visibility: 0.9429218173027039
","x: 283.8346862792969
y: 341.8096618652344
z: -0.19005799293518066
visibility: 0.9652830362319946
","x: 280.339111328125
y: 349.4218444824219
z: -0.1615249216556549
visibility: 0.9319142699241638
","x: 290.19219970703125
y: 363.9886779785156
z: 0.003373872023075819
visibility: 0.9989596605300903
","x: 270.3125305175781
y: 362.42181396484375
z: -0.0033116950653493404
visibility: 0.999367892742157
","x: 286.76519775390625
y: 424.20086669921875
z: -0.12621113657951355
visibility: 0.9850992560386658
","x: 273.2172546386719
y: 423.67413330078125
z: -0.15305501222610474
visibility: 0.9893629550933838
","x: 281.42657470703125
y: 484.96881103515625
z: -0.08076867461204529
visibility: 0.98157799243927
","x: 273.6214294433594
y: 488.22882080078125
z: -0.12193214893341064
visibility: 0.984799861907959
","x: 278.9739990234375
y: 492.5186767578125
z: -0.08154314011335373
visibility: 0.8707616925239563
","x: 273.1744384765625
y: 498.0815124511719
z: -0.12414857000112534
visibility: 0.7926169037818909
","x: 284.15869140625
y: 509.54705810546875
z: -0.19217543303966522
visibility: 0.9793288707733154
","x: 277.2427062988281
y: 510.9414367675781
z: -0.23858042061328888
visibility: 0.9793511629104614
",4.323553562164307,"x: 275.7874755859375
y: 341.58349609375
z: 0.0
","x: 278.8066711425781
y: 340.6979675292969
z: -0.0010573427425697446
","x: 281.98809814453125
y: 341.4923400878906
z: -0.0022711558267474174
","x: 284.1894226074219
y: 342.9803161621094
z: -0.003696577390655875
","x: 285.45465087890625
y: 344.2578125
z: -0.005196284968405962
","x: 282.9192199707031
y: 348.964599609375
z: -0.002232884056866169
","x: 285.9297180175781
y: 353.77581787109375
z: -0.004239402245730162
","x: 287.7334899902344
y: 356.87298583984375
z: -0.0055072251707315445
","x: 289.1755676269531
y: 359.45538330078125
z: -0.006281160283833742
","x: 281.91656494140625
y: 351.6242980957031
z: -0.0032584599684923887
","x: 284.6800842285156
y: 357.08831787109375
z: -0.005208533722907305
","x: 286.6050720214844
y: 360.6850891113281
z: -0.00621971907094121
","x: 288.1980285644531
y: 363.4034423828125
z: -0.006948358844965696
","x: 280.5798034667969
y: 353.6028747558594
z: -0.004436942283064127
","x: 282.87066650390625
y: 359.0697937011719
z: -0.0064917150884866714
","x: 284.4947204589844
y: 362.6645202636719
z: -0.007356968708336353
","x: 285.79217529296875
y: 365.3356628417969
z: -0.007932846434414387
","x: 278.9588623046875
y: 354.9000549316406
z: -0.005791947245597839
","x: 280.48199462890625
y: 359.48187255859375
z: -0.007412566337734461
","x: 281.55560302734375
y: 362.41571044921875
z: -0.007979107089340687
","x: 282.4732666015625
y: 364.6759338378906
z: -0.008361704647541046
","x: 283.06744384765625
y: 337.19775390625
z: 0.0
","x: 283.6724853515625
y: 341.67218017578125
z: 4.225816155667417e-05
","x: 283.3438415527344
y: 346.6224670410156
z: -0.0006777855451218784
","x: 282.462158203125
y: 349.7724914550781
z: -0.0016177291981875896
","x: 282.0765380859375
y: 351.7448425292969
z: -0.0025989555288106203
","x: 282.0035400390625
y: 348.53363037109375
z: -0.0025259796530008316
","x: 280.8828430175781
y: 354.2364501953125
z: -0.004343013744801283
","x: 279.89715576171875
y: 356.4098815917969
z: -0.004607369191944599
","x: 279.1891784667969
y: 357.4137878417969
z: -0.004480086732655764
","x: 280.0632019042969
y: 347.2206115722656
z: -0.0036539603024721146
","x: 277.52117919921875
y: 353.0715637207031
z: -0.005396821070462465
","x: 275.7572326660156
y: 356.04150390625
z: -0.005561057012528181
","x: 274.47021484375
y: 358.1368713378906
z: -0.0055651115253567696
","x: 278.3004455566406
y: 345.1376647949219
z: -0.004767979960888624
","x: 275.6204528808594
y: 350.468505859375
z: -0.006538053508847952
","x: 273.9075927734375
y: 353.36053466796875
z: -0.006714516319334507
","x: 272.62652587890625
y: 355.4222412109375
z: -0.006691272836178541
","x: 276.721923828125
y: 342.4970703125
z: -0.00586713757365942
","x: 274.4191589355469
y: 346.5773010253906
z: -0.00726154213771224
","x: 272.9595642089844
y: 349.29931640625
z: -0.0076191481202840805
","x: 271.74017333984375
y: 351.4962158203125
z: -0.007751376833766699
"
4,"x: 283.17303466796875
y: 252.88656616210938
z: -0.15395137667655945
visibility: 0.9999179840087891
","x: 284.3819580078125
y: 248.38584899902344
z: -0.13755592703819275
visibility: 0.9995794296264648
","x: 285.3330383300781
y: 248.57601928710938
z: -0.137601837515831
visibility: 0.9996397495269775
","x: 286.3337097167969
y: 248.7382354736328
z: -0.1376161277294159
visibility: 0.9996280074119568
","x: 281.22552490234375
y: 248.39846801757812
z: -0.1386147290468216
visibility: 0.9995572566986084
","x: 279.96026611328125
y: 248.665283203125
z: -0.13863582909107208
visibility: 0.9995930790901184
","x: 278.70452880859375
y: 248.90069580078125
z: -0.13866417109966278
visibility: 0.9995157122612
","x: 288.0664978027344
y: 251.68124389648438
z: -0.04744286090135574
visibility: 0.9990634322166443
","x: 276.01025390625
y: 251.93310546875
z: -0.05281594395637512
visibility: 0.9986658692359924
","x: 285.15771484375
y: 260.2096862792969
z: -0.12011351436376572
visibility: 0.9997681379318237
","x: 280.8323669433594
y: 259.828125
z: -0.12184202671051025
visibility: 0.9997074604034424
","x: 297.1854248046875
y: 284.63665771484375
z: -0.0032418067567050457
visibility: 0.9999086856842041
","x: 266.9803161621094
y: 281.8990783691406
z: -0.007338394410908222
visibility: 0.999846875667572
","x: 303.76007080078125
y: 322.67694091796875
z: -0.048845257610082626
visibility: 0.9935389757156372
","x: 261.1328430175781
y: 321.8984375
z: -0.040384478867053986
visibility: 0.9869427680969238
","x: 289.09320068359375
y: 340.8727722167969
z: -0.18456491827964783
visibility: 0.9891077876091003
","x: 274.6810302734375
y: 347.63726806640625
z: -0.15721085667610168
visibility: 0.9715607166290283
","x: 285.520263671875
y: 350.4602355957031
z: -0.22073015570640564
visibility: 0.9676888585090637
","x: 277.96453857421875
y: 358.33685302734375
z: -0.19021572172641754
visibility: 0.9369592070579529
","x: 282.9497375488281
y: 345.65313720703125
z: -0.22939172387123108
visibility: 0.9718145132064819
","x: 280.77978515625
y: 353.3771057128906
z: -0.19766873121261597
visibility: 0.9429218173027039
","x: 283.8346862792969
y: 341.8096618652344
z: -0.19005799293518066
visibility: 0.9652830362319946
","x: 280.339111328125
y: 349.4218444824219
z: -0.1615249216556549
visibility: 0.9319142699241638
","x: 290.19219970703125
y: 363.9886779785156
z: 0.003373872023075819
visibility: 0.9989596605300903
","x: 270.3125305175781
y: 362.42181396484375
z: -0.0033116950653493404
visibility: 0.999367892742157
","x: 286.76519775390625
y: 424.20086669921875
z: -0.12621113657951355
visibility: 0.9850992560386658
","x: 273.2172546386719
y: 423.67413330078125
z: -0.15305501222610474
visibility: 0.9893629550933838
","x: 281.42657470703125
y: 484.96881103515625
z: -0.08076867461204529
visibility: 0.98157799243927
","x: 273.6214294433594
y: 488.22882080078125
z: -0.12193214893341064
visibility: 0.984799861907959
","x: 278.9739990234375
y: 492.5186767578125
z: -0.08154314011335373
visibility: 0.8707616925239563
","x: 273.1744384765625
y: 498.0815124511719
z: -0.12414857000112534
visibility: 0.7926169037818909
","x: 284.15869140625
y: 509.54705810546875
z: -0.19217543303966522
visibility: 0.9793288707733154
","x: 277.2427062988281
y: 510.9414367675781
z: -0.23858042061328888
visibility: 0.9793511629104614
",4.323553562164307,"x: 275.7874755859375
y: 341.58349609375
z: 0.0
","x: 278.8066711425781
y: 340.6979675292969
z: -0.0010573427425697446
","x: 281.98809814453125
y: 341.4923400878906
z: -0.0022711558267474174
","x: 284.1894226074219
y: 342.9803161621094
z: -0.003696577390655875
","x: 285.45465087890625
y: 344.2578125
z: -0.005196284968405962
","x: 282.9192199707031
y: 348.964599609375
z: -0.002232884056866169
","x: 285.9297180175781
y: 353.77581787109375
z: -0.004239402245730162
","x: 287.7334899902344
y: 356.87298583984375
z: -0.0055072251707315445
","x: 289.1755676269531
y: 359.45538330078125
z: -0.006281160283833742
","x: 281.91656494140625
y: 351.6242980957031
z: -0.0032584599684923887
","x: 284.6800842285156
y: 357.08831787109375
z: -0.005208533722907305
","x: 286.6050720214844
y: 360.6850891113281
z: -0.00621971907094121
","x: 288.1980285644531
y: 363.4034423828125
z: -0.006948358844965696
","x: 280.5798034667969
y: 353.6028747558594
z: -0.004436942283064127
","x: 282.87066650390625
y: 359.0697937011719
z: -0.0064917150884866714
","x: 284.4947204589844
y: 362.6645202636719
z: -0.007356968708336353
","x: 285.79217529296875
y: 365.3356628417969
z: -0.007932846434414387
","x: 278.9588623046875
y: 354.9000549316406
z: -0.005791947245597839
","x: 280.48199462890625
y: 359.48187255859375
z: -0.007412566337734461
","x: 281.55560302734375
y: 362.41571044921875
z: -0.007979107089340687
","x: 282.4732666015625
y: 364.6759338378906
z: -0.008361704647541046
","x: 283.06744384765625
y: 337.19775390625
z: 0.0
","x: 283.6724853515625
y: 341.67218017578125
z: 4.225816155667417e-05
","x: 283.3438415527344
y: 346.6224670410156
z: -0.0006777855451218784
","x: 282.462158203125
y: 349.7724914550781
z: -0.0016177291981875896
","x: 282.0765380859375
y: 351.7448425292969
z: -0.0025989555288106203
","x: 282.0035400390625
y: 348.53363037109375
z: -0.0025259796530008316
","x: 280.8828430175781
y: 354.2364501953125
z: -0.004343013744801283
","x: 279.89715576171875
y: 356.4098815917969
z: -0.004607369191944599
","x: 279.1891784667969
y: 357.4137878417969
z: -0.004480086732655764
","x: 280.0632019042969
y: 347.2206115722656
z: -0.0036539603024721146
","x: 277.52117919921875
y: 353.0715637207031
z: -0.005396821070462465
","x: 275.7572326660156
y: 356.04150390625
z: -0.005561057012528181
","x: 274.47021484375
y: 358.1368713378906
z: -0.0055651115253567696
","x: 278.3004455566406
y: 345.1376647949219
z: -0.004767979960888624
","x: 275.6204528808594
y: 350.468505859375
z: -0.006538053508847952
","x: 273.9075927734375
y: 353.36053466796875
z: -0.006714516319334507
","x: 272.62652587890625
y: 355.4222412109375
z: -0.006691272836178541
","x: 276.721923828125
y: 342.4970703125
z: -0.00586713757365942
","x: 274.4191589355469
y: 346.5773010253906
z: -0.00726154213771224
","x: 272.9595642089844
y: 349.29931640625
z: -0.0076191481202840805
","x: 271.74017333984375
y: 351.4962158203125
z: -0.007751376833766699
"
5,"x: 283.17303466796875
y: 252.88656616210938
z: -0.15395137667655945
visibility: 0.9999179840087891
","x: 284.3819580078125
y: 248.38584899902344
z: -0.13755592703819275
visibility: 0.9995794296264648
","x: 285.3330383300781
y: 248.57601928710938
z: -0.137601837515831
visibility: 0.9996397495269775
","x: 286.3337097167969
y: 248.7382354736328
z: -0.1376161277294159
visibility: 0.9996280074119568
","x: 281.22552490234375
y: 248.39846801757812
z: -0.1386147290468216
visibility: 0.9995572566986084
","x: 279.96026611328125
y: 248.665283203125
z: -0.13863582909107208
visibility: 0.9995930790901184
","x: 278.70452880859375
y: 248.90069580078125
z: -0.13866417109966278
visibility: 0.9995157122612
","x: 288.0664978027344
y: 251.68124389648438
z: -0.04744286090135574
visibility: 0.9990634322166443
","x: 276.01025390625
y: 251.93310546875
z: -0.05281594395637512
visibility: 0.9986658692359924
","x: 285.15771484375
y: 260.2096862792969
z: -0.12011351436376572
visibility: 0.9997681379318237
","x: 280.8323669433594
y: 259.828125
z: -0.12184202671051025
visibility: 0.9997074604034424
","x: 297.1854248046875
y: 284.63665771484375
z: -0.0032418067567050457
visibility: 0.9999086856842041
","x: 266.9803161621094
y: 281.8990783691406
z: -0.007338394410908222
visibility: 0.999846875667572
","x: 303.76007080078125
y: 322.67694091796875
z: -0.048845257610082626
visibility: 0.9935389757156372
","x: 261.1328430175781
y: 321.8984375
z: -0.040384478867053986
visibility: 0.9869427680969238
","x: 289.09320068359375
y: 340.8727722167969
z: -0.18456491827964783
visibility: 0.9891077876091003
","x: 274.6810302734375
y: 347.63726806640625
z: -0.15721085667610168
visibility: 0.9715607166290283
","x: 285.520263671875
y: 350.4602355957031
z: -0.22073015570640564
visibility: 0.9676888585090637
","x: 277.96453857421875
y: 358.33685302734375
z: -0.19021572172641754
visibility: 0.9369592070579529
","x: 282.9497375488281
y: 345.65313720703125
z: -0.22939172387123108
visibility: 0.9718145132064819
","x: 280.77978515625
y: 353.3771057128906
z: -0.19766873121261597
visibility: 0.9429218173027039
","x: 283.8346862792969
y: 341.8096618652344
z: -0.19005799293518066
visibility: 0.9652830362319946
","x: 280.339111328125
y: 349.4218444824219
z: -0.1615249216556549
visibility: 0.9319142699241638
","x: 290.19219970703125
y: 363.9886779785156
z: 0.003373872023075819
visibility: 0.9989596605300903
","x: 270.3125305175781
y: 362.42181396484375
z: -0.0033116950653493404
visibility: 0.999367892742157
","x: 286.76519775390625
y: 424.20086669921875
z: -0.12621113657951355
visibility: 0.9850992560386658
","x: 273.2172546386719
y: 423.67413330078125
z: -0.15305501222610474
visibility: 0.9893629550933838
","x: 281.42657470703125
y: 484.96881103515625
z: -0.08076867461204529
visibility: 0.98157799243927
","x: 273.6214294433594
y: 488.22882080078125
z: -0.12193214893341064
visibility: 0.984799861907959
","x: 278.9739990234375
y: 492.5186767578125
z: -0.08154314011335373
visibility: 0.8707616925239563
","x: 273.1744384765625
y: 498.0815124511719
z: -0.12414857000112534
visibility: 0.7926169037818909
","x: 284.15869140625
y: 509.54705810546875
z: -0.19217543303966522
visibility: 0.9793288707733154
","x: 277.2427062988281
y: 510.9414367675781
z: -0.23858042061328888
visibility: 0.9793511629104614
",4.323553562164307,"x: 275.7874755859375
y: 341.58349609375
z: 0.0
","x: 278.8066711425781
y: 340.6979675292969
z: -0.0010573427425697446
","x: 281.98809814453125
y: 341.4923400878906
z: -0.0022711558267474174
","x: 284.1894226074219
y: 342.9803161621094
z: -0.003696577390655875
","x: 285.45465087890625
y: 344.2578125
z: -0.005196284968405962
","x: 282.9192199707031
y: 348.964599609375
z: -0.002232884056866169
","x: 285.9297180175781
y: 353.77581787109375
z: -0.004239402245730162
","x: 287.7334899902344
y: 356.87298583984375
z: -0.0055072251707315445
","x: 289.1755676269531
y: 359.45538330078125
z: -0.006281160283833742
","x: 281.91656494140625
y: 351.6242980957031
z: -0.0032584599684923887
","x: 284.6800842285156
y: 357.08831787109375
z: -0.005208533722907305
","x: 286.6050720214844
y: 360.6850891113281
z: -0.00621971907094121
","x: 288.1980285644531
y: 363.4034423828125
z: -0.006948358844965696
","x: 280.5798034667969
y: 353.6028747558594
z: -0.004436942283064127
","x: 282.87066650390625
y: 359.0697937011719
z: -0.0064917150884866714
","x: 284.4947204589844
y: 362.6645202636719
z: -0.007356968708336353
","x: 285.79217529296875
y: 365.3356628417969
z: -0.007932846434414387
","x: 278.9588623046875
y: 354.9000549316406
z: -0.005791947245597839
","x: 280.48199462890625
y: 359.48187255859375
z: -0.007412566337734461
","x: 281.55560302734375
y: 362.41571044921875
z: -0.007979107089340687
","x: 282.4732666015625
y: 364.6759338378906
z: -0.008361704647541046
","x: 283.06744384765625
y: 337.19775390625
z: 0.0
","x: 283.6724853515625
y: 341.67218017578125
z: 4.225816155667417e-05
","x: 283.3438415527344
y: 346.6224670410156
z: -0.0006777855451218784
","x: 282.462158203125
y: 349.7724914550781
z: -0.0016177291981875896
","x: 282.0765380859375
y: 351.7448425292969
z: -0.0025989555288106203
","x: 282.0035400390625
y: 348.53363037109375
z: -0.0025259796530008316
","x: 280.8828430175781
y: 354.2364501953125
z: -0.004343013744801283
","x: 279.89715576171875
y: 356.4098815917969
z: -0.004607369191944599
","x: 279.1891784667969
y: 357.4137878417969
z: -0.004480086732655764
","x: 280.0632019042969
y: 347.2206115722656
z: -0.0036539603024721146
","x: 277.52117919921875
y: 353.0715637207031
z: -0.005396821070462465
","x: 275.7572326660156
y: 356.04150390625
z: -0.005561057012528181
","x: 274.47021484375
y: 358.1368713378906
z: -0.0055651115253567696
","x: 278.3004455566406
y: 345.1376647949219
z: -0.004767979960888624
","x: 275.6204528808594
y: 350.468505859375
z: -0.006538053508847952
","x: 273.9075927734375
y: 353.36053466796875
z: -0.006714516319334507
","x: 272.62652587890625
y: 355.4222412109375
z: -0.006691272836178541
","x: 276.721923828125
y: 342.4970703125
z: -0.00586713757365942
","x: 274.4191589355469
y: 346.5773010253906
z: -0.00726154213771224
","x: 272.9595642089844
y: 349.29931640625
z: -0.0076191481202840805
","x: 271.74017333984375
y: 351.4962158203125
z: -0.007751376833766699
"
6,"x: 283.72430419921875
y: 253.1010284423828
z: -0.25901439785957336
visibility: 0.9999211430549622
","x: 284.89178466796875
y: 248.4934844970703
z: -0.24688008427619934
visibility: 0.9996082782745361
","x: 285.8010559082031
y: 248.64752197265625
z: -0.24686841666698456
visibility: 0.9996634125709534
","x: 286.7896423339844
y: 248.7882843017578
z: -0.24687759578227997
visibility: 0.9996537566184998
","x: 281.7191467285156
y: 248.53994750976562
z: -0.24769362807273865
visibility: 0.9995851516723633
","x: 280.4364929199219
y: 248.78411865234375
z: -0.24773165583610535
visibility: 0.9996173977851868
","x: 279.1431579589844
y: 249.03118896484375
z: -0.24775955080986023
visibility: 0.9995474815368652
","x: 288.49322509765625
y: 251.83889770507812
z: -0.16086609661579132
visibility: 0.9991238713264465
","x: 276.28070068359375
y: 252.35313415527344
z: -0.16573870182037354
visibility: 0.9987558722496033
","x: 285.64617919921875
y: 260.68341064453125
z: -0.22580048441886902
visibility: 0.999782919883728
","x: 281.3319091796875
y: 260.22967529296875
z: -0.22737351059913635
visibility: 0.9997261166572571
","x: 297.9552917480469
y: 285.76239013671875
z: -0.09422925859689713
visibility: 0.9999130368232727
","x: 267.3416748046875
y: 282.90728759765625
z: -0.10016117990016937
visibility: 0.9998452663421631
","x: 302.9710693359375
y: 326.24200439453125
z: -0.07238887995481491
visibility: 0.9928556084632874
","x: 260.7611083984375
y: 322.7120666503906
z: -0.08170220255851746
visibility: 0.9858446717262268
","x: 289.5227966308594
y: 346.25469970703125
z: -0.1560169756412506
visibility: 0.9883406162261963
","x: 271.18035888671875
y: 352.5851135253906
z: -0.15945492684841156
visibility: 0.9660669565200806
","x: 286.6667785644531
y: 359.59417724609375
z: -0.18104508519172668
visibility: 0.9663993120193481
","x: 272.4764709472656
y: 364.5467834472656
z: -0.18522527813911438
visibility: 0.9284834861755371
","x: 283.9587097167969
y: 348.91705322265625
z: -0.19790761172771454
visibility: 0.9702080488204956
","x: 274.65008544921875
y: 359.93731689453125
z: -0.1987200677394867
visibility: 0.9336424469947815
","x: 284.2053527832031
y: 348.24951171875
z: -0.16299386322498322
visibility: 0.9620282649993896
","x: 274.6541748046875
y: 353.4346923828125
z: -0.16556599736213684
visibility: 0.9192189574241638
","x: 289.7852783203125
y: 363.46044921875
z: 0.004475493915379047
visibility: 0.9990143775939941
","x: 269.8990173339844
y: 360.8829040527344
z: -0.004484475590288639
visibility: 0.9993706345558167
","x: 286.68359375
y: 425.95660400390625
z: -0.0500389039516449
visibility: 0.9833728671073914
","x: 272.85675048828125
y: 421.6286926269531
z: -0.0730459913611412
visibility: 0.9878062605857849
","x: 281.25738525390625
y: 485.668212890625
z: 0.03261297196149826
visibility: 0.9810683727264404
","x: 272.7295837402344
y: 483.90185546875
z: 0.02487344481050968
visibility: 0.9834104776382446
","x: 278.6564025878906
y: 494.3917541503906
z: 0.03503568470478058
visibility: 0.8680523633956909
","x: 272.6098327636719
y: 492.4234619140625
z: 0.028089091181755066
visibility: 0.7837702035903931
","x: 283.9675598144531
y: 509.7930603027344
z: -0.06773760914802551
visibility: 0.9784766435623169
","x: 274.3040771484375
y: 504.92913818359375
z: -0.0832110345363617
visibility: 0.9779373407363892
",4.470182418823242,,,,,,,,,,,,,,,,,,,,,,,,,,,,,,,,,,,,,,,,,,
7,"x: 283.72430419921875
y: 253.1010284423828
z: -0.25901439785957336
visibility: 0.9999211430549622
","x: 284.89178466796875
y: 248.4934844970703
z: -0.24688008427619934
visibility: 0.9996082782745361
","x: 285.8010559082031
y: 248.64752197265625
z: -0.24686841666698456
visibility: 0.9996634125709534
","x: 286.7896423339844
y: 248.7882843017578
z: -0.24687759578227997
visibility: 0.9996537566184998
","x: 281.7191467285156
y: 248.53994750976562
z: -0.24769362807273865
visibility: 0.9995851516723633
","x: 280.4364929199219
y: 248.78411865234375
z: -0.24773165583610535
visibility: 0.9996173977851868
","x: 279.1431579589844
y: 249.03118896484375
z: -0.24775955080986023
visibility: 0.9995474815368652
","x: 288.49322509765625
y: 251.83889770507812
z: -0.16086609661579132
visibility: 0.9991238713264465
","x: 276.28070068359375
y: 252.35313415527344
z: -0.16573870182037354
visibility: 0.9987558722496033
","x: 285.64617919921875
y: 260.68341064453125
z: -0.22580048441886902
visibility: 0.999782919883728
","x: 281.3319091796875
y: 260.22967529296875
z: -0.22737351059913635
visibility: 0.9997261166572571
","x: 297.9552917480469
y: 285.76239013671875
z: -0.09422925859689713
visibility: 0.9999130368232727
","x: 267.3416748046875
y: 282.90728759765625
z: -0.10016117990016937
visibility: 0.9998452663421631
","x: 302.9710693359375
y: 326.24200439453125
z: -0.07238887995481491
visibility: 0.9928556084632874
","x: 260.7611083984375
y: 322.7120666503906
z: -0.08170220255851746
visibility: 0.9858446717262268
","x: 289.5227966308594
y: 346.25469970703125
z: -0.1560169756412506
visibility: 0.9883406162261963
","x: 271.18035888671875
y: 352.5851135253906
z: -0.15945492684841156
visibility: 0.9660669565200806
","x: 286.6667785644531
y: 359.59417724609375
z: -0.18104508519172668
visibility: 0.9663993120193481
","x: 272.4764709472656
y: 364.5467834472656
z: -0.18522527813911438
visibility: 0.9284834861755371
","x: 283.9587097167969
y: 348.91705322265625
z: -0.19790761172771454
visibility: 0.9702080488204956
","x: 274.65008544921875
y: 359.93731689453125
z: -0.1987200677394867
visibility: 0.9336424469947815
","x: 284.2053527832031
y: 348.24951171875
z: -0.16299386322498322
visibility: 0.9620282649993896
","x: 274.6541748046875
y: 353.4346923828125
z: -0.16556599736213684
visibility: 0.9192189574241638
","x: 289.7852783203125
y: 363.46044921875
z: 0.004475493915379047
visibility: 0.9990143775939941
","x: 269.8990173339844
y: 360.8829040527344
z: -0.004484475590288639
visibility: 0.9993706345558167
","x: 286.68359375
y: 425.95660400390625
z: -0.0500389039516449
visibility: 0.9833728671073914
","x: 272.85675048828125
y: 421.6286926269531
z: -0.0730459913611412
visibility: 0.9878062605857849
","x: 281.25738525390625
y: 485.668212890625
z: 0.03261297196149826
visibility: 0.9810683727264404
","x: 272.7295837402344
y: 483.90185546875
z: 0.02487344481050968
visibility: 0.9834104776382446
","x: 278.6564025878906
y: 494.3917541503906
z: 0.03503568470478058
visibility: 0.8680523633956909
","x: 272.6098327636719
y: 492.4234619140625
z: 0.028089091181755066
visibility: 0.7837702035903931
","x: 283.9675598144531
y: 509.7930603027344
z: -0.06773760914802551
visibility: 0.9784766435623169
","x: 274.3040771484375
y: 504.92913818359375
z: -0.0832110345363617
visibility: 0.9779373407363892
",4.470182418823242,,,,,,,,,,,,,,,,,,,,,,,,,,,,,,,,,,,,,,,,,,
8,"x: 283.2135314941406
y: 253.02633666992188
z: -0.25240322947502136
visibility: 0.999926745891571
","x: 284.59747314453125
y: 248.3114471435547
z: -0.2401706874370575
visibility: 0.9996380805969238
","x: 285.544921875
y: 248.4390411376953
z: -0.24015924334526062
visibility: 0.9996868968009949
","x: 286.5042724609375
y: 248.56509399414062
z: -0.24015676975250244
visibility: 0.9996779561042786
","x: 281.1751403808594
y: 248.3697509765625
z: -0.2412470579147339
visibility: 0.9996194243431091
","x: 279.77215576171875
y: 248.5926971435547
z: -0.2412845343351364
visibility: 0.9996485710144043
","x: 278.4109191894531
y: 248.84356689453125
z: -0.24130919575691223
visibility: 0.9995858669281006
","x: 287.93133544921875
y: 251.61561584472656
z: -0.15168742835521698
visibility: 0.9991879463195801
","x: 275.55352783203125
y: 252.3373565673828
z: -0.15867359936237335
visibility: 0.9988664388656616
","x: 285.15740966796875
y: 260.64630126953125
z: -0.2181929647922516
visibility: 0.9998008012771606
","x: 280.30718994140625
y: 260.2069091796875
z: -0.22023899853229523
visibility: 0.9997504353523254
","x: 297.1204833984375
y: 284.7789306640625
z: -0.08165394514799118
visibility: 0.9999188780784607
","x: 265.9043273925781
y: 284.4395751953125
z: -0.08225850760936737
visibility: 0.9998562932014465
","x: 304.7876281738281
y: 319.7011413574219
z: -0.03398088365793228
visibility: 0.9931272864341736
","x: 256.1787414550781
y: 322.69561767578125
z: -0.04141150042414665
visibility: 0.9864067435264587
","x: 298.3955993652344
y: 347.9962158203125
z: -0.11780468374490738
visibility: 0.9887046813964844
","x: 262.6002502441406
y: 354.40576171875
z: -0.11398198455572128
visibility: 0.9669209718704224
","x: 299.1968688964844
y: 360.3811950683594
z: -0.14223651587963104
visibility: 0.9675103425979614
","x: 259.9142150878906
y: 366.1135559082031
z: -0.13651609420776367
visibility: 0.9299930334091187
","x: 297.5674743652344
y: 354.49359130859375
z: -0.16761881113052368
visibility: 0.9711118936538696
","x: 261.2748107910156
y: 362.94659423828125
z: -0.15819543600082397
visibility: 0.9348582029342651
","x: 297.14276123046875
y: 353.1268005371094
z: -0.12852074205875397
visibility: 0.9629082083702087
","x: 262.1185302734375
y: 357.4986572265625
z: -0.12315814197063446
visibility: 0.9202596545219421
","x: 289.9844055175781
y: 364.9880676269531
z: 0.00429766159504652
visibility: 0.9990282654762268
","x: 270.061279296875
y: 363.158935546875
z: -0.004314512480050325
visibility: 0.9993956089019775
","x: 286.6620788574219
y: 430.9341125488281
z: -0.0222084391862154
visibility: 0.9839412569999695
","x: 269.17620849609375
y: 427.7366638183594
z: -0.055561840534210205
visibility: 0.9884222149848938
","x: 281.3074951171875
y: 487.56658935546875
z: 0.10918627679347992
visibility: 0.9814440011978149
","x: 260.11102294921875
y: 488.5731506347656
z: 0.04273742064833641
visibility: 0.9842541813850403
","x: 278.9831848144531
y: 496.1050720214844
z: 0.11609570682048798
visibility: 0.870082437992096
","x: 259.304931640625
y: 494.81561279296875
z: 0.04599437490105629
visibility: 0.7887042760848999
","x: 284.71051025390625
y: 510.7717590332031
z: 0.024606628343462944
visibility: 0.9784650206565857
","x: 257.40032958984375
y: 512.9222412109375
z: -0.06315366923809052
visibility: 0.978563666343689
",4.654821872711182,,,,,,,,,,,,,,,,,,,,,,,,,,,,,,,,,,,,,,,,,,
9,"x: 283.2135314941406
y: 253.02633666992188
z: -0.25240322947502136
visibility: 0.999926745891571
","x: 284.59747314453125
y: 248.3114471435547
z: -0.2401706874370575
visibility: 0.9996380805969238
","x: 285.544921875
y: 248.4390411376953
z: -0.24015924334526062
visibility: 0.9996868968009949
","x: 286.5042724609375
y: 248.56509399414062
z: -0.24015676975250244
visibility: 0.9996779561042786
","x: 281.1751403808594
y: 248.3697509765625
z: -0.2412470579147339
visibility: 0.9996194243431091
","x: 279.77215576171875
y: 248.5926971435547
z: -0.2412845343351364
visibility: 0.9996485710144043
","x: 278.4109191894531
y: 248.84356689453125
z: -0.24130919575691223
visibility: 0.9995858669281006
","x: 287.93133544921875
y: 251.61561584472656
z: -0.15168742835521698
visibility: 0.9991879463195801
","x: 275.55352783203125
y: 252.3373565673828
z: -0.15867359936237335
visibility: 0.9988664388656616
","x: 285.15740966796875
y: 260.64630126953125
z: -0.2181929647922516
visibility: 0.9998008012771606
","x: 280.30718994140625
y: 260.2069091796875
z: -0.22023899853229523
visibility: 0.9997504353523254
","x: 297.1204833984375
y: 284.7789306640625
z: -0.08165394514799118
visibility: 0.9999188780784607
","x: 265.9043273925781
y: 284.4395751953125
z: -0.08225850760936737
visibility: 0.9998562932014465
","x: 304.7876281738281
y: 319.7011413574219
z: -0.03398088365793228
visibility: 0.9931272864341736
","x: 256.1787414550781
y: 322.69561767578125
z: -0.04141150042414665
visibility: 0.9864067435264587
","x: 298.3955993652344
y: 347.9962158203125
z: -0.11780468374490738
visibility: 0.9887046813964844
","x: 262.6002502441406
y: 354.40576171875
z: -0.11398198455572128
visibility: 0.9669209718704224
","x: 299.1968688964844
y: 360.3811950683594
z: -0.14223651587963104
visibility: 0.9675103425979614
","x: 259.9142150878906
y: 366.1135559082031
z: -0.13651609420776367
visibility: 0.9299930334091187
","x: 297.5674743652344
y: 354.49359130859375
z: -0.16761881113052368
visibility: 0.9711118936538696
","x: 261.2748107910156
y: 362.94659423828125
z: -0.15819543600082397
visibility: 0.9348582029342651
","x: 297.14276123046875
y: 353.1268005371094
z: -0.12852074205875397
visibility: 0.9629082083702087
","x: 262.1185302734375
y: 357.4986572265625
z: -0.12315814197063446
visibility: 0.9202596545219421
","x: 289.9844055175781
y: 364.9880676269531
z: 0.00429766159504652
visibility: 0.9990282654762268
","x: 270.061279296875
y: 363.158935546875
z: -0.004314512480050325
visibility: 0.9993956089019775
","x: 286.6620788574219
y: 430.9341125488281
z: -0.0222084391862154
visibility: 0.9839412569999695
","x: 269.17620849609375
y: 427.7366638183594
z: -0.055561840534210205
visibility: 0.9884222149848938
","x: 281.3074951171875
y: 487.56658935546875
z: 0.10918627679347992
visibility: 0.9814440011978149
","x: 260.11102294921875
y: 488.5731506347656
z: 0.04273742064833641
visibility: 0.9842541813850403
","x: 278.9831848144531
y: 496.1050720214844
z: 0.11609570682048798
visibility: 0.870082437992096
","x: 259.304931640625
y: 494.81561279296875
z: 0.04599437490105629
visibility: 0.7887042760848999
","x: 284.71051025390625
y: 510.7717590332031
z: 0.024606628343462944
visibility: 0.9784650206565857
","x: 257.40032958984375
y: 512.9222412109375
z: -0.06315366923809052
visibility: 0.978563666343689
",4.654821872711182,,,,,,,,,,,,,,,,,,,,,,,,,,,,,,,,,,,,,,,,,,
10,"x: 280.2762451171875
y: 252.2494659423828
z: -0.2699263393878937
visibility: 0.9999330639839172
","x: 281.8854064941406
y: 247.3297882080078
z: -0.25591224431991577
visibility: 0.9996700882911682
","x: 282.9650573730469
y: 247.4254150390625
z: -0.25590017437934875
visibility: 0.9997143745422363
","x: 284.00213623046875
y: 247.53721618652344
z: -0.2559220492839813
visibility: 0.9997050762176514
","x: 278.30926513671875
y: 247.4264373779297
z: -0.25777798891067505
visibility: 0.999653160572052
","x: 276.9866638183594
y: 247.61996459960938
z: -0.2578105628490448
visibility: 0.9996803402900696
","x: 275.69757080078125
y: 247.8480682373047
z: -0.2577899694442749
visibility: 0.9996236562728882
","x: 285.38641357421875
y: 250.89010620117188
z: -0.15777426958084106
visibility: 0.9992616772651672
","x: 273.34619140625
y: 251.46420288085938
z: -0.1682375967502594
visibility: 0.9989739656448364
","x: 282.2275085449219
y: 259.34490966796875
z: -0.23243021965026855
visibility: 0.9998185634613037
","x: 277.39813232421875
y: 259.0932922363281
z: -0.23531392216682434
visibility: 0.9997721910476685
","x: 293.0648498535156
y: 282.8470153808594
z: -0.07433594763278961
visibility: 0.9999247789382935
","x: 264.00335693359375
y: 283.16729736328125
z: -0.07849021255970001
visibility: 0.9998589754104614
","x: 304.24285888671875
y: 308.9814147949219
z: 0.016665242612361908
visibility: 0.9934453964233398
","x: 252.40957641601562
y: 318.0670166015625
z: 0.0007995337364263833
visibility: 0.9867501258850098
","x: 299.5333251953125
y: 343.5363464355469
z: -0.01353802252560854
visibility: 0.9891800880432129
","x: 252.08116149902344
y: 354.67425537109375
z: -0.02869567647576332
visibility: 0.968030571937561
","x: 301.27734375
y: 354.1890869140625
z: -0.023547101765871048
visibility: 0.967906653881073
","x: 251.96463012695312
y: 366.1739501953125
z: -0.03839809074997902
visibility: 0.9312365055084229
","x: 301.1590576171875
y: 353.6917724609375
z: -0.05203254893422127
visibility: 0.9714987277984619
","x: 254.42233276367188
y: 364.1746826171875
z: -0.06234995275735855
visibility: 0.9358676671981812
","x: 300.84027099609375
y: 351.1781005859375
z: -0.024514539167284966
visibility: 0.9633595943450928
","x: 255.2724609375
y: 359.2869873046875
z: -0.03744635730981827
visibility: 0.9217162132263184
","x: 289.3912048339844
y: 365.05322265625
z: 0.0039819939993321896
visibility: 0.9990442991256714
","x: 269.6340026855469
y: 364.3744201660156
z: -0.004026689566671848
visibility: 0.99940425157547
","x: 286.2330627441406
y: 432.88555908203125
z: -0.019537635147571564
visibility: 0.9851189851760864
","x: 265.2816467285156
y: 431.4571838378906
z: -0.02883199416100979
visibility: 0.9889903664588928
","x: 281.5332946777344
y: 488.123046875
z: 0.13160482048988342
visibility: 0.9824880957603455
","x: 257.66717529296875
y: 491.7918395996094
z: 0.10251197963953018
visibility: 0.9853301048278809
","x: 279.4988708496094
y: 496.38311767578125
z: 0.1409541368484497
visibility: 0.874701201915741
","x: 257.6336975097656
y: 497.5883483886719
z: 0.10861052572727203
visibility: 0.8001032471656799
","x: 284.95318603515625
y: 511.4678649902344
z: 0.04952516779303551
visibility: 0.9794313311576843
","x: 255.0447998046875
y: 515.550048828125
z: 0.006560009904205799
visibility: 0.9798409342765808
",4.801376104354858,,,,,,,,,,,,,,,,,,,,,,,,,,,,,,,,,,,,,,,,,,
11,"x: 280.2762451171875
y: 252.2494659423828
z: -0.2699263393878937
visibility: 0.9999330639839172
","x: 281.8854064941406
y: 247.3297882080078
z: -0.25591224431991577
visibility: 0.9996700882911682
","x: 282.9650573730469
y: 247.4254150390625
z: -0.25590017437934875
visibility: 0.9997143745422363
","x: 284.00213623046875
y: 247.53721618652344
z: -0.2559220492839813
visibility: 0.9997050762176514
","x: 278.30926513671875
y: 247.4264373779297
z: -0.25777798891067505
visibility: 0.999653160572052
","x: 276.9866638183594
y: 247.61996459960938
z: -0.2578105628490448
visibility: 0.9996803402900696
","x: 275.69757080078125
y: 247.8480682373047
z: -0.2577899694442749
visibility: 0.9996236562728882
","x: 285.38641357421875
y: 250.89010620117188
z: -0.15777426958084106
visibility: 0.9992616772651672
","x: 273.34619140625
y: 251.46420288085938
z: -0.1682375967502594
visibility: 0.9989739656448364
","x: 282.2275085449219
y: 259.34490966796875
z: -0.23243021965026855
visibility: 0.9998185634613037
","x: 277.39813232421875
y: 259.0932922363281
z: -0.23531392216682434
visibility: 0.9997721910476685
","x: 293.0648498535156
y: 282.8470153808594
z: -0.07433594763278961
visibility: 0.9999247789382935
","x: 264.00335693359375
y: 283.16729736328125
z: -0.07849021255970001
visibility: 0.9998589754104614
","x: 304.24285888671875
y: 308.9814147949219
z: 0.016665242612361908
visibility: 0.9934453964233398
","x: 252.40957641601562
y: 318.0670166015625
z: 0.0007995337364263833
visibility: 0.9867501258850098
","x: 299.5333251953125
y: 343.5363464355469
z: -0.01353802252560854
visibility: 0.9891800880432129
","x: 252.08116149902344
y: 354.67425537109375
z: -0.02869567647576332
visibility: 0.968030571937561
","x: 301.27734375
y: 354.1890869140625
z: -0.023547101765871048
visibility: 0.967906653881073
","x: 251.96463012695312
y: 366.1739501953125
z: -0.03839809074997902
visibility: 0.9312365055084229
","x: 301.1590576171875
y: 353.6917724609375
z: -0.05203254893422127
visibility: 0.9714987277984619
","x: 254.42233276367188
y: 364.1746826171875
z: -0.06234995275735855
visibility: 0.9358676671981812
","x: 300.84027099609375
y: 351.1781005859375
z: -0.024514539167284966
visibility: 0.9633595943450928
","x: 255.2724609375
y: 359.2869873046875
z: -0.03744635730981827
visibility: 0.9217162132263184
","x: 289.3912048339844
y: 365.05322265625
z: 0.0039819939993321896
visibility: 0.9990442991256714
","x: 269.6340026855469
y: 364.3744201660156
z: -0.004026689566671848
visibility: 0.99940425157547
","x: 286.2330627441406
y: 432.88555908203125
z: -0.019537635147571564
visibility: 0.9851189851760864
","x: 265.2816467285156
y: 431.4571838378906
z: -0.02883199416100979
visibility: 0.9889903664588928
","x: 281.5332946777344
y: 488.123046875
z: 0.13160482048988342
visibility: 0.9824880957603455
","x: 257.66717529296875
y: 491.7918395996094
z: 0.10251197963953018
visibility: 0.9853301048278809
","x: 279.4988708496094
y: 496.38311767578125
z: 0.1409541368484497
visibility: 0.874701201915741
","x: 257.6336975097656
y: 497.5883483886719
z: 0.10861052572727203
visibility: 0.8001032471656799
","x: 284.95318603515625
y: 511.4678649902344
z: 0.04952516779303551
visibility: 0.9794313311576843
","x: 255.0447998046875
y: 515.550048828125
z: 0.006560009904205799
visibility: 0.9798409342765808
",4.801376104354858,,,,,,,,,,,,,,,,,,,,,,,,,,,,,,,,,,,,,,,,,,
12,"x: 278.3617858886719
y: 250.06431579589844
z: -0.2665179669857025
visibility: 0.9999376535415649
","x: 279.350341796875
y: 245.19442749023438
z: -0.2523050606250763
visibility: 0.9996949434280396
","x: 280.23095703125
y: 245.2232208251953
z: -0.2523036301136017
visibility: 0.9997356534004211
","x: 281.1304931640625
y: 245.23362731933594
z: -0.2523255944252014
visibility: 0.9997267723083496
","x: 276.39813232421875
y: 245.17401123046875
z: -0.2558107376098633
visibility: 0.9996772408485413
","x: 275.2662658691406
y: 245.22604370117188
z: -0.25584158301353455
visibility: 0.9997037053108215
","x: 274.13079833984375
y: 245.32789611816406
z: -0.25583475828170776
visibility: 0.9996523857116699
","x: 282.1490478515625
y: 248.38523864746094
z: -0.15298177301883698
visibility: 0.9993221163749695
","x: 271.369384765625
y: 249.05516052246094
z: -0.16934044659137726
visibility: 0.9990558624267578
","x: 280.0328674316406
y: 256.5793762207031
z: -0.2280307561159134
visibility: 0.9998336434364319
","x: 275.81787109375
y: 256.2417297363281
z: -0.23286530375480652
visibility: 0.9997900724411011
","x: 290.4736328125
y: 279.797607421875
z: -0.07196898013353348
visibility: 0.9999310374259949
","x: 261.6019287109375
y: 281.0352783203125
z: -0.08634835481643677
visibility: 0.9998582005500793
","x: 300.18218994140625
y: 306.14642333984375
z: -0.004631544928997755
visibility: 0.9929532408714294
","x: 249.45962524414062
y: 312.5269775390625
z: -0.03463707119226456
visibility: 0.987312912940979
","x: 300.2684326171875
y: 337.9679870605469
z: -0.07146899402141571
visibility: 0.9886325001716614
","x: 242.35055541992188
y: 350.711181640625
z: -0.0983123704791069
visibility: 0.9688506722450256
","x: 304.9668273925781
y: 348.1451110839844
z: -0.08814841508865356
visibility: 0.9665696620941162
","x: 240.049072265625
y: 361.92578125
z: -0.1180412769317627
visibility: 0.9321399331092834
","x: 305.755859375
y: 349.78192138671875
z: -0.11808747053146362
visibility: 0.970471978187561
","x: 241.90138244628906
y: 361.8354797363281
z: -0.14280349016189575
visibility: 0.9368430972099304
","x: 304.2953796386719
y: 346.57763671875
z: -0.08465217053890228
visibility: 0.9621114730834961
","x: 243.29249572753906
y: 357.1786193847656
z: -0.10935809463262558
visibility: 0.9230278730392456
","x: 287.11505126953125
y: 364.8492431640625
z: 0.003957195207476616
visibility: 0.9991059899330139
","x: 267.50787353515625
y: 364.3774108886719
z: -0.004007804673165083
visibility: 0.9994061589241028
","x: 287.10137939453125
y: 433.5188293457031
z: -0.03258593752980232
visibility: 0.9861608743667603
","x: 263.1215515136719
y: 431.6159362792969
z: -0.04474155977368355
visibility: 0.9895625114440918
","x: 285.4896240234375
y: 488.2186279296875
z: 0.14080281555652618
visibility: 0.983467161655426
","x: 250.39862060546875
y: 490.17218017578125
z: 0.11162233352661133
visibility: 0.9859388470649719
","x: 283.7909851074219
y: 495.7034606933594
z: 0.1526586413383484
visibility: 0.8680616617202759
","x: 247.93016052246094
y: 495.3489685058594
z: 0.12236447632312775
visibility: 0.8003624677658081
","x: 285.1025085449219
y: 512.0430297851562
z: 0.05003402754664421
visibility: 0.9802529215812683
","x: 253.58963012695312
y: 516.4629516601562
z: 0.018597641959786415
visibility: 0.98062664270401
",4.928910255432129,,,,,,,,,,,,,,,,,,,,,,,,,,,,,,,,,,,,,,,,,,
13,"x: 278.3617858886719
y: 250.06431579589844
z: -0.2665179669857025
visibility: 0.9999376535415649
","x: 279.350341796875
y: 245.19442749023438
z: -0.2523050606250763
visibility: 0.9996949434280396
","x: 280.23095703125
y: 245.2232208251953
z: -0.2523036301136017
visibility: 0.9997356534004211
","x: 281.1304931640625
y: 245.23362731933594
z: -0.2523255944252014
visibility: 0.9997267723083496
","x: 276.39813232421875
y: 245.17401123046875
z: -0.2558107376098633
visibility: 0.9996772408485413
","x: 275.2662658691406
y: 245.22604370117188
z: -0.25584158301353455
visibility: 0.9997037053108215
","x: 274.13079833984375
y: 245.32789611816406
z: -0.25583475828170776
visibility: 0.9996523857116699
","x: 282.1490478515625
y: 248.38523864746094
z: -0.15298177301883698
visibility: 0.9993221163749695
","x: 271.369384765625
y: 249.05516052246094
z: -0.16934044659137726
visibility: 0.9990558624267578
","x: 280.0328674316406
y: 256.5793762207031
z: -0.2280307561159134
visibility: 0.9998336434364319
","x: 275.81787109375
y: 256.2417297363281
z: -0.23286530375480652
visibility: 0.9997900724411011
","x: 290.4736328125
y: 279.797607421875
z: -0.07196898013353348
visibility: 0.9999310374259949
","x: 261.6019287109375
y: 281.0352783203125
z: -0.08634835481643677
visibility: 0.9998582005500793
","x: 300.18218994140625
y: 306.14642333984375
z: -0.004631544928997755
visibility: 0.9929532408714294
","x: 249.45962524414062
y: 312.5269775390625
z: -0.03463707119226456
visibility: 0.987312912940979
","x: 300.2684326171875
y: 337.9679870605469
z: -0.07146899402141571
visibility: 0.9886325001716614
","x: 242.35055541992188
y: 350.711181640625
z: -0.0983123704791069
visibility: 0.9688506722450256
","x: 304.9668273925781
y: 348.1451110839844
z: -0.08814841508865356
visibility: 0.9665696620941162
","x: 240.049072265625
y: 361.92578125
z: -0.1180412769317627
visibility: 0.9321399331092834
","x: 305.755859375
y: 349.78192138671875
z: -0.11808747053146362
visibility: 0.970471978187561
","x: 241.90138244628906
y: 361.8354797363281
z: -0.14280349016189575
visibility: 0.9368430972099304
","x: 304.2953796386719
y: 346.57763671875
z: -0.08465217053890228
visibility: 0.9621114730834961
","x: 243.29249572753906
y: 357.1786193847656
z: -0.10935809463262558
visibility: 0.9230278730392456
","x: 287.11505126953125
y: 364.8492431640625
z: 0.003957195207476616
visibility: 0.9991059899330139
","x: 267.50787353515625
y: 364.3774108886719
z: -0.004007804673165083
visibility: 0.9994061589241028
","x: 287.10137939453125
y: 433.5188293457031
z: -0.03258593752980232
visibility: 0.9861608743667603
","x: 263.1215515136719
y: 431.6159362792969
z: -0.04474155977368355
visibility: 0.9895625114440918
","x: 285.4896240234375
y: 488.2186279296875
z: 0.14080281555652618
visibility: 0.983467161655426
","x: 250.39862060546875
y: 490.17218017578125
z: 0.11162233352661133
visibility: 0.9859388470649719
","x: 283.7909851074219
y: 495.7034606933594
z: 0.1526586413383484
visibility: 0.8680616617202759
","x: 247.93016052246094
y: 495.3489685058594
z: 0.12236447632312775
visibility: 0.8003624677658081
","x: 285.1025085449219
y: 512.0430297851562
z: 0.05003402754664421
visibility: 0.9802529215812683
","x: 253.58963012695312
y: 516.4629516601562
z: 0.018597641959786415
visibility: 0.98062664270401
",4.928910255432129,,,,,,,,,,,,,,,,,,,,,,,,,,,,,,,,,,,,,,,,,,
14,"x: 275.6626892089844
y: 252.05960083007812
z: -0.25511524081230164
visibility: 0.9999340772628784
","x: 276.7980651855469
y: 247.181396484375
z: -0.2434374988079071
visibility: 0.9996881484985352
","x: 277.77734375
y: 247.22731018066406
z: -0.24345704913139343
visibility: 0.9997307658195496
","x: 278.7615661621094
y: 247.28842163085938
z: -0.24349451065063477
visibility: 0.9997243285179138
","x: 273.7154846191406
y: 247.2003173828125
z: -0.24385562539100647
visibility: 0.9996506571769714
","x: 272.6324462890625
y: 247.2902069091797
z: -0.24388781189918518
visibility: 0.9996756315231323
","x: 271.5313415527344
y: 247.45069885253906
z: -0.2439136505126953
visibility: 0.9996191263198853
","x: 279.9082946777344
y: 250.44100952148438
z: -0.15902826189994812
visibility: 0.9993418455123901
","x: 269.06439208984375
y: 251.22560119628906
z: -0.1621091067790985
visibility: 0.998969554901123
","x: 277.482177734375
y: 258.9351806640625
z: -0.22276780009269714
visibility: 0.9998328685760498
","x: 273.3443603515625
y: 258.4923400878906
z: -0.2236558496952057
visibility: 0.9997751712799072
","x: 289.35125732421875
y: 288.4420166015625
z: -0.09285105764865875
visibility: 0.9999319314956665
","x: 259.2681884765625
y: 284.09228515625
z: -0.08901451528072357
visibility: 0.9998005628585815
","x: 298.8631896972656
y: 319.1195373535156
z: -0.048629749566316605
visibility: 0.9923484325408936
","x: 247.51344299316406
y: 314.0179748535156
z: -0.04576236382126808
visibility: 0.9834407567977905
","x: 308.50860595703125
y: 344.5113830566406
z: -0.14090509712696075
visibility: 0.9879187345504761
","x: 235.6687774658203
y: 342.9220275878906
z: -0.15208470821380615
visibility: 0.9613561630249023
","x: 314.00372314453125
y: 351.5711669921875
z: -0.16080166399478912
visibility: 0.9654893279075623
","x: 232.61668395996094
y: 348.86456298828125
z: -0.175596684217453
visibility: 0.9203683137893677
","x: 315.2018127441406
y: 351.9030456542969
z: -0.19193440675735474
visibility: 0.9697542786598206
","x: 232.16986083984375
y: 348.939208984375
z: -0.20315253734588623
visibility: 0.9270129799842834
","x: 313.3670959472656
y: 348.5555419921875
z: -0.15640227496623993
visibility: 0.9616150856018066
","x: 233.90170288085938
y: 347.170166015625
z: -0.16734349727630615
visibility: 0.9149609804153442
","x: 283.78460693359375
y: 368.94873046875
z: -0.0009705203701741993
visibility: 0.9990886449813843
","x: 263.5572204589844
y: 368.616943359375
z: 0.0009238059865310788
visibility: 0.9993243217468262
","x: 284.1756286621094
y: 437.4177551269531
z: -0.023280028253793716
visibility: 0.9867217540740967
","x: 260.52227783203125
y: 436.69903564453125
z: -0.016059380024671555
visibility: 0.9896027445793152
","x: 286.6899108886719
y: 490.33465576171875
z: 0.13197728991508484
visibility: 0.9840822815895081
","x: 253.32386779785156
y: 492.4411315917969
z: 0.11839956045150757
visibility: 0.9859654307365417
","x: 287.4852294921875
y: 496.6279296875
z: 0.1412147730588913
visibility: 0.855624258518219
","x: 253.01834106445312
y: 497.23065185546875
z: 0.12604323029518127
visibility: 0.797308087348938
","x: 284.66241455078125
y: 512.1556396484375
z: 0.04040535166859627
visibility: 0.980241060256958
","x: 252.1716766357422
y: 516.3304443359375
z: 0.023268934339284897
visibility: 0.9802217483520508
",5.038726806640625,,,,,,,,,,,,,,,,,,,,,,,,,,,,,,,,,,,,,,,,,,
15,"x: 275.6626892089844
y: 252.05960083007812
z: -0.25511524081230164
visibility: 0.9999340772628784
","x: 276.7980651855469
y: 247.181396484375
z: -0.2434374988079071
visibility: 0.9996881484985352
","x: 277.77734375
y: 247.22731018066406
z: -0.24345704913139343
visibility: 0.9997307658195496
","x: 278.7615661621094
y: 247.28842163085938
z: -0.24349451065063477
visibility: 0.9997243285179138
","x: 273.7154846191406
y: 247.2003173828125
z: -0.24385562539100647
visibility: 0.9996506571769714
","x: 272.6324462890625
y: 247.2902069091797
z: -0.24388781189918518
visibility: 0.9996756315231323
","x: 271.5313415527344
y: 247.45069885253906
z: -0.2439136505126953
visibility: 0.9996191263198853
","x: 279.9082946777344
y: 250.44100952148438
z: -0.15902826189994812
visibility: 0.9993418455123901
","x: 269.06439208984375
y: 251.22560119628906
z: -0.1621091067790985
visibility: 0.998969554901123
","x: 277.482177734375
y: 258.9351806640625
z: -0.22276780009269714
visibility: 0.9998328685760498
","x: 273.3443603515625
y: 258.4923400878906
z: -0.2236558496952057
visibility: 0.9997751712799072
","x: 289.35125732421875
y: 288.4420166015625
z: -0.09285105764865875
visibility: 0.9999319314956665
","x: 259.2681884765625
y: 284.09228515625
z: -0.08901451528072357
visibility: 0.9998005628585815
","x: 298.8631896972656
y: 319.1195373535156
z: -0.048629749566316605
visibility: 0.9923484325408936
","x: 247.51344299316406
y: 314.0179748535156
z: -0.04576236382126808
visibility: 0.9834407567977905
","x: 308.50860595703125
y: 344.5113830566406
z: -0.14090509712696075
visibility: 0.9879187345504761
","x: 235.6687774658203
y: 342.9220275878906
z: -0.15208470821380615
visibility: 0.9613561630249023
","x: 314.00372314453125
y: 351.5711669921875
z: -0.16080166399478912
visibility: 0.9654893279075623
","x: 232.61668395996094
y: 348.86456298828125
z: -0.175596684217453
visibility: 0.9203683137893677
","x: 315.2018127441406
y: 351.9030456542969
z: -0.19193440675735474
visibility: 0.9697542786598206
","x: 232.16986083984375
y: 348.939208984375
z: -0.20315253734588623
visibility: 0.9270129799842834
","x: 313.3670959472656
y: 348.5555419921875
z: -0.15640227496623993
visibility: 0.9616150856018066
","x: 233.90170288085938
y: 347.170166015625
z: -0.16734349727630615
visibility: 0.9149609804153442
","x: 283.78460693359375
y: 368.94873046875
z: -0.0009705203701741993
visibility: 0.9990886449813843
","x: 263.5572204589844
y: 368.616943359375
z: 0.0009238059865310788
visibility: 0.9993243217468262
","x: 284.1756286621094
y: 437.4177551269531
z: -0.023280028253793716
visibility: 0.9867217540740967
","x: 260.52227783203125
y: 436.69903564453125
z: -0.016059380024671555
visibility: 0.9896027445793152
","x: 286.6899108886719
y: 490.33465576171875
z: 0.13197728991508484
visibility: 0.9840822815895081
","x: 253.32386779785156
y: 492.4411315917969
z: 0.11839956045150757
visibility: 0.9859654307365417
","x: 287.4852294921875
y: 496.6279296875
z: 0.1412147730588913
visibility: 0.855624258518219
","x: 253.01834106445312
y: 497.23065185546875
z: 0.12604323029518127
visibility: 0.797308087348938
","x: 284.66241455078125
y: 512.1556396484375
z: 0.04040535166859627
visibility: 0.980241060256958
","x: 252.1716766357422
y: 516.3304443359375
z: 0.023268934339284897
visibility: 0.9802217483520508
",5.038726806640625,,,,,,,,,,,,,,,,,,,,,,,,,,,,,,,,,,,,,,,,,,
16,"x: 273.1377868652344
y: 256.62371826171875
z: -0.29176217317581177
visibility: 0.9999399185180664
","x: 274.4345397949219
y: 251.52117919921875
z: -0.282082736492157
visibility: 0.9997168779373169
","x: 275.51556396484375
y: 251.56039428710938
z: -0.2821003198623657
visibility: 0.9997555613517761
","x: 276.6954040527344
y: 251.60545349121094
z: -0.2821538746356964
visibility: 0.9997497200965881
","x: 271.22882080078125
y: 251.2677001953125
z: -0.28072497248649597
visibility: 0.999681293964386
","x: 270.1749267578125
y: 251.23577880859375
z: -0.28075700998306274
visibility: 0.9997033476829529
","x: 269.0524597167969
y: 251.2767333984375
z: -0.2807789146900177
visibility: 0.9996515512466431
","x: 278.1219177246094
y: 254.1693878173828
z: -0.19991883635520935
visibility: 0.999405026435852
","x: 267.09210205078125
y: 254.37181091308594
z: -0.1942751109600067
visibility: 0.9990604519844055
","x: 275.31170654296875
y: 263.8751525878906
z: -0.25945422053337097
visibility: 0.9998486638069153
","x: 270.965087890625
y: 263.3651428222656
z: -0.2576058506965637
visibility: 0.9997953176498413
","x: 288.3252868652344
y: 291.59320068359375
z: -0.13415846228599548
visibility: 0.9999377727508545
","x: 257.2994079589844
y: 289.10595703125
z: -0.11480816453695297
visibility: 0.9998091459274292
","x: 297.11053466796875
y: 330.35406494140625
z: -0.096796415746212
visibility: 0.9923005700111389
","x: 245.67901611328125
y: 322.791015625
z: -0.07967028021812439
visibility: 0.9807653427124023
","x: 310.57867431640625
y: 357.8831481933594
z: -0.1758686602115631
visibility: 0.9876711964607239
","x: 233.0663299560547
y: 346.4875793457031
z: -0.16316218674182892
visibility: 0.9603292942047119
","x: 315.8140563964844
y: 364.6070861816406
z: -0.19454236328601837
visibility: 0.9657148718833923
","x: 227.8497772216797
y: 350.53326416015625
z: -0.18488837778568268
visibility: 0.9195135831832886
","x: 316.75311279296875
y: 364.3561096191406
z: -0.22524674236774445
visibility: 0.9700971841812134
","x: 227.02694702148438
y: 349.43719482421875
z: -0.2148859202861786
visibility: 0.9267151355743408
","x: 314.97650146484375
y: 363.01007080078125
z: -0.1903294324874878
visibility: 0.9626146554946899
","x: 229.0727996826172
y: 350.6277160644531
z: -0.17865219712257385
visibility: 0.9156329035758972
","x: 279.9716491699219
y: 373.46026611328125
z: -0.007690212223678827
visibility: 0.9991656541824341
","x: 259.419921875
y: 371.77001953125
z: 0.007592605892568827
visibility: 0.9993699789047241
","x: 276.9361877441406
y: 440.9533996582031
z: -0.05021495372056961
visibility: 0.987511157989502
","x: 254.8375244140625
y: 441.3329772949219
z: -0.019588593393564224
visibility: 0.9897845983505249
","x: 285.55462646484375
y: 488.30633544921875
z: 0.14964252710342407
visibility: 0.984687089920044
","x: 252.68577575683594
y: 493.86456298828125
z: 0.16370967030525208
visibility: 0.9859371781349182
","x: 285.6197204589844
y: 491.0775451660156
z: 0.1659351885318756
visibility: 0.8503915071487427
","x: 253.83367919921875
y: 498.36419677734375
z: 0.17791593074798584
visibility: 0.799837589263916
","x: 284.205322265625
y: 513.0443725585938
z: 0.08124744892120361
visibility: 0.9805988073348999
","x: 249.89102172851562
y: 516.3236694335938
z: 0.09185933321714401
visibility: 0.9799497127532959
",5.1669392585754395,,,,,,,,,,,,,,,,,,,,,,"x: 311.1974792480469
y: 364.9501953125
z: 0.0
","x: 315.5377502441406
y: 363.5299072265625
z: 0.0004475259338505566
","x: 319.30462646484375
y: 363.9495544433594
z: -4.958392310072668e-05
","x: 321.8424072265625
y: 365.7825927734375
z: -0.0014367620460689068
","x: 322.7861633300781
y: 368.21588134765625
z: -0.0023491631727665663
","x: 320.6159362792969
y: 369.61541748046875
z: 0.001554975751787424
","x: 322.53558349609375
y: 373.6798095703125
z: -0.0005061455885879695
","x: 321.33172607421875
y: 372.2471923828125
z: -0.001228571287356317
","x: 320.01123046875
y: 370.5696105957031
z: -0.0013478683540597558
","x: 319.3866882324219
y: 372.13287353515625
z: -0.00017641816521063447
","x: 321.09423828125
y: 376.0594482421875
z: -0.0023686394561082125
","x: 319.88739013671875
y: 373.9640808105469
z: -0.0026140378322452307
","x: 318.61383056640625
y: 371.88800048828125
z: -0.002242153277620673
","x: 317.839111328125
y: 373.94720458984375
z: -0.0022919278126209974
","x: 319.41632080078125
y: 377.2462158203125
z: -0.0041860006749629974
","x: 318.4826354980469
y: 374.8652648925781
z: -0.0033397069200873375
","x: 317.4569091796875
y: 372.6193542480469
z: -0.002311496762558818
","x: 316.0762023925781
y: 375.1265869140625
z: -0.004637022037059069
","x: 317.28900146484375
y: 377.41473388671875
z: -0.005454554222524166
","x: 316.85247802734375
y: 375.60821533203125
z: -0.004598678555339575
","x: 316.1220703125
y: 373.6022644042969
z: -0.00362587021663785
"
17,"x: 273.1377868652344
y: 256.62371826171875
z: -0.29176217317581177
visibility: 0.9999399185180664
","x: 274.4345397949219
y: 251.52117919921875
z: -0.282082736492157
visibility: 0.9997168779373169
","x: 275.51556396484375
y: 251.56039428710938
z: -0.2821003198623657
visibility: 0.9997555613517761
","x: 276.6954040527344
y: 251.60545349121094
z: -0.2821538746356964
visibility: 0.9997497200965881
","x: 271.22882080078125
y: 251.2677001953125
z: -0.28072497248649597
visibility: 0.999681293964386
","x: 270.1749267578125
y: 251.23577880859375
z: -0.28075700998306274
visibility: 0.9997033476829529
","x: 269.0524597167969
y: 251.2767333984375
z: -0.2807789146900177
visibility: 0.9996515512466431
","x: 278.1219177246094
y: 254.1693878173828
z: -0.19991883635520935
visibility: 0.999405026435852
","x: 267.09210205078125
y: 254.37181091308594
z: -0.1942751109600067
visibility: 0.9990604519844055
","x: 275.31170654296875
y: 263.8751525878906
z: -0.25945422053337097
visibility: 0.9998486638069153
","x: 270.965087890625
y: 263.3651428222656
z: -0.2576058506965637
visibility: 0.9997953176498413
","x: 288.3252868652344
y: 291.59320068359375
z: -0.13415846228599548
visibility: 0.9999377727508545
","x: 257.2994079589844
y: 289.10595703125
z: -0.11480816453695297
visibility: 0.9998091459274292
","x: 297.11053466796875
y: 330.35406494140625
z: -0.096796415746212
visibility: 0.9923005700111389
","x: 245.67901611328125
y: 322.791015625
z: -0.07967028021812439
visibility: 0.9807653427124023
","x: 310.57867431640625
y: 357.8831481933594
z: -0.1758686602115631
visibility: 0.9876711964607239
","x: 233.0663299560547
y: 346.4875793457031
z: -0.16316218674182892
visibility: 0.9603292942047119
","x: 315.8140563964844
y: 364.6070861816406
z: -0.19454236328601837
visibility: 0.9657148718833923
","x: 227.8497772216797
y: 350.53326416015625
z: -0.18488837778568268
visibility: 0.9195135831832886
","x: 316.75311279296875
y: 364.3561096191406
z: -0.22524674236774445
visibility: 0.9700971841812134
","x: 227.02694702148438
y: 349.43719482421875
z: -0.2148859202861786
visibility: 0.9267151355743408
","x: 314.97650146484375
y: 363.01007080078125
z: -0.1903294324874878
visibility: 0.9626146554946899
","x: 229.0727996826172
y: 350.6277160644531
z: -0.17865219712257385
visibility: 0.9156329035758972
","x: 279.9716491699219
y: 373.46026611328125
z: -0.007690212223678827
visibility: 0.9991656541824341
","x: 259.419921875
y: 371.77001953125
z: 0.007592605892568827
visibility: 0.9993699789047241
","x: 276.9361877441406
y: 440.9533996582031
z: -0.05021495372056961
visibility: 0.987511157989502
","x: 254.8375244140625
y: 441.3329772949219
z: -0.019588593393564224
visibility: 0.9897845983505249
","x: 285.55462646484375
y: 488.30633544921875
z: 0.14964252710342407
visibility: 0.984687089920044
","x: 252.68577575683594
y: 493.86456298828125
z: 0.16370967030525208
visibility: 0.9859371781349182
","x: 285.6197204589844
y: 491.0775451660156
z: 0.1659351885318756
visibility: 0.8503915071487427
","x: 253.83367919921875
y: 498.36419677734375
z: 0.17791593074798584
visibility: 0.799837589263916
","x: 284.205322265625
y: 513.0443725585938
z: 0.08124744892120361
visibility: 0.9805988073348999
","x: 249.89102172851562
y: 516.3236694335938
z: 0.09185933321714401
visibility: 0.9799497127532959
",5.1669392585754395,,,,,,,,,,,,,,,,,,,,,,"x: 311.1974792480469
y: 364.9501953125
z: 0.0
","x: 315.5377502441406
y: 363.5299072265625
z: 0.0004475259338505566
","x: 319.30462646484375
y: 363.9495544433594
z: -4.958392310072668e-05
","x: 321.8424072265625
y: 365.7825927734375
z: -0.0014367620460689068
","x: 322.7861633300781
y: 368.21588134765625
z: -0.0023491631727665663
","x: 320.6159362792969
y: 369.61541748046875
z: 0.001554975751787424
","x: 322.53558349609375
y: 373.6798095703125
z: -0.0005061455885879695
","x: 321.33172607421875
y: 372.2471923828125
z: -0.001228571287356317
","x: 320.01123046875
y: 370.5696105957031
z: -0.0013478683540597558
","x: 319.3866882324219
y: 372.13287353515625
z: -0.00017641816521063447
","x: 321.09423828125
y: 376.0594482421875
z: -0.0023686394561082125
","x: 319.88739013671875
y: 373.9640808105469
z: -0.0026140378322452307
","x: 318.61383056640625
y: 371.88800048828125
z: -0.002242153277620673
","x: 317.839111328125
y: 373.94720458984375
z: -0.0022919278126209974
","x: 319.41632080078125
y: 377.2462158203125
z: -0.0041860006749629974
","x: 318.4826354980469
y: 374.8652648925781
z: -0.0033397069200873375
","x: 317.4569091796875
y: 372.6193542480469
z: -0.002311496762558818
","x: 316.0762023925781
y: 375.1265869140625
z: -0.004637022037059069
","x: 317.28900146484375
y: 377.41473388671875
z: -0.005454554222524166
","x: 316.85247802734375
y: 375.60821533203125
z: -0.004598678555339575
","x: 316.1220703125
y: 373.6022644042969
z: -0.00362587021663785
"
18,"x: 273.1377868652344
y: 256.62371826171875
z: -0.29176217317581177
visibility: 0.9999399185180664
","x: 274.4345397949219
y: 251.52117919921875
z: -0.282082736492157
visibility: 0.9997168779373169
","x: 275.51556396484375
y: 251.56039428710938
z: -0.2821003198623657
visibility: 0.9997555613517761
","x: 276.6954040527344
y: 251.60545349121094
z: -0.2821538746356964
visibility: 0.9997497200965881
","x: 271.22882080078125
y: 251.2677001953125
z: -0.28072497248649597
visibility: 0.999681293964386
","x: 270.1749267578125
y: 251.23577880859375
z: -0.28075700998306274
visibility: 0.9997033476829529
","x: 269.0524597167969
y: 251.2767333984375
z: -0.2807789146900177
visibility: 0.9996515512466431
","x: 278.1219177246094
y: 254.1693878173828
z: -0.19991883635520935
visibility: 0.999405026435852
","x: 267.09210205078125
y: 254.37181091308594
z: -0.1942751109600067
visibility: 0.9990604519844055
","x: 275.31170654296875
y: 263.8751525878906
z: -0.25945422053337097
visibility: 0.9998486638069153
","x: 270.965087890625
y: 263.3651428222656
z: -0.2576058506965637
visibility: 0.9997953176498413
","x: 288.3252868652344
y: 291.59320068359375
z: -0.13415846228599548
visibility: 0.9999377727508545
","x: 257.2994079589844
y: 289.10595703125
z: -0.11480816453695297
visibility: 0.9998091459274292
","x: 297.11053466796875
y: 330.35406494140625
z: -0.096796415746212
visibility: 0.9923005700111389
","x: 245.67901611328125
y: 322.791015625
z: -0.07967028021812439
visibility: 0.9807653427124023
","x: 310.57867431640625
y: 357.8831481933594
z: -0.1758686602115631
visibility: 0.9876711964607239
","x: 233.0663299560547
y: 346.4875793457031
z: -0.16316218674182892
visibility: 0.9603292942047119
","x: 315.8140563964844
y: 364.6070861816406
z: -0.19454236328601837
visibility: 0.9657148718833923
","x: 227.8497772216797
y: 350.53326416015625
z: -0.18488837778568268
visibility: 0.9195135831832886
","x: 316.75311279296875
y: 364.3561096191406
z: -0.22524674236774445
visibility: 0.9700971841812134
","x: 227.02694702148438
y: 349.43719482421875
z: -0.2148859202861786
visibility: 0.9267151355743408
","x: 314.97650146484375
y: 363.01007080078125
z: -0.1903294324874878
visibility: 0.9626146554946899
","x: 229.0727996826172
y: 350.6277160644531
z: -0.17865219712257385
visibility: 0.9156329035758972
","x: 279.9716491699219
y: 373.46026611328125
z: -0.007690212223678827
visibility: 0.9991656541824341
","x: 259.419921875
y: 371.77001953125
z: 0.007592605892568827
visibility: 0.9993699789047241
","x: 276.9361877441406
y: 440.9533996582031
z: -0.05021495372056961
visibility: 0.987511157989502
","x: 254.8375244140625
y: 441.3329772949219
z: -0.019588593393564224
visibility: 0.9897845983505249
","x: 285.55462646484375
y: 488.30633544921875
z: 0.14964252710342407
visibility: 0.984687089920044
","x: 252.68577575683594
y: 493.86456298828125
z: 0.16370967030525208
visibility: 0.9859371781349182
","x: 285.6197204589844
y: 491.0775451660156
z: 0.1659351885318756
visibility: 0.8503915071487427
","x: 253.83367919921875
y: 498.36419677734375
z: 0.17791593074798584
visibility: 0.799837589263916
","x: 284.205322265625
y: 513.0443725585938
z: 0.08124744892120361
visibility: 0.9805988073348999
","x: 249.89102172851562
y: 516.3236694335938
z: 0.09185933321714401
visibility: 0.9799497127532959
",5.1669392585754395,,,,,,,,,,,,,,,,,,,,,,"x: 311.1974792480469
y: 364.9501953125
z: 0.0
","x: 315.5377502441406
y: 363.5299072265625
z: 0.0004475259338505566
","x: 319.30462646484375
y: 363.9495544433594
z: -4.958392310072668e-05
","x: 321.8424072265625
y: 365.7825927734375
z: -0.0014367620460689068
","x: 322.7861633300781
y: 368.21588134765625
z: -0.0023491631727665663
","x: 320.6159362792969
y: 369.61541748046875
z: 0.001554975751787424
","x: 322.53558349609375
y: 373.6798095703125
z: -0.0005061455885879695
","x: 321.33172607421875
y: 372.2471923828125
z: -0.001228571287356317
","x: 320.01123046875
y: 370.5696105957031
z: -0.0013478683540597558
","x: 319.3866882324219
y: 372.13287353515625
z: -0.00017641816521063447
","x: 321.09423828125
y: 376.0594482421875
z: -0.0023686394561082125
","x: 319.88739013671875
y: 373.9640808105469
z: -0.0026140378322452307
","x: 318.61383056640625
y: 371.88800048828125
z: -0.002242153277620673
","x: 317.839111328125
y: 373.94720458984375
z: -0.0022919278126209974
","x: 319.41632080078125
y: 377.2462158203125
z: -0.0041860006749629974
","x: 318.4826354980469
y: 374.8652648925781
z: -0.0033397069200873375
","x: 317.4569091796875
y: 372.6193542480469
z: -0.002311496762558818
","x: 316.0762023925781
y: 375.1265869140625
z: -0.004637022037059069
","x: 317.28900146484375
y: 377.41473388671875
z: -0.005454554222524166
","x: 316.85247802734375
y: 375.60821533203125
z: -0.004598678555339575
","x: 316.1220703125
y: 373.6022644042969
z: -0.00362587021663785
"
19,"x: 273.4761962890625
y: 258.6745300292969
z: -0.23922641575336456
visibility: 0.9999346137046814
","x: 274.53228759765625
y: 253.61636352539062
z: -0.2254321575164795
visibility: 0.9996920228004456
","x: 275.4667053222656
y: 253.71823120117188
z: -0.22543573379516602
visibility: 0.9997251629829407
","x: 276.44921875
y: 253.85479736328125
z: -0.225468710064888
visibility: 0.9997161626815796
","x: 271.3678283691406
y: 253.18975830078125
z: -0.22654691338539124
visibility: 0.9996569752693176
","x: 270.21783447265625
y: 253.09469604492188
z: -0.22657410800457
visibility: 0.9996752738952637
","x: 269.06072998046875
y: 253.083740234375
z: -0.2266225516796112
visibility: 0.9996265769004822
","x: 276.8094177246094
y: 256.695068359375
z: -0.1390998512506485
visibility: 0.9993669390678406
","x: 266.6959228515625
y: 256.34967041015625
z: -0.14460638165473938
visibility: 0.9989943504333496
","x: 275.09735107421875
y: 266.4832458496094
z: -0.20637738704681396
visibility: 0.9998471140861511
","x: 270.83428955078125
y: 265.52667236328125
z: -0.20799703896045685
visibility: 0.9997944831848145
","x: 285.7901916503906
y: 292.6719970703125
z: -0.0751553475856781
visibility: 0.9999328255653381
","x: 255.39968872070312
y: 292.1283264160156
z: -0.08441121131181717
visibility: 0.9997978806495667
","x: 292.91009521484375
y: 330.17498779296875
z: -0.03168168291449547
visibility: 0.9910722374916077
","x: 247.5078125
y: 331.4332580566406
z: -0.06680998206138611
visibility: 0.9796543121337891
","x: 299.28564453125
y: 361.0548400878906
z: -0.11279793828725815
visibility: 0.9864669442176819
","x: 250.78268432617188
y: 365.67999267578125
z: -0.14511598646640778
visibility: 0.9593403935432434
","x: 302.8677978515625
y: 368.2139587402344
z: -0.13415847718715668
visibility: 0.9644791483879089
","x: 250.93142700195312
y: 376.2791748046875
z: -0.16878508031368256
visibility: 0.9187198281288147
","x: 302.7288818359375
y: 368.7845153808594
z: -0.16171148419380188
visibility: 0.9688829779624939
","x: 253.56256103515625
y: 375.5489807128906
z: -0.1882990449666977
visibility: 0.9255810976028442
","x: 300.9680480957031
y: 366.9532775878906
z: -0.12524686753749847
visibility: 0.9610755443572998
","x: 254.18057250976562
y: 372.69000244140625
z: -0.15417927503585815
visibility: 0.9132134318351746
","x: 279.5718078613281
y: 375.46160888671875
z: -0.003537435084581375
visibility: 0.9992176294326782
","x: 259.45318603515625
y: 374.77642822265625
z: 0.0035219218116253614
visibility: 0.9993917346000671
","x: 278.8647766113281
y: 440.1443786621094
z: -0.14055827260017395
visibility: 0.9883410930633545
","x: 253.68919372558594
y: 440.5329895019531
z: -0.04330071061849594
visibility: 0.9900240898132324
","x: 276.3736877441406
y: 484.0980224609375
z: 0.04796868935227394
visibility: 0.985223114490509
","x: 252.1044464111328
y: 495.19146728515625
z: 0.13234907388687134
visibility: 0.9867364764213562
","x: 273.83074951171875
y: 486.6540222167969
z: 0.062212299555540085
visibility: 0.8571921586990356
","x: 253.40005493164062
y: 501.61065673828125
z: 0.13951590657234192
visibility: 0.8112058043479919
","x: 278.9295959472656
y: 512.3585205078125
z: -0.03298491612076759
visibility: 0.9814316034317017
","x: 248.55995178222656
y: 516.2745971679688
z: 0.041880227625370026
visibility: 0.9808140397071838
",5.292335748672485,,,,,,,,,,,,,,,,,,,,,,,,,,,,,,,,,,,,,,,,,,
20,"x: 273.4761962890625
y: 258.6745300292969
z: -0.23922641575336456
visibility: 0.9999346137046814
","x: 274.53228759765625
y: 253.61636352539062
z: -0.2254321575164795
visibility: 0.9996920228004456
","x: 275.4667053222656
y: 253.71823120117188
z: -0.22543573379516602
visibility: 0.9997251629829407
","x: 276.44921875
y: 253.85479736328125
z: -0.225468710064888
visibility: 0.9997161626815796
","x: 271.3678283691406
y: 253.18975830078125
z: -0.22654691338539124
visibility: 0.9996569752693176
","x: 270.21783447265625
y: 253.09469604492188
z: -0.22657410800457
visibility: 0.9996752738952637
","x: 269.06072998046875
y: 253.083740234375
z: -0.2266225516796112
visibility: 0.9996265769004822
","x: 276.8094177246094
y: 256.695068359375
z: -0.1390998512506485
visibility: 0.9993669390678406
","x: 266.6959228515625
y: 256.34967041015625
z: -0.14460638165473938
visibility: 0.9989943504333496
","x: 275.09735107421875
y: 266.4832458496094
z: -0.20637738704681396
visibility: 0.9998471140861511
","x: 270.83428955078125
y: 265.52667236328125
z: -0.20799703896045685
visibility: 0.9997944831848145
","x: 285.7901916503906
y: 292.6719970703125
z: -0.0751553475856781
visibility: 0.9999328255653381
","x: 255.39968872070312
y: 292.1283264160156
z: -0.08441121131181717
visibility: 0.9997978806495667
","x: 292.91009521484375
y: 330.17498779296875
z: -0.03168168291449547
visibility: 0.9910722374916077
","x: 247.5078125
y: 331.4332580566406
z: -0.06680998206138611
visibility: 0.9796543121337891
","x: 299.28564453125
y: 361.0548400878906
z: -0.11279793828725815
visibility: 0.9864669442176819
","x: 250.78268432617188
y: 365.67999267578125
z: -0.14511598646640778
visibility: 0.9593403935432434
","x: 302.8677978515625
y: 368.2139587402344
z: -0.13415847718715668
visibility: 0.9644791483879089
","x: 250.93142700195312
y: 376.2791748046875
z: -0.16878508031368256
visibility: 0.9187198281288147
","x: 302.7288818359375
y: 368.7845153808594
z: -0.16171148419380188
visibility: 0.9688829779624939
","x: 253.56256103515625
y: 375.5489807128906
z: -0.1882990449666977
visibility: 0.9255810976028442
","x: 300.9680480957031
y: 366.9532775878906
z: -0.12524686753749847
visibility: 0.9610755443572998
","x: 254.18057250976562
y: 372.69000244140625
z: -0.15417927503585815
visibility: 0.9132134318351746
","x: 279.5718078613281
y: 375.46160888671875
z: -0.003537435084581375
visibility: 0.9992176294326782
","x: 259.45318603515625
y: 374.77642822265625
z: 0.0035219218116253614
visibility: 0.9993917346000671
","x: 278.8647766113281
y: 440.1443786621094
z: -0.14055827260017395
visibility: 0.9883410930633545
","x: 253.68919372558594
y: 440.5329895019531
z: -0.04330071061849594
visibility: 0.9900240898132324
","x: 276.3736877441406
y: 484.0980224609375
z: 0.04796868935227394
visibility: 0.985223114490509
","x: 252.1044464111328
y: 495.19146728515625
z: 0.13234907388687134
visibility: 0.9867364764213562
","x: 273.83074951171875
y: 486.6540222167969
z: 0.062212299555540085
visibility: 0.8571921586990356
","x: 253.40005493164062
y: 501.61065673828125
z: 0.13951590657234192
visibility: 0.8112058043479919
","x: 278.9295959472656
y: 512.3585205078125
z: -0.03298491612076759
visibility: 0.9814316034317017
","x: 248.55995178222656
y: 516.2745971679688
z: 0.041880227625370026
visibility: 0.9808140397071838
",5.292335748672485,,,,,,,,,,,,,,,,,,,,,,,,,,,,,,,,,,,,,,,,,,
21,"x: 274.6296081542969
y: 258.7450866699219
z: -0.12955474853515625
visibility: 0.9999200701713562
","x: 275.7330322265625
y: 253.49801635742188
z: -0.11279221624135971
visibility: 0.9996764659881592
","x: 276.6578674316406
y: 253.5633544921875
z: -0.11282620579004288
visibility: 0.9996925592422485
","x: 277.6038818359375
y: 253.6578369140625
z: -0.11286520957946777
visibility: 0.9996877312660217
","x: 272.57769775390625
y: 253.46640014648438
z: -0.11793085187673569
visibility: 0.9996439814567566
","x: 271.349365234375
y: 253.56201171875
z: -0.11791492998600006
visibility: 0.9996510744094849
","x: 270.03021240234375
y: 253.7069549560547
z: -0.11791791766881943
visibility: 0.9996153712272644
","x: 278.42266845703125
y: 257.015869140625
z: -0.02151503786444664
visibility: 0.9993577599525452
","x: 267.044677734375
y: 257.2266540527344
z: -0.04243634641170502
visibility: 0.9990377426147461
","x: 276.3111572265625
y: 266.2985534667969
z: -0.09491730481386185
visibility: 0.999841570854187
","x: 271.9750061035156
y: 265.9158630371094
z: -0.101118303835392
visibility: 0.9997960925102234
","x: 286.5641174316406
y: 291.7383728027344
z: 0.01775059849023819
visibility: 0.9999276995658875
","x: 257.09423828125
y: 291.48834228515625
z: -0.026151200756430626
visibility: 0.9998010396957397
","x: 293.3980712890625
y: 327.988037109375
z: -0.04705285653471947
visibility: 0.9819755554199219
","x: 259.4111022949219
y: 329.9198913574219
z: -0.07723729312419891
visibility: 0.979263186454773
","x: 280.2826843261719
y: 335.4617614746094
z: -0.19271501898765564
visibility: 0.9751728177070618
","x: 278.2895812988281
y: 356.7400817871094
z: -0.16252562403678894
visibility: 0.9591166973114014
","x: 277.8282470703125
y: 339.7887878417969
z: -0.23112449049949646
visibility: 0.9486261010169983
","x: 282.63262939453125
y: 360.96697998046875
z: -0.19540837407112122
visibility: 0.9194942116737366
","x: 276.1791076660156
y: 334.6248779296875
z: -0.23150749504566193
visibility: 0.9521247744560242
","x: 284.5849609375
y: 356.85308837890625
z: -0.19799034297466278
visibility: 0.9254279136657715
","x: 276.62322998046875
y: 333.7615966796875
z: -0.19721880555152893
visibility: 0.9398517608642578
","x: 283.34722900390625
y: 354.7079772949219
z: -0.1648910790681839
visibility: 0.9104986786842346
","x: 280.71710205078125
y: 374.18133544921875
z: 0.0024792945478111506
visibility: 0.9992833137512207
","x: 259.7814025878906
y: 374.47735595703125
z: -0.002423130441457033
visibility: 0.9994381666183472
","x: 292.42816162109375
y: 439.6815185546875
z: -0.07669205218553543
visibility: 0.9893484115600586
","x: 252.91888427734375
y: 442.15594482421875
z: -0.04652493819594383
visibility: 0.990912675857544
","x: 296.3935852050781
y: 484.5799560546875
z: 0.08690645545721054
visibility: 0.9864182472229004
","x: 251.84698486328125
y: 495.5570983886719
z: 0.11839405447244644
visibility: 0.9879248142242432
","x: 293.36138916015625
y: 490.44488525390625
z: 0.09826145321130753
visibility: 0.8665951490402222
","x: 253.23538208007812
y: 502.53924560546875
z: 0.12620624899864197
visibility: 0.8260120749473572
","x: 306.0481262207031
y: 512.2806396484375
z: 0.00023831616272218525
visibility: 0.9826717972755432
","x: 248.29029846191406
y: 516.8931884765625
z: 0.031244898214936256
visibility: 0.9823511838912964
",5.417863368988037,,,,,,,,,,,,,,,,,,,,,,,,,,,,,,,,,,,,,,,,,,
22,"x: 274.6296081542969
y: 258.7450866699219
z: -0.12955474853515625
visibility: 0.9999200701713562
","x: 275.7330322265625
y: 253.49801635742188
z: -0.11279221624135971
visibility: 0.9996764659881592
","x: 276.6578674316406
y: 253.5633544921875
z: -0.11282620579004288
visibility: 0.9996925592422485
","x: 277.6038818359375
y: 253.6578369140625
z: -0.11286520957946777
visibility: 0.9996877312660217
","x: 272.57769775390625
y: 253.46640014648438
z: -0.11793085187673569
visibility: 0.9996439814567566
","x: 271.349365234375
y: 253.56201171875
z: -0.11791492998600006
visibility: 0.9996510744094849
","x: 270.03021240234375
y: 253.7069549560547
z: -0.11791791766881943
visibility: 0.9996153712272644
","x: 278.42266845703125
y: 257.015869140625
z: -0.02151503786444664
visibility: 0.9993577599525452
","x: 267.044677734375
y: 257.2266540527344
z: -0.04243634641170502
visibility: 0.9990377426147461
","x: 276.3111572265625
y: 266.2985534667969
z: -0.09491730481386185
visibility: 0.999841570854187
","x: 271.9750061035156
y: 265.9158630371094
z: -0.101118303835392
visibility: 0.9997960925102234
","x: 286.5641174316406
y: 291.7383728027344
z: 0.01775059849023819
visibility: 0.9999276995658875
","x: 257.09423828125
y: 291.48834228515625
z: -0.026151200756430626
visibility: 0.9998010396957397
","x: 293.3980712890625
y: 327.988037109375
z: -0.04705285653471947
visibility: 0.9819755554199219
","x: 259.4111022949219
y: 329.9198913574219
z: -0.07723729312419891
visibility: 0.979263186454773
","x: 280.2826843261719
y: 335.4617614746094
z: -0.19271501898765564
visibility: 0.9751728177070618
","x: 278.2895812988281
y: 356.7400817871094
z: -0.16252562403678894
visibility: 0.9591166973114014
","x: 277.8282470703125
y: 339.7887878417969
z: -0.23112449049949646
visibility: 0.9486261010169983
","x: 282.63262939453125
y: 360.96697998046875
z: -0.19540837407112122
visibility: 0.9194942116737366
","x: 276.1791076660156
y: 334.6248779296875
z: -0.23150749504566193
visibility: 0.9521247744560242
","x: 284.5849609375
y: 356.85308837890625
z: -0.19799034297466278
visibility: 0.9254279136657715
","x: 276.62322998046875
y: 333.7615966796875
z: -0.19721880555152893
visibility: 0.9398517608642578
","x: 283.34722900390625
y: 354.7079772949219
z: -0.1648910790681839
visibility: 0.9104986786842346
","x: 280.71710205078125
y: 374.18133544921875
z: 0.0024792945478111506
visibility: 0.9992833137512207
","x: 259.7814025878906
y: 374.47735595703125
z: -0.002423130441457033
visibility: 0.9994381666183472
","x: 292.42816162109375
y: 439.6815185546875
z: -0.07669205218553543
visibility: 0.9893484115600586
","x: 252.91888427734375
y: 442.15594482421875
z: -0.04652493819594383
visibility: 0.990912675857544
","x: 296.3935852050781
y: 484.5799560546875
z: 0.08690645545721054
visibility: 0.9864182472229004
","x: 251.84698486328125
y: 495.5570983886719
z: 0.11839405447244644
visibility: 0.9879248142242432
","x: 293.36138916015625
y: 490.44488525390625
z: 0.09826145321130753
visibility: 0.8665951490402222
","x: 253.23538208007812
y: 502.53924560546875
z: 0.12620624899864197
visibility: 0.8260120749473572
","x: 306.0481262207031
y: 512.2806396484375
z: 0.00023831616272218525
visibility: 0.9826717972755432
","x: 248.29029846191406
y: 516.8931884765625
z: 0.031244898214936256
visibility: 0.9823511838912964
",5.417863368988037,,,,,,,,,,,,,,,,,,,,,,,,,,,,,,,,,,,,,,,,,,
23,"x: 276.7623596191406
y: 259.0601806640625
z: -0.18679900467395782
visibility: 0.9999264478683472
","x: 277.46881103515625
y: 253.46780395507812
z: -0.1710808128118515
visibility: 0.9997044801712036
","x: 278.3560485839844
y: 253.3893585205078
z: -0.17110560834407806
visibility: 0.9997175335884094
","x: 279.2337341308594
y: 253.36180114746094
z: -0.1711474359035492
visibility: 0.9997126460075378
","x: 274.50433349609375
y: 253.9378204345703
z: -0.17226116359233856
visibility: 0.9996752142906189
","x: 273.1518249511719
y: 254.14198303222656
z: -0.1722438633441925
visibility: 0.9996803998947144
","x: 271.70623779296875
y: 254.33424377441406
z: -0.17224089801311493
visibility: 0.9996481537818909
","x: 280.18719482421875
y: 256.51080322265625
z: -0.07486046850681305
visibility: 0.9994118809700012
","x: 268.7632141113281
y: 257.0114440917969
z: -0.07749839872121811
visibility: 0.999127984046936
","x: 278.2101745605469
y: 265.72271728515625
z: -0.14980104565620422
visibility: 0.9998553991317749
","x: 274.58880615234375
y: 266.0461120605469
z: -0.1507895290851593
visibility: 0.9998144507408142
","x: 288.8643493652344
y: 289.2879638671875
z: -0.015395903959870338
visibility: 0.9999323487281799
","x: 261.5247802734375
y: 287.1438293457031
z: -0.03580917418003082
visibility: 0.9998171329498291
","x: 299.7156677246094
y: 327.32342529296875
z: -0.09756927192211151
visibility: 0.9827263355255127
","x: 262.1234436035156
y: 328.56512451171875
z: -0.05195575952529907
visibility: 0.9793820977210999
","x: 286.4288330078125
y: 320.2935485839844
z: -0.2795327305793762
visibility: 0.9765215516090393
","x: 277.3179626464844
y: 361.17022705078125
z: -0.12576386332511902
visibility: 0.9600996375083923
","x: 281.93353271484375
y: 318.9613037109375
z: -0.3224852681159973
visibility: 0.950866162776947
","x: 280.7984313964844
y: 368.8428039550781
z: -0.1567380279302597
visibility: 0.9212818145751953
","x: 280.1815185546875
y: 313.79376220703125
z: -0.31880515813827515
visibility: 0.9538670182228088
","x: 282.7379150390625
y: 362.4288635253906
z: -0.16419902443885803
visibility: 0.9263700842857361
","x: 281.6449279785156
y: 314.1363525390625
z: -0.28227198123931885
visibility: 0.9409679174423218
","x: 281.7481994628906
y: 359.9488830566406
z: -0.12945404648780823
visibility: 0.9097716808319092
","x: 284.47332763671875
y: 373.35675048828125
z: 0.004170969128608704
visibility: 0.9993476867675781
","x: 262.4893798828125
y: 373.4686584472656
z: -0.004169820342212915
visibility: 0.9994864463806152
","x: 299.6008605957031
y: 438.0938720703125
z: -0.07228052616119385
visibility: 0.9901781678199768
","x: 255.55209350585938
y: 441.2243347167969
z: -0.04350079223513603
visibility: 0.9916927814483643
","x: 305.13262939453125
y: 488.6606140136719
z: 0.08765896409749985
visibility: 0.987403929233551
","x: 251.7845458984375
y: 495.8578186035156
z: 0.11382673680782318
visibility: 0.9889716506004333
","x: 301.4263916015625
y: 496.6448974609375
z: 0.10083255916833878
visibility: 0.8755207061767578
","x: 252.8092803955078
y: 503.419189453125
z: 0.12293080985546112
visibility: 0.8387694954872131
","x: 312.4855651855469
y: 514.1487426757812
z: 0.01413016952574253
visibility: 0.9834883809089661
","x: 249.22610473632812
y: 517.7433471679688
z: 0.02730686031281948
visibility: 0.9836196303367615
",5.560868263244629,"x: 275.8407897949219
y: 364.3221740722656
z: 0.0
","x: 278.6979064941406
y: 364.6501159667969
z: 0.0008006846765056252
","x: 281.5652770996094
y: 366.1529846191406
z: -0.0003933886473532766
","x: 283.3891296386719
y: 368.7208557128906
z: -0.001908426987938583
","x: 284.38177490234375
y: 371.189453125
z: -0.0029147337190806866
","x: 283.4505615234375
y: 362.94915771484375
z: -0.0035153841599822044
","x: 284.68414306640625
y: 369.63055419921875
z: -0.0054210699163377285
","x: 283.39117431640625
y: 370.1593322753906
z: -0.005346505902707577
","x: 282.786865234375
y: 368.80059814453125
z: -0.005193769466131926
","x: 282.3104553222656
y: 363.28411865234375
z: -0.005392389837652445
","x: 282.8229064941406
y: 371.2610168457031
z: -0.007271746173501015
","x: 281.605712890625
y: 370.84466552734375
z: -0.005998881999403238
","x: 281.435791015625
y: 368.9361267089844
z: -0.005140541587024927
","x: 280.7957763671875
y: 364.2047119140625
z: -0.007087823003530502
","x: 280.8162841796875
y: 371.6160583496094
z: -0.008504095487296581
","x: 279.8175354003906
y: 370.87530517578125
z: -0.006523067597299814
","x: 279.80517578125
y: 368.9694519042969
z: -0.005272242706269026
","x: 279.05975341796875
y: 365.6459045410156
z: -0.008771306835114956
","x: 278.79547119140625
y: 371.240478515625
z: -0.009690352715551853
","x: 278.074951171875
y: 370.3335266113281
z: -0.008414906449615955
","x: 278.0291442871094
y: 368.4169921875
z: -0.007422198541462421
",,,,,,,,,,,,,,,,,,,,,
24,"x: 276.7623596191406
y: 259.0601806640625
z: -0.18679900467395782
visibility: 0.9999264478683472
","x: 277.46881103515625
y: 253.46780395507812
z: -0.1710808128118515
visibility: 0.9997044801712036
","x: 278.3560485839844
y: 253.3893585205078
z: -0.17110560834407806
visibility: 0.9997175335884094
","x: 279.2337341308594
y: 253.36180114746094
z: -0.1711474359035492
visibility: 0.9997126460075378
","x: 274.50433349609375
y: 253.9378204345703
z: -0.17226116359233856
visibility: 0.9996752142906189
","x: 273.1518249511719
y: 254.14198303222656
z: -0.1722438633441925
visibility: 0.9996803998947144
","x: 271.70623779296875
y: 254.33424377441406
z: -0.17224089801311493
visibility: 0.9996481537818909
","x: 280.18719482421875
y: 256.51080322265625
z: -0.07486046850681305
visibility: 0.9994118809700012
","x: 268.7632141113281
y: 257.0114440917969
z: -0.07749839872121811
visibility: 0.999127984046936
","x: 278.2101745605469
y: 265.72271728515625
z: -0.14980104565620422
visibility: 0.9998553991317749
","x: 274.58880615234375
y: 266.0461120605469
z: -0.1507895290851593
visibility: 0.9998144507408142
