uscmakers/ReverseChoreography/data/10_dynamite_bts.csv
,NOSE,LEFT_EYE_INNER,LEFT_EYE,LEFT_EYE_OUTER,RIGHT_EYE_INNER,RIGHT_EYE,RIGHT_EYE_OUTER,LEFT_EAR,RIGHT_EAR,MOUTH_LEFT,MOUTH_RIGHT,LEFT_SHOULDER,RIGHT_SHOULDER,LEFT_ELBOW,RIGHT_ELBOW,LEFT_WRIST,RIGHT_WRIST,LEFT_PINKY,RIGHT_PINKY,LEFT_INDEX,RIGHT_INDEX,LEFT_THUMB,RIGHT_THUMB,LEFT_HIP,RIGHT_HIP,LEFT_KNEE,RIGHT_KNEE,LEFT_ANKLE,RIGHT_ANKLE,LEFT_HEEL,RIGHT_HEEL,LEFT_FOOT_INDEX,RIGHT_FOOT_INDEX,TIMESTAMP,WRIST,THUMB_CPC,THUMB_MCP,THUMB_IP,THUMB_TIP,INDEX_FINGER_MCP,INDEX_FINGER_PIP,INDEX_FINGER_DIP,INDEX_FINGER_TIP,MIDDLE_FINGER_MCP,MIDDLE_FINGER_PIP,MIDDLE_FINGER_DIP,MIDDLE_FINGER_TIP,RING_FINGER_PIP,RING_FINGER_DIP,RING_FINGER_TIP,RING_FINGER_MCP,PINKY_MCP,PINKY_PIP,PINKY_DIP,PINKY_TIP,WRIST2,THUMB_CPC2,THUMB_MCP2,THUMB_IP2,THUMB_TIP2,INDEX_FINGER_MCP2,INDEX_FINGER_PIP2,INDEX_FINGER_DIP2,INDEX_FINGER_TIP2,MIDDLE_FINGER_MCP2,MIDDLE_FINGER_PIP2,MIDDLE_FINGER_DIP2,MIDDLE_FINGER_TIP2,RING_FINGER_PIP2,RING_FINGER_DIP2,RING_FINGER_TIP2,RING_FINGER_MCP2,PINKY_MCP2,PINKY_PIP2,PINKY_DIP2,PINKY_TIP2
0,"x: 307.16754150390625
y: 247.26748657226562
z: -0.2688669264316559
visibility: 0.9999711513519287
","x: 308.20684814453125
y: 243.46107482910156
z: -0.2519814670085907
visibility: 0.9999319314956665
","x: 309.1334228515625
y: 243.632080078125
z: -0.2519935071468353
visibility: 0.999934196472168
","x: 309.9976501464844
y: 243.82757568359375
z: -0.2520465552806854
visibility: 0.9999395608901978
","x: 305.0768737792969
y: 243.47694396972656
z: -0.25771811604499817
visibility: 0.9998959302902222
","x: 303.77398681640625
y: 243.63343811035156
z: -0.2577390968799591
visibility: 0.9998924732208252
","x: 302.5723876953125
y: 243.7641143798828
z: -0.25774872303009033
visibility: 0.9998574256896973
","x: 310.8626708984375
y: 247.97625732421875
z: -0.14965881407260895
visibility: 0.9999003410339355
","x: 299.8607177734375
y: 247.40353393554688
z: -0.17848367989063263
visibility: 0.999729573726654
","x: 308.9510498046875
y: 253.51458740234375
z: -0.23057237267494202
visibility: 0.9999659061431885
","x: 304.51123046875
y: 253.54928588867188
z: -0.23907537758350372
visibility: 0.9999462366104126
","x: 319.4124450683594
y: 284.33758544921875
z: -0.07241551578044891
visibility: 0.9999549388885498
","x: 291.16619873046875
y: 281.33074951171875
z: -0.12031958252191544
visibility: 0.9993724226951599
","x: 327.8289489746094
y: 320.4263000488281
z: -0.022565554827451706
visibility: 0.9740725755691528
","x: 281.88201904296875
y: 318.60845947265625
z: -0.15322577953338623
visibility: 0.9325929284095764
","x: 336.2630615234375
y: 357.00018310546875
z: -0.08946262300014496
visibility: 0.9652667045593262
","x: 288.1996765136719
y: 340.06158447265625
z: -0.27896445989608765
visibility: 0.7953944206237793
","x: 340.0027770996094
y: 369.578857421875
z: -0.10922042280435562
visibility: 0.9261801242828369
","x: 288.6965026855469
y: 347.96148681640625
z: -0.30982068181037903
visibility: 0.7289154529571533
","x: 339.5780944824219
y: 370.492919921875
z: -0.13866057991981506
visibility: 0.9355460405349731
","x: 290.1124572753906
y: 349.2800598144531
z: -0.32707491517066956
visibility: 0.7344692945480347
","x: 337.65081787109375
y: 366.6183166503906
z: -0.10265076160430908
visibility: 0.9212995171546936
","x: 290.58209228515625
y: 345.82421875
z: -0.2889164984226227
visibility: 0.678817868232727
","x: 317.1778259277344
y: 362.2485656738281
z: 0.01684432476758957
visibility: 0.9998300075531006
","x: 297.8063659667969
y: 364.42034912109375
z: -0.016861049458384514
visibility: 0.9995630383491516
","x: 323.7817077636719
y: 429.1183166503906
z: -0.07206109166145325
visibility: 0.995975911617279
","x: 299.73602294921875
y: 429.8310852050781
z: -0.044152770191431046
visibility: 0.9943413734436035
","x: 320.416748046875
y: 482.20404052734375
z: 0.08153973519802094
visibility: 0.9949953556060791
","x: 296.3963623046875
y: 491.6204833984375
z: 0.08272216469049454
visibility: 0.9949122667312622
","x: 316.7520751953125
y: 488.9297790527344
z: 0.09095616638660431
visibility: 0.9556646943092346
","x: 296.85302734375
y: 499.36822509765625
z: 0.08859485387802124
visibility: 0.8589195609092712
","x: 325.4640808105469
y: 506.87298583984375
z: -0.016330048441886902
visibility: 0.9923444390296936
","x: 299.3782958984375
y: 513.109619140625
z: -0.026299884542822838
visibility: 0.9902058243751526
",3.8098270893096924,,,,,,,,,,,,,,,,,,,,,,,,,,,,,,,,,,,,,,,,,,
1,"x: 307.16754150390625
y: 247.26748657226562
z: -0.2688669264316559
visibility: 0.9999711513519287
","x: 308.20684814453125
y: 243.46107482910156
z: -0.2519814670085907
visibility: 0.9999319314956665
","x: 309.1334228515625
y: 243.632080078125
z: -0.2519935071468353
visibility: 0.999934196472168
","x: 309.9976501464844
y: 243.82757568359375
z: -0.2520465552806854
visibility: 0.9999395608901978
","x: 305.0768737792969
y: 243.47694396972656
z: -0.25771811604499817
visibility: 0.9998959302902222
","x: 303.77398681640625
y: 243.63343811035156
z: -0.2577390968799591
visibility: 0.9998924732208252
","x: 302.5723876953125
y: 243.7641143798828
z: -0.25774872303009033
visibility: 0.9998574256896973
","x: 310.8626708984375
y: 247.97625732421875
z: -0.14965881407260895
visibility: 0.9999003410339355
","x: 299.8607177734375
y: 247.40353393554688
z: -0.17848367989063263
visibility: 0.999729573726654
","x: 308.9510498046875
y: 253.51458740234375
z: -0.23057237267494202
visibility: 0.9999659061431885
","x: 304.51123046875
y: 253.54928588867188
z: -0.23907537758350372
visibility: 0.9999462366104126
","x: 319.4124450683594
y: 284.33758544921875
z: -0.07241551578044891
visibility: 0.9999549388885498
","x: 291.16619873046875
y: 281.33074951171875
z: -0.12031958252191544
visibility: 0.9993724226951599
","x: 327.8289489746094
y: 320.4263000488281
z: -0.022565554827451706
visibility: 0.9740725755691528
","x: 281.88201904296875
y: 318.60845947265625
z: -0.15322577953338623
visibility: 0.9325929284095764
","x: 336.2630615234375
y: 357.00018310546875
z: -0.08946262300014496
visibility: 0.9652667045593262
","x: 288.1996765136719
y: 340.06158447265625
z: -0.27896445989608765
visibility: 0.7953944206237793
","x: 340.0027770996094
y: 369.578857421875
z: -0.10922042280435562
visibility: 0.9261801242828369
","x: 288.6965026855469
y: 347.96148681640625
z: -0.30982068181037903
visibility: 0.7289154529571533
","x: 339.5780944824219
y: 370.492919921875
z: -0.13866057991981506
visibility: 0.9355460405349731
","x: 290.1124572753906
y: 349.2800598144531
z: -0.32707491517066956
visibility: 0.7344692945480347
","x: 337.65081787109375
y: 366.6183166503906
z: -0.10265076160430908
visibility: 0.9212995171546936
","x: 290.58209228515625
y: 345.82421875
z: -0.2889164984226227
visibility: 0.678817868232727
","x: 317.1778259277344
y: 362.2485656738281
z: 0.01684432476758957
visibility: 0.9998300075531006
","x: 297.8063659667969
y: 364.42034912109375
z: -0.016861049458384514
visibility: 0.9995630383491516
","x: 323.7817077636719
y: 429.1183166503906
z: -0.07206109166145325
visibility: 0.995975911617279
","x: 299.73602294921875
y: 429.8310852050781
z: -0.044152770191431046
visibility: 0.9943413734436035
","x: 320.416748046875
y: 482.20404052734375
z: 0.08153973519802094
visibility: 0.9949953556060791
","x: 296.3963623046875
y: 491.6204833984375
z: 0.08272216469049454
visibility: 0.9949122667312622
","x: 316.7520751953125
y: 488.9297790527344
z: 0.09095616638660431
visibility: 0.9556646943092346
","x: 296.85302734375
y: 499.36822509765625
z: 0.08859485387802124
visibility: 0.8589195609092712
","x: 325.4640808105469
y: 506.87298583984375
z: -0.016330048441886902
visibility: 0.9923444390296936
","x: 299.3782958984375
y: 513.109619140625
z: -0.026299884542822838
visibility: 0.9902058243751526
",3.8098270893096924,,,,,,,,,,,,,,,,,,,,,,,,,,,,,,,,,,,,,,,,,,
2,"x: 308.00921630859375
y: 252.13092041015625
z: -0.2690461277961731
visibility: 0.9999490976333618
","x: 309.2159423828125
y: 248.11846923828125
z: -0.2536410391330719
visibility: 0.9998626112937927
","x: 310.17022705078125
y: 248.32821655273438
z: -0.2536391615867615
visibility: 0.9998576045036316
","x: 311.1092224121094
y: 248.53277587890625
z: -0.2536706328392029
visibility: 0.999863862991333
","x: 306.22540283203125
y: 247.970458984375
z: -0.2579607367515564
visibility: 0.9998486042022705
","x: 304.9788818359375
y: 248.01292419433594
z: -0.25799497961997986
visibility: 0.9998413920402527
","x: 303.6759948730469
y: 248.08541870117188
z: -0.25801509618759155
visibility: 0.9998140335083008
","x: 312.2452392578125
y: 251.69435119628906
z: -0.15579280257225037
visibility: 0.999733030796051
","x: 300.5965881347656
y: 251.28236389160156
z: -0.17728781700134277
visibility: 0.9996457695960999
","x: 309.6335754394531
y: 258.835693359375
z: -0.2310858517885208
visibility: 0.9999247193336487
","x: 305.815673828125
y: 258.6098327636719
z: -0.23852220177650452
visibility: 0.9999205470085144
","x: 321.3087158203125
y: 284.3216857910156
z: -0.07698392868041992
visibility: 0.999941885471344
","x: 291.3815002441406
y: 282.84503173828125
z: -0.10462385416030884
visibility: 0.999407947063446
","x: 336.88177490234375
y: 308.1554260253906
z: -0.03157058358192444
visibility: 0.9756805896759033
","x: 275.0871276855469
y: 304.2831115722656
z: -0.06667227298021317
visibility: 0.9386869072914124
","x: 334.9241638183594
y: 334.88134765625
z: -0.09696035832166672
visibility: 0.9664754867553711
","x: 277.9238586425781
y: 337.66668701171875
z: -0.11579199135303497
visibility: 0.8101769685745239
","x: 333.3773193359375
y: 344.53839111328125
z: -0.11620684713125229
visibility: 0.9269474148750305
","x: 278.7968444824219
y: 346.8804626464844
z: -0.13313795626163483
visibility: 0.7414882183074951
","x: 330.025390625
y: 344.5814514160156
z: -0.13843664526939392
visibility: 0.9357648491859436
","x: 281.3326416015625
y: 346.03253173828125
z: -0.1499691605567932
visibility: 0.7470316886901855
","x: 330.0428466796875
y: 341.1894226074219
z: -0.10538220405578613
visibility: 0.9209936857223511
","x: 281.5042724609375
y: 342.78240966796875
z: -0.12263794988393784
visibility: 0.6945597529411316
","x: 314.9775085449219
y: 363.28228759765625
z: 0.01619965024292469
visibility: 0.9994775652885437
","x: 296.269287109375
y: 364.42034912109375
z: -0.016205158084630966
visibility: 0.9994758367538452
","x: 311.2671203613281
y: 429.19744873046875
z: 0.03636651113629341
visibility: 0.9881505966186523
","x: 299.2105407714844
y: 429.8045654296875
z: -0.07144447416067123
visibility: 0.9927146434783936
","x: 304.9822082519531
y: 482.0995788574219
z: 0.17505992949008942
visibility: 0.987289309501648
","x: 296.5480651855469
y: 491.5528564453125
z: 0.0017622422892600298
visibility: 0.9927190542221069
","x: 302.4084167480469
y: 488.0455322265625
z: 0.18405693769454956
visibility: 0.9332512021064758
","x: 296.8087463378906
y: 499.3677062988281
z: 0.0036501442082226276
visibility: 0.8454282879829407
","x: 308.40643310546875
y: 504.178466796875
z: 0.10176770389080048
visibility: 0.9850500226020813
","x: 299.92535400390625
y: 511.6408996582031
z: -0.10347241163253784
visibility: 0.9877338409423828
",4.395836353302002,,,,,,,,,,,,,,,,,,,,,,,,,,,,,,,,,,,,,,,,,,
3,"x: 308.00921630859375
y: 252.13092041015625
z: -0.2690461277961731
visibility: 0.9999490976333618
","x: 309.2159423828125
y: 248.11846923828125
z: -0.2536410391330719
visibility: 0.9998626112937927
","x: 310.17022705078125
y: 248.32821655273438
z: -0.2536391615867615
visibility: 0.9998576045036316
","x: 311.1092224121094
y: 248.53277587890625
z: -0.2536706328392029
visibility: 0.999863862991333
","x: 306.22540283203125
y: 247.970458984375
z: -0.2579607367515564
visibility: 0.9998486042022705
","x: 304.9788818359375
y: 248.01292419433594
z: -0.25799497961997986
visibility: 0.9998413920402527
","x: 303.6759948730469
y: 248.08541870117188
z: -0.25801509618759155
visibility: 0.9998140335083008
","x: 312.2452392578125
y: 251.69435119628906
z: -0.15579280257225037
visibility: 0.999733030796051
","x: 300.5965881347656
y: 251.28236389160156
z: -0.17728781700134277
visibility: 0.9996457695960999
","x: 309.6335754394531
y: 258.835693359375
z: -0.2310858517885208
visibility: 0.9999247193336487
","x: 305.815673828125
y: 258.6098327636719
z: -0.23852220177650452
visibility: 0.9999205470085144
","x: 321.3087158203125
y: 284.3216857910156
z: -0.07698392868041992
visibility: 0.999941885471344
","x: 291.3815002441406
y: 282.84503173828125
z: -0.10462385416030884
visibility: 0.999407947063446
","x: 336.88177490234375
y: 308.1554260253906
z: -0.03157058358192444
visibility: 0.9756805896759033
","x: 275.0871276855469
y: 304.2831115722656
z: -0.06667227298021317
visibility: 0.9386869072914124
","x: 334.9241638183594
y: 334.88134765625
z: -0.09696035832166672
visibility: 0.9664754867553711
","x: 277.9238586425781
y: 337.66668701171875
z: -0.11579199135303497
visibility: 0.8101769685745239
","x: 333.3773193359375
y: 344.53839111328125
z: -0.11620684713125229
visibility: 0.9269474148750305
","x: 278.7968444824219
y: 346.8804626464844
z: -0.13313795626163483
visibility: 0.7414882183074951
","x: 330.025390625
y: 344.5814514160156
z: -0.13843664526939392
visibility: 0.9357648491859436
","x: 281.3326416015625
y: 346.03253173828125
z: -0.1499691605567932
visibility: 0.7470316886901855
","x: 330.0428466796875
y: 341.1894226074219
z: -0.10538220405578613
visibility: 0.9209936857223511
","x: 281.5042724609375
y: 342.78240966796875
z: -0.12263794988393784
visibility: 0.6945597529411316
","x: 314.9775085449219
y: 363.28228759765625
z: 0.01619965024292469
visibility: 0.9994775652885437
","x: 296.269287109375
y: 364.42034912109375
z: -0.016205158084630966
visibility: 0.9994758367538452
","x: 311.2671203613281
y: 429.19744873046875
z: 0.03636651113629341
visibility: 0.9881505966186523
","x: 299.2105407714844
y: 429.8045654296875
z: -0.07144447416067123
visibility: 0.9927146434783936
","x: 304.9822082519531
y: 482.0995788574219
z: 0.17505992949008942
visibility: 0.987289309501648
","x: 296.5480651855469
y: 491.5528564453125
z: 0.0017622422892600298
visibility: 0.9927190542221069
","x: 302.4084167480469
y: 488.0455322265625
z: 0.18405693769454956
visibility: 0.9332512021064758
","x: 296.8087463378906
y: 499.3677062988281
z: 0.0036501442082226276
visibility: 0.8454282879829407
","x: 308.40643310546875
y: 504.178466796875
z: 0.10176770389080048
visibility: 0.9850500226020813
","x: 299.92535400390625
y: 511.6408996582031
z: -0.10347241163253784
visibility: 0.9877338409423828
",4.395836353302002,,,,,,,,,,,,,,,,,,,,,,,,,,,,,,,,,,,,,,,,,,
4,"x: 307.9931335449219
y: 251.99546813964844
z: -0.20980258285999298
visibility: 0.9999139308929443
","x: 309.26031494140625
y: 248.11642456054688
z: -0.19831426441669464
visibility: 0.9997653365135193
","x: 310.23370361328125
y: 248.38522338867188
z: -0.19828760623931885
visibility: 0.9997383952140808
","x: 311.2315368652344
y: 248.68141174316406
z: -0.1983109414577484
visibility: 0.9997725486755371
","x: 306.23980712890625
y: 247.79653930664062
z: -0.1994227170944214
visibility: 0.999760627746582
","x: 304.9713439941406
y: 247.7841796875
z: -0.1994902789592743
visibility: 0.9997481107711792
","x: 303.66436767578125
y: 247.79324340820312
z: -0.1995232254266739
visibility: 0.999752938747406
","x: 313.09234619140625
y: 252.24302673339844
z: -0.11626003682613373
visibility: 0.9995683431625366
","x: 300.85430908203125
y: 251.0947265625
z: -0.12346205860376358
visibility: 0.9994805455207825
","x: 309.6185607910156
y: 258.7665710449219
z: -0.17818255722522736
visibility: 0.9998589754104614
","x: 305.78778076171875
y: 258.1263427734375
z: -0.180396169424057
visibility: 0.9998608231544495
","x: 322.05999755859375
y: 284.14892578125
z: -0.05188436061143875
visibility: 0.9999233484268188
","x: 291.4109191894531
y: 282.42730712890625
z: -0.05542100593447685
visibility: 0.9993810653686523
","x: 339.9530944824219
y: 299.8041687011719
z: -0.018349291756749153
visibility: 0.9769993424415588
","x: 274.4707946777344
y: 297.4686584472656
z: -0.04486102983355522
visibility: 0.9422103762626648
","x: 329.61199951171875
y: 324.4079895019531
z: -0.06869162619113922
visibility: 0.9652956128120422
","x: 280.57403564453125
y: 318.07879638671875
z: -0.11519576609134674
visibility: 0.8140467405319214
","x: 325.8327331542969
y: 331.0731506347656
z: -0.08739837259054184
visibility: 0.9208171963691711
","x: 279.83770751953125
y: 323.7098693847656
z: -0.1355891078710556
visibility: 0.7389958500862122
","x: 323.25323486328125
y: 328.75933837890625
z: -0.09799440205097198
visibility: 0.928997814655304
","x: 283.2228698730469
y: 319.6510925292969
z: -0.1437583863735199
visibility: 0.7443000674247742
","x: 323.85394287109375
y: 326.5390319824219
z: -0.07268763333559036
visibility: 0.9123523235321045
","x: 283.9664306640625
y: 317.76788330078125
z: -0.11982662975788116
visibility: 0.6938340663909912
","x: 314.27691650390625
y: 362.6936340332031
z: 0.01090823020786047
visibility: 0.9991183876991272
","x: 295.3511962890625
y: 362.4555969238281
z: -0.010925001464784145
visibility: 0.9991670846939087
","x: 308.9473571777344
y: 428.9447326660156
z: -0.004612439312040806
visibility: 0.9838962554931641
","x: 297.817626953125
y: 428.5796813964844
z: -0.051610201597213745
visibility: 0.9902798533439636
","x: 301.8426513671875
y: 482.2309875488281
z: 0.15643294155597687
visibility: 0.9831499457359314
","x: 294.9664001464844
y: 487.83160400390625
z: 0.03831766918301582
visibility: 0.9902582764625549
","x: 299.675048828125
y: 488.0832214355469
z: 0.1599588841199875
visibility: 0.9170320630073547
","x: 294.6679382324219
y: 495.5787353515625
z: 0.042152561247348785
visibility: 0.8314886689186096
","x: 305.3402404785156
y: 503.4417419433594
z: 0.04189552366733551
visibility: 0.9803146719932556
","x: 296.50018310546875
y: 508.4416198730469
z: -0.07438647747039795
visibility: 0.9845348000526428
",4.521501541137695,,,,,,,,,,,,,,,,,,,,,,,,,,,,,,,,,,,,,,,,,,
5,"x: 307.9931335449219
y: 251.99546813964844
z: -0.20980258285999298
visibility: 0.9999139308929443
","x: 309.26031494140625
y: 248.11642456054688
z: -0.19831426441669464
visibility: 0.9997653365135193
","x: 310.23370361328125
y: 248.38522338867188
z: -0.19828760623931885
visibility: 0.9997383952140808
","x: 311.2315368652344
y: 248.68141174316406
z: -0.1983109414577484
visibility: 0.9997725486755371
","x: 306.23980712890625
y: 247.79653930664062
z: -0.1994227170944214
visibility: 0.999760627746582
","x: 304.9713439941406
y: 247.7841796875
z: -0.1994902789592743
visibility: 0.9997481107711792
","x: 303.66436767578125
y: 247.79324340820312
z: -0.1995232254266739
visibility: 0.999752938747406
","x: 313.09234619140625
y: 252.24302673339844
z: -0.11626003682613373
visibility: 0.9995683431625366
","x: 300.85430908203125
y: 251.0947265625
z: -0.12346205860376358
visibility: 0.9994805455207825
","x: 309.6185607910156
y: 258.7665710449219
z: -0.17818255722522736
visibility: 0.9998589754104614
","x: 305.78778076171875
y: 258.1263427734375
z: -0.180396169424057
visibility: 0.9998608231544495
","x: 322.05999755859375
y: 284.14892578125
z: -0.05188436061143875
visibility: 0.9999233484268188
","x: 291.4109191894531
y: 282.42730712890625
z: -0.05542100593447685
visibility: 0.9993810653686523
","x: 339.9530944824219
y: 299.8041687011719
z: -0.018349291756749153
visibility: 0.9769993424415588
","x: 274.4707946777344
y: 297.4686584472656
z: -0.04486102983355522
visibility: 0.9422103762626648
","x: 329.61199951171875
y: 324.4079895019531
z: -0.06869162619113922
visibility: 0.9652956128120422
","x: 280.57403564453125
y: 318.07879638671875
z: -0.11519576609134674
visibility: 0.8140467405319214
","x: 325.8327331542969
y: 331.0731506347656
z: -0.08739837259054184
visibility: 0.9208171963691711
","x: 279.83770751953125
y: 323.7098693847656
z: -0.1355891078710556
visibility: 0.7389958500862122
","x: 323.25323486328125
y: 328.75933837890625
z: -0.09799440205097198
visibility: 0.928997814655304
","x: 283.2228698730469
y: 319.6510925292969
z: -0.1437583863735199
visibility: 0.7443000674247742
","x: 323.85394287109375
y: 326.5390319824219
z: -0.07268763333559036
visibility: 0.9123523235321045
","x: 283.9664306640625
y: 317.76788330078125
z: -0.11982662975788116
visibility: 0.6938340663909912
","x: 314.27691650390625
y: 362.6936340332031
z: 0.01090823020786047
visibility: 0.9991183876991272
","x: 295.3511962890625
y: 362.4555969238281
z: -0.010925001464784145
visibility: 0.9991670846939087
","x: 308.9473571777344
y: 428.9447326660156
z: -0.004612439312040806
visibility: 0.9838962554931641
","x: 297.817626953125
y: 428.5796813964844
z: -0.051610201597213745
visibility: 0.9902798533439636
","x: 301.8426513671875
y: 482.2309875488281
z: 0.15643294155597687
visibility: 0.9831499457359314
","x: 294.9664001464844
y: 487.83160400390625
z: 0.03831766918301582
visibility: 0.9902582764625549
","x: 299.675048828125
y: 488.0832214355469
z: 0.1599588841199875
visibility: 0.9170320630073547
","x: 294.6679382324219
y: 495.5787353515625
z: 0.042152561247348785
visibility: 0.8314886689186096
","x: 305.3402404785156
y: 503.4417419433594
z: 0.04189552366733551
visibility: 0.9803146719932556
","x: 296.50018310546875
y: 508.4416198730469
z: -0.07438647747039795
visibility: 0.9845348000526428
",4.521501541137695,,,,,,,,,,,,,,,,,,,,,,,,,,,,,,,,,,,,,,,,,,
6,"x: 307.97021484375
y: 251.66543579101562
z: -0.17029409110546112
visibility: 0.9998739957809448
","x: 309.3261413574219
y: 247.7287139892578
z: -0.15847238898277283
visibility: 0.9996570348739624
","x: 310.2821044921875
y: 247.98541259765625
z: -0.15845701098442078
visibility: 0.9996004700660706
","x: 311.27935791015625
y: 248.26852416992188
z: -0.15847739577293396
visibility: 0.9996590614318848
","x: 306.2947692871094
y: 247.4740753173828
z: -0.16005262732505798
visibility: 0.9996747970581055
","x: 305.02764892578125
y: 247.50619506835938
z: -0.16010382771492004
visibility: 0.9996518492698669
","x: 303.7073974609375
y: 247.59169006347656
z: -0.16013318300247192
visibility: 0.9996898174285889
","x: 313.154541015625
y: 251.89279174804688
z: -0.07740746438503265
visibility: 0.9993512034416199
","x: 301.1460876464844
y: 251.04306030273438
z: -0.0866926982998848
visibility: 0.9993475675582886
","x: 309.6056213378906
y: 258.37628173828125
z: -0.13900664448738098
visibility: 0.9997876882553101
","x: 305.7305603027344
y: 257.93280029296875
z: -0.14167189598083496
visibility: 0.9998090267181396
","x: 322.14715576171875
y: 283.2912902832031
z: -0.01950153149664402
visibility: 0.9999045133590698
","x: 291.555908203125
y: 280.68994140625
z: -0.026229828596115112
visibility: 0.999393105506897
","x: 339.4161376953125
y: 297.6852722167969
z: 0.0028383308090269566
visibility: 0.9766279458999634
","x: 273.8357849121094
y: 292.6492614746094
z: -0.009791804477572441
visibility: 0.9456771016120911
","x: 329.09515380859375
y: 323.33984375
z: -0.06928516924381256
visibility: 0.9614611268043518
","x: 281.6305847167969
y: 315.1705627441406
z: -0.07343374192714691
visibility: 0.8223329782485962
","x: 325.58282470703125
y: 329.4961242675781
z: -0.09136597067117691
visibility: 0.9121384024620056
","x: 280.8571472167969
y: 320.9942321777344
z: -0.09272631257772446
visibility: 0.7455223798751831
","x: 323.14654541015625
y: 327.7630310058594
z: -0.10525748878717422
visibility: 0.9200461506843567
","x: 284.4740905761719
y: 318.0023498535156
z: -0.10304678976535797
visibility: 0.7506881356239319
","x: 323.8448181152344
y: 325.5334167480469
z: -0.0755230039358139
visibility: 0.9018403887748718
","x: 285.0545349121094
y: 315.2767333984375
z: -0.07820764183998108
visibility: 0.7024720311164856
","x: 313.6243896484375
y: 360.9630126953125
z: 0.010753887705504894
visibility: 0.9989330172538757
","x: 294.8496398925781
y: 359.41351318359375
z: -0.010751552879810333
visibility: 0.9990520477294922
","x: 308.3992919921875
y: 428.299072265625
z: -0.01532716304063797
visibility: 0.9804508686065674
","x: 296.36224365234375
y: 427.0016784667969
z: -0.047280460596084595
visibility: 0.9889774322509766
","x: 301.4090576171875
y: 481.667724609375
z: 0.10661246627569199
visibility: 0.97947758436203
","x: 292.7650146484375
y: 485.1623840332031
z: 0.04390665143728256
visibility: 0.9888286590576172
","x: 298.8806457519531
y: 487.28582763671875
z: 0.10935231298208237
visibility: 0.9067564606666565
","x: 292.31689453125
y: 492.23504638671875
z: 0.04777846857905388
visibility: 0.8256267309188843
","x: 306.3074951171875
y: 502.58160400390625
z: 0.03668767958879471
visibility: 0.9763695001602173
","x: 291.3863830566406
y: 507.2406005859375
z: -0.0666591078042984
visibility: 0.9823650121688843
",4.627668142318726,,,,,,,,,,,,,,,,,,,,,,,,,,,,,,,,,,,,,,,,,,
7,"x: 307.97021484375
y: 251.66543579101562
z: -0.17029409110546112
visibility: 0.9998739957809448
","x: 309.3261413574219
y: 247.7287139892578
z: -0.15847238898277283
visibility: 0.9996570348739624
","x: 310.2821044921875
y: 247.98541259765625
z: -0.15845701098442078
visibility: 0.9996004700660706
","x: 311.27935791015625
y: 248.26852416992188
z: -0.15847739577293396
visibility: 0.9996590614318848
","x: 306.2947692871094
y: 247.4740753173828
z: -0.16005262732505798
visibility: 0.9996747970581055
","x: 305.02764892578125
y: 247.50619506835938
z: -0.16010382771492004
visibility: 0.9996518492698669
","x: 303.7073974609375
y: 247.59169006347656
z: -0.16013318300247192
visibility: 0.9996898174285889
","x: 313.154541015625
y: 251.89279174804688
z: -0.07740746438503265
visibility: 0.9993512034416199
","x: 301.1460876464844
y: 251.04306030273438
z: -0.0866926982998848
visibility: 0.9993475675582886
","x: 309.6056213378906
y: 258.37628173828125
z: -0.13900664448738098
visibility: 0.9997876882553101
","x: 305.7305603027344
y: 257.93280029296875
z: -0.14167189598083496
visibility: 0.9998090267181396
","x: 322.14715576171875
y: 283.2912902832031
z: -0.01950153149664402
visibility: 0.9999045133590698
","x: 291.555908203125
y: 280.68994140625
z: -0.026229828596115112
visibility: 0.999393105506897
","x: 339.4161376953125
y: 297.6852722167969
z: 0.0028383308090269566
visibility: 0.9766279458999634
","x: 273.8357849121094
y: 292.6492614746094
z: -0.009791804477572441
visibility: 0.9456771016120911
","x: 329.09515380859375
y: 323.33984375
z: -0.06928516924381256
visibility: 0.9614611268043518
","x: 281.6305847167969
y: 315.1705627441406
z: -0.07343374192714691
visibility: 0.8223329782485962
","x: 325.58282470703125
y: 329.4961242675781
z: -0.09136597067117691
visibility: 0.9121384024620056
","x: 280.8571472167969
y: 320.9942321777344
z: -0.09272631257772446
visibility: 0.7455223798751831
","x: 323.14654541015625
y: 327.7630310058594
z: -0.10525748878717422
visibility: 0.9200461506843567
","x: 284.4740905761719
y: 318.0023498535156
z: -0.10304678976535797
visibility: 0.7506881356239319
","x: 323.8448181152344
y: 325.5334167480469
z: -0.0755230039358139
visibility: 0.9018403887748718
","x: 285.0545349121094
y: 315.2767333984375
z: -0.07820764183998108
visibility: 0.7024720311164856
","x: 313.6243896484375
y: 360.9630126953125
z: 0.010753887705504894
visibility: 0.9989330172538757
","x: 294.8496398925781
y: 359.41351318359375
z: -0.010751552879810333
visibility: 0.9990520477294922
","x: 308.3992919921875
y: 428.299072265625
z: -0.01532716304063797
visibility: 0.9804508686065674
","x: 296.36224365234375
y: 427.0016784667969
z: -0.047280460596084595
visibility: 0.9889774322509766
","x: 301.4090576171875
y: 481.667724609375
z: 0.10661246627569199
visibility: 0.97947758436203
","x: 292.7650146484375
y: 485.1623840332031
z: 0.04390665143728256
visibility: 0.9888286590576172
","x: 298.8806457519531
y: 487.28582763671875
z: 0.10935231298208237
visibility: 0.9067564606666565
","x: 292.31689453125
y: 492.23504638671875
z: 0.04777846857905388
visibility: 0.8256267309188843
","x: 306.3074951171875
y: 502.58160400390625
z: 0.03668767958879471
visibility: 0.9763695001602173
","x: 291.3863830566406
y: 507.2406005859375
z: -0.0666591078042984
visibility: 0.9823650121688843
",4.627668142318726,,,,,,,,,,,,,,,,,,,,,,,,,,,,,,,,,,,,,,,,,,
8,"x: 307.9560241699219
y: 254.17442321777344
z: -0.14808420836925507
visibility: 0.9998103380203247
","x: 309.30535888671875
y: 249.88153076171875
z: -0.13240911066532135
visibility: 0.9995182752609253
","x: 310.2582092285156
y: 250.1417694091797
z: -0.13244232535362244
visibility: 0.9994375705718994
","x: 311.2611999511719
y: 250.38424682617188
z: -0.13247382640838623
visibility: 0.9995216131210327
","x: 306.26873779296875
y: 249.31626892089844
z: -0.1359667032957077
visibility: 0.9995469450950623
","x: 305.0085754394531
y: 249.2131805419922
z: -0.13598689436912537
visibility: 0.9995142817497253
","x: 303.69989013671875
y: 249.13931274414062
z: -0.13599583506584167
visibility: 0.9995719790458679
","x: 313.0379638671875
y: 253.44886779785156
z: -0.04428105056285858
visibility: 0.9990792870521545
","x: 300.94580078125
y: 252.11123657226562
z: -0.06257344782352448
visibility: 0.9990285634994507
","x: 309.5367126464844
y: 260.84033203125
z: -0.11571033298969269
visibility: 0.9996796250343323
","x: 305.522705078125
y: 260.26751708984375
z: -0.12099488824605942
visibility: 0.9997040033340454
","x: 321.1513366699219
y: 283.83453369140625
z: -0.0044717020355165005
visibility: 0.9998782277107239
","x: 289.0712890625
y: 281.32379150390625
z: -0.013973571360111237
visibility: 0.9992995262145996
","x: 336.1015930175781
y: 301.78289794921875
z: -0.015366542153060436
visibility: 0.9754558205604553
","x: 273.8636779785156
y: 298.5995788574219
z: -0.06311899423599243
visibility: 0.9471338987350464
","x: 329.0831604003906
y: 321.9564208984375
z: -0.13219699263572693
visibility: 0.9584165811538696
","x: 277.37408447265625
y: 312.71673583984375
z: -0.20475170016288757
visibility: 0.830284059047699
","x: 327.0111999511719
y: 329.34698486328125
z: -0.1621531993150711
visibility: 0.9061554670333862
","x: 277.4393310546875
y: 314.29266357421875
z: -0.23872153460979462
visibility: 0.7542282342910767
","x: 324.34979248046875
y: 328.3979797363281
z: -0.17431899905204773
visibility: 0.9142512679100037
","x: 279.19573974609375
y: 307.9830017089844
z: -0.24623985588550568
visibility: 0.7593446373939514
","x: 324.7906188964844
y: 324.2329406738281
z: -0.13971194624900818
visibility: 0.8947036266326904
","x: 279.5810546875
y: 307.6923522949219
z: -0.21193821728229523
visibility: 0.7126577496528625
","x: 312.341796875
y: 362.2483825683594
z: 0.008853691630065441
visibility: 0.9988687634468079
","x: 292.73638916015625
y: 360.7572937011719
z: -0.008811072446405888
visibility: 0.998966634273529
","x: 306.51129150390625
y: 428.3154296875
z: -0.0067876726388931274
visibility: 0.9804567098617554
","x: 292.21099853515625
y: 427.1480712890625
z: -0.03668536618351936
visibility: 0.9886796474456787
","x: 301.0520324707031
y: 481.7829895019531
z: 0.10127083957195282
visibility: 0.979256272315979
","x: 287.5828857421875
y: 485.0352478027344
z: 0.04680334031581879
visibility: 0.9883704781532288
","x: 297.9148254394531
y: 487.9330749511719
z: 0.10347648710012436
visibility: 0.9053643941879272
","x: 287.2673645019531
y: 492.4106140136719
z: 0.04848472774028778
visibility: 0.8228988647460938
","x: 306.17950439453125
y: 501.9604187011719
z: 0.029178474098443985
visibility: 0.9760472774505615
","x: 287.2133483886719
y: 503.296875
z: -0.04404153302311897
visibility: 0.9817383885383606
",4.76648473739624,"x: 280.5805358886719
y: 319.0762023925781
z: 0.0
","x: 278.8795166015625
y: 315.98138427734375
z: -0.0018151531694456935
","x: 277.55413818359375
y: 312.14239501953125
z: -0.004086150787770748
","x: 276.5067138671875
y: 309.24859619140625
z: -0.006302347872406244
","x: 275.5914306640625
y: 307.12493896484375
z: -0.008200814947485924
","x: 281.4360656738281
y: 307.1532897949219
z: -0.0033948004711419344
","x: 279.1360168457031
y: 305.6835632324219
z: -0.006186951883137226
","x: 277.4125671386719
y: 306.2920837402344
z: -0.007583065424114466
","x: 276.4695129394531
y: 306.847412109375
z: -0.008291127160191536
","x: 282.2538146972656
y: 308.65289306640625
z: -0.004155352711677551
","x: 279.0437316894531
y: 307.024169921875
z: -0.0067969742231070995
","x: 277.41033935546875
y: 307.8208923339844
z: -0.007168988697230816
","x: 276.81878662109375
y: 308.4305114746094
z: -0.007385179400444031
","x: 282.3976135253906
y: 311.1513977050781
z: -0.005162431392818689
","x: 278.79864501953125
y: 310.3961486816406
z: -0.0072607980109751225
","x: 277.7759704589844
y: 311.3005676269531
z: -0.0068701510317623615
","x: 277.7048034667969
y: 311.70013427734375
z: -0.006533230189234018
","x: 282.1428527832031
y: 314.22967529296875
z: -0.006415588315576315
","x: 279.2505187988281
y: 314.12994384765625
z: -0.007483046501874924
","x: 278.5182189941406
y: 314.8122863769531
z: -0.007128009106963873
","x: 278.7380065917969
y: 315.22222900390625
z: -0.006848951801657677
",,,,,,,,,,,,,,,,,,,,,
9,"x: 307.9560241699219
y: 254.17442321777344
z: -0.14808420836925507
visibility: 0.9998103380203247
","x: 309.30535888671875
y: 249.88153076171875
z: -0.13240911066532135
visibility: 0.9995182752609253
","x: 310.2582092285156
y: 250.1417694091797
z: -0.13244232535362244
visibility: 0.9994375705718994
","x: 311.2611999511719
y: 250.38424682617188
z: -0.13247382640838623
visibility: 0.9995216131210327
","x: 306.26873779296875
y: 249.31626892089844
z: -0.1359667032957077
visibility: 0.9995469450950623
","x: 305.0085754394531
y: 249.2131805419922
z: -0.13598689436912537
visibility: 0.9995142817497253
","x: 303.69989013671875
y: 249.13931274414062
z: -0.13599583506584167
visibility: 0.9995719790458679
","x: 313.0379638671875
y: 253.44886779785156
z: -0.04428105056285858
visibility: 0.9990792870521545
","x: 300.94580078125
y: 252.11123657226562
z: -0.06257344782352448
visibility: 0.9990285634994507
","x: 309.5367126464844
y: 260.84033203125
z: -0.11571033298969269
visibility: 0.9996796250343323
","x: 305.522705078125
y: 260.26751708984375
z: -0.12099488824605942
visibility: 0.9997040033340454
","x: 321.1513366699219
y: 283.83453369140625
z: -0.0044717020355165005
visibility: 0.9998782277107239
","x: 289.0712890625
y: 281.32379150390625
z: -0.013973571360111237
visibility: 0.9992995262145996
","x: 336.1015930175781
y: 301.78289794921875
z: -0.015366542153060436
visibility: 0.9754558205604553
","x: 273.8636779785156
y: 298.5995788574219
z: -0.06311899423599243
visibility: 0.9471338987350464
","x: 329.0831604003906
y: 321.9564208984375
z: -0.13219699263572693
visibility: 0.9584165811538696
","x: 277.37408447265625
y: 312.71673583984375
z: -0.20475170016288757
visibility: 0.830284059047699
","x: 327.0111999511719
y: 329.34698486328125
z: -0.1621531993150711
visibility: 0.9061554670333862
","x: 277.4393310546875
y: 314.29266357421875
z: -0.23872153460979462
visibility: 0.7542282342910767
","x: 324.34979248046875
y: 328.3979797363281
z: -0.17431899905204773
visibility: 0.9142512679100037
","x: 279.19573974609375
y: 307.9830017089844
z: -0.24623985588550568
visibility: 0.7593446373939514
","x: 324.7906188964844
y: 324.2329406738281
z: -0.13971194624900818
visibility: 0.8947036266326904
","x: 279.5810546875
y: 307.6923522949219
z: -0.21193821728229523
visibility: 0.7126577496528625
","x: 312.341796875
y: 362.2483825683594
z: 0.008853691630065441
visibility: 0.9988687634468079
","x: 292.73638916015625
y: 360.7572937011719
z: -0.008811072446405888
visibility: 0.998966634273529
","x: 306.51129150390625
y: 428.3154296875
z: -0.0067876726388931274
visibility: 0.9804567098617554
","x: 292.21099853515625
y: 427.1480712890625
z: -0.03668536618351936
visibility: 0.9886796474456787
","x: 301.0520324707031
y: 481.7829895019531
z: 0.10127083957195282
visibility: 0.979256272315979
","x: 287.5828857421875
y: 485.0352478027344
z: 0.04680334031581879
visibility: 0.9883704781532288
","x: 297.9148254394531
y: 487.9330749511719
z: 0.10347648710012436
visibility: 0.9053643941879272
","x: 287.2673645019531
y: 492.4106140136719
z: 0.04848472774028778
visibility: 0.8228988647460938
","x: 306.17950439453125
y: 501.9604187011719
z: 0.029178474098443985
visibility: 0.9760472774505615
","x: 287.2133483886719
y: 503.296875
z: -0.04404153302311897
visibility: 0.9817383885383606
",4.76648473739624,"x: 280.5805358886719
y: 319.0762023925781
z: 0.0
","x: 278.8795166015625
y: 315.98138427734375
z: -0.0018151531694456935
","x: 277.55413818359375
y: 312.14239501953125
z: -0.004086150787770748
","x: 276.5067138671875
y: 309.24859619140625
z: -0.006302347872406244
","x: 275.5914306640625
y: 307.12493896484375
z: -0.008200814947485924
","x: 281.4360656738281
y: 307.1532897949219
z: -0.0033948004711419344
","x: 279.1360168457031
y: 305.6835632324219
z: -0.006186951883137226
","x: 277.4125671386719
y: 306.2920837402344
z: -0.007583065424114466
","x: 276.4695129394531
y: 306.847412109375
z: -0.008291127160191536
","x: 282.2538146972656
y: 308.65289306640625
z: -0.004155352711677551
","x: 279.0437316894531
y: 307.024169921875
z: -0.0067969742231070995
","x: 277.41033935546875
y: 307.8208923339844
z: -0.007168988697230816
","x: 276.81878662109375
y: 308.4305114746094
z: -0.007385179400444031
","x: 282.3976135253906
y: 311.1513977050781
z: -0.005162431392818689
","x: 278.79864501953125
y: 310.3961486816406
z: -0.0072607980109751225
","x: 277.7759704589844
y: 311.3005676269531
z: -0.0068701510317623615
","x: 277.7048034667969
y: 311.70013427734375
z: -0.006533230189234018
","x: 282.1428527832031
y: 314.22967529296875
z: -0.006415588315576315
","x: 279.2505187988281
y: 314.12994384765625
z: -0.007483046501874924
","x: 278.5182189941406
y: 314.8122863769531
z: -0.007128009106963873
","x: 278.7380065917969
y: 315.22222900390625
z: -0.006848951801657677
",,,,,,,,,,,,,,,,,,,,,
10,"x: 307.9560241699219
y: 254.17442321777344
z: -0.14808420836925507
visibility: 0.9998103380203247
","x: 309.30535888671875
y: 249.88153076171875
z: -0.13240911066532135
visibility: 0.9995182752609253
","x: 310.2582092285156
y: 250.1417694091797
z: -0.13244232535362244
visibility: 0.9994375705718994
","x: 311.2611999511719
y: 250.38424682617188
z: -0.13247382640838623
visibility: 0.9995216131210327
","x: 306.26873779296875
y: 249.31626892089844
z: -0.1359667032957077
visibility: 0.9995469450950623
","x: 305.0085754394531
y: 249.2131805419922
z: -0.13598689436912537
visibility: 0.9995142817497253
","x: 303.69989013671875
y: 249.13931274414062
z: -0.13599583506584167
visibility: 0.9995719790458679
","x: 313.0379638671875
y: 253.44886779785156
z: -0.04428105056285858
visibility: 0.9990792870521545
","x: 300.94580078125
y: 252.11123657226562
z: -0.06257344782352448
visibility: 0.9990285634994507
","x: 309.5367126464844
y: 260.84033203125
z: -0.11571033298969269
visibility: 0.9996796250343323
","x: 305.522705078125
y: 260.26751708984375
z: -0.12099488824605942
visibility: 0.9997040033340454
","x: 321.1513366699219
y: 283.83453369140625
z: -0.0044717020355165005
visibility: 0.9998782277107239
","x: 289.0712890625
y: 281.32379150390625
z: -0.013973571360111237
visibility: 0.9992995262145996
","x: 336.1015930175781
y: 301.78289794921875
z: -0.015366542153060436
visibility: 0.9754558205604553
","x: 273.8636779785156
y: 298.5995788574219
z: -0.06311899423599243
visibility: 0.9471338987350464
","x: 329.0831604003906
y: 321.9564208984375
z: -0.13219699263572693
visibility: 0.9584165811538696
","x: 277.37408447265625
y: 312.71673583984375
z: -0.20475170016288757
visibility: 0.830284059047699
","x: 327.0111999511719
y: 329.34698486328125
z: -0.1621531993150711
visibility: 0.9061554670333862
","x: 277.4393310546875
y: 314.29266357421875
z: -0.23872153460979462
visibility: 0.7542282342910767
","x: 324.34979248046875
y: 328.3979797363281
z: -0.17431899905204773
visibility: 0.9142512679100037
","x: 279.19573974609375
y: 307.9830017089844
z: -0.24623985588550568
visibility: 0.7593446373939514
","x: 324.7906188964844
y: 324.2329406738281
z: -0.13971194624900818
visibility: 0.8947036266326904
","x: 279.5810546875
y: 307.6923522949219
z: -0.21193821728229523
visibility: 0.7126577496528625
","x: 312.341796875
y: 362.2483825683594
z: 0.008853691630065441
visibility: 0.9988687634468079
","x: 292.73638916015625
y: 360.7572937011719
z: -0.008811072446405888
visibility: 0.998966634273529
","x: 306.51129150390625
y: 428.3154296875
z: -0.0067876726388931274
visibility: 0.9804567098617554
","x: 292.21099853515625
y: 427.1480712890625
z: -0.03668536618351936
visibility: 0.9886796474456787
","x: 301.0520324707031
y: 481.7829895019531
z: 0.10127083957195282
visibility: 0.979256272315979
","x: 287.5828857421875
y: 485.0352478027344
z: 0.04680334031581879
visibility: 0.9883704781532288
","x: 297.9148254394531
y: 487.9330749511719
z: 0.10347648710012436
visibility: 0.9053643941879272
","x: 287.2673645019531
y: 492.4106140136719
z: 0.04848472774028778
visibility: 0.8228988647460938
","x: 306.17950439453125
y: 501.9604187011719
z: 0.029178474098443985
visibility: 0.9760472774505615
","x: 287.2133483886719
y: 503.296875
z: -0.04404153302311897
visibility: 0.9817383885383606
",4.76648473739624,"x: 280.5805358886719
y: 319.0762023925781
z: 0.0
","x: 278.8795166015625
y: 315.98138427734375
z: -0.0018151531694456935
","x: 277.55413818359375
y: 312.14239501953125
z: -0.004086150787770748
","x: 276.5067138671875
y: 309.24859619140625
z: -0.006302347872406244
","x: 275.5914306640625
y: 307.12493896484375
z: -0.008200814947485924
","x: 281.4360656738281
y: 307.1532897949219
z: -0.0033948004711419344
","x: 279.1360168457031
y: 305.6835632324219
z: -0.006186951883137226
","x: 277.4125671386719
y: 306.2920837402344
z: -0.007583065424114466
","x: 276.4695129394531
y: 306.847412109375
z: -0.008291127160191536
","x: 282.2538146972656
y: 308.65289306640625
z: -0.004155352711677551
","x: 279.0437316894531
y: 307.024169921875
z: -0.0067969742231070995
","x: 277.41033935546875
y: 307.8208923339844
z: -0.007168988697230816
","x: 276.81878662109375
y: 308.4305114746094
z: -0.007385179400444031
","x: 282.3976135253906
y: 311.1513977050781
z: -0.005162431392818689
","x: 278.79864501953125
y: 310.3961486816406
z: -0.0072607980109751225
","x: 277.7759704589844
y: 311.3005676269531
z: -0.0068701510317623615
","x: 277.7048034667969
y: 311.70013427734375
z: -0.006533230189234018
","x: 282.1428527832031
y: 314.22967529296875
z: -0.006415588315576315
","x: 279.2505187988281
y: 314.12994384765625
z: -0.007483046501874924
","x: 278.5182189941406
y: 314.8122863769531
z: -0.007128009106963873
","x: 278.7380065917969
y: 315.22222900390625
z: -0.006848951801657677
",,,,,,,,,,,,,,,,,,,,,
11,"x: 305.6235046386719
y: 255.16046142578125
z: -0.11032923310995102
visibility: 0.9997967481613159
","x: 307.3228454589844
y: 250.59007263183594
z: -0.09433434158563614
visibility: 0.9995198249816895
","x: 308.39251708984375
y: 250.70596313476562
z: -0.09437986463308334
visibility: 0.9994380474090576
","x: 309.4618835449219
y: 250.84414672851562
z: -0.09441614151000977
visibility: 0.999525785446167
","x: 303.94976806640625
y: 250.33506774902344
z: -0.09567522257566452
visibility: 0.9995335936546326
","x: 302.79266357421875
y: 250.27845764160156
z: -0.09567268937826157
visibility: 0.9994871020317078
","x: 301.6470642089844
y: 250.23536682128906
z: -0.0956728383898735
visibility: 0.9995477199554443
","x: 310.89959716796875
y: 253.7711181640625
z: -0.0036448861937969923
visibility: 0.9990878701210022
","x: 299.6236572265625
y: 253.06280517578125
z: -0.011397117748856544
visibility: 0.9989666938781738
","x: 307.3240661621094
y: 261.4870300292969
z: -0.07696541398763657
visibility: 0.9996587634086609
","x: 303.1241149902344
y: 261.1620788574219
z: -0.0792260617017746
visibility: 0.9996710419654846
","x: 319.156005859375
y: 285.31884765625
z: 0.032101329416036606
visibility: 0.9998549818992615
","x: 288.9524230957031
y: 283.44293212890625
z: 0.026943732053041458
visibility: 0.999148428440094
","x: 328.28375244140625
y: 303.69287109375
z: -0.02009597048163414
visibility: 0.970058262348175
","x: 274.7419738769531
y: 301.0269470214844
z: -0.04661950469017029
visibility: 0.9413583874702454
","x: 325.394287109375
y: 319.35955810546875
z: -0.16385546326637268
visibility: 0.9513720273971558
","x: 278.38677978515625
y: 311.48138427734375
z: -0.20445311069488525
visibility: 0.8242608904838562
","x: 326.00299072265625
y: 323.1658935546875
z: -0.19948218762874603
visibility: 0.89668869972229
","x: 279.88238525390625
y: 314.3509216308594
z: -0.23915907740592957
visibility: 0.7472527623176575
","x: 323.2225036621094
y: 321.9464111328125
z: -0.2106483429670334
visibility: 0.9049369692802429
","x: 281.3138427734375
y: 310.09063720703125
z: -0.24677959084510803
visibility: 0.7525768876075745
","x: 323.2685852050781
y: 319.811767578125
z: -0.17220944166183472
visibility: 0.8833698630332947
","x: 281.3243713378906
y: 309.3014831542969
z: -0.21182508766651154
visibility: 0.7066272497177124
","x: 311.0140686035156
y: 363.5877990722656
z: 0.007676353212445974
visibility: 0.9988756775856018
","x: 291.6065368652344
y: 361.5688781738281
z: -0.007593012414872646
visibility: 0.9989317059516907
","x: 306.67291259765625
y: 428.6220703125
z: -0.01330910436809063
visibility: 0.9804084897041321
","x: 290.6595458984375
y: 427.2628479003906
z: -0.028462301939725876
visibility: 0.9886252284049988
","x: 301.3058166503906
y: 481.88134765625
z: 0.1009826809167862
visibility: 0.9790804386138916
","x: 286.9431457519531
y: 485.3018798828125
z: 0.07635989040136337
visibility: 0.9882662296295166
","x: 297.51416015625
y: 488.1829833984375
z: 0.10361965745687485
visibility: 0.9059349298477173
","x: 287.14093017578125
y: 492.3065185546875
z: 0.08089328557252884
visibility: 0.8242453932762146
","x: 306.9411315917969
y: 502.0296630859375
z: 0.024049261584877968
visibility: 0.9757359623908997
","x: 285.9041442871094
y: 502.5394287109375
z: -0.01733020506799221
visibility: 0.9813492298126221
",4.893312454223633,,,,,,,,,,,,,,,,,,,,,,,,,,,,,,,,,,,,,,,,,,
12,"x: 305.6235046386719
y: 255.16046142578125
z: -0.11032923310995102
visibility: 0.9997967481613159
","x: 307.3228454589844
y: 250.59007263183594
z: -0.09433434158563614
visibility: 0.9995198249816895
","x: 308.39251708984375
y: 250.70596313476562
z: -0.09437986463308334
visibility: 0.9994380474090576
","x: 309.4618835449219
y: 250.84414672851562
z: -0.09441614151000977
visibility: 0.999525785446167
","x: 303.94976806640625
y: 250.33506774902344
z: -0.09567522257566452
visibility: 0.9995335936546326
","x: 302.79266357421875
y: 250.27845764160156
z: -0.09567268937826157
visibility: 0.9994871020317078
","x: 301.6470642089844
y: 250.23536682128906
z: -0.0956728383898735
visibility: 0.9995477199554443
","x: 310.89959716796875
y: 253.7711181640625
z: -0.0036448861937969923
visibility: 0.9990878701210022
","x: 299.6236572265625
y: 253.06280517578125
z: -0.011397117748856544
visibility: 0.9989666938781738
","x: 307.3240661621094
y: 261.4870300292969
z: -0.07696541398763657
visibility: 0.9996587634086609
","x: 303.1241149902344
y: 261.1620788574219
z: -0.0792260617017746
visibility: 0.9996710419654846
","x: 319.156005859375
y: 285.31884765625
z: 0.032101329416036606
visibility: 0.9998549818992615
","x: 288.9524230957031
y: 283.44293212890625
z: 0.026943732053041458
visibility: 0.999148428440094
","x: 328.28375244140625
y: 303.69287109375
z: -0.02009597048163414
visibility: 0.970058262348175
","x: 274.7419738769531
y: 301.0269470214844
z: -0.04661950469017029
visibility: 0.9413583874702454
","x: 325.394287109375
y: 319.35955810546875
z: -0.16385546326637268
visibility: 0.9513720273971558
","x: 278.38677978515625
y: 311.48138427734375
z: -0.20445311069488525
visibility: 0.8242608904838562
","x: 326.00299072265625
y: 323.1658935546875
z: -0.19948218762874603
visibility: 0.89668869972229
","x: 279.88238525390625
y: 314.3509216308594
z: -0.23915907740592957
visibility: 0.7472527623176575
","x: 323.2225036621094
y: 321.9464111328125
z: -0.2106483429670334
visibility: 0.9049369692802429
","x: 281.3138427734375
y: 310.09063720703125
z: -0.24677959084510803
visibility: 0.7525768876075745
","x: 323.2685852050781
y: 319.811767578125
z: -0.17220944166183472
visibility: 0.8833698630332947
","x: 281.3243713378906
y: 309.3014831542969
z: -0.21182508766651154
visibility: 0.7066272497177124
","x: 311.0140686035156
y: 363.5877990722656
z: 0.007676353212445974
visibility: 0.9988756775856018
","x: 291.6065368652344
y: 361.5688781738281
z: -0.007593012414872646
visibility: 0.9989317059516907
","x: 306.67291259765625
y: 428.6220703125
z: -0.01330910436809063
visibility: 0.9804084897041321
","x: 290.6595458984375
y: 427.2628479003906
z: -0.028462301939725876
visibility: 0.9886252284049988
","x: 301.3058166503906
y: 481.88134765625
z: 0.1009826809167862
visibility: 0.9790804386138916
","x: 286.9431457519531
y: 485.3018798828125
z: 0.07635989040136337
visibility: 0.9882662296295166
","x: 297.51416015625
y: 488.1829833984375
z: 0.10361965745687485
visibility: 0.9059349298477173
","x: 287.14093017578125
y: 492.3065185546875
z: 0.08089328557252884
visibility: 0.8242453932762146
","x: 306.9411315917969
y: 502.0296630859375
z: 0.024049261584877968
visibility: 0.9757359623908997
","x: 285.9041442871094
y: 502.5394287109375
z: -0.01733020506799221
visibility: 0.9813492298126221
",4.893312454223633,,,,,,,,,,,,,,,,,,,,,,,,,,,,,,,,,,,,,,,,,,
13,"x: 304.02764892578125
y: 254.25965881347656
z: -0.09418126195669174
visibility: 0.9997740387916565
","x: 305.52679443359375
y: 249.43991088867188
z: -0.07891605794429779
visibility: 0.9995136857032776
","x: 306.6129150390625
y: 249.49063110351562
z: -0.07895305752754211
visibility: 0.9994279742240906
","x: 307.6932067871094
y: 249.51292419433594
z: -0.07898949086666107
visibility: 0.9995182156562805
","x: 302.3523864746094
y: 249.0477752685547
z: -0.08051836490631104
visibility: 0.9995176196098328
","x: 301.27459716796875
y: 248.8873291015625
z: -0.08051629364490509
visibility: 0.999465823173523
","x: 300.250244140625
y: 248.66517639160156
z: -0.08051323145627975
visibility: 0.9995360970497131
","x: 308.8463134765625
y: 251.90118408203125
z: 0.009269045665860176
visibility: 0.9990924596786499
","x: 298.1373291015625
y: 251.333984375
z: 0.0008202326716855168
visibility: 0.9989635348320007
","x: 305.75433349609375
y: 259.853515625
z: -0.0612465962767601
visibility: 0.9996441006660461
","x: 301.6279602050781
y: 259.0948791503906
z: -0.06372961401939392
visibility: 0.9996598362922668
","x: 317.0312805175781
y: 281.7563171386719
z: 0.04735804349184036
visibility: 0.9998482465744019
","x: 288.0354309082031
y: 279.51318359375
z: 0.03924392908811569
visibility: 0.9991248846054077
","x: 326.2047424316406
y: 304.9581298828125
z: -0.020338110625743866
visibility: 0.9677761793136597
","x: 274.14349365234375
y: 301.6214904785156
z: -0.05065866559743881
visibility: 0.9435849785804749
","x: 320.9419860839844
y: 316.065185546875
z: -0.16669446229934692
visibility: 0.9499979019165039
","x: 279.10089111328125
y: 298.4359130859375
z: -0.21623928844928741
visibility: 0.8358509540557861
","x: 318.66778564453125
y: 319.7826843261719
z: -0.20227059721946716
visibility: 0.8948908448219299
","x: 281.7759094238281
y: 298.5308532714844
z: -0.25302600860595703
visibility: 0.7613791227340698
","x: 316.6934814453125
y: 316.0057373046875
z: -0.20767894387245178
visibility: 0.9024233222007751
","x: 283.7698059082031
y: 293.66552734375
z: -0.2535907030105591
visibility: 0.7659138441085815
","x: 317.0436096191406
y: 314.88507080078125
z: -0.17227676510810852
visibility: 0.8788043260574341
","x: 283.3477783203125
y: 294.3099060058594
z: -0.22032928466796875
visibility: 0.7207352519035339
","x: 310.0589599609375
y: 360.0997314453125
z: 0.0061385976150631905
visibility: 0.9988952875137329
","x: 290.3319396972656
y: 357.3506164550781
z: -0.006048711948096752
visibility: 0.9989255666732788
","x: 306.44842529296875
y: 426.43170166015625
z: -0.018738679587841034
visibility: 0.9808910489082336
","x: 289.434814453125
y: 425.1134948730469
z: -0.033543892204761505
visibility: 0.9885245561599731
","x: 302.72113037109375
y: 481.80548095703125
z: 0.08987371623516083
visibility: 0.9793283343315125
","x: 285.0527038574219
y: 484.0993957519531
z: 0.0586039237678051
visibility: 0.9880582690238953
","x: 299.63861083984375
y: 488.1320495605469
z: 0.09422595798969269
visibility: 0.9011498093605042
","x: 285.0781555175781
y: 491.98651123046875
z: 0.06213870644569397
visibility: 0.8205258846282959
","x: 306.0337829589844
y: 502.2109680175781
z: 0.00179401901550591
visibility: 0.9754976034164429
","x: 285.200439453125
y: 502.3220520019531
z: -0.03464532271027565
visibility: 0.9807438850402832
",5.035586357116699,,,,,,,,,,,,,,,,,,,,,,"x: 322.4990234375
y: 312.4128723144531
z: 0.0
","x: 319.9087829589844
y: 310.1700439453125
z: -0.0002330295101273805
","x: 317.21990966796875
y: 310.41082763671875
z: -0.00103264139033854
","x: 315.3177490234375
y: 312.2190246582031
z: -0.0018014039378613234
","x: 314.1610412597656
y: 314.19805908203125
z: -0.002479970222339034
","x: 317.270751953125
y: 312.4412841796875
z: -0.00293765589594841
","x: 314.4530029296875
y: 314.4194641113281
z: -0.004198230803012848
","x: 313.4208068847656
y: 315.1999206542969
z: -0.004118131473660469
","x: 313.1877136230469
y: 315.5785827636719
z: -0.0038368927780538797
","x: 318.0855407714844
y: 315.27978515625
z: -0.003550042863935232
","x: 314.9873352050781
y: 317.3307800292969
z: -0.0050104581750929356
","x: 314.19677734375
y: 317.4822692871094
z: -0.0044363318011164665
","x: 314.2588195800781
y: 317.1365966796875
z: -0.0037107914686203003
","x: 318.9749755859375
y: 317.93994140625
z: -0.004079768434166908
","x: 316.1035461425781
y: 319.95806884765625
z: -0.005293846130371094
","x: 315.3707275390625
y: 319.8218994140625
z: -0.004436958115547895
","x: 315.3246765136719
y: 319.32440185546875
z: -0.0036446363665163517
","x: 319.9416809082031
y: 320.24163818359375
z: -0.004626359324902296
","x: 317.8829650878906
y: 322.46771240234375
z: -0.005789812188595533
","x: 316.9146728515625
y: 322.9062194824219
z: -0.0055537149310112
","x: 316.3022766113281
y: 322.9848937988281
z: -0.005106479860842228
"
14,"x: 304.02764892578125
y: 254.25965881347656
z: -0.09418126195669174
visibility: 0.9997740387916565
","x: 305.52679443359375
y: 249.43991088867188
z: -0.07891605794429779
visibility: 0.9995136857032776
","x: 306.6129150390625
y: 249.49063110351562
z: -0.07895305752754211
visibility: 0.9994279742240906
","x: 307.6932067871094
y: 249.51292419433594
z: -0.07898949086666107
visibility: 0.9995182156562805
","x: 302.3523864746094
y: 249.0477752685547
z: -0.08051836490631104
visibility: 0.9995176196098328
","x: 301.27459716796875
y: 248.8873291015625
z: -0.08051629364490509
visibility: 0.999465823173523
","x: 300.250244140625
y: 248.66517639160156
z: -0.08051323145627975
visibility: 0.9995360970497131
","x: 308.8463134765625
y: 251.90118408203125
z: 0.009269045665860176
visibility: 0.9990924596786499
","x: 298.1373291015625
y: 251.333984375
z: 0.0008202326716855168
visibility: 0.9989635348320007
","x: 305.75433349609375
y: 259.853515625
z: -0.0612465962767601
visibility: 0.9996441006660461
","x: 301.6279602050781
y: 259.0948791503906
z: -0.06372961401939392
visibility: 0.9996598362922668
","x: 317.0312805175781
y: 281.7563171386719
z: 0.04735804349184036
visibility: 0.9998482465744019
","x: 288.0354309082031
y: 279.51318359375
z: 0.03924392908811569
visibility: 0.9991248846054077
","x: 326.2047424316406
y: 304.9581298828125
z: -0.020338110625743866
visibility: 0.9677761793136597
","x: 274.14349365234375
y: 301.6214904785156
z: -0.05065866559743881
visibility: 0.9435849785804749
","x: 320.9419860839844
y: 316.065185546875
z: -0.16669446229934692
visibility: 0.9499979019165039
","x: 279.10089111328125
y: 298.4359130859375
z: -0.21623928844928741
visibility: 0.8358509540557861
","x: 318.66778564453125
y: 319.7826843261719
z: -0.20227059721946716
visibility: 0.8948908448219299
","x: 281.7759094238281
y: 298.5308532714844
z: -0.25302600860595703
visibility: 0.7613791227340698
","x: 316.6934814453125
y: 316.0057373046875
z: -0.20767894387245178
visibility: 0.9024233222007751
","x: 283.7698059082031
y: 293.66552734375
z: -0.2535907030105591
visibility: 0.7659138441085815
","x: 317.0436096191406
y: 314.88507080078125
z: -0.17227676510810852
visibility: 0.8788043260574341
","x: 283.3477783203125
y: 294.3099060058594
z: -0.22032928466796875
visibility: 0.7207352519035339
","x: 310.0589599609375
y: 360.0997314453125
z: 0.0061385976150631905
visibility: 0.9988952875137329
","x: 290.3319396972656
y: 357.3506164550781
z: -0.006048711948096752
visibility: 0.9989255666732788
","x: 306.44842529296875
y: 426.43170166015625
z: -0.018738679587841034
visibility: 0.9808910489082336
","x: 289.434814453125
y: 425.1134948730469
z: -0.033543892204761505
visibility: 0.9885245561599731
","x: 302.72113037109375
y: 481.80548095703125
z: 0.08987371623516083
visibility: 0.9793283343315125
","x: 285.0527038574219
y: 484.0993957519531
z: 0.0586039237678051
visibility: 0.9880582690238953
","x: 299.63861083984375
y: 488.1320495605469
z: 0.09422595798969269
visibility: 0.9011498093605042
","x: 285.0781555175781
y: 491.98651123046875
z: 0.06213870644569397
visibility: 0.8205258846282959
","x: 306.0337829589844
y: 502.2109680175781
z: 0.00179401901550591
visibility: 0.9754976034164429
","x: 285.200439453125
y: 502.3220520019531
z: -0.03464532271027565
visibility: 0.9807438850402832
",5.035586357116699,,,,,,,,,,,,,,,,,,,,,,"x: 322.4990234375
y: 312.4128723144531
z: 0.0
","x: 319.9087829589844
y: 310.1700439453125
z: -0.0002330295101273805
","x: 317.21990966796875
y: 310.41082763671875
z: -0.00103264139033854
","x: 315.3177490234375
y: 312.2190246582031
z: -0.0018014039378613234
","x: 314.1610412597656
y: 314.19805908203125
z: -0.002479970222339034
","x: 317.270751953125
y: 312.4412841796875
z: -0.00293765589594841
","x: 314.4530029296875
y: 314.4194641113281
z: -0.004198230803012848
","x: 313.4208068847656
y: 315.1999206542969
z: -0.004118131473660469
","x: 313.1877136230469
y: 315.5785827636719
z: -0.0038368927780538797
","x: 318.0855407714844
y: 315.27978515625
z: -0.003550042863935232
","x: 314.9873352050781
y: 317.3307800292969
z: -0.0050104581750929356
","x: 314.19677734375
y: 317.4822692871094
z: -0.0044363318011164665
","x: 314.2588195800781
y: 317.1365966796875
z: -0.0037107914686203003
","x: 318.9749755859375
y: 317.93994140625
z: -0.004079768434166908
","x: 316.1035461425781
y: 319.95806884765625
z: -0.005293846130371094
","x: 315.3707275390625
y: 319.8218994140625
z: -0.004436958115547895
","x: 315.3246765136719
y: 319.32440185546875
z: -0.0036446363665163517
","x: 319.9416809082031
y: 320.24163818359375
z: -0.004626359324902296
","x: 317.8829650878906
y: 322.46771240234375
z: -0.005789812188595533
","x: 316.9146728515625
y: 322.9062194824219
z: -0.0055537149310112
","x: 316.3022766113281
y: 322.9848937988281
z: -0.005106479860842228
"
15,"x: 304.02764892578125
y: 254.25965881347656
z: -0.09418126195669174
visibility: 0.9997740387916565
","x: 305.52679443359375
y: 249.43991088867188
z: -0.07891605794429779
visibility: 0.9995136857032776
","x: 306.6129150390625
y: 249.49063110351562
z: -0.07895305752754211
visibility: 0.9994279742240906
","x: 307.6932067871094
y: 249.51292419433594
z: -0.07898949086666107
visibility: 0.9995182156562805
","x: 302.3523864746094
y: 249.0477752685547
z: -0.08051836490631104
visibility: 0.9995176196098328
","x: 301.27459716796875
y: 248.8873291015625
z: -0.08051629364490509
visibility: 0.999465823173523
","x: 300.250244140625
y: 248.66517639160156
z: -0.08051323145627975
visibility: 0.9995360970497131
","x: 308.8463134765625
y: 251.90118408203125
z: 0.009269045665860176
visibility: 0.9990924596786499
","x: 298.1373291015625
y: 251.333984375
z: 0.0008202326716855168
visibility: 0.9989635348320007
","x: 305.75433349609375
y: 259.853515625
z: -0.0612465962767601
visibility: 0.9996441006660461
","x: 301.6279602050781
y: 259.0948791503906
z: -0.06372961401939392
visibility: 0.9996598362922668
","x: 317.0312805175781
y: 281.7563171386719
z: 0.04735804349184036
visibility: 0.9998482465744019
","x: 288.0354309082031
y: 279.51318359375
z: 0.03924392908811569
visibility: 0.9991248846054077
","x: 326.2047424316406
y: 304.9581298828125
z: -0.020338110625743866
visibility: 0.9677761793136597
","x: 274.14349365234375
y: 301.6214904785156
z: -0.05065866559743881
visibility: 0.9435849785804749
","x: 320.9419860839844
y: 316.065185546875
z: -0.16669446229934692
visibility: 0.9499979019165039
","x: 279.10089111328125
y: 298.4359130859375
z: -0.21623928844928741
visibility: 0.8358509540557861
","x: 318.66778564453125
y: 319.7826843261719
z: -0.20227059721946716
visibility: 0.8948908448219299
","x: 281.7759094238281
y: 298.5308532714844
z: -0.25302600860595703
visibility: 0.7613791227340698
","x: 316.6934814453125
y: 316.0057373046875
z: -0.20767894387245178
visibility: 0.9024233222007751
","x: 283.7698059082031
y: 293.66552734375
z: -0.2535907030105591
visibility: 0.7659138441085815
","x: 317.0436096191406
y: 314.88507080078125
z: -0.17227676510810852
visibility: 0.8788043260574341
","x: 283.3477783203125
y: 294.3099060058594
z: -0.22032928466796875
visibility: 0.7207352519035339
","x: 310.0589599609375
y: 360.0997314453125
z: 0.0061385976150631905
visibility: 0.9988952875137329
","x: 290.3319396972656
y: 357.3506164550781
z: -0.006048711948096752
visibility: 0.9989255666732788
","x: 306.44842529296875
y: 426.43170166015625
z: -0.018738679587841034
visibility: 0.9808910489082336
","x: 289.434814453125
y: 425.1134948730469
z: -0.033543892204761505
visibility: 0.9885245561599731
","x: 302.72113037109375
y: 481.80548095703125
z: 0.08987371623516083
visibility: 0.9793283343315125
","x: 285.0527038574219
y: 484.0993957519531
z: 0.0586039237678051
visibility: 0.9880582690238953
","x: 299.63861083984375
y: 488.1320495605469
z: 0.09422595798969269
visibility: 0.9011498093605042
","x: 285.0781555175781
y: 491.98651123046875
z: 0.06213870644569397
visibility: 0.8205258846282959
","x: 306.0337829589844
y: 502.2109680175781
z: 0.00179401901550591
visibility: 0.9754976034164429
","x: 285.200439453125
y: 502.3220520019531
z: -0.03464532271027565
visibility: 0.9807438850402832
",5.035586357116699,,,,,,,,,,,,,,,,,,,,,,"x: 322.4990234375
y: 312.4128723144531
z: 0.0
","x: 319.9087829589844
y: 310.1700439453125
z: -0.0002330295101273805
","x: 317.21990966796875
y: 310.41082763671875
z: -0.00103264139033854
","x: 315.3177490234375
y: 312.2190246582031
z: -0.0018014039378613234
","x: 314.1610412597656
y: 314.19805908203125
z: -0.002479970222339034
","x: 317.270751953125
y: 312.4412841796875
z: -0.00293765589594841
","x: 314.4530029296875
y: 314.4194641113281
z: -0.004198230803012848
","x: 313.4208068847656
y: 315.1999206542969
z: -0.004118131473660469
","x: 313.1877136230469
y: 315.5785827636719
z: -0.0038368927780538797
","x: 318.0855407714844
y: 315.27978515625
z: -0.003550042863935232
","x: 314.9873352050781
y: 317.3307800292969
z: -0.0050104581750929356
","x: 314.19677734375
y: 317.4822692871094
z: -0.0044363318011164665
","x: 314.2588195800781
y: 317.1365966796875
z: -0.0037107914686203003
","x: 318.9749755859375
y: 317.93994140625
z: -0.004079768434166908
","x: 316.1035461425781
y: 319.95806884765625
z: -0.005293846130371094
","x: 315.3707275390625
y: 319.8218994140625
z: -0.004436958115547895
","x: 315.3246765136719
y: 319.32440185546875
z: -0.0036446363665163517
","x: 319.9416809082031
y: 320.24163818359375
z: -0.004626359324902296
","x: 317.8829650878906
y: 322.46771240234375
z: -0.005789812188595533
","x: 316.9146728515625
y: 322.9062194824219
z: -0.0055537149310112
","x: 316.3022766113281
y: 322.9848937988281
z: -0.005106479860842228
"
16,"x: 302.2945556640625
y: 259.9927062988281
z: -0.13036876916885376
visibility: 0.999762237071991
","x: 303.6819152832031
y: 254.7789764404297
z: -0.11607607454061508
visibility: 0.9994989037513733
","x: 304.79302978515625
y: 254.74752807617188
z: -0.11608854681253433
visibility: 0.9994201064109802
","x: 305.8627624511719
y: 254.70587158203125
z: -0.11611369997262955
visibility: 0.999506413936615
","x: 300.62139892578125
y: 254.911376953125
z: -0.11528730392456055
visibility: 0.9994897842407227
","x: 299.58154296875
y: 254.93902587890625
z: -0.11529294401407242
visibility: 0.9994365572929382
","x: 298.69158935546875
y: 254.86619567871094
z: -0.11527948081493378
visibility: 0.9995083212852478
","x: 307.004638671875
y: 257.029296875
z: -0.033377498388290405
visibility: 0.9991200566291809
","x: 296.7872314453125
y: 257.0444030761719
z: -0.030000310391187668
visibility: 0.9988622665405273
","x: 304.4322204589844
y: 266.06988525390625
z: -0.09955400228500366
visibility: 0.9996550679206848
","x: 300.058837890625
y: 265.8658142089844
z: -0.09867614507675171
visibility: 0.9996578097343445
","x: 316.5739440917969
y: 288.7483825683594
z: 0.007831146009266376
visibility: 0.9998553395271301
","x: 286.9779357910156
y: 288.972900390625
z: 0.023634696379303932
visibility: 0.9991143345832825
","x: 326.0893859863281
y: 322.584716796875
z: -0.04579363763332367
visibility: 0.9704176187515259
","x: 274.9842224121094
y: 326.1030578613281
z: -0.04902585595846176
visibility: 0.9451373815536499
","x: 313.7380065917969
y: 331.83819580078125
z: -0.16446346044540405
visibility: 0.9538653492927551
","x: 288.8637390136719
y: 307.3317565917969
z: -0.21136334538459778
visibility: 0.8491334319114685
","x: 310.1437683105469
y: 334.31793212890625
z: -0.1950986534357071
visibility: 0.902009129524231
","x: 292.5872497558594
y: 305.98138427734375
z: -0.24605154991149902
visibility: 0.7783759236335754
","x: 308.18365478515625
y: 318.53936767578125
z: -0.1988019496202469
visibility: 0.9086079001426697
","x: 293.4527282714844
y: 301.4184875488281
z: -0.2465444803237915
visibility: 0.7818086743354797
","x: 309.0094909667969
y: 316.76226806640625
z: -0.1672404259443283
visibility: 0.8852365612983704
","x: 292.5470886230469
y: 302.4241943359375
z: -0.2198520451784134
visibility: 0.7374494075775146
","x: 308.5793762207031
y: 366.97509765625
z: -0.006293307989835739
visibility: 0.9989000558853149
","x: 288.8667297363281
y: 364.7741394042969
z: 0.006369574461132288
visibility: 0.9989135265350342
","x: 304.46337890625
y: 429.64111328125
z: -0.01905178651213646
visibility: 0.982410192489624
","x: 288.2049865722656
y: 430.668701171875
z: -0.010632889345288277
visibility: 0.9891172647476196
","x: 304.166259765625
y: 481.7573547363281
z: 0.11938407272100449
visibility: 0.9806250333786011
","x: 285.1893310546875
y: 485.37213134765625
z: 0.11360602080821991
visibility: 0.9886955618858337
","x: 301.7425842285156
y: 487.3541564941406
z: 0.12906339764595032
visibility: 0.8971738219261169
","x: 286.19573974609375
y: 492.44183349609375
z: 0.12068527936935425
visibility: 0.8290708661079407
","x: 305.44970703125
y: 502.329833984375
z: 0.03604930266737938
visibility: 0.9765177965164185
","x: 283.4304504394531
y: 502.9791259765625
z: 0.02705453895032406
visibility: 0.9815634489059448
",5.178763389587402,,,,,,,,,,,,,,,,,,,,,,,,,,,,,,,,,,,,,,,,,,
17,"x: 302.2945556640625
y: 259.9927062988281
z: -0.13036876916885376
visibility: 0.999762237071991
","x: 303.6819152832031
y: 254.7789764404297
z: -0.11607607454061508
visibility: 0.9994989037513733
","x: 304.79302978515625
y: 254.74752807617188
z: -0.11608854681253433
visibility: 0.9994201064109802
","x: 305.8627624511719
y: 254.70587158203125
z: -0.11611369997262955
visibility: 0.999506413936615
","x: 300.62139892578125
y: 254.911376953125
z: -0.11528730392456055
visibility: 0.9994897842407227
","x: 299.58154296875
y: 254.93902587890625
z: -0.11529294401407242
visibility: 0.9994365572929382
","x: 298.69158935546875
y: 254.86619567871094
z: -0.11527948081493378
visibility: 0.9995083212852478
","x: 307.004638671875
y: 257.029296875
z: -0.033377498388290405
visibility: 0.9991200566291809
","x: 296.7872314453125
y: 257.0444030761719
z: -0.030000310391187668
visibility: 0.9988622665405273
","x: 304.4322204589844
y: 266.06988525390625
z: -0.09955400228500366
visibility: 0.9996550679206848
","x: 300.058837890625
y: 265.8658142089844
z: -0.09867614507675171
visibility: 0.9996578097343445
","x: 316.5739440917969
y: 288.7483825683594
z: 0.007831146009266376
visibility: 0.9998553395271301
","x: 286.9779357910156
y: 288.972900390625
z: 0.023634696379303932
visibility: 0.9991143345832825
","x: 326.0893859863281
y: 322.584716796875
z: -0.04579363763332367
visibility: 0.9704176187515259
","x: 274.9842224121094
y: 326.1030578613281
z: -0.04902585595846176
visibility: 0.9451373815536499
","x: 313.7380065917969
y: 331.83819580078125
z: -0.16446346044540405
visibility: 0.9538653492927551
","x: 288.8637390136719
y: 307.3317565917969
z: -0.21136334538459778
visibility: 0.8491334319114685
","x: 310.1437683105469
y: 334.31793212890625
z: -0.1950986534357071
visibility: 0.902009129524231
","x: 292.5872497558594
y: 305.98138427734375
z: -0.24605154991149902
visibility: 0.7783759236335754
","x: 308.18365478515625
y: 318.53936767578125
z: -0.1988019496202469
visibility: 0.9086079001426697
","x: 293.4527282714844
y: 301.4184875488281
z: -0.2465444803237915
visibility: 0.7818086743354797
","x: 309.0094909667969
y: 316.76226806640625
z: -0.1672404259443283
visibility: 0.8852365612983704
","x: 292.5470886230469
y: 302.4241943359375
z: -0.2198520451784134
visibility: 0.7374494075775146
","x: 308.5793762207031
y: 366.97509765625
z: -0.006293307989835739
visibility: 0.9989000558853149
","x: 288.8667297363281
y: 364.7741394042969
z: 0.006369574461132288
visibility: 0.9989135265350342
","x: 304.46337890625
y: 429.64111328125
z: -0.01905178651213646
visibility: 0.982410192489624
","x: 288.2049865722656
y: 430.668701171875
z: -0.010632889345288277
visibility: 0.9891172647476196
","x: 304.166259765625
y: 481.7573547363281
z: 0.11938407272100449
visibility: 0.9806250333786011
","x: 285.1893310546875
y: 485.37213134765625
z: 0.11360602080821991
visibility: 0.9886955618858337
","x: 301.7425842285156
y: 487.3541564941406
z: 0.12906339764595032
visibility: 0.8971738219261169
","x: 286.19573974609375
y: 492.44183349609375
z: 0.12068527936935425
visibility: 0.8290708661079407
","x: 305.44970703125
y: 502.329833984375
z: 0.03604930266737938
visibility: 0.9765177965164185
","x: 283.4304504394531
y: 502.9791259765625
z: 0.02705453895032406
visibility: 0.9815634489059448
",5.178763389587402,,,,,,,,,,,,,,,,,,,,,,,,,,,,,,,,,,,,,,,,,,
18,"x: 301.6654357910156
y: 261.10565185546875
z: -0.2663883566856384
visibility: 0.9997625350952148
","x: 302.6422424316406
y: 256.4554748535156
z: -0.2521565854549408
visibility: 0.999484121799469
","x: 303.5879211425781
y: 256.4981384277344
z: -0.2521313726902008
visibility: 0.9994245767593384
","x: 304.5467529296875
y: 256.54718017578125
z: -0.25214460492134094
visibility: 0.9995061159133911
","x: 299.7451171875
y: 256.643310546875
z: -0.2538108825683594
visibility: 0.9994462132453918
","x: 298.736083984375
y: 256.82196044921875
z: -0.2538582682609558
visibility: 0.9994040131568909
","x: 297.802490234375
y: 256.966064453125
z: -0.2539138197898865
visibility: 0.9994553327560425
","x: 305.0475158691406
y: 259.65570068359375
z: -0.16635696589946747
visibility: 0.9991271495819092
","x: 295.6828308105469
y: 260.5745544433594
z: -0.17334356904029846
visibility: 0.9986431002616882
","x: 303.5726318359375
y: 267.7747802734375
z: -0.23386740684509277
visibility: 0.9996631741523743
","x: 299.3682861328125
y: 267.826416015625
z: -0.23600263893604279
visibility: 0.9996312260627747
","x: 315.4476318359375
y: 291.6337890625
z: -0.10319118201732635
visibility: 0.9998589158058167
","x: 286.0854797363281
y: 293.4404602050781
z: -0.14174088835716248
visibility: 0.9990801215171814
","x: 320.7025451660156
y: 334.2073059082031
z: -0.10480521619319916
visibility: 0.9721106290817261
","x: 288.2275390625
y: 334.4789123535156
z: -0.16646327078342438
visibility: 0.9489520788192749
","x: 311.4772644042969
y: 360.5010681152344
z: -0.18396835029125214
visibility: 0.9558044075965881
","x: 310.029541015625
y: 349.3385314941406
z: -0.22156783938407898
visibility: 0.8575690984725952
","x: 308.3684387207031
y: 370.6878967285156
z: -0.21083132922649384
visibility: 0.9052311182022095
","x: 313.8863830566406
y: 350.9826354980469
z: -0.24934224784374237
visibility: 0.788627564907074
","x: 306.03985595703125
y: 366.64666748046875
z: -0.2241232842206955
visibility: 0.9113188982009888
","x: 314.8146667480469
y: 346.53125
z: -0.2526169419288635
visibility: 0.7912695407867432
","x: 306.15618896484375
y: 363.6685485839844
z: -0.19008120894432068
visibility: 0.8880366086959839
","x: 313.0636291503906
y: 346.8807678222656
z: -0.2242734730243683
visibility: 0.7442048192024231
","x: 308.6620178222656
y: 367.18914794921875
z: -0.0028115264140069485
visibility: 0.998984694480896
","x: 289.4110412597656
y: 366.60211181640625
z: 0.00282694841735065
visibility: 0.9989680647850037
","x: 303.60479736328125
y: 425.518310546875
z: -0.13865172863006592
visibility: 0.9835355877876282
","x: 288.5021057128906
y: 430.4980163574219
z: -0.021717501804232597
visibility: 0.988657534122467
","x: 299.16265869140625
y: 477.6958923339844
z: -0.022792836651206017
visibility: 0.9814088940620422
","x: 285.04449462890625
y: 485.53350830078125
z: 0.08890661597251892
visibility: 0.9881933927536011
","x: 296.504150390625
y: 482.44805908203125
z: -0.015024624764919281
visibility: 0.9004970788955688
","x: 286.03057861328125
y: 492.3004150390625
z: 0.09433083981275558
visibility: 0.8217999935150146
","x: 301.0705261230469
y: 502.1029968261719
z: -0.11607371270656586
visibility: 0.9778306484222412
","x: 283.07843017578125
y: 503.47235107421875
z: -0.00550305750221014
visibility: 0.9807204604148865
",5.345289945602417,,,,,,,,,,,,,,,,,,,,,,"x: 312.68890380859375
y: 362.61077880859375
z: 0.0
","x: 309.4386291503906
y: 362.4828796386719
z: -0.0010617771185934544
","x: 306.5773620605469
y: 364.317626953125
z: -0.0016320503782480955
","x: 304.55999755859375
y: 365.9675598144531
z: -0.0023066073190420866
","x: 302.9830017089844
y: 366.6000671386719
z: -0.0030668422114104033
","x: 306.94903564453125
y: 369.7381286621094
z: -0.0017719147726893425
","x: 304.58917236328125
y: 373.4491271972656
z: -0.0032666902989149094
","x: 303.3916931152344
y: 375.57244873046875
z: -0.004032918252050877
","x: 302.53863525390625
y: 377.3200988769531
z: -0.004519422072917223
","x: 308.49383544921875
y: 372.09185791015625
z: -0.0024469138588756323
","x: 306.673583984375
y: 376.66339111328125
z: -0.0037958002649247646
","x: 305.6118469238281
y: 379.4435119628906
z: -0.004406849388033152
","x: 304.8312072753906
y: 381.6854248046875
z: -0.004961180500686169
","x: 310.1491394042969
y: 373.3659362792969
z: -0.0032761271577328444
","x: 308.971923828125
y: 377.694091796875
z: -0.005141016561537981
","x: 308.2870788574219
y: 380.0672912597656
z: -0.0060368794947862625
","x: 307.67706298828125
y: 381.9989318847656
z: -0.006566805765032768
","x: 311.8841552734375
y: 373.6827392578125
z: -0.004242375958710909
","x: 311.696533203125
y: 377.59100341796875
z: -0.006183280609548092
","x: 311.685791015625
y: 380.13623046875
z: -0.006980101577937603
","x: 311.5976867675781
y: 382.3594665527344
z: -0.007379611022770405
"
19,"x: 301.6654357910156
y: 261.10565185546875
z: -0.2663883566856384
visibility: 0.9997625350952148
","x: 302.6422424316406
y: 256.4554748535156
z: -0.2521565854549408
visibility: 0.999484121799469
","x: 303.5879211425781
y: 256.4981384277344
z: -0.2521313726902008
visibility: 0.9994245767593384
","x: 304.5467529296875
y: 256.54718017578125
z: -0.25214460492134094
visibility: 0.9995061159133911
","x: 299.7451171875
y: 256.643310546875
z: -0.2538108825683594
visibility: 0.9994462132453918
","x: 298.736083984375
y: 256.82196044921875
z: -0.2538582682609558
visibility: 0.9994040131568909
","x: 297.802490234375
y: 256.966064453125
z: -0.2539138197898865
visibility: 0.9994553327560425
","x: 305.0475158691406
y: 259.65570068359375
z: -0.16635696589946747
visibility: 0.9991271495819092
","x: 295.6828308105469
y: 260.5745544433594
z: -0.17334356904029846
visibility: 0.9986431002616882
","x: 303.5726318359375
y: 267.7747802734375
z: -0.23386740684509277
visibility: 0.9996631741523743
","x: 299.3682861328125
y: 267.826416015625
z: -0.23600263893604279
visibility: 0.9996312260627747
","x: 315.4476318359375
y: 291.6337890625
z: -0.10319118201732635
visibility: 0.9998589158058167
","x: 286.0854797363281
y: 293.4404602050781
z: -0.14174088835716248
visibility: 0.9990801215171814
","x: 320.7025451660156
y: 334.2073059082031
z: -0.10480521619319916
visibility: 0.9721106290817261
","x: 288.2275390625
y: 334.4789123535156
z: -0.16646327078342438
visibility: 0.9489520788192749
","x: 311.4772644042969
y: 360.5010681152344
z: -0.18396835029125214
visibility: 0.9558044075965881
","x: 310.029541015625
y: 349.3385314941406
z: -0.22156783938407898
visibility: 0.8575690984725952
","x: 308.3684387207031
y: 370.6878967285156
z: -0.21083132922649384
visibility: 0.9052311182022095
","x: 313.8863830566406
y: 350.9826354980469
z: -0.24934224784374237
visibility: 0.788627564907074
","x: 306.03985595703125
y: 366.64666748046875
z: -0.2241232842206955
visibility: 0.9113188982009888
","x: 314.8146667480469
y: 346.53125
z: -0.2526169419288635
visibility: 0.7912695407867432
","x: 306.15618896484375
y: 363.6685485839844
z: -0.19008120894432068
visibility: 0.8880366086959839
","x: 313.0636291503906
y: 346.8807678222656
z: -0.2242734730243683
visibility: 0.7442048192024231
","x: 308.6620178222656
y: 367.18914794921875
z: -0.0028115264140069485
visibility: 0.998984694480896
","x: 289.4110412597656
y: 366.60211181640625
z: 0.00282694841735065
visibility: 0.9989680647850037
","x: 303.60479736328125
y: 425.518310546875
z: -0.13865172863006592
visibility: 0.9835355877876282
","x: 288.5021057128906
y: 430.4980163574219
z: -0.021717501804232597
visibility: 0.988657534122467
","x: 299.16265869140625
y: 477.6958923339844
z: -0.022792836651206017
visibility: 0.9814088940620422
","x: 285.04449462890625
y: 485.53350830078125
z: 0.08890661597251892
visibility: 0.9881933927536011
","x: 296.504150390625
y: 482.44805908203125
z: -0.015024624764919281
visibility: 0.9004970788955688
","x: 286.03057861328125
y: 492.3004150390625
z: 0.09433083981275558
visibility: 0.8217999935150146
","x: 301.0705261230469
y: 502.1029968261719
z: -0.11607371270656586
visibility: 0.9778306484222412
","x: 283.07843017578125
y: 503.47235107421875
z: -0.00550305750221014
visibility: 0.9807204604148865
",5.345289945602417,,,,,,,,,,,,,,,,,,,,,,"x: 312.68890380859375
y: 362.61077880859375
z: 0.0
","x: 309.4386291503906
y: 362.4828796386719
z: -0.0010617771185934544
","x: 306.5773620605469
y: 364.317626953125
z: -0.0016320503782480955
","x: 304.55999755859375
y: 365.9675598144531
z: -0.0023066073190420866
","x: 302.9830017089844
y: 366.6000671386719
z: -0.0030668422114104033
","x: 306.94903564453125
y: 369.7381286621094
z: -0.0017719147726893425
","x: 304.58917236328125
y: 373.4491271972656
z: -0.0032666902989149094
","x: 303.3916931152344
y: 375.57244873046875
z: -0.004032918252050877
","x: 302.53863525390625
y: 377.3200988769531
z: -0.004519422072917223
","x: 308.49383544921875
y: 372.09185791015625
z: -0.0024469138588756323
","x: 306.673583984375
y: 376.66339111328125
z: -0.0037958002649247646
","x: 305.6118469238281
y: 379.4435119628906
z: -0.004406849388033152
","x: 304.8312072753906
y: 381.6854248046875
z: -0.004961180500686169
","x: 310.1491394042969
y: 373.3659362792969
z: -0.0032761271577328444
","x: 308.971923828125
y: 377.694091796875
z: -0.005141016561537981
","x: 308.2870788574219
y: 380.0672912597656
z: -0.0060368794947862625
","x: 307.67706298828125
y: 381.9989318847656
z: -0.006566805765032768
","x: 311.8841552734375
y: 373.6827392578125
z: -0.004242375958710909
","x: 311.696533203125
y: 377.59100341796875
z: -0.006183280609548092
","x: 311.685791015625
y: 380.13623046875
z: -0.006980101577937603
","x: 311.5976867675781
y: 382.3594665527344
z: -0.007379611022770405
"
20,"x: 301.6654357910156
y: 261.10565185546875
z: -0.2663883566856384
visibility: 0.9997625350952148
","x: 302.6422424316406
y: 256.4554748535156
z: -0.2521565854549408
visibility: 0.999484121799469
","x: 303.5879211425781
y: 256.4981384277344
z: -0.2521313726902008
visibility: 0.9994245767593384
","x: 304.5467529296875
y: 256.54718017578125
z: -0.25214460492134094
visibility: 0.9995061159133911
","x: 299.7451171875
y: 256.643310546875
z: -0.2538108825683594
visibility: 0.9994462132453918
","x: 298.736083984375
y: 256.82196044921875
z: -0.2538582682609558
visibility: 0.9994040131568909
","x: 297.802490234375
y: 256.966064453125
z: -0.2539138197898865
visibility: 0.9994553327560425
","x: 305.0475158691406
y: 259.65570068359375
z: -0.16635696589946747
visibility: 0.9991271495819092
","x: 295.6828308105469
y: 260.5745544433594
z: -0.17334356904029846
visibility: 0.9986431002616882
","x: 303.5726318359375
y: 267.7747802734375
z: -0.23386740684509277
visibility: 0.9996631741523743
","x: 299.3682861328125
y: 267.826416015625
z: -0.23600263893604279
visibility: 0.9996312260627747
","x: 315.4476318359375
y: 291.6337890625
z: -0.10319118201732635
visibility: 0.9998589158058167
","x: 286.0854797363281
y: 293.4404602050781
z: -0.14174088835716248
visibility: 0.9990801215171814
","x: 320.7025451660156
y: 334.2073059082031
z: -0.10480521619319916
visibility: 0.9721106290817261
","x: 288.2275390625
y: 334.4789123535156
z: -0.16646327078342438
visibility: 0.9489520788192749
","x: 311.4772644042969
y: 360.5010681152344
z: -0.18396835029125214
visibility: 0.9558044075965881
","x: 310.029541015625
y: 349.3385314941406
z: -0.22156783938407898
visibility: 0.8575690984725952
","x: 308.3684387207031
y: 370.6878967285156
z: -0.21083132922649384
visibility: 0.9052311182022095
","x: 313.8863830566406
y: 350.9826354980469
z: -0.24934224784374237
visibility: 0.788627564907074
","x: 306.03985595703125
y: 366.64666748046875
z: -0.2241232842206955
visibility: 0.9113188982009888
","x: 314.8146667480469
y: 346.53125
z: -0.2526169419288635
visibility: 0.7912695407867432
","x: 306.15618896484375
y: 363.6685485839844
z: -0.19008120894432068
visibility: 0.8880366086959839
","x: 313.0636291503906
y: 346.8807678222656
z: -0.2242734730243683
visibility: 0.7442048192024231
","x: 308.6620178222656
y: 367.18914794921875
z: -0.0028115264140069485
visibility: 0.998984694480896
","x: 289.4110412597656
y: 366.60211181640625
z: 0.00282694841735065
visibility: 0.9989680647850037
","x: 303.60479736328125
y: 425.518310546875
z: -0.13865172863006592
visibility: 0.9835355877876282
","x: 288.5021057128906
y: 430.4980163574219
z: -0.021717501804232597
visibility: 0.988657534122467
","x: 299.16265869140625
y: 477.6958923339844
z: -0.022792836651206017
visibility: 0.9814088940620422
","x: 285.04449462890625
y: 485.53350830078125
z: 0.08890661597251892
visibility: 0.9881933927536011
","x: 296.504150390625
y: 482.44805908203125
z: -0.015024624764919281
visibility: 0.9004970788955688
","x: 286.03057861328125
y: 492.3004150390625
z: 0.09433083981275558
visibility: 0.8217999935150146
","x: 301.0705261230469
y: 502.1029968261719
z: -0.11607371270656586
visibility: 0.9778306484222412
","x: 283.07843017578125
y: 503.47235107421875
z: -0.00550305750221014
visibility: 0.9807204604148865
",5.345289945602417,,,,,,,,,,,,,,,,,,,,,,"x: 312.68890380859375
y: 362.61077880859375
z: 0.0
","x: 309.4386291503906
y: 362.4828796386719
z: -0.0010617771185934544
","x: 306.5773620605469
y: 364.317626953125
z: -0.0016320503782480955
","x: 304.55999755859375
y: 365.9675598144531
z: -0.0023066073190420866
","x: 302.9830017089844
y: 366.6000671386719
z: -0.0030668422114104033
","x: 306.94903564453125
y: 369.7381286621094
z: -0.0017719147726893425
","x: 304.58917236328125
y: 373.4491271972656
z: -0.0032666902989149094
","x: 303.3916931152344
y: 375.57244873046875
z: -0.004032918252050877
","x: 302.53863525390625
y: 377.3200988769531
z: -0.004519422072917223
","x: 308.49383544921875
y: 372.09185791015625
z: -0.0024469138588756323
","x: 306.673583984375
y: 376.66339111328125
z: -0.0037958002649247646
","x: 305.6118469238281
y: 379.4435119628906
z: -0.004406849388033152
","x: 304.8312072753906
y: 381.6854248046875
z: -0.004961180500686169
","x: 310.1491394042969
y: 373.3659362792969
z: -0.0032761271577328444
","x: 308.971923828125
y: 377.694091796875
z: -0.005141016561537981
","x: 308.2870788574219
y: 380.0672912597656
z: -0.0060368794947862625
","x: 307.67706298828125
y: 381.9989318847656
z: -0.006566805765032768
","x: 311.8841552734375
y: 373.6827392578125
z: -0.004242375958710909
","x: 311.696533203125
y: 377.59100341796875
z: -0.006183280609548092
","x: 311.685791015625
y: 380.13623046875
z: -0.006980101577937603
","x: 311.5976867675781
y: 382.3594665527344
z: -0.007379611022770405
"
21,"x: 302.26837158203125
y: 261.5406188964844
z: -0.263542115688324
visibility: 0.9997860193252563
","x: 302.8568420410156
y: 256.93231201171875
z: -0.24620060622692108
visibility: 0.9995348453521729
","x: 303.7453308105469
y: 256.9644470214844
z: -0.2461896389722824
visibility: 0.9994811415672302
","x: 304.6026916503906
y: 257.02239990234375
z: -0.24624471366405487
visibility: 0.9995545148849487
","x: 299.7997131347656
y: 257.35662841796875
z: -0.25088930130004883
visibility: 0.9995006322860718
","x: 298.88165283203125
y: 257.73565673828125
z: -0.25091999769210815
visibility: 0.9994626641273499
","x: 298.0787048339844
y: 258.1824951171875
z: -0.2509385347366333
visibility: 0.9995087385177612
","x: 305.89031982421875
y: 260.4983825683594
z: -0.15044346451759338
visibility: 0.9992127418518066
","x: 295.7987365722656
y: 262.5045471191406
z: -0.17094744741916656
visibility: 0.9987765550613403
","x: 304.77374267578125
y: 267.91253662109375
z: -0.2277797907590866
visibility: 0.9996963143348694
","x: 300.5822448730469
y: 268.8692932128906
z: -0.23382970690727234
visibility: 0.9996674060821533
","x: 316.9669189453125
y: 295.2981872558594
z: -0.07140262424945831
visibility: 0.9998708963394165
","x: 288.53167724609375
y: 297.4233703613281
z: -0.13362443447113037
visibility: 0.9991593956947327
","x: 323.4114074707031
y: 332.18133544921875
z: -0.03511524572968483
visibility: 0.9728041887283325
","x: 289.9358215332031
y: 339.54730224609375
z: -0.1510418802499771
visibility: 0.9520977139472961
","x: 335.8750915527344
y: 360.455078125
z: -0.11047352850437164
visibility: 0.9586188197135925
","x: 300.1766662597656
y: 371.74090576171875
z: -0.23015308380126953
visibility: 0.8682075142860413
","x: 340.55755615234375
y: 369.35418701171875
z: -0.1318536400794983
visibility: 0.9113432765007019
","x: 301.96722412109375
y: 381.1595153808594
z: -0.259185254573822
visibility: 0.8030856847763062
","x: 341.0417785644531
y: 370.19024658203125
z: -0.16136136651039124
visibility: 0.9173004627227783
","x: 303.9318542480469
y: 380.2530517578125
z: -0.27406972646713257
visibility: 0.8054972290992737
","x: 339.38543701171875
y: 367.92352294921875
z: -0.12485984712839127
visibility: 0.8954646587371826
","x: 303.5559997558594
y: 376.6842346191406
z: -0.23731645941734314
visibility: 0.7597857117652893
","x: 313.11590576171875
y: 368.9558410644531
z: 0.004322187043726444
visibility: 0.9990823864936829
","x: 293.6763916015625
y: 370.5012512207031
z: -0.004388555884361267
visibility: 0.999064028263092
","x: 324.91546630859375
y: 425.62701416015625
z: -0.16406598687171936
visibility: 0.9850690960884094
","x: 286.9108581542969
y: 432.9786682128906
z: -0.09063037484884262
visibility: 0.9896227121353149
","x: 320.7491149902344
y: 474.6441345214844
z: 0.0313795804977417
visibility: 0.9829667806625366
","x: 284.28521728515625
y: 484.40655517578125
z: 0.08379903435707092
visibility: 0.9891833066940308
","x: 316.4179992675781
y: 479.5730895996094
z: 0.04492185264825821
visibility: 0.9069623947143555
","x: 285.4228820800781
y: 491.1825866699219
z: 0.094473697245121
visibility: 0.8343978524208069
","x: 326.2115173339844
y: 500.759033203125
z: -0.05012425780296326
visibility: 0.9794285893440247
","x: 282.85302734375
y: 503.77301025390625
z: -0.0023575860541313887
visibility: 0.9820746183395386
",5.51284384727478,,,,,,,,,,,,,,,,,,,,,,,,,,,,,,,,,,,,,,,,,,
22,"x: 302.26837158203125
y: 261.5406188964844
z: -0.263542115688324
visibility: 0.9997860193252563
","x: 302.8568420410156
y: 256.93231201171875
z: -0.24620060622692108
visibility: 0.9995348453521729
","x: 303.7453308105469
y: 256.9644470214844
z: -0.2461896389722824
visibility: 0.9994811415672302
","x: 304.6026916503906
y: 257.02239990234375
z: -0.24624471366405487
visibility: 0.9995545148849487
","x: 299.7997131347656
y: 257.35662841796875
z: -0.25088930130004883
visibility: 0.9995006322860718
","x: 298.88165283203125
y: 257.73565673828125
z: -0.25091999769210815
visibility: 0.9994626641273499
","x: 298.0787048339844
y: 258.1824951171875
z: -0.2509385347366333
visibility: 0.9995087385177612
","x: 305.89031982421875
y: 260.4983825683594
z: -0.15044346451759338
visibility: 0.9992127418518066
","x: 295.7987365722656
y: 262.5045471191406
z: -0.17094744741916656
visibility: 0.9987765550613403
","x: 304.77374267578125
y: 267.91253662109375
z: -0.2277797907590866
visibility: 0.9996963143348694
","x: 300.5822448730469
y: 268.8692932128906
z: -0.23382970690727234
visibility: 0.9996674060821533
","x: 316.9669189453125
y: 295.2981872558594
z: -0.07140262424945831
visibility: 0.9998708963394165
","x: 288.53167724609375
y: 297.4233703613281
z: -0.13362443447113037
visibility: 0.9991593956947327
","x: 323.4114074707031
y: 332.18133544921875
z: -0.03511524572968483
visibility: 0.9728041887283325
","x: 289.9358215332031
y: 339.54730224609375
z: -0.1510418802499771
visibility: 0.9520977139472961
","x: 335.8750915527344
y: 360.455078125
z: -0.11047352850437164
visibility: 0.9586188197135925
","x: 300.1766662597656
y: 371.74090576171875
z: -0.23015308380126953
visibility: 0.8682075142860413
","x: 340.55755615234375
y: 369.35418701171875
z: -0.1318536400794983
visibility: 0.9113432765007019
","x: 301.96722412109375
y: 381.1595153808594
z: -0.259185254573822
visibility: 0.8030856847763062
","x: 341.0417785644531
y: 370.19024658203125
z: -0.16136136651039124
visibility: 0.9173004627227783
","x: 303.9318542480469
y: 380.2530517578125
z: -0.27406972646713257
visibility: 0.8054972290992737
","x: 339.38543701171875
y: 367.92352294921875
z: -0.12485984712839127
visibility: 0.8954646587371826
","x: 303.5559997558594
y: 376.6842346191406
z: -0.23731645941734314
visibility: 0.7597857117652893
","x: 313.11590576171875
y: 368.9558410644531
z: 0.004322187043726444
visibility: 0.9990823864936829
","x: 293.6763916015625
y: 370.5012512207031
z: -0.004388555884361267
visibility: 0.999064028263092
","x: 324.91546630859375
y: 425.62701416015625
z: -0.16406598687171936
visibility: 0.9850690960884094
","x: 286.9108581542969
y: 432.9786682128906
z: -0.09063037484884262
visibility: 0.9896227121353149
","x: 320.7491149902344
y: 474.6441345214844
z: 0.0313795804977417
visibility: 0.9829667806625366
","x: 284.28521728515625
y: 484.40655517578125
z: 0.08379903435707092
visibility: 0.9891833066940308
","x: 316.4179992675781
y: 479.5730895996094
z: 0.04492185264825821
visibility: 0.9069623947143555
","x: 285.4228820800781
y: 491.1825866699219
z: 0.094473697245121
visibility: 0.8343978524208069
","x: 326.2115173339844
y: 500.759033203125
z: -0.05012425780296326
visibility: 0.9794285893440247
","x: 282.85302734375
y: 503.77301025390625
z: -0.0023575860541313887
visibility: 0.9820746183395386
",5.51284384727478,,,,,,,,,,,,,,,,,,,,,,,,,,,,,,,,,,,,,,,,,,
23,"x: 308.9478759765625
y: 266.37445068359375
z: -0.2076048105955124
visibility: 0.9998067021369934
","x: 309.3922119140625
y: 262.4049072265625
z: -0.18655140697956085
visibility: 0.9995788931846619
","x: 310.168212890625
y: 262.38116455078125
z: -0.1865997612476349
visibility: 0.9995297193527222
","x: 310.94964599609375
y: 262.3971862792969
z: -0.18672655522823334
visibility: 0.9995951056480408
","x: 306.5078125
y: 263.0086669921875
z: -0.194621279835701
visibility: 0.9995488524436951
","x: 305.3841857910156
y: 263.44268798828125
z: -0.19463814795017242
visibility: 0.999514639377594
","x: 304.2041931152344
y: 263.90142822265625
z: -0.19463731348514557
visibility: 0.9995558857917786
","x: 310.8503112792969
y: 265.7371826171875
z: -0.08832954615354538
visibility: 0.9992825388908386
","x: 301.5593566894531
y: 268.01715087890625
z: -0.12436550855636597
visibility: 0.9988969564437866
","x: 310.2129211425781
y: 271.83880615234375
z: -0.17127510905265808
visibility: 0.999722421169281
","x: 306.8133850097656
y: 273.1866455078125
z: -0.1822146624326706
visibility: 0.9996978640556335
","x: 320.7809753417969
y: 298.48187255859375
z: -0.003294480498880148
visibility: 0.9998654127120972
","x: 294.6451416015625
y: 300.9576110839844
z: -0.09376402199268341
visibility: 0.9992333054542542
","x: 327.4400634765625
y: 328.7498779296875
z: 0.07581605017185211
visibility: 0.9452231526374817
","x: 288.7528381347656
y: 337.6486511230469
z: -0.08785609900951385
visibility: 0.9538057446479797
","x: 343.0372314453125
y: 341.52154541015625
z: 0.04591210559010506
visibility: 0.9451756477355957
","x: 287.22119140625
y: 366.1058349609375
z: -0.14967720210552216
visibility: 0.8765332102775574
","x: 350.41522216796875
y: 345.17449951171875
z: 0.03674110025167465
visibility: 0.8950058817863464
","x: 283.8284606933594
y: 372.0478820800781
z: -0.17205560207366943
visibility: 0.8127670884132385
","x: 350.6320495605469
y: 343.4415283203125
z: 0.007641703821718693
visibility: 0.9037765860557556
","x: 284.0629577636719
y: 372.1345520019531
z: -0.1924019753932953
visibility: 0.8153886795043945
","x: 349.3359680175781
y: 344.0069274902344
z: 0.03170395642518997
visibility: 0.8830966353416443
","x: 286.5619812011719
y: 370.66094970703125
z: -0.16007396578788757
visibility: 0.7722623348236084
","x: 320.14727783203125
y: 374.3777160644531
z: 0.017450135201215744
visibility: 0.9991604685783386
","x: 300.3227844238281
y: 376.0201721191406
z: -0.01745213195681572
visibility: 0.9991427659988403
","x: 339.2346496582031
y: 426.1500549316406
z: -0.16213436424732208
visibility: 0.9864048361778259
","x: 286.3011474609375
y: 433.143798828125
z: -0.08212917298078537
visibility: 0.9905639290809631
","x: 343.1710205078125
y: 479.92926025390625
z: 0.08637727797031403
visibility: 0.9843772649765015
","x: 283.86773681640625
y: 483.55328369140625
z: 0.08344203978776932
visibility: 0.9901632070541382
","x: 338.99761962890625
y: 489.8460693359375
z: 0.09841131418943405
visibility: 0.9137596487998962
","x: 285.4580383300781
y: 490.5722351074219
z: 0.09486333280801773
visibility: 0.8474080562591553
","x: 353.3645324707031
y: 500.9350891113281
z: 0.01566845178604126
visibility: 0.9805818796157837
","x: 282.1283874511719
y: 504.00274658203125
z: 0.002630134578794241
visibility: 0.9834660291671753
",5.613136529922485,,,,,,,,,,,,,,,,,,,,,,,,,,,,,,,,,,,,,,,,,,
24,"x: 308.9478759765625
y: 266.37445068359375
z: -0.2076048105955124
visibility: 0.9998067021369934
","x: 309.3922119140625
y: 262.4049072265625
z: -0.18655140697956085
visibility: 0.9995788931846619
","x: 310.168212890625
y: 262.38116455078125
z: -0.1865997612476349
visibility: 0.9995297193527222
","x: 310.94964599609375
y: 262.3971862792969
z: -0.18672655522823334
visibility: 0.9995951056480408
","x: 306.5078125
y: 263.0086669921875
z: -0.194621279835701
visibility: 0.9995488524436951
","x: 305.3841857910156
y: 263.44268798828125
z: -0.19463814795017242
visibility: 0.999514639377594
","x: 304.2041931152344
y: 263.90142822265625
z: -0.19463731348514557
visibility: 0.9995558857917786
","x: 310.8503112792969
y: 265.7371826171875
z: -0.08832954615354538
visibility: 0.9992825388908386
","x: 301.5593566894531
y: 268.01715087890625
z: -0.12436550855636597
visibility: 0.9988969564437866
","x: 310.2129211425781
y: 271.83880615234375
z: -0.17127510905265808
visibility: 0.999722421169281
","x: 306.8133850097656
y: 273.1866455078125
z: -0.1822146624326706
visibility: 0.9996978640556335
","x: 320.7809753417969
y: 298.48187255859375
z: -0.003294480498880148
visibility: 0.9998654127120972
","x: 294.6451416015625
y: 300.9576110839844
z: -0.09376402199268341
visibility: 0.9992333054542542
","x: 327.4400634765625
y: 328.7498779296875
z: 0.07581605017185211
visibility: 0.9452231526374817
","x: 288.7528381347656
y: 337.6486511230469
z: -0.08785609900951385
visibility: 0.9538057446479797
","x: 343.0372314453125
y: 341.52154541015625
z: 0.04591210559010506
visibility: 0.9451756477355957
","x: 287.22119140625
y: 366.1058349609375
z: -0.14967720210552216
visibility: 0.8765332102775574
","x: 350.41522216796875
y: 345.17449951171875
z: 0.03674110025167465
visibility: 0.8950058817863464
","x: 283.8284606933594
y: 372.0478820800781
z: -0.17205560207366943
visibility: 0.8127670884132385
","x: 350.6320495605469
y: 343.4415283203125
z: 0.007641703821718693
visibility: 0.9037765860557556
","x: 284.0629577636719
y: 372.1345520019531
z: -0.1924019753932953
visibility: 0.8153886795043945
","x: 349.3359680175781
y: 344.0069274902344
z: 0.03170395642518997
visibility: 0.8830966353416443
","x: 286.5619812011719
y: 370.66094970703125
z: -0.16007396578788757
visibility: 0.7722623348236084
","x: 320.14727783203125
y: 374.3777160644531
z: 0.017450135201215744
visibility: 0.9991604685783386
","x: 300.3227844238281
y: 376.0201721191406
z: -0.01745213195681572
visibility: 0.9991427659988403
","x: 339.2346496582031
y: 426.1500549316406
z: -0.16213436424732208
visibility: 0.9864048361778259
","x: 286.3011474609375
y: 433.143798828125
z: -0.08212917298078537
visibility: 0.9905639290809631
","x: 343.1710205078125
y: 479.92926025390625
z: 0.08637727797031403
visibility: 0.9843772649765015
","x: 283.86773681640625
y: 483.55328369140625
z: 0.08344203978776932
visibility: 0.9901632070541382
","x: 338.99761962890625
y: 489.8460693359375
z: 0.09841131418943405
visibility: 0.9137596487998962
","x: 285.4580383300781
y: 490.5722351074219
z: 0.09486333280801773
visibility: 0.8474080562591553
","x: 353.3645324707031
y: 500.9350891113281
z: 0.01566845178604126
visibility: 0.9805818796157837
","x: 282.1283874511719
y: 504.00274658203125
z: 0.002630134578794241
visibility: 0.9834660291671753
",5.613136529922485,,,,,,,,,,,,,,,,,,,,,,,,,,,,,,,,,,,,,,,,,,
25,"x: 313.1986389160156
y: 272.0826416015625
z: -0.1590680629014969
visibility: 0.9998260140419006
","x: 313.3779602050781
y: 267.49566650390625
z: -0.1408340483903885
visibility: 0.9996209740638733
","x: 314.0726318359375
y: 267.50189208984375
z: -0.14081016182899475
visibility: 0.9995766878128052
","x: 314.7580261230469
y: 267.5245056152344
z: -0.1409011334180832
visibility: 0.9996355175971985
","x: 310.7325439453125
y: 268.00531005859375
z: -0.15144599974155426
visibility: 0.99959397315979
","x: 309.5684509277344
y: 268.4670715332031
z: -0.1514653116464615
visibility: 0.9995631575584412
","x: 308.3608093261719
y: 268.8964538574219
z: -0.15147510170936584
visibility: 0.9996002912521362
","x: 315.0315246582031
y: 270.58428955078125
z: -0.0497131310403347
visibility: 0.9993542432785034
","x: 306.197265625
y: 272.40423583984375
z: -0.09938665479421616
visibility: 0.9990072250366211
","x: 314.6195373535156
y: 278.1238098144531
z: -0.12539026141166687
visibility: 0.9997500777244568
","x: 311.3020935058594
y: 278.8626708984375
z: -0.13996241986751556
visibility: 0.9997279644012451
","x: 323.37127685546875
y: 298.46820068359375
z: 0.036368630826473236
visibility: 0.9998661279678345
","x: 299.871337890625
y: 303.4950866699219
z: -0.09231360256671906
visibility: 0.9993047714233398
","x: 330.3565368652344
y: 325.9967041015625
z: 0.22696557641029358
visibility: 0.920783519744873
","x: 292.5848388671875
y: 333.6570739746094
z: -0.20397785305976868
visibility: 0.9563330411911011
","x: 341.52191162109375
y: 325.58984375
z: 0.3962717354297638
visibility: 0.9451664686203003
","x: 284.5621337890625
y: 354.829833984375
z: -0.3431760370731354
visibility: 0.8877973556518555
","x: 345.2681579589844
y: 325.60528564453125
z: 0.4309871792793274
visibility: 0.8971838355064392
","x: 279.1207580566406
y: 361.6259765625
z: -0.3684575855731964
visibility: 0.8293901085853577
","x: 345.8221435546875
y: 324.83673095703125
z: 0.4085172116756439
visibility: 0.9063370227813721
","x: 280.2597961425781
y: 360.215576171875
z: -0.3840273916721344
