uscmakers/ReverseChoreography/data/10_easily_bruno_major.csv
,NOSE,LEFT_EYE_INNER,LEFT_EYE,LEFT_EYE_OUTER,RIGHT_EYE_INNER,RIGHT_EYE,RIGHT_EYE_OUTER,LEFT_EAR,RIGHT_EAR,MOUTH_LEFT,MOUTH_RIGHT,LEFT_SHOULDER,RIGHT_SHOULDER,LEFT_ELBOW,RIGHT_ELBOW,LEFT_WRIST,RIGHT_WRIST,LEFT_PINKY,RIGHT_PINKY,LEFT_INDEX,RIGHT_INDEX,LEFT_THUMB,RIGHT_THUMB,LEFT_HIP,RIGHT_HIP,LEFT_KNEE,RIGHT_KNEE,LEFT_ANKLE,RIGHT_ANKLE,LEFT_HEEL,RIGHT_HEEL,LEFT_FOOT_INDEX,RIGHT_FOOT_INDEX,TIMESTAMP,WRIST2,THUMB_CPC2,THUMB_MCP2,THUMB_IP2,THUMB_TIP2,INDEX_FINGER_MCP2,INDEX_FINGER_PIP2,INDEX_FINGER_DIP2,INDEX_FINGER_TIP2,MIDDLE_FINGER_MCP2,MIDDLE_FINGER_PIP2,MIDDLE_FINGER_DIP2,MIDDLE_FINGER_TIP2,RING_FINGER_PIP2,RING_FINGER_DIP2,RING_FINGER_TIP2,RING_FINGER_MCP2,PINKY_MCP2,PINKY_PIP2,PINKY_DIP2,PINKY_TIP2,WRIST,THUMB_CPC,THUMB_MCP,THUMB_IP,THUMB_TIP,INDEX_FINGER_MCP,INDEX_FINGER_PIP,INDEX_FINGER_DIP,INDEX_FINGER_TIP,MIDDLE_FINGER_MCP,MIDDLE_FINGER_PIP,MIDDLE_FINGER_DIP,MIDDLE_FINGER_TIP,RING_FINGER_PIP,RING_FINGER_DIP,RING_FINGER_TIP,RING_FINGER_MCP,PINKY_MCP,PINKY_PIP,PINKY_DIP,PINKY_TIP
0,"x: 236.98919677734375
y: 260.97760009765625
z: -0.27043408155441284
visibility: 0.9999761581420898
","x: 238.67477416992188
y: 256.584228515625
z: -0.2565828859806061
visibility: 0.9999028444290161
","x: 239.78659057617188
y: 256.865478515625
z: -0.25659066438674927
visibility: 0.9998956918716431
","x: 240.90480041503906
y: 257.16448974609375
z: -0.25659871101379395
visibility: 0.999891996383667
","x: 235.54092407226562
y: 255.9556884765625
z: -0.25962427258491516
visibility: 0.9999079704284668
","x: 234.21424865722656
y: 255.8665771484375
z: -0.2596506178379059
visibility: 0.999897837638855
","x: 232.90557861328125
y: 255.80630493164062
z: -0.2596527636051178
visibility: 0.9998847246170044
","x: 242.87664794921875
y: 261.1353759765625
z: -0.1659260094165802
visibility: 0.9996370077133179
","x: 230.50743103027344
y: 259.1776123046875
z: -0.18161024153232574
visibility: 0.9997338652610779
","x: 238.54824829101562
y: 268.26336669921875
z: -0.235763818025589
visibility: 0.9999140501022339
","x: 234.33200073242188
y: 267.3806457519531
z: -0.24032047390937805
visibility: 0.9999135732650757
","x: 250.45166015625
y: 295.49212646484375
z: -0.10011587291955948
visibility: 0.9999411106109619
","x: 219.4006805419922
y: 291.77764892578125
z: -0.11090828478336334
visibility: 0.999895453453064
","x: 255.6956024169922
y: 330.98382568359375
z: -0.05489315837621689
visibility: 0.9837661981582642
","x: 212.68185424804688
y: 333.5207824707031
z: -0.07855351269245148
visibility: 0.9865856170654297
","x: 259.45660400390625
y: 358.1455993652344
z: -0.13108207285404205
visibility: 0.9608170986175537
","x: 213.0428009033203
y: 370.0645751953125
z: -0.13614381849765778
visibility: 0.9501234889030457
","x: 261.14996337890625
y: 370.29620361328125
z: -0.15254414081573486
visibility: 0.9118058085441589
","x: 212.66326904296875
y: 383.4004211425781
z: -0.154250368475914
visibility: 0.8855530023574829
","x: 260.2932434082031
y: 370.7210693359375
z: -0.17704099416732788
visibility: 0.9224424958229065
","x: 215.33726501464844
y: 382.2044677734375
z: -0.17654453217983246
visibility: 0.8915177583694458
","x: 259.056396484375
y: 366.2498474121094
z: -0.14257681369781494
visibility: 0.9050616025924683
","x: 216.30514526367188
y: 378.1515808105469
z: -0.14543920755386353
visibility: 0.8700965046882629
","x: 242.9934539794922
y: 373.0459899902344
z: -0.0019893846474587917
visibility: 0.999771773815155
","x: 224.3909912109375
y: 373.6026611328125
z: 0.001976389205083251
visibility: 0.9995297193527222
","x: 241.0889892578125
y: 430.7265625
z: -0.08128572255373001
visibility: 0.9880039691925049
","x: 224.62939453125
y: 432.78814697265625
z: 0.0313253290951252
visibility: 0.9798720479011536
","x: 243.16281127929688
y: 491.1371154785156
z: -0.007080733776092529
visibility: 0.9895085096359253
","x: 221.3655548095703
y: 483.029296875
z: 0.17261485755443573
visibility: 0.9761654138565063
","x: 240.94244384765625
y: 500.1214294433594
z: -0.0055100698955357075
visibility: 0.9133062958717346
","x: 222.92864990234375
y: 490.62420654296875
z: 0.180805966258049
visibility: 0.8276857733726501
","x: 246.64598083496094
y: 508.7167663574219
z: -0.1118502989411354
visibility: 0.9849182963371277
","x: 217.96649169921875
y: 499.31512451171875
z: 0.08753892034292221
visibility: 0.9695333242416382
",4.281625032424927,,,,,,,,,,,,,,,,,,,,,,,,,,,,,,,,,,,,,,,,,,
1,"x: 236.98919677734375
y: 260.97760009765625
z: -0.27043408155441284
visibility: 0.9999761581420898
","x: 238.67477416992188
y: 256.584228515625
z: -0.2565828859806061
visibility: 0.9999028444290161
","x: 239.78659057617188
y: 256.865478515625
z: -0.25659066438674927
visibility: 0.9998956918716431
","x: 240.90480041503906
y: 257.16448974609375
z: -0.25659871101379395
visibility: 0.999891996383667
","x: 235.54092407226562
y: 255.9556884765625
z: -0.25962427258491516
visibility: 0.9999079704284668
","x: 234.21424865722656
y: 255.8665771484375
z: -0.2596506178379059
visibility: 0.999897837638855
","x: 232.90557861328125
y: 255.80630493164062
z: -0.2596527636051178
visibility: 0.9998847246170044
","x: 242.87664794921875
y: 261.1353759765625
z: -0.1659260094165802
visibility: 0.9996370077133179
","x: 230.50743103027344
y: 259.1776123046875
z: -0.18161024153232574
visibility: 0.9997338652610779
","x: 238.54824829101562
y: 268.26336669921875
z: -0.235763818025589
visibility: 0.9999140501022339
","x: 234.33200073242188
y: 267.3806457519531
z: -0.24032047390937805
visibility: 0.9999135732650757
","x: 250.45166015625
y: 295.49212646484375
z: -0.10011587291955948
visibility: 0.9999411106109619
","x: 219.4006805419922
y: 291.77764892578125
z: -0.11090828478336334
visibility: 0.999895453453064
","x: 255.6956024169922
y: 330.98382568359375
z: -0.05489315837621689
visibility: 0.9837661981582642
","x: 212.68185424804688
y: 333.5207824707031
z: -0.07855351269245148
visibility: 0.9865856170654297
","x: 259.45660400390625
y: 358.1455993652344
z: -0.13108207285404205
visibility: 0.9608170986175537
","x: 213.0428009033203
y: 370.0645751953125
z: -0.13614381849765778
visibility: 0.9501234889030457
","x: 261.14996337890625
y: 370.29620361328125
z: -0.15254414081573486
visibility: 0.9118058085441589
","x: 212.66326904296875
y: 383.4004211425781
z: -0.154250368475914
visibility: 0.8855530023574829
","x: 260.2932434082031
y: 370.7210693359375
z: -0.17704099416732788
visibility: 0.9224424958229065
","x: 215.33726501464844
y: 382.2044677734375
z: -0.17654453217983246
visibility: 0.8915177583694458
","x: 259.056396484375
y: 366.2498474121094
z: -0.14257681369781494
visibility: 0.9050616025924683
","x: 216.30514526367188
y: 378.1515808105469
z: -0.14543920755386353
visibility: 0.8700965046882629
","x: 242.9934539794922
y: 373.0459899902344
z: -0.0019893846474587917
visibility: 0.999771773815155
","x: 224.3909912109375
y: 373.6026611328125
z: 0.001976389205083251
visibility: 0.9995297193527222
","x: 241.0889892578125
y: 430.7265625
z: -0.08128572255373001
visibility: 0.9880039691925049
","x: 224.62939453125
y: 432.78814697265625
z: 0.0313253290951252
visibility: 0.9798720479011536
","x: 243.16281127929688
y: 491.1371154785156
z: -0.007080733776092529
visibility: 0.9895085096359253
","x: 221.3655548095703
y: 483.029296875
z: 0.17261485755443573
visibility: 0.9761654138565063
","x: 240.94244384765625
y: 500.1214294433594
z: -0.0055100698955357075
visibility: 0.9133062958717346
","x: 222.92864990234375
y: 490.62420654296875
z: 0.180805966258049
visibility: 0.8276857733726501
","x: 246.64598083496094
y: 508.7167663574219
z: -0.1118502989411354
visibility: 0.9849182963371277
","x: 217.96649169921875
y: 499.31512451171875
z: 0.08753892034292221
visibility: 0.9695333242416382
",4.281625032424927,,,,,,,,,,,,,,,,,,,,,,,,,,,,,,,,,,,,,,,,,,
2,"x: 241.39463806152344
y: 260.46624755859375
z: -0.24348226189613342
visibility: 0.999975860118866
","x: 243.49038696289062
y: 256.2981872558594
z: -0.22924137115478516
visibility: 0.9998989105224609
","x: 244.662841796875
y: 256.71392822265625
z: -0.22924387454986572
visibility: 0.9998924732208252
","x: 245.80117797851562
y: 257.0979919433594
z: -0.22925856709480286
visibility: 0.9998815059661865
","x: 239.9837188720703
y: 255.4263153076172
z: -0.23260101675987244
visibility: 0.9999098181724548
","x: 238.83274841308594
y: 255.27366638183594
z: -0.2326083481311798
visibility: 0.9999012351036072
","x: 237.51260375976562
y: 255.1040496826172
z: -0.23263148963451385
visibility: 0.9998878836631775
","x: 247.0254669189453
y: 261.07470703125
z: -0.1394253820180893
visibility: 0.9995957016944885
","x: 234.9439697265625
y: 258.51690673828125
z: -0.1549077183008194
visibility: 0.999755859375
","x: 242.7420654296875
y: 267.7826232910156
z: -0.20979496836662292
visibility: 0.9999144673347473
","x: 238.5675048828125
y: 266.5447692871094
z: -0.21434195339679718
visibility: 0.9999188780784607
","x: 253.4595947265625
y: 293.8101806640625
z: -0.07372206449508667
visibility: 0.9998817443847656
","x: 222.5752716064453
y: 291.5552978515625
z: -0.09370611608028412
visibility: 0.9999030232429504
","x: 261.2291564941406
y: 326.1059875488281
z: -0.10784775018692017
visibility: 0.9617425799369812
","x: 214.6350555419922
y: 333.5228271484375
z: -0.06183544918894768
visibility: 0.9866885542869568
","x: 264.6528625488281
y: 314.47650146484375
z: -0.2414499819278717
visibility: 0.9056326746940613
","x: 213.78236389160156
y: 369.56256103515625
z: -0.08737920969724655
visibility: 0.9472535848617554
","x: 265.3172912597656
y: 308.89324951171875
z: -0.26537781953811646
visibility: 0.8508754372596741
","x: 213.2593994140625
y: 382.5185852050781
z: -0.09385110437870026
visibility: 0.8774531483650208
","x: 264.7749328613281
y: 304.9484558105469
z: -0.27064990997314453
visibility: 0.8617719411849976
","x: 215.67892456054688
y: 382.0340270996094
z: -0.11297593265771866
visibility: 0.883226752281189
","x: 262.7051086425781
y: 303.4891357421875
z: -0.24760477244853973
visibility: 0.8432391881942749
","x: 216.58718872070312
y: 378.1193542480469
z: -0.09374978393316269
visibility: 0.8602869510650635
","x: 246.82293701171875
y: 373.0377197265625
z: 0.0012942405883222818
visibility: 0.9997672438621521
","x: 228.46298217773438
y: 371.96728515625
z: -0.0013407963560894132
visibility: 0.9995421171188354
","x: 243.478515625
y: 430.9288024902344
z: -0.04048757627606392
visibility: 0.9881966710090637
","x: 228.08169555664062
y: 432.00537109375
z: 0.052670758217573166
visibility: 0.9809900522232056
","x: 243.1692352294922
y: 491.212890625
z: 0.04419872909784317
visibility: 0.9899893403053284
","x: 223.10678100585938
y: 480.1302490234375
z: 0.24437697231769562
visibility: 0.9770686030387878
","x: 240.86013793945312
y: 500.27459716796875
z: 0.046714361757040024
visibility: 0.9145163893699646
","x: 223.85650634765625
y: 485.9314270019531
z: 0.258174866437912
visibility: 0.8325254917144775
","x: 246.86422729492188
y: 509.0246276855469
z: -0.05477233976125717
visibility: 0.9853137731552124
","x: 219.1959228515625
y: 499.38763427734375
z: 0.1769157201051712
visibility: 0.970894455909729
",4.494935750961304,,,,,,,,,,,,,,,,,,,,,,,,,,,,,,,,,,,,,,,,,,
3,"x: 241.39463806152344
y: 260.46624755859375
z: -0.24348226189613342
visibility: 0.999975860118866
","x: 243.49038696289062
y: 256.2981872558594
z: -0.22924137115478516
visibility: 0.9998989105224609
","x: 244.662841796875
y: 256.71392822265625
z: -0.22924387454986572
visibility: 0.9998924732208252
","x: 245.80117797851562
y: 257.0979919433594
z: -0.22925856709480286
visibility: 0.9998815059661865
","x: 239.9837188720703
y: 255.4263153076172
z: -0.23260101675987244
visibility: 0.9999098181724548
","x: 238.83274841308594
y: 255.27366638183594
z: -0.2326083481311798
visibility: 0.9999012351036072
","x: 237.51260375976562
y: 255.1040496826172
z: -0.23263148963451385
visibility: 0.9998878836631775
","x: 247.0254669189453
y: 261.07470703125
z: -0.1394253820180893
visibility: 0.9995957016944885
","x: 234.9439697265625
y: 258.51690673828125
z: -0.1549077183008194
visibility: 0.999755859375
","x: 242.7420654296875
y: 267.7826232910156
z: -0.20979496836662292
visibility: 0.9999144673347473
","x: 238.5675048828125
y: 266.5447692871094
z: -0.21434195339679718
visibility: 0.9999188780784607
","x: 253.4595947265625
y: 293.8101806640625
z: -0.07372206449508667
visibility: 0.9998817443847656
","x: 222.5752716064453
y: 291.5552978515625
z: -0.09370611608028412
visibility: 0.9999030232429504
","x: 261.2291564941406
y: 326.1059875488281
z: -0.10784775018692017
visibility: 0.9617425799369812
","x: 214.6350555419922
y: 333.5228271484375
z: -0.06183544918894768
visibility: 0.9866885542869568
","x: 264.6528625488281
y: 314.47650146484375
z: -0.2414499819278717
visibility: 0.9056326746940613
","x: 213.78236389160156
y: 369.56256103515625
z: -0.08737920969724655
visibility: 0.9472535848617554
","x: 265.3172912597656
y: 308.89324951171875
z: -0.26537781953811646
visibility: 0.8508754372596741
","x: 213.2593994140625
y: 382.5185852050781
z: -0.09385110437870026
visibility: 0.8774531483650208
","x: 264.7749328613281
y: 304.9484558105469
z: -0.27064990997314453
visibility: 0.8617719411849976
","x: 215.67892456054688
y: 382.0340270996094
z: -0.11297593265771866
visibility: 0.883226752281189
","x: 262.7051086425781
y: 303.4891357421875
z: -0.24760477244853973
visibility: 0.8432391881942749
","x: 216.58718872070312
y: 378.1193542480469
z: -0.09374978393316269
visibility: 0.8602869510650635
","x: 246.82293701171875
y: 373.0377197265625
z: 0.0012942405883222818
visibility: 0.9997672438621521
","x: 228.46298217773438
y: 371.96728515625
z: -0.0013407963560894132
visibility: 0.9995421171188354
","x: 243.478515625
y: 430.9288024902344
z: -0.04048757627606392
visibility: 0.9881966710090637
","x: 228.08169555664062
y: 432.00537109375
z: 0.052670758217573166
visibility: 0.9809900522232056
","x: 243.1692352294922
y: 491.212890625
z: 0.04419872909784317
visibility: 0.9899893403053284
","x: 223.10678100585938
y: 480.1302490234375
z: 0.24437697231769562
visibility: 0.9770686030387878
","x: 240.86013793945312
y: 500.27459716796875
z: 0.046714361757040024
visibility: 0.9145163893699646
","x: 223.85650634765625
y: 485.9314270019531
z: 0.258174866437912
visibility: 0.8325254917144775
","x: 246.86422729492188
y: 509.0246276855469
z: -0.05477233976125717
visibility: 0.9853137731552124
","x: 219.1959228515625
y: 499.38763427734375
z: 0.1769157201051712
visibility: 0.970894455909729
",4.494935750961304,,,,,,,,,,,,,,,,,,,,,,,,,,,,,,,,,,,,,,,,,,
4,"x: 245.02919006347656
y: 260.0794372558594
z: -0.20719151198863983
visibility: 0.9999779462814331
","x: 246.9911346435547
y: 256.1185302734375
z: -0.19104066491127014
visibility: 0.9999076724052429
","x: 248.16702270507812
y: 256.585205078125
z: -0.19103530049324036
visibility: 0.9999019503593445
","x: 249.26919555664062
y: 257.0073547363281
z: -0.19104988873004913
visibility: 0.9998919367790222
","x: 243.5732421875
y: 255.0688018798828
z: -0.19603979587554932
visibility: 0.9999175667762756
","x: 242.33908081054688
y: 254.78411865234375
z: -0.19601084291934967
visibility: 0.9999097585678101
","x: 241.27301025390625
y: 254.50279235839844
z: -0.1960046887397766
visibility: 0.9998973608016968
","x: 249.93310546875
y: 260.8306579589844
z: -0.09684678167104721
visibility: 0.9996314644813538
","x: 238.8679962158203
y: 257.3748474121094
z: -0.12137214094400406
visibility: 0.9997791051864624
","x: 246.1959686279297
y: 267.2646484375
z: -0.17217515408992767
visibility: 0.9999224543571472
","x: 242.03753662109375
y: 265.7613525390625
z: -0.17941978573799133
visibility: 0.9999265670776367
","x: 255.6034698486328
y: 292.9641418457031
z: -0.04293312877416611
visibility: 0.9998921155929565
","x: 224.84718322753906
y: 291.05584716796875
z: -0.058575768023729324
visibility: 0.9999098777770996
","x: 270.51983642578125
y: 317.9285583496094
z: -0.12672440707683563
visibility: 0.9654392600059509
","x: 216.17713928222656
y: 332.412109375
z: -0.025977153331041336
visibility: 0.9871582388877869
","x: 263.68212890625
y: 278.7942199707031
z: -0.28862354159355164
visibility: 0.9148026704788208
","x: 214.69070434570312
y: 366.8554382324219
z: -0.05996198579668999
visibility: 0.9480926990509033
","x: 263.0462646484375
y: 269.3327941894531
z: -0.3217468857765198
visibility: 0.8644135594367981
","x: 214.30743408203125
y: 378.6228942871094
z: -0.06857765465974808
visibility: 0.8772847652435303
","x: 261.8123779296875
y: 268.28533935546875
z: -0.3110246956348419
visibility: 0.8741907477378845
","x: 216.3452606201172
y: 378.9808654785156
z: -0.08669458329677582
visibility: 0.8826279640197754
","x: 261.5632629394531
y: 271.1031799316406
z: -0.28846660256385803
visibility: 0.856645405292511
","x: 217.09765625
y: 375.63818359375
z: -0.06636783480644226
visibility: 0.859254002571106
","x: 248.40444946289062
y: 372.4124755859375
z: 0.006776747759431601
visibility: 0.9997808337211609
","x: 230.39273071289062
y: 370.0982360839844
z: -0.006896948907524347
visibility: 0.9995700716972351
","x: 244.74740600585938
y: 430.88787841796875
z: 0.0021797637455165386
visibility: 0.9881811738014221
","x: 233.2697296142578
y: 431.1275634765625
z: 0.004613724537193775
visibility: 0.9813719987869263
","x: 243.5623779296875
y: 490.6783447265625
z: 0.12454520165920258
visibility: 0.9899166226387024
","x: 227.34429931640625
y: 480.322021484375
z: 0.17944811284542084
visibility: 0.9767366051673889
","x: 241.18563842773438
y: 498.98211669921875
z: 0.13256266713142395
visibility: 0.9140145778656006
","x: 227.35162353515625
y: 485.95648193359375
z: 0.1932285875082016
visibility: 0.822593092918396
","x: 246.35084533691406
y: 508.9886474609375
z: 0.04382213205099106
visibility: 0.9853997230529785
","x: 226.0734100341797
y: 501.75048828125
z: 0.12078901380300522
visibility: 0.9709155559539795
",4.634789705276489,,,,,,,,,,,,,,,,,,,,,,,,,,,,,,,,,,,,,,,,,,
5,"x: 245.02919006347656
y: 260.0794372558594
z: -0.20719151198863983
visibility: 0.9999779462814331
","x: 246.9911346435547
y: 256.1185302734375
z: -0.19104066491127014
visibility: 0.9999076724052429
","x: 248.16702270507812
y: 256.585205078125
z: -0.19103530049324036
visibility: 0.9999019503593445
","x: 249.26919555664062
y: 257.0073547363281
z: -0.19104988873004913
visibility: 0.9998919367790222
","x: 243.5732421875
y: 255.0688018798828
z: -0.19603979587554932
visibility: 0.9999175667762756
","x: 242.33908081054688
y: 254.78411865234375
z: -0.19601084291934967
visibility: 0.9999097585678101
","x: 241.27301025390625
y: 254.50279235839844
z: -0.1960046887397766
visibility: 0.9998973608016968
","x: 249.93310546875
y: 260.8306579589844
z: -0.09684678167104721
visibility: 0.9996314644813538
","x: 238.8679962158203
y: 257.3748474121094
z: -0.12137214094400406
visibility: 0.9997791051864624
","x: 246.1959686279297
y: 267.2646484375
z: -0.17217515408992767
visibility: 0.9999224543571472
","x: 242.03753662109375
y: 265.7613525390625
z: -0.17941978573799133
visibility: 0.9999265670776367
","x: 255.6034698486328
y: 292.9641418457031
z: -0.04293312877416611
visibility: 0.9998921155929565
","x: 224.84718322753906
y: 291.05584716796875
z: -0.058575768023729324
visibility: 0.9999098777770996
","x: 270.51983642578125
y: 317.9285583496094
z: -0.12672440707683563
visibility: 0.9654392600059509
","x: 216.17713928222656
y: 332.412109375
z: -0.025977153331041336
visibility: 0.9871582388877869
","x: 263.68212890625
y: 278.7942199707031
z: -0.28862354159355164
visibility: 0.9148026704788208
","x: 214.69070434570312
y: 366.8554382324219
z: -0.05996198579668999
visibility: 0.9480926990509033
","x: 263.0462646484375
y: 269.3327941894531
z: -0.3217468857765198
visibility: 0.8644135594367981
","x: 214.30743408203125
y: 378.6228942871094
z: -0.06857765465974808
visibility: 0.8772847652435303
","x: 261.8123779296875
y: 268.28533935546875
z: -0.3110246956348419
visibility: 0.8741907477378845
","x: 216.3452606201172
y: 378.9808654785156
z: -0.08669458329677582
visibility: 0.8826279640197754
","x: 261.5632629394531
y: 271.1031799316406
z: -0.28846660256385803
visibility: 0.856645405292511
","x: 217.09765625
y: 375.63818359375
z: -0.06636783480644226
visibility: 0.859254002571106
","x: 248.40444946289062
y: 372.4124755859375
z: 0.006776747759431601
visibility: 0.9997808337211609
","x: 230.39273071289062
y: 370.0982360839844
z: -0.006896948907524347
visibility: 0.9995700716972351
","x: 244.74740600585938
y: 430.88787841796875
z: 0.0021797637455165386
visibility: 0.9881811738014221
","x: 233.2697296142578
y: 431.1275634765625
z: 0.004613724537193775
visibility: 0.9813719987869263
","x: 243.5623779296875
y: 490.6783447265625
z: 0.12454520165920258
visibility: 0.9899166226387024
","x: 227.34429931640625
y: 480.322021484375
z: 0.17944811284542084
visibility: 0.9767366051673889
","x: 241.18563842773438
y: 498.98211669921875
z: 0.13256266713142395
visibility: 0.9140145778656006
","x: 227.35162353515625
y: 485.95648193359375
z: 0.1932285875082016
visibility: 0.822593092918396
","x: 246.35084533691406
y: 508.9886474609375
z: 0.04382213205099106
visibility: 0.9853997230529785
","x: 226.0734100341797
y: 501.75048828125
z: 0.12078901380300522
visibility: 0.9709155559539795
",4.634789705276489,,,,,,,,,,,,,,,,,,,,,,,,,,,,,,,,,,,,,,,,,,
6,"x: 248.20701599121094
y: 260.0404052734375
z: -0.2045743465423584
visibility: 0.9999796748161316
","x: 249.75460815429688
y: 256.0299072265625
z: -0.1887449324131012
visibility: 0.9999152421951294
","x: 250.62818908691406
y: 256.52117919921875
z: -0.18873755633831024
visibility: 0.9999102354049683
","x: 251.5042266845703
y: 256.9609680175781
z: -0.18876436352729797
visibility: 0.9999011158943176
","x: 246.64501953125
y: 254.92718505859375
z: -0.19632521271705627
visibility: 0.99992436170578
","x: 245.38198852539062
y: 254.62734985351562
z: -0.19632139801979065
visibility: 0.9999173879623413
","x: 244.15045166015625
y: 254.2831268310547
z: -0.19631396234035492
visibility: 0.999906063079834
","x: 251.37872314453125
y: 260.6669006347656
z: -0.09192483127117157
visibility: 0.9996644854545593
","x: 241.3739471435547
y: 256.76043701171875
z: -0.12839995324611664
visibility: 0.9998002648353577
","x: 248.8233642578125
y: 267.26995849609375
z: -0.1676355004310608
visibility: 0.9999293088912964
","x: 245.04000854492188
y: 265.794189453125
z: -0.1784568727016449
visibility: 0.9999333620071411
","x: 255.71585083007812
y: 290.53662109375
z: -0.03963153064250946
visibility: 0.999901294708252
","x: 225.90939331054688
y: 290.3506774902344
z: -0.05583105608820915
visibility: 0.9999153017997742
","x: 271.6024475097656
y: 305.7747802734375
z: -0.11650724709033966
visibility: 0.9687018394470215
","x: 218.08877563476562
y: 330.5520935058594
z: -0.002810466568917036
visibility: 0.9866529107093811
","x: 263.2262878417969
y: 270.4073486328125
z: -0.26496773958206177
visibility: 0.9225817918777466
","x: 217.76329040527344
y: 364.2406921386719
z: -0.008506126701831818
visibility: 0.942566990852356
","x: 259.3784484863281
y: 261.37359619140625
z: -0.29645851254463196
visibility: 0.8740792870521545
","x: 217.8409423828125
y: 375.87115478515625
z: -0.012129127979278564
visibility: 0.8663715124130249
","x: 258.20318603515625
y: 260.6830139160156
z: -0.2878637909889221
visibility: 0.8826954960823059
","x: 219.16726684570312
y: 376.2768249511719
z: -0.03111608698964119
visibility: 0.8716764450073242
","x: 258.8490295410156
y: 264.1830749511719
z: -0.2655990421772003
visibility: 0.864811360836029
","x: 219.8230743408203
y: 372.6304626464844
z: -0.014371724799275398
visibility: 0.8462666273117065
","x: 250.05712890625
y: 369.1999816894531
z: 0.007791084703058004
visibility: 0.9997789263725281
","x: 232.20606994628906
y: 368.02679443359375
z: -0.007911412976682186
visibility: 0.9995831251144409
","x: 245.8795166015625
y: 430.8645935058594
z: -0.003050826722756028
visibility: 0.9879056811332703
","x: 236.21575927734375
y: 430.9425354003906
z: -0.01748591661453247
visibility: 0.9809042811393738
","x: 243.7230224609375
y: 490.67364501953125
z: 0.08996085077524185
visibility: 0.9893724918365479
","x: 231.90391540527344
y: 484.9254150390625
z: 0.09228411316871643
visibility: 0.9763421416282654
","x: 241.35987854003906
y: 498.41925048828125
z: 0.09499011188745499
visibility: 0.9119342565536499
","x: 231.15582275390625
y: 491.759765625
z: 0.09737113863229752
visibility: 0.8118648529052734
","x: 246.33590698242188
y: 509.1229248046875
z: 0.0022789614740759134
visibility: 0.9853092432022095
","x: 232.92539978027344
y: 504.47216796875
z: 0.0020728865638375282
visibility: 0.9706255197525024
",4.76110577583313,"x: 261.2451477050781
y: 268.8416442871094
z: 0.0
","x: 259.8520202636719
y: 263.41815185546875
z: 0.002362289698794484
","x: 257.7471618652344
y: 258.0408935546875
z: 0.0017365763196721673
","x: 255.68540954589844
y: 255.1152801513672
z: 0.0001901787763927132
","x: 253.8503875732422
y: 254.07589721679688
z: -0.0012126854853704572
","x: 257.9361877441406
y: 252.6268768310547
z: 0.0001235625531990081
","x: 256.00750732421875
y: 246.53802490234375
z: -0.0015295433113351464
","x: 254.75692749023438
y: 242.29417419433594
z: -0.0025483062490820885
","x: 253.88436889648438
y: 239.170166015625
z: -0.0033632609993219376
","x: 257.8416748046875
y: 253.73854064941406
z: -0.0026153014041483402
","x: 253.123291015625
y: 250.7045135498047
z: -0.004484755918383598
","x: 251.99118041992188
y: 252.9384002685547
z: -0.0039643775671720505
","x: 252.1217498779297
y: 255.08477783203125
z: -0.0032653501257300377
","x: 257.4412841796875
y: 256.01373291015625
z: -0.005316621158272028
","x: 252.87525939941406
y: 253.22610473632812
z: -0.00660590548068285
","x: 252.14369201660156
y: 255.14877319335938
z: -0.005233983509242535
","x: 252.5041046142578
y: 256.8641357421875
z: -0.00423046899959445
","x: 256.8550720214844
y: 259.0231628417969
z: -0.00801568292081356
","x: 253.35264587402344
y: 256.7221374511719
z: -0.008652293123304844
","x: 252.4015350341797
y: 257.4090576171875
z: -0.0076770600862801075
","x: 252.3109588623047
y: 258.3880310058594
z: -0.006924861576408148
",,,,,,,,,,,,,,,,,,,,,
7,"x: 248.20701599121094
y: 260.0404052734375
z: -0.2045743465423584
visibility: 0.9999796748161316
","x: 249.75460815429688
y: 256.0299072265625
z: -0.1887449324131012
visibility: 0.9999152421951294
","x: 250.62818908691406
y: 256.52117919921875
z: -0.18873755633831024
visibility: 0.9999102354049683
","x: 251.5042266845703
y: 256.9609680175781
z: -0.18876436352729797
visibility: 0.9999011158943176
","x: 246.64501953125
y: 254.92718505859375
z: -0.19632521271705627
visibility: 0.99992436170578
","x: 245.38198852539062
y: 254.62734985351562
z: -0.19632139801979065
visibility: 0.9999173879623413
","x: 244.15045166015625
y: 254.2831268310547
z: -0.19631396234035492
visibility: 0.999906063079834
","x: 251.37872314453125
y: 260.6669006347656
z: -0.09192483127117157
visibility: 0.9996644854545593
","x: 241.3739471435547
y: 256.76043701171875
z: -0.12839995324611664
visibility: 0.9998002648353577
","x: 248.8233642578125
y: 267.26995849609375
z: -0.1676355004310608
visibility: 0.9999293088912964
","x: 245.04000854492188
y: 265.794189453125
z: -0.1784568727016449
visibility: 0.9999333620071411
","x: 255.71585083007812
y: 290.53662109375
z: -0.03963153064250946
visibility: 0.999901294708252
","x: 225.90939331054688
y: 290.3506774902344
z: -0.05583105608820915
visibility: 0.9999153017997742
","x: 271.6024475097656
y: 305.7747802734375
z: -0.11650724709033966
visibility: 0.9687018394470215
","x: 218.08877563476562
y: 330.5520935058594
z: -0.002810466568917036
visibility: 0.9866529107093811
","x: 263.2262878417969
y: 270.4073486328125
z: -0.26496773958206177
visibility: 0.9225817918777466
","x: 217.76329040527344
y: 364.2406921386719
z: -0.008506126701831818
visibility: 0.942566990852356
","x: 259.3784484863281
y: 261.37359619140625
z: -0.29645851254463196
visibility: 0.8740792870521545
","x: 217.8409423828125
y: 375.87115478515625
z: -0.012129127979278564
visibility: 0.8663715124130249
","x: 258.20318603515625
y: 260.6830139160156
z: -0.2878637909889221
visibility: 0.8826954960823059
","x: 219.16726684570312
y: 376.2768249511719
z: -0.03111608698964119
visibility: 0.8716764450073242
","x: 258.8490295410156
y: 264.1830749511719
z: -0.2655990421772003
visibility: 0.864811360836029
","x: 219.8230743408203
y: 372.6304626464844
z: -0.014371724799275398
visibility: 0.8462666273117065
","x: 250.05712890625
y: 369.1999816894531
z: 0.007791084703058004
visibility: 0.9997789263725281
","x: 232.20606994628906
y: 368.02679443359375
z: -0.007911412976682186
visibility: 0.9995831251144409
","x: 245.8795166015625
y: 430.8645935058594
z: -0.003050826722756028
visibility: 0.9879056811332703
","x: 236.21575927734375
y: 430.9425354003906
z: -0.01748591661453247
visibility: 0.9809042811393738
","x: 243.7230224609375
y: 490.67364501953125
z: 0.08996085077524185
visibility: 0.9893724918365479
","x: 231.90391540527344
y: 484.9254150390625
z: 0.09228411316871643
visibility: 0.9763421416282654
","x: 241.35987854003906
y: 498.41925048828125
z: 0.09499011188745499
visibility: 0.9119342565536499
","x: 231.15582275390625
y: 491.759765625
z: 0.09737113863229752
visibility: 0.8118648529052734
","x: 246.33590698242188
y: 509.1229248046875
z: 0.0022789614740759134
visibility: 0.9853092432022095
","x: 232.92539978027344
y: 504.47216796875
z: 0.0020728865638375282
visibility: 0.9706255197525024
",4.76110577583313,"x: 261.2451477050781
y: 268.8416442871094
z: 0.0
","x: 259.8520202636719
y: 263.41815185546875
z: 0.002362289698794484
","x: 257.7471618652344
y: 258.0408935546875
z: 0.0017365763196721673
","x: 255.68540954589844
y: 255.1152801513672
z: 0.0001901787763927132
","x: 253.8503875732422
y: 254.07589721679688
z: -0.0012126854853704572
","x: 257.9361877441406
y: 252.6268768310547
z: 0.0001235625531990081
","x: 256.00750732421875
y: 246.53802490234375
z: -0.0015295433113351464
","x: 254.75692749023438
y: 242.29417419433594
z: -0.0025483062490820885
","x: 253.88436889648438
y: 239.170166015625
z: -0.0033632609993219376
","x: 257.8416748046875
y: 253.73854064941406
z: -0.0026153014041483402
","x: 253.123291015625
y: 250.7045135498047
z: -0.004484755918383598
","x: 251.99118041992188
y: 252.9384002685547
z: -0.0039643775671720505
","x: 252.1217498779297
y: 255.08477783203125
z: -0.0032653501257300377
","x: 257.4412841796875
y: 256.01373291015625
z: -0.005316621158272028
","x: 252.87525939941406
y: 253.22610473632812
z: -0.00660590548068285
","x: 252.14369201660156
y: 255.14877319335938
z: -0.005233983509242535
","x: 252.5041046142578
y: 256.8641357421875
z: -0.00423046899959445
","x: 256.8550720214844
y: 259.0231628417969
z: -0.00801568292081356
","x: 253.35264587402344
y: 256.7221374511719
z: -0.008652293123304844
","x: 252.4015350341797
y: 257.4090576171875
z: -0.0076770600862801075
","x: 252.3109588623047
y: 258.3880310058594
z: -0.006924861576408148
",,,,,,,,,,,,,,,,,,,,,
8,"x: 248.20701599121094
y: 260.0404052734375
z: -0.2045743465423584
visibility: 0.9999796748161316
","x: 249.75460815429688
y: 256.0299072265625
z: -0.1887449324131012
visibility: 0.9999152421951294
","x: 250.62818908691406
y: 256.52117919921875
z: -0.18873755633831024
visibility: 0.9999102354049683
","x: 251.5042266845703
y: 256.9609680175781
z: -0.18876436352729797
visibility: 0.9999011158943176
","x: 246.64501953125
y: 254.92718505859375
z: -0.19632521271705627
visibility: 0.99992436170578
","x: 245.38198852539062
y: 254.62734985351562
z: -0.19632139801979065
visibility: 0.9999173879623413
","x: 244.15045166015625
y: 254.2831268310547
z: -0.19631396234035492
visibility: 0.999906063079834
","x: 251.37872314453125
y: 260.6669006347656
z: -0.09192483127117157
visibility: 0.9996644854545593
","x: 241.3739471435547
y: 256.76043701171875
z: -0.12839995324611664
visibility: 0.9998002648353577
","x: 248.8233642578125
y: 267.26995849609375
z: -0.1676355004310608
visibility: 0.9999293088912964
","x: 245.04000854492188
y: 265.794189453125
z: -0.1784568727016449
visibility: 0.9999333620071411
","x: 255.71585083007812
y: 290.53662109375
z: -0.03963153064250946
visibility: 0.999901294708252
","x: 225.90939331054688
y: 290.3506774902344
z: -0.05583105608820915
visibility: 0.9999153017997742
","x: 271.6024475097656
y: 305.7747802734375
z: -0.11650724709033966
visibility: 0.9687018394470215
","x: 218.08877563476562
y: 330.5520935058594
z: -0.002810466568917036
visibility: 0.9866529107093811
","x: 263.2262878417969
y: 270.4073486328125
z: -0.26496773958206177
visibility: 0.9225817918777466
","x: 217.76329040527344
y: 364.2406921386719
z: -0.008506126701831818
visibility: 0.942566990852356
","x: 259.3784484863281
y: 261.37359619140625
z: -0.29645851254463196
visibility: 0.8740792870521545
","x: 217.8409423828125
y: 375.87115478515625
z: -0.012129127979278564
visibility: 0.8663715124130249
","x: 258.20318603515625
y: 260.6830139160156
z: -0.2878637909889221
visibility: 0.8826954960823059
","x: 219.16726684570312
y: 376.2768249511719
z: -0.03111608698964119
visibility: 0.8716764450073242
","x: 258.8490295410156
y: 264.1830749511719
z: -0.2655990421772003
visibility: 0.864811360836029
","x: 219.8230743408203
y: 372.6304626464844
z: -0.014371724799275398
visibility: 0.8462666273117065
","x: 250.05712890625
y: 369.1999816894531
z: 0.007791084703058004
visibility: 0.9997789263725281
","x: 232.20606994628906
y: 368.02679443359375
z: -0.007911412976682186
visibility: 0.9995831251144409
","x: 245.8795166015625
y: 430.8645935058594
z: -0.003050826722756028
visibility: 0.9879056811332703
","x: 236.21575927734375
y: 430.9425354003906
z: -0.01748591661453247
visibility: 0.9809042811393738
","x: 243.7230224609375
y: 490.67364501953125
z: 0.08996085077524185
visibility: 0.9893724918365479
","x: 231.90391540527344
y: 484.9254150390625
z: 0.09228411316871643
visibility: 0.9763421416282654
","x: 241.35987854003906
y: 498.41925048828125
z: 0.09499011188745499
visibility: 0.9119342565536499
","x: 231.15582275390625
y: 491.759765625
z: 0.09737113863229752
visibility: 0.8118648529052734
","x: 246.33590698242188
y: 509.1229248046875
z: 0.0022789614740759134
visibility: 0.9853092432022095
","x: 232.92539978027344
y: 504.47216796875
z: 0.0020728865638375282
visibility: 0.9706255197525024
",4.76110577583313,"x: 261.2451477050781
y: 268.8416442871094
z: 0.0
","x: 259.8520202636719
y: 263.41815185546875
z: 0.002362289698794484
","x: 257.7471618652344
y: 258.0408935546875
z: 0.0017365763196721673
","x: 255.68540954589844
y: 255.1152801513672
z: 0.0001901787763927132
","x: 253.8503875732422
y: 254.07589721679688
z: -0.0012126854853704572
","x: 257.9361877441406
y: 252.6268768310547
z: 0.0001235625531990081
","x: 256.00750732421875
y: 246.53802490234375
z: -0.0015295433113351464
","x: 254.75692749023438
y: 242.29417419433594
z: -0.0025483062490820885
","x: 253.88436889648438
y: 239.170166015625
z: -0.0033632609993219376
","x: 257.8416748046875
y: 253.73854064941406
z: -0.0026153014041483402
","x: 253.123291015625
y: 250.7045135498047
z: -0.004484755918383598
","x: 251.99118041992188
y: 252.9384002685547
z: -0.0039643775671720505
","x: 252.1217498779297
y: 255.08477783203125
z: -0.0032653501257300377
","x: 257.4412841796875
y: 256.01373291015625
z: -0.005316621158272028
","x: 252.87525939941406
y: 253.22610473632812
z: -0.00660590548068285
","x: 252.14369201660156
y: 255.14877319335938
z: -0.005233983509242535
","x: 252.5041046142578
y: 256.8641357421875
z: -0.00423046899959445
","x: 256.8550720214844
y: 259.0231628417969
z: -0.00801568292081356
","x: 253.35264587402344
y: 256.7221374511719
z: -0.008652293123304844
","x: 252.4015350341797
y: 257.4090576171875
z: -0.0076770600862801075
","x: 252.3109588623047
y: 258.3880310058594
z: -0.006924861576408148
",,,,,,,,,,,,,,,,,,,,,
9,"x: 248.4275665283203
y: 259.0841979980469
z: -0.13462543487548828
visibility: 0.999981164932251
","x: 250.01841735839844
y: 255.22447204589844
z: -0.11596305668354034
visibility: 0.9999220371246338
","x: 250.86976623535156
y: 255.8188018798828
z: -0.11596731096506119
visibility: 0.9999170303344727
","x: 251.69906616210938
y: 256.30914306640625
z: -0.11597750335931778
visibility: 0.9999088048934937
","x: 246.97186279296875
y: 253.6676025390625
z: -0.12471123039722443
visibility: 0.9999309182167053
","x: 245.7279052734375
y: 253.17288208007812
z: -0.12471765279769897
visibility: 0.9999246597290039
","x: 244.5467071533203
y: 252.59375
z: -0.12472323328256607
visibility: 0.9999146461486816
","x: 251.36587524414062
y: 259.6133728027344
z: -0.015993749722838402
visibility: 0.9996917247772217
","x: 241.69189453125
y: 254.90638732910156
z: -0.05845274776220322
visibility: 0.9998196363449097
","x: 248.79421997070312
y: 266.65948486328125
z: -0.09737171232700348
visibility: 0.9999349117279053
","x: 245.17050170898438
y: 264.4803466796875
z: -0.1097014769911766
visibility: 0.999939501285553
","x: 256.10980224609375
y: 288.30657958984375
z: 0.03538834676146507
visibility: 0.9998970627784729
","x: 226.44223022460938
y: 289.2925720214844
z: -0.0028048153035342693
visibility: 0.999919056892395
","x: 272.783447265625
y: 298.0532531738281
z: -0.03069772943854332
visibility: 0.9714145660400391
","x: 219.11715698242188
y: 327.94268798828125
z: 0.02627708949148655
visibility: 0.9868770241737366
","x: 262.7844543457031
y: 264.8310546875
z: -0.15923036634922028
visibility: 0.9289126396179199
","x: 220.5200958251953
y: 356.2523193359375
z: 0.0029235437978059053
visibility: 0.943153977394104
","x: 257.6598815917969
y: 256.2786865234375
z: -0.19063910841941833
visibility: 0.880093514919281
","x: 220.45272827148438
y: 367.9156799316406
z: -0.004957248456776142
visibility: 0.8675602674484253
","x: 256.60498046875
y: 256.218994140625
z: -0.17608562111854553
visibility: 0.8872988820075989
","x: 222.85545349121094
y: 367.66558837890625
z: -0.02197859063744545
visibility: 0.8724409341812134
","x: 257.3277587890625
y: 259.9151306152344
z: -0.15789619088172913
visibility: 0.8687484264373779
","x: 223.89613342285156
y: 363.82427978515625
z: -0.0022737670224159956
visibility: 0.8465957045555115
","x: 251.37673950195312
y: 368.69482421875
z: 0.010947797447443008
visibility: 0.9997155666351318
","x: 234.55206298828125
y: 368.2502746582031
z: -0.010993468575179577
visibility: 0.9995497465133667
","x: 246.52993774414062
y: 430.3834228515625
z: -0.017133885994553566
visibility: 0.9846465587615967
","x: 238.0555419921875
y: 430.9918212890625
z: -0.029384780675172806
visibility: 0.9783557057380676
","x: 243.70755004882812
y: 490.6938171386719
z: 0.06682471930980682
visibility: 0.9860418438911438
","x: 236.72119140625
y: 490.2261657714844
z: 0.030446181073784828
visibility: 0.9735565185546875
","x: 241.16778564453125
y: 498.6470947265625
z: 0.08569281548261642
visibility: 0.9098171591758728
","x: 235.2128448486328
y: 500.43634033203125
z: 0.030228421092033386
visibility: 0.8051526546478271
","x: 247.9647216796875
y: 508.4668273925781
z: -0.03864482045173645
visibility: 0.9831988215446472
","x: 240.39791870117188
y: 505.243408203125
z: -0.06288035959005356
visibility: 0.9673216342926025
",4.9040021896362305,,,,,,,,,,,,,,,,,,,,,,,,,,,,,,,,,,,,,,,,,,
10,"x: 248.4275665283203
y: 259.0841979980469
z: -0.13462543487548828
visibility: 0.999981164932251
","x: 250.01841735839844
y: 255.22447204589844
z: -0.11596305668354034
visibility: 0.9999220371246338
","x: 250.86976623535156
y: 255.8188018798828
z: -0.11596731096506119
visibility: 0.9999170303344727
","x: 251.69906616210938
y: 256.30914306640625
z: -0.11597750335931778
visibility: 0.9999088048934937
","x: 246.97186279296875
y: 253.6676025390625
z: -0.12471123039722443
visibility: 0.9999309182167053
","x: 245.7279052734375
y: 253.17288208007812
z: -0.12471765279769897
visibility: 0.9999246597290039
","x: 244.5467071533203
y: 252.59375
z: -0.12472323328256607
visibility: 0.9999146461486816
","x: 251.36587524414062
y: 259.6133728027344
z: -0.015993749722838402
visibility: 0.9996917247772217
","x: 241.69189453125
y: 254.90638732910156
z: -0.05845274776220322
visibility: 0.9998196363449097
","x: 248.79421997070312
y: 266.65948486328125
z: -0.09737171232700348
visibility: 0.9999349117279053
","x: 245.17050170898438
y: 264.4803466796875
z: -0.1097014769911766
visibility: 0.999939501285553
","x: 256.10980224609375
y: 288.30657958984375
z: 0.03538834676146507
visibility: 0.9998970627784729
","x: 226.44223022460938
y: 289.2925720214844
z: -0.0028048153035342693
visibility: 0.999919056892395
","x: 272.783447265625
y: 298.0532531738281
z: -0.03069772943854332
visibility: 0.9714145660400391
","x: 219.11715698242188
y: 327.94268798828125
z: 0.02627708949148655
visibility: 0.9868770241737366
","x: 262.7844543457031
y: 264.8310546875
z: -0.15923036634922028
visibility: 0.9289126396179199
","x: 220.5200958251953
y: 356.2523193359375
z: 0.0029235437978059053
visibility: 0.943153977394104
","x: 257.6598815917969
y: 256.2786865234375
z: -0.19063910841941833
visibility: 0.880093514919281
","x: 220.45272827148438
y: 367.9156799316406
z: -0.004957248456776142
visibility: 0.8675602674484253
","x: 256.60498046875
y: 256.218994140625
z: -0.17608562111854553
visibility: 0.8872988820075989
","x: 222.85545349121094
y: 367.66558837890625
z: -0.02197859063744545
visibility: 0.8724409341812134
","x: 257.3277587890625
y: 259.9151306152344
z: -0.15789619088172913
visibility: 0.8687484264373779
","x: 223.89613342285156
y: 363.82427978515625
z: -0.0022737670224159956
visibility: 0.8465957045555115
","x: 251.37673950195312
y: 368.69482421875
z: 0.010947797447443008
visibility: 0.9997155666351318
","x: 234.55206298828125
y: 368.2502746582031
z: -0.010993468575179577
visibility: 0.9995497465133667
","x: 246.52993774414062
y: 430.3834228515625
z: -0.017133885994553566
visibility: 0.9846465587615967
","x: 238.0555419921875
y: 430.9918212890625
z: -0.029384780675172806
visibility: 0.9783557057380676
","x: 243.70755004882812
y: 490.6938171386719
z: 0.06682471930980682
visibility: 0.9860418438911438
","x: 236.72119140625
y: 490.2261657714844
z: 0.030446181073784828
visibility: 0.9735565185546875
","x: 241.16778564453125
y: 498.6470947265625
z: 0.08569281548261642
visibility: 0.9098171591758728
","x: 235.2128448486328
y: 500.43634033203125
z: 0.030228421092033386
visibility: 0.8051526546478271
","x: 247.9647216796875
y: 508.4668273925781
z: -0.03864482045173645
visibility: 0.9831988215446472
","x: 240.39791870117188
y: 505.243408203125
z: -0.06288035959005356
visibility: 0.9673216342926025
",4.9040021896362305,,,,,,,,,,,,,,,,,,,,,,,,,,,,,,,,,,,,,,,,,,
11,"x: 246.99949645996094
y: 258.7667541503906
z: -0.19607999920845032
visibility: 0.9999814629554749
","x: 248.55162048339844
y: 254.64707946777344
z: -0.18017953634262085
visibility: 0.9999259114265442
","x: 249.4630584716797
y: 255.19488525390625
z: -0.18018363416194916
visibility: 0.9999206066131592
","x: 250.3536376953125
y: 255.6184539794922
z: -0.18019579350948334
visibility: 0.9999131560325623
","x: 245.5001983642578
y: 253.15682983398438
z: -0.1855965554714203
visibility: 0.9999351501464844
","x: 244.25845336914062
y: 252.67381286621094
z: -0.18560637533664703
visibility: 0.9999291896820068
","x: 243.00767517089844
y: 252.15493774414062
z: -0.18560217320919037
visibility: 0.9999204277992249
","x: 250.471923828125
y: 258.84405517578125
z: -0.08259978890419006
visibility: 0.9997060298919678
","x: 240.0163116455078
y: 254.7753143310547
z: -0.1131991297006607
visibility: 0.9998354911804199
","x: 247.79322814941406
y: 266.3681640625
z: -0.1599102020263672
visibility: 0.9999377727508545
","x: 244.12290954589844
y: 264.33538818359375
z: -0.16848774254322052
visibility: 0.9999442100524902
","x: 255.94760131835938
y: 288.40093994140625
z: -0.01575147546827793
visibility: 0.9998800754547119
","x: 226.217041015625
y: 288.8945617675781
z: -0.04053756967186928
visibility: 0.9999184608459473
","x: 270.8601989746094
y: 306.19525146484375
z: -0.08738894760608673
visibility: 0.9736859202384949
","x: 218.90658569335938
y: 327.76666259765625
z: -0.041072696447372437
visibility: 0.9869019389152527
","x: 261.17242431640625
y: 273.0733642578125
z: -0.26909536123275757
visibility: 0.9351294040679932
","x: 225.69171142578125
y: 347.1190185546875
z: -0.10679914802312851
visibility: 0.9447311162948608
","x: 256.9369812011719
y: 263.49993896484375
z: -0.30720311403274536
visibility: 0.8892382383346558
","x: 227.15780639648438
y: 358.3668518066406
z: -0.12544390559196472
visibility: 0.8713538646697998
","x: 255.85549926757812
y: 262.0779724121094
z: -0.302560031414032
visibility: 0.8955942392349243
","x: 230.04635620117188
y: 356.5244140625
z: -0.1386679708957672
visibility: 0.8757133483886719
","x: 256.2113342285156
y: 265.29962158203125
z: -0.272251695394516
visibility: 0.877269983291626
","x: 229.7987823486328
y: 352.2642822265625
z: -0.11081676185131073
visibility: 0.8486058115959167
","x: 250.64480590820312
y: 368.5540771484375
z: 0.018685877323150635
visibility: 0.9995211362838745
","x: 233.9788055419922
y: 368.1689147949219
z: -0.018736936151981354
visibility: 0.9994428753852844
","x: 246.0624237060547
y: 430.386962890625
z: 0.00988922268152237
visibility: 0.9739200472831726
","x: 239.34402465820312
y: 430.16546630859375
z: -0.04043371602892876
visibility: 0.9746888875961304
","x: 242.89581298828125
y: 490.65618896484375
z: 0.07817394286394119
visibility: 0.9797137379646301
","x: 239.66702270507812
y: 492.14459228515625
z: 0.03037034533917904
visibility: 0.9717051386833191
","x: 239.86961364746094
y: 498.6596984863281
z: 0.0809614509344101
visibility: 0.9057772755622864
","x: 238.26951599121094
y: 503.5406799316406
z: 0.03129138424992561
visibility: 0.8078502416610718
","x: 248.0349578857422
y: 507.1944580078125
z: -0.008317159488797188
visibility: 0.9791054129600525
","x: 243.1995391845703
y: 507.5811767578125
z: -0.06766114383935928
visibility: 0.9653739333152771
",5.029367446899414,,,,,,,,,,,,,,,,,,,,,,,,,,,,,,,,,,,,,,,,,,
12,"x: 246.99949645996094
y: 258.7667541503906
z: -0.19607999920845032
visibility: 0.9999814629554749
","x: 248.55162048339844
y: 254.64707946777344
z: -0.18017953634262085
visibility: 0.9999259114265442
","x: 249.4630584716797
y: 255.19488525390625
z: -0.18018363416194916
visibility: 0.9999206066131592
","x: 250.3536376953125
y: 255.6184539794922
z: -0.18019579350948334
visibility: 0.9999131560325623
","x: 245.5001983642578
y: 253.15682983398438
z: -0.1855965554714203
visibility: 0.9999351501464844
","x: 244.25845336914062
y: 252.67381286621094
z: -0.18560637533664703
visibility: 0.9999291896820068
","x: 243.00767517089844
y: 252.15493774414062
z: -0.18560217320919037
visibility: 0.9999204277992249
","x: 250.471923828125
y: 258.84405517578125
z: -0.08259978890419006
visibility: 0.9997060298919678
","x: 240.0163116455078
y: 254.7753143310547
z: -0.1131991297006607
visibility: 0.9998354911804199
","x: 247.79322814941406
y: 266.3681640625
z: -0.1599102020263672
visibility: 0.9999377727508545
","x: 244.12290954589844
y: 264.33538818359375
z: -0.16848774254322052
visibility: 0.9999442100524902
","x: 255.94760131835938
y: 288.40093994140625
z: -0.01575147546827793
visibility: 0.9998800754547119
","x: 226.217041015625
y: 288.8945617675781
z: -0.04053756967186928
visibility: 0.9999184608459473
","x: 270.8601989746094
y: 306.19525146484375
z: -0.08738894760608673
visibility: 0.9736859202384949
","x: 218.90658569335938
y: 327.76666259765625
z: -0.041072696447372437
visibility: 0.9869019389152527
","x: 261.17242431640625
y: 273.0733642578125
z: -0.26909536123275757
visibility: 0.9351294040679932
","x: 225.69171142578125
y: 347.1190185546875
z: -0.10679914802312851
visibility: 0.9447311162948608
","x: 256.9369812011719
y: 263.49993896484375
z: -0.30720311403274536
visibility: 0.8892382383346558
","x: 227.15780639648438
y: 358.3668518066406
z: -0.12544390559196472
visibility: 0.8713538646697998
","x: 255.85549926757812
y: 262.0779724121094
z: -0.302560031414032
visibility: 0.8955942392349243
","x: 230.04635620117188
y: 356.5244140625
z: -0.1386679708957672
visibility: 0.8757133483886719
","x: 256.2113342285156
y: 265.29962158203125
z: -0.272251695394516
visibility: 0.877269983291626
","x: 229.7987823486328
y: 352.2642822265625
z: -0.11081676185131073
visibility: 0.8486058115959167
","x: 250.64480590820312
y: 368.5540771484375
z: 0.018685877323150635
visibility: 0.9995211362838745
","x: 233.9788055419922
y: 368.1689147949219
z: -0.018736936151981354
visibility: 0.9994428753852844
","x: 246.0624237060547
y: 430.386962890625
z: 0.00988922268152237
visibility: 0.9739200472831726
","x: 239.34402465820312
y: 430.16546630859375
z: -0.04043371602892876
visibility: 0.9746888875961304
","x: 242.89581298828125
y: 490.65618896484375
z: 0.07817394286394119
visibility: 0.9797137379646301
","x: 239.66702270507812
y: 492.14459228515625
z: 0.03037034533917904
visibility: 0.9717051386833191
","x: 239.86961364746094
y: 498.6596984863281
z: 0.0809614509344101
visibility: 0.9057772755622864
","x: 238.26951599121094
y: 503.5406799316406
z: 0.03129138424992561
visibility: 0.8078502416610718
","x: 248.0349578857422
y: 507.1944580078125
z: -0.008317159488797188
visibility: 0.9791054129600525
","x: 243.1995391845703
y: 507.5811767578125
z: -0.06766114383935928
visibility: 0.9653739333152771
",5.029367446899414,,,,,,,,,,,,,,,,,,,,,,,,,,,,,,,,,,,,,,,,,,
13,"x: 245.87716674804688
y: 258.7518615722656
z: -0.19996801018714905
visibility: 0.9999779462814331
","x: 247.45510864257812
y: 254.57888793945312
z: -0.18193821609020233
visibility: 0.9999243021011353
","x: 248.41311645507812
y: 255.0607452392578
z: -0.18197281658649445
visibility: 0.9999159574508667
","x: 249.35231018066406
y: 255.43617248535156
z: -0.18198555707931519
visibility: 0.9999081492424011
","x: 244.36892700195312
y: 253.2127227783203
z: -0.1873897910118103
visibility: 0.9999350905418396
","x: 243.11688232421875
y: 252.7826690673828
z: -0.1874060481786728
visibility: 0.9999285936355591
","x: 241.85861206054688
y: 252.3175811767578
z: -0.18743246793746948
visibility: 0.9999218583106995
","x: 249.77857971191406
y: 258.72564697265625
z: -0.07569181174039841
visibility: 0.9996850490570068
","x: 239.04373168945312
y: 254.9046173095703
z: -0.10225292295217514
visibility: 0.9998447895050049
","x: 246.7915802001953
y: 266.17108154296875
z: -0.1603706181049347
visibility: 0.9999345541000366
","x: 243.0099639892578
y: 264.431640625
z: -0.1680285781621933
visibility: 0.9999462962150574
","x: 255.5523223876953
y: 288.739990234375
z: -0.0033975597470998764
visibility: 0.9998453855514526
","x: 225.65823364257812
y: 288.9877014160156
z: -0.04821304604411125
visibility: 0.999915599822998
","x: 270.21221923828125
y: 312.26361083984375
z: -0.0797925814986229
visibility: 0.9692119359970093
","x: 218.42115783691406
y: 327.9525451660156
z: -0.08791454136371613
visibility: 0.9862653613090515
","x: 261.1626892089844
y: 300.3265075683594
z: -0.28034308552742004
visibility: 0.9355500340461731
","x: 231.1871337890625
y: 342.2882080078125
z: -0.22468259930610657
visibility: 0.9469733834266663
","x: 258.80731201171875
y: 295.5726318359375
z: -0.32444149255752563
visibility: 0.8912478685379028
","x: 235.74722290039062
y: 348.6233215332031
z: -0.2565760612487793
visibility: 0.8781217932701111
","x: 258.6371154785156
y: 289.7469787597656
z: -0.3306354880332947
visibility: 0.8975323438644409
","x: 238.64231872558594
y: 344.448486328125
z: -0.2662438750267029
visibility: 0.8820671439170837
","x: 256.49554443359375
y: 279.28656005859375
z: -0.2882642149925232
visibility: 0.8775002360343933
","x: 237.51007080078125
y: 342.58746337890625
z: -0.22917203605175018
visibility: 0.8547402024269104
","x: 250.05755615234375
y: 368.810546875
z: 0.019839690998196602
visibility: 0.9992810487747192
","x: 233.26181030273438
y: 368.45941162109375
z: -0.019858166575431824
visibility: 0.9993129372596741
","x: 245.8089599609375
y: 431.18212890625
z: 0.015360282734036446
visibility: 0.9598372578620911
","x: 239.6971893310547
y: 430.4366760253906
z: -0.04313502460718155
visibility: 0.9680995941162109
","x: 242.57492065429688
y: 490.72998046875
z: 0.09629170596599579
visibility: 0.9711568355560303
","x: 240.11048889160156
y: 493.42816162109375
z: 0.04235518351197243
visibility: 0.9668270349502563
","x: 239.2247314453125
y: 499.40533447265625
z: 0.0985533818602562
visibility: 0.896685004234314
","x: 238.30934143066406
y: 505.181640625
z: 0.044896773993968964
visibility: 0.8010246753692627
","x: 248.38211059570312
y: 506.77044677734375
z: 0.008608098141849041
visibility: 0.971075177192688
","x: 243.84344482421875
y: 508.10052490234375
z: -0.05620083957910538
visibility: 0.9600927829742432
",5.154876232147217,,,,,,,,,,,,,,,,,,,,,,,,,,,,,,,,,,,,,,,,,,
14,"x: 245.87716674804688
y: 258.7518615722656
z: -0.19996801018714905
visibility: 0.9999779462814331
","x: 247.45510864257812
y: 254.57888793945312
z: -0.18193821609020233
visibility: 0.9999243021011353
","x: 248.41311645507812
y: 255.0607452392578
z: -0.18197281658649445
visibility: 0.9999159574508667
","x: 249.35231018066406
y: 255.43617248535156
z: -0.18198555707931519
visibility: 0.9999081492424011
","x: 244.36892700195312
y: 253.2127227783203
z: -0.1873897910118103
visibility: 0.9999350905418396
","x: 243.11688232421875
y: 252.7826690673828
z: -0.1874060481786728
visibility: 0.9999285936355591
","x: 241.85861206054688
y: 252.3175811767578
z: -0.18743246793746948
visibility: 0.9999218583106995
","x: 249.77857971191406
y: 258.72564697265625
z: -0.07569181174039841
visibility: 0.9996850490570068
","x: 239.04373168945312
y: 254.9046173095703
z: -0.10225292295217514
visibility: 0.9998447895050049
","x: 246.7915802001953
y: 266.17108154296875
z: -0.1603706181049347
visibility: 0.9999345541000366
","x: 243.0099639892578
y: 264.431640625
z: -0.1680285781621933
visibility: 0.9999462962150574
","x: 255.5523223876953
y: 288.739990234375
z: -0.0033975597470998764
visibility: 0.9998453855514526
","x: 225.65823364257812
y: 288.9877014160156
z: -0.04821304604411125
visibility: 0.999915599822998
","x: 270.21221923828125
y: 312.26361083984375
z: -0.0797925814986229
visibility: 0.9692119359970093
","x: 218.42115783691406
y: 327.9525451660156
z: -0.08791454136371613
visibility: 0.9862653613090515
","x: 261.1626892089844
y: 300.3265075683594
z: -0.28034308552742004
visibility: 0.9355500340461731
","x: 231.1871337890625
y: 342.2882080078125
z: -0.22468259930610657
visibility: 0.9469733834266663
","x: 258.80731201171875
y: 295.5726318359375
z: -0.32444149255752563
visibility: 0.8912478685379028
","x: 235.74722290039062
y: 348.6233215332031
z: -0.2565760612487793
visibility: 0.8781217932701111
","x: 258.6371154785156
y: 289.7469787597656
z: -0.3306354880332947
visibility: 0.8975323438644409
","x: 238.64231872558594
y: 344.448486328125
z: -0.2662438750267029
visibility: 0.8820671439170837
","x: 256.49554443359375
y: 279.28656005859375
z: -0.2882642149925232
visibility: 0.8775002360343933
","x: 237.51007080078125
y: 342.58746337890625
z: -0.22917203605175018
visibility: 0.8547402024269104
","x: 250.05755615234375
y: 368.810546875
z: 0.019839690998196602
visibility: 0.9992810487747192
","x: 233.26181030273438
y: 368.45941162109375
z: -0.019858166575431824
visibility: 0.9993129372596741
","x: 245.8089599609375
y: 431.18212890625
z: 0.015360282734036446
visibility: 0.9598372578620911
","x: 239.6971893310547
y: 430.4366760253906
z: -0.04313502460718155
visibility: 0.9680995941162109
","x: 242.57492065429688
y: 490.72998046875
z: 0.09629170596599579
visibility: 0.9711568355560303
","x: 240.11048889160156
y: 493.42816162109375
z: 0.04235518351197243
visibility: 0.9668270349502563
","x: 239.2247314453125
y: 499.40533447265625
z: 0.0985533818602562
visibility: 0.896685004234314
","x: 238.30934143066406
y: 505.181640625
z: 0.044896773993968964
visibility: 0.8010246753692627
","x: 248.38211059570312
y: 506.77044677734375
z: 0.008608098141849041
visibility: 0.971075177192688
","x: 243.84344482421875
y: 508.10052490234375
z: -0.05620083957910538
visibility: 0.9600927829742432
",5.154876232147217,,,,,,,,,,,,,,,,,,,,,,,,,,,,,,,,,,,,,,,,,,
15,"x: 244.92979431152344
y: 258.5010070800781
z: -0.2378809154033661
visibility: 0.9999752044677734
","x: 246.51385498046875
y: 254.18994140625
z: -0.21989862620830536
visibility: 0.9999229907989502
","x: 247.5289764404297
y: 254.5821990966797
z: -0.21992674469947815
visibility: 0.9999128580093384
","x: 248.59225463867188
y: 254.86651611328125
z: -0.21993467211723328
visibility: 0.9999045133590698
","x: 243.23098754882812
y: 252.9490509033203
z: -0.2251831293106079
visibility: 0.9999340176582336
","x: 241.7475128173828
y: 252.5601806640625
z: -0.2252197265625
visibility: 0.9999274611473083
","x: 240.30172729492188
y: 252.17831420898438
z: -0.22525282204151154
visibility: 0.999921977519989
","x: 249.52017211914062
y: 258.1478271484375
z: -0.10735617578029633
visibility: 0.999674916267395
","x: 237.22625732421875
y: 255.02749633789062
z: -0.1320139616727829
visibility: 0.9998501539230347
","x: 246.25906372070312
y: 265.73834228515625
z: -0.1960810124874115
visibility: 0.9999346137046814
","x: 242.18765258789062
y: 264.44482421875
z: -0.2033143937587738
visibility: 0.9999485015869141
","x: 255.35894775390625
y: 289.91522216796875
z: -0.023657551035284996
visibility: 0.9998372793197632
","x: 225.1732940673828
y: 289.027587890625
z: -0.08006143569946289
visibility: 0.9999144077301025
","x: 265.0582580566406
y: 328.5356140136719
z: -0.08418793976306915
visibility: 0.9683416485786438
","x: 218.072998046875
y: 328.9190368652344
z: -0.12551793456077576
visibility: 0.9865714311599731
","x: 256.38360595703125
y: 327.6455383300781
z: -0.27950578927993774
visibility: 0.9385796785354614
","x: 232.7008819580078
y: 337.5381164550781
z: -0.2594078779220581
visibility: 0.950126588344574
","x: 254.22621154785156
y: 328.93804931640625
z: -0.32085007429122925
visibility: 0.8957348465919495
","x: 237.45852661132812
y: 338.41925048828125
z: -0.2921123206615448
visibility: 0.8857535123825073
","x: 253.46815490722656
y: 321.14739990234375
z: -0.32817572355270386
visibility: 0.9016628265380859
","x: 237.89706420898438
y: 332.75872802734375
z: -0.29900044202804565
visibility: 0.8890679478645325
","x: 253.28688049316406
y: 318.81396484375
z: -0.28687554597854614
visibility: 0.8804323077201843
","x: 237.17864990234375
y: 332.388671875
z: -0.26274898648262024
visibility: 0.8615562319755554
","x: 249.88043212890625
y: 368.9602355957031
z: 0.024319889023900032
visibility: 0.9991642832756042
","x: 232.6434326171875
y: 368.59906005859375
z: -0.02435183711349964
visibility: 0.9992436766624451
","x: 247.7613525390625
y: 432.01092529296875
z: 0.017945479601621628
visibility: 0.9541817903518677
","x: 238.5720977783203
y: 430.8511047363281
z: -0.040972333401441574
visibility: 0.9672330021858215
","x: 242.6071319580078
y: 490.7515869140625
z: 0.14058725535869598
visibility: 0.966740071773529
","x: 239.1711883544922
y: 493.3678894042969
z: 0.07459334284067154
visibility: 0.9658423066139221
","x: 239.28089904785156
y: 499.5341796875
z: 0.1471475064754486
visibility: 0.8927654027938843
","x: 237.37596130371094
y: 504.724853515625
z: 0.08013267070055008
visibility: 0.7991325855255127
","x: 249.694580078125
y: 506.8113708496094
z: 0.055486731231212616
visibility: 0.9670774340629578
","x: 243.08023071289062
y: 508.2915954589844
z: -0.023870069533586502
visibility: 0.9587640166282654
",5.28087306022644,,,,,,,,,,,,,,,,,,,,,,,,,,,,,,,,,,,,,,,,,,
16,"x: 244.92979431152344
y: 258.5010070800781
z: -0.2378809154033661
visibility: 0.9999752044677734
","x: 246.51385498046875
y: 254.18994140625
z: -0.21989862620830536
visibility: 0.9999229907989502
","x: 247.5289764404297
y: 254.5821990966797
z: -0.21992674469947815
visibility: 0.9999128580093384
","x: 248.59225463867188
y: 254.86651611328125
z: -0.21993467211723328
visibility: 0.9999045133590698
","x: 243.23098754882812
y: 252.9490509033203
z: -0.2251831293106079
visibility: 0.9999340176582336
","x: 241.7475128173828
y: 252.5601806640625
z: -0.2252197265625
visibility: 0.9999274611473083
","x: 240.30172729492188
y: 252.17831420898438
z: -0.22525282204151154
visibility: 0.999921977519989
","x: 249.52017211914062
y: 258.1478271484375
z: -0.10735617578029633
visibility: 0.999674916267395
","x: 237.22625732421875
y: 255.02749633789062
z: -0.1320139616727829
visibility: 0.9998501539230347
","x: 246.25906372070312
y: 265.73834228515625
z: -0.1960810124874115
visibility: 0.9999346137046814
","x: 242.18765258789062
y: 264.44482421875
z: -0.2033143937587738
visibility: 0.9999485015869141
","x: 255.35894775390625
y: 289.91522216796875
z: -0.023657551035284996
visibility: 0.9998372793197632
","x: 225.1732940673828
y: 289.027587890625
z: -0.08006143569946289
visibility: 0.9999144077301025
","x: 265.0582580566406
y: 328.5356140136719
z: -0.08418793976306915
visibility: 0.9683416485786438
","x: 218.072998046875
y: 328.9190368652344
z: -0.12551793456077576
visibility: 0.9865714311599731
","x: 256.38360595703125
y: 327.6455383300781
z: -0.27950578927993774
visibility: 0.9385796785354614
","x: 232.7008819580078
y: 337.5381164550781
z: -0.2594078779220581
visibility: 0.950126588344574
","x: 254.22621154785156
y: 328.93804931640625
z: -0.32085007429122925
visibility: 0.8957348465919495
","x: 237.45852661132812
y: 338.41925048828125
z: -0.2921123206615448
visibility: 0.8857535123825073
","x: 253.46815490722656
y: 321.14739990234375
z: -0.32817572355270386
visibility: 0.9016628265380859
","x: 237.89706420898438
y: 332.75872802734375
z: -0.29900044202804565
visibility: 0.8890679478645325
","x: 253.28688049316406
y: 318.81396484375
z: -0.28687554597854614
visibility: 0.8804323077201843
","x: 237.17864990234375
y: 332.388671875
z: -0.26274898648262024
visibility: 0.8615562319755554
","x: 249.88043212890625
y: 368.9602355957031
z: 0.024319889023900032
visibility: 0.9991642832756042
","x: 232.6434326171875
y: 368.59906005859375
z: -0.02435183711349964
visibility: 0.9992436766624451
","x: 247.7613525390625
y: 432.01092529296875
z: 0.017945479601621628
visibility: 0.9541817903518677
","x: 238.5720977783203
y: 430.8511047363281
z: -0.040972333401441574
visibility: 0.9672330021858215
","x: 242.6071319580078
y: 490.7515869140625
z: 0.14058725535869598
visibility: 0.966740071773529
","x: 239.1711883544922
y: 493.3678894042969
z: 0.07459334284067154
visibility: 0.9658423066139221
","x: 239.28089904785156
y: 499.5341796875
z: 0.1471475064754486
visibility: 0.8927654027938843
","x: 237.37596130371094
y: 504.724853515625
z: 0.08013267070055008
visibility: 0.7991325855255127
","x: 249.694580078125
y: 506.8113708496094
z: 0.055486731231212616
visibility: 0.9670774340629578
","x: 243.08023071289062
y: 508.2915954589844
z: -0.023870069533586502
visibility: 0.9587640166282654
",5.28087306022644,,,,,,,,,,,,,,,,,,,,,,,,,,,,,,,,,,,,,,,,,,
17,"x: 242.81289672851562
y: 258.0677490234375
z: -0.23025068640708923
visibility: 0.99997478723526
","x: 244.04241943359375
y: 253.25318908691406
z: -0.2108348309993744
visibility: 0.9999222755432129
","x: 245.10206604003906
y: 253.488525390625
z: -0.210856631398201
visibility: 0.9999104142189026
","x: 246.2583770751953
y: 253.68589782714844
z: -0.21087324619293213
visibility: 0.999900758266449
","x: 240.42677307128906
y: 252.5598907470703
z: -0.21337512135505676
visibility: 0.999934196472168
","x: 238.8921356201172
y: 252.4088134765625
z: -0.21341244876384735
visibility: 0.9999278783798218
","x: 237.31649780273438
y: 252.2189483642578
z: -0.2134632170200348
visibility: 0.9999241828918457
","x: 247.56431579589844
y: 257.2166748046875
z: -0.10465346276760101
visibility: 0.9996825456619263
","x: 234.65615844726562
y: 255.09683227539062
z: -0.12195815145969391
visibility: 0.9998549818992615
","x: 244.77613830566406
y: 265.25762939453125
z: -0.190440371632576
visibility: 0.9999382495880127
","x: 239.94287109375
y: 264.42156982421875
z: -0.1944764107465744
visibility: 0.9999526143074036
","x: 255.01402282714844
y: 291.4648132324219
z: -0.02888273075222969
visibility: 0.9998330473899841
","x: 223.42681884765625
y: 289.0453796386719
z: -0.07222779840230942
visibility: 0.9999184608459473
","x: 262.745361328125
y: 333.4165954589844
z: -0.10029742866754532
visibility: 0.9672577381134033
","x: 212.586669921875
y: 328.9106750488281
z: -0.13074195384979248
visibility: 0.9869823455810547
","x: 252.2065887451172
y: 331.35943603515625
z: -0.27548709511756897
visibility: 0.9381193518638611
","x: 230.13934326171875
y: 336.3557434082031
z: -0.27420637011528015
visibility: 0.9519355893135071
","x: 249.4494171142578
y: 328.02301025390625
z: -0.3122860789299011
visibility: 0.8953313827514648
","x: 234.0084228515625
y: 333.8482971191406
z: -0.306387722492218
visibility: 0.8904771208763123
","x: 248.90817260742188
y: 321.9050598144531
z: -0.31323912739753723
visibility: 0.9007192850112915
","x: 234.92588806152344
y: 328.72113037109375
z: -0.30359727144241333
visibility: 0.8928812742233276
","x: 249.48663330078125
y: 322.3985595703125
z: -0.2791294455528259
visibility: 0.876150369644165
","x: 234.1701202392578
y: 329.7359619140625
z: -0.27428171038627625
visibility: 0.8639113306999207
","x: 249.58544921875
y: 368.788818359375
z: 0.02044287510216236
visibility: 0.9991446733474731
","x: 232.3578643798828
y: 368.70556640625
z: -0.020490413531661034
visibility: 0.9992890954017639
","x: 254.04910278320312
y: 428.9344482421875
z: -0.07320521771907806
visibility: 0.9555845260620117
","x: 237.66278076171875
y: 431.4785461425781
z: -0.13912460207939148
visibility: 0.9687779545783997
","x: 244.05398559570312
y: 465.5283203125
z: 0.1807631403207779
visibility: 0.9571529626846313
","x: 237.9218292236328
y: 493.9802551269531
z: 0.00242313533090055
visibility: 0.9679057598114014
","x: 240.21566772460938
y: 467.08172607421875
z: 0.20386257767677307
visibility: 0.8795471787452698
","x: 236.47283935546875
y: 504.54302978515625
z: 0.01163665670901537
visibility: 0.8039171695709229
","x: 249.47645568847656
y: 490.3617858886719
z: 0.13571003079414368
visibility: 0.9595843553543091
","x: 243.33604431152344
y: 512.0271606445312
z: -0.09931676834821701
visibility: 0.9601680040359497
",5.421445369720459,,,,,,,,,,,,,,,,,,,,,,,,,,,,,,,,,,,,,,,,,,
18,"x: 242.81289672851562
y: 258.0677490234375
z: -0.23025068640708923
visibility: 0.99997478723526
","x: 244.04241943359375
y: 253.25318908691406
z: -0.2108348309993744
visibility: 0.9999222755432129
","x: 245.10206604003906
y: 253.488525390625
z: -0.210856631398201
visibility: 0.9999104142189026
","x: 246.2583770751953
y: 253.68589782714844
z: -0.21087324619293213
visibility: 0.999900758266449
","x: 240.42677307128906
y: 252.5598907470703
z: -0.21337512135505676
visibility: 0.999934196472168
","x: 238.8921356201172
y: 252.4088134765625
z: -0.21341244876384735
visibility: 0.9999278783798218
","x: 237.31649780273438
y: 252.2189483642578
z: -0.2134632170200348
visibility: 0.9999241828918457
","x: 247.56431579589844
y: 257.2166748046875
z: -0.10465346276760101
visibility: 0.9996825456619263
","x: 234.65615844726562
y: 255.09683227539062
z: -0.12195815145969391
visibility: 0.9998549818992615
","x: 244.77613830566406
y: 265.25762939453125
z: -0.190440371632576
visibility: 0.9999382495880127
","x: 239.94287109375
y: 264.42156982421875
z: -0.1944764107465744
visibility: 0.9999526143074036
","x: 255.01402282714844
y: 291.4648132324219
z: -0.02888273075222969
visibility: 0.9998330473899841
","x: 223.42681884765625
y: 289.0453796386719
z: -0.07222779840230942
visibility: 0.9999184608459473
","x: 262.745361328125
y: 333.4165954589844
z: -0.10029742866754532
visibility: 0.9672577381134033
","x: 212.586669921875
y: 328.9106750488281
z: -0.13074195384979248
visibility: 0.9869823455810547
","x: 252.2065887451172
y: 331.35943603515625
z: -0.27548709511756897
visibility: 0.9381193518638611
","x: 230.13934326171875
y: 336.3557434082031
z: -0.27420637011528015
visibility: 0.9519355893135071
","x: 249.4494171142578
y: 328.02301025390625
z: -0.3122860789299011
visibility: 0.8953313827514648
","x: 234.0084228515625
y: 333.8482971191406
z: -0.306387722492218
visibility: 0.8904771208763123
","x: 248.90817260742188
y: 321.9050598144531
z: -0.31323912739753723
visibility: 0.9007192850112915
","x: 234.92588806152344
y: 328.72113037109375
z: -0.30359727144241333
visibility: 0.8928812742233276
","x: 249.48663330078125
y: 322.3985595703125
z: -0.2791294455528259
visibility: 0.876150369644165
","x: 234.1701202392578
y: 329.7359619140625
z: -0.27428171038627625
visibility: 0.8639113306999207
","x: 249.58544921875
y: 368.788818359375
z: 0.02044287510216236
visibility: 0.9991446733474731
","x: 232.3578643798828
y: 368.70556640625
z: -0.020490413531661034
visibility: 0.9992890954017639
","x: 254.04910278320312
y: 428.9344482421875
z: -0.07320521771907806
visibility: 0.9555845260620117
","x: 237.66278076171875
y: 431.4785461425781
z: -0.13912460207939148
visibility: 0.9687779545783997
","x: 244.05398559570312
y: 465.5283203125
z: 0.1807631403207779
visibility: 0.9571529626846313
","x: 237.9218292236328
y: 493.9802551269531
z: 0.00242313533090055
visibility: 0.9679057598114014
","x: 240.21566772460938
y: 467.08172607421875
z: 0.20386257767677307
visibility: 0.8795471787452698
","x: 236.47283935546875
y: 504.54302978515625
z: 0.01163665670901537
visibility: 0.8039171695709229
","x: 249.47645568847656
y: 490.3617858886719
z: 0.13571003079414368
visibility: 0.9595843553543091
","x: 243.33604431152344
y: 512.0271606445312
z: -0.09931676834821701
visibility: 0.9601680040359497
",5.421445369720459,,,,,,,,,,,,,,,,,,,,,,,,,,,,,,,,,,,,,,,,,,
19,"x: 241.07496643066406
y: 256.6979675292969
z: -0.23071499168872833
visibility: 0.999976396560669
","x: 242.02206420898438
y: 251.8303680419922
z: -0.2119920253753662
visibility: 0.9999276399612427
","x: 243.0242462158203
y: 251.9689178466797
z: -0.2120063751935959
visibility: 0.9999163746833801
","x: 244.07212829589844
y: 252.14230346679688
z: -0.2120237648487091
visibility: 0.9999072551727295
","x: 238.27288818359375
y: 251.79449462890625
z: -0.21501071751117706
visibility: 0.9999387264251709
","x: 236.73582458496094
y: 251.97607421875
z: -0.21504417061805725
visibility: 0.9999328851699829
","x: 235.30929565429688
y: 252.10829162597656
z: -0.21507668495178223
visibility: 0.9999299049377441
","x: 245.35760498046875
y: 255.86753845214844
z: -0.10767275094985962
visibility: 0.9997082948684692
","x: 232.89125061035156
y: 255.143798828125
z: -0.1252317726612091
visibility: 0.9998656511306763
","x: 243.4139404296875
y: 263.8881530761719
z: -0.19216005504131317
visibility: 0.9999435544013977
","x: 238.37600708007812
y: 263.85577392578125
z: -0.19685345888137817
visibility: 0.9999570250511169
","x: 254.17977905273438
y: 291.77508544921875
z: -0.04078822210431099
visibility: 0.9998433589935303
","x: 222.30345153808594
y: 289.1686096191406
z: -0.07394637912511826
visibility: 0.9999236464500427
","x: 261.9935302734375
y: 332.5274963378906
z: -0.1009468212723732
visibility: 0.9679771661758423
","x: 210.57760620117188
y: 328.851806640625
z: -0.1326994001865387
visibility: 0.9873790144920349
","x: 251.39227294921875
y: 333.1861572265625
z: -0.2738920748233795
visibility: 0.9399594664573669
","x: 229.81277465820312
y: 338.15985107421875
z: -0.2710348069667816
visibility: 0.9525318741798401
","x: 248.48922729492188
y: 329.72967529296875
z: -0.3088846504688263
visibility: 0.8981861472129822
","x: 233.63632202148438
y: 337.20050048828125
z: -0.30286943912506104
visibility: 0.8927850127220154
","x: 247.734375
y: 323.19989013671875
z: -0.311065673828125
visibility: 0.9030102491378784
","x: 234.4734649658203
y: 331.7705993652344
z: -0.2988244891166687
visibility: 0.8942322731018066
","x: 248.44842529296875
y: 324.0220642089844
z: -0.27762049436569214
visibility: 0.8766669034957886
","x: 233.60733032226562
y: 332.5704345703125
z: -0.2705165147781372
visibility: 0.862932026386261
","x: 249.473388671875
y: 368.14691162109375
z: 0.020153552293777466
visibility: 0.9991828203201294
","x: 232.1100311279297
y: 368.84765625
z: -0.02021508663892746
visibility: 0.9993447661399841
","x: 256.1538391113281
y: 422.4453430175781
z: -0.08621414005756378
visibility: 0.9571250081062317
","x: 237.7571563720703
y: 431.9696350097656
z: -0.1461038440465927
visibility: 0.9707993865013123
","x: 243.8284149169922
y: 444.208740234375
z: 0.1857565939426422
visibility: 0.94317626953125
","x: 237.99026489257812
y: 495.6573486328125
z: -0.018213452771306038
visibility: 0.9701674580574036
","x: 239.85159301757812
y: 442.2200927734375
z: 0.21101884543895721
visibility: 0.8584033846855164
","x: 236.54136657714844
y: 505.4596252441406
z: -0.00950397364795208
visibility: 0.8119238615036011
","x: 246.61422729492188
y: 471.35382080078125
z: 0.15540213882923126
visibility: 0.9491543769836426
","x: 243.53916931152344
y: 514.5929565429688
z: -0.11437485367059708
visibility: 0.962184488773346
",5.5615527629852295,,,,,,,,,,,,,,,,,,,,,,,,,,,,,,,,,,,,,,,,,,
20,"x: 241.07496643066406
y: 256.6979675292969
z: -0.23071499168872833
visibility: 0.999976396560669
","x: 242.02206420898438
y: 251.8303680419922
z: -0.2119920253753662
visibility: 0.9999276399612427
","x: 243.0242462158203
y: 251.9689178466797
z: -0.2120063751935959
visibility: 0.9999163746833801
","x: 244.07212829589844
y: 252.14230346679688
z: -0.2120237648487091
visibility: 0.9999072551727295
","x: 238.27288818359375
y: 251.79449462890625
z: -0.21501071751117706
visibility: 0.9999387264251709
","x: 236.73582458496094
y: 251.97607421875
z: -0.21504417061805725
visibility: 0.9999328851699829
","x: 235.30929565429688
y: 252.10829162597656
z: -0.21507668495178223
visibility: 0.9999299049377441
","x: 245.35760498046875
y: 255.86753845214844
z: -0.10767275094985962
visibility: 0.9997082948684692
","x: 232.89125061035156
y: 255.143798828125
z: -0.1252317726612091
visibility: 0.9998656511306763
","x: 243.4139404296875
y: 263.8881530761719
z: -0.19216005504131317
visibility: 0.9999435544013977
","x: 238.37600708007812
y: 263.85577392578125
z: -0.19685345888137817
visibility: 0.9999570250511169
","x: 254.17977905273438
y: 291.77508544921875
z: -0.04078822210431099
visibility: 0.9998433589935303
","x: 222.30345153808594
y: 289.1686096191406
z: -0.07394637912511826
visibility: 0.9999236464500427
","x: 261.9935302734375
y: 332.5274963378906
z: -0.1009468212723732
visibility: 0.9679771661758423
","x: 210.57760620117188
y: 328.851806640625
z: -0.1326994001865387
visibility: 0.9873790144920349
","x: 251.39227294921875
y: 333.1861572265625
z: -0.2738920748233795
visibility: 0.9399594664573669
","x: 229.81277465820312
y: 338.15985107421875
z: -0.2710348069667816
visibility: 0.9525318741798401
","x: 248.48922729492188
y: 329.72967529296875
z: -0.3088846504688263
visibility: 0.8981861472129822
","x: 233.63632202148438
y: 337.20050048828125
z: -0.30286943912506104
visibility: 0.8927850127220154
","x: 247.734375
y: 323.19989013671875
z: -0.311065673828125
visibility: 0.9030102491378784
","x: 234.4734649658203
y: 331.7705993652344
z: -0.2988244891166687
visibility: 0.8942322731018066
","x: 248.44842529296875
y: 324.0220642089844
z: -0.27762049436569214
visibility: 0.8766669034957886
","x: 233.60733032226562
y: 332.5704345703125
z: -0.2705165147781372
visibility: 0.862932026386261
","x: 249.473388671875
y: 368.14691162109375
z: 0.020153552293777466
visibility: 0.9991828203201294
","x: 232.1100311279297
y: 368.84765625
z: -0.02021508663892746
visibility: 0.9993447661399841
","x: 256.1538391113281
y: 422.4453430175781
z: -0.08621414005756378
visibility: 0.9571250081062317
","x: 237.7571563720703
y: 431.9696350097656
z: -0.1461038440465927
visibility: 0.9707993865013123
","x: 243.8284149169922
y: 444.208740234375
z: 0.1857565939426422
visibility: 0.94317626953125
","x: 237.99026489257812
y: 495.6573486328125
z: -0.018213452771306038
visibility: 0.9701674580574036
","x: 239.85159301757812
y: 442.2200927734375
z: 0.21101884543895721
visibility: 0.8584033846855164
","x: 236.54136657714844
y: 505.4596252441406
z: -0.00950397364795208
visibility: 0.8119238615036011
","x: 246.61422729492188
y: 471.35382080078125
z: 0.15540213882923126
visibility: 0.9491543769836426
","x: 243.53916931152344
y: 514.5929565429688
z: -0.11437485367059708
visibility: 0.962184488773346
",5.5615527629852295,,,,,,,,,,,,,,,,,,,,,,,,,,,,,,,,,,,,,,,,,,
21,"x: 238.01937866210938
y: 256.74072265625
z: -0.23964419960975647
visibility: 0.9999770522117615
","x: 239.5607452392578
y: 251.80264282226562
z: -0.22081522643566132
visibility: 0.9999302625656128
","x: 240.75233459472656
y: 251.91343688964844
z: -0.22084560990333557
visibility: 0.9999192357063293
","x: 241.84893798828125
y: 252.0309600830078
z: -0.22087109088897705
visibility: 0.9999105334281921
","x: 235.5996551513672
y: 251.89248657226562
z: -0.2242187261581421
visibility: 0.9999407529830933
","x: 234.19888305664062
y: 252.02284240722656
z: -0.2242480218410492
visibility: 0.9999350309371948
","x: 232.90936279296875
y: 252.2162628173828
z: -0.22428269684314728
visibility: 0.9999325275421143
","x: 243.33340454101562
y: 255.70440673828125
z: -0.11520354449748993
visibility: 0.999725341796875
","x: 231.2238006591797
y: 255.66598510742188
z: -0.13122519850730896
visibility: 0.9998695850372314
","x: 240.75198364257812
y: 263.73602294921875
z: -0.20038048923015594
visibility: 0.9999474883079529
","x: 235.56887817382812
y: 263.8854064941406
z: -0.20545725524425507
visibility: 0.9999605417251587
","x: 253.1316680908203
y: 292.37969970703125
z: -0.043246448040008545
visibility: 0.9998490810394287
","x: 221.3478240966797
y: 290.24267578125
z: -0.07759714871644974
visibility: 0.9999262690544128
","x: 260.7383728027344
y: 331.565185546875
z: -0.06756986677646637
visibility: 0.968451201915741
","x: 211.57986450195312
y: 329.0066833496094
z: -0.11003688722848892
visibility: 0.9868156313896179
","x: 253.27371215820312
y: 346.0224914550781
z: -0.22793161869049072
visibility: 0.9393651485443115
","x: 228.55648803710938
y: 343.43499755859375
z: -0.21439698338508606
visibility: 0.9504780769348145
","x: 250.9773406982422
y: 350.9213562011719
z: -0.2625565826892853
visibility: 0.8979663252830505
","x: 232.27281188964844
y: 341.1952209472656
z: -0.24281199276447296
visibility: 0.8927672505378723
","x: 250.26666259765625
y: 346.2781982421875
z: -0.27714449167251587
visibility: 0.9027457237243652
","x: 233.6756134033203
y: 333.96844482421875
z: -0.24908259510993958
visibility: 0.8940258622169495
","x: 250.42333984375
y: 344.2514343261719
z: -0.23580098152160645
visibility: 0.8753230571746826
","x: 232.88746643066406
y: 332.9375915527344
z: -0.21734610199928284
visibility: 0.8606341481208801
","x: 248.93197631835938
y: 368.2525329589844
z: 0.02258363366127014
visibility: 0.9992321729660034
","x: 231.8812255859375
y: 369.3365478515625
z: -0.022620441392064095
visibility: 0.9993988275527954
","x: 259.13385009765625
y: 419.4549865722656
z: -0.07760400325059891
visibility: 0.9561004042625427
","x: 237.45338439941406
y: 432.7181701660156
z: -0.1294616013765335
visibility: 0.9721330404281616
","x: 242.76632690429688
y: 434.139892578125
z: 0.19523273408412933
visibility: 0.9176874756813049
","x: 237.5273895263672
y: 496.235107421875
z: -0.0017399061471223831
visibility: 0.9717354774475098
","x: 239.04510498046875
y: 430.438232421875
z: 0.22114908695220947
visibility: 0.839380145072937
","x: 236.56982421875
y: 506.1565856933594
z: 0.006877026055008173
visibility: 0.8197163343429565
","x: 243.42086791992188
y: 460.1564025878906
z: 0.17512664198875427
visibility: 0.930956244468689
","x: 243.12887573242188
y: 515.1357421875
z: -0.09457768499851227
visibility: 0.9629352688789368
",5.6855692863464355,,,,,,,,,,,,,,,,,,,,,,,,,,,,,,,,,,,,,,,,,,
22,"x: 238.01937866210938
y: 256.74072265625
z: -0.23964419960975647
visibility: 0.9999770522117615
","x: 239.5607452392578
y: 251.80264282226562
z: -0.22081522643566132
visibility: 0.9999302625656128
","x: 240.75233459472656
y: 251.91343688964844
z: -0.22084560990333557
visibility: 0.9999192357063293
","x: 241.84893798828125
y: 252.0309600830078
z: -0.22087109088897705
visibility: 0.9999105334281921
","x: 235.5996551513672
y: 251.89248657226562
z: -0.2242187261581421
visibility: 0.9999407529830933
","x: 234.19888305664062
y: 252.02284240722656
z: -0.2242480218410492
visibility: 0.9999350309371948
","x: 232.90936279296875
y: 252.2162628173828
z: -0.22428269684314728
visibility: 0.9999325275421143
","x: 243.33340454101562
y: 255.70440673828125
z: -0.11520354449748993
visibility: 0.999725341796875
","x: 231.2238006591797
y: 255.66598510742188
z: -0.13122519850730896
visibility: 0.9998695850372314
","x: 240.75198364257812
y: 263.73602294921875
z: -0.20038048923015594
visibility: 0.9999474883079529
","x: 235.56887817382812
y: 263.8854064941406
z: -0.20545725524425507
visibility: 0.9999605417251587
","x: 253.1316680908203
y: 292.37969970703125
z: -0.043246448040008545
visibility: 0.9998490810394287
","x: 221.3478240966797
y: 290.24267578125
z: -0.07759714871644974
visibility: 0.9999262690544128
","x: 260.7383728027344
y: 331.565185546875
z: -0.06756986677646637
visibility: 0.968451201915741
","x: 211.57986450195312
y: 329.0066833496094
z: -0.11003688722848892
visibility: 0.9868156313896179
","x: 253.27371215820312
y: 346.0224914550781
z: -0.22793161869049072
visibility: 0.9393651485443115
","x: 228.55648803710938
y: 343.43499755859375
z: -0.21439698338508606
visibility: 0.9504780769348145
","x: 250.9773406982422
y: 350.9213562011719
z: -0.2625565826892853
visibility: 0.8979663252830505
","x: 232.27281188964844
y: 341.1952209472656
z: -0.24281199276447296
visibility: 0.8927672505378723
","x: 250.26666259765625
y: 346.2781982421875
z: -0.27714449167251587
visibility: 0.9027457237243652
","x: 233.6756134033203
y: 333.96844482421875
z: -0.24908259510993958
visibility: 0.8940258622169495
","x: 250.42333984375
y: 344.2514343261719
z: -0.23580098152160645
visibility: 0.8753230571746826
","x: 232.88746643066406
y: 332.9375915527344
z: -0.21734610199928284
visibility: 0.8606341481208801
","x: 248.93197631835938
y: 368.2525329589844
z: 0.02258363366127014
visibility: 0.9992321729660034
","x: 231.8812255859375
y: 369.3365478515625
z: -0.022620441392064095
visibility: 0.9993988275527954
","x: 259.13385009765625
y: 419.4549865722656
z: -0.07760400325059891
visibility: 0.9561004042625427
","x: 237.45338439941406
y: 432.7181701660156
z: -0.1294616013765335
visibility: 0.9721330404281616
","x: 242.76632690429688
y: 434.139892578125
z: 0.19523273408412933
visibility: 0.9176874756813049
","x: 237.5273895263672
y: 496.235107421875
z: -0.0017399061471223831
visibility: 0.9717354774475098
","x: 239.04510498046875
y: 430.438232421875
z: 0.22114908695220947
visibility: 0.839380145072937
","x: 236.56982421875
y: 506.1565856933594
z: 0.006877026055008173
visibility: 0.8197163343429565
","x: 243.42086791992188
y: 460.1564025878906
z: 0.17512664198875427
visibility: 0.930956244468689
","x: 243.12887573242188
y: 515.1357421875
z: -0.09457768499851227
visibility: 0.9629352688789368
",5.6855692863464355,,,,,,,,,,,,,,,,,,,,,,,,,,,,,,,,,,,,,,,,,,
23,"x: 236.41671752929688
y: 256.2496643066406
z: -0.26676976680755615
visibility: 0.9999792575836182
","x: 237.99586486816406
y: 251.23406982421875
z: -0.24964825809001923
visibility: 0.9999368190765381
","x: 239.2781524658203
y: 251.34307861328125
z: -0.24966004490852356
visibility: 0.9999269247055054
","x: 240.44003295898438
y: 251.48333740234375
z: -0.24968604743480682
visibility: 0.9999189972877502
","x: 234.0194091796875
y: 251.56369018554688
z: -0.25305673480033875
visibility: 0.9999461770057678
","x: 232.57571411132812
y: 251.80279541015625
z: -0.2531041204929352
visibility: 0.9999409914016724
","x: 231.45004272460938
y: 252.1056365966797
z: -0.253104031085968
visibility: 0.9999385476112366
","x: 241.5501251220703
y: 255.0525665283203
z: -0.15458333492279053
visibility: 0.9997517466545105
","x: 229.38369750976562
y: 255.725341796875
z: -0.17198514938354492
visibility: 0.999881386756897
","x: 238.97117614746094
y: 263.1175537109375
z: -0.2317505180835724
visibility: 0.9999524354934692
","x: 233.73336791992188
y: 263.52410888671875
z: -0.23689202964305878
visibility: 0.9999642372131348
","x: 251.03053283691406
y: 292.34765625
z: -0.08315200358629227
visibility: 0.9998621344566345
","x: 219.8389434814453
y: 291.1829833984375
z: -0.12665683031082153
visibility: 0.9999321103096008
","x: 258.6737976074219
y: 333.5123291015625
z: -0.05963872745633125
visibility: 0.9696210026741028
","x: 212.59524536132812
y: 333.70751953125
z: -0.11899812519550323
visibility: 0.9877150058746338
","x: 262.67596435546875
y: 365.9904479980469
z: -0.1417422741651535
visibility: 0.9424691200256348
","x: 215.2382354736328
y: 374.1492919921875
z: -0.20107507705688477
visibility: 0.9530134201049805
","x: 265.69903564453125
y: 378.4713439941406
z: -0.16375423967838287
visibility: 0.9017823934555054
","x: 213.90829467773438
y: 385.90478515625
z: -0.21728399395942688
visibility: 0.8984902501106262
","x: 264.3392333984375
y: 378.59478759765625
z: -0.18828676640987396
visibility: 0.9066771864891052
","x: 216.18992614746094
y: 385.4931640625
z: -0.2339806854724884
visibility: 0.8997868895530701
","x: 262.7247009277344
y: 375.3695373535156
z: -0.15334713459014893
visibility: 0.8807100653648376
","x: 217.84616088867188
y: 381.04345703125
z: -0.20541605353355408
visibility: 0.8681406378746033
","x: 248.87574768066406
y: 368.3383483886719
z: 0.025422433391213417
visibility: 0.9993042945861816
","x: 231.7535858154297
y: 372.4024658203125
z: -0.02545635774731636
visibility: 0.9994502067565918
","x: 259.9203186035156
y: 419.78570556640625
z: -0.15294310450553894
visibility: 0.9594759345054626
","x: 237.77232360839844
y: 433.0389404296875
z: -0.09495853632688522
visibility: 0.9742497801780701
","x: 257.3497009277344
y: 471.3392333984375
z: -0.06775583326816559
visibility: 0.9248360395431519
","x: 237.42860412597656
y: 497.37445068359375
z: 0.024440346285700798
visibility: 0.97364342212677
","x: 254.29217529296875
y: 482.96978759765625
z: -0.06359969824552536
visibility: 0.8531547784805298
","x: 236.5501708984375
y: 506.82476806640625
z: 0.028637230396270752
visibility: 0.8254289627075195
","x: 271.3785400390625
y: 477.9339294433594
z: -0.15653197467327118
visibility: 0.9370318651199341
","x: 244.56906127929688
y: 516.0029296875
z: -0.07530862838029861
visibility: 0.9647831916809082
",5.82532000541687,,,,,,,,,,,,,,,,,,,,,,,,,,,,,,,,,,,,,,,,,,
24,"x: 236.41671752929688
y: 256.2496643066406
z: -0.26676976680755615
visibility: 0.9999792575836182
","x: 237.99586486816406
y: 251.23406982421875
z: -0.24964825809001923
visibility: 0.9999368190765381
","x: 239.2781524658203
y: 251.34307861328125
z: -0.24966004490852356
visibility: 0.9999269247055054
","x: 240.44003295898438
y: 251.48333740234375
z: -0.24968604743480682
visibility: 0.9999189972877502
","x: 234.0194091796875
y: 251.56369018554688
z: -0.25305673480033875
visibility: 0.9999461770057678
","x: 232.57571411132812
y: 251.80279541015625
z: -0.2531041204929352
visibility: 0.9999409914016724
","x: 231.45004272460938
y: 252.1056365966797
z: -0.253104031085968
visibility: 0.9999385476112366
","x: 241.5501251220703
y: 255.0525665283203
z: -0.15458333492279053
visibility: 0.9997517466545105
","x: 229.38369750976562
y: 255.725341796875
z: -0.17198514938354492
visibility: 0.999881386756897
","x: 238.97117614746094
y: 263.1175537109375
z: -0.2317505180835724
visibility: 0.9999524354934692
","x: 233.73336791992188
y: 263.52410888671875
z: -0.23689202964305878
visibility: 0.9999642372131348
","x: 251.03053283691406
y: 292.34765625
z: -0.08315200358629227
visibility: 0.9998621344566345
","x: 219.8389434814453
y: 291.1829833984375
z: -0.12665683031082153
visibility: 0.9999321103096008
","x: 258.6737976074219
y: 333.5123291015625
z: -0.05963872745633125
visibility: 0.9696210026741028
","x: 212.59524536132812
y: 333.70751953125
z: -0.11899812519550323
visibility: 0.9877150058746338
","x: 262.67596435546875
y: 365.9904479980469
z: -0.1417422741651535
visibility: 0.9424691200256348
","x: 215.2382354736328
y: 374.1492919921875
z: -0.20107507705688477
visibility: 0.9530134201049805
","x: 265.69903564453125
y: 378.4713439941406
z: -0.16375423967838287
visibility: 0.9017823934555054
","x: 213.90829467773438
y: 385.90478515625
z: -0.21728399395942688
visibility: 0.8984902501106262
","x: 264.3392333984375
y: 378.59478759765625
z: -0.18828676640987396
visibility: 0.9066771864891052
","x: 216.18992614746094
y: 385.4931640625
z: -0.2339806854724884
visibility: 0.8997868895530701
","x: 262.7247009277344
y: 375.3695373535156
z: -0.15334713459014893
visibility: 0.8807100653648376
","x: 217.84616088867188
y: 381.04345703125
z: -0.20541605353355408
visibility: 0.8681406378746033
","x: 248.87574768066406
y: 368.3383483886719
z: 0.025422433391213417
visibility: 0.9993042945861816
","x: 231.7535858154297
y: 372.4024658203125
z: -0.02545635774731636
visibility: 0.9994502067565918
","x: 259.9203186035156
y: 419.78570556640625
z: -0.15294310450553894
visibility: 0.9594759345054626
","x: 237.77232360839844
y: 433.0389404296875
z: -0.09495853632688522
visibility: 0.9742497801780701
","x: 257.3497009277344
y: 471.3392333984375
z: -0.06775583326816559
visibility: 0.9248360395431519
","x: 237.42860412597656
y: 497.37445068359375
z: 0.024440346285700798
visibility: 0.97364342212677
","x: 254.29217529296875
y: 482.96978759765625
z: -0.06359969824552536
visibility: 0.8531547784805298
","x: 236.5501708984375
y: 506.82476806640625
z: 0.028637230396270752
visibility: 0.8254289627075195
","x: 271.3785400390625
y: 477.9339294433594
z: -0.15653197467327118
visibility: 0.9370318651199341
","x: 244.56906127929688
y: 516.0029296875
z: -0.07530862838029861
visibility: 0.9647831916809082
",5.82532000541687,,,,,,,,,,,,,,,,,,,,,,,,,,,,,,,,,,,,,,,,,,
25,"x: 235.0440216064453
y: 255.5661163330078
z: -0.30596277117729187
visibility: 0.9999812841415405
","x: 236.7412567138672
y: 250.7687225341797
z: -0.2893051207065582
visibility: 0.99994295835495
","x: 238.04080200195312
y: 250.87547302246094
z: -0.289318323135376
visibility: 0.9999340772628784
","x: 239.16160583496094
y: 251.0238037109375
z: -0.2893379330635071
visibility: 0.9999268651008606
","x: 232.81008911132812
y: 251.09381103515625
z: -0.29516613483428955
visibility: 0.9999514222145081
","x: 231.41720581054688
y: 251.3792266845703
z: -0.29523831605911255
visibility: 0.9999467134475708
","x: 230.22019958496094
y: 251.7066650390625
z: -0.29525065422058105
visibility: 0.9999445080757141
","x: 240.4672088623047
y: 254.5370635986328
z: -0.18725474178791046
visibility: 0.9997760057449341
","x: 228.5450439453125
y: 255.68270874023438
z: -0.21588245034217834
visibility: 0.9998930096626282
","x: 237.78106689453125
y: 262.4333801269531
z: -0.2673577070236206
visibility: 0.9999570250511169
","x: 232.46829223632812
y: 263.02056884765625
z: -0.2756859064102173
visibility: 0.9999676942825317
","x: 250.0625
y: 291.7944030761719
z: -0.08474580198526382
visibility: 0.9998751878738403
","x: 219.4969482421875
y: 290.94610595703125
z: -0.17358334362506866
visibility: 0.9999387860298157
","x: 259.1139221191406
y: 331.98114013671875
z: -0.03767954558134079
visibility: 0.9710620641708374
","x: 210.9344482421875
y: 333.43023681640625
z: -0.15461115539073944
visibility: 0.988620936870575
","x: 277.7265319824219
y: 356.4718017578125
z: -0.10659866034984589
visibility: 0.9462427496910095
","x: 197.7089080810547
y: 367.11016845703125
z: -0.20783719420433044
visibility: 0.9569473266601562
","x: 283.77850341796875
y: 366.050048828125
z: -0.11892050504684448
visibility: 0.9068830013275146
","x: 193.23341369628906
y: 376.43536376953125
z: -0.22836680710315704
visibility: 0.9067769050598145
","x: 283.5619201660156
y: 365.310546875
z: -0.14979837834835052
visibility: 0.911949634552002
","x: 192.45643615722656
y: 376.7635498046875
z: -0.25618454813957214
visibility: 0.9081218838691711
","x: 281.33941650390625
y: 362.2709655761719
z: -0.12133379280567169
visibility: 0.8884103894233704
","x: 194.4344024658203
y: 373.26593017578125
z: -0.22029444575309753
visibility: 0.879203736782074
","x: 248.39678955078125
y: 368.42962646484375
z: 0.04445618763566017
visibility: 0.999366283416748
","x: 231.1242218017578
y: 372.997802734375
z: -0.04457912594079971
visibility: 0.9995020627975464
","x: 263.2591247558594
y: 418.075439453125
z: 0.04967997223138809
visibility: 0.9596380591392517
","x: 237.5750732421875
y: 432.99700927734375
z: -0.09861424565315247
visibility: 0.9765555262565613
","x: 277.1624755859375
y: 472.965087890625
z: 0.11958074569702148
visibility: 0.9306871891021729
","x: 237.4434814453125
y: 496.9207458496094
z: -0.01653762347996235
visibility: 0.9759745597839355
","x: 276.9613952636719
y: 486.830322265625
z: 0.11983177810907364
visibility: 0.8629841804504395
","x: 236.27215576171875
y: 507.0738220214844
z: -0.014229265041649342
visibility: 0.8356258273124695
","x: 293.13238525390625
y: 473.0107421875
z: 0.04888969659805298
visibility: 0.9416356086730957
","x: 244.61671447753906
y: 515.4488525390625
z: -0.11386388540267944
visibility: 0.9677015542984009
",5.978814601898193,,,,,,,,,,,,,,,,,,,,,,,,,,,,,,,,,,,,,,,,,,
26,"x: 235.0440216064453
y: 255.5661163330078
z: -0.30596277117729187
visibility: 0.9999812841415405
","x: 236.7412567138672
y: 250.7687225341797
z: -0.2893051207065582
visibility: 0.99994295835495
","x: 238.04080200195312
y: 250.87547302246094
z: -0.289318323135376
visibility: 0.9999340772628784
","x: 239.16160583496094
y: 251.0238037109375
z: -0.2893379330635071
visibility: 0.9999268651008606
","x: 232.81008911132812
y: 251.09381103515625
z: -0.29516613483428955
visibility: 0.9999514222145081
","x: 231.41720581054688
y: 251.3792266845703
z: -0.29523831605911255
visibility: 0.9999467134475708
","x: 230.22019958496094
y: 251.7066650390625
z: -0.29525065422058105
visibility: 0.9999445080757141
","x: 240.4672088623047
y: 254.5370635986328
z: -0.18725474178791046
visibility: 0.9997760057449341
","x: 228.5450439453125
y: 255.68270874023438
z: -0.21588245034217834
visibility: 0.9998930096626282
","x: 237.78106689453125
y: 262.4333801269531
z: -0.2673577070236206
visibility: 0.9999570250511169
","x: 232.46829223632812
y: 263.02056884765625
z: -0.2756859064102173
visibility: 0.9999676942825317
","x: 250.0625
y: 291.7944030761719
z: -0.08474580198526382
visibility: 0.9998751878738403
","x: 219.4969482421875
y: 290.94610595703125
z: -0.17358334362506866
visibility: 0.9999387860298157
","x: 259.1139221191406
y: 331.98114013671875
z: -0.03767954558134079
visibility: 0.9710620641708374
","x: 210.9344482421875
y: 333.43023681640625
z: -0.15461115539073944
visibility: 0.988620936870575
","x: 277.7265319824219
y: 356.4718017578125
z: -0.10659866034984589
visibility: 0.9462427496910095
","x: 197.7089080810547
y: 367.11016845703125
z: -0.20783719420433044
visibility: 0.9569473266601562
","x: 283.77850341796875
y: 366.050048828125
z: -0.11892050504684448
visibility: 0.9068830013275146
","x: 193.23341369628906
y: 376.43536376953125
z: -0.22836680710315704
visibility: 0.9067769050598145
","x: 283.5619201660156
y: 365.310546875
z: -0.14979837834835052
visibility: 0.911949634552002
","x: 192.45643615722656
y: 376.7635498046875
z: -0.25618454813957214
visibility: 0.9081218838691711
","x: 281.33941650390625
y: 362.2709655761719
z: -0.12133379280567169
visibility: 0.8884103894233704
","x: 194.4344024658203
y: 373.26593017578125
z: -0.22029444575309753
visibility: 0.879203736782074
","x: 248.39678955078125
y: 368.42962646484375
z: 0.04445618763566017
visibility: 0.999366283416748
","x: 231.1242218017578
y: 372.997802734375
z: -0.04457912594079971
visibility: 0.9995020627975464
","x: 263.2591247558594
y: 418.075439453125
z: 0.04967997223138809
visibility: 0.9596380591392517
","x: 237.5750732421875
y: 432.99700927734375
z: -0.09861424565315247
visibility: 0.9765555262565613
","x: 277.1624755859375
y: 472.965087890625
z: 0.11958074569702148
visibility: 0.9306871891021729
","x: 237.4434814453125
y: 496.9207458496094
z: -0.01653762347996235
visibility: 0.9759745597839355
","x: 276.9613952636719
y: 486.830322265625
z: 0.11983177810907364
visibility: 0.8629841804504395
","x: 236.27215576171875
y: 507.0738220214844
z: -0.014229265041649342
visibility: 0.8356258273124695
","x: 293.13238525390625
y: 473.0107421875
z: 0.04888969659805298
visibility: 0.9416356086730957
","x: 244.61671447753906
y: 515.4488525390625
z: -0.11386388540267944
visibility: 0.9677015542984009
",5.978814601898193,,,,,,,,,,,,,,,,,,,,,,,,,,,,,,,,,,,,,,,,,,
27,"x: 234.51177978515625
y: 255.264892578125
z: -0.21646782755851746
visibility: 0.9999828934669495
","x: 235.97918701171875
y: 250.34335327148438
z: -0.201030895113945
visibility: 0.9999480247497559
","x: 237.2967071533203
y: 250.3487548828125
z: -0.20108458399772644
visibility: 0.999940037727356
","x: 238.370361328125
y: 250.39002990722656
z: -0.20115742087364197
visibility: 0.9999334216117859
","x: 231.92921447753906
y: 250.85031127929688
z: -0.20352919399738312
visibility: 0.9999555349349976
","x: 230.52821350097656
y: 251.22283935546875
z: -0.2035588026046753
visibility: 0.9999511241912842
","x: 229.35366821289062
y: 251.5996551513672
z: -0.20355013012886047
visibility: 0.9999487996101379
","x: 239.80467224121094
y: 253.63973999023438
z: -0.10929153114557266
visibility: 0.999797523021698
","x: 227.92156982421875
y: 255.6329345703125
z: -0.12204699218273163
visibility: 0.9999023079872131
","x: 237.34576416015625
y: 262.0821838378906
z: -0.18208006024360657
visibility: 0.999960720539093
","x: 232.02883911132812
y: 262.81787109375
z: -0.1858062595129013
visibility: 0.9999703764915466
","x: 249.36473083496094
y: 290.8993835449219
z: -0.022239385172724724
visibility: 0.9998839497566223
","x: 219.33480834960938
y: 288.8849792480469
z: -0.09931307286024094
visibility: 0.9999430179595947
","x: 259.56488037109375
y: 329.58929443359375
z: 0.021440353244543076
visibility: 0.9697247743606567
","x: 208.0371856689453
y: 326.49249267578125
z: -0.14515918493270874
visibility: 0.9890425205230713
","x: 282.36822509765625
y: 344.461181640625
z: -0.061634160578250885
visibility: 0.9499549865722656
","x: 192.30511474609375
y: 343.4209899902344
z: -0.2121376097202301
visibility: 0.960444450378418
","x: 289.1441955566406
y: 348.65283203125
z: -0.07811910659074783
visibility: 0.9131452441215515
","x: 185.75408935546875
y: 346.87078857421875
z: -0.2373379021883011
visibility: 0.914449155330658
","x: 289.8262634277344
y: 344.762939453125
z: -0.10858094692230225
visibility: 0.9182766079902649
","x: 185.070068359375
y: 345.5813293457031
z: -0.2623821794986725
visibility: 0.9159006476402283
","x: 287.260498046875
y: 344.0057373046875
z: -0.07751217484474182
visibility: 0.8969347476959229
","x: 187.67396545410156
y: 344.64642333984375
z: -0.2262289822101593
visibility: 0.8896358013153076
","x: 247.93112182617188
y: 366.8445129394531
z: 0.042262252420186996
visibility: 0.9994046688079834
","x: 230.99180603027344
y: 372.86602783203125
z: -0.04226483032107353
visibility: 0.9995294809341431
","x: 269.5927734375
y: 401.232421875
z: -0.011960211209952831
visibility: 0.9626908898353577
","x: 237.5518341064453
y: 433.62060546875
z: -0.07841075211763382
visibility: 0.9787172675132751
","x: 267.7334899902344
y: 461.36895751953125
z: 0.1091323122382164
visibility: 0.936405599117279
","x: 237.2794647216797
y: 496.7810363769531
z: 0.014898233115673065
visibility: 0.9782018661499023
","x: 263.85137939453125
y: 474.4989013671875
z: 0.11563440412282944
visibility: 0.8743647336959839
","x: 236.18423461914062
y: 506.7651062011719
z: 0.02031453140079975
visibility: 0.8486045002937317
","x: 282.1968078613281
y: 470.4165954589844
z: 0.04788513109087944
visibility: 0.9461612701416016
","x: 244.67794799804688
y: 514.9857177734375
z: -0.08066780865192413
visibility: 0.9704237580299377
",6.11993932723999,,,,,,,,,,,,,,,,,,,,,,,,,,,,,,,,,,,,,,,,,,
28,"x: 234.51177978515625
y: 255.264892578125
z: -0.21646782755851746
visibility: 0.9999828934669495
","x: 235.97918701171875
y: 250.34335327148438
z: -0.201030895113945
visibility: 0.9999480247497559
","x: 237.2967071533203
y: 250.3487548828125
z: -0.20108458399772644
visibility: 0.999940037727356
","x: 238.370361328125
y: 250.39002990722656
z: -0.20115742087364197
visibility: 0.9999334216117859
","x: 231.92921447753906
y: 250.85031127929688
z: -0.20352919399738312
