uscmakers/ReverseChoreography/data/10_frozen_sabrina_claudio.csv
,NOSE,LEFT_EYE_INNER,LEFT_EYE,LEFT_EYE_OUTER,RIGHT_EYE_INNER,RIGHT_EYE,RIGHT_EYE_OUTER,LEFT_EAR,RIGHT_EAR,MOUTH_LEFT,MOUTH_RIGHT,LEFT_SHOULDER,RIGHT_SHOULDER,LEFT_ELBOW,RIGHT_ELBOW,LEFT_WRIST,RIGHT_WRIST,LEFT_PINKY,RIGHT_PINKY,LEFT_INDEX,RIGHT_INDEX,LEFT_THUMB,RIGHT_THUMB,LEFT_HIP,RIGHT_HIP,LEFT_KNEE,RIGHT_KNEE,LEFT_ANKLE,RIGHT_ANKLE,LEFT_HEEL,RIGHT_HEEL,LEFT_FOOT_INDEX,RIGHT_FOOT_INDEX,TIMESTAMP,WRIST2,THUMB_CPC2,THUMB_MCP2,THUMB_IP2,THUMB_TIP2,INDEX_FINGER_MCP2,INDEX_FINGER_PIP2,INDEX_FINGER_DIP2,INDEX_FINGER_TIP2,MIDDLE_FINGER_MCP2,MIDDLE_FINGER_PIP2,MIDDLE_FINGER_DIP2,MIDDLE_FINGER_TIP2,RING_FINGER_PIP2,RING_FINGER_DIP2,RING_FINGER_TIP2,RING_FINGER_MCP2,PINKY_MCP2,PINKY_PIP2,PINKY_DIP2,PINKY_TIP2,WRIST,THUMB_CPC,THUMB_MCP,THUMB_IP,THUMB_TIP,INDEX_FINGER_MCP,INDEX_FINGER_PIP,INDEX_FINGER_DIP,INDEX_FINGER_TIP,MIDDLE_FINGER_MCP,MIDDLE_FINGER_PIP,MIDDLE_FINGER_DIP,MIDDLE_FINGER_TIP,RING_FINGER_PIP,RING_FINGER_DIP,RING_FINGER_TIP,RING_FINGER_MCP,PINKY_MCP,PINKY_PIP,PINKY_DIP,PINKY_TIP
0,"x: 248.58973693847656
y: 239.24964904785156
z: -0.3486766517162323
visibility: 0.9999909400939941
","x: 249.8188018798828
y: 234.01451110839844
z: -0.33416420221328735
visibility: 0.9999643564224243
","x: 251.0428924560547
y: 234.24069213867188
z: -0.3341120183467865
visibility: 0.9999663829803467
","x: 252.29627990722656
y: 234.42349243164062
z: -0.33406296372413635
visibility: 0.999963641166687
","x: 245.90472412109375
y: 233.72154235839844
z: -0.33574023842811584
visibility: 0.9999566078186035
","x: 244.36231994628906
y: 233.92250061035156
z: -0.33578982949256897
visibility: 0.9999622106552124
","x: 242.69508361816406
y: 234.18325805664062
z: -0.33580881357192993
visibility: 0.9999594688415527
","x: 253.52291870117188
y: 238.5162353515625
z: -0.227664977312088
visibility: 0.9999270439147949
","x: 239.58958435058594
y: 239.1656494140625
z: -0.23766887187957764
visibility: 0.9999057054519653
","x: 250.5054168701172
y: 247.8721466064453
z: -0.30780428647994995
visibility: 0.9999861717224121
","x: 246.03060913085938
y: 247.33489990234375
z: -0.31066060066223145
visibility: 0.9999836683273315
","x: 266.8293762207031
y: 277.5885314941406
z: -0.14688891172409058
visibility: 0.9999876022338867
","x: 227.8571014404297
y: 280.580810546875
z: -0.13746623694896698
visibility: 0.9999372959136963
","x: 274.73028564453125
y: 328.822021484375
z: -0.08537935465574265
visibility: 0.9966245889663696
","x: 218.8110809326172
y: 332.7337951660156
z: -0.07753988355398178
visibility: 0.9912749528884888
","x: 274.9480895996094
y: 379.8585205078125
z: -0.17799101769924164
visibility: 0.9965567588806152
","x: 217.0790557861328
y: 375.7232971191406
z: -0.16313762962818146
visibility: 0.9832445383071899
","x: 275.5640869140625
y: 395.468505859375
z: -0.20619794726371765
visibility: 0.9903799295425415
","x: 216.57122802734375
y: 391.4705810546875
z: -0.18972787261009216
visibility: 0.9640330672264099
","x: 271.7785339355469
y: 394.2361755371094
z: -0.23973509669303894
visibility: 0.9910925030708313
","x: 219.703125
y: 390.436767578125
z: -0.22241505980491638
visibility: 0.9666059017181396
","x: 270.75445556640625
y: 389.1517333984375
z: -0.19182582199573517
visibility: 0.9871930480003357
","x: 220.74642944335938
y: 385.5720520019531
z: -0.17727217078208923
visibility: 0.9597217440605164
","x: 261.8292236328125
y: 378.4383850097656
z: -8.130260539473966e-05
visibility: 0.9997426867485046
","x: 237.13894653320312
y: 379.44219970703125
z: -1.9156817870680243e-05
visibility: 0.9997511506080627
","x: 259.29681396484375
y: 461.6141357421875
z: -0.013130789622664452
visibility: 0.9953860640525818
","x: 230.9543914794922
y: 465.6228332519531
z: -0.019208874553442
visibility: 0.9952804446220398
","x: 260.0670471191406
y: 529.486328125
z: 0.15541192889213562
visibility: 0.9943884015083313
","x: 221.98828125
y: 535.7935791015625
z: 0.1362471878528595
visibility: 0.9936942458152771
","x: 257.92840576171875
y: 536.7353515625
z: 0.16441500186920166
visibility: 0.8784961700439453
","x: 222.43116760253906
y: 543.302734375
z: 0.14415502548217773
visibility: 0.8451108932495117
","x: 262.50616455078125
y: 559.5694580078125
z: 0.040099747478961945
visibility: 0.989316463470459
","x: 218.7418670654297
y: 563.8123779296875
z: 0.01702887751162052
visibility: 0.9878841042518616
",3.5943541526794434,,,,,,,,,,,,,,,,,,,,,,,,,,,,,,,,,,,,,,,,,,
1,"x: 248.58973693847656
y: 239.24964904785156
z: -0.3486766517162323
visibility: 0.9999909400939941
","x: 249.8188018798828
y: 234.01451110839844
z: -0.33416420221328735
visibility: 0.9999643564224243
","x: 251.0428924560547
y: 234.24069213867188
z: -0.3341120183467865
visibility: 0.9999663829803467
","x: 252.29627990722656
y: 234.42349243164062
z: -0.33406296372413635
visibility: 0.999963641166687
","x: 245.90472412109375
y: 233.72154235839844
z: -0.33574023842811584
visibility: 0.9999566078186035
","x: 244.36231994628906
y: 233.92250061035156
z: -0.33578982949256897
visibility: 0.9999622106552124
","x: 242.69508361816406
y: 234.18325805664062
z: -0.33580881357192993
visibility: 0.9999594688415527
","x: 253.52291870117188
y: 238.5162353515625
z: -0.227664977312088
visibility: 0.9999270439147949
","x: 239.58958435058594
y: 239.1656494140625
z: -0.23766887187957764
visibility: 0.9999057054519653
","x: 250.5054168701172
y: 247.8721466064453
z: -0.30780428647994995
visibility: 0.9999861717224121
","x: 246.03060913085938
y: 247.33489990234375
z: -0.31066060066223145
visibility: 0.9999836683273315
","x: 266.8293762207031
y: 277.5885314941406
z: -0.14688891172409058
visibility: 0.9999876022338867
","x: 227.8571014404297
y: 280.580810546875
z: -0.13746623694896698
visibility: 0.9999372959136963
","x: 274.73028564453125
y: 328.822021484375
z: -0.08537935465574265
visibility: 0.9966245889663696
","x: 218.8110809326172
y: 332.7337951660156
z: -0.07753988355398178
visibility: 0.9912749528884888
","x: 274.9480895996094
y: 379.8585205078125
z: -0.17799101769924164
visibility: 0.9965567588806152
","x: 217.0790557861328
y: 375.7232971191406
z: -0.16313762962818146
visibility: 0.9832445383071899
","x: 275.5640869140625
y: 395.468505859375
z: -0.20619794726371765
visibility: 0.9903799295425415
","x: 216.57122802734375
y: 391.4705810546875
z: -0.18972787261009216
visibility: 0.9640330672264099
","x: 271.7785339355469
y: 394.2361755371094
z: -0.23973509669303894
visibility: 0.9910925030708313
","x: 219.703125
y: 390.436767578125
z: -0.22241505980491638
visibility: 0.9666059017181396
","x: 270.75445556640625
y: 389.1517333984375
z: -0.19182582199573517
visibility: 0.9871930480003357
","x: 220.74642944335938
y: 385.5720520019531
z: -0.17727217078208923
visibility: 0.9597217440605164
","x: 261.8292236328125
y: 378.4383850097656
z: -8.130260539473966e-05
visibility: 0.9997426867485046
","x: 237.13894653320312
y: 379.44219970703125
z: -1.9156817870680243e-05
visibility: 0.9997511506080627
","x: 259.29681396484375
y: 461.6141357421875
z: -0.013130789622664452
visibility: 0.9953860640525818
","x: 230.9543914794922
y: 465.6228332519531
z: -0.019208874553442
visibility: 0.9952804446220398
","x: 260.0670471191406
y: 529.486328125
z: 0.15541192889213562
visibility: 0.9943884015083313
","x: 221.98828125
y: 535.7935791015625
z: 0.1362471878528595
visibility: 0.9936942458152771
","x: 257.92840576171875
y: 536.7353515625
z: 0.16441500186920166
visibility: 0.8784961700439453
","x: 222.43116760253906
y: 543.302734375
z: 0.14415502548217773
visibility: 0.8451108932495117
","x: 262.50616455078125
y: 559.5694580078125
z: 0.040099747478961945
visibility: 0.989316463470459
","x: 218.7418670654297
y: 563.8123779296875
z: 0.01702887751162052
visibility: 0.9878841042518616
",3.5943541526794434,,,,,,,,,,,,,,,,,,,,,,,,,,,,,,,,,,,,,,,,,,
2,"x: 254.95294189453125
y: 238.184814453125
z: -0.34994131326675415
visibility: 0.9999908208847046
","x: 256.28887939453125
y: 232.685302734375
z: -0.3375588655471802
visibility: 0.999963641166687
","x: 257.3689880371094
y: 232.7566375732422
z: -0.3375163674354553
visibility: 0.9999657273292542
","x: 258.4207458496094
y: 232.805419921875
z: -0.33750826120376587
visibility: 0.9999633431434631
","x: 252.6993408203125
y: 232.73965454101562
z: -0.3377435505390167
visibility: 0.9999554753303528
","x: 251.31565856933594
y: 232.9331817626953
z: -0.3378031551837921
visibility: 0.9999610185623169
","x: 249.90257263183594
y: 233.16256713867188
z: -0.3378392159938812
visibility: 0.9999580979347229
","x: 259.5303039550781
y: 237.0677032470703
z: -0.23492510616779327
visibility: 0.9999251365661621
","x: 247.8068389892578
y: 237.86705017089844
z: -0.23822756111621857
visibility: 0.9999001622200012
","x: 257.0118408203125
y: 245.9013671875
z: -0.30934152007102966
visibility: 0.9999855160713196
","x: 252.43763732910156
y: 245.662841796875
z: -0.3109329342842102
visibility: 0.9999822974205017
","x: 273.0375061035156
y: 277.32745361328125
z: -0.14697076380252838
visibility: 0.9999875426292419
","x: 235.51853942871094
y: 277.2701721191406
z: -0.14337803423404694
visibility: 0.999939501285553
","x: 281.5271301269531
y: 328.2210998535156
z: -0.08538167923688889
visibility: 0.9965122938156128
","x: 226.8505401611328
y: 328.9703674316406
z: -0.08968819677829742
visibility: 0.9908488392829895
","x: 291.2859191894531
y: 379.6374816894531
z: -0.16765877604484558
visibility: 0.9965103268623352
","x: 220.3479766845703
y: 376.01800537109375
z: -0.16549189388751984
visibility: 0.9828583598136902
","x: 294.65185546875
y: 394.321533203125
z: -0.1892833709716797
visibility: 0.9902709722518921
","x: 218.5548095703125
y: 391.5501403808594
z: -0.19063380360603333
visibility: 0.9632737636566162
","x: 292.71197509765625
y: 394.2657470703125
z: -0.22827060520648956
visibility: 0.9910542368888855
","x: 220.26502990722656
y: 391.2107849121094
z: -0.22465486824512482
visibility: 0.96604323387146
","x: 290.939697265625
y: 389.1906433105469
z: -0.18384480476379395
visibility: 0.9872345924377441
","x: 221.53646850585938
y: 387.20159912109375
z: -0.18058344721794128
visibility: 0.9589449167251587
","x: 265.9909973144531
y: 377.5166320800781
z: 0.00220121955499053
visibility: 0.9997456073760986
","x: 241.75326538085938
y: 377.89752197265625
z: -0.002309823641553521
visibility: 0.9997534155845642
","x: 261.6874694824219
y: 461.6847229003906
z: -0.01957501843571663
visibility: 0.9951878190040588
","x: 232.46437072753906
y: 464.5051574707031
z: -0.026335369795560837
visibility: 0.9954107403755188
","x: 260.3030090332031
y: 530.0479736328125
z: 0.14910438656806946
visibility: 0.9941843748092651
","x: 221.91754150390625
y: 535.4091186523438
z: 0.12194375693798065
visibility: 0.9939060807228088
","x: 257.970947265625
y: 537.07470703125
z: 0.1585959494113922
visibility: 0.8795285224914551
","x: 222.34832763671875
y: 541.6777954101562
z: 0.12963798642158508
visibility: 0.8473065495491028
","x: 262.8697204589844
y: 559.5694580078125
z: 0.03885355219244957
visibility: 0.9891812205314636
","x: 219.1901397705078
y: 563.8773193359375
z: 0.0053836326114833355
visibility: 0.9883109927177429
",4.142057657241821,"x: 292.4986572265625
y: 380.3673095703125
z: 0.0
","x: 290.0326843261719
y: 385.4057312011719
z: -0.002509349724277854
","x: 290.0193176269531
y: 392.6436767578125
z: -0.0030020757112652063
","x: 290.5780944824219
y: 398.4765625
z: -0.0031124199740588665
","x: 290.6966552734375
y: 402.9905700683594
z: -0.00284029683098197
","x: 294.851318359375
y: 395.91375732421875
z: -0.0009408757905475795
","x: 294.9845886230469
y: 404.0777587890625
z: -0.0020213762763887644
","x: 293.3312072753906
y: 408.1802062988281
z: -0.0026979914400726557
","x: 291.66131591796875
y: 410.1175231933594
z: -0.0028796216938644648
","x: 295.9163818359375
y: 395.8560791015625
z: -0.00020663636678364128
","x: 295.6689758300781
y: 404.3089294433594
z: -0.0013318359851837158
","x: 293.718994140625
y: 408.62835693359375
z: -0.0023983828723430634
","x: 291.7906799316406
y: 410.7981872558594
z: -0.0029925876297056675
","x: 296.27777099609375
y: 395.69549560546875
z: 0.0001849041145760566
","x: 295.8692932128906
y: 403.68206787109375
z: -0.001108966302126646
","x: 294.126220703125
y: 407.6227111816406
z: -0.002470706356689334
","x: 292.3702392578125
y: 409.7783203125
z: -0.0031968350522220135
","x: 296.0727844238281
y: 395.2440185546875
z: 0.00032796477898955345
","x: 295.97076416015625
y: 401.73883056640625
z: -0.0008841903181746602
","x: 294.6948547363281
y: 405.248779296875
z: -0.0018582134507596493
","x: 293.2198791503906
y: 407.37725830078125
z: -0.002347614848986268
",,,,,,,,,,,,,,,,,,,,,
3,"x: 254.95294189453125
y: 238.184814453125
z: -0.34994131326675415
visibility: 0.9999908208847046
","x: 256.28887939453125
y: 232.685302734375
z: -0.3375588655471802
visibility: 0.999963641166687
","x: 257.3689880371094
y: 232.7566375732422
z: -0.3375163674354553
visibility: 0.9999657273292542
","x: 258.4207458496094
y: 232.805419921875
z: -0.33750826120376587
visibility: 0.9999633431434631
","x: 252.6993408203125
y: 232.73965454101562
z: -0.3377435505390167
visibility: 0.9999554753303528
","x: 251.31565856933594
y: 232.9331817626953
z: -0.3378031551837921
visibility: 0.9999610185623169
","x: 249.90257263183594
y: 233.16256713867188
z: -0.3378392159938812
visibility: 0.9999580979347229
","x: 259.5303039550781
y: 237.0677032470703
z: -0.23492510616779327
visibility: 0.9999251365661621
","x: 247.8068389892578
y: 237.86705017089844
z: -0.23822756111621857
visibility: 0.9999001622200012
","x: 257.0118408203125
y: 245.9013671875
z: -0.30934152007102966
visibility: 0.9999855160713196
","x: 252.43763732910156
y: 245.662841796875
z: -0.3109329342842102
visibility: 0.9999822974205017
","x: 273.0375061035156
y: 277.32745361328125
z: -0.14697076380252838
visibility: 0.9999875426292419
","x: 235.51853942871094
y: 277.2701721191406
z: -0.14337803423404694
visibility: 0.999939501285553
","x: 281.5271301269531
y: 328.2210998535156
z: -0.08538167923688889
visibility: 0.9965122938156128
","x: 226.8505401611328
y: 328.9703674316406
z: -0.08968819677829742
visibility: 0.9908488392829895
","x: 291.2859191894531
y: 379.6374816894531
z: -0.16765877604484558
visibility: 0.9965103268623352
","x: 220.3479766845703
y: 376.01800537109375
z: -0.16549189388751984
visibility: 0.9828583598136902
","x: 294.65185546875
y: 394.321533203125
z: -0.1892833709716797
visibility: 0.9902709722518921
","x: 218.5548095703125
y: 391.5501403808594
z: -0.19063380360603333
visibility: 0.9632737636566162
","x: 292.71197509765625
y: 394.2657470703125
z: -0.22827060520648956
visibility: 0.9910542368888855
","x: 220.26502990722656
y: 391.2107849121094
z: -0.22465486824512482
visibility: 0.96604323387146
","x: 290.939697265625
y: 389.1906433105469
z: -0.18384480476379395
visibility: 0.9872345924377441
","x: 221.53646850585938
y: 387.20159912109375
z: -0.18058344721794128
visibility: 0.9589449167251587
","x: 265.9909973144531
y: 377.5166320800781
z: 0.00220121955499053
visibility: 0.9997456073760986
","x: 241.75326538085938
y: 377.89752197265625
z: -0.002309823641553521
visibility: 0.9997534155845642
","x: 261.6874694824219
y: 461.6847229003906
z: -0.01957501843571663
visibility: 0.9951878190040588
","x: 232.46437072753906
y: 464.5051574707031
z: -0.026335369795560837
visibility: 0.9954107403755188
","x: 260.3030090332031
y: 530.0479736328125
z: 0.14910438656806946
visibility: 0.9941843748092651
","x: 221.91754150390625
y: 535.4091186523438
z: 0.12194375693798065
visibility: 0.9939060807228088
","x: 257.970947265625
y: 537.07470703125
z: 0.1585959494113922
visibility: 0.8795285224914551
","x: 222.34832763671875
y: 541.6777954101562
z: 0.12963798642158508
visibility: 0.8473065495491028
","x: 262.8697204589844
y: 559.5694580078125
z: 0.03885355219244957
visibility: 0.9891812205314636
","x: 219.1901397705078
y: 563.8773193359375
z: 0.0053836326114833355
visibility: 0.9883109927177429
",4.142057657241821,"x: 292.4986572265625
y: 380.3673095703125
z: 0.0
","x: 290.0326843261719
y: 385.4057312011719
z: -0.002509349724277854
","x: 290.0193176269531
y: 392.6436767578125
z: -0.0030020757112652063
","x: 290.5780944824219
y: 398.4765625
z: -0.0031124199740588665
","x: 290.6966552734375
y: 402.9905700683594
z: -0.00284029683098197
","x: 294.851318359375
y: 395.91375732421875
z: -0.0009408757905475795
","x: 294.9845886230469
y: 404.0777587890625
z: -0.0020213762763887644
","x: 293.3312072753906
y: 408.1802062988281
z: -0.0026979914400726557
","x: 291.66131591796875
y: 410.1175231933594
z: -0.0028796216938644648
","x: 295.9163818359375
y: 395.8560791015625
z: -0.00020663636678364128
","x: 295.6689758300781
y: 404.3089294433594
z: -0.0013318359851837158
","x: 293.718994140625
y: 408.62835693359375
z: -0.0023983828723430634
","x: 291.7906799316406
y: 410.7981872558594
z: -0.0029925876297056675
","x: 296.27777099609375
y: 395.69549560546875
z: 0.0001849041145760566
","x: 295.8692932128906
y: 403.68206787109375
z: -0.001108966302126646
","x: 294.126220703125
y: 407.6227111816406
z: -0.002470706356689334
","x: 292.3702392578125
y: 409.7783203125
z: -0.0031968350522220135
","x: 296.0727844238281
y: 395.2440185546875
z: 0.00032796477898955345
","x: 295.97076416015625
y: 401.73883056640625
z: -0.0008841903181746602
","x: 294.6948547363281
y: 405.248779296875
z: -0.0018582134507596493
","x: 293.2198791503906
y: 407.37725830078125
z: -0.002347614848986268
",,,,,,,,,,,,,,,,,,,,,
4,"x: 254.95294189453125
y: 238.184814453125
z: -0.34994131326675415
visibility: 0.9999908208847046
","x: 256.28887939453125
y: 232.685302734375
z: -0.3375588655471802
visibility: 0.999963641166687
","x: 257.3689880371094
y: 232.7566375732422
z: -0.3375163674354553
visibility: 0.9999657273292542
","x: 258.4207458496094
y: 232.805419921875
z: -0.33750826120376587
visibility: 0.9999633431434631
","x: 252.6993408203125
y: 232.73965454101562
z: -0.3377435505390167
visibility: 0.9999554753303528
","x: 251.31565856933594
y: 232.9331817626953
z: -0.3378031551837921
visibility: 0.9999610185623169
","x: 249.90257263183594
y: 233.16256713867188
z: -0.3378392159938812
visibility: 0.9999580979347229
","x: 259.5303039550781
y: 237.0677032470703
z: -0.23492510616779327
visibility: 0.9999251365661621
","x: 247.8068389892578
y: 237.86705017089844
z: -0.23822756111621857
visibility: 0.9999001622200012
","x: 257.0118408203125
y: 245.9013671875
z: -0.30934152007102966
visibility: 0.9999855160713196
","x: 252.43763732910156
y: 245.662841796875
z: -0.3109329342842102
visibility: 0.9999822974205017
","x: 273.0375061035156
y: 277.32745361328125
z: -0.14697076380252838
visibility: 0.9999875426292419
","x: 235.51853942871094
y: 277.2701721191406
z: -0.14337803423404694
visibility: 0.999939501285553
","x: 281.5271301269531
y: 328.2210998535156
z: -0.08538167923688889
visibility: 0.9965122938156128
","x: 226.8505401611328
y: 328.9703674316406
z: -0.08968819677829742
visibility: 0.9908488392829895
","x: 291.2859191894531
y: 379.6374816894531
z: -0.16765877604484558
visibility: 0.9965103268623352
","x: 220.3479766845703
y: 376.01800537109375
z: -0.16549189388751984
visibility: 0.9828583598136902
","x: 294.65185546875
y: 394.321533203125
z: -0.1892833709716797
visibility: 0.9902709722518921
","x: 218.5548095703125
y: 391.5501403808594
z: -0.19063380360603333
visibility: 0.9632737636566162
","x: 292.71197509765625
y: 394.2657470703125
z: -0.22827060520648956
visibility: 0.9910542368888855
","x: 220.26502990722656
y: 391.2107849121094
z: -0.22465486824512482
visibility: 0.96604323387146
","x: 290.939697265625
y: 389.1906433105469
z: -0.18384480476379395
visibility: 0.9872345924377441
","x: 221.53646850585938
y: 387.20159912109375
z: -0.18058344721794128
visibility: 0.9589449167251587
","x: 265.9909973144531
y: 377.5166320800781
z: 0.00220121955499053
visibility: 0.9997456073760986
","x: 241.75326538085938
y: 377.89752197265625
z: -0.002309823641553521
visibility: 0.9997534155845642
","x: 261.6874694824219
y: 461.6847229003906
z: -0.01957501843571663
visibility: 0.9951878190040588
","x: 232.46437072753906
y: 464.5051574707031
z: -0.026335369795560837
visibility: 0.9954107403755188
","x: 260.3030090332031
y: 530.0479736328125
z: 0.14910438656806946
visibility: 0.9941843748092651
","x: 221.91754150390625
y: 535.4091186523438
z: 0.12194375693798065
visibility: 0.9939060807228088
","x: 257.970947265625
y: 537.07470703125
z: 0.1585959494113922
visibility: 0.8795285224914551
","x: 222.34832763671875
y: 541.6777954101562
z: 0.12963798642158508
visibility: 0.8473065495491028
","x: 262.8697204589844
y: 559.5694580078125
z: 0.03885355219244957
visibility: 0.9891812205314636
","x: 219.1901397705078
y: 563.8773193359375
z: 0.0053836326114833355
visibility: 0.9883109927177429
",4.142057657241821,"x: 292.4986572265625
y: 380.3673095703125
z: 0.0
","x: 290.0326843261719
y: 385.4057312011719
z: -0.002509349724277854
","x: 290.0193176269531
y: 392.6436767578125
z: -0.0030020757112652063
","x: 290.5780944824219
y: 398.4765625
z: -0.0031124199740588665
","x: 290.6966552734375
y: 402.9905700683594
z: -0.00284029683098197
","x: 294.851318359375
y: 395.91375732421875
z: -0.0009408757905475795
","x: 294.9845886230469
y: 404.0777587890625
z: -0.0020213762763887644
","x: 293.3312072753906
y: 408.1802062988281
z: -0.0026979914400726557
","x: 291.66131591796875
y: 410.1175231933594
z: -0.0028796216938644648
","x: 295.9163818359375
y: 395.8560791015625
z: -0.00020663636678364128
","x: 295.6689758300781
y: 404.3089294433594
z: -0.0013318359851837158
","x: 293.718994140625
y: 408.62835693359375
z: -0.0023983828723430634
","x: 291.7906799316406
y: 410.7981872558594
z: -0.0029925876297056675
","x: 296.27777099609375
y: 395.69549560546875
z: 0.0001849041145760566
","x: 295.8692932128906
y: 403.68206787109375
z: -0.001108966302126646
","x: 294.126220703125
y: 407.6227111816406
z: -0.002470706356689334
","x: 292.3702392578125
y: 409.7783203125
z: -0.0031968350522220135
","x: 296.0727844238281
y: 395.2440185546875
z: 0.00032796477898955345
","x: 295.97076416015625
y: 401.73883056640625
z: -0.0008841903181746602
","x: 294.6948547363281
y: 405.248779296875
z: -0.0018582134507596493
","x: 293.2198791503906
y: 407.37725830078125
z: -0.002347614848986268
",,,,,,,,,,,,,,,,,,,,,
5,"x: 259.0554504394531
y: 238.10203552246094
z: -0.33582252264022827
visibility: 0.9999909996986389
","x: 259.38287353515625
y: 232.4336395263672
z: -0.322185754776001
visibility: 0.99996417760849
","x: 260.26214599609375
y: 232.5116729736328
z: -0.3221549391746521
visibility: 0.9999665021896362
","x: 261.1776428222656
y: 232.573486328125
z: -0.32215258479118347
visibility: 0.9999641180038452
","x: 256.3141784667969
y: 232.516845703125
z: -0.3257747292518616
visibility: 0.9999557733535767
","x: 254.95977783203125
y: 232.74273681640625
z: -0.32582637667655945
visibility: 0.9999613165855408
","x: 253.46051025390625
y: 233.01266479492188
z: -0.3258543908596039
visibility: 0.9999577403068542
","x: 261.1728515625
y: 236.9292449951172
z: -0.21323959529399872
visibility: 0.999925971031189
","x: 249.79196166992188
y: 237.8372344970703
z: -0.2309875190258026
visibility: 0.999900758266449
","x: 260.5832214355469
y: 245.64138793945312
z: -0.2926635146141052
visibility: 0.9999858140945435
","x: 256.8089294433594
y: 245.6072235107422
z: -0.29800885915756226
visibility: 0.9999819993972778
","x: 274.6055603027344
y: 277.1622314453125
z: -0.11590256541967392
visibility: 0.9999884366989136
","x: 237.37255859375
y: 276.6180725097656
z: -0.14376585185527802
visibility: 0.9999427199363708
","x: 283.6256103515625
y: 327.22662353515625
z: -0.045852504670619965
visibility: 0.9965075850486755
","x: 229.32200622558594
y: 328.454345703125
z: -0.09364564716815948
visibility: 0.9909760355949402
","x: 292.9797058105469
y: 376.33770751953125
z: -0.13720503449440002
visibility: 0.9966239333152771
","x: 224.48985290527344
y: 376.3736267089844
z: -0.16755273938179016
visibility: 0.9832476377487183
","x: 296.74090576171875
y: 390.6475524902344
z: -0.15951868891716003
visibility: 0.9905856847763062
","x: 222.3174285888672
y: 391.8456726074219
z: -0.1930960714817047
visibility: 0.9639661312103271
","x: 294.9178161621094
y: 391.6422119140625
z: -0.19899825751781464
visibility: 0.9913933873176575
","x: 223.8274688720703
y: 391.9369201660156
z: -0.22732028365135193
visibility: 0.9667203426361084
","x: 293.0828857421875
y: 387.49267578125
z: -0.15430638194084167
visibility: 0.9877611994743347
","x: 225.30316162109375
y: 388.234619140625
z: -0.182535782456398
visibility: 0.9595528244972229
","x: 266.7938537597656
y: 376.82476806640625
z: 0.007916798815131187
visibility: 0.9997616410255432
","x: 242.71405029296875
y: 377.3857421875
z: -0.008022306486964226
visibility: 0.9997639060020447
","x: 262.4495544433594
y: 461.3603210449219
z: -0.01911681517958641
visibility: 0.9952934980392456
","x: 233.7589874267578
y: 463.5534973144531
z: -0.043111786246299744
visibility: 0.9955543279647827
","x: 260.4931945800781
y: 530.7506103515625
z: 0.16077159345149994
visibility: 0.9942960143089294
","x: 221.9889678955078
y: 528.91748046875
z: 0.13824036717414856
visibility: 0.9938145279884338
","x: 258.1100158691406
y: 537.8571166992188
z: 0.17202891409397125
visibility: 0.8830991983413696
","x: 222.40708923339844
y: 532.3641357421875
z: 0.15156620740890503
visibility: 0.843921422958374
","x: 262.9906311035156
y: 559.7366943359375
z: 0.058449722826480865
visibility: 0.9894636273384094
","x: 220.25839233398438
y: 561.160400390625
z: 0.03958228975534439
visibility: 0.9883998036384583
",4.26971697807312,"x: 292.7070617675781
y: 378.09197998046875
z: 0.0
","x: 290.73834228515625
y: 382.1844787597656
z: -0.0034067111555486917
","x: 290.63543701171875
y: 387.8291320800781
z: -0.004865099210292101
","x: 290.7735900878906
y: 393.41522216796875
z: -0.005785300396382809
","x: 290.7706298828125
y: 397.9112243652344
z: -0.006258632987737656
","x: 295.8472595214844
y: 391.1302490234375
z: -0.004337396007031202
","x: 295.2385559082031
y: 399.35516357421875
z: -0.005958227906376123
","x: 293.14501953125
y: 402.2608642578125
z: -0.006189353298395872
","x: 291.4617614746094
y: 403.0350036621094
z: -0.006011879071593285
","x: 296.95416259765625
y: 391.66412353515625
z: -0.0033950323704630136
","x: 296.1241455078125
y: 400.6877136230469
z: -0.004990917164832354
","x: 293.7853088378906
y: 403.8923645019531
z: -0.00513635715469718
","x: 291.89886474609375
y: 404.46990966796875
z: -0.004983475897461176
","x: 297.1824035644531
y: 391.9922180175781
z: -0.0026798946782946587
","x: 296.2674255371094
y: 400.14111328125
z: -0.004412016365677118
","x: 294.04949951171875
y: 402.96856689453125
z: -0.004824127536267042
","x: 292.238037109375
y: 403.78521728515625
z: -0.004775022156536579
","x: 296.5892333984375
y: 392.0538024902344
z: -0.002274266444146633
","x: 295.8069152832031
y: 398.46435546875
z: -0.003945623524487019
","x: 294.1728820800781
y: 401.2005920410156
z: -0.004462520591914654
","x: 292.60760498046875
y: 402.36334228515625
z: -0.004391867201775312
","x: 223.4464111328125
y: 375.6405334472656
z: 0.0
","x: 225.2138214111328
y: 382.764892578125
z: 0.0021361438557505608
","x: 225.27662658691406
y: 390.2048034667969
z: 0.0022213824559003115
","x: 225.60690307617188
y: 395.679931640625
z: 0.0015820631524547935
","x: 225.67782592773438
y: 399.39111328125
z: 0.0014734569704160094
","x: 220.020263671875
y: 393.94708251953125
z: 0.0008271727710962296
","x: 220.4220428466797
y: 403.056884765625
z: -0.0003836752148345113
","x: 223.21206665039062
y: 403.97882080078125
z: -0.00017726012447383255
","x: 225.14865112304688
y: 402.1919250488281
z: 0.00034547914401628077
","x: 219.9482421875
y: 393.65869140625
z: -0.0011649662628769875
","x: 220.75860595703125
y: 403.1222839355469
z: -0.002165716141462326
","x: 223.4578399658203
y: 404.03515625
z: -0.0015763159608468413
","x: 225.04530334472656
y: 402.2601318359375
z: -0.0009270504815503955
","x: 220.72958374023438
y: 392.85186767578125
z: -0.0031249041203409433
","x: 222.15518188476562
y: 401.572509765625
z: -0.0035429124254733324
","x: 224.6057891845703
y: 401.8648986816406
z: -0.0023446939885616302
","x: 225.95620727539062
y: 399.82080078125
z: -0.0014566730242222548
","x: 222.21681213378906
y: 391.6781921386719
z: -0.005101611837744713
","x: 223.88926696777344
y: 398.42681884765625
z: -0.005092137027531862
","x: 225.7475128173828
y: 399.16900634765625
z: -0.0041741481982171535
","x: 226.93238830566406
y: 397.7840881347656
z: -0.0033737663179636
"
6,"x: 259.0554504394531
y: 238.10203552246094
z: -0.33582252264022827
visibility: 0.9999909996986389
","x: 259.38287353515625
y: 232.4336395263672
z: -0.322185754776001
visibility: 0.99996417760849
","x: 260.26214599609375
y: 232.5116729736328
z: -0.3221549391746521
visibility: 0.9999665021896362
","x: 261.1776428222656
y: 232.573486328125
z: -0.32215258479118347
visibility: 0.9999641180038452
","x: 256.3141784667969
y: 232.516845703125
z: -0.3257747292518616
visibility: 0.9999557733535767
","x: 254.95977783203125
y: 232.74273681640625
z: -0.32582637667655945
visibility: 0.9999613165855408
","x: 253.46051025390625
y: 233.01266479492188
z: -0.3258543908596039
visibility: 0.9999577403068542
","x: 261.1728515625
y: 236.9292449951172
z: -0.21323959529399872
visibility: 0.999925971031189
","x: 249.79196166992188
y: 237.8372344970703
z: -0.2309875190258026
visibility: 0.999900758266449
","x: 260.5832214355469
y: 245.64138793945312
z: -0.2926635146141052
visibility: 0.9999858140945435
","x: 256.8089294433594
y: 245.6072235107422
z: -0.29800885915756226
visibility: 0.9999819993972778
","x: 274.6055603027344
y: 277.1622314453125
z: -0.11590256541967392
visibility: 0.9999884366989136
","x: 237.37255859375
y: 276.6180725097656
z: -0.14376585185527802
visibility: 0.9999427199363708
","x: 283.6256103515625
y: 327.22662353515625
z: -0.045852504670619965
visibility: 0.9965075850486755
","x: 229.32200622558594
y: 328.454345703125
z: -0.09364564716815948
visibility: 0.9909760355949402
","x: 292.9797058105469
y: 376.33770751953125
z: -0.13720503449440002
visibility: 0.9966239333152771
","x: 224.48985290527344
y: 376.3736267089844
z: -0.16755273938179016
visibility: 0.9832476377487183
","x: 296.74090576171875
y: 390.6475524902344
z: -0.15951868891716003
visibility: 0.9905856847763062
","x: 222.3174285888672
y: 391.8456726074219
z: -0.1930960714817047
visibility: 0.9639661312103271
","x: 294.9178161621094
y: 391.6422119140625
z: -0.19899825751781464
visibility: 0.9913933873176575
","x: 223.8274688720703
y: 391.9369201660156
z: -0.22732028365135193
visibility: 0.9667203426361084
","x: 293.0828857421875
y: 387.49267578125
z: -0.15430638194084167
visibility: 0.9877611994743347
","x: 225.30316162109375
y: 388.234619140625
z: -0.182535782456398
visibility: 0.9595528244972229
","x: 266.7938537597656
y: 376.82476806640625
z: 0.007916798815131187
visibility: 0.9997616410255432
","x: 242.71405029296875
y: 377.3857421875
z: -0.008022306486964226
visibility: 0.9997639060020447
","x: 262.4495544433594
y: 461.3603210449219
z: -0.01911681517958641
visibility: 0.9952934980392456
","x: 233.7589874267578
y: 463.5534973144531
z: -0.043111786246299744
visibility: 0.9955543279647827
","x: 260.4931945800781
y: 530.7506103515625
z: 0.16077159345149994
visibility: 0.9942960143089294
","x: 221.9889678955078
y: 528.91748046875
z: 0.13824036717414856
visibility: 0.9938145279884338
","x: 258.1100158691406
y: 537.8571166992188
z: 0.17202891409397125
visibility: 0.8830991983413696
","x: 222.40708923339844
y: 532.3641357421875
z: 0.15156620740890503
visibility: 0.843921422958374
","x: 262.9906311035156
y: 559.7366943359375
z: 0.058449722826480865
visibility: 0.9894636273384094
","x: 220.25839233398438
y: 561.160400390625
z: 0.03958228975534439
visibility: 0.9883998036384583
",4.26971697807312,"x: 292.7070617675781
y: 378.09197998046875
z: 0.0
","x: 290.73834228515625
y: 382.1844787597656
z: -0.0034067111555486917
","x: 290.63543701171875
y: 387.8291320800781
z: -0.004865099210292101
","x: 290.7735900878906
y: 393.41522216796875
z: -0.005785300396382809
","x: 290.7706298828125
y: 397.9112243652344
z: -0.006258632987737656
","x: 295.8472595214844
y: 391.1302490234375
z: -0.004337396007031202
","x: 295.2385559082031
y: 399.35516357421875
z: -0.005958227906376123
","x: 293.14501953125
y: 402.2608642578125
z: -0.006189353298395872
","x: 291.4617614746094
y: 403.0350036621094
z: -0.006011879071593285
","x: 296.95416259765625
y: 391.66412353515625
z: -0.0033950323704630136
","x: 296.1241455078125
y: 400.6877136230469
z: -0.004990917164832354
","x: 293.7853088378906
y: 403.8923645019531
z: -0.00513635715469718
","x: 291.89886474609375
y: 404.46990966796875
z: -0.004983475897461176
","x: 297.1824035644531
y: 391.9922180175781
z: -0.0026798946782946587
","x: 296.2674255371094
y: 400.14111328125
z: -0.004412016365677118
","x: 294.04949951171875
y: 402.96856689453125
z: -0.004824127536267042
","x: 292.238037109375
y: 403.78521728515625
z: -0.004775022156536579
","x: 296.5892333984375
y: 392.0538024902344
z: -0.002274266444146633
","x: 295.8069152832031
y: 398.46435546875
z: -0.003945623524487019
","x: 294.1728820800781
y: 401.2005920410156
z: -0.004462520591914654
","x: 292.60760498046875
y: 402.36334228515625
z: -0.004391867201775312
","x: 223.4464111328125
y: 375.6405334472656
z: 0.0
","x: 225.2138214111328
y: 382.764892578125
z: 0.0021361438557505608
","x: 225.27662658691406
y: 390.2048034667969
z: 0.0022213824559003115
","x: 225.60690307617188
y: 395.679931640625
z: 0.0015820631524547935
","x: 225.67782592773438
y: 399.39111328125
z: 0.0014734569704160094
","x: 220.020263671875
y: 393.94708251953125
z: 0.0008271727710962296
","x: 220.4220428466797
y: 403.056884765625
z: -0.0003836752148345113
","x: 223.21206665039062
y: 403.97882080078125
z: -0.00017726012447383255
","x: 225.14865112304688
y: 402.1919250488281
z: 0.00034547914401628077
","x: 219.9482421875
y: 393.65869140625
z: -0.0011649662628769875
","x: 220.75860595703125
y: 403.1222839355469
z: -0.002165716141462326
","x: 223.4578399658203
y: 404.03515625
z: -0.0015763159608468413
","x: 225.04530334472656
y: 402.2601318359375
z: -0.0009270504815503955
","x: 220.72958374023438
y: 392.85186767578125
z: -0.0031249041203409433
","x: 222.15518188476562
y: 401.572509765625
z: -0.0035429124254733324
","x: 224.6057891845703
y: 401.8648986816406
z: -0.0023446939885616302
","x: 225.95620727539062
y: 399.82080078125
z: -0.0014566730242222548
","x: 222.21681213378906
y: 391.6781921386719
z: -0.005101611837744713
","x: 223.88926696777344
y: 398.42681884765625
z: -0.005092137027531862
","x: 225.7475128173828
y: 399.16900634765625
z: -0.0041741481982171535
","x: 226.93238830566406
y: 397.7840881347656
z: -0.0033737663179636
"
7,"x: 259.0554504394531
y: 238.10203552246094
z: -0.33582252264022827
visibility: 0.9999909996986389
","x: 259.38287353515625
y: 232.4336395263672
z: -0.322185754776001
visibility: 0.99996417760849
","x: 260.26214599609375
y: 232.5116729736328
z: -0.3221549391746521
visibility: 0.9999665021896362
","x: 261.1776428222656
y: 232.573486328125
z: -0.32215258479118347
visibility: 0.9999641180038452
","x: 256.3141784667969
y: 232.516845703125
z: -0.3257747292518616
visibility: 0.9999557733535767
","x: 254.95977783203125
y: 232.74273681640625
z: -0.32582637667655945
visibility: 0.9999613165855408
","x: 253.46051025390625
y: 233.01266479492188
z: -0.3258543908596039
visibility: 0.9999577403068542
","x: 261.1728515625
y: 236.9292449951172
z: -0.21323959529399872
visibility: 0.999925971031189
","x: 249.79196166992188
y: 237.8372344970703
z: -0.2309875190258026
visibility: 0.999900758266449
","x: 260.5832214355469
y: 245.64138793945312
z: -0.2926635146141052
visibility: 0.9999858140945435
","x: 256.8089294433594
y: 245.6072235107422
z: -0.29800885915756226
visibility: 0.9999819993972778
","x: 274.6055603027344
y: 277.1622314453125
z: -0.11590256541967392
visibility: 0.9999884366989136
","x: 237.37255859375
y: 276.6180725097656
z: -0.14376585185527802
visibility: 0.9999427199363708
","x: 283.6256103515625
y: 327.22662353515625
z: -0.045852504670619965
visibility: 0.9965075850486755
","x: 229.32200622558594
y: 328.454345703125
z: -0.09364564716815948
visibility: 0.9909760355949402
","x: 292.9797058105469
y: 376.33770751953125
z: -0.13720503449440002
visibility: 0.9966239333152771
","x: 224.48985290527344
y: 376.3736267089844
z: -0.16755273938179016
visibility: 0.9832476377487183
","x: 296.74090576171875
y: 390.6475524902344
z: -0.15951868891716003
visibility: 0.9905856847763062
","x: 222.3174285888672
y: 391.8456726074219
z: -0.1930960714817047
visibility: 0.9639661312103271
","x: 294.9178161621094
y: 391.6422119140625
z: -0.19899825751781464
visibility: 0.9913933873176575
","x: 223.8274688720703
y: 391.9369201660156
z: -0.22732028365135193
visibility: 0.9667203426361084
","x: 293.0828857421875
y: 387.49267578125
z: -0.15430638194084167
visibility: 0.9877611994743347
","x: 225.30316162109375
y: 388.234619140625
z: -0.182535782456398
visibility: 0.9595528244972229
","x: 266.7938537597656
y: 376.82476806640625
z: 0.007916798815131187
visibility: 0.9997616410255432
","x: 242.71405029296875
y: 377.3857421875
z: -0.008022306486964226
visibility: 0.9997639060020447
","x: 262.4495544433594
y: 461.3603210449219
z: -0.01911681517958641
visibility: 0.9952934980392456
","x: 233.7589874267578
y: 463.5534973144531
z: -0.043111786246299744
visibility: 0.9955543279647827
","x: 260.4931945800781
y: 530.7506103515625
z: 0.16077159345149994
visibility: 0.9942960143089294
","x: 221.9889678955078
y: 528.91748046875
z: 0.13824036717414856
visibility: 0.9938145279884338
","x: 258.1100158691406
y: 537.8571166992188
z: 0.17202891409397125
visibility: 0.8830991983413696
","x: 222.40708923339844
y: 532.3641357421875
z: 0.15156620740890503
visibility: 0.843921422958374
","x: 262.9906311035156
y: 559.7366943359375
z: 0.058449722826480865
visibility: 0.9894636273384094
","x: 220.25839233398438
y: 561.160400390625
z: 0.03958228975534439
visibility: 0.9883998036384583
",4.26971697807312,"x: 292.7070617675781
y: 378.09197998046875
z: 0.0
","x: 290.73834228515625
y: 382.1844787597656
z: -0.0034067111555486917
","x: 290.63543701171875
y: 387.8291320800781
z: -0.004865099210292101
","x: 290.7735900878906
y: 393.41522216796875
z: -0.005785300396382809
","x: 290.7706298828125
y: 397.9112243652344
z: -0.006258632987737656
","x: 295.8472595214844
y: 391.1302490234375
z: -0.004337396007031202
","x: 295.2385559082031
y: 399.35516357421875
z: -0.005958227906376123
","x: 293.14501953125
y: 402.2608642578125
z: -0.006189353298395872
","x: 291.4617614746094
y: 403.0350036621094
z: -0.006011879071593285
","x: 296.95416259765625
y: 391.66412353515625
z: -0.0033950323704630136
","x: 296.1241455078125
y: 400.6877136230469
z: -0.004990917164832354
","x: 293.7853088378906
y: 403.8923645019531
z: -0.00513635715469718
","x: 291.89886474609375
y: 404.46990966796875
z: -0.004983475897461176
","x: 297.1824035644531
y: 391.9922180175781
z: -0.0026798946782946587
","x: 296.2674255371094
y: 400.14111328125
z: -0.004412016365677118
","x: 294.04949951171875
y: 402.96856689453125
z: -0.004824127536267042
","x: 292.238037109375
y: 403.78521728515625
z: -0.004775022156536579
","x: 296.5892333984375
y: 392.0538024902344
z: -0.002274266444146633
","x: 295.8069152832031
y: 398.46435546875
z: -0.003945623524487019
","x: 294.1728820800781
y: 401.2005920410156
z: -0.004462520591914654
","x: 292.60760498046875
y: 402.36334228515625
z: -0.004391867201775312
","x: 223.4464111328125
y: 375.6405334472656
z: 0.0
","x: 225.2138214111328
y: 382.764892578125
z: 0.0021361438557505608
","x: 225.27662658691406
y: 390.2048034667969
z: 0.0022213824559003115
","x: 225.60690307617188
y: 395.679931640625
z: 0.0015820631524547935
","x: 225.67782592773438
y: 399.39111328125
z: 0.0014734569704160094
","x: 220.020263671875
y: 393.94708251953125
z: 0.0008271727710962296
","x: 220.4220428466797
y: 403.056884765625
z: -0.0003836752148345113
","x: 223.21206665039062
y: 403.97882080078125
z: -0.00017726012447383255
","x: 225.14865112304688
y: 402.1919250488281
z: 0.00034547914401628077
","x: 219.9482421875
y: 393.65869140625
z: -0.0011649662628769875
","x: 220.75860595703125
y: 403.1222839355469
z: -0.002165716141462326
","x: 223.4578399658203
y: 404.03515625
z: -0.0015763159608468413
","x: 225.04530334472656
y: 402.2601318359375
z: -0.0009270504815503955
","x: 220.72958374023438
y: 392.85186767578125
z: -0.0031249041203409433
","x: 222.15518188476562
y: 401.572509765625
z: -0.0035429124254733324
","x: 224.6057891845703
y: 401.8648986816406
z: -0.0023446939885616302
","x: 225.95620727539062
y: 399.82080078125
z: -0.0014566730242222548
","x: 222.21681213378906
y: 391.6781921386719
z: -0.005101611837744713
","x: 223.88926696777344
y: 398.42681884765625
z: -0.005092137027531862
","x: 225.7475128173828
y: 399.16900634765625
z: -0.0041741481982171535
","x: 226.93238830566406
y: 397.7840881347656
z: -0.0033737663179636
"
8,"x: 259.0554504394531
y: 238.10203552246094
z: -0.33582252264022827
visibility: 0.9999909996986389
","x: 259.38287353515625
y: 232.4336395263672
z: -0.322185754776001
visibility: 0.99996417760849
","x: 260.26214599609375
y: 232.5116729736328
z: -0.3221549391746521
visibility: 0.9999665021896362
","x: 261.1776428222656
y: 232.573486328125
z: -0.32215258479118347
visibility: 0.9999641180038452
","x: 256.3141784667969
y: 232.516845703125
z: -0.3257747292518616
visibility: 0.9999557733535767
","x: 254.95977783203125
y: 232.74273681640625
z: -0.32582637667655945
visibility: 0.9999613165855408
","x: 253.46051025390625
y: 233.01266479492188
z: -0.3258543908596039
visibility: 0.9999577403068542
","x: 261.1728515625
y: 236.9292449951172
z: -0.21323959529399872
visibility: 0.999925971031189
","x: 249.79196166992188
y: 237.8372344970703
z: -0.2309875190258026
visibility: 0.999900758266449
","x: 260.5832214355469
y: 245.64138793945312
z: -0.2926635146141052
visibility: 0.9999858140945435
","x: 256.8089294433594
y: 245.6072235107422
z: -0.29800885915756226
visibility: 0.9999819993972778
","x: 274.6055603027344
y: 277.1622314453125
z: -0.11590256541967392
visibility: 0.9999884366989136
","x: 237.37255859375
y: 276.6180725097656
z: -0.14376585185527802
visibility: 0.9999427199363708
","x: 283.6256103515625
y: 327.22662353515625
z: -0.045852504670619965
visibility: 0.9965075850486755
","x: 229.32200622558594
y: 328.454345703125
z: -0.09364564716815948
visibility: 0.9909760355949402
","x: 292.9797058105469
y: 376.33770751953125
z: -0.13720503449440002
visibility: 0.9966239333152771
","x: 224.48985290527344
y: 376.3736267089844
z: -0.16755273938179016
visibility: 0.9832476377487183
","x: 296.74090576171875
y: 390.6475524902344
z: -0.15951868891716003
visibility: 0.9905856847763062
","x: 222.3174285888672
y: 391.8456726074219
z: -0.1930960714817047
visibility: 0.9639661312103271
","x: 294.9178161621094
y: 391.6422119140625
z: -0.19899825751781464
visibility: 0.9913933873176575
","x: 223.8274688720703
y: 391.9369201660156
z: -0.22732028365135193
visibility: 0.9667203426361084
","x: 293.0828857421875
y: 387.49267578125
z: -0.15430638194084167
visibility: 0.9877611994743347
","x: 225.30316162109375
y: 388.234619140625
z: -0.182535782456398
visibility: 0.9595528244972229
","x: 266.7938537597656
y: 376.82476806640625
z: 0.007916798815131187
visibility: 0.9997616410255432
","x: 242.71405029296875
y: 377.3857421875
z: -0.008022306486964226
visibility: 0.9997639060020447
","x: 262.4495544433594
y: 461.3603210449219
z: -0.01911681517958641
visibility: 0.9952934980392456
","x: 233.7589874267578
y: 463.5534973144531
z: -0.043111786246299744
visibility: 0.9955543279647827
","x: 260.4931945800781
y: 530.7506103515625
z: 0.16077159345149994
visibility: 0.9942960143089294
","x: 221.9889678955078
y: 528.91748046875
z: 0.13824036717414856
visibility: 0.9938145279884338
","x: 258.1100158691406
y: 537.8571166992188
z: 0.17202891409397125
visibility: 0.8830991983413696
","x: 222.40708923339844
y: 532.3641357421875
z: 0.15156620740890503
visibility: 0.843921422958374
","x: 262.9906311035156
y: 559.7366943359375
z: 0.058449722826480865
visibility: 0.9894636273384094
","x: 220.25839233398438
y: 561.160400390625
z: 0.03958228975534439
visibility: 0.9883998036384583
",4.26971697807312,"x: 292.7070617675781
y: 378.09197998046875
z: 0.0
","x: 290.73834228515625
y: 382.1844787597656
z: -0.0034067111555486917
","x: 290.63543701171875
y: 387.8291320800781
z: -0.004865099210292101
","x: 290.7735900878906
y: 393.41522216796875
z: -0.005785300396382809
","x: 290.7706298828125
y: 397.9112243652344
z: -0.006258632987737656
","x: 295.8472595214844
y: 391.1302490234375
z: -0.004337396007031202
","x: 295.2385559082031
y: 399.35516357421875
z: -0.005958227906376123
","x: 293.14501953125
y: 402.2608642578125
z: -0.006189353298395872
","x: 291.4617614746094
y: 403.0350036621094
z: -0.006011879071593285
","x: 296.95416259765625
y: 391.66412353515625
z: -0.0033950323704630136
","x: 296.1241455078125
y: 400.6877136230469
z: -0.004990917164832354
","x: 293.7853088378906
y: 403.8923645019531
z: -0.00513635715469718
","x: 291.89886474609375
y: 404.46990966796875
z: -0.004983475897461176
","x: 297.1824035644531
y: 391.9922180175781
z: -0.0026798946782946587
","x: 296.2674255371094
y: 400.14111328125
z: -0.004412016365677118
","x: 294.04949951171875
y: 402.96856689453125
z: -0.004824127536267042
","x: 292.238037109375
y: 403.78521728515625
z: -0.004775022156536579
","x: 296.5892333984375
y: 392.0538024902344
z: -0.002274266444146633
","x: 295.8069152832031
y: 398.46435546875
z: -0.003945623524487019
","x: 294.1728820800781
y: 401.2005920410156
z: -0.004462520591914654
","x: 292.60760498046875
y: 402.36334228515625
z: -0.004391867201775312
","x: 223.4464111328125
y: 375.6405334472656
z: 0.0
","x: 225.2138214111328
y: 382.764892578125
z: 0.0021361438557505608
","x: 225.27662658691406
y: 390.2048034667969
z: 0.0022213824559003115
","x: 225.60690307617188
y: 395.679931640625
z: 0.0015820631524547935
","x: 225.67782592773438
y: 399.39111328125
z: 0.0014734569704160094
","x: 220.020263671875
y: 393.94708251953125
z: 0.0008271727710962296
","x: 220.4220428466797
y: 403.056884765625
z: -0.0003836752148345113
","x: 223.21206665039062
y: 403.97882080078125
z: -0.00017726012447383255
","x: 225.14865112304688
y: 402.1919250488281
z: 0.00034547914401628077
","x: 219.9482421875
y: 393.65869140625
z: -0.0011649662628769875
","x: 220.75860595703125
y: 403.1222839355469
z: -0.002165716141462326
","x: 223.4578399658203
y: 404.03515625
z: -0.0015763159608468413
","x: 225.04530334472656
y: 402.2601318359375
z: -0.0009270504815503955
","x: 220.72958374023438
y: 392.85186767578125
z: -0.0031249041203409433
","x: 222.15518188476562
y: 401.572509765625
z: -0.0035429124254733324
","x: 224.6057891845703
y: 401.8648986816406
z: -0.0023446939885616302
","x: 225.95620727539062
y: 399.82080078125
z: -0.0014566730242222548
","x: 222.21681213378906
y: 391.6781921386719
z: -0.005101611837744713
","x: 223.88926696777344
y: 398.42681884765625
z: -0.005092137027531862
","x: 225.7475128173828
y: 399.16900634765625
z: -0.0041741481982171535
","x: 226.93238830566406
y: 397.7840881347656
z: -0.0033737663179636
"
9,"x: 258.31903076171875
y: 237.4457550048828
z: -0.338497519493103
visibility: 0.9999915361404419
","x: 258.6898193359375
y: 231.73097229003906
z: -0.32301071286201477
visibility: 0.9999663829803467
","x: 259.5531921386719
y: 231.85499572753906
z: -0.32298094034194946
visibility: 0.9999685883522034
","x: 260.4192199707031
y: 231.9666748046875
z: -0.32298046350479126
visibility: 0.9999663829803467
","x: 255.55026245117188
y: 231.74075317382812
z: -0.3275894522666931
visibility: 0.9999585151672363
","x: 254.10684204101562
y: 231.8798065185547
z: -0.32764124870300293
visibility: 0.9999635219573975
","x: 252.58242797851562
y: 232.03843688964844
z: -0.327667236328125
visibility: 0.9999598264694214
","x: 260.5548095703125
y: 236.5279998779297
z: -0.20823189616203308
visibility: 0.9999297857284546
","x: 248.97039794921875
y: 237.09805297851562
z: -0.235209658741951
visibility: 0.9999057650566101
","x: 259.8804931640625
y: 245.16619873046875
z: -0.29558926820755005
visibility: 0.9999867081642151
","x: 255.9524383544922
y: 245.05001831054688
z: -0.29822367429733276
visibility: 0.9999828338623047
","x: 273.5930480957031
y: 277.74560546875
z: -0.11396542936563492
visibility: 0.9999890327453613
","x: 236.0358123779297
y: 276.94024658203125
z: -0.16308221220970154
visibility: 0.9999434351921082
","x: 282.28302001953125
y: 327.1725769042969
z: -0.04893844574689865
visibility: 0.996308445930481
","x: 228.32748413085938
y: 330.04144287109375
z: -0.12546773254871368
visibility: 0.9912575483322144
","x: 292.4400939941406
y: 375.4768371582031
z: -0.14271394908428192
visibility: 0.9963820576667786
","x: 226.35060119628906
y: 378.4974365234375
z: -0.1948670595884323
visibility: 0.9829556345939636
","x: 296.3437805175781
y: 389.6264953613281
z: -0.16583594679832458
visibility: 0.989962637424469
","x: 224.3653106689453
y: 393.53717041015625
z: -0.220907062292099
visibility: 0.9629356265068054
","x: 295.0258483886719
y: 390.6694030761719
z: -0.20386925339698792
visibility: 0.9909433722496033
","x: 226.4253387451172
y: 393.6768798828125
z: -0.25226256251335144
visibility: 0.965704083442688
","x: 293.2561340332031
y: 386.8905029296875
z: -0.1595844179391861
visibility: 0.9872628450393677
","x: 227.9391632080078
y: 390.1499938964844
z: -0.20816776156425476
visibility: 0.9577768445014954
","x: 266.36968994140625
y: 375.60833740234375
z: 0.010166768915951252
visibility: 0.9997836947441101
","x: 242.42852783203125
y: 377.1784973144531
z: -0.010232850909233093
visibility: 0.9997798204421997
","x: 262.2107849121094
y: 460.2425537109375
z: -0.13251477479934692
visibility: 0.9955505132675171
","x: 234.55050659179688
y: 462.17938232421875
z: -0.02723677083849907
visibility: 0.9953821301460266
","x: 260.72314453125
y: 530.7451782226562
z: 0.010843278840184212
visibility: 0.9944092035293579
","x: 224.66860961914062
y: 514.8504028320312
z: 0.2505410313606262
visibility: 0.9911513328552246
","x: 258.5812072753906
y: 537.942138671875
z: 0.019070718437433243
visibility: 0.8880413174629211
","x: 224.5874786376953
y: 517.5482177734375
z: 0.2717207074165344
visibility: 0.8256162405014038
","x: 262.7084045410156
y: 559.6907348632812
z: -0.11286072432994843
visibility: 0.989916980266571
","x: 224.0153045654297
y: 545.290771484375
z: 0.16990014910697937
visibility: 0.9859046936035156
",4.380761384963989,"x: 293.8806457519531
y: 376.84075927734375
z: 0.0
","x: 291.9037780761719
y: 381.08282470703125
z: -0.004889866802841425
","x: 291.21063232421875
y: 387.4300842285156
z: -0.0065156277269124985
","x: 291.34307861328125
y: 393.70965576171875
z: -0.00689357565715909
","x: 291.8985900878906
y: 398.2431335449219
z: -0.00682221632450819
","x: 295.8946228027344
y: 389.2817687988281
z: -0.006728597916662693
","x: 296.342041015625
y: 397.560546875
z: -0.00796564668416977
","x: 294.80377197265625
y: 401.931396484375
z: -0.007812915369868279
","x: 293.17041015625
y: 404.04290771484375
z: -0.007317723240703344
","x: 297.40496826171875
y: 389.7387390136719
z: -0.004269292112439871
","x: 297.19927978515625
y: 397.9642333984375
z: -0.005448807962238789
","x: 295.4022216796875
y: 402.416015625
z: -0.005263922736048698
","x: 293.73175048828125
y: 404.733642578125
z: -0.004980718716979027
","x: 297.8282165527344
y: 390.27117919921875
z: -0.0019430912798270583
","x: 297.4879455566406
y: 397.659912109375
z: -0.003366791410371661
","x: 295.855712890625
y: 401.38623046875
z: -0.003948156256228685
","x: 294.25408935546875
y: 403.2931213378906
z: -0.0040653301402926445
","x: 297.6893310546875
y: 390.7020263671875
z: 0.00011200266453670338
","x: 297.58099365234375
y: 396.7420959472656
z: -0.0013272145297378302
","x: 296.38519287109375
y: 400.15216064453125
z: -0.002004581270739436
","x: 294.9283447265625
y: 401.8673400878906
z: -0.0020927777513861656
",,,,,,,,,,,,,,,,,,,,,
10,"x: 258.31903076171875
y: 237.4457550048828
z: -0.338497519493103
visibility: 0.9999915361404419
","x: 258.6898193359375
y: 231.73097229003906
z: -0.32301071286201477
visibility: 0.9999663829803467
","x: 259.5531921386719
y: 231.85499572753906
z: -0.32298094034194946
visibility: 0.9999685883522034
","x: 260.4192199707031
y: 231.9666748046875
z: -0.32298046350479126
visibility: 0.9999663829803467
","x: 255.55026245117188
y: 231.74075317382812
z: -0.3275894522666931
visibility: 0.9999585151672363
","x: 254.10684204101562
y: 231.8798065185547
z: -0.32764124870300293
visibility: 0.9999635219573975
","x: 252.58242797851562
y: 232.03843688964844
z: -0.327667236328125
visibility: 0.9999598264694214
","x: 260.5548095703125
y: 236.5279998779297
z: -0.20823189616203308
visibility: 0.9999297857284546
","x: 248.97039794921875
y: 237.09805297851562
z: -0.235209658741951
visibility: 0.9999057650566101
","x: 259.8804931640625
y: 245.16619873046875
z: -0.29558926820755005
visibility: 0.9999867081642151
","x: 255.9524383544922
y: 245.05001831054688
z: -0.29822367429733276
visibility: 0.9999828338623047
","x: 273.5930480957031
y: 277.74560546875
z: -0.11396542936563492
visibility: 0.9999890327453613
","x: 236.0358123779297
y: 276.94024658203125
z: -0.16308221220970154
visibility: 0.9999434351921082
","x: 282.28302001953125
y: 327.1725769042969
z: -0.04893844574689865
visibility: 0.996308445930481
","x: 228.32748413085938
y: 330.04144287109375
z: -0.12546773254871368
visibility: 0.9912575483322144
","x: 292.4400939941406
y: 375.4768371582031
z: -0.14271394908428192
visibility: 0.9963820576667786
","x: 226.35060119628906
y: 378.4974365234375
z: -0.1948670595884323
visibility: 0.9829556345939636
","x: 296.3437805175781
y: 389.6264953613281
z: -0.16583594679832458
visibility: 0.989962637424469
","x: 224.3653106689453
y: 393.53717041015625
z: -0.220907062292099
visibility: 0.9629356265068054
","x: 295.0258483886719
y: 390.6694030761719
z: -0.20386925339698792
visibility: 0.9909433722496033
","x: 226.4253387451172
y: 393.6768798828125
z: -0.25226256251335144
visibility: 0.965704083442688
","x: 293.2561340332031
y: 386.8905029296875
z: -0.1595844179391861
visibility: 0.9872628450393677
","x: 227.9391632080078
y: 390.1499938964844
z: -0.20816776156425476
visibility: 0.9577768445014954
","x: 266.36968994140625
y: 375.60833740234375
z: 0.010166768915951252
visibility: 0.9997836947441101
","x: 242.42852783203125
y: 377.1784973144531
z: -0.010232850909233093
visibility: 0.9997798204421997
","x: 262.2107849121094
y: 460.2425537109375
z: -0.13251477479934692
visibility: 0.9955505132675171
","x: 234.55050659179688
y: 462.17938232421875
z: -0.02723677083849907
visibility: 0.9953821301460266
","x: 260.72314453125
y: 530.7451782226562
z: 0.010843278840184212
visibility: 0.9944092035293579
","x: 224.66860961914062
y: 514.8504028320312
z: 0.2505410313606262
visibility: 0.9911513328552246
","x: 258.5812072753906
y: 537.942138671875
z: 0.019070718437433243
visibility: 0.8880413174629211
","x: 224.5874786376953
y: 517.5482177734375
z: 0.2717207074165344
visibility: 0.8256162405014038
","x: 262.7084045410156
y: 559.6907348632812
z: -0.11286072432994843
visibility: 0.989916980266571
","x: 224.0153045654297
y: 545.290771484375
z: 0.16990014910697937
visibility: 0.9859046936035156
",4.380761384963989,"x: 293.8806457519531
y: 376.84075927734375
z: 0.0
","x: 291.9037780761719
y: 381.08282470703125
z: -0.004889866802841425
","x: 291.21063232421875
y: 387.4300842285156
z: -0.0065156277269124985
","x: 291.34307861328125
y: 393.70965576171875
z: -0.00689357565715909
","x: 291.8985900878906
y: 398.2431335449219
z: -0.00682221632450819
","x: 295.8946228027344
y: 389.2817687988281
z: -0.006728597916662693
","x: 296.342041015625
y: 397.560546875
z: -0.00796564668416977
","x: 294.80377197265625
y: 401.931396484375
z: -0.007812915369868279
","x: 293.17041015625
y: 404.04290771484375
z: -0.007317723240703344
","x: 297.40496826171875
y: 389.7387390136719
z: -0.004269292112439871
","x: 297.19927978515625
y: 397.9642333984375
z: -0.005448807962238789
","x: 295.4022216796875
y: 402.416015625
z: -0.005263922736048698
","x: 293.73175048828125
y: 404.733642578125
z: -0.004980718716979027
","x: 297.8282165527344
y: 390.27117919921875
z: -0.0019430912798270583
","x: 297.4879455566406
y: 397.659912109375
z: -0.003366791410371661
","x: 295.855712890625
y: 401.38623046875
z: -0.003948156256228685
","x: 294.25408935546875
y: 403.2931213378906
z: -0.0040653301402926445
","x: 297.6893310546875
y: 390.7020263671875
z: 0.00011200266453670338
","x: 297.58099365234375
y: 396.7420959472656
z: -0.0013272145297378302
","x: 296.38519287109375
y: 400.15216064453125
z: -0.002004581270739436
","x: 294.9283447265625
y: 401.8673400878906
z: -0.0020927777513861656
",,,,,,,,,,,,,,,,,,,,,
11,"x: 258.31903076171875
y: 237.4457550048828
z: -0.338497519493103
visibility: 0.9999915361404419
","x: 258.6898193359375
y: 231.73097229003906
z: -0.32301071286201477
visibility: 0.9999663829803467
","x: 259.5531921386719
y: 231.85499572753906
z: -0.32298094034194946
visibility: 0.9999685883522034
","x: 260.4192199707031
y: 231.9666748046875
z: -0.32298046350479126
visibility: 0.9999663829803467
","x: 255.55026245117188
y: 231.74075317382812
z: -0.3275894522666931
visibility: 0.9999585151672363
","x: 254.10684204101562
y: 231.8798065185547
z: -0.32764124870300293
visibility: 0.9999635219573975
","x: 252.58242797851562
y: 232.03843688964844
z: -0.327667236328125
visibility: 0.9999598264694214
","x: 260.5548095703125
y: 236.5279998779297
z: -0.20823189616203308
visibility: 0.9999297857284546
","x: 248.97039794921875
y: 237.09805297851562
z: -0.235209658741951
visibility: 0.9999057650566101
","x: 259.8804931640625
y: 245.16619873046875
z: -0.29558926820755005
visibility: 0.9999867081642151
","x: 255.9524383544922
y: 245.05001831054688
z: -0.29822367429733276
visibility: 0.9999828338623047
","x: 273.5930480957031
y: 277.74560546875
z: -0.11396542936563492
visibility: 0.9999890327453613
","x: 236.0358123779297
y: 276.94024658203125
z: -0.16308221220970154
visibility: 0.9999434351921082
","x: 282.28302001953125
y: 327.1725769042969
z: -0.04893844574689865
visibility: 0.996308445930481
","x: 228.32748413085938
y: 330.04144287109375
z: -0.12546773254871368
visibility: 0.9912575483322144
","x: 292.4400939941406
y: 375.4768371582031
z: -0.14271394908428192
visibility: 0.9963820576667786
","x: 226.35060119628906
y: 378.4974365234375
z: -0.1948670595884323
visibility: 0.9829556345939636
","x: 296.3437805175781
y: 389.6264953613281
z: -0.16583594679832458
visibility: 0.989962637424469
","x: 224.3653106689453
y: 393.53717041015625
z: -0.220907062292099
visibility: 0.9629356265068054
","x: 295.0258483886719
y: 390.6694030761719
z: -0.20386925339698792
visibility: 0.9909433722496033
","x: 226.4253387451172
y: 393.6768798828125
z: -0.25226256251335144
visibility: 0.965704083442688
","x: 293.2561340332031
y: 386.8905029296875
z: -0.1595844179391861
visibility: 0.9872628450393677
","x: 227.9391632080078
y: 390.1499938964844
z: -0.20816776156425476
visibility: 0.9577768445014954
","x: 266.36968994140625
y: 375.60833740234375
z: 0.010166768915951252
visibility: 0.9997836947441101
","x: 242.42852783203125
y: 377.1784973144531
z: -0.010232850909233093
visibility: 0.9997798204421997
","x: 262.2107849121094
y: 460.2425537109375
z: -0.13251477479934692
visibility: 0.9955505132675171
","x: 234.55050659179688
y: 462.17938232421875
z: -0.02723677083849907
visibility: 0.9953821301460266
","x: 260.72314453125
y: 530.7451782226562
z: 0.010843278840184212
visibility: 0.9944092035293579
","x: 224.66860961914062
y: 514.8504028320312
z: 0.2505410313606262
visibility: 0.9911513328552246
","x: 258.5812072753906
y: 537.942138671875
z: 0.019070718437433243
visibility: 0.8880413174629211
","x: 224.5874786376953
y: 517.5482177734375
z: 0.2717207074165344
visibility: 0.8256162405014038
","x: 262.7084045410156
y: 559.6907348632812
z: -0.11286072432994843
visibility: 0.989916980266571
","x: 224.0153045654297
y: 545.290771484375
z: 0.16990014910697937
visibility: 0.9859046936035156
",4.380761384963989,"x: 293.8806457519531
y: 376.84075927734375
z: 0.0
","x: 291.9037780761719
y: 381.08282470703125
z: -0.004889866802841425
","x: 291.21063232421875
y: 387.4300842285156
z: -0.0065156277269124985
","x: 291.34307861328125
y: 393.70965576171875
z: -0.00689357565715909
","x: 291.8985900878906
y: 398.2431335449219
z: -0.00682221632450819
","x: 295.8946228027344
y: 389.2817687988281
z: -0.006728597916662693
","x: 296.342041015625
y: 397.560546875
z: -0.00796564668416977
","x: 294.80377197265625
y: 401.931396484375
z: -0.007812915369868279
","x: 293.17041015625
y: 404.04290771484375
z: -0.007317723240703344
","x: 297.40496826171875
y: 389.7387390136719
z: -0.004269292112439871
","x: 297.19927978515625
y: 397.9642333984375
z: -0.005448807962238789
","x: 295.4022216796875
y: 402.416015625
z: -0.005263922736048698
","x: 293.73175048828125
y: 404.733642578125
z: -0.004980718716979027
","x: 297.8282165527344
y: 390.27117919921875
z: -0.0019430912798270583
","x: 297.4879455566406
y: 397.659912109375
z: -0.003366791410371661
","x: 295.855712890625
y: 401.38623046875
z: -0.003948156256228685
","x: 294.25408935546875
y: 403.2931213378906
z: -0.0040653301402926445
","x: 297.6893310546875
y: 390.7020263671875
z: 0.00011200266453670338
","x: 297.58099365234375
y: 396.7420959472656
z: -0.0013272145297378302
","x: 296.38519287109375
y: 400.15216064453125
z: -0.002004581270739436
","x: 294.9283447265625
y: 401.8673400878906
z: -0.0020927777513861656
",,,,,,,,,,,,,,,,,,,,,
12,"x: 257.015869140625
y: 238.4049072265625
z: -0.30913662910461426
visibility: 0.9999920129776001
","x: 257.5099792480469
y: 232.9647979736328
z: -0.2923101782798767
visibility: 0.9999681115150452
","x: 258.4792175292969
y: 233.04055786132812
z: -0.2922857999801636
visibility: 0.9999701380729675
","x: 259.4747619628906
y: 233.13092041015625
z: -0.2922843396663666
visibility: 0.9999679923057556
","x: 254.1561737060547
y: 232.968505859375
z: -0.29863521456718445
visibility: 0.9999610781669617
","x: 252.6894989013672
y: 233.05215454101562
z: -0.2986709475517273
visibility: 0.9999656677246094
","x: 251.13516235351562
y: 233.1162872314453
z: -0.29866790771484375
visibility: 0.9999619126319885
","x: 259.88885498046875
y: 237.42684936523438
z: -0.18393956124782562
visibility: 0.9999321103096008
","x: 247.86587524414062
y: 237.70230102539062
z: -0.21497008204460144
visibility: 0.9999117851257324
","x: 258.7267150878906
y: 245.82322692871094
z: -0.26772457361221313
visibility: 0.9999873638153076
","x: 255.03256225585938
y: 245.65809631347656
z: -0.27611392736434937
visibility: 0.9999836683273315
","x: 270.705322265625
y: 282.26312255859375
z: -0.09559756517410278
visibility: 0.9999889731407166
","x: 235.38995361328125
y: 278.03765869140625
z: -0.148540198802948
visibility: 0.999946117401123
","x: 279.56341552734375
y: 329.70843505859375
z: -0.028511330485343933
visibility: 0.9959266185760498
","x: 227.05018615722656
y: 330.07891845703125
z: -0.10934518277645111
visibility: 0.9914767146110535
","x: 289.0808410644531
y: 375.71002197265625
z: -0.11306752264499664
visibility: 0.9959355592727661
","x: 225.84251403808594
y: 378.8873596191406
z: -0.18628644943237305
visibility: 0.9833489656448364
","x: 292.4111633300781
y: 390.05023193359375
z: -0.13352832198143005
visibility: 0.9889152646064758
","x: 224.145263671875
y: 393.563232421875
z: -0.2121623307466507
visibility: 0.9634819626808167
","x: 291.142578125
y: 390.8430480957031
z: -0.1704338639974594
visibility: 0.9900915622711182
","x: 226.5595245361328
y: 393.6880187988281
z: -0.24776020646095276
visibility: 0.9661471247673035
","x: 289.42388916015625
y: 387.0455322265625
z: -0.12960346043109894
visibility: 0.9863122701644897
","x: 227.9029541015625
y: 390.1788330078125
z: -0.2031106948852539
visibility: 0.9581300020217896
","x: 265.4609069824219
y: 375.5714111328125
z: 0.009086604230105877
visibility: 0.9997993111610413
","x: 241.9662628173828
y: 377.19677734375
z: -0.009170749224722385
visibility: 0.999789834022522
","x: 261.7040710449219
y: 459.2962341308594
z: -0.07260828465223312
visibility: 0.9957335591316223
","x: 234.5030517578125
y: 461.7242736816406
z: -0.0057065971195697784
visibility: 0.9952741265296936
","x: 260.8375549316406
y: 530.7337646484375
z: 0.048655811697244644
visibility: 0.9944822192192078
","x: 228.25180053710938
y: 515.6681518554688
z: 0.2137824296951294
visibility: 0.990371584892273
","x: 258.8367919921875
y: 538.13818359375
z: 0.053117793053388596
visibility: 0.8913244009017944
","x: 229.05284118652344
y: 519.8583984375
z: 0.22851869463920593
visibility: 0.8214136958122253
","x: 262.5746765136719
y: 559.4913940429688
z: -0.06716961413621902
visibility: 0.9901615977287292
","x: 225.06349182128906
y: 540.7491455078125
z: 0.1299339234828949
visibility: 0.9852166771888733
",4.50713324546814,,,,,,,,,,,,,,,,,,,,,,,,,,,,,,,,,,,,,,,,,,
13,"x: 257.015869140625
y: 238.4049072265625
z: -0.30913662910461426
visibility: 0.9999920129776001
","x: 257.5099792480469
y: 232.9647979736328
z: -0.2923101782798767
visibility: 0.9999681115150452
","x: 258.4792175292969
y: 233.04055786132812
z: -0.2922857999801636
visibility: 0.9999701380729675
","x: 259.4747619628906
y: 233.13092041015625
z: -0.2922843396663666
visibility: 0.9999679923057556
","x: 254.1561737060547
y: 232.968505859375
z: -0.29863521456718445
visibility: 0.9999610781669617
","x: 252.6894989013672
y: 233.05215454101562
z: -0.2986709475517273
visibility: 0.9999656677246094
","x: 251.13516235351562
y: 233.1162872314453
z: -0.29866790771484375
visibility: 0.9999619126319885
","x: 259.88885498046875
y: 237.42684936523438
z: -0.18393956124782562
visibility: 0.9999321103096008
","x: 247.86587524414062
y: 237.70230102539062
z: -0.21497008204460144
visibility: 0.9999117851257324
","x: 258.7267150878906
y: 245.82322692871094
z: -0.26772457361221313
visibility: 0.9999873638153076
","x: 255.03256225585938
y: 245.65809631347656
z: -0.27611392736434937
visibility: 0.9999836683273315
","x: 270.705322265625
y: 282.26312255859375
z: -0.09559756517410278
visibility: 0.9999889731407166
","x: 235.38995361328125
y: 278.03765869140625
z: -0.148540198802948
visibility: 0.999946117401123
","x: 279.56341552734375
y: 329.70843505859375
z: -0.028511330485343933
visibility: 0.9959266185760498
","x: 227.05018615722656
y: 330.07891845703125
z: -0.10934518277645111
visibility: 0.9914767146110535
","x: 289.0808410644531
y: 375.71002197265625
z: -0.11306752264499664
visibility: 0.9959355592727661
","x: 225.84251403808594
y: 378.8873596191406
z: -0.18628644943237305
visibility: 0.9833489656448364
","x: 292.4111633300781
y: 390.05023193359375
z: -0.13352832198143005
visibility: 0.9889152646064758
","x: 224.145263671875
y: 393.563232421875
z: -0.2121623307466507
visibility: 0.9634819626808167
","x: 291.142578125
y: 390.8430480957031
z: -0.1704338639974594
visibility: 0.9900915622711182
","x: 226.5595245361328
y: 393.6880187988281
z: -0.24776020646095276
visibility: 0.9661471247673035
","x: 289.42388916015625
y: 387.0455322265625
z: -0.12960346043109894
visibility: 0.9863122701644897
","x: 227.9029541015625
y: 390.1788330078125
z: -0.2031106948852539
visibility: 0.9581300020217896
","x: 265.4609069824219
y: 375.5714111328125
z: 0.009086604230105877
visibility: 0.9997993111610413
","x: 241.9662628173828
y: 377.19677734375
z: -0.009170749224722385
visibility: 0.999789834022522
","x: 261.7040710449219
y: 459.2962341308594
z: -0.07260828465223312
visibility: 0.9957335591316223
","x: 234.5030517578125
y: 461.7242736816406
z: -0.0057065971195697784
visibility: 0.9952741265296936
","x: 260.8375549316406
y: 530.7337646484375
z: 0.048655811697244644
visibility: 0.9944822192192078
","x: 228.25180053710938
y: 515.6681518554688
z: 0.2137824296951294
visibility: 0.990371584892273
","x: 258.8367919921875
y: 538.13818359375
z: 0.053117793053388596
visibility: 0.8913244009017944
","x: 229.05284118652344
y: 519.8583984375
z: 0.22851869463920593
visibility: 0.8214136958122253
","x: 262.5746765136719
y: 559.4913940429688
z: -0.06716961413621902
visibility: 0.9901615977287292
","x: 225.06349182128906
y: 540.7491455078125
z: 0.1299339234828949
visibility: 0.9852166771888733
",4.50713324546814,,,,,,,,,,,,,,,,,,,,,,,,,,,,,,,,,,,,,,,,,,
14,"x: 252.18736267089844
y: 239.77850341796875
z: -0.2665310800075531
visibility: 0.9999918937683105
","x: 253.80740356445312
y: 234.37242126464844
z: -0.2516574263572693
visibility: 0.9999662041664124
","x: 254.98956298828125
y: 234.6598663330078
z: -0.2516459822654724
visibility: 0.9999682903289795
","x: 256.10601806640625
y: 234.97561645507812
z: -0.25163108110427856
visibility: 0.9999656677246094
","x: 249.89501953125
y: 233.7722930908203
z: -0.2576131224632263
visibility: 0.9999604225158691
","x: 248.3531036376953
y: 233.6381378173828
z: -0.2576256990432739
visibility: 0.9999650716781616
","x: 246.8396453857422
y: 233.46401977539062
z: -0.2576279640197754
visibility: 0.999960720539093
","x: 256.3934326171875
y: 239.12689208984375
z: -0.15454617142677307
visibility: 0.9999247193336487
","x: 243.20016479492188
y: 237.72239685058594
z: -0.18341189622879028
visibility: 0.9999121427536011
","x: 253.8463134765625
y: 247.12425231933594
z: -0.22883370518684387
visibility: 0.9999865293502808
","x: 248.875
y: 246.4337921142578
z: -0.23716147243976593
visibility: 0.9999830722808838
","x: 264.0316162109375
y: 282.558349609375
z: -0.07809887081384659
visibility: 0.9999883770942688
","x: 229.68869018554688
y: 279.3078918457031
z: -0.10972877591848373
visibility: 0.9999474883079529
","x: 270.6541748046875
y: 330.0565185546875
z: -0.007944682613015175
visibility: 0.995401918888092
","x: 224.89341735839844
y: 330.8871154785156
z: -0.06872384250164032
visibility: 0.991131067276001
","x: 281.341064453125
y: 374.9889831542969
z: -0.08613569289445877
visibility: 0.9953449368476868
","x: 224.8120574951172
y: 379.4341735839844
z: -0.1368643045425415
visibility: 0.9836009740829468
","x: 284.90545654296875
y: 388.9395751953125
z: -0.10589577257633209
visibility: 0.9878231883049011
","x: 223.35951232910156
y: 394.16357421875
z: -0.1605207622051239
visibility: 0.9641505479812622
","x: 284.4524230957031
y: 389.7309875488281
z: -0.1399373710155487
visibility: 0.9891343116760254
","x: 226.0939178466797
y: 394.0054016113281
z: -0.18940453231334686
visibility: 0.9667035341262817
","x: 282.5860595703125
y: 386.30975341796875
z: -0.10123617947101593
visibility: 0.9852088689804077
","x: 227.2801513671875
y: 390.2835693359375
z: -0.14926719665527344
visibility: 0.9587556719779968
","x: 262.22198486328125
y: 375.6044006347656
z: 0.002393056871369481
visibility: 0.999802827835083
","x: 240.37478637695312
y: 377.1807556152344
z: -0.0024164500646293163
visibility: 0.9997835755348206
","x: 259.9419860839844
y: 459.04547119140625
z: -0.05678984522819519
visibility: 0.9958913326263428
","x: 234.43911743164062
y: 459.58056640625
z: 0.02404223009943962
visibility: 0.9949331283569336
","x: 260.85870361328125
y: 530.7178955078125
z: 0.04238118231296539
visibility: 0.9946191906929016
","x: 229.7896270751953
y: 515.822998046875
z: 0.1886201798915863
visibility: 0.990373969078064
","x: 259.0067443847656
y: 538.2957153320312
z: 0.04234695807099342
visibility: 0.8926461935043335
","x: 231.54685974121094
y: 521.77783203125
z: 0.20146878063678741
visibility: 0.8267678022384644
","x: 262.06817626953125
y: 558.721923828125
z: -0.07783035933971405
visibility: 0.9903664588928223
","x: 224.57745361328125
y: 539.6704711914062
z: 0.09256620705127716
visibility: 0.9853991866111755
",4.633262395858765,,,,,,,,,,,,,,,,,,,,,,,,,,,,,,,,,,,,,,,,,,
15,"x: 252.18736267089844
y: 239.77850341796875
z: -0.2665310800075531
visibility: 0.9999918937683105
","x: 253.80740356445312
y: 234.37242126464844
z: -0.2516574263572693
visibility: 0.9999662041664124
","x: 254.98956298828125
y: 234.6598663330078
z: -0.2516459822654724
visibility: 0.9999682903289795
","x: 256.10601806640625
y: 234.97561645507812
z: -0.25163108110427856
visibility: 0.9999656677246094
","x: 249.89501953125
y: 233.7722930908203
z: -0.2576131224632263
visibility: 0.9999604225158691
","x: 248.3531036376953
y: 233.6381378173828
z: -0.2576256990432739
visibility: 0.9999650716781616
","x: 246.8396453857422
y: 233.46401977539062
z: -0.2576279640197754
visibility: 0.999960720539093
","x: 256.3934326171875
y: 239.12689208984375
z: -0.15454617142677307
visibility: 0.9999247193336487
","x: 243.20016479492188
y: 237.72239685058594
z: -0.18341189622879028
visibility: 0.9999121427536011
","x: 253.8463134765625
y: 247.12425231933594
z: -0.22883370518684387
visibility: 0.9999865293502808
","x: 248.875
y: 246.4337921142578
z: -0.23716147243976593
visibility: 0.9999830722808838
","x: 264.0316162109375
y: 282.558349609375
z: -0.07809887081384659
visibility: 0.9999883770942688
","x: 229.68869018554688
y: 279.3078918457031
z: -0.10972877591848373
visibility: 0.9999474883079529
","x: 270.6541748046875
y: 330.0565185546875
z: -0.007944682613015175
visibility: 0.995401918888092
","x: 224.89341735839844
y: 330.8871154785156
z: -0.06872384250164032
visibility: 0.991131067276001
","x: 281.341064453125
y: 374.9889831542969
z: -0.08613569289445877
visibility: 0.9953449368476868
","x: 224.8120574951172
y: 379.4341735839844
z: -0.1368643045425415
visibility: 0.9836009740829468
","x: 284.90545654296875
y: 388.9395751953125
z: -0.10589577257633209
visibility: 0.9878231883049011
","x: 223.35951232910156
y: 394.16357421875
z: -0.1605207622051239
visibility: 0.9641505479812622
","x: 284.4524230957031
y: 389.7309875488281
z: -0.1399373710155487
visibility: 0.9891343116760254
","x: 226.0939178466797
y: 394.0054016113281
z: -0.18940453231334686
visibility: 0.9667035341262817
","x: 282.5860595703125
y: 386.30975341796875
z: -0.10123617947101593
visibility: 0.9852088689804077
","x: 227.2801513671875
y: 390.2835693359375
z: -0.14926719665527344
visibility: 0.9587556719779968
","x: 262.22198486328125
y: 375.6044006347656
z: 0.002393056871369481
visibility: 0.999802827835083
","x: 240.37478637695312
y: 377.1807556152344
z: -0.0024164500646293163
visibility: 0.9997835755348206
","x: 259.9419860839844
y: 459.04547119140625
z: -0.05678984522819519
visibility: 0.9958913326263428
","x: 234.43911743164062
y: 459.58056640625
z: 0.02404223009943962
visibility: 0.9949331283569336
","x: 260.85870361328125
y: 530.7178955078125
z: 0.04238118231296539
visibility: 0.9946191906929016
","x: 229.7896270751953
y: 515.822998046875
z: 0.1886201798915863
visibility: 0.990373969078064
","x: 259.0067443847656
y: 538.2957153320312
z: 0.04234695807099342
visibility: 0.8926461935043335
","x: 231.54685974121094
y: 521.77783203125
z: 0.20146878063678741
visibility: 0.8267678022384644
","x: 262.06817626953125
y: 558.721923828125
z: -0.07783035933971405
visibility: 0.9903664588928223
","x: 224.57745361328125
y: 539.6704711914062
z: 0.09256620705127716
visibility: 0.9853991866111755
",4.633262395858765,,,,,,,,,,,,,,,,,,,,,,,,,,,,,,,,,,,,,,,,,,
16,"x: 245.970703125
y: 243.28515625
z: -0.3204658329486847
visibility: 0.9999915957450867
","x: 246.97445678710938
y: 237.26441955566406
z: -0.3089165985584259
visibility: 0.9999642372131348
","x: 248.00779724121094
y: 237.2836456298828
z: -0.3089064955711365
visibility: 0.9999662637710571
","x: 248.99868774414062
y: 237.28131103515625
z: -0.3089222311973572
visibility: 0.9999632835388184
","x: 243.3694305419922
y: 237.0009002685547
z: -0.3138079345226288
visibility: 0.9999592304229736
","x: 241.86984252929688
y: 236.90225219726562
z: -0.31383630633354187
visibility: 0.9999634027481079
","x: 240.40499877929688
y: 236.75936889648438
z: -0.31383150815963745
visibility: 0.9999580979347229
","x: 249.55690002441406
y: 240.32949829101562
z: -0.20823287963867188
visibility: 0.9999169707298279
","x: 237.20310974121094
y: 240.08154296875
z: -0.23226463794708252
visibility: 0.9999100565910339
","x: 247.849365234375
y: 249.94482421875
z: -0.2802741527557373
visibility: 0.9999851584434509
","x: 243.19296264648438
y: 250.01522827148438
z: -0.28753119707107544
visibility: 0.9999817609786987
","x: 260.6007385253906
y: 281.81829833984375
z: -0.11649055778980255
visibility: 0.9999881982803345
","x: 224.36053466796875
y: 280.0726623535156
z: -0.143690824508667
visibility: 0.9999501705169678
","x: 266.11260986328125
y: 328.2563781738281
z: -0.04453528672456741
visibility: 0.9953205585479736
","x: 218.3885955810547
y: 332.34552001953125
z: -0.09624902904033661
visibility: 0.9913996458053589
","x: 274.9801330566406
y: 369.9786682128906
z: -0.10373932123184204
visibility: 0.9953212141990662
","x: 216.7022705078125
y: 379.5035095214844
z: -0.16114512085914612
visibility: 0.9840649366378784
","x: 279.7689208984375
y: 383.1227111816406
z: -0.10990531742572784
visibility: 0.9876528978347778
","x: 216.04103088378906
y: 394.13568115234375
z: -0.18088458478450775
visibility: 0.9649280309677124
","x: 279.0985107421875
y: 384.097900390625
z: -0.14271953701972961
visibility: 0.9890066981315613
","x: 218.26148986816406
y: 394.11907958984375
z: -0.21360886096954346
visibility: 0.9674366116523743
","x: 276.7638244628906
y: 380.552490234375
z: -0.12013041973114014
visibility: 0.9851058721542358
","x: 219.7962646484375
y: 390.391845703125
z: -0.17499756813049316
visibility: 0.9596749544143677
","x: 258.2152404785156
y: 375.2467346191406
z: 0.004112193360924721
visibility: 0.9998086094856262
","x: 236.07630920410156
y: 377.1629638671875
z: -0.004128549713641405
visibility: 0.9997890591621399
","x: 259.8758239746094
y: 456.4051513671875
z: -0.028672009706497192
visibility: 0.9959280490875244
","x: 233.5530548095703
y: 457.1335144042969
z: 0.007304389029741287
visibility: 0.9950535297393799
","x: 261.32830810546875
y: 528.7491455078125
z: 0.056763313710689545
visibility: 0.9947060942649841
","x: 229.85897827148438
y: 515.5277099609375
z: 0.16704711318016052
visibility: 0.9905561208724976
","x: 259.00286865234375
y: 538.4974365234375
z: 0.057439446449279785
visibility: 0.8989201784133911
","x: 231.30320739746094
y: 522.462646484375
z: 0.17499279975891113
visibility: 0.8322795629501343
","x: 268.23663330078125
y: 550.8487548828125
z: -0.058148425072431564
visibility: 0.9906487464904785
","x: 225.7056121826172
y: 538.9599609375
z: 0.08087331801652908
visibility: 0.9856396913528442
",4.804149150848389,"x: 273.9735412597656
y: 369.53448486328125
z: 0.0
","x: 277.9750061035156
y: 374.46917724609375
z: 0.00013396124995779246
","x: 280.2926940917969
y: 379.849365234375
z: -0.0004982617683708668
","x: 280.9677734375
y: 385.5533142089844
z: -0.002140851691365242
","x: 280.47344970703125
y: 390.0363464355469
z: -0.0032060507219284773
","x: 280.1001892089844
y: 386.8240051269531
z: 0.002869377611204982
","x: 280.9679260253906
y: 392.85443115234375
z: 0.0004871409328188747
","x: 280.6749572753906
y: 390.2229309082031
z: -0.0006487454520538449
","x: 280.0419006347656
y: 387.3210144042969
z: -0.00103538460098207
","x: 278.1301574707031
y: 387.551513671875
z: 0.0008512597414664924
","x: 278.7475280761719
y: 393.8241882324219
z: -0.0019249704200774431
","x: 278.5727233886719
y: 390.179931640625
z: -0.0028523465152829885
","x: 278.0027770996094
y: 386.511474609375
z: -0.002745340345427394
","x: 276.02886962890625
y: 387.1627197265625
z: -0.0017539685359224677
","x: 276.4111328125
y: 392.6392822265625
z: -0.004143347963690758
","x: 276.627685546875
y: 388.828857421875
z: -0.003737341146916151
","x: 276.3880615234375
y: 385.1478271484375
z: -0.0027994827833026648
","x: 273.8113708496094
y: 385.89300537109375
z: -0.004714841488748789
","x: 274.0229187011719
y: 389.8663330078125
z: -0.0057682772167027
","x: 274.40057373046875
y: 386.9706726074219
z: -0.005112200044095516
","x: 274.4527282714844
y: 383.48443603515625
z: -0.004178654868155718
",,,,,,,,,,,,,,,,,,,,,
17,"x: 245.970703125
y: 243.28515625
z: -0.3204658329486847
visibility: 0.9999915957450867
","x: 246.97445678710938
y: 237.26441955566406
z: -0.3089165985584259
visibility: 0.9999642372131348
","x: 248.00779724121094
y: 237.2836456298828
z: -0.3089064955711365
visibility: 0.9999662637710571
","x: 248.99868774414062
y: 237.28131103515625
z: -0.3089222311973572
visibility: 0.9999632835388184
","x: 243.3694305419922
y: 237.0009002685547
z: -0.3138079345226288
visibility: 0.9999592304229736
","x: 241.86984252929688
y: 236.90225219726562
z: -0.31383630633354187
visibility: 0.9999634027481079
","x: 240.40499877929688
y: 236.75936889648438
z: -0.31383150815963745
visibility: 0.9999580979347229
","x: 249.55690002441406
y: 240.32949829101562
z: -0.20823287963867188
visibility: 0.9999169707298279
","x: 237.20310974121094
y: 240.08154296875
z: -0.23226463794708252
visibility: 0.9999100565910339
","x: 247.849365234375
y: 249.94482421875
z: -0.2802741527557373
visibility: 0.9999851584434509
","x: 243.19296264648438
y: 250.01522827148438
z: -0.28753119707107544
visibility: 0.9999817609786987
","x: 260.6007385253906
y: 281.81829833984375
z: -0.11649055778980255
visibility: 0.9999881982803345
","x: 224.36053466796875
y: 280.0726623535156
z: -0.143690824508667
visibility: 0.9999501705169678
","x: 266.11260986328125
y: 328.2563781738281
z: -0.04453528672456741
visibility: 0.9953205585479736
","x: 218.3885955810547
y: 332.34552001953125
z: -0.09624902904033661
visibility: 0.9913996458053589
","x: 274.9801330566406
y: 369.9786682128906
z: -0.10373932123184204
visibility: 0.9953212141990662
","x: 216.7022705078125
y: 379.5035095214844
z: -0.16114512085914612
visibility: 0.9840649366378784
","x: 279.7689208984375
y: 383.1227111816406
z: -0.10990531742572784
visibility: 0.9876528978347778
","x: 216.04103088378906
y: 394.13568115234375
z: -0.18088458478450775
visibility: 0.9649280309677124
","x: 279.0985107421875
y: 384.097900390625
z: -0.14271953701972961
visibility: 0.9890066981315613
","x: 218.26148986816406
y: 394.11907958984375
z: -0.21360886096954346
visibility: 0.9674366116523743
","x: 276.7638244628906
y: 380.552490234375
z: -0.12013041973114014
visibility: 0.9851058721542358
","x: 219.7962646484375
y: 390.391845703125
z: -0.17499756813049316
visibility: 0.9596749544143677
","x: 258.2152404785156
y: 375.2467346191406
z: 0.004112193360924721
visibility: 0.9998086094856262
","x: 236.07630920410156
y: 377.1629638671875
z: -0.004128549713641405
visibility: 0.9997890591621399
","x: 259.8758239746094
y: 456.4051513671875
z: -0.028672009706497192
visibility: 0.9959280490875244
","x: 233.5530548095703
y: 457.1335144042969
z: 0.007304389029741287
visibility: 0.9950535297393799
","x: 261.32830810546875
y: 528.7491455078125
z: 0.056763313710689545
visibility: 0.9947060942649841
","x: 229.85897827148438
y: 515.5277099609375
z: 0.16704711318016052
visibility: 0.9905561208724976
","x: 259.00286865234375
y: 538.4974365234375
z: 0.057439446449279785
visibility: 0.8989201784133911
","x: 231.30320739746094
y: 522.462646484375
z: 0.17499279975891113
visibility: 0.8322795629501343
","x: 268.23663330078125
y: 550.8487548828125
z: -0.058148425072431564
visibility: 0.9906487464904785
","x: 225.7056121826172
y: 538.9599609375
z: 0.08087331801652908
visibility: 0.9856396913528442
",4.804149150848389,"x: 273.9735412597656
y: 369.53448486328125
z: 0.0
","x: 277.9750061035156
y: 374.46917724609375
z: 0.00013396124995779246
","x: 280.2926940917969
y: 379.849365234375
z: -0.0004982617683708668
","x: 280.9677734375
y: 385.5533142089844
z: -0.002140851691365242
","x: 280.47344970703125
y: 390.0363464355469
z: -0.0032060507219284773
","x: 280.1001892089844
y: 386.8240051269531
z: 0.002869377611204982
","x: 280.9679260253906
y: 392.85443115234375
z: 0.0004871409328188747
","x: 280.6749572753906
y: 390.2229309082031
z: -0.0006487454520538449
","x: 280.0419006347656
y: 387.3210144042969
z: -0.00103538460098207
","x: 278.1301574707031
y: 387.551513671875
z: 0.0008512597414664924
","x: 278.7475280761719
y: 393.8241882324219
z: -0.0019249704200774431
","x: 278.5727233886719
y: 390.179931640625
z: -0.0028523465152829885
","x: 278.0027770996094
y: 386.511474609375
z: -0.002745340345427394
","x: 276.02886962890625
y: 387.1627197265625
z: -0.0017539685359224677
","x: 276.4111328125
y: 392.6392822265625
z: -0.004143347963690758
","x: 276.627685546875
y: 388.828857421875
z: -0.003737341146916151
","x: 276.3880615234375
y: 385.1478271484375
z: -0.0027994827833026648
","x: 273.8113708496094
y: 385.89300537109375
z: -0.004714841488748789
","x: 274.0229187011719
y: 389.8663330078125
z: -0.0057682772167027
","x: 274.40057373046875
y: 386.9706726074219
z: -0.005112200044095516
","x: 274.4527282714844
y: 383.48443603515625
z: -0.004178654868155718
",,,,,,,,,,,,,,,,,,,,,
18,"x: 245.970703125
y: 243.28515625
z: -0.3204658329486847
visibility: 0.9999915957450867
","x: 246.97445678710938
y: 237.26441955566406
z: -0.3089165985584259
visibility: 0.9999642372131348
","x: 248.00779724121094
y: 237.2836456298828
z: -0.3089064955711365
visibility: 0.9999662637710571
","x: 248.99868774414062
y: 237.28131103515625
z: -0.3089222311973572
visibility: 0.9999632835388184
","x: 243.3694305419922
y: 237.0009002685547
z: -0.3138079345226288
visibility: 0.9999592304229736
","x: 241.86984252929688
y: 236.90225219726562
z: -0.31383630633354187
visibility: 0.9999634027481079
","x: 240.40499877929688
y: 236.75936889648438
z: -0.31383150815963745
visibility: 0.9999580979347229
","x: 249.55690002441406
y: 240.32949829101562
z: -0.20823287963867188
visibility: 0.9999169707298279
","x: 237.20310974121094
y: 240.08154296875
z: -0.23226463794708252
visibility: 0.9999100565910339
","x: 247.849365234375
y: 249.94482421875
z: -0.2802741527557373
visibility: 0.9999851584434509
","x: 243.19296264648438
y: 250.01522827148438
z: -0.28753119707107544
visibility: 0.9999817609786987
","x: 260.6007385253906
y: 281.81829833984375
z: -0.11649055778980255
visibility: 0.9999881982803345
","x: 224.36053466796875
y: 280.0726623535156
z: -0.143690824508667
visibility: 0.9999501705169678
","x: 266.11260986328125
y: 328.2563781738281
z: -0.04453528672456741
visibility: 0.9953205585479736
","x: 218.3885955810547
y: 332.34552001953125
z: -0.09624902904033661
visibility: 0.9913996458053589
","x: 274.9801330566406
y: 369.9786682128906
z: -0.10373932123184204
visibility: 0.9953212141990662
","x: 216.7022705078125
y: 379.5035095214844
z: -0.16114512085914612
visibility: 0.9840649366378784
","x: 279.7689208984375
y: 383.1227111816406
z: -0.10990531742572784
visibility: 0.9876528978347778
","x: 216.04103088378906
y: 394.13568115234375
z: -0.18088458478450775
visibility: 0.9649280309677124
","x: 279.0985107421875
y: 384.097900390625
z: -0.14271953701972961
visibility: 0.9890066981315613
","x: 218.26148986816406
y: 394.11907958984375
z: -0.21360886096954346
visibility: 0.9674366116523743
","x: 276.7638244628906
y: 380.552490234375
z: -0.12013041973114014
visibility: 0.9851058721542358
","x: 219.7962646484375
y: 390.391845703125
z: -0.17499756813049316
visibility: 0.9596749544143677
","x: 258.2152404785156
y: 375.2467346191406
z: 0.004112193360924721
visibility: 0.9998086094856262
","x: 236.07630920410156
y: 377.1629638671875
z: -0.004128549713641405
visibility: 0.9997890591621399
","x: 259.8758239746094
y: 456.4051513671875
z: -0.028672009706497192
visibility: 0.9959280490875244
","x: 233.5530548095703
y: 457.1335144042969
z: 0.007304389029741287
visibility: 0.9950535297393799
","x: 261.32830810546875
y: 528.7491455078125
z: 0.056763313710689545
visibility: 0.9947060942649841
","x: 229.85897827148438
y: 515.5277099609375
z: 0.16704711318016052
visibility: 0.9905561208724976
","x: 259.00286865234375
y: 538.4974365234375
z: 0.057439446449279785
visibility: 0.8989201784133911
","x: 231.30320739746094
y: 522.462646484375
z: 0.17499279975891113
visibility: 0.8322795629501343
","x: 268.23663330078125
y: 550.8487548828125
z: -0.058148425072431564
visibility: 0.9906487464904785
","x: 225.7056121826172
y: 538.9599609375
z: 0.08087331801652908
visibility: 0.9856396913528442
",4.804149150848389,"x: 273.9735412597656
y: 369.53448486328125
z: 0.0
","x: 277.9750061035156
y: 374.46917724609375
z: 0.00013396124995779246
","x: 280.2926940917969
y: 379.849365234375
z: -0.0004982617683708668
","x: 280.9677734375
y: 385.5533142089844
z: -0.002140851691365242
","x: 280.47344970703125
y: 390.0363464355469
z: -0.0032060507219284773
","x: 280.1001892089844
y: 386.8240051269531
z: 0.002869377611204982
","x: 280.9679260253906
y: 392.85443115234375
z: 0.0004871409328188747
","x: 280.6749572753906
y: 390.2229309082031
z: -0.0006487454520538449
","x: 280.0419006347656
y: 387.3210144042969
z: -0.00103538460098207
","x: 278.1301574707031
y: 387.551513671875
z: 0.0008512597414664924
","x: 278.7475280761719
y: 393.8241882324219
z: -0.0019249704200774431
","x: 278.5727233886719
y: 390.179931640625
z: -0.0028523465152829885
","x: 278.0027770996094
y: 386.511474609375
z: -0.002745340345427394
","x: 276.02886962890625
y: 387.1627197265625
z: -0.0017539685359224677
","x: 276.4111328125
y: 392.6392822265625
z: -0.004143347963690758
","x: 276.627685546875
y: 388.828857421875
z: -0.003737341146916151
","x: 276.3880615234375
y: 385.1478271484375
z: -0.0027994827833026648
","x: 273.8113708496094
y: 385.89300537109375
z: -0.004714841488748789
","x: 274.0229187011719
y: 389.8663330078125
z: -0.0057682772167027
","x: 274.40057373046875
y: 386.9706726074219
z: -0.005112200044095516
","x: 274.4527282714844
y: 383.48443603515625
z: -0.004178654868155718
",,,,,,,,,,,,,,,,,,,,,
19,"x: 245.6498565673828
y: 242.9196319580078
z: -0.36738863587379456
visibility: 0.9999899864196777
","x: 247.02157592773438
y: 236.9944610595703
z: -0.3530198633670807
visibility: 0.9999564290046692
","x: 248.13909912109375
y: 237.05770874023438
z: -0.3530042767524719
visibility: 0.999959409236908
","x: 249.23992919921875
y: 237.1103057861328
z: -0.35303762555122375
visibility: 0.9999561905860901
","x: 243.36831665039062
y: 236.813720703125
z: -0.3565541207790375
visibility: 0.9999492764472961
","x: 241.95387268066406
y: 236.79852294921875
z: -0.3566043972969055
visibility: 0.9999533891677856
","x: 240.48231506347656
y: 236.76841735839844
z: -0.3566061854362488
visibility: 0.9999440908432007
","x: 250.3351287841797
y: 240.49560546875
z: -0.24741096794605255
visibility: 0.9999004006385803
","x: 237.2107696533203
y: 240.58860778808594
z: -0.2658563554286957
visibility: 0.9998798966407776
","x: 247.72286987304688
y: 249.92404174804688
z: -0.3266645073890686
visibility: 0.9999783635139465
","x: 242.96270751953125
y: 249.93997192382812
z: -0.33209511637687683
visibility: 0.9999732375144958
","x: 260.9784240722656
y: 281.8078918457031
z: -0.16124282777309418
visibility: 0.999986469745636
","x: 224.8377227783203
y: 279.8677978515625
z: -0.17705392837524414
visibility: 0.9999450445175171
","x: 269.0953369140625
y: 327.2908020019531
z: -0.10895450413227081
visibility: 0.994788408279419
","x: 215.45870971679688
y: 326.829345703125
z: -0.14539459347724915
visibility: 0.9903903007507324
","x: 283.58935546875
y: 365.6749267578125
z: -0.18417224287986755
visibility: 0.9945352077484131
","x: 209.08531188964844
y: 367.12200927734375
z: -0.21586787700653076
visibility: 0.9810711741447449
","x: 290.2852783203125
y: 376.5979309082031
z: -0.20368507504463196
visibility: 0.9855619072914124
","x: 206.85696411132812
y: 378.369140625
z: -0.2385084182024002
visibility: 0.958850085735321
","x: 290.8794250488281
y: 377.50537109375
z: -0.24049115180969238
visibility: 0.9872961640357971
","x: 208.2163543701172
y: 380.02764892578125
z: -0.2727653980255127
visibility: 0.9621806740760803
","x: 288.3813781738281
y: 374.860595703125
z: -0.2014220952987671
visibility: 0.9833332300186157
","x: 209.85205078125
y: 375.8853454589844
z: -0.23207052052021027
visibility: 0.9544690847396851
","x: 258.0919189453125
y: 374.06903076171875
z: 0.005042236763983965
visibility: 0.9998119473457336
","x: 235.72096252441406
y: 377.16680908203125
z: -0.00507337786257267
visibility: 0.9997886419296265
","x: 268.05023193359375
y: 451.1689758300781
z: -0.030422717332839966
visibility: 0.9960389137268066
","x: 233.5773468017578
y: 452.526123046875
z: 0.0013664127327501774
visibility: 0.9951916933059692
","x: 272.38189697265625
y: 517.2542114257812
z: 0.07358356565237045
visibility: 0.9949357509613037
","x: 229.8810577392578
y: 516.5665893554688
z: 0.14704051613807678
visibility: 0.9911430478096008
","x: 269.44970703125
y: 526.6917724609375
z: 0.07725769281387329
visibility: 0.902869462966919
","x: 230.7035369873047
y: 524.0130004882812
z: 0.1532762050628662
visibility: 0.8393024206161499
","x: 280.8490295410156
y: 543.9486083984375
z: -0.04400695115327835
visibility: 0.9910140037536621
","x: 226.35159301757812
y: 539.4298095703125
z: 0.040329523384571075
visibility: 0.9863930940628052
",4.955512046813965,,,,,,,,,,,,,,,,,,,,,,,,,,,,,,,,,,,,,,,,,,
20,"x: 245.6498565673828
y: 242.9196319580078
z: -0.36738863587379456
visibility: 0.9999899864196777
","x: 247.02157592773438
y: 236.9944610595703
z: -0.3530198633670807
visibility: 0.9999564290046692
","x: 248.13909912109375
y: 237.05770874023438
z: -0.3530042767524719
visibility: 0.999959409236908
","x: 249.23992919921875
y: 237.1103057861328
z: -0.35303762555122375
visibility: 0.9999561905860901
","x: 243.36831665039062
y: 236.813720703125
z: -0.3565541207790375
visibility: 0.9999492764472961
","x: 241.95387268066406
y: 236.79852294921875
z: -0.3566043972969055
visibility: 0.9999533891677856
","x: 240.48231506347656
y: 236.76841735839844
z: -0.3566061854362488
visibility: 0.9999440908432007
","x: 250.3351287841797
y: 240.49560546875
z: -0.24741096794605255
visibility: 0.9999004006385803
","x: 237.2107696533203
y: 240.58860778808594
z: -0.2658563554286957
visibility: 0.9998798966407776
","x: 247.72286987304688
y: 249.92404174804688
z: -0.3266645073890686
visibility: 0.9999783635139465
","x: 242.96270751953125
y: 249.93997192382812
z: -0.33209511637687683
visibility: 0.9999732375144958
","x: 260.9784240722656
y: 281.8078918457031
z: -0.16124282777309418
visibility: 0.999986469745636
","x: 224.8377227783203
y: 279.8677978515625
z: -0.17705392837524414
visibility: 0.9999450445175171
","x: 269.0953369140625
y: 327.2908020019531
z: -0.10895450413227081
visibility: 0.994788408279419
","x: 215.45870971679688
y: 326.829345703125
z: -0.14539459347724915
visibility: 0.9903903007507324
","x: 283.58935546875
y: 365.6749267578125
z: -0.18417224287986755
visibility: 0.9945352077484131
","x: 209.08531188964844
y: 367.12200927734375
z: -0.21586787700653076
visibility: 0.9810711741447449
","x: 290.2852783203125
y: 376.5979309082031
z: -0.20368507504463196
visibility: 0.9855619072914124
","x: 206.85696411132812
y: 378.369140625
z: -0.2385084182024002
visibility: 0.958850085735321
","x: 290.8794250488281
y: 377.50537109375
z: -0.24049115180969238
visibility: 0.9872961640357971
","x: 208.2163543701172
y: 380.02764892578125
z: -0.2727653980255127
visibility: 0.9621806740760803
","x: 288.3813781738281
y: 374.860595703125
z: -0.2014220952987671
visibility: 0.9833332300186157
","x: 209.85205078125
y: 375.8853454589844
z: -0.23207052052021027
visibility: 0.9544690847396851
","x: 258.0919189453125
y: 374.06903076171875
z: 0.005042236763983965
visibility: 0.9998119473457336
","x: 235.72096252441406
y: 377.16680908203125
z: -0.00507337786257267
visibility: 0.9997886419296265
","x: 268.05023193359375
y: 451.1689758300781
z: -0.030422717332839966
visibility: 0.9960389137268066
","x: 233.5773468017578
y: 452.526123046875
z: 0.0013664127327501774
visibility: 0.9951916933059692
","x: 272.38189697265625
y: 517.2542114257812
z: 0.07358356565237045
visibility: 0.9949357509613037
","x: 229.8810577392578
y: 516.5665893554688
z: 0.14704051613807678
visibility: 0.9911430478096008
","x: 269.44970703125
y: 526.6917724609375
z: 0.07725769281387329
visibility: 0.902869462966919
","x: 230.7035369873047
y: 524.0130004882812
z: 0.1532762050628662
visibility: 0.8393024206161499
","x: 280.8490295410156
y: 543.9486083984375
z: -0.04400695115327835
visibility: 0.9910140037536621
","x: 226.35159301757812
y: 539.4298095703125
z: 0.040329523384571075
visibility: 0.9863930940628052
",4.955512046813965,,,,,,,,,,,,,,,,,,,,,,,,,,,,,,,,,,,,,,,,,,
21,"x: 246.623779296875
y: 243.56243896484375
z: -0.31321874260902405
visibility: 0.9999897480010986
","x: 247.8111114501953
y: 238.1925811767578
z: -0.2978765368461609
visibility: 0.9999552369117737
","x: 249.04615783691406
y: 238.47390747070312
z: -0.2978611886501312
visibility: 0.9999578595161438
","x: 250.28941345214844
y: 238.72479248046875
z: -0.29787492752075195
visibility: 0.999954342842102
","x: 244.36605834960938
y: 237.65557861328125
z: -0.30392491817474365
visibility: 0.9999487996101379
","x: 242.9550323486328
y: 237.65283203125
z: -0.3039547801017761
visibility: 0.9999529123306274
","x: 241.48919677734375
y: 237.6762237548828
z: -0.3039539158344269
visibility: 0.9999443292617798
","x: 251.4244384765625
y: 242.39651489257812
z: -0.19049452245235443
visibility: 0.9998955726623535
","x: 237.90850830078125
y: 242.12680053710938
z: -0.21752572059631348
visibility: 0.9998827576637268
","x: 248.64898681640625
y: 251.53738403320312
z: -0.2711910307407379
visibility: 0.999977707862854
","x: 244.2593536376953
y: 250.8226776123047
z: -0.27922600507736206
visibility: 0.9999736547470093
","x: 262.3522033691406
y: 281.69842529296875
z: -0.09568022191524506
visibility: 0.999986469745636
","x: 226.12274169921875
y: 281.40966796875
z: -0.14071381092071533
visibility: 0.9999474287033081
","x: 269.7713928222656
y: 322.0367431640625
z: -0.02083311602473259
visibility: 0.9942261576652527
","x: 217.03250122070312
y: 326.1412048339844
z: -0.11844412237405777
visibility: 0.990939736366272
","x: 284.5868225097656
y: 354.7848205566406
z: -0.11207566410303116
visibility: 0.9939880967140198
","x: 228.71661376953125
y: 363.23297119140625
z: -0.19671794772148132
visibility: 0.9820644855499268
","x: 290.32464599609375
y: 363.51422119140625
z: -0.1359839141368866
visibility: 0.9844127297401428
","x: 231.8132781982422
y: 376.7784118652344
z: -0.23084791004657745
visibility: 0.960483968257904
","x: 290.7499084472656
y: 364.23876953125
z: -0.1729530543088913
visibility: 0.9862889051437378
","x: 234.9934844970703
y: 373.5792541503906
z: -0.24283571541309357
visibility: 0.9635612368583679
","x: 288.1925048828125
y: 360.7554626464844
z: -0.12914955615997314
visibility: 0.9819532632827759
","x: 234.6309356689453
y: 369.08642578125
z: -0.20049352943897247
visibility: 0.9556940197944641
","x: 259.31634521484375
y: 374.1756591796875
z: 0.005460623651742935
visibility: 0.9998211860656738
","x: 235.91998291015625
y: 377.8710632324219
z: -0.005500510800629854
visibility: 0.9997961521148682
","x: 273.76763916015625
y: 451.3959045410156
z: -0.02965809404850006
visibility: 0.9963340759277344
","x: 234.08404541015625
y: 454.0376281738281
z: -0.0011573045048862696
visibility: 0.9955412745475769
","x: 287.6859130859375
y: 517.828369140625
z: 0.09961973130702972
visibility: 0.9953060746192932
","x: 229.65782165527344
y: 517.5892333984375
z: 0.1550285369157791
visibility: 0.9918542504310608
","x: 286.3583068847656
y: 526.8043212890625
z: 0.10507673025131226
visibility: 0.9067360162734985
","x: 230.48538208007812
y: 524.8826904296875
z: 0.1632542461156845
visibility: 0.8498899936676025
","x: 294.38983154296875
y: 545.1952514648438
z: -0.026003608480095863
visibility: 0.991589367389679
","x: 226.1207275390625
y: 540.0296630859375
z: 0.04114607349038124
visibility: 0.9874246716499329
",5.098736524581909,,,,,,,,,,,,,,,,,,,,,,"x: 231.10926818847656
y: 361.2004089355469
z: 0.0
","x: 235.0554962158203
y: 361.32208251953125
z: -0.0014504395658150315
","x: 238.51234436035156
y: 364.6919250488281
z: -0.0025751700159162283
","x: 241.11936950683594
y: 368.1152038574219
z: -0.0038628901820629835
","x: 243.4599151611328
y: 370.1391296386719
z: -0.00510810874402523
","x: 237.7387237548828
y: 373.2745056152344
z: -0.0007624441059306264
","x: 239.757568359375
y: 379.6711730957031
z: -0.0023410730063915253
","x: 241.10400390625
y: 383.4315490722656
z: -0.0033254027366638184
","x: 242.150634765625
y: 386.4564514160156
z: -0.00394256180152297
","x: 236.10169982910156
y: 375.4403076171875
z: -0.0015546591021120548
","x: 238.28396606445312
y: 382.5675048828125
z: -0.002829574514180422
","x: 239.79095458984375
