uscmakers/ReverseChoreography/data/10_fool_around_yas.csv
,NOSE,LEFT_EYE_INNER,LEFT_EYE,LEFT_EYE_OUTER,RIGHT_EYE_INNER,RIGHT_EYE,RIGHT_EYE_OUTER,LEFT_EAR,RIGHT_EAR,MOUTH_LEFT,MOUTH_RIGHT,LEFT_SHOULDER,RIGHT_SHOULDER,LEFT_ELBOW,RIGHT_ELBOW,LEFT_WRIST,RIGHT_WRIST,LEFT_PINKY,RIGHT_PINKY,LEFT_INDEX,RIGHT_INDEX,LEFT_THUMB,RIGHT_THUMB,LEFT_HIP,RIGHT_HIP,LEFT_KNEE,RIGHT_KNEE,LEFT_ANKLE,RIGHT_ANKLE,LEFT_HEEL,RIGHT_HEEL,LEFT_FOOT_INDEX,RIGHT_FOOT_INDEX,WRIST,THUMB_CPC,THUMB_MCP,THUMB_IP,THUMB_TIP,INDEX_FINGER_MCP,INDEX_FINGER_PIP,INDEX_FINGER_DIP,INDEX_FINGER_TIP,MIDDLE_FINGER_MCP,MIDDLE_FINGER_PIP,MIDDLE_FINGER_DIP,MIDDLE_FINGER_TIP,RING_FINGER_PIP,RING_FINGER_DIP,RING_FINGER_TIP,RING_FINGER_MCP,PINKY_MCP,PINKY_PIP,PINKY_DIP,PINKY_TIP,TIMESTAMP,WRIST2,THUMB_CPC2,THUMB_MCP2,THUMB_IP2,THUMB_TIP2,INDEX_FINGER_MCP2,INDEX_FINGER_PIP2,INDEX_FINGER_DIP2,INDEX_FINGER_TIP2,MIDDLE_FINGER_MCP2,MIDDLE_FINGER_PIP2,MIDDLE_FINGER_DIP2,MIDDLE_FINGER_TIP2,RING_FINGER_PIP2,RING_FINGER_DIP2,RING_FINGER_TIP2,RING_FINGER_MCP2,PINKY_MCP2,PINKY_PIP2,PINKY_DIP2,PINKY_TIP2
0,"x: 250.19773864746094
y: 253.3953094482422
z: -0.26787781715393066
visibility: 0.9999890327453613
","x: 251.6456298828125
y: 247.8319091796875
z: -0.2523753345012665
visibility: 0.9999643564224243
","x: 252.86407470703125
y: 248.064453125
z: -0.25236839056015015
visibility: 0.9999614953994751
","x: 254.13954162597656
y: 248.3308563232422
z: -0.25234583020210266
visibility: 0.9999558925628662
","x: 248.33316040039062
y: 247.34693908691406
z: -0.25657299160957336
visibility: 0.9999649524688721
","x: 246.97386169433594
y: 247.31996154785156
z: -0.256600946187973
visibility: 0.9999657869338989
","x: 245.4921112060547
y: 247.38711547851562
z: -0.25659897923469543
visibility: 0.9999617338180542
","x: 256.3924865722656
y: 253.0828857421875
z: -0.15080921351909637
visibility: 0.9998267292976379
","x: 242.57286071777344
y: 252.305419921875
z: -0.1738549768924713
visibility: 0.9999328851699829
","x: 252.11880493164062
y: 261.4013977050781
z: -0.22943472862243652
visibility: 0.9999666213989258
","x: 247.4244384765625
y: 261.255859375
z: -0.23601503670215607
visibility: 0.999975323677063
","x: 266.8319396972656
y: 292.2397155761719
z: -0.06807827949523926
visibility: 0.9999692440032959
","x: 231.34542846679688
y: 290.02099609375
z: -0.11402551084756851
visibility: 0.9999673366546631
","x: 274.6582946777344
y: 332.42059326171875
z: -0.011877072975039482
visibility: 0.9834803938865662
","x: 224.68771362304688
y: 337.7441711425781
z: -0.09101518988609314
visibility: 0.9894864559173584
","x: 275.3531799316406
y: 373.62603759765625
z: -0.0953284278512001
visibility: 0.9813399910926819
","x: 229.5980987548828
y: 372.7938537597656
z: -0.16175566613674164
visibility: 0.9590527415275574
","x: 276.5406799316406
y: 388.7389831542969
z: -0.11872513592243195
visibility: 0.9565619230270386
","x: 229.79246520996094
y: 388.3475036621094
z: -0.1888158619403839
visibility: 0.9157057404518127
","x: 274.17413330078125
y: 387.816650390625
z: -0.14733396470546722
visibility: 0.9594607949256897
","x: 232.531494140625
y: 387.1634521484375
z: -0.20979169011116028
visibility: 0.9173015356063843
","x: 272.8482666015625
y: 383.1351318359375
z: -0.10798852145671844
visibility: 0.9483661651611328
","x: 233.45509338378906
y: 382.235107421875
z: -0.1707545965909958
visibility: 0.8968360424041748
","x: 257.82720947265625
y: 385.4573059082031
z: 0.018327370285987854
visibility: 0.9999059438705444
","x: 236.78077697753906
y: 384.3555908203125
z: -0.01840425655245781
visibility: 0.9999375343322754
","x: 259.9389953613281
y: 450.2511291503906
z: 0.07016627490520477
visibility: 0.9906461238861084
","x: 227.8517303466797
y: 446.876220703125
z: -0.025478458032011986
visibility: 0.9975138902664185
","x: 264.5365295410156
y: 508.2353515625
z: 0.21807602047920227
visibility: 0.9938621520996094
","x: 215.74708557128906
y: 505.567138671875
z: 0.10407654196023941
visibility: 0.9962896108627319
","x: 261.4559020996094
y: 517.7399291992188
z: 0.22685961425304413
visibility: 0.9545013308525085
","x: 215.65333557128906
y: 512.4202270507812
z: 0.11123670637607574
visibility: 0.8909624218940735
","x: 273.11883544921875
y: 527.39013671875
z: 0.13169610500335693
visibility: 0.9884767532348633
","x: 212.69436645507812
y: 527.220703125
z: 0.0021373650524765253
visibility: 0.9915265440940857
","x: 229.29165649414062
y: 373.8041687011719
z: 0.0
","x: 227.44125366210938
y: 380.51385498046875
z: 0.004341404419392347
","x: 227.48330688476562
y: 387.3408203125
z: 0.005702700931578875
","x: 228.66119384765625
y: 391.8818664550781
z: 0.005947514902800322
","x: 229.9896240234375
y: 394.58697509765625
z: 0.006384491920471191
","x: 227.30787658691406
y: 391.8163757324219
z: 0.003103726776316762
","x: 228.0872802734375
y: 399.9786071777344
z: 0.0033565061166882515
","x: 228.9680633544922
y: 399.50244140625
z: 0.004684707149863243
","x: 229.1415252685547
y: 397.201416015625
z: 0.005872616544365883
","x: 229.43707275390625
y: 392.44586181640625
z: 0.0002969799970742315
","x: 230.4728240966797
y: 401.7563171386719
z: 0.0008410609443672001
","x: 231.0895538330078
y: 401.4275817871094
z: 0.0027075002435594797
","x: 231.01365661621094
y: 399.1029357910156
z: 0.004225724842399359
","x: 231.58331298828125
y: 392.1723937988281
z: -0.002290156437084079
","x: 232.50286865234375
y: 401.3668518066406
z: -0.0014898591907694936
","x: 232.93856811523438
y: 400.83941650390625
z: 0.0008664450142532587
","x: 232.7954864501953
y: 398.67645263671875
z: 0.0024121596943587065
","x: 233.7473907470703
y: 391.22393798828125
z: -0.004711796063929796
","x: 234.57418823242188
y: 398.5599365234375
z: -0.004074296914041042
","x: 234.96055603027344
y: 399.29547119140625
z: -0.002487097168341279
","x: 234.90000915527344
y: 398.40606689453125
z: -0.0012185482773929834
",3.9893181324005127,,,,,,,,,,,,,,,,,,,,,
1,"x: 250.19773864746094
y: 253.3953094482422
z: -0.26787781715393066
visibility: 0.9999890327453613
","x: 251.6456298828125
y: 247.8319091796875
z: -0.2523753345012665
visibility: 0.9999643564224243
","x: 252.86407470703125
y: 248.064453125
z: -0.25236839056015015
visibility: 0.9999614953994751
","x: 254.13954162597656
y: 248.3308563232422
z: -0.25234583020210266
visibility: 0.9999558925628662
","x: 248.33316040039062
y: 247.34693908691406
z: -0.25657299160957336
visibility: 0.9999649524688721
","x: 246.97386169433594
y: 247.31996154785156
z: -0.256600946187973
visibility: 0.9999657869338989
","x: 245.4921112060547
y: 247.38711547851562
z: -0.25659897923469543
visibility: 0.9999617338180542
","x: 256.3924865722656
y: 253.0828857421875
z: -0.15080921351909637
visibility: 0.9998267292976379
","x: 242.57286071777344
y: 252.305419921875
z: -0.1738549768924713
visibility: 0.9999328851699829
","x: 252.11880493164062
y: 261.4013977050781
z: -0.22943472862243652
visibility: 0.9999666213989258
","x: 247.4244384765625
y: 261.255859375
z: -0.23601503670215607
visibility: 0.999975323677063
","x: 266.8319396972656
y: 292.2397155761719
z: -0.06807827949523926
visibility: 0.9999692440032959
","x: 231.34542846679688
y: 290.02099609375
z: -0.11402551084756851
visibility: 0.9999673366546631
","x: 274.6582946777344
y: 332.42059326171875
z: -0.011877072975039482
visibility: 0.9834803938865662
","x: 224.68771362304688
y: 337.7441711425781
z: -0.09101518988609314
visibility: 0.9894864559173584
","x: 275.3531799316406
y: 373.62603759765625
z: -0.0953284278512001
visibility: 0.9813399910926819
","x: 229.5980987548828
y: 372.7938537597656
z: -0.16175566613674164
visibility: 0.9590527415275574
","x: 276.5406799316406
y: 388.7389831542969
z: -0.11872513592243195
visibility: 0.9565619230270386
","x: 229.79246520996094
y: 388.3475036621094
z: -0.1888158619403839
visibility: 0.9157057404518127
","x: 274.17413330078125
y: 387.816650390625
z: -0.14733396470546722
visibility: 0.9594607949256897
","x: 232.531494140625
y: 387.1634521484375
z: -0.20979169011116028
visibility: 0.9173015356063843
","x: 272.8482666015625
y: 383.1351318359375
z: -0.10798852145671844
visibility: 0.9483661651611328
","x: 233.45509338378906
y: 382.235107421875
z: -0.1707545965909958
visibility: 0.8968360424041748
","x: 257.82720947265625
y: 385.4573059082031
z: 0.018327370285987854
visibility: 0.9999059438705444
","x: 236.78077697753906
y: 384.3555908203125
z: -0.01840425655245781
visibility: 0.9999375343322754
","x: 259.9389953613281
y: 450.2511291503906
z: 0.07016627490520477
visibility: 0.9906461238861084
","x: 227.8517303466797
y: 446.876220703125
z: -0.025478458032011986
visibility: 0.9975138902664185
","x: 264.5365295410156
y: 508.2353515625
z: 0.21807602047920227
visibility: 0.9938621520996094
","x: 215.74708557128906
y: 505.567138671875
z: 0.10407654196023941
visibility: 0.9962896108627319
","x: 261.4559020996094
y: 517.7399291992188
z: 0.22685961425304413
visibility: 0.9545013308525085
","x: 215.65333557128906
y: 512.4202270507812
z: 0.11123670637607574
visibility: 0.8909624218940735
","x: 273.11883544921875
y: 527.39013671875
z: 0.13169610500335693
visibility: 0.9884767532348633
","x: 212.69436645507812
y: 527.220703125
z: 0.0021373650524765253
visibility: 0.9915265440940857
","x: 229.29165649414062
y: 373.8041687011719
z: 0.0
","x: 227.44125366210938
y: 380.51385498046875
z: 0.004341404419392347
","x: 227.48330688476562
y: 387.3408203125
z: 0.005702700931578875
","x: 228.66119384765625
y: 391.8818664550781
z: 0.005947514902800322
","x: 229.9896240234375
y: 394.58697509765625
z: 0.006384491920471191
","x: 227.30787658691406
y: 391.8163757324219
z: 0.003103726776316762
","x: 228.0872802734375
y: 399.9786071777344
z: 0.0033565061166882515
","x: 228.9680633544922
y: 399.50244140625
z: 0.004684707149863243
","x: 229.1415252685547
y: 397.201416015625
z: 0.005872616544365883
","x: 229.43707275390625
y: 392.44586181640625
z: 0.0002969799970742315
","x: 230.4728240966797
y: 401.7563171386719
z: 0.0008410609443672001
","x: 231.0895538330078
y: 401.4275817871094
z: 0.0027075002435594797
","x: 231.01365661621094
y: 399.1029357910156
z: 0.004225724842399359
","x: 231.58331298828125
y: 392.1723937988281
z: -0.002290156437084079
","x: 232.50286865234375
y: 401.3668518066406
z: -0.0014898591907694936
","x: 232.93856811523438
y: 400.83941650390625
z: 0.0008664450142532587
","x: 232.7954864501953
y: 398.67645263671875
z: 0.0024121596943587065
","x: 233.7473907470703
y: 391.22393798828125
z: -0.004711796063929796
","x: 234.57418823242188
y: 398.5599365234375
z: -0.004074296914041042
","x: 234.96055603027344
y: 399.29547119140625
z: -0.002487097168341279
","x: 234.90000915527344
y: 398.40606689453125
z: -0.0012185482773929834
",3.9893181324005127,,,,,,,,,,,,,,,,,,,,,
2,"x: 250.19773864746094
y: 253.3953094482422
z: -0.26787781715393066
visibility: 0.9999890327453613
","x: 251.6456298828125
y: 247.8319091796875
z: -0.2523753345012665
visibility: 0.9999643564224243
","x: 252.86407470703125
y: 248.064453125
z: -0.25236839056015015
visibility: 0.9999614953994751
","x: 254.13954162597656
y: 248.3308563232422
z: -0.25234583020210266
visibility: 0.9999558925628662
","x: 248.33316040039062
y: 247.34693908691406
z: -0.25657299160957336
visibility: 0.9999649524688721
","x: 246.97386169433594
y: 247.31996154785156
z: -0.256600946187973
visibility: 0.9999657869338989
","x: 245.4921112060547
y: 247.38711547851562
z: -0.25659897923469543
visibility: 0.9999617338180542
","x: 256.3924865722656
y: 253.0828857421875
z: -0.15080921351909637
visibility: 0.9998267292976379
","x: 242.57286071777344
y: 252.305419921875
z: -0.1738549768924713
visibility: 0.9999328851699829
","x: 252.11880493164062
y: 261.4013977050781
z: -0.22943472862243652
visibility: 0.9999666213989258
","x: 247.4244384765625
y: 261.255859375
z: -0.23601503670215607
visibility: 0.999975323677063
","x: 266.8319396972656
y: 292.2397155761719
z: -0.06807827949523926
visibility: 0.9999692440032959
","x: 231.34542846679688
y: 290.02099609375
z: -0.11402551084756851
visibility: 0.9999673366546631
","x: 274.6582946777344
y: 332.42059326171875
z: -0.011877072975039482
visibility: 0.9834803938865662
","x: 224.68771362304688
y: 337.7441711425781
z: -0.09101518988609314
visibility: 0.9894864559173584
","x: 275.3531799316406
y: 373.62603759765625
z: -0.0953284278512001
visibility: 0.9813399910926819
","x: 229.5980987548828
y: 372.7938537597656
z: -0.16175566613674164
visibility: 0.9590527415275574
","x: 276.5406799316406
y: 388.7389831542969
z: -0.11872513592243195
visibility: 0.9565619230270386
","x: 229.79246520996094
y: 388.3475036621094
z: -0.1888158619403839
visibility: 0.9157057404518127
","x: 274.17413330078125
y: 387.816650390625
z: -0.14733396470546722
visibility: 0.9594607949256897
","x: 232.531494140625
y: 387.1634521484375
z: -0.20979169011116028
visibility: 0.9173015356063843
","x: 272.8482666015625
y: 383.1351318359375
z: -0.10798852145671844
visibility: 0.9483661651611328
","x: 233.45509338378906
y: 382.235107421875
z: -0.1707545965909958
visibility: 0.8968360424041748
","x: 257.82720947265625
y: 385.4573059082031
z: 0.018327370285987854
visibility: 0.9999059438705444
","x: 236.78077697753906
y: 384.3555908203125
z: -0.01840425655245781
visibility: 0.9999375343322754
","x: 259.9389953613281
y: 450.2511291503906
z: 0.07016627490520477
visibility: 0.9906461238861084
","x: 227.8517303466797
y: 446.876220703125
z: -0.025478458032011986
visibility: 0.9975138902664185
","x: 264.5365295410156
y: 508.2353515625
z: 0.21807602047920227
visibility: 0.9938621520996094
","x: 215.74708557128906
y: 505.567138671875
z: 0.10407654196023941
visibility: 0.9962896108627319
","x: 261.4559020996094
y: 517.7399291992188
z: 0.22685961425304413
visibility: 0.9545013308525085
","x: 215.65333557128906
y: 512.4202270507812
z: 0.11123670637607574
visibility: 0.8909624218940735
","x: 273.11883544921875
y: 527.39013671875
z: 0.13169610500335693
visibility: 0.9884767532348633
","x: 212.69436645507812
y: 527.220703125
z: 0.0021373650524765253
visibility: 0.9915265440940857
","x: 229.29165649414062
y: 373.8041687011719
z: 0.0
","x: 227.44125366210938
y: 380.51385498046875
z: 0.004341404419392347
","x: 227.48330688476562
y: 387.3408203125
z: 0.005702700931578875
","x: 228.66119384765625
y: 391.8818664550781
z: 0.005947514902800322
","x: 229.9896240234375
y: 394.58697509765625
z: 0.006384491920471191
","x: 227.30787658691406
y: 391.8163757324219
z: 0.003103726776316762
","x: 228.0872802734375
y: 399.9786071777344
z: 0.0033565061166882515
","x: 228.9680633544922
y: 399.50244140625
z: 0.004684707149863243
","x: 229.1415252685547
y: 397.201416015625
z: 0.005872616544365883
","x: 229.43707275390625
y: 392.44586181640625
z: 0.0002969799970742315
","x: 230.4728240966797
y: 401.7563171386719
z: 0.0008410609443672001
","x: 231.0895538330078
y: 401.4275817871094
z: 0.0027075002435594797
","x: 231.01365661621094
y: 399.1029357910156
z: 0.004225724842399359
","x: 231.58331298828125
y: 392.1723937988281
z: -0.002290156437084079
","x: 232.50286865234375
y: 401.3668518066406
z: -0.0014898591907694936
","x: 232.93856811523438
y: 400.83941650390625
z: 0.0008664450142532587
","x: 232.7954864501953
y: 398.67645263671875
z: 0.0024121596943587065
","x: 233.7473907470703
y: 391.22393798828125
z: -0.004711796063929796
","x: 234.57418823242188
y: 398.5599365234375
z: -0.004074296914041042
","x: 234.96055603027344
y: 399.29547119140625
z: -0.002487097168341279
","x: 234.90000915527344
y: 398.40606689453125
z: -0.0012185482773929834
",3.9893181324005127,,,,,,,,,,,,,,,,,,,,,
3,"x: 243.59765625
y: 253.5704803466797
z: -0.25117847323417664
visibility: 0.999989926815033
","x: 245.52938842773438
y: 248.28717041015625
z: -0.23253056406974792
visibility: 0.9999675750732422
","x: 246.96585083007812
y: 248.5794677734375
z: -0.23253221809864044
visibility: 0.9999648928642273
","x: 248.3399658203125
y: 248.934814453125
z: -0.23252220451831818
visibility: 0.9999598264694214
","x: 241.67947387695312
y: 247.70571899414062
z: -0.237601637840271
visibility: 0.9999681115150452
","x: 240.2042999267578
y: 247.65504455566406
z: -0.23762047290802002
visibility: 0.9999688267707825
","x: 238.527099609375
y: 247.63833618164062
z: -0.23760342597961426
visibility: 0.9999651312828064
","x: 250.00328063964844
y: 253.40814208984375
z: -0.12143649905920029
visibility: 0.9998422861099243
","x: 235.45289611816406
y: 252.44351196289062
z: -0.14746147394180298
visibility: 0.9999391436576843
","x: 245.256103515625
y: 261.66741943359375
z: -0.20968346297740936
visibility: 0.9999695420265198
","x: 240.5791015625
y: 261.31207275390625
z: -0.21720564365386963
visibility: 0.9999775290489197
","x: 257.80584716796875
y: 292.1717224121094
z: -0.036033935844898224
visibility: 0.9999710917472839
","x: 223.6168670654297
y: 289.579833984375
z: -0.09560951590538025
visibility: 0.9999687075614929
","x: 268.48663330078125
y: 331.784912109375
z: -0.030166465789079666
visibility: 0.9845392107963562
","x: 214.67918395996094
y: 336.0383605957031
z: -0.11316196620464325
visibility: 0.9897074103355408
","x: 257.27435302734375
y: 352.8096008300781
z: -0.17482896149158478
visibility: 0.9825312495231628
","x: 229.5760040283203
y: 354.10260009765625
z: -0.22278976440429688
visibility: 0.9610076546669006
","x: 254.27084350585938
y: 364.5119934082031
z: -0.2108011692762375
visibility: 0.9589267373085022
","x: 231.9474334716797
y: 363.994140625
z: -0.2557603418827057
visibility: 0.9193148612976074
","x: 251.1068572998047
y: 360.7580871582031
z: -0.22441920638084412
visibility: 0.9616270661354065
","x: 235.04458618164062
y: 360.291259765625
z: -0.2639457583427429
visibility: 0.9205889105796814
","x: 251.66224670410156
y: 356.67437744140625
z: -0.1823856383562088
visibility: 0.9505296349525452
","x: 234.61105346679688
y: 356.5152587890625
z: -0.22624611854553223
visibility: 0.8995675444602966
","x: 252.13491821289062
y: 383.27471923828125
z: 0.025575783103704453
visibility: 0.9999040961265564
","x: 231.25244140625
y: 381.7166442871094
z: -0.025688115507364273
visibility: 0.9999346137046814
","x: 256.81396484375
y: 447.4823303222656
z: 0.061585355550050735
visibility: 0.9907988905906677
","x: 224.5484161376953
y: 445.666748046875
z: -0.02255764976143837
visibility: 0.9974847435951233
","x: 264.535400390625
y: 508.7362060546875
z: 0.1694873571395874
visibility: 0.9941105246543884
","x: 213.79591369628906
y: 506.146728515625
z: 0.09576626867055893
visibility: 0.9964039921760559
","x: 261.404296875
y: 518.9122314453125
z: 0.17390869557857513
visibility: 0.9567702412605286
","x: 212.9998779296875
y: 514.3865356445312
z: 0.10106034576892853
visibility: 0.8936081528663635
","x: 274.81219482421875
y: 527.9729614257812
z: 0.07557311654090881
visibility: 0.9888833165168762
","x: 212.44647216796875
y: 527.0152587890625
z: -0.007700684480369091
visibility: 0.9916460514068604
",,,,,,,,,,,,,,,,,,,,,,4.551946640014648,"x: 255.45040893554688
y: 352.1014709472656
z: 0.0
","x: 251.79705810546875
y: 350.1131591796875
z: -0.0025939380284398794
","x: 247.9027099609375
y: 352.77392578125
z: -0.0040596905164420605
","x: 245.01242065429688
y: 356.3906555175781
z: -0.004713527392596006
","x: 242.7262420654297
y: 358.64544677734375
z: -0.005004414822906256
","x: 249.26268005371094
y: 359.3419189453125
z: -0.007196442689746618
","x: 245.89324951171875
y: 367.810302734375
z: -0.008463277481496334
","x: 243.64736938476562
y: 368.9374084472656
z: -0.007664651144295931
","x: 242.61019897460938
y: 368.12103271484375
z: -0.006673966534435749
","x: 250.8730010986328
y: 362.39306640625
z: -0.00617326982319355
","x: 247.2158966064453
y: 370.0078125
z: -0.0072992886416614056
","x: 244.890869140625
y: 370.45843505859375
z: -0.00586624164134264
","x: 243.87892150878906
y: 369.48809814453125
z: -0.004589288495481014
","x: 251.9519500732422
y: 364.20440673828125
z: -0.004954300355166197
","x: 248.57359313964844
y: 370.71331787109375
z: -0.006211745087057352
","x: 246.32815551757812
y: 370.771484375
z: -0.00514393812045455
","x: 245.22897338867188
y: 369.4610595703125
z: -0.004124658647924662
","x: 252.5616912841797
y: 365.2510986328125
z: -0.003832385642454028
","x: 249.63412475585938
y: 370.7425231933594
z: -0.005133850499987602
","x: 247.53721618652344
y: 371.33074951171875
z: -0.004806439392268658
","x: 246.3349609375
y: 370.31304931640625
z: -0.0041321455501019955
"
4,"x: 243.59765625
y: 253.5704803466797
z: -0.25117847323417664
visibility: 0.999989926815033
","x: 245.52938842773438
y: 248.28717041015625
z: -0.23253056406974792
visibility: 0.9999675750732422
","x: 246.96585083007812
y: 248.5794677734375
z: -0.23253221809864044
visibility: 0.9999648928642273
","x: 248.3399658203125
y: 248.934814453125
z: -0.23252220451831818
visibility: 0.9999598264694214
","x: 241.67947387695312
y: 247.70571899414062
z: -0.237601637840271
visibility: 0.9999681115150452
","x: 240.2042999267578
y: 247.65504455566406
z: -0.23762047290802002
visibility: 0.9999688267707825
","x: 238.527099609375
y: 247.63833618164062
z: -0.23760342597961426
visibility: 0.9999651312828064
","x: 250.00328063964844
y: 253.40814208984375
z: -0.12143649905920029
visibility: 0.9998422861099243
","x: 235.45289611816406
y: 252.44351196289062
z: -0.14746147394180298
visibility: 0.9999391436576843
","x: 245.256103515625
y: 261.66741943359375
z: -0.20968346297740936
visibility: 0.9999695420265198
","x: 240.5791015625
y: 261.31207275390625
z: -0.21720564365386963
visibility: 0.9999775290489197
","x: 257.80584716796875
y: 292.1717224121094
z: -0.036033935844898224
visibility: 0.9999710917472839
","x: 223.6168670654297
y: 289.579833984375
z: -0.09560951590538025
visibility: 0.9999687075614929
","x: 268.48663330078125
y: 331.784912109375
z: -0.030166465789079666
visibility: 0.9845392107963562
","x: 214.67918395996094
y: 336.0383605957031
z: -0.11316196620464325
visibility: 0.9897074103355408
","x: 257.27435302734375
y: 352.8096008300781
z: -0.17482896149158478
visibility: 0.9825312495231628
","x: 229.5760040283203
y: 354.10260009765625
z: -0.22278976440429688
visibility: 0.9610076546669006
","x: 254.27084350585938
y: 364.5119934082031
z: -0.2108011692762375
visibility: 0.9589267373085022
","x: 231.9474334716797
y: 363.994140625
z: -0.2557603418827057
visibility: 0.9193148612976074
","x: 251.1068572998047
y: 360.7580871582031
z: -0.22441920638084412
visibility: 0.9616270661354065
","x: 235.04458618164062
y: 360.291259765625
z: -0.2639457583427429
visibility: 0.9205889105796814
","x: 251.66224670410156
y: 356.67437744140625
z: -0.1823856383562088
visibility: 0.9505296349525452
","x: 234.61105346679688
y: 356.5152587890625
z: -0.22624611854553223
visibility: 0.8995675444602966
","x: 252.13491821289062
y: 383.27471923828125
z: 0.025575783103704453
visibility: 0.9999040961265564
","x: 231.25244140625
y: 381.7166442871094
z: -0.025688115507364273
visibility: 0.9999346137046814
","x: 256.81396484375
y: 447.4823303222656
z: 0.061585355550050735
visibility: 0.9907988905906677
","x: 224.5484161376953
y: 445.666748046875
z: -0.02255764976143837
visibility: 0.9974847435951233
","x: 264.535400390625
y: 508.7362060546875
z: 0.1694873571395874
visibility: 0.9941105246543884
","x: 213.79591369628906
y: 506.146728515625
z: 0.09576626867055893
visibility: 0.9964039921760559
","x: 261.404296875
y: 518.9122314453125
z: 0.17390869557857513
visibility: 0.9567702412605286
","x: 212.9998779296875
y: 514.3865356445312
z: 0.10106034576892853
visibility: 0.8936081528663635
","x: 274.81219482421875
y: 527.9729614257812
z: 0.07557311654090881
visibility: 0.9888833165168762
","x: 212.44647216796875
y: 527.0152587890625
z: -0.007700684480369091
visibility: 0.9916460514068604
",,,,,,,,,,,,,,,,,,,,,,4.551946640014648,"x: 255.45040893554688
y: 352.1014709472656
z: 0.0
","x: 251.79705810546875
y: 350.1131591796875
z: -0.0025939380284398794
","x: 247.9027099609375
y: 352.77392578125
z: -0.0040596905164420605
","x: 245.01242065429688
y: 356.3906555175781
z: -0.004713527392596006
","x: 242.7262420654297
y: 358.64544677734375
z: -0.005004414822906256
","x: 249.26268005371094
y: 359.3419189453125
z: -0.007196442689746618
","x: 245.89324951171875
y: 367.810302734375
z: -0.008463277481496334
","x: 243.64736938476562
y: 368.9374084472656
z: -0.007664651144295931
","x: 242.61019897460938
y: 368.12103271484375
z: -0.006673966534435749
","x: 250.8730010986328
y: 362.39306640625
z: -0.00617326982319355
","x: 247.2158966064453
y: 370.0078125
z: -0.0072992886416614056
","x: 244.890869140625
y: 370.45843505859375
z: -0.00586624164134264
","x: 243.87892150878906
y: 369.48809814453125
z: -0.004589288495481014
","x: 251.9519500732422
y: 364.20440673828125
z: -0.004954300355166197
","x: 248.57359313964844
y: 370.71331787109375
z: -0.006211745087057352
","x: 246.32815551757812
y: 370.771484375
z: -0.00514393812045455
","x: 245.22897338867188
y: 369.4610595703125
z: -0.004124658647924662
","x: 252.5616912841797
y: 365.2510986328125
z: -0.003832385642454028
","x: 249.63412475585938
y: 370.7425231933594
z: -0.005133850499987602
","x: 247.53721618652344
y: 371.33074951171875
z: -0.004806439392268658
","x: 246.3349609375
y: 370.31304931640625
z: -0.0041321455501019955
"
5,"x: 243.59765625
y: 253.5704803466797
z: -0.25117847323417664
visibility: 0.999989926815033
","x: 245.52938842773438
y: 248.28717041015625
z: -0.23253056406974792
visibility: 0.9999675750732422
","x: 246.96585083007812
y: 248.5794677734375
z: -0.23253221809864044
visibility: 0.9999648928642273
","x: 248.3399658203125
y: 248.934814453125
z: -0.23252220451831818
visibility: 0.9999598264694214
","x: 241.67947387695312
y: 247.70571899414062
z: -0.237601637840271
visibility: 0.9999681115150452
","x: 240.2042999267578
y: 247.65504455566406
z: -0.23762047290802002
visibility: 0.9999688267707825
","x: 238.527099609375
y: 247.63833618164062
z: -0.23760342597961426
visibility: 0.9999651312828064
","x: 250.00328063964844
y: 253.40814208984375
z: -0.12143649905920029
visibility: 0.9998422861099243
","x: 235.45289611816406
y: 252.44351196289062
z: -0.14746147394180298
visibility: 0.9999391436576843
","x: 245.256103515625
y: 261.66741943359375
z: -0.20968346297740936
visibility: 0.9999695420265198
","x: 240.5791015625
y: 261.31207275390625
z: -0.21720564365386963
visibility: 0.9999775290489197
","x: 257.80584716796875
y: 292.1717224121094
z: -0.036033935844898224
visibility: 0.9999710917472839
","x: 223.6168670654297
y: 289.579833984375
z: -0.09560951590538025
visibility: 0.9999687075614929
","x: 268.48663330078125
y: 331.784912109375
z: -0.030166465789079666
visibility: 0.9845392107963562
","x: 214.67918395996094
y: 336.0383605957031
z: -0.11316196620464325
visibility: 0.9897074103355408
","x: 257.27435302734375
y: 352.8096008300781
z: -0.17482896149158478
visibility: 0.9825312495231628
","x: 229.5760040283203
y: 354.10260009765625
z: -0.22278976440429688
visibility: 0.9610076546669006
","x: 254.27084350585938
y: 364.5119934082031
z: -0.2108011692762375
visibility: 0.9589267373085022
","x: 231.9474334716797
y: 363.994140625
z: -0.2557603418827057
visibility: 0.9193148612976074
","x: 251.1068572998047
y: 360.7580871582031
z: -0.22441920638084412
visibility: 0.9616270661354065
","x: 235.04458618164062
y: 360.291259765625
z: -0.2639457583427429
visibility: 0.9205889105796814
","x: 251.66224670410156
y: 356.67437744140625
z: -0.1823856383562088
visibility: 0.9505296349525452
","x: 234.61105346679688
y: 356.5152587890625
z: -0.22624611854553223
visibility: 0.8995675444602966
","x: 252.13491821289062
y: 383.27471923828125
z: 0.025575783103704453
visibility: 0.9999040961265564
","x: 231.25244140625
y: 381.7166442871094
z: -0.025688115507364273
visibility: 0.9999346137046814
","x: 256.81396484375
y: 447.4823303222656
z: 0.061585355550050735
visibility: 0.9907988905906677
","x: 224.5484161376953
y: 445.666748046875
z: -0.02255764976143837
visibility: 0.9974847435951233
","x: 264.535400390625
y: 508.7362060546875
z: 0.1694873571395874
visibility: 0.9941105246543884
","x: 213.79591369628906
y: 506.146728515625
z: 0.09576626867055893
visibility: 0.9964039921760559
","x: 261.404296875
y: 518.9122314453125
z: 0.17390869557857513
visibility: 0.9567702412605286
","x: 212.9998779296875
y: 514.3865356445312
z: 0.10106034576892853
visibility: 0.8936081528663635
","x: 274.81219482421875
y: 527.9729614257812
z: 0.07557311654090881
visibility: 0.9888833165168762
","x: 212.44647216796875
y: 527.0152587890625
z: -0.007700684480369091
visibility: 0.9916460514068604
",,,,,,,,,,,,,,,,,,,,,,4.551946640014648,"x: 255.45040893554688
y: 352.1014709472656
z: 0.0
","x: 251.79705810546875
y: 350.1131591796875
z: -0.0025939380284398794
","x: 247.9027099609375
y: 352.77392578125
z: -0.0040596905164420605
","x: 245.01242065429688
y: 356.3906555175781
z: -0.004713527392596006
","x: 242.7262420654297
y: 358.64544677734375
z: -0.005004414822906256
","x: 249.26268005371094
y: 359.3419189453125
z: -0.007196442689746618
","x: 245.89324951171875
y: 367.810302734375
z: -0.008463277481496334
","x: 243.64736938476562
y: 368.9374084472656
z: -0.007664651144295931
","x: 242.61019897460938
y: 368.12103271484375
z: -0.006673966534435749
","x: 250.8730010986328
y: 362.39306640625
z: -0.00617326982319355
","x: 247.2158966064453
y: 370.0078125
z: -0.0072992886416614056
","x: 244.890869140625
y: 370.45843505859375
z: -0.00586624164134264
","x: 243.87892150878906
y: 369.48809814453125
z: -0.004589288495481014
","x: 251.9519500732422
y: 364.20440673828125
z: -0.004954300355166197
","x: 248.57359313964844
y: 370.71331787109375
z: -0.006211745087057352
","x: 246.32815551757812
y: 370.771484375
z: -0.00514393812045455
","x: 245.22897338867188
y: 369.4610595703125
z: -0.004124658647924662
","x: 252.5616912841797
y: 365.2510986328125
z: -0.003832385642454028
","x: 249.63412475585938
y: 370.7425231933594
z: -0.005133850499987602
","x: 247.53721618652344
y: 371.33074951171875
z: -0.004806439392268658
","x: 246.3349609375
y: 370.31304931640625
z: -0.0041321455501019955
"
6,"x: 240.37753295898438
y: 253.36062622070312
z: -0.22387540340423584
visibility: 0.999990701675415
","x: 242.38711547851562
y: 248.28656005859375
z: -0.2051677703857422
visibility: 0.9999704360961914
","x: 243.82994079589844
y: 248.60565185546875
z: -0.20518288016319275
visibility: 0.9999679327011108
","x: 245.24237060546875
y: 248.99407958984375
z: -0.205186128616333
visibility: 0.9999634027481079
","x: 238.3392791748047
y: 247.59149169921875
z: -0.209917351603508
visibility: 0.9999708533287048
","x: 236.96139526367188
y: 247.4587860107422
z: -0.20993824303150177
visibility: 0.9999714493751526
","x: 235.368896484375
y: 247.35012817382812
z: -0.2099096029996872
visibility: 0.9999681115150452
","x: 246.85488891601562
y: 253.40475463867188
z: -0.09456054121255875
visibility: 0.9998566508293152
","x: 232.5746612548828
y: 252.1103515625
z: -0.11813431978225708
visibility: 0.9999445676803589
","x: 242.38580322265625
y: 261.6188659667969
z: -0.18226858973503113
visibility: 0.9999721050262451
","x: 237.61837768554688
y: 261.02056884765625
z: -0.18917126953601837
visibility: 0.9999794363975525
","x: 254.92864990234375
y: 291.16717529296875
z: -0.021670201793313026
visibility: 0.999972939491272
","x: 220.13568115234375
y: 289.58197021484375
z: -0.07188767194747925
visibility: 0.9999687671661377
","x: 261.7184753417969
y: 331.1834411621094
z: -0.04732615873217583
visibility: 0.9851096272468567
","x: 216.80511474609375
y: 335.40814208984375
z: -0.1187698245048523
visibility: 0.9894337058067322
","x: 251.5304718017578
y: 352.5009460449219
z: -0.20340462028980255
visibility: 0.9832472205162048
","x: 233.8233184814453
y: 352.08087158203125
z: -0.2525761127471924
visibility: 0.962650716304779
","x: 249.3677978515625
y: 364.8659973144531
z: -0.2444843351840973
visibility: 0.9605467915534973
","x: 237.4309844970703
y: 362.7487487792969
z: -0.29253068566322327
visibility: 0.9229585528373718
","x: 246.14744567871094
y: 362.0251770019531
z: -0.2599593698978424
visibility: 0.9631093740463257
","x: 240.39210510253906
y: 359.1119689941406
z: -0.2998630702495575
visibility: 0.9240213632583618
","x: 246.49395751953125
y: 357.342529296875
z: -0.2127467393875122
visibility: 0.9518705010414124
","x: 239.3918914794922
y: 355.3111267089844
z: -0.2568055987358093
visibility: 0.9025036692619324
","x: 249.13323974609375
y: 378.3830261230469
z: 0.023578474298119545
visibility: 0.999907910823822
","x: 227.9449462890625
y: 377.723876953125
z: -0.023624233901500702
visibility: 0.9999339580535889
","x: 255.57040405273438
y: 444.0551452636719
z: 0.025055546313524246
visibility: 0.9913086891174316
","x: 222.54470825195312
y: 445.1661376953125
z: -0.02017952874302864
visibility: 0.9974682927131653
","x: 264.64483642578125
y: 508.7055969238281
z: 0.12206146866083145
visibility: 0.9944205284118652
","x: 213.11981201171875
y: 506.54461669921875
z: 0.09632004797458649
visibility: 0.9965169429779053
","x: 261.39337158203125
y: 518.7615966796875
z: 0.12523214519023895
visibility: 0.9581924080848694
","x: 212.52342224121094
y: 515.4056396484375
z: 0.10144652426242828
visibility: 0.8946674466133118
","x: 274.83868408203125
y: 528.1760864257812
z: 0.017240814864635468
visibility: 0.9893518686294556
","x: 211.8610076904297
y: 527.0145263671875
z: -0.010914894752204418
visibility: 0.9917901754379272
","x: 238.15435791015625
y: 352.4858093261719
z: 0.0
","x: 240.77178955078125
y: 352.8794860839844
z: -0.002055406803265214
","x: 243.01783752441406
y: 354.68109130859375
z: -0.004747126251459122
","x: 244.48748779296875
y: 355.3554992675781
z: -0.007772797718644142
","x: 245.64657592773438
y: 355.22369384765625
z: -0.010837433859705925
","x: 243.72743225097656
y: 363.3455810546875
z: -0.0043385946191847324
","x: 244.57289123535156
y: 369.90087890625
z: -0.007869595661759377
","x: 244.427978515625
y: 373.00927734375
z: -0.010128545574843884
","x: 243.9883270263672
y: 374.9581604003906
z: -0.011558042839169502
","x: 242.02792358398438
y: 364.0408630371094
z: -0.005888226442039013
","x: 242.85687255859375
y: 370.4782409667969
z: -0.009300953708589077
","x: 242.8809051513672
y: 374.1671447753906
z: -0.010994897224009037
","x: 242.64698791503906
y: 376.8251037597656
z: -0.01220929715782404
","x: 240.10165405273438
y: 363.456298828125
z: -0.007696930784732103
","x: 240.57537841796875
y: 369.5760498046875
z: -0.011025997810065746
","x: 240.6791534423828
y: 373.3377685546875
z: -0.012117547914385796
","x: 240.6263885498047
y: 376.0134582519531
z: -0.01280262041836977
","x: 238.07823181152344
y: 361.8944091796875
z: -0.009767316281795502
","x: 237.67947387695312
y: 366.761474609375
z: -0.01242836844176054
","x: 237.57310485839844
y: 369.97027587890625
z: -0.013156373985111713
","x: 237.40611267089844
y: 372.3701171875
z: -0.013606620021164417
",4.7061991691589355,,,,,,,,,,,,,,,,,,,,,
7,"x: 240.37753295898438
y: 253.36062622070312
z: -0.22387540340423584
visibility: 0.999990701675415
","x: 242.38711547851562
y: 248.28656005859375
z: -0.2051677703857422
visibility: 0.9999704360961914
","x: 243.82994079589844
y: 248.60565185546875
z: -0.20518288016319275
visibility: 0.9999679327011108
","x: 245.24237060546875
y: 248.99407958984375
z: -0.205186128616333
visibility: 0.9999634027481079
","x: 238.3392791748047
y: 247.59149169921875
z: -0.209917351603508
visibility: 0.9999708533287048
","x: 236.96139526367188
y: 247.4587860107422
z: -0.20993824303150177
visibility: 0.9999714493751526
","x: 235.368896484375
y: 247.35012817382812
z: -0.2099096029996872
visibility: 0.9999681115150452
","x: 246.85488891601562
y: 253.40475463867188
z: -0.09456054121255875
visibility: 0.9998566508293152
","x: 232.5746612548828
y: 252.1103515625
z: -0.11813431978225708
visibility: 0.9999445676803589
","x: 242.38580322265625
y: 261.6188659667969
z: -0.18226858973503113
visibility: 0.9999721050262451
","x: 237.61837768554688
y: 261.02056884765625
z: -0.18917126953601837
visibility: 0.9999794363975525
","x: 254.92864990234375
y: 291.16717529296875
z: -0.021670201793313026
visibility: 0.999972939491272
","x: 220.13568115234375
y: 289.58197021484375
z: -0.07188767194747925
visibility: 0.9999687671661377
","x: 261.7184753417969
y: 331.1834411621094
z: -0.04732615873217583
visibility: 0.9851096272468567
","x: 216.80511474609375
y: 335.40814208984375
z: -0.1187698245048523
visibility: 0.9894337058067322
","x: 251.5304718017578
y: 352.5009460449219
z: -0.20340462028980255
visibility: 0.9832472205162048
","x: 233.8233184814453
y: 352.08087158203125
z: -0.2525761127471924
visibility: 0.962650716304779
","x: 249.3677978515625
y: 364.8659973144531
z: -0.2444843351840973
visibility: 0.9605467915534973
","x: 237.4309844970703
y: 362.7487487792969
z: -0.29253068566322327
visibility: 0.9229585528373718
","x: 246.14744567871094
y: 362.0251770019531
z: -0.2599593698978424
visibility: 0.9631093740463257
","x: 240.39210510253906
y: 359.1119689941406
z: -0.2998630702495575
visibility: 0.9240213632583618
","x: 246.49395751953125
y: 357.342529296875
z: -0.2127467393875122
visibility: 0.9518705010414124
","x: 239.3918914794922
y: 355.3111267089844
z: -0.2568055987358093
visibility: 0.9025036692619324
","x: 249.13323974609375
y: 378.3830261230469
z: 0.023578474298119545
visibility: 0.999907910823822
","x: 227.9449462890625
y: 377.723876953125
z: -0.023624233901500702
visibility: 0.9999339580535889
","x: 255.57040405273438
y: 444.0551452636719
z: 0.025055546313524246
visibility: 0.9913086891174316
","x: 222.54470825195312
y: 445.1661376953125
z: -0.02017952874302864
visibility: 0.9974682927131653
","x: 264.64483642578125
y: 508.7055969238281
z: 0.12206146866083145
visibility: 0.9944205284118652
","x: 213.11981201171875
y: 506.54461669921875
z: 0.09632004797458649
visibility: 0.9965169429779053
","x: 261.39337158203125
y: 518.7615966796875
z: 0.12523214519023895
visibility: 0.9581924080848694
","x: 212.52342224121094
y: 515.4056396484375
z: 0.10144652426242828
visibility: 0.8946674466133118
","x: 274.83868408203125
y: 528.1760864257812
z: 0.017240814864635468
visibility: 0.9893518686294556
","x: 211.8610076904297
y: 527.0145263671875
z: -0.010914894752204418
visibility: 0.9917901754379272
","x: 238.15435791015625
y: 352.4858093261719
z: 0.0
","x: 240.77178955078125
y: 352.8794860839844
z: -0.002055406803265214
","x: 243.01783752441406
y: 354.68109130859375
z: -0.004747126251459122
","x: 244.48748779296875
y: 355.3554992675781
z: -0.007772797718644142
","x: 245.64657592773438
y: 355.22369384765625
z: -0.010837433859705925
","x: 243.72743225097656
y: 363.3455810546875
z: -0.0043385946191847324
","x: 244.57289123535156
y: 369.90087890625
z: -0.007869595661759377
","x: 244.427978515625
y: 373.00927734375
z: -0.010128545574843884
","x: 243.9883270263672
y: 374.9581604003906
z: -0.011558042839169502
","x: 242.02792358398438
y: 364.0408630371094
z: -0.005888226442039013
","x: 242.85687255859375
y: 370.4782409667969
z: -0.009300953708589077
","x: 242.8809051513672
y: 374.1671447753906
z: -0.010994897224009037
","x: 242.64698791503906
y: 376.8251037597656
z: -0.01220929715782404
","x: 240.10165405273438
y: 363.456298828125
z: -0.007696930784732103
","x: 240.57537841796875
y: 369.5760498046875
z: -0.011025997810065746
","x: 240.6791534423828
y: 373.3377685546875
z: -0.012117547914385796
","x: 240.6263885498047
y: 376.0134582519531
z: -0.01280262041836977
","x: 238.07823181152344
y: 361.8944091796875
z: -0.009767316281795502
","x: 237.67947387695312
y: 366.761474609375
z: -0.01242836844176054
","x: 237.57310485839844
y: 369.97027587890625
z: -0.013156373985111713
","x: 237.40611267089844
y: 372.3701171875
z: -0.013606620021164417
",4.7061991691589355,,,,,,,,,,,,,,,,,,,,,
8,"x: 240.37753295898438
y: 253.36062622070312
z: -0.22387540340423584
visibility: 0.999990701675415
","x: 242.38711547851562
y: 248.28656005859375
z: -0.2051677703857422
visibility: 0.9999704360961914
","x: 243.82994079589844
y: 248.60565185546875
z: -0.20518288016319275
visibility: 0.9999679327011108
","x: 245.24237060546875
y: 248.99407958984375
z: -0.205186128616333
visibility: 0.9999634027481079
","x: 238.3392791748047
y: 247.59149169921875
z: -0.209917351603508
visibility: 0.9999708533287048
","x: 236.96139526367188
y: 247.4587860107422
z: -0.20993824303150177
visibility: 0.9999714493751526
","x: 235.368896484375
y: 247.35012817382812
z: -0.2099096029996872
visibility: 0.9999681115150452
","x: 246.85488891601562
y: 253.40475463867188
z: -0.09456054121255875
visibility: 0.9998566508293152
","x: 232.5746612548828
y: 252.1103515625
z: -0.11813431978225708
visibility: 0.9999445676803589
","x: 242.38580322265625
y: 261.6188659667969
z: -0.18226858973503113
visibility: 0.9999721050262451
","x: 237.61837768554688
y: 261.02056884765625
z: -0.18917126953601837
visibility: 0.9999794363975525
","x: 254.92864990234375
y: 291.16717529296875
z: -0.021670201793313026
visibility: 0.999972939491272
","x: 220.13568115234375
y: 289.58197021484375
z: -0.07188767194747925
visibility: 0.9999687671661377
","x: 261.7184753417969
y: 331.1834411621094
z: -0.04732615873217583
visibility: 0.9851096272468567
","x: 216.80511474609375
y: 335.40814208984375
z: -0.1187698245048523
visibility: 0.9894337058067322
","x: 251.5304718017578
y: 352.5009460449219
z: -0.20340462028980255
visibility: 0.9832472205162048
","x: 233.8233184814453
y: 352.08087158203125
z: -0.2525761127471924
visibility: 0.962650716304779
","x: 249.3677978515625
y: 364.8659973144531
z: -0.2444843351840973
visibility: 0.9605467915534973
","x: 237.4309844970703
y: 362.7487487792969
z: -0.29253068566322327
visibility: 0.9229585528373718
","x: 246.14744567871094
y: 362.0251770019531
z: -0.2599593698978424
visibility: 0.9631093740463257
","x: 240.39210510253906
y: 359.1119689941406
z: -0.2998630702495575
visibility: 0.9240213632583618
","x: 246.49395751953125
y: 357.342529296875
z: -0.2127467393875122
visibility: 0.9518705010414124
","x: 239.3918914794922
y: 355.3111267089844
z: -0.2568055987358093
visibility: 0.9025036692619324
","x: 249.13323974609375
y: 378.3830261230469
z: 0.023578474298119545
visibility: 0.999907910823822
","x: 227.9449462890625
y: 377.723876953125
z: -0.023624233901500702
visibility: 0.9999339580535889
","x: 255.57040405273438
y: 444.0551452636719
z: 0.025055546313524246
visibility: 0.9913086891174316
","x: 222.54470825195312
y: 445.1661376953125
z: -0.02017952874302864
visibility: 0.9974682927131653
","x: 264.64483642578125
y: 508.7055969238281
z: 0.12206146866083145
visibility: 0.9944205284118652
","x: 213.11981201171875
y: 506.54461669921875
z: 0.09632004797458649
visibility: 0.9965169429779053
","x: 261.39337158203125
y: 518.7615966796875
z: 0.12523214519023895
visibility: 0.9581924080848694
","x: 212.52342224121094
y: 515.4056396484375
z: 0.10144652426242828
visibility: 0.8946674466133118
","x: 274.83868408203125
y: 528.1760864257812
z: 0.017240814864635468
visibility: 0.9893518686294556
","x: 211.8610076904297
y: 527.0145263671875
z: -0.010914894752204418
visibility: 0.9917901754379272
","x: 238.15435791015625
y: 352.4858093261719
z: 0.0
","x: 240.77178955078125
y: 352.8794860839844
z: -0.002055406803265214
","x: 243.01783752441406
y: 354.68109130859375
z: -0.004747126251459122
","x: 244.48748779296875
y: 355.3554992675781
z: -0.007772797718644142
","x: 245.64657592773438
y: 355.22369384765625
z: -0.010837433859705925
","x: 243.72743225097656
y: 363.3455810546875
z: -0.0043385946191847324
","x: 244.57289123535156
y: 369.90087890625
z: -0.007869595661759377
","x: 244.427978515625
y: 373.00927734375
z: -0.010128545574843884
","x: 243.9883270263672
y: 374.9581604003906
z: -0.011558042839169502
","x: 242.02792358398438
y: 364.0408630371094
z: -0.005888226442039013
","x: 242.85687255859375
y: 370.4782409667969
z: -0.009300953708589077
","x: 242.8809051513672
y: 374.1671447753906
z: -0.010994897224009037
","x: 242.64698791503906
y: 376.8251037597656
z: -0.01220929715782404
","x: 240.10165405273438
y: 363.456298828125
z: -0.007696930784732103
","x: 240.57537841796875
y: 369.5760498046875
z: -0.011025997810065746
","x: 240.6791534423828
y: 373.3377685546875
z: -0.012117547914385796
","x: 240.6263885498047
y: 376.0134582519531
z: -0.01280262041836977
","x: 238.07823181152344
y: 361.8944091796875
z: -0.009767316281795502
","x: 237.67947387695312
y: 366.761474609375
z: -0.01242836844176054
","x: 237.57310485839844
y: 369.97027587890625
z: -0.013156373985111713
","x: 237.40611267089844
y: 372.3701171875
z: -0.013606620021164417
",4.7061991691589355,,,,,,,,,,,,,,,,,,,,,
9,"x: 241.23776245117188
y: 253.4032440185547
z: -0.2192477285861969
visibility: 0.9999911785125732
","x: 243.13516235351562
y: 248.5014190673828
z: -0.2022610455751419
visibility: 0.9999724626541138
","x: 244.42160034179688
y: 248.860107421875
z: -0.2022639811038971
visibility: 0.999970018863678
","x: 245.50088500976562
y: 249.2579345703125
z: -0.2022518813610077
visibility: 0.9999658465385437
","x: 239.17823791503906
y: 247.77944946289062
z: -0.20548932254314423
visibility: 0.9999729990959167
","x: 237.73025512695312
y: 247.65896606445312
z: -0.20551064610481262
visibility: 0.999973475933075
","x: 236.21937561035156
y: 247.53013610839844
z: -0.20549127459526062
visibility: 0.9999704957008362
","x: 247.15676879882812
y: 253.4575653076172
z: -0.09933115541934967
visibility: 0.9998672604560852
","x: 233.79489135742188
y: 252.14785766601562
z: -0.1154177188873291
visibility: 0.9999489188194275
","x: 243.30247497558594
y: 261.6262512207031
z: -0.18046614527702332
visibility: 0.9999738931655884
","x: 238.3413848876953
y: 261.05230712890625
z: -0.18519079685211182
visibility: 0.9999809265136719
","x: 256.2037353515625
y: 290.421630859375
z: -0.03225550428032875
visibility: 0.9999737739562988
","x: 221.21258544921875
y: 288.4114685058594
z: -0.057534344494342804
visibility: 0.9999687671661377
","x: 264.6706848144531
y: 328.284423828125
z: -0.06881948560476303
visibility: 0.9856987595558167
","x: 212.96885681152344
y: 332.9309387207031
z: -0.09906844794750214
visibility: 0.989618182182312
","x: 258.6950378417969
y: 346.07073974609375
z: -0.237041637301445
visibility: 0.9840261340141296
","x: 233.5167694091797
y: 352.5472412109375
z: -0.22536921501159668
visibility: 0.964692234992981
","x: 257.4989929199219
y: 356.2466125488281
z: -0.27873390913009644
visibility: 0.9624931216239929
","x: 236.3252716064453
y: 360.9923095703125
z: -0.2611469030380249
visibility: 0.9270109534263611
","x: 254.79989624023438
y: 352.1014404296875
z: -0.2928001284599304
visibility: 0.9648942351341248
","x: 239.00631713867188
y: 356.28216552734375
z: -0.27017730474472046
visibility: 0.9278889298439026
","x: 254.51048278808594
y: 348.7451171875
z: -0.2458215057849884
visibility: 0.95359867811203
","x: 238.2311248779297
y: 353.2008361816406
z: -0.22979919612407684
visibility: 0.9065037369728088
","x: 249.7786865234375
y: 377.2802429199219
z: 0.011154292151331902
visibility: 0.9999052286148071
","x: 228.3638458251953
y: 376.6675109863281
z: -0.011183766648173332
visibility: 0.9999292492866516
","x: 255.82518005371094
y: 442.7489013671875
z: 0.011845994740724564
visibility: 0.9919185042381287
","x: 222.4811553955078
y: 444.6018981933594
z: -0.005930970422923565
visibility: 0.9975264072418213
","x: 267.0764465332031
y: 508.7239990234375
z: 0.09608759731054306
visibility: 0.9947803020477295
","x: 212.22447204589844
y: 506.9441223144531
z: 0.10477355867624283
visibility: 0.9966554641723633
","x: 264.30242919921875
y: 518.5204467773438
z: 0.09774089604616165
visibility: 0.9580600261688232
","x: 212.2015380859375
y: 516.3991088867188
z: 0.10906162112951279
visibility: 0.8975158333778381
","x: 276.02923583984375
y: 528.76123046875
z: -0.010993445292115211
visibility: 0.9898924231529236
","x: 210.56141662597656
y: 527.005126953125
z: 0.002741531003266573
visibility: 0.9919971227645874
","x: 231.88555908203125
y: 351.7074890136719
z: 0.0
","x: 237.18426513671875
y: 349.7044372558594
z: 0.0009694195468910038
","x: 242.86373901367188
y: 349.74578857421875
z: -0.0004412512353155762
","x: 247.13095092773438
y: 350.467041015625
z: -0.00241681095212698
","x: 250.22561645507812
y: 351.2790222167969
z: -0.0044098817743361
","x: 240.3336181640625
y: 350.1097106933594
z: -0.005408502649515867
","x: 243.98680114746094
y: 351.1500244140625
z: -0.008341568522155285
","x: 246.00245666503906
y: 351.6533203125
z: -0.008706190623342991
","x: 247.46737670898438
y: 351.2973327636719
z: -0.008638777770102024
","x: 238.23678588867188
y: 353.8803405761719
z: -0.007935980334877968
","x: 241.71609497070312
y: 358.0856018066406
z: -0.011266917921602726
","x: 241.63951110839844
y: 358.18585205078125
z: -0.010246185585856438
","x: 240.96925354003906
y: 357.01971435546875
z: -0.0089659933000803
","x: 236.0442657470703
y: 357.89520263671875
z: -0.010087109170854092
","x: 239.26026916503906
y: 362.63055419921875
z: -0.01311736460775137
","x: 239.2527313232422
y: 362.11187744140625
z: -0.010715607553720474
","x: 238.69325256347656
y: 360.61822509765625
z: -0.008649471215903759
","x: 233.86769104003906
y: 361.73309326171875
z: -0.012191375717520714
","x: 236.16317749023438
y: 365.87640380859375
z: -0.014329268597066402
","x: 236.0198516845703
y: 365.7902526855469
z: -0.012763085775077343
","x: 235.32708740234375
y: 364.77386474609375
z: -0.011076193302869797
",4.872392892837524,"x: 260.9955749511719
y: 344.8895263671875
z: 0.0
","x: 258.0784912109375
y: 344.65350341796875
z: -0.007413509301841259
","x: 254.90269470214844
y: 348.0408020019531
z: -0.010259012691676617
","x: 251.8411407470703
y: 351.2687683105469
z: -0.0112351318821311
","x: 248.95591735839844
y: 353.23516845703125
z: -0.011650296859443188
","x: 258.40350341796875
y: 357.5973815917969
z: -0.008885919116437435
","x: 256.9361572265625
y: 365.3885498046875
z: -0.010401645675301552
","x: 255.53990173339844
y: 368.1153869628906
z: -0.01063530333340168
","x: 255.00100708007812
y: 369.03375244140625
z: -0.01031213253736496
","x: 259.1185302734375
y: 359.6693420410156
z: -0.004747380036860704
","x: 257.39306640625
y: 367.15460205078125
z: -0.006064044311642647
","x: 256.1923522949219
y: 369.5759582519531
z: -0.006237925495952368
","x: 255.6650390625
y: 370.5825500488281
z: -0.006088398862630129
","x: 258.8648376464844
y: 360.5039978027344
z: -0.0008771439315751195
","x: 257.2708740234375
y: 366.2857360839844
z: -0.00221831607632339
","x: 256.337890625
y: 368.7263488769531
z: -0.0031617397908121347
","x: 255.8799591064453
y: 370.14715576171875
z: -0.003501319559291005
","x: 257.9989929199219
y: 360.70794677734375
z: 0.0025307955220341682
","x: 256.7625732421875
y: 365.6839294433594
z: 0.0015887049958109856
","x: 256.0152282714844
y: 368.1521301269531
z: 0.0007010355475358665
","x: 255.5859375
y: 369.5263366699219
z: 0.0002991451765410602
"
10,"x: 241.23776245117188
y: 253.4032440185547
z: -0.2192477285861969
visibility: 0.9999911785125732
","x: 243.13516235351562
y: 248.5014190673828
z: -0.2022610455751419
visibility: 0.9999724626541138
","x: 244.42160034179688
y: 248.860107421875
z: -0.2022639811038971
visibility: 0.999970018863678
","x: 245.50088500976562
y: 249.2579345703125
z: -0.2022518813610077
visibility: 0.9999658465385437
","x: 239.17823791503906
y: 247.77944946289062
z: -0.20548932254314423
visibility: 0.9999729990959167
","x: 237.73025512695312
y: 247.65896606445312
z: -0.20551064610481262
visibility: 0.999973475933075
","x: 236.21937561035156
y: 247.53013610839844
z: -0.20549127459526062
visibility: 0.9999704957008362
","x: 247.15676879882812
y: 253.4575653076172
z: -0.09933115541934967
visibility: 0.9998672604560852
","x: 233.79489135742188
y: 252.14785766601562
z: -0.1154177188873291
visibility: 0.9999489188194275
","x: 243.30247497558594
y: 261.6262512207031
z: -0.18046614527702332
visibility: 0.9999738931655884
","x: 238.3413848876953
y: 261.05230712890625
z: -0.18519079685211182
visibility: 0.9999809265136719
","x: 256.2037353515625
y: 290.421630859375
z: -0.03225550428032875
visibility: 0.9999737739562988
","x: 221.21258544921875
y: 288.4114685058594
z: -0.057534344494342804
visibility: 0.9999687671661377
","x: 264.6706848144531
y: 328.284423828125
z: -0.06881948560476303
visibility: 0.9856987595558167
","x: 212.96885681152344
y: 332.9309387207031
z: -0.09906844794750214
visibility: 0.989618182182312
","x: 258.6950378417969
y: 346.07073974609375
z: -0.237041637301445
visibility: 0.9840261340141296
","x: 233.5167694091797
y: 352.5472412109375
z: -0.22536921501159668
visibility: 0.964692234992981
","x: 257.4989929199219
y: 356.2466125488281
z: -0.27873390913009644
visibility: 0.9624931216239929
","x: 236.3252716064453
y: 360.9923095703125
z: -0.2611469030380249
visibility: 0.9270109534263611
","x: 254.79989624023438
y: 352.1014404296875
z: -0.2928001284599304
visibility: 0.9648942351341248
","x: 239.00631713867188
y: 356.28216552734375
z: -0.27017730474472046
visibility: 0.9278889298439026
","x: 254.51048278808594
y: 348.7451171875
z: -0.2458215057849884
visibility: 0.95359867811203
","x: 238.2311248779297
y: 353.2008361816406
z: -0.22979919612407684
visibility: 0.9065037369728088
","x: 249.7786865234375
y: 377.2802429199219
z: 0.011154292151331902
visibility: 0.9999052286148071
","x: 228.3638458251953
y: 376.6675109863281
z: -0.011183766648173332
visibility: 0.9999292492866516
","x: 255.82518005371094
y: 442.7489013671875
z: 0.011845994740724564
visibility: 0.9919185042381287
","x: 222.4811553955078
y: 444.6018981933594
z: -0.005930970422923565
visibility: 0.9975264072418213
","x: 267.0764465332031
y: 508.7239990234375
z: 0.09608759731054306
visibility: 0.9947803020477295
","x: 212.22447204589844
y: 506.9441223144531
z: 0.10477355867624283
visibility: 0.9966554641723633
","x: 264.30242919921875
y: 518.5204467773438
z: 0.09774089604616165
visibility: 0.9580600261688232
","x: 212.2015380859375
y: 516.3991088867188
z: 0.10906162112951279
visibility: 0.8975158333778381
","x: 276.02923583984375
y: 528.76123046875
z: -0.010993445292115211
visibility: 0.9898924231529236
","x: 210.56141662597656
y: 527.005126953125
z: 0.002741531003266573
visibility: 0.9919971227645874
","x: 231.88555908203125
y: 351.7074890136719
z: 0.0
","x: 237.18426513671875
y: 349.7044372558594
z: 0.0009694195468910038
","x: 242.86373901367188
y: 349.74578857421875
z: -0.0004412512353155762
","x: 247.13095092773438
y: 350.467041015625
z: -0.00241681095212698
","x: 250.22561645507812
y: 351.2790222167969
z: -0.0044098817743361
","x: 240.3336181640625
y: 350.1097106933594
z: -0.005408502649515867
","x: 243.98680114746094
y: 351.1500244140625
z: -0.008341568522155285
","x: 246.00245666503906
y: 351.6533203125
z: -0.008706190623342991
","x: 247.46737670898438
y: 351.2973327636719
z: -0.008638777770102024
","x: 238.23678588867188
y: 353.8803405761719
z: -0.007935980334877968
","x: 241.71609497070312
y: 358.0856018066406
z: -0.011266917921602726
","x: 241.63951110839844
y: 358.18585205078125
z: -0.010246185585856438
","x: 240.96925354003906
y: 357.01971435546875
z: -0.0089659933000803
","x: 236.0442657470703
y: 357.89520263671875
z: -0.010087109170854092
","x: 239.26026916503906
y: 362.63055419921875
z: -0.01311736460775137
","x: 239.2527313232422
y: 362.11187744140625
z: -0.010715607553720474
","x: 238.69325256347656
y: 360.61822509765625
z: -0.008649471215903759
","x: 233.86769104003906
y: 361.73309326171875
z: -0.012191375717520714
","x: 236.16317749023438
y: 365.87640380859375
z: -0.014329268597066402
","x: 236.0198516845703
y: 365.7902526855469
z: -0.012763085775077343
","x: 235.32708740234375
y: 364.77386474609375
z: -0.011076193302869797
",4.872392892837524,"x: 260.9955749511719
y: 344.8895263671875
z: 0.0
","x: 258.0784912109375
y: 344.65350341796875
z: -0.007413509301841259
","x: 254.90269470214844
y: 348.0408020019531
z: -0.010259012691676617
","x: 251.8411407470703
y: 351.2687683105469
z: -0.0112351318821311
","x: 248.95591735839844
y: 353.23516845703125
z: -0.011650296859443188
","x: 258.40350341796875
y: 357.5973815917969
z: -0.008885919116437435
","x: 256.9361572265625
y: 365.3885498046875
z: -0.010401645675301552
","x: 255.53990173339844
y: 368.1153869628906
z: -0.01063530333340168
","x: 255.00100708007812
y: 369.03375244140625
z: -0.01031213253736496
","x: 259.1185302734375
y: 359.6693420410156
z: -0.004747380036860704
","x: 257.39306640625
y: 367.15460205078125
z: -0.006064044311642647
","x: 256.1923522949219
y: 369.5759582519531
z: -0.006237925495952368
","x: 255.6650390625
y: 370.5825500488281
z: -0.006088398862630129
","x: 258.8648376464844
y: 360.5039978027344
z: -0.0008771439315751195
","x: 257.2708740234375
y: 366.2857360839844
z: -0.00221831607632339
","x: 256.337890625
y: 368.7263488769531
z: -0.0031617397908121347
","x: 255.8799591064453
y: 370.14715576171875
z: -0.003501319559291005
","x: 257.9989929199219
y: 360.70794677734375
z: 0.0025307955220341682
","x: 256.7625732421875
y: 365.6839294433594
z: 0.0015887049958109856
","x: 256.0152282714844
y: 368.1521301269531
z: 0.0007010355475358665
","x: 255.5859375
y: 369.5263366699219
z: 0.0002991451765410602
"
11,"x: 241.23776245117188
y: 253.4032440185547
z: -0.2192477285861969
visibility: 0.9999911785125732
","x: 243.13516235351562
y: 248.5014190673828
z: -0.2022610455751419
visibility: 0.9999724626541138
","x: 244.42160034179688
y: 248.860107421875
z: -0.2022639811038971
visibility: 0.999970018863678
","x: 245.50088500976562
y: 249.2579345703125
z: -0.2022518813610077
visibility: 0.9999658465385437
","x: 239.17823791503906
y: 247.77944946289062
z: -0.20548932254314423
visibility: 0.9999729990959167
","x: 237.73025512695312
y: 247.65896606445312
z: -0.20551064610481262
visibility: 0.999973475933075
","x: 236.21937561035156
y: 247.53013610839844
z: -0.20549127459526062
visibility: 0.9999704957008362
","x: 247.15676879882812
y: 253.4575653076172
z: -0.09933115541934967
visibility: 0.9998672604560852
","x: 233.79489135742188
y: 252.14785766601562
z: -0.1154177188873291
visibility: 0.9999489188194275
","x: 243.30247497558594
y: 261.6262512207031
z: -0.18046614527702332
visibility: 0.9999738931655884
","x: 238.3413848876953
y: 261.05230712890625
z: -0.18519079685211182
visibility: 0.9999809265136719
","x: 256.2037353515625
y: 290.421630859375
z: -0.03225550428032875
visibility: 0.9999737739562988
","x: 221.21258544921875
y: 288.4114685058594
z: -0.057534344494342804
visibility: 0.9999687671661377
","x: 264.6706848144531
y: 328.284423828125
z: -0.06881948560476303
visibility: 0.9856987595558167
","x: 212.96885681152344
y: 332.9309387207031
z: -0.09906844794750214
visibility: 0.989618182182312
","x: 258.6950378417969
y: 346.07073974609375
z: -0.237041637301445
visibility: 0.9840261340141296
","x: 233.5167694091797
y: 352.5472412109375
z: -0.22536921501159668
visibility: 0.964692234992981
","x: 257.4989929199219
y: 356.2466125488281
z: -0.27873390913009644
visibility: 0.9624931216239929
","x: 236.3252716064453
y: 360.9923095703125
z: -0.2611469030380249
visibility: 0.9270109534263611
","x: 254.79989624023438
y: 352.1014404296875
z: -0.2928001284599304
visibility: 0.9648942351341248
","x: 239.00631713867188
y: 356.28216552734375
z: -0.27017730474472046
visibility: 0.9278889298439026
","x: 254.51048278808594
y: 348.7451171875
z: -0.2458215057849884
visibility: 0.95359867811203
","x: 238.2311248779297
y: 353.2008361816406
z: -0.22979919612407684
visibility: 0.9065037369728088
","x: 249.7786865234375
y: 377.2802429199219
z: 0.011154292151331902
visibility: 0.9999052286148071
","x: 228.3638458251953
y: 376.6675109863281
z: -0.011183766648173332
visibility: 0.9999292492866516
","x: 255.82518005371094
y: 442.7489013671875
z: 0.011845994740724564
visibility: 0.9919185042381287
","x: 222.4811553955078
y: 444.6018981933594
z: -0.005930970422923565
visibility: 0.9975264072418213
","x: 267.0764465332031
y: 508.7239990234375
z: 0.09608759731054306
visibility: 0.9947803020477295
","x: 212.22447204589844
y: 506.9441223144531
z: 0.10477355867624283
visibility: 0.9966554641723633
","x: 264.30242919921875
y: 518.5204467773438
z: 0.09774089604616165
visibility: 0.9580600261688232
","x: 212.2015380859375
y: 516.3991088867188
z: 0.10906162112951279
visibility: 0.8975158333778381
","x: 276.02923583984375
y: 528.76123046875
z: -0.010993445292115211
visibility: 0.9898924231529236
","x: 210.56141662597656
y: 527.005126953125
z: 0.002741531003266573
visibility: 0.9919971227645874
","x: 231.88555908203125
y: 351.7074890136719
z: 0.0
","x: 237.18426513671875
y: 349.7044372558594
z: 0.0009694195468910038
","x: 242.86373901367188
y: 349.74578857421875
z: -0.0004412512353155762
","x: 247.13095092773438
y: 350.467041015625
z: -0.00241681095212698
","x: 250.22561645507812
y: 351.2790222167969
z: -0.0044098817743361
","x: 240.3336181640625
y: 350.1097106933594
z: -0.005408502649515867
","x: 243.98680114746094
y: 351.1500244140625
z: -0.008341568522155285
","x: 246.00245666503906
y: 351.6533203125
z: -0.008706190623342991
","x: 247.46737670898438
y: 351.2973327636719
z: -0.008638777770102024
","x: 238.23678588867188
y: 353.8803405761719
z: -0.007935980334877968
","x: 241.71609497070312
y: 358.0856018066406
z: -0.011266917921602726
","x: 241.63951110839844
y: 358.18585205078125
z: -0.010246185585856438
","x: 240.96925354003906
y: 357.01971435546875
z: -0.0089659933000803
","x: 236.0442657470703
y: 357.89520263671875
z: -0.010087109170854092
","x: 239.26026916503906
y: 362.63055419921875
z: -0.01311736460775137
","x: 239.2527313232422
y: 362.11187744140625
z: -0.010715607553720474
","x: 238.69325256347656
y: 360.61822509765625
z: -0.008649471215903759
","x: 233.86769104003906
y: 361.73309326171875
z: -0.012191375717520714
","x: 236.16317749023438
y: 365.87640380859375
z: -0.014329268597066402
","x: 236.0198516845703
y: 365.7902526855469
z: -0.012763085775077343
","x: 235.32708740234375
y: 364.77386474609375
z: -0.011076193302869797
",4.872392892837524,"x: 260.9955749511719
y: 344.8895263671875
z: 0.0
","x: 258.0784912109375
y: 344.65350341796875
z: -0.007413509301841259
","x: 254.90269470214844
y: 348.0408020019531
z: -0.010259012691676617
","x: 251.8411407470703
y: 351.2687683105469
z: -0.0112351318821311
","x: 248.95591735839844
y: 353.23516845703125
z: -0.011650296859443188
","x: 258.40350341796875
y: 357.5973815917969
z: -0.008885919116437435
","x: 256.9361572265625
y: 365.3885498046875
z: -0.010401645675301552
","x: 255.53990173339844
y: 368.1153869628906
z: -0.01063530333340168
","x: 255.00100708007812
y: 369.03375244140625
z: -0.01031213253736496
","x: 259.1185302734375
y: 359.6693420410156
z: -0.004747380036860704
","x: 257.39306640625
y: 367.15460205078125
z: -0.006064044311642647
","x: 256.1923522949219
y: 369.5759582519531
z: -0.006237925495952368
","x: 255.6650390625
y: 370.5825500488281
z: -0.006088398862630129
","x: 258.8648376464844
y: 360.5039978027344
z: -0.0008771439315751195
","x: 257.2708740234375
y: 366.2857360839844
z: -0.00221831607632339
","x: 256.337890625
y: 368.7263488769531
z: -0.0031617397908121347
","x: 255.8799591064453
y: 370.14715576171875
z: -0.003501319559291005
","x: 257.9989929199219
y: 360.70794677734375
z: 0.0025307955220341682
","x: 256.7625732421875
y: 365.6839294433594
z: 0.0015887049958109856
","x: 256.0152282714844
y: 368.1521301269531
z: 0.0007010355475358665
","x: 255.5859375
y: 369.5263366699219
z: 0.0002991451765410602
"
12,"x: 241.23776245117188
y: 253.4032440185547
z: -0.2192477285861969
visibility: 0.9999911785125732
","x: 243.13516235351562
y: 248.5014190673828
z: -0.2022610455751419
visibility: 0.9999724626541138
","x: 244.42160034179688
y: 248.860107421875
z: -0.2022639811038971
visibility: 0.999970018863678
","x: 245.50088500976562
y: 249.2579345703125
z: -0.2022518813610077
visibility: 0.9999658465385437
","x: 239.17823791503906
y: 247.77944946289062
z: -0.20548932254314423
visibility: 0.9999729990959167
","x: 237.73025512695312
y: 247.65896606445312
z: -0.20551064610481262
visibility: 0.999973475933075
","x: 236.21937561035156
y: 247.53013610839844
z: -0.20549127459526062
visibility: 0.9999704957008362
","x: 247.15676879882812
y: 253.4575653076172
z: -0.09933115541934967
visibility: 0.9998672604560852
","x: 233.79489135742188
y: 252.14785766601562
z: -0.1154177188873291
visibility: 0.9999489188194275
","x: 243.30247497558594
y: 261.6262512207031
z: -0.18046614527702332
visibility: 0.9999738931655884
","x: 238.3413848876953
y: 261.05230712890625
z: -0.18519079685211182
visibility: 0.9999809265136719
","x: 256.2037353515625
y: 290.421630859375
z: -0.03225550428032875
visibility: 0.9999737739562988
","x: 221.21258544921875
y: 288.4114685058594
z: -0.057534344494342804
visibility: 0.9999687671661377
","x: 264.6706848144531
y: 328.284423828125
z: -0.06881948560476303
visibility: 0.9856987595558167
","x: 212.96885681152344
y: 332.9309387207031
z: -0.09906844794750214
visibility: 0.989618182182312
","x: 258.6950378417969
y: 346.07073974609375
z: -0.237041637301445
visibility: 0.9840261340141296
","x: 233.5167694091797
y: 352.5472412109375
z: -0.22536921501159668
visibility: 0.964692234992981
","x: 257.4989929199219
y: 356.2466125488281
z: -0.27873390913009644
visibility: 0.9624931216239929
","x: 236.3252716064453
y: 360.9923095703125
z: -0.2611469030380249
visibility: 0.9270109534263611
","x: 254.79989624023438
y: 352.1014404296875
z: -0.2928001284599304
visibility: 0.9648942351341248
","x: 239.00631713867188
y: 356.28216552734375
z: -0.27017730474472046
visibility: 0.9278889298439026
","x: 254.51048278808594
y: 348.7451171875
z: -0.2458215057849884
visibility: 0.95359867811203
","x: 238.2311248779297
y: 353.2008361816406
z: -0.22979919612407684
visibility: 0.9065037369728088
","x: 249.7786865234375
y: 377.2802429199219
z: 0.011154292151331902
visibility: 0.9999052286148071
","x: 228.3638458251953
y: 376.6675109863281
z: -0.011183766648173332
visibility: 0.9999292492866516
","x: 255.82518005371094
y: 442.7489013671875
z: 0.011845994740724564
visibility: 0.9919185042381287
","x: 222.4811553955078
y: 444.6018981933594
z: -0.005930970422923565
visibility: 0.9975264072418213
","x: 267.0764465332031
y: 508.7239990234375
z: 0.09608759731054306
visibility: 0.9947803020477295
","x: 212.22447204589844
y: 506.9441223144531
z: 0.10477355867624283
visibility: 0.9966554641723633
","x: 264.30242919921875
y: 518.5204467773438
z: 0.09774089604616165
visibility: 0.9580600261688232
","x: 212.2015380859375
y: 516.3991088867188
z: 0.10906162112951279
visibility: 0.8975158333778381
","x: 276.02923583984375
y: 528.76123046875
z: -0.010993445292115211
visibility: 0.9898924231529236
","x: 210.56141662597656
y: 527.005126953125
z: 0.002741531003266573
visibility: 0.9919971227645874
","x: 231.88555908203125
y: 351.7074890136719
z: 0.0
","x: 237.18426513671875
y: 349.7044372558594
z: 0.0009694195468910038
","x: 242.86373901367188
y: 349.74578857421875
z: -0.0004412512353155762
","x: 247.13095092773438
y: 350.467041015625
z: -0.00241681095212698
","x: 250.22561645507812
y: 351.2790222167969
z: -0.0044098817743361
","x: 240.3336181640625
y: 350.1097106933594
z: -0.005408502649515867
","x: 243.98680114746094
y: 351.1500244140625
z: -0.008341568522155285
","x: 246.00245666503906
y: 351.6533203125
z: -0.008706190623342991
","x: 247.46737670898438
y: 351.2973327636719
z: -0.008638777770102024
","x: 238.23678588867188
y: 353.8803405761719
z: -0.007935980334877968
","x: 241.71609497070312
y: 358.0856018066406
z: -0.011266917921602726
","x: 241.63951110839844
y: 358.18585205078125
z: -0.010246185585856438
","x: 240.96925354003906
y: 357.01971435546875
z: -0.0089659933000803
","x: 236.0442657470703
y: 357.89520263671875
z: -0.010087109170854092
","x: 239.26026916503906
y: 362.63055419921875
z: -0.01311736460775137
","x: 239.2527313232422
y: 362.11187744140625
z: -0.010715607553720474
","x: 238.69325256347656
y: 360.61822509765625
z: -0.008649471215903759
","x: 233.86769104003906
y: 361.73309326171875
z: -0.012191375717520714
","x: 236.16317749023438
y: 365.87640380859375
z: -0.014329268597066402
","x: 236.0198516845703
y: 365.7902526855469
z: -0.012763085775077343
","x: 235.32708740234375
y: 364.77386474609375
z: -0.011076193302869797
",4.872392892837524,"x: 260.9955749511719
y: 344.8895263671875
z: 0.0
","x: 258.0784912109375
y: 344.65350341796875
z: -0.007413509301841259
","x: 254.90269470214844
y: 348.0408020019531
z: -0.010259012691676617
","x: 251.8411407470703
y: 351.2687683105469
z: -0.0112351318821311
","x: 248.95591735839844
y: 353.23516845703125
z: -0.011650296859443188
","x: 258.40350341796875
y: 357.5973815917969
z: -0.008885919116437435
","x: 256.9361572265625
y: 365.3885498046875
z: -0.010401645675301552
","x: 255.53990173339844
y: 368.1153869628906
z: -0.01063530333340168
","x: 255.00100708007812
y: 369.03375244140625
z: -0.01031213253736496
","x: 259.1185302734375
y: 359.6693420410156
z: -0.004747380036860704
","x: 257.39306640625
y: 367.15460205078125
z: -0.006064044311642647
","x: 256.1923522949219
y: 369.5759582519531
z: -0.006237925495952368
","x: 255.6650390625
y: 370.5825500488281
z: -0.006088398862630129
","x: 258.8648376464844
y: 360.5039978027344
z: -0.0008771439315751195
","x: 257.2708740234375
y: 366.2857360839844
z: -0.00221831607632339
","x: 256.337890625
y: 368.7263488769531
z: -0.0031617397908121347
","x: 255.8799591064453
y: 370.14715576171875
z: -0.003501319559291005
","x: 257.9989929199219
y: 360.70794677734375
z: 0.0025307955220341682
","x: 256.7625732421875
y: 365.6839294433594
z: 0.0015887049958109856
","x: 256.0152282714844
y: 368.1521301269531
z: 0.0007010355475358665
","x: 255.5859375
y: 369.5263366699219
z: 0.0002991451765410602
"
13,"x: 242.55209350585938
y: 253.76904296875
z: -0.2434844672679901
visibility: 0.9999911785125732
","x: 244.3822021484375
y: 248.8302001953125
z: -0.2280590534210205
visibility: 0.9999732971191406
","x: 245.68251037597656
y: 249.19471740722656
z: -0.2280712127685547
visibility: 0.999970555305481
","x: 246.8571319580078
y: 249.58993530273438
z: -0.2280624806880951
visibility: 0.9999662041664124
","x: 240.54147338867188
y: 248.15313720703125
z: -0.2296065390110016
visibility: 0.9999743700027466
","x: 239.15408325195312
y: 248.0435791015625
z: -0.229667067527771
visibility: 0.99997478723526
","x: 237.63272094726562
y: 248.00509643554688
z: -0.2296929806470871
visibility: 0.9999722242355347
","x: 248.67828369140625
y: 253.64244079589844
z: -0.1242036372423172
visibility: 0.9998693466186523
","x: 235.14019775390625
y: 252.52784729003906
z: -0.1158217340707779
visibility: 0.999952495098114
","x: 244.62753295898438
y: 261.92596435546875
z: -0.2034240961074829
visibility: 0.9999739527702332
","x: 239.42593383789062
y: 261.2429504394531
z: -0.20423325896263123
visibility: 0.9999818205833435
","x: 257.9227600097656
y: 290.5830078125
z: -0.043509699404239655
visibility: 0.9999644756317139
","x: 222.92926025390625
y: 288.77850341796875
z: -0.07563996315002441
visibility: 0.9999685287475586
","x: 266.2490234375
y: 327.8302307128906
z: -0.057535283267498016
visibility: 0.9816319346427917
","x: 212.53298950195312
y: 331.48675537109375
z: -0.08400079607963562
visibility: 0.9900597929954529
","x: 260.71673583984375
y: 348.2723693847656
z: -0.21135541796684265
visibility: 0.9761587381362915
","x: 226.3580322265625
y: 353.2400817871094
z: -0.21655087172985077
visibility: 0.9658966660499573
","x: 259.04058837890625
y: 359.3121337890625
z: -0.24812369048595428
visibility: 0.9510529637336731
","x: 230.2416229248047
y: 362.20941162109375
z: -0.24934837222099304
visibility: 0.9286848902702332
","x: 255.55032348632812
y: 355.3865051269531
z: -0.26809147000312805
visibility: 0.9542924761772156
","x: 233.18763732910156
y: 357.5604248046875
z: -0.25497567653656006
visibility: 0.9294847249984741
","x: 255.23110961914062
y: 351.998779296875
z: -0.22275814414024353
visibility: 0.9395481944084167
","x: 232.38131713867188
y: 354.2776794433594
z: -0.21775443851947784
visibility: 0.907902717590332
","x: 251.04312133789062
y: 378.2386779785156
z: 0.009240697138011456
visibility: 0.9998859763145447
","x: 229.75099182128906
y: 377.43487548828125
z: -0.009285390377044678
visibility: 0.9999155402183533
","x: 256.1119689941406
y: 443.5421142578125
z: 0.013636594638228416
visibility: 0.9923615455627441
","x: 223.107177734375
y: 444.63983154296875
z: 0.004610758274793625
visibility: 0.9975637197494507
","x: 267.6975402832031
y: 508.8482971191406
z: 0.10539299249649048
visibility: 0.9950945973396301
","x: 212.28004455566406
y: 507.06488037109375
z: 0.13030944764614105
visibility: 0.9967411756515503
","x: 265.0803527832031
y: 518.51025390625
z: 0.10753393173217773
visibility: 0.9581650495529175
","x: 212.1361846923828
y: 516.3499145507812
z: 0.13647589087486267
visibility: 0.8994672298431396
","x: 276.5832824707031
y: 528.886474609375
z: -0.0048571377992630005
visibility: 0.9903940558433533
","x: 210.51226806640625
y: 527.015625
z: 0.026825979351997375
visibility: 0.9921592473983765
","x: 225.50851440429688
y: 353.84295654296875
z: 0.0
","x: 228.87918090820312
y: 352.78204345703125
z: 0.0005700737820006907
","x: 232.59190368652344
y: 354.15277099609375
z: -0.0002966773754451424
","x: 235.14779663085938
y: 356.59228515625
z: -0.001433984492905438
","x: 236.59593200683594
y: 358.9778137207031
z: -0.0023571110796183348
","x: 233.1373291015625
y: 354.9000244140625
z: -0.00413517327979207
","x: 237.1371612548828
y: 357.2140808105469
z: -0.006125067826360464
","x: 237.86669921875
y: 358.13385009765625
z: -0.005469581577926874
","x: 237.74136352539062
y: 358.1970520019531
z: -0.004465931560844183
","x: 232.07838439941406
y: 358.78460693359375
z: -0.005484920460730791
","x: 235.97430419921875
y: 363.5950927734375
z: -0.0072340453043580055
","x: 235.57652282714844
y: 363.7987060546875
z: -0.005304450634866953
","x: 234.42262268066406
y: 362.5352783203125
z: -0.0033431886695325375
","x: 230.6743621826172
y: 362.39501953125
z: -0.00674952007830143
","x: 233.88882446289062
y: 367.3652648925781
z: -0.008444859646260738
","x: 233.48687744140625
y: 366.7096252441406
z: -0.006223671138286591
","x: 232.501953125
y: 365.0987243652344
z: -0.0041538430377841
","x: 228.95399475097656
y: 365.5224304199219
z: -0.007982385344803333
","x: 231.23040771484375
y: 369.6278076171875
z: -0.009318878874182701
","x: 231.04931640625
y: 369.516357421875
z: -0.008211483247578144
","x: 230.3596954345703
y: 368.65399169921875
z: -0.006789593491703272
",4.9983954429626465,,,,,,,,,,,,,,,,,,,,,
14,"x: 242.55209350585938
y: 253.76904296875
z: -0.2434844672679901
visibility: 0.9999911785125732
","x: 244.3822021484375
y: 248.8302001953125
z: -0.2280590534210205
visibility: 0.9999732971191406
","x: 245.68251037597656
y: 249.19471740722656
z: -0.2280712127685547
visibility: 0.999970555305481
","x: 246.8571319580078
y: 249.58993530273438
z: -0.2280624806880951
visibility: 0.9999662041664124
","x: 240.54147338867188
y: 248.15313720703125
z: -0.2296065390110016
visibility: 0.9999743700027466
","x: 239.15408325195312
y: 248.0435791015625
z: -0.229667067527771
visibility: 0.99997478723526
","x: 237.63272094726562
y: 248.00509643554688
z: -0.2296929806470871
visibility: 0.9999722242355347
","x: 248.67828369140625
y: 253.64244079589844
z: -0.1242036372423172
visibility: 0.9998693466186523
","x: 235.14019775390625
y: 252.52784729003906
z: -0.1158217340707779
visibility: 0.999952495098114
","x: 244.62753295898438
y: 261.92596435546875
z: -0.2034240961074829
visibility: 0.9999739527702332
","x: 239.42593383789062
y: 261.2429504394531
z: -0.20423325896263123
visibility: 0.9999818205833435
","x: 257.9227600097656
y: 290.5830078125
z: -0.043509699404239655
visibility: 0.9999644756317139
","x: 222.92926025390625
y: 288.77850341796875
z: -0.07563996315002441
visibility: 0.9999685287475586
","x: 266.2490234375
y: 327.8302307128906
z: -0.057535283267498016
visibility: 0.9816319346427917
","x: 212.53298950195312
y: 331.48675537109375
z: -0.08400079607963562
visibility: 0.9900597929954529
","x: 260.71673583984375
y: 348.2723693847656
z: -0.21135541796684265
visibility: 0.9761587381362915
","x: 226.3580322265625
y: 353.2400817871094
z: -0.21655087172985077
visibility: 0.9658966660499573
","x: 259.04058837890625
y: 359.3121337890625
z: -0.24812369048595428
visibility: 0.9510529637336731
","x: 230.2416229248047
y: 362.20941162109375
z: -0.24934837222099304
visibility: 0.9286848902702332
","x: 255.55032348632812
y: 355.3865051269531
z: -0.26809147000312805
visibility: 0.9542924761772156
","x: 233.18763732910156
y: 357.5604248046875
z: -0.25497567653656006
visibility: 0.9294847249984741
","x: 255.23110961914062
y: 351.998779296875
z: -0.22275814414024353
visibility: 0.9395481944084167
","x: 232.38131713867188
y: 354.2776794433594
z: -0.21775443851947784
visibility: 0.907902717590332
","x: 251.04312133789062
y: 378.2386779785156
z: 0.009240697138011456
visibility: 0.9998859763145447
","x: 229.75099182128906
y: 377.43487548828125
z: -0.009285390377044678
visibility: 0.9999155402183533
","x: 256.1119689941406
y: 443.5421142578125
z: 0.013636594638228416
visibility: 0.9923615455627441
","x: 223.107177734375
y: 444.63983154296875
z: 0.004610758274793625
visibility: 0.9975637197494507
","x: 267.6975402832031
y: 508.8482971191406
z: 0.10539299249649048
visibility: 0.9950945973396301
","x: 212.28004455566406
y: 507.06488037109375
z: 0.13030944764614105
visibility: 0.9967411756515503
","x: 265.0803527832031
y: 518.51025390625
z: 0.10753393173217773
visibility: 0.9581650495529175
","x: 212.1361846923828
y: 516.3499145507812
z: 0.13647589087486267
visibility: 0.8994672298431396
","x: 276.5832824707031
y: 528.886474609375
z: -0.0048571377992630005
visibility: 0.9903940558433533
","x: 210.51226806640625
y: 527.015625
z: 0.026825979351997375
visibility: 0.9921592473983765
","x: 225.50851440429688
y: 353.84295654296875
z: 0.0
","x: 228.87918090820312
y: 352.78204345703125
z: 0.0005700737820006907
","x: 232.59190368652344
y: 354.15277099609375
z: -0.0002966773754451424
","x: 235.14779663085938
y: 356.59228515625
z: -0.001433984492905438
","x: 236.59593200683594
y: 358.9778137207031
z: -0.0023571110796183348
","x: 233.1373291015625
y: 354.9000244140625
z: -0.00413517327979207
","x: 237.1371612548828
y: 357.2140808105469
z: -0.006125067826360464
","x: 237.86669921875
y: 358.13385009765625
z: -0.005469581577926874
","x: 237.74136352539062
y: 358.1970520019531
z: -0.004465931560844183
","x: 232.07838439941406
y: 358.78460693359375
z: -0.005484920460730791
","x: 235.97430419921875
y: 363.5950927734375
z: -0.0072340453043580055
","x: 235.57652282714844
y: 363.7987060546875
z: -0.005304450634866953
","x: 234.42262268066406
y: 362.5352783203125
z: -0.0033431886695325375
","x: 230.6743621826172
y: 362.39501953125
z: -0.00674952007830143
","x: 233.88882446289062
y: 367.3652648925781
z: -0.008444859646260738
","x: 233.48687744140625
y: 366.7096252441406
z: -0.006223671138286591
","x: 232.501953125
y: 365.0987243652344
z: -0.0041538430377841
","x: 228.95399475097656
y: 365.5224304199219
z: -0.007982385344803333
","x: 231.23040771484375
y: 369.6278076171875
z: -0.009318878874182701
","x: 231.04931640625
y: 369.516357421875
z: -0.008211483247578144
","x: 230.3596954345703
y: 368.65399169921875
z: -0.006789593491703272
",4.9983954429626465,,,,,,,,,,,,,,,,,,,,,
15,"x: 242.55209350585938
y: 253.76904296875
z: -0.2434844672679901
visibility: 0.9999911785125732
","x: 244.3822021484375
y: 248.8302001953125
z: -0.2280590534210205
visibility: 0.9999732971191406
","x: 245.68251037597656
y: 249.19471740722656
z: -0.2280712127685547
visibility: 0.999970555305481
","x: 246.8571319580078
y: 249.58993530273438
z: -0.2280624806880951
visibility: 0.9999662041664124
","x: 240.54147338867188
y: 248.15313720703125
z: -0.2296065390110016
visibility: 0.9999743700027466
","x: 239.15408325195312
y: 248.0435791015625
z: -0.229667067527771
visibility: 0.99997478723526
","x: 237.63272094726562
y: 248.00509643554688
z: -0.2296929806470871
visibility: 0.9999722242355347
","x: 248.67828369140625
y: 253.64244079589844
z: -0.1242036372423172
visibility: 0.9998693466186523
","x: 235.14019775390625
y: 252.52784729003906
z: -0.1158217340707779
visibility: 0.999952495098114
","x: 244.62753295898438
y: 261.92596435546875
z: -0.2034240961074829
visibility: 0.9999739527702332
","x: 239.42593383789062
y: 261.2429504394531
z: -0.20423325896263123
visibility: 0.9999818205833435
","x: 257.9227600097656
y: 290.5830078125
z: -0.043509699404239655
visibility: 0.9999644756317139
","x: 222.92926025390625
y: 288.77850341796875
z: -0.07563996315002441
visibility: 0.9999685287475586
","x: 266.2490234375
y: 327.8302307128906
z: -0.057535283267498016
visibility: 0.9816319346427917
","x: 212.53298950195312
y: 331.48675537109375
z: -0.08400079607963562
visibility: 0.9900597929954529
","x: 260.71673583984375
y: 348.2723693847656
z: -0.21135541796684265
visibility: 0.9761587381362915
","x: 226.3580322265625
y: 353.2400817871094
z: -0.21655087172985077
visibility: 0.9658966660499573
","x: 259.04058837890625
y: 359.3121337890625
z: -0.24812369048595428
visibility: 0.9510529637336731
","x: 230.2416229248047
y: 362.20941162109375
z: -0.24934837222099304
visibility: 0.9286848902702332
","x: 255.55032348632812
y: 355.3865051269531
z: -0.26809147000312805
visibility: 0.9542924761772156
","x: 233.18763732910156
y: 357.5604248046875
z: -0.25497567653656006
visibility: 0.9294847249984741
","x: 255.23110961914062
y: 351.998779296875
z: -0.22275814414024353
visibility: 0.9395481944084167
","x: 232.38131713867188
y: 354.2776794433594
z: -0.21775443851947784
visibility: 0.907902717590332
","x: 251.04312133789062
y: 378.2386779785156
z: 0.009240697138011456
visibility: 0.9998859763145447
","x: 229.75099182128906
y: 377.43487548828125
z: -0.009285390377044678
visibility: 0.9999155402183533
","x: 256.1119689941406
y: 443.5421142578125
z: 0.013636594638228416
visibility: 0.9923615455627441
","x: 223.107177734375
y: 444.63983154296875
z: 0.004610758274793625
visibility: 0.9975637197494507
","x: 267.6975402832031
y: 508.8482971191406
z: 0.10539299249649048
visibility: 0.9950945973396301
","x: 212.28004455566406
y: 507.06488037109375
z: 0.13030944764614105
visibility: 0.9967411756515503
","x: 265.0803527832031
y: 518.51025390625
z: 0.10753393173217773
visibility: 0.9581650495529175
","x: 212.1361846923828
y: 516.3499145507812
z: 0.13647589087486267
visibility: 0.8994672298431396
","x: 276.5832824707031
y: 528.886474609375
z: -0.0048571377992630005
visibility: 0.9903940558433533
","x: 210.51226806640625
y: 527.015625
z: 0.026825979351997375
visibility: 0.9921592473983765
","x: 225.50851440429688
y: 353.84295654296875
z: 0.0
","x: 228.87918090820312
y: 352.78204345703125
z: 0.0005700737820006907
","x: 232.59190368652344
y: 354.15277099609375
z: -0.0002966773754451424
","x: 235.14779663085938
y: 356.59228515625
z: -0.001433984492905438
","x: 236.59593200683594
y: 358.9778137207031
z: -0.0023571110796183348
","x: 233.1373291015625
y: 354.9000244140625
z: -0.00413517327979207
","x: 237.1371612548828
y: 357.2140808105469
z: -0.006125067826360464
","x: 237.86669921875
y: 358.13385009765625
z: -0.005469581577926874
","x: 237.74136352539062
y: 358.1970520019531
z: -0.004465931560844183
","x: 232.07838439941406
y: 358.78460693359375
z: -0.005484920460730791
","x: 235.97430419921875
y: 363.5950927734375
z: -0.0072340453043580055
","x: 235.57652282714844
y: 363.7987060546875
z: -0.005304450634866953
","x: 234.42262268066406
y: 362.5352783203125
z: -0.0033431886695325375
","x: 230.6743621826172
y: 362.39501953125
z: -0.00674952007830143
","x: 233.88882446289062
y: 367.3652648925781
z: -0.008444859646260738
","x: 233.48687744140625
y: 366.7096252441406
z: -0.006223671138286591
","x: 232.501953125
y: 365.0987243652344
z: -0.0041538430377841
","x: 228.95399475097656
y: 365.5224304199219
z: -0.007982385344803333
","x: 231.23040771484375
y: 369.6278076171875
z: -0.009318878874182701
","x: 231.04931640625
y: 369.516357421875
z: -0.008211483247578144
","x: 230.3596954345703
y: 368.65399169921875
z: -0.006789593491703272
",4.9983954429626465,,,,,,,,,,,,,,,,,,,,,
16,"x: 243.53131103515625
y: 253.89871215820312
z: -0.24045641720294952
visibility: 0.9999908804893494
","x: 245.94667053222656
y: 248.99517822265625
z: -0.22549505531787872
visibility: 0.999972939491272
","x: 247.19444274902344
y: 249.39903259277344
z: -0.22550377249717712
visibility: 0.9999695420265198
","x: 248.46182250976562
y: 249.83656311035156
z: -0.22549328207969666
visibility: 0.9999651908874512
","x: 242.29620361328125
y: 248.20272827148438
z: -0.22862248122692108
visibility: 0.9999746680259705
","x: 241.0855255126953
y: 248.06622314453125
z: -0.22866252064704895
visibility: 0.9999750256538391
","x: 239.54925537109375
y: 248.00537109375
z: -0.22867076098918915
visibility: 0.9999731183052063
","x: 249.58863830566406
y: 254.05596923828125
z: -0.12401755154132843
visibility: 0.9998645782470703
","x: 236.46615600585938
y: 252.4820098876953
z: -0.13392361998558044
visibility: 0.9999545216560364
","x: 244.72425842285156
y: 262.08013916015625
z: -0.2014760971069336
visibility: 0.9999735951423645
","x: 240.36669921875
y: 261.24969482421875
z: -0.20560047030448914
visibility: 0.9999824166297913
","x: 258.84222412109375
y: 290.1950378417969
z: -0.04387509077787399
visibility: 0.9999585747718811
","x: 223.7459259033203
y: 288.033935546875
z: -0.0709545761346817
visibility: 0.9999686479568481
","x: 267.0607604980469
y: 325.59918212890625
z: -0.030463745817542076
visibility: 0.9782071113586426
","x: 213.86492919921875
y: 328.43914794921875
z: -0.036917440593242645
visibility: 0.9904352426528931
","x: 261.738525390625
y: 347.9077453613281
z: -0.21073397994041443
visibility: 0.9688873887062073
","x: 225.44314575195312
y: 351.4483337402344
z: -0.1079295426607132
visibility: 0.9667704701423645
","x: 259.83770751953125
y: 358.96826171875
z: -0.234279066324234
visibility: 0.9401211738586426
","x: 228.5304718017578
y: 360.5277099609375
z: -0.13306280970573425
visibility: 0.9297205209732056
","x: 258.6499328613281
y: 354.8677062988281
z: -0.24903616309165955
visibility: 0.9439144730567932
","x: 231.42196655273438
y: 356.31243896484375
z: -0.15003938972949982
visibility: 0.9305272102355957
","x: 258.5618896484375
y: 350.5802001953125
z: -0.21080510318279266
visibility: 0.9261741042137146
","x: 230.87890625
y: 352.9970703125
z: -0.11411875486373901
visibility: 0.908830463886261
","x: 251.56288146972656
y: 378.6285705566406
z: 0.008600190281867981
visibility: 0.9998658895492554
","x: 230.43002319335938
y: 377.860107421875
z: -0.008653884753584862
visibility: 0.9999014735221863
","x: 256.22515869140625
y: 444.03179931640625
z: 0.022703047841787338
visibility: 0.9928553104400635
","x: 223.48155212402344
y: 444.6863098144531
z: -0.0029440762009471655
visibility: 0.9976946115493774
","x: 267.8158874511719
y: 508.94525146484375
z: 0.13252753019332886
visibility: 0.9954116940498352
","x: 212.35231018066406
y: 506.99749755859375
z: 0.12147124856710434
visibility: 0.996922492980957
","x: 265.1519470214844
y: 518.521240234375
z: 0.13665007054805756
visibility: 0.9586174488067627
","x: 212.13961791992188
y: 516.2715454101562
z: 0.1282356083393097
visibility: 0.9039328694343567
","x: 276.62506103515625
y: 528.8828735351562
z: 0.027567852288484573
visibility: 0.9909093976020813
","x: 210.6226043701172
y: 527.0146484375
z: 0.019369665533304214
visibility: 0.9925599098205566
",,,,,,,,,,,,,,,,,,,,,,5.133631229400635,,,,,,,,,,,,,,,,,,,,,
17,"x: 243.53131103515625
y: 253.89871215820312
z: -0.24045641720294952
visibility: 0.9999908804893494
","x: 245.94667053222656
y: 248.99517822265625
z: -0.22549505531787872
visibility: 0.999972939491272
","x: 247.19444274902344
y: 249.39903259277344
z: -0.22550377249717712
visibility: 0.9999695420265198
","x: 248.46182250976562
y: 249.83656311035156
z: -0.22549328207969666
visibility: 0.9999651908874512
","x: 242.29620361328125
y: 248.20272827148438
z: -0.22862248122692108
visibility: 0.9999746680259705
","x: 241.0855255126953
y: 248.06622314453125
z: -0.22866252064704895
visibility: 0.9999750256538391
","x: 239.54925537109375
y: 248.00537109375
z: -0.22867076098918915
visibility: 0.9999731183052063
","x: 249.58863830566406
y: 254.05596923828125
z: -0.12401755154132843
visibility: 0.9998645782470703
","x: 236.46615600585938
y: 252.4820098876953
z: -0.13392361998558044
visibility: 0.9999545216560364
","x: 244.72425842285156
y: 262.08013916015625
z: -0.2014760971069336
visibility: 0.9999735951423645
","x: 240.36669921875
y: 261.24969482421875
z: -0.20560047030448914
visibility: 0.9999824166297913
","x: 258.84222412109375
y: 290.1950378417969
z: -0.04387509077787399
visibility: 0.9999585747718811
","x: 223.7459259033203
y: 288.033935546875
z: -0.0709545761346817
visibility: 0.9999686479568481
","x: 267.0607604980469
y: 325.59918212890625
z: -0.030463745817542076
visibility: 0.9782071113586426
","x: 213.86492919921875
y: 328.43914794921875
z: -0.036917440593242645
visibility: 0.9904352426528931
","x: 261.738525390625
y: 347.9077453613281
z: -0.21073397994041443
visibility: 0.9688873887062073
","x: 225.44314575195312
y: 351.4483337402344
z: -0.1079295426607132
visibility: 0.9667704701423645
","x: 259.83770751953125
y: 358.96826171875
z: -0.234279066324234
visibility: 0.9401211738586426
","x: 228.5304718017578
y: 360.5277099609375
z: -0.13306280970573425
visibility: 0.9297205209732056
","x: 258.6499328613281
y: 354.8677062988281
z: -0.24903616309165955
visibility: 0.9439144730567932
","x: 231.42196655273438
y: 356.31243896484375
z: -0.15003938972949982
visibility: 0.9305272102355957
","x: 258.5618896484375
y: 350.5802001953125
z: -0.21080510318279266
visibility: 0.9261741042137146
","x: 230.87890625
y: 352.9970703125
z: -0.11411875486373901
visibility: 0.908830463886261
","x: 251.56288146972656
y: 378.6285705566406
z: 0.008600190281867981
visibility: 0.9998658895492554
","x: 230.43002319335938
y: 377.860107421875
z: -0.008653884753584862
visibility: 0.9999014735221863
","x: 256.22515869140625
y: 444.03179931640625
z: 0.022703047841787338
visibility: 0.9928553104400635
","x: 223.48155212402344
y: 444.6863098144531
z: -0.0029440762009471655
visibility: 0.9976946115493774
","x: 267.8158874511719
y: 508.94525146484375
z: 0.13252753019332886
visibility: 0.9954116940498352
","x: 212.35231018066406
y: 506.99749755859375
z: 0.12147124856710434
visibility: 0.996922492980957
","x: 265.1519470214844
y: 518.521240234375
z: 0.13665007054805756
visibility: 0.9586174488067627
","x: 212.13961791992188
y: 516.2715454101562
z: 0.1282356083393097
visibility: 0.9039328694343567
","x: 276.62506103515625
y: 528.8828735351562
z: 0.027567852288484573
visibility: 0.9909093976020813
","x: 210.6226043701172
y: 527.0146484375
z: 0.019369665533304214
visibility: 0.9925599098205566
",,,,,,,,,,,,,,,,,,,,,,5.133631229400635,,,,,,,,,,,,,,,,,,,,,
18,"x: 243.950439453125
y: 250.70394897460938
z: -0.21030136942863464
visibility: 0.999991238117218
","x: 246.2034149169922
y: 247.01597595214844
z: -0.1949920654296875
visibility: 0.9999744892120361
","x: 247.4515380859375
y: 247.6209716796875
z: -0.1949978470802307
visibility: 0.9999709725379944
","x: 248.69976806640625
y: 248.1608428955078
z: -0.19500131905078888
visibility: 0.9999668002128601
","x: 242.56573486328125
y: 245.6630096435547
z: -0.1987456977367401
visibility: 0.999976396560669
","x: 241.33975219726562
y: 245.41912841796875
z: -0.19877411425113678
visibility: 0.9999766945838928
","x: 239.80201721191406
y: 245.27281188964844
z: -0.1987675279378891
visibility: 0.9999750852584839
","x: 250.12576293945312
y: 252.63124084472656
z: -0.09588195383548737
visibility: 0.9998721480369568
","x: 236.79922485351562
y: 250.20089721679688
z: -0.11352957785129547
visibility: 0.9999581575393677
","x: 245.33346557617188
y: 258.7850036621094
z: -0.17253141105175018
visibility: 0.9999747276306152
","x: 240.88433837890625
y: 257.6798095703125
z: -0.1779164969921112
visibility: 0.999983549118042
","x: 259.1427917480469
y: 287.0400390625
z: -0.02597149647772312
visibility: 0.999954104423523
","x: 224.14520263671875
y: 285.2738037109375
z: -0.04712950810790062
visibility: 0.9999699592590332
","x: 266.0567321777344
y: 322.75274658203125
z: -0.01714877411723137
visibility: 0.9668433666229248
","x: 210.189697265625
y: 317.81365966796875
z: -0.0305517315864563
visibility: 0.9904548525810242
","x: 262.98651123046875
y: 335.4685974121094
z: -0.17511098086833954
visibility: 0.9583974480628967
","x: 219.50738525390625
y: 332.888427734375
z: -0.10972738265991211
visibility: 0.9668317437171936
","x: 261.42071533203125
y: 341.0379638671875
z: -0.20185747742652893
visibility: 0.9280955791473389
","x: 223.79136657714844
y: 339.6370849609375
z: -0.13340440392494202
visibility: 0.9295113682746887
","x: 259.0903625488281
y: 336.6409912109375
z: -0.21855966746807098
visibility: 0.9327826499938965
","x: 226.1822052001953
y: 335.97222900390625
z: -0.14769050478935242
visibility: 0.9304695725440979
","x: 259.1078796386719
y: 334.40594482421875
z: -0.18303006887435913
visibility: 0.9115670919418335
","x: 224.77801513671875
y: 332.98284912109375
z: -0.11565040051937103
visibility: 0.9086576700210571
","x: 252.6976776123047
y: 377.3101501464844
z: 0.0064274705946445465
visibility: 0.9998573064804077
","x: 230.79383850097656
y: 377.4603271484375
z: -0.0064775375649333
visibility: 0.9999000430107117
","x: 258.3473815917969
y: 444.33587646484375
z: 0.025586212053894997
visibility: 0.9933732151985168
","x: 223.68728637695312
y: 444.593994140625
z: -0.005866633262485266
visibility: 0.9978136420249939
","x: 268.7586975097656
y: 508.9273376464844
z: 0.1443152129650116
visibility: 0.9957095980644226
","x: 212.38253784179688
y: 506.4932861328125
z: 0.10599327087402344
visibility: 0.9971085786819458
","x: 266.2456970214844
y: 517.8758544921875
z: 0.1475284844636917
visibility: 0.95862877368927
","x: 212.27256774902344
y: 515.93408203125
z: 0.11100387573242188
visibility: 0.908830463886261
","x: 277.0207824707031
y: 529.3414916992188
z: 0.044122111052274704
visibility: 0.9914470911026001
","x: 210.1706085205078
y: 527.1276245117188
z: 0.004625330679118633
visibility: 0.9929993748664856
",,,,,,,,,,,,,,,,,,,,,,5.293954372406006,,,,,,,,,,,,,,,,,,,,,
19,"x: 243.950439453125
y: 250.70394897460938
z: -0.21030136942863464
visibility: 0.999991238117218
","x: 246.2034149169922
y: 247.01597595214844
z: -0.1949920654296875
visibility: 0.9999744892120361
","x: 247.4515380859375
y: 247.6209716796875
z: -0.1949978470802307
visibility: 0.9999709725379944
","x: 248.69976806640625
y: 248.1608428955078
z: -0.19500131905078888
visibility: 0.9999668002128601
","x: 242.56573486328125
y: 245.6630096435547
z: -0.1987456977367401
visibility: 0.999976396560669
","x: 241.33975219726562
y: 245.41912841796875
z: -0.19877411425113678
visibility: 0.9999766945838928
","x: 239.80201721191406
y: 245.27281188964844
z: -0.1987675279378891
visibility: 0.9999750852584839
","x: 250.12576293945312
y: 252.63124084472656
z: -0.09588195383548737
visibility: 0.9998721480369568
","x: 236.79922485351562
y: 250.20089721679688
z: -0.11352957785129547
visibility: 0.9999581575393677
","x: 245.33346557617188
y: 258.7850036621094
z: -0.17253141105175018
visibility: 0.9999747276306152
","x: 240.88433837890625
y: 257.6798095703125
z: -0.1779164969921112
visibility: 0.999983549118042
","x: 259.1427917480469
y: 287.0400390625
z: -0.02597149647772312
visibility: 0.999954104423523
","x: 224.14520263671875
y: 285.2738037109375
z: -0.04712950810790062
visibility: 0.9999699592590332
","x: 266.0567321777344
y: 322.75274658203125
z: -0.01714877411723137
visibility: 0.9668433666229248
","x: 210.189697265625
y: 317.81365966796875
z: -0.0305517315864563
visibility: 0.9904548525810242
","x: 262.98651123046875
y: 335.4685974121094
z: -0.17511098086833954
visibility: 0.9583974480628967
","x: 219.50738525390625
y: 332.888427734375
z: -0.10972738265991211
visibility: 0.9668317437171936
","x: 261.42071533203125
y: 341.0379638671875
z: -0.20185747742652893
visibility: 0.9280955791473389
","x: 223.79136657714844
y: 339.6370849609375
z: -0.13340440392494202
visibility: 0.9295113682746887
","x: 259.0903625488281
y: 336.6409912109375
z: -0.21855966746807098
visibility: 0.9327826499938965
","x: 226.1822052001953
y: 335.97222900390625
z: -0.14769050478935242
visibility: 0.9304695725440979
","x: 259.1078796386719
y: 334.40594482421875
z: -0.18303006887435913
visibility: 0.9115670919418335
","x: 224.77801513671875
y: 332.98284912109375
z: -0.11565040051937103
visibility: 0.9086576700210571
","x: 252.6976776123047
y: 377.3101501464844
z: 0.0064274705946445465
visibility: 0.9998573064804077
","x: 230.79383850097656
y: 377.4603271484375
z: -0.0064775375649333
visibility: 0.9999000430107117
","x: 258.3473815917969
y: 444.33587646484375
z: 0.025586212053894997
visibility: 0.9933732151985168
","x: 223.68728637695312
y: 444.593994140625
z: -0.005866633262485266
visibility: 0.9978136420249939
","x: 268.7586975097656
y: 508.9273376464844
z: 0.1443152129650116
visibility: 0.9957095980644226
","x: 212.38253784179688
y: 506.4932861328125
z: 0.10599327087402344
visibility: 0.9971085786819458
","x: 266.2456970214844
y: 517.8758544921875
z: 0.1475284844636917
visibility: 0.95862877368927
","x: 212.27256774902344
y: 515.93408203125
z: 0.11100387573242188
visibility: 0.908830463886261
","x: 277.0207824707031
y: 529.3414916992188
z: 0.044122111052274704
visibility: 0.9914470911026001
","x: 210.1706085205078
y: 527.1276245117188
z: 0.004625330679118633
visibility: 0.9929993748664856
",,,,,,,,,,,,,,,,,,,,,,5.293954372406006,,,,,,,,,,,,,,,,,,,,,
20,"x: 244.29637145996094
y: 247.6982879638672
z: -0.17689377069473267
visibility: 0.999991774559021
","x: 246.37979125976562
y: 243.27728271484375
z: -0.15876810252666473
visibility: 0.9999765157699585
","x: 247.59207153320312
y: 243.8129425048828
z: -0.1587597280740738
visibility: 0.9999731183052063
","x: 248.73080444335938
y: 244.3470458984375
z: -0.15875832736492157
visibility: 0.9999693036079407
","x: 242.7869873046875
y: 242.1908416748047
z: -0.16213159263134003
visibility: 0.999978244304657
","x: 241.53164672851562
y: 241.96946716308594
z: -0.1621454358100891
visibility: 0.9999785423278809
","x: 239.99659729003906
y: 241.84996032714844
z: -0.16211465001106262
visibility: 0.999977171421051
","x: 250.38136291503906
y: 248.804443359375
z: -0.05159194394946098
visibility: 0.9998829364776611
","x: 236.98875427246094
y: 246.01589965820312
z: -0.06876098364591599
visibility: 0.9999619722366333
","x: 245.82333374023438
y: 255.66880798339844
z: -0.1368303894996643
visibility: 0.9999768137931824
","x: 241.3076629638672
y: 254.68975830078125
z: -0.1420423686504364
visibility: 0.9999850392341614
","x: 259.0272521972656
y: 281.96954345703125
z: 0.007344057317823172
visibility: 0.999956488609314
","x: 224.47251892089844
y: 278.9056701660156
z: -0.014845920726656914
visibility: 0.999971330165863
","x: 266.4090270996094
y: 310.5576477050781
z: -0.07483372092247009
visibility: 0.9683656692504883
","x: 205.94642639160156
y: 308.38232421875
z: -0.08450416475534439
visibility: 0.9912260174751282
","x: 264.1290588378906
y: 316.7415466308594
z: -0.2853468358516693
visibility: 0.9611499309539795
","x: 221.5253143310547
y: 318.0373229980469
z: -0.25258010625839233
visibility: 0.9695003628730774
","x: 262.1657409667969
y: 323.00433349609375
z: -0.3310782313346863
visibility: 0.932276725769043
","x: 225.65103149414062
y: 324.4285888671875
z: -0.29100683331489563
visibility: 0.9345151782035828
","x: 260.2070007324219
y: 319.152587890625
z: -0.33521395921707153
visibility: 0.936562716960907
","x: 228.21823120117188
y: 320.2590637207031
z: -0.28813445568084717
visibility: 0.9353055953979492
","x: 259.8631286621094
y: 317.4195251464844
z: -0.2919198274612427
visibility: 0.9156715273857117
","x: 227.3939208984375
y: 318.1339111328125
z: -0.2531648278236389
visibility: 0.9144998788833618
","x: 253.3998260498047
y: 372.9130554199219
z: 0.005614011082798243
visibility: 0.9998629689216614
","x: 231.79034423828125
y: 373.596923828125
z: -0.005676587577909231
visibility: 0.999901533126831
","x: 261.970458984375
y: 443.4017333984375
z: -0.0010346467606723309
visibility: 0.9937915205955505
","x: 224.18789672851562
y: 441.27935791015625
z: -0.022534234449267387
visibility: 0.9978100061416626
","x: 272.4268798828125
y: 506.4936828613281
z: 0.14128699898719788
visibility: 0.9958345293998718
","x: 211.55270385742188
y: 504.1430969238281
z: 0.09868530184030533
visibility: 0.9971073865890503
","x: 270.1173400878906
y: 515.2529296875
z: 0.1486571878194809
visibility: 0.9533736705780029
