uscmakers/ReverseChoreography/data/10_face_to_face_rex_orange_county.csv
,NOSE,LEFT_EYE_INNER,LEFT_EYE,LEFT_EYE_OUTER,RIGHT_EYE_INNER,RIGHT_EYE,RIGHT_EYE_OUTER,LEFT_EAR,RIGHT_EAR,MOUTH_LEFT,MOUTH_RIGHT,LEFT_SHOULDER,RIGHT_SHOULDER,LEFT_ELBOW,RIGHT_ELBOW,LEFT_WRIST,RIGHT_WRIST,LEFT_PINKY,RIGHT_PINKY,LEFT_INDEX,RIGHT_INDEX,LEFT_THUMB,RIGHT_THUMB,LEFT_HIP,RIGHT_HIP,LEFT_KNEE,RIGHT_KNEE,LEFT_ANKLE,RIGHT_ANKLE,LEFT_HEEL,RIGHT_HEEL,LEFT_FOOT_INDEX,RIGHT_FOOT_INDEX,WRIST,THUMB_CPC,THUMB_MCP,THUMB_IP,THUMB_TIP,INDEX_FINGER_MCP,INDEX_FINGER_PIP,INDEX_FINGER_DIP,INDEX_FINGER_TIP,MIDDLE_FINGER_MCP,MIDDLE_FINGER_PIP,MIDDLE_FINGER_DIP,MIDDLE_FINGER_TIP,RING_FINGER_PIP,RING_FINGER_DIP,RING_FINGER_TIP,RING_FINGER_MCP,PINKY_MCP,PINKY_PIP,PINKY_DIP,PINKY_TIP,TIMESTAMP,WRIST2,THUMB_CPC2,THUMB_MCP2,THUMB_IP2,THUMB_TIP2,INDEX_FINGER_MCP2,INDEX_FINGER_PIP2,INDEX_FINGER_DIP2,INDEX_FINGER_TIP2,MIDDLE_FINGER_MCP2,MIDDLE_FINGER_PIP2,MIDDLE_FINGER_DIP2,MIDDLE_FINGER_TIP2,RING_FINGER_PIP2,RING_FINGER_DIP2,RING_FINGER_TIP2,RING_FINGER_MCP2,PINKY_MCP2,PINKY_PIP2,PINKY_DIP2,PINKY_TIP2
0,"x: 288.23162841796875
y: 253.13833618164062
z: -0.189707413315773
visibility: 0.9999048709869385
","x: 289.6223449707031
y: 249.2149200439453
z: -0.17427322268486023
visibility: 0.9997592568397522
","x: 290.63946533203125
y: 249.5228729248047
z: -0.1742773950099945
visibility: 0.9997482895851135
","x: 291.6953430175781
y: 249.90567016601562
z: -0.17427095770835876
visibility: 0.9997405409812927
","x: 286.6894226074219
y: 248.95663452148438
z: -0.17562121152877808
visibility: 0.9997785687446594
","x: 285.5487976074219
y: 249.060791015625
z: -0.1756390482187271
visibility: 0.9997794032096863
","x: 284.333251953125
y: 249.2168426513672
z: -0.17564356327056885
visibility: 0.9997805953025818
","x: 293.1692199707031
y: 254.14048767089844
z: -0.08791021257638931
visibility: 0.9994495511054993
","x: 281.7559509277344
y: 252.9199981689453
z: -0.09431787580251694
visibility: 0.9995703101158142
","x: 289.5723571777344
y: 261.2283020019531
z: -0.15799309313297272
visibility: 0.9998985528945923
","x: 286.03387451171875
y: 260.07281494140625
z: -0.15993817150592804
visibility: 0.9999220371246338
","x: 302.0386962890625
y: 287.1994934082031
z: -0.04710569977760315
visibility: 0.9999277591705322
","x: 271.69842529296875
y: 287.347900390625
z: -0.04971943795681
visibility: 0.9997590184211731
","x: 311.1846923828125
y: 318.43115234375
z: -0.07949695736169815
visibility: 0.9816992282867432
","x: 263.28521728515625
y: 324.5882568359375
z: -0.10093982517719269
visibility: 0.9887197613716125
","x: 307.6951904296875
y: 340.8294982910156
z: -0.2135981023311615
visibility: 0.971074104309082
","x: 278.4368896484375
y: 336.37103271484375
z: -0.2296495884656906
visibility: 0.9790433645248413
","x: 305.54779052734375
y: 351.6658935546875
z: -0.2511105537414551
visibility: 0.9463706612586975
","x: 282.1853942871094
y: 343.681884765625
z: -0.2650059759616852
visibility: 0.9594542980194092
","x: 303.6873779296875
y: 347.65301513671875
z: -0.2667112946510315
visibility: 0.9479843974113464
","x: 285.64373779296875
y: 340.17486572265625
z: -0.2711794972419739
visibility: 0.9587588906288147
","x: 303.5199279785156
y: 344.69805908203125
z: -0.22258524596691132
visibility: 0.9268333315849304
","x: 285.102294921875
y: 337.6347351074219
z: -0.2340817004442215
visibility: 0.9377399682998657
","x: 297.8381652832031
y: 366.6005859375
z: -0.0008993077790364623
visibility: 0.9997238516807556
","x: 278.4829406738281
y: 368.4132080078125
z: 0.0009187619434669614
visibility: 0.9994922876358032
","x: 298.5331726074219
y: 429.40301513671875
z: -0.07975686341524124
visibility: 0.9972328543663025
","x: 280.6711120605469
y: 433.2767028808594
z: 0.009887941181659698
visibility: 0.9919290542602539
","x: 302.74285888671875
y: 485.7994079589844
z: 0.011267632246017456
visibility: 0.9949069619178772
","x: 279.6552429199219
y: 482.9071044921875
z: 0.1372179090976715
visibility: 0.9868680238723755
","x: 301.59222412109375
y: 492.1821594238281
z: 0.014449733309447765
visibility: 0.9130951762199402
","x: 280.45001220703125
y: 489.4896240234375
z: 0.144113689661026
visibility: 0.8144923448562622
","x: 303.4992370605469
y: 509.31072998046875
z: -0.09483684599399567
visibility: 0.9909120798110962
","x: 279.2586669921875
y: 504.6591796875
z: 0.04902730509638786
visibility: 0.9778152704238892
","x: 277.5397033691406
y: 333.30419921875
z: 0.0
","x: 280.5822448730469
y: 332.4351501464844
z: -0.0009151687263511121
","x: 283.1391906738281
y: 332.41162109375
z: -0.0026525030843913555
","x: 284.618408203125
y: 331.4732360839844
z: -0.004755914211273193
","x: 285.4441833496094
y: 329.9468994140625
z: -0.0068765017203986645
","x: 285.41497802734375
y: 341.16778564453125
z: -0.0017244690097868443
","x: 288.080810546875
y: 345.98095703125
z: -0.0037736136000603437
","x: 289.38885498046875
y: 349.1394348144531
z: -0.005190910305827856
","x: 290.29254150390625
y: 351.7659912109375
z: -0.006068259011954069
","x: 283.99566650390625
y: 343.7845458984375
z: -0.0029082833789288998
","x: 286.558349609375
y: 349.32708740234375
z: -0.0045586079359054565
","x: 287.7466125488281
y: 352.8463439941406
z: -0.005546113476157188
","x: 288.6185302734375
y: 355.47906494140625
z: -0.00631213653832674
","x: 282.15087890625
y: 345.57012939453125
z: -0.0042565371841192245
","x: 284.0721130371094
y: 350.8218078613281
z: -0.006070417817682028
","x: 285.0360412597656
y: 353.80084228515625
z: -0.006889300886541605
","x: 285.71331787109375
y: 355.7635498046875
z: -0.007358180359005928
","x: 280.12322998046875
y: 346.49603271484375
z: -0.0057979365810751915
","x: 281.1075134277344
y: 350.8711242675781
z: -0.0073103210888803005
","x: 281.7155456542969
y: 353.39569091796875
z: -0.007833740673959255
","x: 282.2098388671875
y: 355.1063537597656
z: -0.008127649314701557
",3.800227165222168,,,,,,,,,,,,,,,,,,,,,
1,"x: 288.23162841796875
y: 253.13833618164062
z: -0.189707413315773
visibility: 0.9999048709869385
","x: 289.6223449707031
y: 249.2149200439453
z: -0.17427322268486023
visibility: 0.9997592568397522
","x: 290.63946533203125
y: 249.5228729248047
z: -0.1742773950099945
visibility: 0.9997482895851135
","x: 291.6953430175781
y: 249.90567016601562
z: -0.17427095770835876
visibility: 0.9997405409812927
","x: 286.6894226074219
y: 248.95663452148438
z: -0.17562121152877808
visibility: 0.9997785687446594
","x: 285.5487976074219
y: 249.060791015625
z: -0.1756390482187271
visibility: 0.9997794032096863
","x: 284.333251953125
y: 249.2168426513672
z: -0.17564356327056885
visibility: 0.9997805953025818
","x: 293.1692199707031
y: 254.14048767089844
z: -0.08791021257638931
visibility: 0.9994495511054993
","x: 281.7559509277344
y: 252.9199981689453
z: -0.09431787580251694
visibility: 0.9995703101158142
","x: 289.5723571777344
y: 261.2283020019531
z: -0.15799309313297272
visibility: 0.9998985528945923
","x: 286.03387451171875
y: 260.07281494140625
z: -0.15993817150592804
visibility: 0.9999220371246338
","x: 302.0386962890625
y: 287.1994934082031
z: -0.04710569977760315
visibility: 0.9999277591705322
","x: 271.69842529296875
y: 287.347900390625
z: -0.04971943795681
visibility: 0.9997590184211731
","x: 311.1846923828125
y: 318.43115234375
z: -0.07949695736169815
visibility: 0.9816992282867432
","x: 263.28521728515625
y: 324.5882568359375
z: -0.10093982517719269
visibility: 0.9887197613716125
","x: 307.6951904296875
y: 340.8294982910156
z: -0.2135981023311615
visibility: 0.971074104309082
","x: 278.4368896484375
y: 336.37103271484375
z: -0.2296495884656906
visibility: 0.9790433645248413
","x: 305.54779052734375
y: 351.6658935546875
z: -0.2511105537414551
visibility: 0.9463706612586975
","x: 282.1853942871094
y: 343.681884765625
z: -0.2650059759616852
visibility: 0.9594542980194092
","x: 303.6873779296875
y: 347.65301513671875
z: -0.2667112946510315
visibility: 0.9479843974113464
","x: 285.64373779296875
y: 340.17486572265625
z: -0.2711794972419739
visibility: 0.9587588906288147
","x: 303.5199279785156
y: 344.69805908203125
z: -0.22258524596691132
visibility: 0.9268333315849304
","x: 285.102294921875
y: 337.6347351074219
z: -0.2340817004442215
visibility: 0.9377399682998657
","x: 297.8381652832031
y: 366.6005859375
z: -0.0008993077790364623
visibility: 0.9997238516807556
","x: 278.4829406738281
y: 368.4132080078125
z: 0.0009187619434669614
visibility: 0.9994922876358032
","x: 298.5331726074219
y: 429.40301513671875
z: -0.07975686341524124
visibility: 0.9972328543663025
","x: 280.6711120605469
y: 433.2767028808594
z: 0.009887941181659698
visibility: 0.9919290542602539
","x: 302.74285888671875
y: 485.7994079589844
z: 0.011267632246017456
visibility: 0.9949069619178772
","x: 279.6552429199219
y: 482.9071044921875
z: 0.1372179090976715
visibility: 0.9868680238723755
","x: 301.59222412109375
y: 492.1821594238281
z: 0.014449733309447765
visibility: 0.9130951762199402
","x: 280.45001220703125
y: 489.4896240234375
z: 0.144113689661026
visibility: 0.8144923448562622
","x: 303.4992370605469
y: 509.31072998046875
z: -0.09483684599399567
visibility: 0.9909120798110962
","x: 279.2586669921875
y: 504.6591796875
z: 0.04902730509638786
visibility: 0.9778152704238892
","x: 277.5397033691406
y: 333.30419921875
z: 0.0
","x: 280.5822448730469
y: 332.4351501464844
z: -0.0009151687263511121
","x: 283.1391906738281
y: 332.41162109375
z: -0.0026525030843913555
","x: 284.618408203125
y: 331.4732360839844
z: -0.004755914211273193
","x: 285.4441833496094
y: 329.9468994140625
z: -0.0068765017203986645
","x: 285.41497802734375
y: 341.16778564453125
z: -0.0017244690097868443
","x: 288.080810546875
y: 345.98095703125
z: -0.0037736136000603437
","x: 289.38885498046875
y: 349.1394348144531
z: -0.005190910305827856
","x: 290.29254150390625
y: 351.7659912109375
z: -0.006068259011954069
","x: 283.99566650390625
y: 343.7845458984375
z: -0.0029082833789288998
","x: 286.558349609375
y: 349.32708740234375
z: -0.0045586079359054565
","x: 287.7466125488281
y: 352.8463439941406
z: -0.005546113476157188
","x: 288.6185302734375
y: 355.47906494140625
z: -0.00631213653832674
","x: 282.15087890625
y: 345.57012939453125
z: -0.0042565371841192245
","x: 284.0721130371094
y: 350.8218078613281
z: -0.006070417817682028
","x: 285.0360412597656
y: 353.80084228515625
z: -0.006889300886541605
","x: 285.71331787109375
y: 355.7635498046875
z: -0.007358180359005928
","x: 280.12322998046875
y: 346.49603271484375
z: -0.0057979365810751915
","x: 281.1075134277344
y: 350.8711242675781
z: -0.0073103210888803005
","x: 281.7155456542969
y: 353.39569091796875
z: -0.007833740673959255
","x: 282.2098388671875
y: 355.1063537597656
z: -0.008127649314701557
",3.800227165222168,,,,,,,,,,,,,,,,,,,,,
2,"x: 288.23162841796875
y: 253.13833618164062
z: -0.189707413315773
visibility: 0.9999048709869385
","x: 289.6223449707031
y: 249.2149200439453
z: -0.17427322268486023
visibility: 0.9997592568397522
","x: 290.63946533203125
y: 249.5228729248047
z: -0.1742773950099945
visibility: 0.9997482895851135
","x: 291.6953430175781
y: 249.90567016601562
z: -0.17427095770835876
visibility: 0.9997405409812927
","x: 286.6894226074219
y: 248.95663452148438
z: -0.17562121152877808
visibility: 0.9997785687446594
","x: 285.5487976074219
y: 249.060791015625
z: -0.1756390482187271
visibility: 0.9997794032096863
","x: 284.333251953125
y: 249.2168426513672
z: -0.17564356327056885
visibility: 0.9997805953025818
","x: 293.1692199707031
y: 254.14048767089844
z: -0.08791021257638931
visibility: 0.9994495511054993
","x: 281.7559509277344
y: 252.9199981689453
z: -0.09431787580251694
visibility: 0.9995703101158142
","x: 289.5723571777344
y: 261.2283020019531
z: -0.15799309313297272
visibility: 0.9998985528945923
","x: 286.03387451171875
y: 260.07281494140625
z: -0.15993817150592804
visibility: 0.9999220371246338
","x: 302.0386962890625
y: 287.1994934082031
z: -0.04710569977760315
visibility: 0.9999277591705322
","x: 271.69842529296875
y: 287.347900390625
z: -0.04971943795681
visibility: 0.9997590184211731
","x: 311.1846923828125
y: 318.43115234375
z: -0.07949695736169815
visibility: 0.9816992282867432
","x: 263.28521728515625
y: 324.5882568359375
z: -0.10093982517719269
visibility: 0.9887197613716125
","x: 307.6951904296875
y: 340.8294982910156
z: -0.2135981023311615
visibility: 0.971074104309082
","x: 278.4368896484375
y: 336.37103271484375
z: -0.2296495884656906
visibility: 0.9790433645248413
","x: 305.54779052734375
y: 351.6658935546875
z: -0.2511105537414551
visibility: 0.9463706612586975
","x: 282.1853942871094
y: 343.681884765625
z: -0.2650059759616852
visibility: 0.9594542980194092
","x: 303.6873779296875
y: 347.65301513671875
z: -0.2667112946510315
visibility: 0.9479843974113464
","x: 285.64373779296875
y: 340.17486572265625
z: -0.2711794972419739
visibility: 0.9587588906288147
","x: 303.5199279785156
y: 344.69805908203125
z: -0.22258524596691132
visibility: 0.9268333315849304
","x: 285.102294921875
y: 337.6347351074219
z: -0.2340817004442215
visibility: 0.9377399682998657
","x: 297.8381652832031
y: 366.6005859375
z: -0.0008993077790364623
visibility: 0.9997238516807556
","x: 278.4829406738281
y: 368.4132080078125
z: 0.0009187619434669614
visibility: 0.9994922876358032
","x: 298.5331726074219
y: 429.40301513671875
z: -0.07975686341524124
visibility: 0.9972328543663025
","x: 280.6711120605469
y: 433.2767028808594
z: 0.009887941181659698
visibility: 0.9919290542602539
","x: 302.74285888671875
y: 485.7994079589844
z: 0.011267632246017456
visibility: 0.9949069619178772
","x: 279.6552429199219
y: 482.9071044921875
z: 0.1372179090976715
visibility: 0.9868680238723755
","x: 301.59222412109375
y: 492.1821594238281
z: 0.014449733309447765
visibility: 0.9130951762199402
","x: 280.45001220703125
y: 489.4896240234375
z: 0.144113689661026
visibility: 0.8144923448562622
","x: 303.4992370605469
y: 509.31072998046875
z: -0.09483684599399567
visibility: 0.9909120798110962
","x: 279.2586669921875
y: 504.6591796875
z: 0.04902730509638786
visibility: 0.9778152704238892
","x: 277.5397033691406
y: 333.30419921875
z: 0.0
","x: 280.5822448730469
y: 332.4351501464844
z: -0.0009151687263511121
","x: 283.1391906738281
y: 332.41162109375
z: -0.0026525030843913555
","x: 284.618408203125
y: 331.4732360839844
z: -0.004755914211273193
","x: 285.4441833496094
y: 329.9468994140625
z: -0.0068765017203986645
","x: 285.41497802734375
y: 341.16778564453125
z: -0.0017244690097868443
","x: 288.080810546875
y: 345.98095703125
z: -0.0037736136000603437
","x: 289.38885498046875
y: 349.1394348144531
z: -0.005190910305827856
","x: 290.29254150390625
y: 351.7659912109375
z: -0.006068259011954069
","x: 283.99566650390625
y: 343.7845458984375
z: -0.0029082833789288998
","x: 286.558349609375
y: 349.32708740234375
z: -0.0045586079359054565
","x: 287.7466125488281
y: 352.8463439941406
z: -0.005546113476157188
","x: 288.6185302734375
y: 355.47906494140625
z: -0.00631213653832674
","x: 282.15087890625
y: 345.57012939453125
z: -0.0042565371841192245
","x: 284.0721130371094
y: 350.8218078613281
z: -0.006070417817682028
","x: 285.0360412597656
y: 353.80084228515625
z: -0.006889300886541605
","x: 285.71331787109375
y: 355.7635498046875
z: -0.007358180359005928
","x: 280.12322998046875
y: 346.49603271484375
z: -0.0057979365810751915
","x: 281.1075134277344
y: 350.8711242675781
z: -0.0073103210888803005
","x: 281.7155456542969
y: 353.39569091796875
z: -0.007833740673959255
","x: 282.2098388671875
y: 355.1063537597656
z: -0.008127649314701557
",3.800227165222168,,,,,,,,,,,,,,,,,,,,,
3,"x: 292.4127197265625
y: 248.20855712890625
z: -0.23750074207782745
visibility: 0.9998562932014465
","x: 293.44189453125
y: 244.01266479492188
z: -0.2218591868877411
visibility: 0.9996499419212341
","x: 294.4080810546875
y: 244.31817626953125
z: -0.22187642753124237
visibility: 0.9996355175971985
","x: 295.3771057128906
y: 244.6849365234375
z: -0.2219124138355255
visibility: 0.999613344669342
","x: 290.24365234375
y: 244.26168823242188
z: -0.224603533744812
visibility: 0.9996802806854248
","x: 288.9380187988281
y: 244.7100830078125
z: -0.2246464192867279
visibility: 0.9996963739395142
","x: 287.50323486328125
y: 245.21823120117188
z: -0.22468844056129456
visibility: 0.9997128844261169
","x: 296.47894287109375
y: 249.5121612548828
z: -0.12741875648498535
visibility: 0.9992949366569519
","x: 284.8133544921875
y: 249.61595153808594
z: -0.1389128863811493
visibility: 0.9995124340057373
","x: 294.048828125
y: 255.4503173828125
z: -0.2016088217496872
visibility: 0.999881386756897
","x: 290.13037109375
y: 255.60733032226562
z: -0.20513668656349182
visibility: 0.9999107718467712
","x: 305.8813171386719
y: 280.926025390625
z: -0.07617160677909851
visibility: 0.9999170899391174
","x: 274.3153991699219
y: 282.8399963378906
z: -0.0842059925198555
visibility: 0.9997599124908447
","x: 314.42626953125
y: 317.613525390625
z: -0.14157512784004211
visibility: 0.9809324145317078
","x: 267.0067138671875
y: 323.776123046875
z: -0.14252212643623352
visibility: 0.9890246987342834
","x: 306.3070068359375
y: 332.04742431640625
z: -0.30266016721725464
visibility: 0.9671159386634827
","x: 286.9384460449219
y: 325.27838134765625
z: -0.27671054005622864
visibility: 0.9794846177101135
","x: 303.0294494628906
y: 338.0376892089844
z: -0.3442786931991577
visibility: 0.9406301975250244
","x: 292.02239990234375
y: 329.96649169921875
z: -0.31484416127204895
visibility: 0.9602582454681396
","x: 301.7895812988281
y: 331.25634765625
z: -0.3497524559497833
visibility: 0.941835343837738
","x: 293.174072265625
y: 323.9610290527344
z: -0.3165561854839325
visibility: 0.9594509601593018
","x: 302.3996276855469
y: 328.7008056640625
z: -0.3085556924343109
visibility: 0.9186742901802063
","x: 291.9457092285156
y: 321.7007751464844
z: -0.279572457075119
visibility: 0.9381163716316223
","x: 301.5629577636719
y: 362.61865234375
z: -0.0024518354330211878
visibility: 0.9997021555900574
","x: 281.07171630859375
y: 366.4552307128906
z: 0.002432008506730199
visibility: 0.9994867444038391
","x: 299.2583923339844
y: 427.70709228515625
z: -0.033069126307964325
visibility: 0.9970452785491943
","x: 285.6099548339844
y: 432.53955078125
z: 0.004088555462658405
visibility: 0.9916775226593018
","x: 301.4729919433594
y: 482.2934265136719
z: 0.1530017852783203
visibility: 0.9946476817131042
","x: 289.1376647949219
y: 482.90057373046875
z: 0.16991344094276428
visibility: 0.9868300557136536
","x: 300.6456298828125
y: 486.7955322265625
z: 0.16658896207809448
visibility: 0.9057379364967346
","x: 290.4560241699219
y: 488.52825927734375
z: 0.1819716989994049
visibility: 0.8146733045578003
","x: 300.36822509765625
y: 508.2361145019531
z: 0.06688930094242096
visibility: 0.9905110597610474
","x: 288.0286865234375
y: 507.0445556640625
z: 0.0848253071308136
visibility: 0.9780356287956238
",,,,,,,,,,,,,,,,,,,,,,4.410473346710205,,,,,,,,,,,,,,,,,,,,,
4,"x: 292.4127197265625
y: 248.20855712890625
z: -0.23750074207782745
visibility: 0.9998562932014465
","x: 293.44189453125
y: 244.01266479492188
z: -0.2218591868877411
visibility: 0.9996499419212341
","x: 294.4080810546875
y: 244.31817626953125
z: -0.22187642753124237
visibility: 0.9996355175971985
","x: 295.3771057128906
y: 244.6849365234375
z: -0.2219124138355255
visibility: 0.999613344669342
","x: 290.24365234375
y: 244.26168823242188
z: -0.224603533744812
visibility: 0.9996802806854248
","x: 288.9380187988281
y: 244.7100830078125
z: -0.2246464192867279
visibility: 0.9996963739395142
","x: 287.50323486328125
y: 245.21823120117188
z: -0.22468844056129456
visibility: 0.9997128844261169
","x: 296.47894287109375
y: 249.5121612548828
z: -0.12741875648498535
visibility: 0.9992949366569519
","x: 284.8133544921875
y: 249.61595153808594
z: -0.1389128863811493
visibility: 0.9995124340057373
","x: 294.048828125
y: 255.4503173828125
z: -0.2016088217496872
visibility: 0.999881386756897
","x: 290.13037109375
y: 255.60733032226562
z: -0.20513668656349182
visibility: 0.9999107718467712
","x: 305.8813171386719
y: 280.926025390625
z: -0.07617160677909851
visibility: 0.9999170899391174
","x: 274.3153991699219
y: 282.8399963378906
z: -0.0842059925198555
visibility: 0.9997599124908447
","x: 314.42626953125
y: 317.613525390625
z: -0.14157512784004211
visibility: 0.9809324145317078
","x: 267.0067138671875
y: 323.776123046875
z: -0.14252212643623352
visibility: 0.9890246987342834
","x: 306.3070068359375
y: 332.04742431640625
z: -0.30266016721725464
visibility: 0.9671159386634827
","x: 286.9384460449219
y: 325.27838134765625
z: -0.27671054005622864
visibility: 0.9794846177101135
","x: 303.0294494628906
y: 338.0376892089844
z: -0.3442786931991577
visibility: 0.9406301975250244
","x: 292.02239990234375
y: 329.96649169921875
z: -0.31484416127204895
visibility: 0.9602582454681396
","x: 301.7895812988281
y: 331.25634765625
z: -0.3497524559497833
visibility: 0.941835343837738
","x: 293.174072265625
y: 323.9610290527344
z: -0.3165561854839325
visibility: 0.9594509601593018
","x: 302.3996276855469
y: 328.7008056640625
z: -0.3085556924343109
visibility: 0.9186742901802063
","x: 291.9457092285156
y: 321.7007751464844
z: -0.279572457075119
visibility: 0.9381163716316223
","x: 301.5629577636719
y: 362.61865234375
z: -0.0024518354330211878
visibility: 0.9997021555900574
","x: 281.07171630859375
y: 366.4552307128906
z: 0.002432008506730199
visibility: 0.9994867444038391
","x: 299.2583923339844
y: 427.70709228515625
z: -0.033069126307964325
visibility: 0.9970452785491943
","x: 285.6099548339844
y: 432.53955078125
z: 0.004088555462658405
visibility: 0.9916775226593018
","x: 301.4729919433594
y: 482.2934265136719
z: 0.1530017852783203
visibility: 0.9946476817131042
","x: 289.1376647949219
y: 482.90057373046875
z: 0.16991344094276428
visibility: 0.9868300557136536
","x: 300.6456298828125
y: 486.7955322265625
z: 0.16658896207809448
visibility: 0.9057379364967346
","x: 290.4560241699219
y: 488.52825927734375
z: 0.1819716989994049
visibility: 0.8146733045578003
","x: 300.36822509765625
y: 508.2361145019531
z: 0.06688930094242096
visibility: 0.9905110597610474
","x: 288.0286865234375
y: 507.0445556640625
z: 0.0848253071308136
visibility: 0.9780356287956238
",,,,,,,,,,,,,,,,,,,,,,4.410473346710205,,,,,,,,,,,,,,,,,,,,,
5,"x: 292.03387451171875
y: 246.39695739746094
z: -0.21719257533550262
visibility: 0.9998499155044556
","x: 293.4814453125
y: 242.51039123535156
z: -0.2020050585269928
visibility: 0.9996410608291626
","x: 294.5899658203125
y: 242.66664123535156
z: -0.20202267169952393
visibility: 0.9996243119239807
","x: 295.6815490722656
y: 242.8788604736328
z: -0.20204660296440125
visibility: 0.9996032118797302
","x: 290.07171630859375
y: 243.00607299804688
z: -0.2033890187740326
visibility: 0.9996719360351562
","x: 288.74957275390625
y: 243.45140075683594
z: -0.20341984927654266
visibility: 0.9996857047080994
","x: 287.33544921875
y: 243.9021453857422
z: -0.20344677567481995
visibility: 0.9997060894966125
","x: 297.4132385253906
y: 247.5003204345703
z: -0.11286245286464691
visibility: 0.9992943406105042
","x: 285.07958984375
y: 248.3408966064453
z: -0.12036015093326569
visibility: 0.9995141625404358
","x: 294.0722351074219
y: 253.923095703125
z: -0.18367892503738403
visibility: 0.9998794794082642
","x: 289.9891052246094
y: 253.75885009765625
z: -0.1858193725347519
visibility: 0.9999070167541504
","x: 306.4667663574219
y: 280.508056640625
z: -0.06811341643333435
visibility: 0.9999151229858398
","x: 275.1816101074219
y: 279.9061279296875
z: -0.07794152200222015
visibility: 0.9997643232345581
","x: 315.34716796875
y: 317.6250915527344
z: -0.08081378042697906
visibility: 0.9815099835395813
","x: 268.2931213378906
y: 322.76727294921875
z: -0.07576876133680344
visibility: 0.9889836311340332
","x: 306.1748962402344
y: 333.2606201171875
z: -0.190123051404953
visibility: 0.9657723307609558
","x: 288.5624084472656
y: 327.1358642578125
z: -0.1612005978822708
visibility: 0.9790213704109192
","x: 302.8243408203125
y: 340.8023681640625
z: -0.22548890113830566
visibility: 0.9370166659355164
","x: 293.740478515625
y: 331.23248291015625
z: -0.1899031400680542
visibility: 0.9588341116905212
","x: 301.22491455078125
y: 334.77008056640625
z: -0.2345210313796997
visibility: 0.938096821308136
","x: 295.47430419921875
y: 326.7732238769531
z: -0.20024199783802032
visibility: 0.9579401612281799
","x: 302.0046081542969
y: 333.2622985839844
z: -0.19592805206775665
visibility: 0.9145498871803284
","x: 294.4972839355469
y: 325.1806945800781
z: -0.1656639724969864
visibility: 0.9360664486885071
","x: 300.94354248046875
y: 362.5541687011719
z: -0.0076777031645178795
visibility: 0.9996758103370667
","x: 280.93206787109375
y: 365.8736572265625
z: 0.00775041664019227
visibility: 0.9994376301765442
","x: 296.5844421386719
y: 427.3287658691406
z: -0.06915062665939331
visibility: 0.9911171793937683
","x: 286.0289001464844
y: 432.2599792480469
z: 0.0031374371610581875
visibility: 0.9806989431381226
","x: 292.1627502441406
y: 486.9272155761719
z: 0.027510419487953186
visibility: 0.9879182577133179
","x: 291.1802978515625
y: 482.9012451171875
z: 0.12956424057483673
visibility: 0.9728919267654419
","x: 291.8448486328125
y: 494.72894287109375
z: 0.03126964345574379
visibility: 0.8848456144332886
","x: 292.5276184082031
y: 489.666015625
z: 0.13731905817985535
visibility: 0.7948213219642639
","x: 288.6678161621094
y: 508.41082763671875
z: -0.06185244768857956
visibility: 0.9815463423728943
","x: 287.70745849609375
y: 505.5517578125
z: 0.04847688600420952
visibility: 0.9637102484703064
","x: 287.45794677734375
y: 330.24212646484375
z: 0.0
","x: 291.08001708984375
y: 329.47344970703125
z: 0.0013885494554415345
","x: 294.4051818847656
y: 330.2353515625
z: 0.0009336504153907299
","x: 296.36602783203125
y: 331.88348388671875
z: -0.00015165565127972513
","x: 297.4345397949219
y: 334.0821838378906
z: -0.0012485894840210676
","x: 295.8639831542969
y: 331.4895935058594
z: -0.0007525903638452291
","x: 299.1362609863281
y: 334.0545654296875
z: -0.0024461240973323584
","x: 300.94207763671875
y: 336.1592102050781
z: -0.0032993473578244448
","x: 302.3559265136719
y: 337.9161071777344
z: -0.0038028613198548555
","x: 294.9910583496094
y: 333.3138732910156
z: -0.002988610416650772
","x: 298.3687744140625
y: 336.67822265625
z: -0.004491601139307022
","x: 300.2743835449219
y: 339.22509765625
z: -0.004911232274025679
","x: 301.8233337402344
y: 341.16632080078125
z: -0.005319752264767885
","x: 293.5212097167969
y: 335.390380859375
z: -0.005187846254557371
","x: 296.44842529296875
y: 339.45599365234375
z: -0.006703522056341171
","x: 298.2139587402344
y: 342.23699951171875
z: -0.007002846337854862
","x: 299.66900634765625
y: 344.1876525878906
z: -0.007286465726792812
","x: 291.6288146972656
y: 337.52874755859375
z: -0.00734431529417634
","x: 293.3651123046875
y: 341.34637451171875
z: -0.008524071425199509
","x: 294.41241455078125
y: 343.78314208984375
z: -0.008707565255463123
","x: 295.3579406738281
y: 345.6657409667969
z: -0.008887986652553082
",4.543121337890625,,,,,,,,,,,,,,,,,,,,,
6,"x: 292.03387451171875
y: 246.39695739746094
z: -0.21719257533550262
visibility: 0.9998499155044556
","x: 293.4814453125
y: 242.51039123535156
z: -0.2020050585269928
visibility: 0.9996410608291626
","x: 294.5899658203125
y: 242.66664123535156
z: -0.20202267169952393
visibility: 0.9996243119239807
","x: 295.6815490722656
y: 242.8788604736328
z: -0.20204660296440125
visibility: 0.9996032118797302
","x: 290.07171630859375
y: 243.00607299804688
z: -0.2033890187740326
visibility: 0.9996719360351562
","x: 288.74957275390625
y: 243.45140075683594
z: -0.20341984927654266
visibility: 0.9996857047080994
","x: 287.33544921875
y: 243.9021453857422
z: -0.20344677567481995
visibility: 0.9997060894966125
","x: 297.4132385253906
y: 247.5003204345703
z: -0.11286245286464691
visibility: 0.9992943406105042
","x: 285.07958984375
y: 248.3408966064453
z: -0.12036015093326569
visibility: 0.9995141625404358
","x: 294.0722351074219
y: 253.923095703125
z: -0.18367892503738403
visibility: 0.9998794794082642
","x: 289.9891052246094
y: 253.75885009765625
z: -0.1858193725347519
visibility: 0.9999070167541504
","x: 306.4667663574219
y: 280.508056640625
z: -0.06811341643333435
visibility: 0.9999151229858398
","x: 275.1816101074219
y: 279.9061279296875
z: -0.07794152200222015
visibility: 0.9997643232345581
","x: 315.34716796875
y: 317.6250915527344
z: -0.08081378042697906
visibility: 0.9815099835395813
","x: 268.2931213378906
y: 322.76727294921875
z: -0.07576876133680344
visibility: 0.9889836311340332
","x: 306.1748962402344
y: 333.2606201171875
z: -0.190123051404953
visibility: 0.9657723307609558
","x: 288.5624084472656
y: 327.1358642578125
z: -0.1612005978822708
visibility: 0.9790213704109192
","x: 302.8243408203125
y: 340.8023681640625
z: -0.22548890113830566
visibility: 0.9370166659355164
","x: 293.740478515625
y: 331.23248291015625
z: -0.1899031400680542
visibility: 0.9588341116905212
","x: 301.22491455078125
y: 334.77008056640625
z: -0.2345210313796997
visibility: 0.938096821308136
","x: 295.47430419921875
y: 326.7732238769531
z: -0.20024199783802032
visibility: 0.9579401612281799
","x: 302.0046081542969
y: 333.2622985839844
z: -0.19592805206775665
visibility: 0.9145498871803284
","x: 294.4972839355469
y: 325.1806945800781
z: -0.1656639724969864
visibility: 0.9360664486885071
","x: 300.94354248046875
y: 362.5541687011719
z: -0.0076777031645178795
visibility: 0.9996758103370667
","x: 280.93206787109375
y: 365.8736572265625
z: 0.00775041664019227
visibility: 0.9994376301765442
","x: 296.5844421386719
y: 427.3287658691406
z: -0.06915062665939331
visibility: 0.9911171793937683
","x: 286.0289001464844
y: 432.2599792480469
z: 0.0031374371610581875
visibility: 0.9806989431381226
","x: 292.1627502441406
y: 486.9272155761719
z: 0.027510419487953186
visibility: 0.9879182577133179
","x: 291.1802978515625
y: 482.9012451171875
z: 0.12956424057483673
visibility: 0.9728919267654419
","x: 291.8448486328125
y: 494.72894287109375
z: 0.03126964345574379
visibility: 0.8848456144332886
","x: 292.5276184082031
y: 489.666015625
z: 0.13731905817985535
visibility: 0.7948213219642639
","x: 288.6678161621094
y: 508.41082763671875
z: -0.06185244768857956
visibility: 0.9815463423728943
","x: 287.70745849609375
y: 505.5517578125
z: 0.04847688600420952
visibility: 0.9637102484703064
","x: 287.45794677734375
y: 330.24212646484375
z: 0.0
","x: 291.08001708984375
y: 329.47344970703125
z: 0.0013885494554415345
","x: 294.4051818847656
y: 330.2353515625
z: 0.0009336504153907299
","x: 296.36602783203125
y: 331.88348388671875
z: -0.00015165565127972513
","x: 297.4345397949219
y: 334.0821838378906
z: -0.0012485894840210676
","x: 295.8639831542969
y: 331.4895935058594
z: -0.0007525903638452291
","x: 299.1362609863281
y: 334.0545654296875
z: -0.0024461240973323584
","x: 300.94207763671875
y: 336.1592102050781
z: -0.0032993473578244448
","x: 302.3559265136719
y: 337.9161071777344
z: -0.0038028613198548555
","x: 294.9910583496094
y: 333.3138732910156
z: -0.002988610416650772
","x: 298.3687744140625
y: 336.67822265625
z: -0.004491601139307022
","x: 300.2743835449219
y: 339.22509765625
z: -0.004911232274025679
","x: 301.8233337402344
y: 341.16632080078125
z: -0.005319752264767885
","x: 293.5212097167969
y: 335.390380859375
z: -0.005187846254557371
","x: 296.44842529296875
y: 339.45599365234375
z: -0.006703522056341171
","x: 298.2139587402344
y: 342.23699951171875
z: -0.007002846337854862
","x: 299.66900634765625
y: 344.1876525878906
z: -0.007286465726792812
","x: 291.6288146972656
y: 337.52874755859375
z: -0.00734431529417634
","x: 293.3651123046875
y: 341.34637451171875
z: -0.008524071425199509
","x: 294.41241455078125
y: 343.78314208984375
z: -0.008707565255463123
","x: 295.3579406738281
y: 345.6657409667969
z: -0.008887986652553082
",4.543121337890625,,,,,,,,,,,,,,,,,,,,,
7,"x: 292.03387451171875
y: 246.39695739746094
z: -0.21719257533550262
visibility: 0.9998499155044556
","x: 293.4814453125
y: 242.51039123535156
z: -0.2020050585269928
visibility: 0.9996410608291626
","x: 294.5899658203125
y: 242.66664123535156
z: -0.20202267169952393
visibility: 0.9996243119239807
","x: 295.6815490722656
y: 242.8788604736328
z: -0.20204660296440125
visibility: 0.9996032118797302
","x: 290.07171630859375
y: 243.00607299804688
z: -0.2033890187740326
visibility: 0.9996719360351562
","x: 288.74957275390625
y: 243.45140075683594
z: -0.20341984927654266
visibility: 0.9996857047080994
","x: 287.33544921875
y: 243.9021453857422
z: -0.20344677567481995
visibility: 0.9997060894966125
","x: 297.4132385253906
y: 247.5003204345703
z: -0.11286245286464691
visibility: 0.9992943406105042
","x: 285.07958984375
y: 248.3408966064453
z: -0.12036015093326569
visibility: 0.9995141625404358
","x: 294.0722351074219
y: 253.923095703125
z: -0.18367892503738403
visibility: 0.9998794794082642
","x: 289.9891052246094
y: 253.75885009765625
z: -0.1858193725347519
visibility: 0.9999070167541504
","x: 306.4667663574219
y: 280.508056640625
z: -0.06811341643333435
visibility: 0.9999151229858398
","x: 275.1816101074219
y: 279.9061279296875
z: -0.07794152200222015
visibility: 0.9997643232345581
","x: 315.34716796875
y: 317.6250915527344
z: -0.08081378042697906
visibility: 0.9815099835395813
","x: 268.2931213378906
y: 322.76727294921875
z: -0.07576876133680344
visibility: 0.9889836311340332
","x: 306.1748962402344
y: 333.2606201171875
z: -0.190123051404953
visibility: 0.9657723307609558
","x: 288.5624084472656
y: 327.1358642578125
z: -0.1612005978822708
visibility: 0.9790213704109192
","x: 302.8243408203125
y: 340.8023681640625
z: -0.22548890113830566
visibility: 0.9370166659355164
","x: 293.740478515625
y: 331.23248291015625
z: -0.1899031400680542
visibility: 0.9588341116905212
","x: 301.22491455078125
y: 334.77008056640625
z: -0.2345210313796997
visibility: 0.938096821308136
","x: 295.47430419921875
y: 326.7732238769531
z: -0.20024199783802032
visibility: 0.9579401612281799
","x: 302.0046081542969
y: 333.2622985839844
z: -0.19592805206775665
visibility: 0.9145498871803284
","x: 294.4972839355469
y: 325.1806945800781
z: -0.1656639724969864
visibility: 0.9360664486885071
","x: 300.94354248046875
y: 362.5541687011719
z: -0.0076777031645178795
visibility: 0.9996758103370667
","x: 280.93206787109375
y: 365.8736572265625
z: 0.00775041664019227
visibility: 0.9994376301765442
","x: 296.5844421386719
y: 427.3287658691406
z: -0.06915062665939331
visibility: 0.9911171793937683
","x: 286.0289001464844
y: 432.2599792480469
z: 0.0031374371610581875
visibility: 0.9806989431381226
","x: 292.1627502441406
y: 486.9272155761719
z: 0.027510419487953186
visibility: 0.9879182577133179
","x: 291.1802978515625
y: 482.9012451171875
z: 0.12956424057483673
visibility: 0.9728919267654419
","x: 291.8448486328125
y: 494.72894287109375
z: 0.03126964345574379
visibility: 0.8848456144332886
","x: 292.5276184082031
y: 489.666015625
z: 0.13731905817985535
visibility: 0.7948213219642639
","x: 288.6678161621094
y: 508.41082763671875
z: -0.06185244768857956
visibility: 0.9815463423728943
","x: 287.70745849609375
y: 505.5517578125
z: 0.04847688600420952
visibility: 0.9637102484703064
","x: 287.45794677734375
y: 330.24212646484375
z: 0.0
","x: 291.08001708984375
y: 329.47344970703125
z: 0.0013885494554415345
","x: 294.4051818847656
y: 330.2353515625
z: 0.0009336504153907299
","x: 296.36602783203125
y: 331.88348388671875
z: -0.00015165565127972513
","x: 297.4345397949219
y: 334.0821838378906
z: -0.0012485894840210676
","x: 295.8639831542969
y: 331.4895935058594
z: -0.0007525903638452291
","x: 299.1362609863281
y: 334.0545654296875
z: -0.0024461240973323584
","x: 300.94207763671875
y: 336.1592102050781
z: -0.0032993473578244448
","x: 302.3559265136719
y: 337.9161071777344
z: -0.0038028613198548555
","x: 294.9910583496094
y: 333.3138732910156
z: -0.002988610416650772
","x: 298.3687744140625
y: 336.67822265625
z: -0.004491601139307022
","x: 300.2743835449219
y: 339.22509765625
z: -0.004911232274025679
","x: 301.8233337402344
y: 341.16632080078125
z: -0.005319752264767885
","x: 293.5212097167969
y: 335.390380859375
z: -0.005187846254557371
","x: 296.44842529296875
y: 339.45599365234375
z: -0.006703522056341171
","x: 298.2139587402344
y: 342.23699951171875
z: -0.007002846337854862
","x: 299.66900634765625
y: 344.1876525878906
z: -0.007286465726792812
","x: 291.6288146972656
y: 337.52874755859375
z: -0.00734431529417634
","x: 293.3651123046875
y: 341.34637451171875
z: -0.008524071425199509
","x: 294.41241455078125
y: 343.78314208984375
z: -0.008707565255463123
","x: 295.3579406738281
y: 345.6657409667969
z: -0.008887986652553082
",4.543121337890625,,,,,,,,,,,,,,,,,,,,,
8,"x: 291.5987243652344
y: 252.8851318359375
z: -0.2551891505718231
visibility: 0.9998603463172913
","x: 293.0612487792969
y: 247.99835205078125
z: -0.23948219418525696
visibility: 0.9996647834777832
","x: 294.10809326171875
y: 248.13551330566406
z: -0.2395055592060089
visibility: 0.999647855758667
","x: 295.1669921875
y: 248.26419067382812
z: -0.23952922224998474
visibility: 0.9996300935745239
","x: 289.92633056640625
y: 248.09780883789062
z: -0.24286973476409912
visibility: 0.9996938109397888
","x: 288.7264709472656
y: 248.31201171875
z: -0.24292223155498505
visibility: 0.9997062683105469
","x: 287.4822998046875
y: 248.51722717285156
z: -0.24297566711902618
visibility: 0.9997255206108093
","x: 296.8258972167969
y: 252.30419921875
z: -0.14295028150081635
visibility: 0.9993381500244141
","x: 285.0592346191406
y: 252.5566864013672
z: -0.1600543111562729
visibility: 0.9995421767234802
","x: 293.475341796875
y: 260.28619384765625
z: -0.2186671495437622
visibility: 0.9998845458030701
","x: 289.4766540527344
y: 259.8211364746094
z: -0.22377748787403107
visibility: 0.9999086856842041
","x: 306.00482177734375
y: 286.96673583984375
z: -0.07588107883930206
visibility: 0.9999149441719055
","x: 274.85089111328125
y: 288.8162841796875
z: -0.09968980401754379
visibility: 0.9997568130493164
","x: 314.9992370605469
y: 318.0417785644531
z: -0.04629912227392197
visibility: 0.9818738102912903
","x: 267.563720703125
y: 326.5426330566406
z: -0.12498138099908829
visibility: 0.9879183769226074
","x: 313.01580810546875
y: 351.4773864746094
z: -0.12437646090984344
visibility: 0.9662996530532837
","x: 276.4500427246094
y: 343.1304931640625
z: -0.25722622871398926
visibility: 0.9783685803413391
","x: 312.21807861328125
y: 361.1583251953125
z: -0.14728523790836334
visibility: 0.9373679161071777
","x: 277.8997802734375
y: 349.77911376953125
z: -0.2907695174217224
visibility: 0.958082914352417
","x: 310.1226501464844
y: 359.3196105957031
z: -0.1706380546092987
visibility: 0.9387364387512207
","x: 279.8665771484375
y: 346.30145263671875
z: -0.3097875714302063
visibility: 0.9574980735778809
","x: 309.7599182128906
y: 355.7144470214844
z: -0.13473638892173767
visibility: 0.9159508943557739
","x: 279.9362487792969
y: 343.5205078125
z: -0.2671111524105072
visibility: 0.9358741641044617
","x: 300.3851013183594
y: 370.67706298828125
z: -0.006825720425695181
visibility: 0.999645471572876
","x: 280.73114013671875
y: 370.60162353515625
z: 0.006879053078591824
visibility: 0.9993848204612732
","x: 293.6661071777344
y: 436.031494140625
z: -0.04469073936343193
visibility: 0.9828096628189087
","x: 286.1192626953125
y: 435.439453125
z: 0.0026644945610314608
visibility: 0.968194842338562
","x: 287.7286682128906
y: 494.8767395019531
z: 0.02958814799785614
visibility: 0.9833775162696838
","x: 290.9374694824219
y: 485.9051208496094
z: 0.10191218554973602
visibility: 0.9662333130836487
","x: 286.655029296875
y: 504.1568603515625
z: 0.03185657411813736
visibility: 0.8686264157295227
","x: 292.8695068359375
y: 493.87567138671875
z: 0.10598912090063095
visibility: 0.7899714708328247
","x: 285.8188171386719
y: 513.52490234375
z: -0.06675544381141663
visibility: 0.9766035079956055
","x: 289.1036376953125
y: 506.5914306640625
z: 0.009572787210345268
visibility: 0.9582968950271606
",,,,,,,,,,,,,,,,,,,,,,4.684002876281738,,,,,,,,,,,,,,,,,,,,,
9,"x: 291.5987243652344
y: 252.8851318359375
z: -0.2551891505718231
visibility: 0.9998603463172913
","x: 293.0612487792969
y: 247.99835205078125
z: -0.23948219418525696
visibility: 0.9996647834777832
","x: 294.10809326171875
y: 248.13551330566406
z: -0.2395055592060089
visibility: 0.999647855758667
","x: 295.1669921875
y: 248.26419067382812
z: -0.23952922224998474
visibility: 0.9996300935745239
","x: 289.92633056640625
y: 248.09780883789062
z: -0.24286973476409912
visibility: 0.9996938109397888
","x: 288.7264709472656
y: 248.31201171875
z: -0.24292223155498505
visibility: 0.9997062683105469
","x: 287.4822998046875
y: 248.51722717285156
z: -0.24297566711902618
visibility: 0.9997255206108093
","x: 296.8258972167969
y: 252.30419921875
z: -0.14295028150081635
visibility: 0.9993381500244141
","x: 285.0592346191406
y: 252.5566864013672
z: -0.1600543111562729
visibility: 0.9995421767234802
","x: 293.475341796875
y: 260.28619384765625
z: -0.2186671495437622
visibility: 0.9998845458030701
","x: 289.4766540527344
y: 259.8211364746094
z: -0.22377748787403107
visibility: 0.9999086856842041
","x: 306.00482177734375
y: 286.96673583984375
z: -0.07588107883930206
visibility: 0.9999149441719055
","x: 274.85089111328125
y: 288.8162841796875
z: -0.09968980401754379
visibility: 0.9997568130493164
","x: 314.9992370605469
y: 318.0417785644531
z: -0.04629912227392197
visibility: 0.9818738102912903
","x: 267.563720703125
y: 326.5426330566406
z: -0.12498138099908829
visibility: 0.9879183769226074
","x: 313.01580810546875
y: 351.4773864746094
z: -0.12437646090984344
visibility: 0.9662996530532837
","x: 276.4500427246094
y: 343.1304931640625
z: -0.25722622871398926
visibility: 0.9783685803413391
","x: 312.21807861328125
y: 361.1583251953125
z: -0.14728523790836334
visibility: 0.9373679161071777
","x: 277.8997802734375
y: 349.77911376953125
z: -0.2907695174217224
visibility: 0.958082914352417
","x: 310.1226501464844
y: 359.3196105957031
z: -0.1706380546092987
visibility: 0.9387364387512207
","x: 279.8665771484375
y: 346.30145263671875
z: -0.3097875714302063
visibility: 0.9574980735778809
","x: 309.7599182128906
y: 355.7144470214844
z: -0.13473638892173767
visibility: 0.9159508943557739
","x: 279.9362487792969
y: 343.5205078125
z: -0.2671111524105072
visibility: 0.9358741641044617
","x: 300.3851013183594
y: 370.67706298828125
z: -0.006825720425695181
visibility: 0.999645471572876
","x: 280.73114013671875
y: 370.60162353515625
z: 0.006879053078591824
visibility: 0.9993848204612732
","x: 293.6661071777344
y: 436.031494140625
z: -0.04469073936343193
visibility: 0.9828096628189087
","x: 286.1192626953125
y: 435.439453125
z: 0.0026644945610314608
visibility: 0.968194842338562
","x: 287.7286682128906
y: 494.8767395019531
z: 0.02958814799785614
visibility: 0.9833775162696838
","x: 290.9374694824219
y: 485.9051208496094
z: 0.10191218554973602
visibility: 0.9662333130836487
","x: 286.655029296875
y: 504.1568603515625
z: 0.03185657411813736
visibility: 0.8686264157295227
","x: 292.8695068359375
y: 493.87567138671875
z: 0.10598912090063095
visibility: 0.7899714708328247
","x: 285.8188171386719
y: 513.52490234375
z: -0.06675544381141663
visibility: 0.9766035079956055
","x: 289.1036376953125
y: 506.5914306640625
z: 0.009572787210345268
visibility: 0.9582968950271606
",,,,,,,,,,,,,,,,,,,,,,4.684002876281738,,,,,,,,,,,,,,,,,,,,,
10,"x: 291.5154113769531
y: 252.81236267089844
z: -0.2296886444091797
visibility: 0.9998732805252075
","x: 293.0462341308594
y: 248.0050506591797
z: -0.2148151695728302
visibility: 0.9996961951255798
","x: 294.08544921875
y: 248.17999267578125
z: -0.21483242511749268
visibility: 0.9996805787086487
","x: 295.1500244140625
y: 248.36892700195312
z: -0.21485845744609833
visibility: 0.9996645450592041
","x: 289.82635498046875
y: 248.07034301757812
z: -0.2165515124797821
visibility: 0.999722421169281
","x: 288.5647277832031
y: 248.2840118408203
z: -0.216590017080307
visibility: 0.9997333288192749
","x: 287.2996520996094
y: 248.49307250976562
z: -0.2166224718093872
visibility: 0.9997507929801941
","x: 297.031982421875
y: 252.54345703125
z: -0.12432263791561127
visibility: 0.9993998408317566
","x: 284.8850402832031
y: 252.53472900390625
z: -0.13331149518489838
visibility: 0.9995854496955872
","x: 293.4072570800781
y: 260.25811767578125
z: -0.19558002054691315
visibility: 0.9998950958251953
","x: 289.2418212890625
y: 259.7498779296875
z: -0.1985427290201187
visibility: 0.9999160170555115
","x: 305.99432373046875
y: 288.018310546875
z: -0.06868625432252884
visibility: 0.9999188184738159
","x: 274.68603515625
y: 287.1798400878906
z: -0.06125609949231148
visibility: 0.9997721910476685
","x: 314.1595458984375
y: 317.8753967285156
z: 0.005294197238981724
visibility: 0.9704903960227966
","x: 267.2248229980469
y: 316.395263671875
z: -0.011186012998223305
visibility: 0.9829615354537964
","x: 314.67071533203125
y: 341.1268615722656
z: -0.036714836955070496
visibility: 0.9499955177307129
","x: 260.1426086425781
y: 337.13037109375
z: -0.06903284043073654
visibility: 0.9731130599975586
","x: 317.0859680175781
y: 346.3360595703125
z: -0.04494123533368111
visibility: 0.9205137491226196
","x: 257.3288879394531
y: 345.035400390625
z: -0.08299560099840164
visibility: 0.9505258798599243
","x: 316.2998962402344
y: 345.93927001953125
z: -0.07112215459346771
visibility: 0.9237764477729797
","x: 259.07977294921875
y: 344.40771484375
z: -0.10531264543533325
visibility: 0.9508327841758728
","x: 314.0902404785156
y: 341.8447570800781
z: -0.04731546342372894
visibility: 0.9004037976264954
","x: 260.6960754394531
y: 342.6054382324219
z: -0.07914625108242035
visibility: 0.9306557178497314
","x: 299.37615966796875
y: 370.86260986328125
z: -0.011537697166204453
visibility: 0.9996778964996338
","x: 279.323486328125
y: 370.5176086425781
z: 0.01158558763563633
visibility: 0.9994381070137024
","x: 291.46441650390625
y: 437.001708984375
z: -0.06760649383068085
visibility: 0.9838694930076599
","x: 277.6050109863281
y: 436.818359375
z: 0.009747530333697796
visibility: 0.9690257906913757
","x: 286.58892822265625
y: 497.3489685058594
z: 0.021070988848805428
visibility: 0.9841989874839783
","x: 288.6869201660156
y: 465.95391845703125
z: 0.2802441120147705
visibility: 0.9500709176063538
","x: 285.6833801269531
y: 507.1230773925781
z: 0.025875043123960495
visibility: 0.8707414269447327
","x: 290.49755859375
y: 467.4924011230469
z: 0.3053658604621887
visibility: 0.7803013324737549
","x: 285.1275634765625
y: 517.6343383789062
z: -0.06714840978384018
visibility: 0.9776389598846436
","x: 283.84075927734375
y: 492.2112731933594
z: 0.2642818093299866
visibility: 0.9477661848068237
",,,,,,,,,,,,,,,,,,,,,,4.8107850551605225,,,,,,,,,,,,,,,,,,,,,
11,"x: 291.5154113769531
y: 252.81236267089844
z: -0.2296886444091797
visibility: 0.9998732805252075
","x: 293.0462341308594
y: 248.0050506591797
z: -0.2148151695728302
visibility: 0.9996961951255798
","x: 294.08544921875
y: 248.17999267578125
z: -0.21483242511749268
visibility: 0.9996805787086487
","x: 295.1500244140625
y: 248.36892700195312
z: -0.21485845744609833
visibility: 0.9996645450592041
","x: 289.82635498046875
y: 248.07034301757812
z: -0.2165515124797821
visibility: 0.999722421169281
","x: 288.5647277832031
y: 248.2840118408203
z: -0.216590017080307
visibility: 0.9997333288192749
","x: 287.2996520996094
y: 248.49307250976562
z: -0.2166224718093872
visibility: 0.9997507929801941
","x: 297.031982421875
y: 252.54345703125
z: -0.12432263791561127
visibility: 0.9993998408317566
","x: 284.8850402832031
y: 252.53472900390625
z: -0.13331149518489838
visibility: 0.9995854496955872
","x: 293.4072570800781
y: 260.25811767578125
z: -0.19558002054691315
visibility: 0.9998950958251953
","x: 289.2418212890625
y: 259.7498779296875
z: -0.1985427290201187
visibility: 0.9999160170555115
","x: 305.99432373046875
y: 288.018310546875
z: -0.06868625432252884
visibility: 0.9999188184738159
","x: 274.68603515625
y: 287.1798400878906
z: -0.06125609949231148
visibility: 0.9997721910476685
","x: 314.1595458984375
y: 317.8753967285156
z: 0.005294197238981724
visibility: 0.9704903960227966
","x: 267.2248229980469
y: 316.395263671875
z: -0.011186012998223305
visibility: 0.9829615354537964
","x: 314.67071533203125
y: 341.1268615722656
z: -0.036714836955070496
visibility: 0.9499955177307129
","x: 260.1426086425781
y: 337.13037109375
z: -0.06903284043073654
visibility: 0.9731130599975586
","x: 317.0859680175781
y: 346.3360595703125
z: -0.04494123533368111
visibility: 0.9205137491226196
","x: 257.3288879394531
y: 345.035400390625
z: -0.08299560099840164
visibility: 0.9505258798599243
","x: 316.2998962402344
y: 345.93927001953125
z: -0.07112215459346771
visibility: 0.9237764477729797
","x: 259.07977294921875
y: 344.40771484375
z: -0.10531264543533325
visibility: 0.9508327841758728
","x: 314.0902404785156
y: 341.8447570800781
z: -0.04731546342372894
visibility: 0.9004037976264954
","x: 260.6960754394531
y: 342.6054382324219
z: -0.07914625108242035
visibility: 0.9306557178497314
","x: 299.37615966796875
y: 370.86260986328125
z: -0.011537697166204453
visibility: 0.9996778964996338
","x: 279.323486328125
y: 370.5176086425781
z: 0.01158558763563633
visibility: 0.9994381070137024
","x: 291.46441650390625
y: 437.001708984375
z: -0.06760649383068085
visibility: 0.9838694930076599
","x: 277.6050109863281
y: 436.818359375
z: 0.009747530333697796
visibility: 0.9690257906913757
","x: 286.58892822265625
y: 497.3489685058594
z: 0.021070988848805428
visibility: 0.9841989874839783
","x: 288.6869201660156
y: 465.95391845703125
z: 0.2802441120147705
visibility: 0.9500709176063538
","x: 285.6833801269531
y: 507.1230773925781
z: 0.025875043123960495
visibility: 0.8707414269447327
","x: 290.49755859375
y: 467.4924011230469
z: 0.3053658604621887
visibility: 0.7803013324737549
","x: 285.1275634765625
y: 517.6343383789062
z: -0.06714840978384018
visibility: 0.9776389598846436
","x: 283.84075927734375
y: 492.2112731933594
z: 0.2642818093299866
visibility: 0.9477661848068237
",,,,,,,,,,,,,,,,,,,,,,4.8107850551605225,,,,,,,,,,,,,,,,,,,,,
12,"x: 290.8982238769531
y: 254.611328125
z: -0.22299957275390625
visibility: 0.9998784065246582
","x: 292.76092529296875
y: 249.3750762939453
z: -0.21007411181926727
visibility: 0.9997062087059021
","x: 293.8129577636719
y: 249.5449676513672
z: -0.2101091593503952
visibility: 0.9996926784515381
","x: 294.8345947265625
y: 249.74432373046875
z: -0.21013323962688446
visibility: 0.9996767640113831
","x: 289.4286804199219
y: 249.3763885498047
z: -0.2095000296831131
visibility: 0.9997212886810303
","x: 288.22607421875
y: 249.49659729003906
z: -0.20953044295310974
visibility: 0.9997228980064392
","x: 287.0311584472656
y: 249.61917114257812
z: -0.20956476032733917
visibility: 0.9997345805168152
","x: 296.8008728027344
y: 253.70587158203125
z: -0.1261100322008133
visibility: 0.9993998408317566
","x: 284.804931640625
y: 253.29078674316406
z: -0.12776002287864685
visibility: 0.9995787739753723
","x: 293.1224365234375
y: 262.00726318359375
z: -0.19047555327415466
visibility: 0.9998968839645386
","x: 288.2569580078125
y: 261.3421936035156
z: -0.19102904200553894
visibility: 0.9999080896377563
","x: 306.0638427734375
y: 293.1035461425781
z: -0.07578466087579727
visibility: 0.9999210834503174
","x: 274.5
y: 287.6650695800781
z: -0.04873877391219139
visibility: 0.9997798204421997
","x: 312.3759765625
y: 326.30810546875
z: -0.14401564002037048
visibility: 0.9548570513725281
","x: 263.0011291503906
y: 316.9027099609375
z: -0.03173898905515671
visibility: 0.9800240397453308
","x: 316.0137939453125
y: 328.7189025878906
z: -0.33832722902297974
visibility: 0.9407912492752075
","x: 247.31443786621094
y: 332.4640197753906
z: -0.1246938705444336
visibility: 0.9679993391036987
","x: 318.5955810546875
y: 329.22100830078125
z: -0.3709387183189392
visibility: 0.9138723015785217
","x: 240.47784423828125
y: 338.5077209472656
z: -0.142282634973526
visibility: 0.9427019953727722
","x: 318.0052795410156
y: 323.15728759765625
z: -0.38448455929756165
visibility: 0.9184859395027161
","x: 241.571044921875
y: 338.31024169921875
z: -0.1633239984512329
visibility: 0.9442876577377319
","x: 316.1880798339844
y: 322.9396057128906
z: -0.3481690287590027
visibility: 0.8938935995101929
","x: 243.25296020507812
y: 337.5809326171875
z: -0.1356203705072403
visibility: 0.9261183738708496
","x: 299.2444152832031
y: 371.7895202636719
z: -0.010102658532559872
visibility: 0.9997048377990723
","x: 278.7513427734375
y: 370.2967834472656
z: 0.010142171755433083
visibility: 0.9994764924049377
","x: 292.25885009765625
y: 438.197265625
z: -0.062435220927000046
visibility: 0.9835619926452637
","x: 276.4703369140625
y: 429.5013732910156
z: -0.008440579287707806
visibility: 0.9702183604240417
","x: 286.6267395019531
y: 499.3780212402344
z: 0.045361533761024475
visibility: 0.9844550490379333
","x: 279.53594970703125
y: 452.2126770019531
z: 0.2700919508934021
visibility: 0.9325694441795349
","x: 285.21966552734375
y: 507.4986267089844
z: 0.05259329080581665
visibility: 0.8662661910057068
","x: 281.1966552734375
y: 453.0911865234375
z: 0.2965993285179138
visibility: 0.7583407759666443
","x: 285.8639831542969
y: 520.3731689453125
z: -0.035046957433223724
visibility: 0.9779390692710876
","x: 276.29803466796875
y: 481.3694763183594
z: 0.2574206292629242
visibility: 0.9370130896568298
",,,,,,,,,,,,,,,,,,,,,,4.950875759124756,"x: 317.70849609375
y: 328.9604187011719
z: 0.0
","x: 318.985107421875
y: 322.744384765625
z: 0.0002355046453885734
","x: 320.72222900390625
y: 318.14215087890625
z: -0.001073493855074048
","x: 322.0403747558594
y: 314.9515686035156
z: -0.002896426012739539
","x: 322.8888244628906
y: 312.2785339355469
z: -0.004209010396152735
","x: 325.4271545410156
y: 320.3977966308594
z: -0.00075521320104599
","x: 324.9673156738281
y: 317.3449401855469
z: -0.003109763143584132
","x: 322.6893615722656
y: 316.75433349609375
z: -0.003882239805534482
","x: 321.22406005859375
y: 317.13507080078125
z: -0.004092813469469547
","x: 325.5194396972656
y: 323.29608154296875
z: -0.002562245586887002
","x: 323.9656677246094
y: 320.03216552734375
z: -0.0047271656803786755
","x: 321.7073669433594
y: 319.50286865234375
z: -0.004445028491318226
","x: 320.5074768066406
y: 320.0151062011719
z: -0.0040773553773760796
","x: 324.9584655761719
y: 326.38690185546875
z: -0.004599523730576038
","x: 323.1760559082031
y: 323.2711486816406
z: -0.006253232713788748
","x: 321.3050537109375
y: 323.04974365234375
z: -0.005131176672875881
","x: 320.487060546875
y: 323.5897216796875
z: -0.004217441659420729
","x: 323.9801330566406
y: 329.26123046875
z: -0.0068064103834331036
","x: 322.5850524902344
y: 326.7999267578125
z: -0.007357697933912277
","x: 321.3187255859375
y: 326.40679931640625
z: -0.006361492443829775
","x: 320.84515380859375
y: 326.8875732421875
z: -0.0055447896011173725
"
13,"x: 290.8982238769531
y: 254.611328125
z: -0.22299957275390625
visibility: 0.9998784065246582
","x: 292.76092529296875
y: 249.3750762939453
z: -0.21007411181926727
visibility: 0.9997062087059021
","x: 293.8129577636719
y: 249.5449676513672
z: -0.2101091593503952
visibility: 0.9996926784515381
","x: 294.8345947265625
y: 249.74432373046875
z: -0.21013323962688446
visibility: 0.9996767640113831
","x: 289.4286804199219
y: 249.3763885498047
z: -0.2095000296831131
visibility: 0.9997212886810303
","x: 288.22607421875
y: 249.49659729003906
z: -0.20953044295310974
visibility: 0.9997228980064392
","x: 287.0311584472656
y: 249.61917114257812
z: -0.20956476032733917
visibility: 0.9997345805168152
","x: 296.8008728027344
y: 253.70587158203125
z: -0.1261100322008133
visibility: 0.9993998408317566
","x: 284.804931640625
y: 253.29078674316406
z: -0.12776002287864685
visibility: 0.9995787739753723
","x: 293.1224365234375
y: 262.00726318359375
z: -0.19047555327415466
visibility: 0.9998968839645386
","x: 288.2569580078125
y: 261.3421936035156
z: -0.19102904200553894
visibility: 0.9999080896377563
","x: 306.0638427734375
y: 293.1035461425781
z: -0.07578466087579727
visibility: 0.9999210834503174
","x: 274.5
y: 287.6650695800781
z: -0.04873877391219139
visibility: 0.9997798204421997
","x: 312.3759765625
y: 326.30810546875
z: -0.14401564002037048
visibility: 0.9548570513725281
","x: 263.0011291503906
y: 316.9027099609375
z: -0.03173898905515671
visibility: 0.9800240397453308
","x: 316.0137939453125
y: 328.7189025878906
z: -0.33832722902297974
visibility: 0.9407912492752075
","x: 247.31443786621094
y: 332.4640197753906
z: -0.1246938705444336
visibility: 0.9679993391036987
","x: 318.5955810546875
y: 329.22100830078125
z: -0.3709387183189392
visibility: 0.9138723015785217
","x: 240.47784423828125
y: 338.5077209472656
z: -0.142282634973526
visibility: 0.9427019953727722
","x: 318.0052795410156
y: 323.15728759765625
z: -0.38448455929756165
visibility: 0.9184859395027161
","x: 241.571044921875
y: 338.31024169921875
z: -0.1633239984512329
visibility: 0.9442876577377319
","x: 316.1880798339844
y: 322.9396057128906
z: -0.3481690287590027
visibility: 0.8938935995101929
","x: 243.25296020507812
y: 337.5809326171875
z: -0.1356203705072403
visibility: 0.9261183738708496
","x: 299.2444152832031
y: 371.7895202636719
z: -0.010102658532559872
visibility: 0.9997048377990723
","x: 278.7513427734375
y: 370.2967834472656
z: 0.010142171755433083
visibility: 0.9994764924049377
","x: 292.25885009765625
y: 438.197265625
z: -0.062435220927000046
visibility: 0.9835619926452637
","x: 276.4703369140625
y: 429.5013732910156
z: -0.008440579287707806
visibility: 0.9702183604240417
","x: 286.6267395019531
y: 499.3780212402344
z: 0.045361533761024475
visibility: 0.9844550490379333
","x: 279.53594970703125
y: 452.2126770019531
z: 0.2700919508934021
visibility: 0.9325694441795349
","x: 285.21966552734375
y: 507.4986267089844
z: 0.05259329080581665
visibility: 0.8662661910057068
","x: 281.1966552734375
y: 453.0911865234375
z: 0.2965993285179138
visibility: 0.7583407759666443
","x: 285.8639831542969
y: 520.3731689453125
z: -0.035046957433223724
visibility: 0.9779390692710876
","x: 276.29803466796875
y: 481.3694763183594
z: 0.2574206292629242
visibility: 0.9370130896568298
",,,,,,,,,,,,,,,,,,,,,,4.950875759124756,"x: 317.70849609375
y: 328.9604187011719
z: 0.0
","x: 318.985107421875
y: 322.744384765625
z: 0.0002355046453885734
","x: 320.72222900390625
y: 318.14215087890625
z: -0.001073493855074048
","x: 322.0403747558594
y: 314.9515686035156
z: -0.002896426012739539
","x: 322.8888244628906
y: 312.2785339355469
z: -0.004209010396152735
","x: 325.4271545410156
y: 320.3977966308594
z: -0.00075521320104599
","x: 324.9673156738281
y: 317.3449401855469
z: -0.003109763143584132
","x: 322.6893615722656
y: 316.75433349609375
z: -0.003882239805534482
","x: 321.22406005859375
y: 317.13507080078125
z: -0.004092813469469547
","x: 325.5194396972656
y: 323.29608154296875
z: -0.002562245586887002
","x: 323.9656677246094
y: 320.03216552734375
z: -0.0047271656803786755
","x: 321.7073669433594
y: 319.50286865234375
z: -0.004445028491318226
","x: 320.5074768066406
y: 320.0151062011719
z: -0.0040773553773760796
","x: 324.9584655761719
y: 326.38690185546875
z: -0.004599523730576038
","x: 323.1760559082031
y: 323.2711486816406
z: -0.006253232713788748
","x: 321.3050537109375
y: 323.04974365234375
z: -0.005131176672875881
","x: 320.487060546875
y: 323.5897216796875
z: -0.004217441659420729
","x: 323.9801330566406
y: 329.26123046875
z: -0.0068064103834331036
","x: 322.5850524902344
y: 326.7999267578125
z: -0.007357697933912277
","x: 321.3187255859375
y: 326.40679931640625
z: -0.006361492443829775
","x: 320.84515380859375
y: 326.8875732421875
z: -0.0055447896011173725
"
14,"x: 290.8982238769531
y: 254.611328125
z: -0.22299957275390625
visibility: 0.9998784065246582
","x: 292.76092529296875
y: 249.3750762939453
z: -0.21007411181926727
visibility: 0.9997062087059021
","x: 293.8129577636719
y: 249.5449676513672
z: -0.2101091593503952
visibility: 0.9996926784515381
","x: 294.8345947265625
y: 249.74432373046875
z: -0.21013323962688446
visibility: 0.9996767640113831
","x: 289.4286804199219
y: 249.3763885498047
z: -0.2095000296831131
visibility: 0.9997212886810303
","x: 288.22607421875
y: 249.49659729003906
z: -0.20953044295310974
visibility: 0.9997228980064392
","x: 287.0311584472656
y: 249.61917114257812
z: -0.20956476032733917
visibility: 0.9997345805168152
","x: 296.8008728027344
y: 253.70587158203125
z: -0.1261100322008133
visibility: 0.9993998408317566
","x: 284.804931640625
y: 253.29078674316406
z: -0.12776002287864685
visibility: 0.9995787739753723
","x: 293.1224365234375
y: 262.00726318359375
z: -0.19047555327415466
visibility: 0.9998968839645386
","x: 288.2569580078125
y: 261.3421936035156
z: -0.19102904200553894
visibility: 0.9999080896377563
","x: 306.0638427734375
y: 293.1035461425781
z: -0.07578466087579727
visibility: 0.9999210834503174
","x: 274.5
y: 287.6650695800781
z: -0.04873877391219139
visibility: 0.9997798204421997
","x: 312.3759765625
y: 326.30810546875
z: -0.14401564002037048
visibility: 0.9548570513725281
","x: 263.0011291503906
y: 316.9027099609375
z: -0.03173898905515671
visibility: 0.9800240397453308
","x: 316.0137939453125
y: 328.7189025878906
z: -0.33832722902297974
visibility: 0.9407912492752075
","x: 247.31443786621094
y: 332.4640197753906
z: -0.1246938705444336
visibility: 0.9679993391036987
","x: 318.5955810546875
y: 329.22100830078125
z: -0.3709387183189392
visibility: 0.9138723015785217
","x: 240.47784423828125
y: 338.5077209472656
z: -0.142282634973526
visibility: 0.9427019953727722
","x: 318.0052795410156
y: 323.15728759765625
z: -0.38448455929756165
visibility: 0.9184859395027161
","x: 241.571044921875
y: 338.31024169921875
z: -0.1633239984512329
visibility: 0.9442876577377319
","x: 316.1880798339844
y: 322.9396057128906
z: -0.3481690287590027
visibility: 0.8938935995101929
","x: 243.25296020507812
y: 337.5809326171875
z: -0.1356203705072403
visibility: 0.9261183738708496
","x: 299.2444152832031
y: 371.7895202636719
z: -0.010102658532559872
visibility: 0.9997048377990723
","x: 278.7513427734375
y: 370.2967834472656
z: 0.010142171755433083
visibility: 0.9994764924049377
","x: 292.25885009765625
y: 438.197265625
z: -0.062435220927000046
visibility: 0.9835619926452637
","x: 276.4703369140625
y: 429.5013732910156
z: -0.008440579287707806
visibility: 0.9702183604240417
","x: 286.6267395019531
y: 499.3780212402344
z: 0.045361533761024475
visibility: 0.9844550490379333
","x: 279.53594970703125
y: 452.2126770019531
z: 0.2700919508934021
visibility: 0.9325694441795349
","x: 285.21966552734375
y: 507.4986267089844
z: 0.05259329080581665
visibility: 0.8662661910057068
","x: 281.1966552734375
y: 453.0911865234375
z: 0.2965993285179138
visibility: 0.7583407759666443
","x: 285.8639831542969
y: 520.3731689453125
z: -0.035046957433223724
visibility: 0.9779390692710876
","x: 276.29803466796875
y: 481.3694763183594
z: 0.2574206292629242
visibility: 0.9370130896568298
",,,,,,,,,,,,,,,,,,,,,,4.950875759124756,"x: 317.70849609375
y: 328.9604187011719
z: 0.0
","x: 318.985107421875
y: 322.744384765625
z: 0.0002355046453885734
","x: 320.72222900390625
y: 318.14215087890625
z: -0.001073493855074048
","x: 322.0403747558594
y: 314.9515686035156
z: -0.002896426012739539
","x: 322.8888244628906
y: 312.2785339355469
z: -0.004209010396152735
","x: 325.4271545410156
y: 320.3977966308594
z: -0.00075521320104599
","x: 324.9673156738281
y: 317.3449401855469
z: -0.003109763143584132
","x: 322.6893615722656
y: 316.75433349609375
z: -0.003882239805534482
","x: 321.22406005859375
y: 317.13507080078125
z: -0.004092813469469547
","x: 325.5194396972656
y: 323.29608154296875
z: -0.002562245586887002
","x: 323.9656677246094
y: 320.03216552734375
z: -0.0047271656803786755
","x: 321.7073669433594
y: 319.50286865234375
z: -0.004445028491318226
","x: 320.5074768066406
y: 320.0151062011719
z: -0.0040773553773760796
","x: 324.9584655761719
y: 326.38690185546875
z: -0.004599523730576038
","x: 323.1760559082031
y: 323.2711486816406
z: -0.006253232713788748
","x: 321.3050537109375
y: 323.04974365234375
z: -0.005131176672875881
","x: 320.487060546875
y: 323.5897216796875
z: -0.004217441659420729
","x: 323.9801330566406
y: 329.26123046875
z: -0.0068064103834331036
","x: 322.5850524902344
y: 326.7999267578125
z: -0.007357697933912277
","x: 321.3187255859375
y: 326.40679931640625
z: -0.006361492443829775
","x: 320.84515380859375
y: 326.8875732421875
z: -0.0055447896011173725
"
15,"x: 288.2467041015625
y: 254.3455352783203
z: -0.24997195601463318
visibility: 0.9998809099197388
","x: 289.885009765625
y: 249.2902374267578
z: -0.24038371443748474
visibility: 0.9997084736824036
","x: 291.062744140625
y: 249.4969024658203
z: -0.2404264211654663
visibility: 0.9997005462646484
","x: 292.26312255859375
y: 249.7154998779297
z: -0.24046221375465393
visibility: 0.9996851682662964
","x: 286.6282043457031
y: 249.2630157470703
z: -0.23834793269634247
visibility: 0.9997034668922424
","x: 285.5732116699219
y: 249.39231872558594
z: -0.23837998509407043
visibility: 0.9997000098228455
","x: 284.524658203125
y: 249.53248596191406
z: -0.23842337727546692
visibility: 0.9997004866600037
","x: 294.47515869140625
y: 253.56671142578125
z: -0.15884508192539215
visibility: 0.9994171857833862
","x: 282.8004455566406
y: 253.2554473876953
z: -0.15089985728263855
visibility: 0.9995220303535461
","x: 290.82366943359375
y: 261.8262023925781
z: -0.21819476783275604
visibility: 0.9998947978019714
","x: 285.84954833984375
y: 261.14501953125
z: -0.21576249599456787
visibility: 0.9998969435691833
","x: 305.7674255371094
y: 291.8214111328125
z: -0.09809499233961105
visibility: 0.9999224543571472
","x: 272.5726318359375
y: 287.5925598144531
z: -0.0715024322271347
visibility: 0.9997819662094116
","x: 311.32904052734375
y: 326.4010925292969
z: -0.1345212757587433
visibility: 0.9543127417564392
","x: 259.29656982421875
y: 317.43359375
z: -0.056377995759248734
visibility: 0.9796848893165588
","x: 323.2266540527344
y: 331.04925537109375
z: -0.3038158714771271
visibility: 0.9434881806373596
","x: 239.6869354248047
y: 332.6067810058594
z: -0.15975706279277802
visibility: 0.968774139881134
","x: 328.3157043457031
y: 336.2149658203125
z: -0.33692118525505066
visibility: 0.9174746870994568
","x: 234.59829711914062
y: 335.2616882324219
z: -0.18152114748954773
visibility: 0.9438078999519348
","x: 328.64886474609375
y: 331.05999755859375
z: -0.36330467462539673
visibility: 0.9225942492485046
","x: 233.70030212402344
y: 334.4075927734375
z: -0.20408372581005096
visibility: 0.9459943771362305
","x: 326.5345458984375
y: 328.29107666015625
z: -0.3188803791999817
visibility: 0.8997421860694885
","x: 235.6065216064453
y: 335.25372314453125
z: -0.17113803327083588
visibility: 0.9293636083602905
","x: 299.1520690917969
y: 371.0935974121094
z: -0.0027418481186032295
visibility: 0.9995848536491394
","x: 277.95709228515625
y: 370.3066711425781
z: 0.002756702248007059
visibility: 0.9993396401405334
","x: 293.040771484375
y: 441.759765625
z: -0.023834090679883957
visibility: 0.9806801676750183
","x: 277.7193908691406
y: 435.8099670410156
z: -0.013655923306941986
visibility: 0.9692686796188354
","x: 286.39715576171875
y: 501.3560791015625
z: 0.09496022760868073
visibility: 0.9821203351020813
","x: 275.9037170410156
y: 493.3007507324219
z: 0.11240693181753159
visibility: 0.9338220357894897
","x: 283.79248046875
y: 509.7520446777344
z: 0.10067173093557358
visibility: 0.857111930847168
","x: 276.06884765625
y: 500.21917724609375
z: 0.11827747523784637
visibility: 0.7431972026824951
","x: 285.3359680175781
y: 521.84716796875
z: -0.0035209753550589085
visibility: 0.9750648736953735
","x: 275.61541748046875
y: 515.7940063476562
z: 0.012921346351504326
visibility: 0.9370725750923157
",,,,,,,,,,,,,,,,,,,,,,5.0920069217681885,"x: 324.45855712890625
y: 342.1258544921875
z: 0.0
","x: 327.34075927734375
y: 336.7818603515625
z: 0.00022922300559002906
","x: 330.3833312988281
y: 333.26556396484375
z: -0.0015087230131030083
","x: 332.4244384765625
y: 331.1585998535156
z: -0.003957529552280903
","x: 333.72314453125
y: 330.0250549316406
z: -0.005904264282435179
","x: 334.92529296875
y: 339.2556457519531
z: -0.00118371716234833
","x: 335.32720947265625
y: 334.4437255859375
z: -0.003922270145267248
","x: 333.04583740234375
y: 333.13067626953125
z: -0.004827248863875866
","x: 331.42132568359375
y: 333.55377197265625
z: -0.00516085047274828
","x: 334.3569030761719
y: 342.48687744140625
z: -0.003427398856729269
","x: 334.0030517578125
y: 336.11260986328125
z: -0.005906091537326574
","x: 331.65814208984375
y: 335.1851806640625
z: -0.0054819295182824135
","x: 330.20257568359375
y: 336.197509765625
z: -0.0050179120153188705
","x: 332.984375
y: 345.38922119140625
z: -0.005937769543379545
","x: 332.65911865234375
y: 339.3633728027344
z: -0.00784046109765768
","x: 330.5600891113281
y: 338.2010498046875
z: -0.00641101598739624
","x: 329.29864501953125
y: 338.96710205078125
z: -0.005308198276907206
","x: 331.1819763183594
y: 347.8232116699219
z: -0.008628896437585354
","x: 331.02679443359375
y: 342.53662109375
z: -0.00925565417855978
","x: 329.61798095703125
y: 341.044189453125
z: -0.008000441826879978
","x: 328.6440734863281
y: 341.4671630859375
z: -0.006997975055128336
"
16,"x: 288.2467041015625
y: 254.3455352783203
z: -0.24997195601463318
visibility: 0.9998809099197388
","x: 289.885009765625
y: 249.2902374267578
z: -0.24038371443748474
visibility: 0.9997084736824036
","x: 291.062744140625
y: 249.4969024658203
z: -0.2404264211654663
visibility: 0.9997005462646484
","x: 292.26312255859375
y: 249.7154998779297
z: -0.24046221375465393
visibility: 0.9996851682662964
","x: 286.6282043457031
y: 249.2630157470703
z: -0.23834793269634247
visibility: 0.9997034668922424
","x: 285.5732116699219
y: 249.39231872558594
z: -0.23837998509407043
visibility: 0.9997000098228455
","x: 284.524658203125
y: 249.53248596191406
z: -0.23842337727546692
visibility: 0.9997004866600037
","x: 294.47515869140625
y: 253.56671142578125
z: -0.15884508192539215
visibility: 0.9994171857833862
","x: 282.8004455566406
y: 253.2554473876953
z: -0.15089985728263855
visibility: 0.9995220303535461
","x: 290.82366943359375
y: 261.8262023925781
z: -0.21819476783275604
visibility: 0.9998947978019714
","x: 285.84954833984375
y: 261.14501953125
z: -0.21576249599456787
visibility: 0.9998969435691833
","x: 305.7674255371094
y: 291.8214111328125
z: -0.09809499233961105
visibility: 0.9999224543571472
","x: 272.5726318359375
y: 287.5925598144531
z: -0.0715024322271347
visibility: 0.9997819662094116
","x: 311.32904052734375
y: 326.4010925292969
z: -0.1345212757587433
visibility: 0.9543127417564392
","x: 259.29656982421875
y: 317.43359375
z: -0.056377995759248734
visibility: 0.9796848893165588
","x: 323.2266540527344
y: 331.04925537109375
z: -0.3038158714771271
visibility: 0.9434881806373596
","x: 239.6869354248047
y: 332.6067810058594
z: -0.15975706279277802
visibility: 0.968774139881134
","x: 328.3157043457031
y: 336.2149658203125
z: -0.33692118525505066
visibility: 0.9174746870994568
","x: 234.59829711914062
y: 335.2616882324219
z: -0.18152114748954773
visibility: 0.9438078999519348
","x: 328.64886474609375
y: 331.05999755859375
z: -0.36330467462539673
visibility: 0.9225942492485046
","x: 233.70030212402344
y: 334.4075927734375
z: -0.20408372581005096
visibility: 0.9459943771362305
","x: 326.5345458984375
y: 328.29107666015625
z: -0.3188803791999817
visibility: 0.8997421860694885
","x: 235.6065216064453
y: 335.25372314453125
z: -0.17113803327083588
visibility: 0.9293636083602905
","x: 299.1520690917969
y: 371.0935974121094
z: -0.0027418481186032295
visibility: 0.9995848536491394
","x: 277.95709228515625
y: 370.3066711425781
z: 0.002756702248007059
visibility: 0.9993396401405334
","x: 293.040771484375
y: 441.759765625
z: -0.023834090679883957
visibility: 0.9806801676750183
","x: 277.7193908691406
y: 435.8099670410156
z: -0.013655923306941986
visibility: 0.9692686796188354
","x: 286.39715576171875
y: 501.3560791015625
z: 0.09496022760868073
visibility: 0.9821203351020813
","x: 275.9037170410156
y: 493.3007507324219
z: 0.11240693181753159
visibility: 0.9338220357894897
","x: 283.79248046875
y: 509.7520446777344
z: 0.10067173093557358
visibility: 0.857111930847168
","x: 276.06884765625
y: 500.21917724609375
z: 0.11827747523784637
visibility: 0.7431972026824951
","x: 285.3359680175781
y: 521.84716796875
z: -0.0035209753550589085
visibility: 0.9750648736953735
","x: 275.61541748046875
y: 515.7940063476562
z: 0.012921346351504326
visibility: 0.9370725750923157
",,,,,,,,,,,,,,,,,,,,,,5.0920069217681885,"x: 324.45855712890625
y: 342.1258544921875
z: 0.0
","x: 327.34075927734375
y: 336.7818603515625
z: 0.00022922300559002906
","x: 330.3833312988281
y: 333.26556396484375
z: -0.0015087230131030083
","x: 332.4244384765625
y: 331.1585998535156
z: -0.003957529552280903
","x: 333.72314453125
y: 330.0250549316406
z: -0.005904264282435179
","x: 334.92529296875
y: 339.2556457519531
z: -0.00118371716234833
","x: 335.32720947265625
y: 334.4437255859375
z: -0.003922270145267248
","x: 333.04583740234375
y: 333.13067626953125
z: -0.004827248863875866
","x: 331.42132568359375
y: 333.55377197265625
z: -0.00516085047274828
","x: 334.3569030761719
y: 342.48687744140625
z: -0.003427398856729269
","x: 334.0030517578125
y: 336.11260986328125
z: -0.005906091537326574
","x: 331.65814208984375
y: 335.1851806640625
z: -0.0054819295182824135
","x: 330.20257568359375
y: 336.197509765625
z: -0.0050179120153188705
","x: 332.984375
y: 345.38922119140625
z: -0.005937769543379545
","x: 332.65911865234375
y: 339.3633728027344
z: -0.00784046109765768
","x: 330.5600891113281
y: 338.2010498046875
z: -0.00641101598739624
","x: 329.29864501953125
y: 338.96710205078125
z: -0.005308198276907206
","x: 331.1819763183594
y: 347.8232116699219
z: -0.008628896437585354
","x: 331.02679443359375
y: 342.53662109375
z: -0.00925565417855978
","x: 329.61798095703125
y: 341.044189453125
z: -0.008000441826879978
","x: 328.6440734863281
y: 341.4671630859375
z: -0.006997975055128336
"
17,"x: 288.2467041015625
y: 254.3455352783203
z: -0.24997195601463318
visibility: 0.9998809099197388
","x: 289.885009765625
y: 249.2902374267578
z: -0.24038371443748474
visibility: 0.9997084736824036
","x: 291.062744140625
y: 249.4969024658203
z: -0.2404264211654663
visibility: 0.9997005462646484
","x: 292.26312255859375
y: 249.7154998779297
z: -0.24046221375465393
visibility: 0.9996851682662964
","x: 286.6282043457031
y: 249.2630157470703
z: -0.23834793269634247
visibility: 0.9997034668922424
","x: 285.5732116699219
y: 249.39231872558594
z: -0.23837998509407043
visibility: 0.9997000098228455
","x: 284.524658203125
y: 249.53248596191406
z: -0.23842337727546692
visibility: 0.9997004866600037
","x: 294.47515869140625
y: 253.56671142578125
z: -0.15884508192539215
visibility: 0.9994171857833862
","x: 282.8004455566406
y: 253.2554473876953
z: -0.15089985728263855
visibility: 0.9995220303535461
","x: 290.82366943359375
y: 261.8262023925781
z: -0.21819476783275604
visibility: 0.9998947978019714
","x: 285.84954833984375
y: 261.14501953125
z: -0.21576249599456787
visibility: 0.9998969435691833
","x: 305.7674255371094
y: 291.8214111328125
z: -0.09809499233961105
visibility: 0.9999224543571472
","x: 272.5726318359375
y: 287.5925598144531
z: -0.0715024322271347
visibility: 0.9997819662094116
","x: 311.32904052734375
y: 326.4010925292969
z: -0.1345212757587433
visibility: 0.9543127417564392
","x: 259.29656982421875
y: 317.43359375
z: -0.056377995759248734
visibility: 0.9796848893165588
","x: 323.2266540527344
y: 331.04925537109375
z: -0.3038158714771271
visibility: 0.9434881806373596
","x: 239.6869354248047
y: 332.6067810058594
z: -0.15975706279277802
visibility: 0.968774139881134
","x: 328.3157043457031
y: 336.2149658203125
z: -0.33692118525505066
visibility: 0.9174746870994568
","x: 234.59829711914062
y: 335.2616882324219
z: -0.18152114748954773
visibility: 0.9438078999519348
","x: 328.64886474609375
y: 331.05999755859375
z: -0.36330467462539673
visibility: 0.9225942492485046
","x: 233.70030212402344
y: 334.4075927734375
z: -0.20408372581005096
visibility: 0.9459943771362305
","x: 326.5345458984375
y: 328.29107666015625
z: -0.3188803791999817
visibility: 0.8997421860694885
","x: 235.6065216064453
y: 335.25372314453125
z: -0.17113803327083588
visibility: 0.9293636083602905
","x: 299.1520690917969
y: 371.0935974121094
z: -0.0027418481186032295
visibility: 0.9995848536491394
","x: 277.95709228515625
y: 370.3066711425781
z: 0.002756702248007059
visibility: 0.9993396401405334
","x: 293.040771484375
y: 441.759765625
z: -0.023834090679883957
visibility: 0.9806801676750183
","x: 277.7193908691406
y: 435.8099670410156
z: -0.013655923306941986
visibility: 0.9692686796188354
","x: 286.39715576171875
y: 501.3560791015625
z: 0.09496022760868073
visibility: 0.9821203351020813
","x: 275.9037170410156
y: 493.3007507324219
z: 0.11240693181753159
visibility: 0.9338220357894897
","x: 283.79248046875
y: 509.7520446777344
z: 0.10067173093557358
visibility: 0.857111930847168
","x: 276.06884765625
y: 500.21917724609375
z: 0.11827747523784637
visibility: 0.7431972026824951
","x: 285.3359680175781
y: 521.84716796875
z: -0.0035209753550589085
visibility: 0.9750648736953735
","x: 275.61541748046875
y: 515.7940063476562
z: 0.012921346351504326
visibility: 0.9370725750923157
",,,,,,,,,,,,,,,,,,,,,,5.0920069217681885,"x: 324.45855712890625
y: 342.1258544921875
z: 0.0
","x: 327.34075927734375
y: 336.7818603515625
z: 0.00022922300559002906
","x: 330.3833312988281
y: 333.26556396484375
z: -0.0015087230131030083
","x: 332.4244384765625
y: 331.1585998535156
z: -0.003957529552280903
","x: 333.72314453125
y: 330.0250549316406
z: -0.005904264282435179
","x: 334.92529296875
y: 339.2556457519531
z: -0.00118371716234833
","x: 335.32720947265625
y: 334.4437255859375
z: -0.003922270145267248
","x: 333.04583740234375
y: 333.13067626953125
z: -0.004827248863875866
","x: 331.42132568359375
y: 333.55377197265625
z: -0.00516085047274828
","x: 334.3569030761719
y: 342.48687744140625
z: -0.003427398856729269
","x: 334.0030517578125
y: 336.11260986328125
z: -0.005906091537326574
","x: 331.65814208984375
y: 335.1851806640625
z: -0.0054819295182824135
","x: 330.20257568359375
y: 336.197509765625
z: -0.0050179120153188705
","x: 332.984375
y: 345.38922119140625
z: -0.005937769543379545
","x: 332.65911865234375
y: 339.3633728027344
z: -0.00784046109765768
","x: 330.5600891113281
y: 338.2010498046875
z: -0.00641101598739624
","x: 329.29864501953125
y: 338.96710205078125
z: -0.005308198276907206
","x: 331.1819763183594
y: 347.8232116699219
z: -0.008628896437585354
","x: 331.02679443359375
y: 342.53662109375
z: -0.00925565417855978
","x: 329.61798095703125
y: 341.044189453125
z: -0.008000441826879978
","x: 328.6440734863281
y: 341.4671630859375
z: -0.006997975055128336
"
18,"x: 285.4693603515625
y: 247.7853546142578
z: -0.19514688849449158
visibility: 0.9998860359191895
","x: 287.1184387207031
y: 243.33883666992188
z: -0.185659721493721
visibility: 0.9997177124023438
","x: 288.44915771484375
y: 243.46270751953125
z: -0.1857100874185562
visibility: 0.9997146129608154
","x: 289.69097900390625
y: 243.6253662109375
z: -0.1857355684041977
visibility: 0.9997003674507141
","x: 283.4610595703125
y: 243.51052856445312
z: -0.18104158341884613
visibility: 0.9997020959854126
","x: 282.38726806640625
y: 243.76524353027344
z: -0.1810663640499115
visibility: 0.9996972680091858
","x: 281.2583923339844
y: 243.9982452392578
z: -0.18110010027885437
visibility: 0.9996938705444336
","x: 291.9101257324219
y: 247.78517150878906
z: -0.11587760597467422
visibility: 0.9994509816169739
","x: 279.5895080566406
y: 248.58380126953125
z: -0.09226910769939423
visibility: 0.9995054602622986
","x: 288.4845275878906
y: 254.91302490234375
z: -0.16811206936836243
visibility: 0.9998962879180908
","x: 283.2193908691406
y: 254.74758911132812
z: -0.16174454987049103
visibility: 0.9998905062675476
","x: 304.94561767578125
y: 285.4810791015625
z: -0.09357908368110657
visibility: 0.9999202489852905
","x: 270.7651062011719
y: 287.52423095703125
z: -0.0263256523758173
visibility: 0.9997723698616028
","x: 311.393798828125
y: 318.25146484375
z: -0.15095283091068268
visibility: 0.9490771293640137
","x: 256.6649169921875
y: 313.4261474609375
z: -0.03648420423269272
visibility: 0.9787255525588989
","x: 326.1543884277344
y: 323.2348937988281
z: -0.34779754281044006
visibility: 0.9428961277008057
","x: 235.8040008544922
y: 322.35943603515625
z: -0.1464851051568985
visibility: 0.9694990515708923
","x: 330.6525573730469
y: 323.892333984375
z: -0.38170745968818665
visibility: 0.9183200001716614
","x: 230.6383056640625
y: 320.9054870605469
z: -0.1664438545703888
visibility: 0.9446814656257629
","x: 330.97479248046875
y: 320.8380126953125
z: -0.4028944969177246
visibility: 0.9241836071014404
","x: 230.11280822753906
y: 319.1921691894531
z: -0.18982192873954773
visibility: 0.9474118947982788
","x: 328.804931640625
y: 320.9318542480469
z: -0.36156994104385376
visibility: 0.9027525186538696
","x: 231.6571044921875
y: 320.9255676269531
z: -0.15986000001430511
visibility: 0.9322901964187622
","x: 299.142822265625
y: 367.5970458984375
z: -0.006132172420620918
visibility: 0.9995377659797668
","x: 277.1294860839844
y: 368.8477783203125
z: 0.0061171529814600945
visibility: 0.9992746710777283
","x: 293.2109680175781
y: 439.676513671875
z: -0.03567437082529068
visibility: 0.9802952408790588
","x: 276.9004821777344
y: 435.8277893066406
z: -0.01581885851919651
visibility: 0.970151960849762
","x: 286.9924621582031
y: 500.53948974609375
z: 0.07309984415769577
visibility: 0.9819735288619995
","x: 275.19659423828125
y: 495.72760009765625
z: 0.08810968697071075
visibility: 0.9379866719245911
","x: 285.1875305175781
y: 507.6755065917969
z: 0.07779926806688309
visibility: 0.8476620316505432
","x: 275.833740234375
y: 501.9952697753906
z: 0.09246743470430374
visibility: 0.7421660423278809
","x: 284.3013610839844
y: 523.1658935546875
z: -0.02872750163078308
visibility: 0.9747574329376221
","x: 275.18243408203125
y: 520.3168334960938
z: -0.010327215306460857
visibility: 0.9405561089515686
",,,,,,,,,,,,,,,,,,,,,,5.234321594238281,,,,,,,,,,,,,,,,,,,,,
19,"x: 285.4693603515625
y: 247.7853546142578
z: -0.19514688849449158
visibility: 0.9998860359191895
","x: 287.1184387207031
y: 243.33883666992188
z: -0.185659721493721
visibility: 0.9997177124023438
","x: 288.44915771484375
y: 243.46270751953125
z: -0.1857100874185562
visibility: 0.9997146129608154
","x: 289.69097900390625
y: 243.6253662109375
z: -0.1857355684041977
visibility: 0.9997003674507141
","x: 283.4610595703125
y: 243.51052856445312
z: -0.18104158341884613
visibility: 0.9997020959854126
","x: 282.38726806640625
y: 243.76524353027344
z: -0.1810663640499115
visibility: 0.9996972680091858
","x: 281.2583923339844
y: 243.9982452392578
z: -0.18110010027885437
visibility: 0.9996938705444336
","x: 291.9101257324219
y: 247.78517150878906
z: -0.11587760597467422
visibility: 0.9994509816169739
","x: 279.5895080566406
y: 248.58380126953125
z: -0.09226910769939423
visibility: 0.9995054602622986
","x: 288.4845275878906
y: 254.91302490234375
z: -0.16811206936836243
visibility: 0.9998962879180908
","x: 283.2193908691406
y: 254.74758911132812
z: -0.16174454987049103
visibility: 0.9998905062675476
","x: 304.94561767578125
y: 285.4810791015625
z: -0.09357908368110657
visibility: 0.9999202489852905
","x: 270.7651062011719
y: 287.52423095703125
z: -0.0263256523758173
visibility: 0.9997723698616028
","x: 311.393798828125
y: 318.25146484375
z: -0.15095283091068268
visibility: 0.9490771293640137
","x: 256.6649169921875
y: 313.4261474609375
z: -0.03648420423269272
visibility: 0.9787255525588989
","x: 326.1543884277344
y: 323.2348937988281
z: -0.34779754281044006
visibility: 0.9428961277008057
","x: 235.8040008544922
y: 322.35943603515625
z: -0.1464851051568985
visibility: 0.9694990515708923
","x: 330.6525573730469
y: 323.892333984375
z: -0.38170745968818665
visibility: 0.9183200001716614
","x: 230.6383056640625
y: 320.9054870605469
z: -0.1664438545703888
visibility: 0.9446814656257629
","x: 330.97479248046875
y: 320.8380126953125
z: -0.4028944969177246
visibility: 0.9241836071014404
","x: 230.11280822753906
y: 319.1921691894531
z: -0.18982192873954773
visibility: 0.9474118947982788
","x: 328.804931640625
y: 320.9318542480469
z: -0.36156994104385376
visibility: 0.9027525186538696
","x: 231.6571044921875
y: 320.9255676269531
z: -0.15986000001430511
visibility: 0.9322901964187622
","x: 299.142822265625
y: 367.5970458984375
z: -0.006132172420620918
visibility: 0.9995377659797668
","x: 277.1294860839844
y: 368.8477783203125
z: 0.0061171529814600945
visibility: 0.9992746710777283
","x: 293.2109680175781
y: 439.676513671875
z: -0.03567437082529068
visibility: 0.9802952408790588
","x: 276.9004821777344
y: 435.8277893066406
z: -0.01581885851919651
visibility: 0.970151960849762
","x: 286.9924621582031
y: 500.53948974609375
z: 0.07309984415769577
visibility: 0.9819735288619995
","x: 275.19659423828125
y: 495.72760009765625
z: 0.08810968697071075
visibility: 0.9379866719245911
","x: 285.1875305175781
y: 507.6755065917969
z: 0.07779926806688309
visibility: 0.8476620316505432
","x: 275.833740234375
y: 501.9952697753906
z: 0.09246743470430374
visibility: 0.7421660423278809
","x: 284.3013610839844
y: 523.1658935546875
z: -0.02872750163078308
visibility: 0.9747574329376221
","x: 275.18243408203125
y: 520.3168334960938
z: -0.010327215306460857
visibility: 0.9405561089515686
",,,,,,,,,,,,,,,,,,,,,,5.234321594238281,,,,,,,,,,,,,,,,,,,,,
20,"x: 284.3311767578125
y: 238.26210021972656
z: -0.19619975984096527
visibility: 0.9998748302459717
","x: 285.7829284667969
y: 233.73802185058594
z: -0.1864311397075653
visibility: 0.9996713399887085
","x: 287.07183837890625
y: 233.7745819091797
z: -0.1864725947380066
visibility: 0.9996814131736755
","x: 288.3671875
y: 233.8895263671875
z: -0.18650278449058533
visibility: 0.9996633529663086
","x: 282.3041076660156
y: 234.22630310058594
z: -0.18177461624145508
visibility: 0.9996405243873596
","x: 281.22967529296875
y: 234.61306762695312
z: -0.18180885910987854
visibility: 0.9996405839920044
","x: 280.1136474609375
y: 235.04571533203125
z: -0.18183304369449615
visibility: 0.9996323585510254
","x: 290.6807861328125
y: 237.682861328125
z: -0.11362569034099579
visibility: 0.9994218349456787
","x: 278.5352783203125
y: 239.96275329589844
z: -0.08927439153194427
visibility: 0.9993953108787537
","x: 287.10662841796875
y: 245.13021850585938
z: -0.16780439019203186
visibility: 0.9998783469200134
","x: 282.3768615722656
y: 245.55276489257812
z: -0.1612347662448883
visibility: 0.9998552799224854
","x: 304.6098937988281
y: 271.4661865234375
z: -0.08169836550951004
visibility: 0.9999104738235474
","x: 270.8232727050781
y: 278.3144226074219
z: -0.019747450947761536
visibility: 0.9997501373291016
","x: 317.1358642578125
y: 298.7840576171875
z: -0.16201260685920715
visibility: 0.9485275149345398
","x: 256.08013916015625
y: 303.8110046386719
z: -0.0362648144364357
visibility: 0.9773058891296387
","x: 323.4635314941406
y: 304.7616271972656
z: -0.35042768716812134
visibility: 0.9386157989501953
","x: 235.4114532470703
y: 311.9693908691406
z: -0.1558907926082611
visibility: 0.9702529907226562
","x: 325.907470703125
y: 306.15838623046875
z: -0.3857386112213135
visibility: 0.9126915335655212
","x: 230.11395263671875
y: 309.4692077636719
z: -0.17934097349643707
visibility: 0.9457263946533203
","x: 324.13531494140625
y: 303.00421142578125
z: -0.4013879895210266
visibility: 0.9195894598960876
","x: 229.2736053466797
y: 307.6637878417969
z: -0.20187151432037354
visibility: 0.9488723874092102
","x: 322.52313232421875
y: 302.69586181640625
z: -0.3615761697292328
visibility: 0.8994434475898743
","x: 231.1833953857422
y: 309.51739501953125
z: -0.16900615394115448
visibility: 0.9349212050437927
","x: 299.1081237792969
y: 356.9183044433594
z: -0.011244221590459347
visibility: 0.9995061159133911
","x: 277.24658203125
y: 357.5469665527344
z: 0.011240880936384201
visibility: 0.9992048144340515
","x: 292.713134765625
y: 433.0653076171875
z: -0.03920534625649452
visibility: 0.9796463251113892
","x: 276.84503173828125
y: 430.5628967285156
z: -0.020700672641396523
visibility: 0.970367431640625
","x: 288.36376953125
y: 499.0921630859375
z: 0.062105823308229446
visibility: 0.9816543459892273
","x: 274.29461669921875
y: 491.76123046875
z: 0.07972587645053864
visibility: 0.9419834613800049
","x: 286.8471374511719
y: 506.47271728515625
z: 0.06687899678945541
visibility: 0.8401769995689392
","x: 275.3326416015625
y: 497.8191833496094
z: 0.08378516882658005
visibility: 0.7463136911392212
","x: 283.9996032714844
y: 522.8143920898438
z: -0.03026568330824375
visibility: 0.9741514325141907
","x: 275.1475524902344
y: 519.32421875
z: -0.019032975658774376
visibility: 0.9436500668525696
",,,,,,,,,,,,,,,,,,,,,,5.35973334312439,,,,,,,,,,,,,,,,,,,,,
21,"x: 284.3311767578125
y: 238.26210021972656
z: -0.19619975984096527
visibility: 0.9998748302459717
","x: 285.7829284667969
y: 233.73802185058594
z: -0.1864311397075653
visibility: 0.9996713399887085
","x: 287.07183837890625
y: 233.7745819091797
z: -0.1864725947380066
visibility: 0.9996814131736755
","x: 288.3671875
y: 233.8895263671875
z: -0.18650278449058533
visibility: 0.9996633529663086
","x: 282.3041076660156
y: 234.22630310058594
z: -0.18177461624145508
visibility: 0.9996405243873596
","x: 281.22967529296875
y: 234.61306762695312
z: -0.18180885910987854
visibility: 0.9996405839920044
","x: 280.1136474609375
y: 235.04571533203125
z: -0.18183304369449615
visibility: 0.9996323585510254
","x: 290.6807861328125
y: 237.682861328125
z: -0.11362569034099579
visibility: 0.9994218349456787
","x: 278.5352783203125
y: 239.96275329589844
z: -0.08927439153194427
visibility: 0.9993953108787537
","x: 287.10662841796875
y: 245.13021850585938
z: -0.16780439019203186
visibility: 0.9998783469200134
","x: 282.3768615722656
y: 245.55276489257812
z: -0.1612347662448883
visibility: 0.9998552799224854
","x: 304.6098937988281
y: 271.4661865234375
z: -0.08169836550951004
visibility: 0.9999104738235474
","x: 270.8232727050781
y: 278.3144226074219
z: -0.019747450947761536
visibility: 0.9997501373291016
","x: 317.1358642578125
y: 298.7840576171875
z: -0.16201260685920715
visibility: 0.9485275149345398
","x: 256.08013916015625
y: 303.8110046386719
z: -0.0362648144364357
visibility: 0.9773058891296387
","x: 323.4635314941406
y: 304.7616271972656
z: -0.35042768716812134
visibility: 0.9386157989501953
","x: 235.4114532470703
y: 311.9693908691406
z: -0.1558907926082611
visibility: 0.9702529907226562
","x: 325.907470703125
y: 306.15838623046875
z: -0.3857386112213135
visibility: 0.9126915335655212
","x: 230.11395263671875
y: 309.4692077636719
z: -0.17934097349643707
visibility: 0.9457263946533203
","x: 324.13531494140625
y: 303.00421142578125
z: -0.4013879895210266
visibility: 0.9195894598960876
","x: 229.2736053466797
y: 307.6637878417969
z: -0.20187151432037354
visibility: 0.9488723874092102
","x: 322.52313232421875
y: 302.69586181640625
z: -0.3615761697292328
visibility: 0.8994434475898743
","x: 231.1833953857422
y: 309.51739501953125
z: -0.16900615394115448
visibility: 0.9349212050437927
","x: 299.1081237792969
y: 356.9183044433594
z: -0.011244221590459347
visibility: 0.9995061159133911
","x: 277.24658203125
y: 357.5469665527344
z: 0.011240880936384201
visibility: 0.9992048144340515
","x: 292.713134765625
y: 433.0653076171875
z: -0.03920534625649452
visibility: 0.9796463251113892
","x: 276.84503173828125
y: 430.5628967285156
z: -0.020700672641396523
visibility: 0.970367431640625
","x: 288.36376953125
y: 499.0921630859375
z: 0.062105823308229446
visibility: 0.9816543459892273
","x: 274.29461669921875
y: 491.76123046875
z: 0.07972587645053864
visibility: 0.9419834613800049
","x: 286.8471374511719
y: 506.47271728515625
z: 0.06687899678945541
visibility: 0.8401769995689392
","x: 275.3326416015625
y: 497.8191833496094
z: 0.08378516882658005
visibility: 0.7463136911392212
","x: 283.9996032714844
y: 522.8143920898438
z: -0.03026568330824375
visibility: 0.9741514325141907
","x: 275.1475524902344
y: 519.32421875
z: -0.019032975658774376
visibility: 0.9436500668525696
",,,,,,,,,,,,,,,,,,,,,,5.35973334312439,,,,,,,,,,,,,,,,,,,,,
22,"x: 285.0313720703125
y: 243.48077392578125
z: -0.1977204531431198
visibility: 0.9998789429664612
","x: 286.4580078125
y: 238.55419921875
z: -0.18967801332473755
visibility: 0.9996887445449829
","x: 287.6929626464844
y: 238.66319274902344
z: -0.1897120177745819
visibility: 0.9996966123580933
","x: 288.9557800292969
y: 238.8168487548828
z: -0.18973080813884735
visibility: 0.9996821880340576
","x: 283.1324462890625
y: 238.9493408203125
z: -0.18596085906028748
visibility: 0.9996572732925415
","x: 282.0428161621094
y: 239.3765411376953
z: -0.18600380420684814
visibility: 0.9996551275253296
","x: 280.89556884765625
y: 239.88661193847656
z: -0.18603619933128357
visibility: 0.9996485114097595
","x: 291.2286071777344
y: 242.70240783691406
z: -0.1064007431268692
visibility: 0.9994587898254395
","x: 279.09967041015625
y: 245.07485961914062
z: -0.09716878831386566
visibility: 0.9994170665740967
","x: 287.6402893066406
y: 250.86732482910156
z: -0.17115411162376404
visibility: 0.9998841285705566
","x: 283.064208984375
y: 251.57315063476562
z: -0.16596205532550812
visibility: 0.999859094619751
","x: 304.4451599121094
y: 278.25225830078125
z: -0.07217423617839813
visibility: 0.9999083280563354
","x: 270.9532775878906
y: 283.47088623046875
z: -0.02665979601442814
visibility: 0.9997199773788452
","x: 316.2689208984375
y: 315.55859375
z: -0.1441732496023178
visibility: 0.9516124725341797
","x: 257.2840270996094
y: 315.0350341796875
z: -0.06545620411634445
visibility: 0.9671038389205933
","x: 307.5499572753906
y: 312.49920654296875
z: -0.3197530210018158
visibility: 0.9412381052970886
","x: 246.35166931152344
y: 325.61846923828125
z: -0.24880746006965637
visibility: 0.9587903618812561
","x: 304.9990539550781
y: 312.2002868652344
z: -0.35889312624931335
visibility: 0.914734959602356
","x: 244.06222534179688
y: 325.7081604003906
z: -0.2842479944229126
visibility: 0.9317801594734192
","x: 304.02044677734375
y: 307.5022277832031
z: -0.3649941682815552
visibility: 0.9210450053215027
","x: 244.53077697753906
y: 325.0860900878906
z: -0.3008081614971161
visibility: 0.9355801343917847
","x: 304.3363342285156
y: 307.9073486328125
z: -0.3259843587875366
visibility: 0.9001213312149048
","x: 245.29000854492188
y: 325.573974609375
z: -0.2605852782726288
visibility: 0.9207313060760498
","x: 299.19921875
y: 366.8812255859375
z: -0.011622515507042408
visibility: 0.9994432926177979
","x: 277.3274230957031
y: 367.6440734863281
z: 0.011609993875026703
visibility: 0.9991347193717957
","x: 292.0253601074219
y: 441.7747802734375
z: -0.026988480240106583
visibility: 0.9806301593780518
","x: 277.0828552246094
y: 440.1628112792969
z: 0.0013397082220762968
visibility: 0.9709827303886414
","x: 287.500244140625
y: 500.74749755859375
z: 0.11485844850540161
visibility: 0.9817845821380615
","x: 275.6215515136719
y: 498.4707946777344
z: 0.10843499004840851
visibility: 0.9456056952476501
","x: 286.9403991699219
y: 508.2961730957031
z: 0.12280074506998062
visibility: 0.8364711403846741
","x: 276.9371032714844
y: 504.6099548339844
z: 0.10181604325771332
visibility: 0.7520806789398193
","x: 284.13006591796875
y: 522.9912109375
z: 0.01698264665901661
visibility: 0.9742335677146912
","x: 274.3042297363281
y: 520.6025390625
z: 0.027036884799599648
visibility: 0.9463322758674622
",,,,,,,,,,,,,,,,,,,,,,5.51557993888855,,,,,,,,,,,,,,,,,,,,,
23,"x: 285.0313720703125
y: 243.48077392578125
z: -0.1977204531431198
visibility: 0.9998789429664612
","x: 286.4580078125
y: 238.55419921875
z: -0.18967801332473755
visibility: 0.9996887445449829
","x: 287.6929626464844
y: 238.66319274902344
z: -0.1897120177745819
visibility: 0.9996966123580933
","x: 288.9557800292969
y: 238.8168487548828
z: -0.18973080813884735
visibility: 0.9996821880340576
","x: 283.1324462890625
y: 238.9493408203125
z: -0.18596085906028748
visibility: 0.9996572732925415
","x: 282.0428161621094
y: 239.3765411376953
z: -0.18600380420684814
visibility: 0.9996551275253296
","x: 280.89556884765625
y: 239.88661193847656
z: -0.18603619933128357
visibility: 0.9996485114097595
","x: 291.2286071777344
y: 242.70240783691406
z: -0.1064007431268692
visibility: 0.9994587898254395
","x: 279.09967041015625
y: 245.07485961914062
z: -0.09716878831386566
visibility: 0.9994170665740967
","x: 287.6402893066406
y: 250.86732482910156
z: -0.17115411162376404
visibility: 0.9998841285705566
","x: 283.064208984375
y: 251.57315063476562
z: -0.16596205532550812
visibility: 0.999859094619751
","x: 304.4451599121094
y: 278.25225830078125
z: -0.07217423617839813
visibility: 0.9999083280563354
","x: 270.9532775878906
y: 283.47088623046875
z: -0.02665979601442814
visibility: 0.9997199773788452
","x: 316.2689208984375
y: 315.55859375
z: -0.1441732496023178
visibility: 0.9516124725341797
","x: 257.2840270996094
y: 315.0350341796875
z: -0.06545620411634445
visibility: 0.9671038389205933
","x: 307.5499572753906
y: 312.49920654296875
z: -0.3197530210018158
visibility: 0.9412381052970886
","x: 246.35166931152344
y: 325.61846923828125
z: -0.24880746006965637
visibility: 0.9587903618812561
","x: 304.9990539550781
y: 312.2002868652344
z: -0.35889312624931335
visibility: 0.914734959602356
","x: 244.06222534179688
y: 325.7081604003906
z: -0.2842479944229126
visibility: 0.9317801594734192
","x: 304.02044677734375
y: 307.5022277832031
z: -0.3649941682815552
visibility: 0.9210450053215027
","x: 244.53077697753906
y: 325.0860900878906
z: -0.3008081614971161
visibility: 0.9355801343917847
","x: 304.3363342285156
y: 307.9073486328125
z: -0.3259843587875366
visibility: 0.9001213312149048
","x: 245.29000854492188
y: 325.573974609375
z: -0.2605852782726288
visibility: 0.9207313060760498
","x: 299.19921875
y: 366.8812255859375
z: -0.011622515507042408
visibility: 0.9994432926177979
","x: 277.3274230957031
y: 367.6440734863281
z: 0.011609993875026703
visibility: 0.9991347193717957
","x: 292.0253601074219
y: 441.7747802734375
z: -0.026988480240106583
visibility: 0.9806301593780518
","x: 277.0828552246094
y: 440.1628112792969
z: 0.0013397082220762968
visibility: 0.9709827303886414
","x: 287.500244140625
y: 500.74749755859375
z: 0.11485844850540161
visibility: 0.9817845821380615
","x: 275.6215515136719
y: 498.4707946777344
z: 0.10843499004840851
visibility: 0.9456056952476501
","x: 286.9403991699219
y: 508.2961730957031
z: 0.12280074506998062
visibility: 0.8364711403846741
","x: 276.9371032714844
y: 504.6099548339844
z: 0.10181604325771332
visibility: 0.7520806789398193
","x: 284.13006591796875
y: 522.9912109375
z: 0.01698264665901661
visibility: 0.9742335677146912
","x: 274.3042297363281
y: 520.6025390625
z: 0.027036884799599648
visibility: 0.9463322758674622
",,,,,,,,,,,,,,,,,,,,,,5.51557993888855,,,,,,,,,,,,,,,,,,,,,
24,"x: 289.2815856933594
y: 250.77513122558594
z: -0.2300802767276764
visibility: 0.9998599886894226
","x: 290.7190246582031
y: 246.79640197753906
z: -0.21404139697551727
visibility: 0.9996263384819031
","x: 291.79254150390625
y: 247.171630859375
z: -0.2140382081270218
visibility: 0.9996272325515747
","x: 292.8978576660156
y: 247.60919189453125
z: -0.21403858065605164
visibility: 0.9996107220649719
","x: 287.3485412597656
y: 246.67259216308594
z: -0.21575216948986053
visibility: 0.999609649181366
","x: 285.98193359375
y: 246.9944610595703
z: -0.21579106152057648
visibility: 0.999610960483551
","x: 284.5445556640625
y: 247.377685546875
z: -0.21582040190696716
visibility: 0.9996106028556824
","x: 294.4048156738281
y: 252.89364624023438
z: -0.12301461398601532
visibility: 0.9993398785591125
","x: 281.5461730957031
y: 252.11505126953125
z: -0.1314179003238678
visibility: 0.9993160963058472
","x: 291.2060852050781
y: 258.3076171875
z: -0.19704711437225342
visibility: 0.9998583197593689
","x: 286.6048583984375
y: 258.14398193359375
z: -0.1992279440164566
visibility: 0.999845564365387
","x: 305.08709716796875
y: 285.6361999511719
z: -0.08801339566707611
visibility: 0.9998813271522522
","x: 271.9453125
y: 290.99737548828125
z: -0.08814423531293869
visibility: 0.9996870756149292
","x: 305.9722900390625
y: 324.3542175292969
