uscmakers/ReverseChoreography/data/10_feed_the_fire_lucky_daye.csv
,NOSE,LEFT_EYE_INNER,LEFT_EYE,LEFT_EYE_OUTER,RIGHT_EYE_INNER,RIGHT_EYE,RIGHT_EYE_OUTER,LEFT_EAR,RIGHT_EAR,MOUTH_LEFT,MOUTH_RIGHT,LEFT_SHOULDER,RIGHT_SHOULDER,LEFT_ELBOW,RIGHT_ELBOW,LEFT_WRIST,RIGHT_WRIST,LEFT_PINKY,RIGHT_PINKY,LEFT_INDEX,RIGHT_INDEX,LEFT_THUMB,RIGHT_THUMB,LEFT_HIP,RIGHT_HIP,LEFT_KNEE,RIGHT_KNEE,LEFT_ANKLE,RIGHT_ANKLE,LEFT_HEEL,RIGHT_HEEL,LEFT_FOOT_INDEX,RIGHT_FOOT_INDEX,TIMESTAMP,WRIST,THUMB_CPC,THUMB_MCP,THUMB_IP,THUMB_TIP,INDEX_FINGER_MCP,INDEX_FINGER_PIP,INDEX_FINGER_DIP,INDEX_FINGER_TIP,MIDDLE_FINGER_MCP,MIDDLE_FINGER_PIP,MIDDLE_FINGER_DIP,MIDDLE_FINGER_TIP,RING_FINGER_PIP,RING_FINGER_DIP,RING_FINGER_TIP,RING_FINGER_MCP,PINKY_MCP,PINKY_PIP,PINKY_DIP,PINKY_TIP,WRIST2,THUMB_CPC2,THUMB_MCP2,THUMB_IP2,THUMB_TIP2,INDEX_FINGER_MCP2,INDEX_FINGER_PIP2,INDEX_FINGER_DIP2,INDEX_FINGER_TIP2,MIDDLE_FINGER_MCP2,MIDDLE_FINGER_PIP2,MIDDLE_FINGER_DIP2,MIDDLE_FINGER_TIP2,RING_FINGER_PIP2,RING_FINGER_DIP2,RING_FINGER_TIP2,RING_FINGER_MCP2,PINKY_MCP2,PINKY_PIP2,PINKY_DIP2,PINKY_TIP2
0,"x: 242.35028076171875
y: 251.65411376953125
z: -0.3033745288848877
visibility: 0.9999809265136719
","x: 244.0882568359375
y: 246.3716278076172
z: -0.2898232340812683
visibility: 0.9999209642410278
","x: 245.24659729003906
y: 246.60919189453125
z: -0.28981783986091614
visibility: 0.9999275207519531
","x: 246.20985412597656
y: 246.85057067871094
z: -0.2897999584674835
visibility: 0.9999165534973145
","x: 240.14242553710938
y: 245.95709228515625
z: -0.2922336161136627
visibility: 0.9999243021011353
","x: 238.59384155273438
y: 246.06219482421875
z: -0.2922605276107788
visibility: 0.9999291896820068
","x: 237.1355438232422
y: 246.2519989013672
z: -0.2922503352165222
visibility: 0.9999111890792847
","x: 248.04287719726562
y: 250.77789306640625
z: -0.19478511810302734
visibility: 0.999748170375824
","x: 234.41065979003906
y: 250.5278778076172
z: -0.2095283567905426
visibility: 0.9998157620429993
","x: 244.48297119140625
y: 259.32757568359375
z: -0.267232209444046
visibility: 0.9999468326568604
","x: 239.35968017578125
y: 259.2200927734375
z: -0.27131444215774536
visibility: 0.9999542236328125
","x: 257.67498779296875
y: 289.70709228515625
z: -0.11906826496124268
visibility: 0.9999556541442871
","x: 222.81430053710938
y: 290.98248291015625
z: -0.13641494512557983
visibility: 0.9999468326568604
","x: 262.86151123046875
y: 336.0252685546875
z: -0.06388237327337265
visibility: 0.9911391139030457
","x: 215.549560546875
y: 338.4762268066406
z: -0.09628241509199142
visibility: 0.9860142469406128
","x: 266.0379943847656
y: 373.7825012207031
z: -0.12963096797466278
visibility: 0.9883295297622681
","x: 212.62884521484375
y: 379.5472717285156
z: -0.15723538398742676
visibility: 0.9456515312194824
","x: 269.24383544921875
y: 387.327880859375
z: -0.14956070482730865
visibility: 0.9684136509895325
","x: 208.97938537597656
y: 393.6668395996094
z: -0.17753244936466217
visibility: 0.8906648755073547
","x: 267.3595275878906
y: 388.4496765136719
z: -0.17632833123207092
visibility: 0.9717783331871033
","x: 210.4877166748047
y: 394.1563415527344
z: -0.20460061728954315
visibility: 0.898405134677887
","x: 265.1988525390625
y: 383.3511962890625
z: -0.14147993922233582
visibility: 0.9654533863067627
","x: 212.7582244873047
y: 390.2407531738281
z: -0.16945146024227142
visibility: 0.8910143375396729
","x: 248.9034423828125
y: 379.30352783203125
z: 0.014138365164399147
visibility: 0.9995768666267395
","x: 229.06715393066406
y: 378.2054138183594
z: -0.014201226644217968
visibility: 0.9997860789299011
","x: 242.75747680664062
y: 438.8020324707031
z: 0.07482964545488358
visibility: 0.9634576439857483
","x: 229.9193572998047
y: 439.5721740722656
z: -0.040137216448783875
visibility: 0.9868064522743225
","x: 240.46136474609375
y: 499.05291748046875
z: 0.19980740547180176
visibility: 0.9749190211296082
","x: 225.8241729736328
y: 502.7257080078125
z: 0.06621983647346497
visibility: 0.9815371632575989
","x: 237.6878662109375
y: 509.2590637207031
z: 0.2070673406124115
visibility: 0.8995709419250488
","x: 226.00704956054688
y: 512.0244140625
z: 0.07103293389081955
visibility: 0.7933740019798279
","x: 245.47900390625
y: 517.2425537109375
z: 0.11818412691354752
visibility: 0.9710321426391602
","x: 227.31021118164062
y: 520.026611328125
z: -0.039142731577157974
visibility: 0.9734579920768738
",3.926600933074951,,,,,,,,,,,,,,,,,,,,,,,,,,,,,,,,,,,,,,,,,,
1,"x: 242.35028076171875
y: 251.65411376953125
z: -0.3033745288848877
visibility: 0.9999809265136719
","x: 244.0882568359375
y: 246.3716278076172
z: -0.2898232340812683
visibility: 0.9999209642410278
","x: 245.24659729003906
y: 246.60919189453125
z: -0.28981783986091614
visibility: 0.9999275207519531
","x: 246.20985412597656
y: 246.85057067871094
z: -0.2897999584674835
visibility: 0.9999165534973145
","x: 240.14242553710938
y: 245.95709228515625
z: -0.2922336161136627
visibility: 0.9999243021011353
","x: 238.59384155273438
y: 246.06219482421875
z: -0.2922605276107788
visibility: 0.9999291896820068
","x: 237.1355438232422
y: 246.2519989013672
z: -0.2922503352165222
visibility: 0.9999111890792847
","x: 248.04287719726562
y: 250.77789306640625
z: -0.19478511810302734
visibility: 0.999748170375824
","x: 234.41065979003906
y: 250.5278778076172
z: -0.2095283567905426
visibility: 0.9998157620429993
","x: 244.48297119140625
y: 259.32757568359375
z: -0.267232209444046
visibility: 0.9999468326568604
","x: 239.35968017578125
y: 259.2200927734375
z: -0.27131444215774536
visibility: 0.9999542236328125
","x: 257.67498779296875
y: 289.70709228515625
z: -0.11906826496124268
visibility: 0.9999556541442871
","x: 222.81430053710938
y: 290.98248291015625
z: -0.13641494512557983
visibility: 0.9999468326568604
","x: 262.86151123046875
y: 336.0252685546875
z: -0.06388237327337265
visibility: 0.9911391139030457
","x: 215.549560546875
y: 338.4762268066406
z: -0.09628241509199142
visibility: 0.9860142469406128
","x: 266.0379943847656
y: 373.7825012207031
z: -0.12963096797466278
visibility: 0.9883295297622681
","x: 212.62884521484375
y: 379.5472717285156
z: -0.15723538398742676
visibility: 0.9456515312194824
","x: 269.24383544921875
y: 387.327880859375
z: -0.14956070482730865
visibility: 0.9684136509895325
","x: 208.97938537597656
y: 393.6668395996094
z: -0.17753244936466217
visibility: 0.8906648755073547
","x: 267.3595275878906
y: 388.4496765136719
z: -0.17632833123207092
visibility: 0.9717783331871033
","x: 210.4877166748047
y: 394.1563415527344
z: -0.20460061728954315
visibility: 0.898405134677887
","x: 265.1988525390625
y: 383.3511962890625
z: -0.14147993922233582
visibility: 0.9654533863067627
","x: 212.7582244873047
y: 390.2407531738281
z: -0.16945146024227142
visibility: 0.8910143375396729
","x: 248.9034423828125
y: 379.30352783203125
z: 0.014138365164399147
visibility: 0.9995768666267395
","x: 229.06715393066406
y: 378.2054138183594
z: -0.014201226644217968
visibility: 0.9997860789299011
","x: 242.75747680664062
y: 438.8020324707031
z: 0.07482964545488358
visibility: 0.9634576439857483
","x: 229.9193572998047
y: 439.5721740722656
z: -0.040137216448783875
visibility: 0.9868064522743225
","x: 240.46136474609375
y: 499.05291748046875
z: 0.19980740547180176
visibility: 0.9749190211296082
","x: 225.8241729736328
y: 502.7257080078125
z: 0.06621983647346497
visibility: 0.9815371632575989
","x: 237.6878662109375
y: 509.2590637207031
z: 0.2070673406124115
visibility: 0.8995709419250488
","x: 226.00704956054688
y: 512.0244140625
z: 0.07103293389081955
visibility: 0.7933740019798279
","x: 245.47900390625
y: 517.2425537109375
z: 0.11818412691354752
visibility: 0.9710321426391602
","x: 227.31021118164062
y: 520.026611328125
z: -0.039142731577157974
visibility: 0.9734579920768738
",3.926600933074951,,,,,,,,,,,,,,,,,,,,,,,,,,,,,,,,,,,,,,,,,,
2,"x: 244.2240447998047
y: 252.17111206054688
z: -0.17713485658168793
visibility: 0.999980092048645
","x: 246.42994689941406
y: 247.36532592773438
z: -0.1585046499967575
visibility: 0.9999223947525024
","x: 247.56777954101562
y: 247.84141540527344
z: -0.15851257741451263
visibility: 0.9999256134033203
","x: 248.7325897216797
y: 248.345947265625
z: -0.15850193798542023
visibility: 0.9999144673347473
","x: 242.97628784179688
y: 246.45916748046875
z: -0.1637209951877594
visibility: 0.9999278783798218
","x: 241.6093292236328
y: 246.3427734375
z: -0.1637231856584549
visibility: 0.9999319911003113
","x: 240.08096313476562
y: 246.34942626953125
z: -0.16374662518501282
visibility: 0.9999165534973145
","x: 250.15267944335938
y: 252.8719940185547
z: -0.05399755388498306
visibility: 0.9997285604476929
","x: 236.8162841796875
y: 250.62384033203125
z: -0.0806891918182373
visibility: 0.999830961227417
","x: 245.5050048828125
y: 260.2151184082031
z: -0.13866254687309265
visibility: 0.9999451041221619
","x: 241.2576446533203
y: 259.45751953125
z: -0.1463576853275299
visibility: 0.9999567866325378
","x: 257.63397216796875
y: 289.1961975097656
z: 0.010209865868091583
visibility: 0.9998946189880371
","x: 223.86241149902344
y: 288.6739501953125
z: -0.028822651132941246
visibility: 0.9999465942382812
","x: 266.9278259277344
y: 325.59930419921875
z: -0.06545351445674896
visibility: 0.9891953468322754
","x: 215.53814697265625
y: 328.947265625
z: -0.05246279761195183
visibility: 0.9856889843940735
","x: 263.48046875
y: 299.64013671875
z: -0.24963431060314178
visibility: 0.9849048852920532
","x: 220.98944091796875
y: 347.983642578125
z: -0.15709801018238068
visibility: 0.9458476901054382
","x: 260.1931457519531
y: 292.2560729980469
z: -0.2896416187286377
visibility: 0.9607680439949036
","x: 221.57302856445312
y: 360.139404296875
z: -0.17869579792022705
visibility: 0.8903974890708923
","x: 258.8655700683594
y: 284.3018493652344
z: -0.2843922972679138
visibility: 0.9638235569000244
","x: 225.03269958496094
y: 358.72491455078125
z: -0.19526031613349915
visibility: 0.8971850275993347
","x: 259.512451171875
y: 289.4708557128906
z: -0.2530120015144348
visibility: 0.9543212652206421
","x: 225.2624969482422
y: 354.3090515136719
z: -0.16409508883953094
visibility: 0.8868995904922485
","x: 249.1097869873047
y: 377.4623107910156
z: 0.014566866680979729
visibility: 0.9994754195213318
","x: 229.7124481201172
y: 375.4335021972656
z: -0.014621640555560589
visibility: 0.9997194409370422
","x: 243.05357360839844
y: 438.8241882324219
z: 0.024479471147060394
visibility: 0.9635049104690552
","x: 230.093505859375
y: 439.6698303222656
z: -0.02723604068160057
visibility: 0.9862141013145447
","x: 240.46485900878906
y: 499.6732177734375
z: 0.1120498925447464
visibility: 0.9754154086112976
","x: 225.85400390625
y: 502.6665954589844
z: 0.07657945156097412
visibility: 0.9815970063209534
","x: 237.68795776367188
y: 509.4342041015625
z: 0.11482784897089005
visibility: 0.9030027985572815
","x: 226.0070037841797
y: 512.0518798828125
z: 0.08041024953126907
visibility: 0.7984568476676941
","x: 245.49974060058594
y: 518.0298461914062
z: 0.021266551688313484
visibility: 0.9717955589294434
","x: 227.2071075439453
y: 520.0791625976562
z: -0.022209055721759796
visibility: 0.973599910736084
",4.59257960319519,"x: 224.92218017578125
y: 347.9559326171875
z: 0.0
","x: 227.91615295410156
y: 351.9918518066406
z: 0.0008665213244967163
","x: 229.60516357421875
y: 357.0838928222656
z: 0.0006467382772825658
","x: 229.93878173828125
y: 361.2745361328125
z: 1.1995805834885687e-05
","x: 230.08541870117188
y: 363.8849182128906
z: -0.0006926889764145017
","x: 229.56236267089844
y: 360.7235107421875
z: -0.0011947524035349488
","x: 230.09896850585938
y: 368.10748291015625
z: -0.0025713020004332066
","x: 230.1634521484375
y: 372.2185974121094
z: -0.00303079467266798
","x: 230.17733764648438
y: 375.35980224609375
z: -0.0032165737356990576
","x: 227.72686767578125
y: 361.3988952636719
z: -0.0027917071711272
","x: 228.13729858398438
y: 369.38165283203125
z: -0.004061875399202108
","x: 228.15025329589844
y: 374.15032958984375
z: -0.004351896699517965
","x: 228.2340545654297
y: 377.70599365234375
z: -0.004586854949593544
","x: 225.7041778564453
y: 361.4053039550781
z: -0.004321402404457331
","x: 225.61282348632812
y: 368.71087646484375
z: -0.0057362341322004795
","x: 225.453369140625
y: 373.0711364746094
z: -0.006192612461745739
","x: 225.48141479492188
y: 376.2461853027344
z: -0.00648815743625164
","x: 223.5841522216797
y: 360.69866943359375
z: -0.005827581509947777
","x: 223.15719604492188
y: 365.8585205078125
z: -0.0070232367143034935
","x: 222.871826171875
y: 368.9160461425781
z: -0.0073829772882163525
","x: 222.78250122070312
y: 371.3829345703125
z: -0.007597694639116526
",,,,,,,,,,,,,,,,,,,,,
3,"x: 244.2240447998047
y: 252.17111206054688
z: -0.17713485658168793
visibility: 0.999980092048645
","x: 246.42994689941406
y: 247.36532592773438
z: -0.1585046499967575
visibility: 0.9999223947525024
","x: 247.56777954101562
y: 247.84141540527344
z: -0.15851257741451263
visibility: 0.9999256134033203
","x: 248.7325897216797
y: 248.345947265625
z: -0.15850193798542023
visibility: 0.9999144673347473
","x: 242.97628784179688
y: 246.45916748046875
z: -0.1637209951877594
visibility: 0.9999278783798218
","x: 241.6093292236328
y: 246.3427734375
z: -0.1637231856584549
visibility: 0.9999319911003113
","x: 240.08096313476562
y: 246.34942626953125
z: -0.16374662518501282
visibility: 0.9999165534973145
","x: 250.15267944335938
y: 252.8719940185547
z: -0.05399755388498306
visibility: 0.9997285604476929
","x: 236.8162841796875
y: 250.62384033203125
z: -0.0806891918182373
visibility: 0.999830961227417
","x: 245.5050048828125
y: 260.2151184082031
z: -0.13866254687309265
visibility: 0.9999451041221619
","x: 241.2576446533203
y: 259.45751953125
z: -0.1463576853275299
visibility: 0.9999567866325378
","x: 257.63397216796875
y: 289.1961975097656
z: 0.010209865868091583
visibility: 0.9998946189880371
","x: 223.86241149902344
y: 288.6739501953125
z: -0.028822651132941246
visibility: 0.9999465942382812
","x: 266.9278259277344
y: 325.59930419921875
z: -0.06545351445674896
visibility: 0.9891953468322754
","x: 215.53814697265625
y: 328.947265625
z: -0.05246279761195183
visibility: 0.9856889843940735
","x: 263.48046875
y: 299.64013671875
z: -0.24963431060314178
visibility: 0.9849048852920532
","x: 220.98944091796875
y: 347.983642578125
z: -0.15709801018238068
visibility: 0.9458476901054382
","x: 260.1931457519531
y: 292.2560729980469
z: -0.2896416187286377
visibility: 0.9607680439949036
","x: 221.57302856445312
y: 360.139404296875
z: -0.17869579792022705
visibility: 0.8903974890708923
","x: 258.8655700683594
y: 284.3018493652344
z: -0.2843922972679138
visibility: 0.9638235569000244
","x: 225.03269958496094
y: 358.72491455078125
z: -0.19526031613349915
visibility: 0.8971850275993347
","x: 259.512451171875
y: 289.4708557128906
z: -0.2530120015144348
visibility: 0.9543212652206421
","x: 225.2624969482422
y: 354.3090515136719
z: -0.16409508883953094
visibility: 0.8868995904922485
","x: 249.1097869873047
y: 377.4623107910156
z: 0.014566866680979729
visibility: 0.9994754195213318
","x: 229.7124481201172
y: 375.4335021972656
z: -0.014621640555560589
visibility: 0.9997194409370422
","x: 243.05357360839844
y: 438.8241882324219
z: 0.024479471147060394
visibility: 0.9635049104690552
","x: 230.093505859375
y: 439.6698303222656
z: -0.02723604068160057
visibility: 0.9862141013145447
","x: 240.46485900878906
y: 499.6732177734375
z: 0.1120498925447464
visibility: 0.9754154086112976
","x: 225.85400390625
y: 502.6665954589844
z: 0.07657945156097412
visibility: 0.9815970063209534
","x: 237.68795776367188
y: 509.4342041015625
z: 0.11482784897089005
visibility: 0.9030027985572815
","x: 226.0070037841797
y: 512.0518798828125
z: 0.08041024953126907
visibility: 0.7984568476676941
","x: 245.49974060058594
y: 518.0298461914062
z: 0.021266551688313484
visibility: 0.9717955589294434
","x: 227.2071075439453
y: 520.0791625976562
z: -0.022209055721759796
visibility: 0.973599910736084
",4.59257960319519,"x: 224.92218017578125
y: 347.9559326171875
z: 0.0
","x: 227.91615295410156
y: 351.9918518066406
z: 0.0008665213244967163
","x: 229.60516357421875
y: 357.0838928222656
z: 0.0006467382772825658
","x: 229.93878173828125
y: 361.2745361328125
z: 1.1995805834885687e-05
","x: 230.08541870117188
y: 363.8849182128906
z: -0.0006926889764145017
","x: 229.56236267089844
y: 360.7235107421875
z: -0.0011947524035349488
","x: 230.09896850585938
y: 368.10748291015625
z: -0.0025713020004332066
","x: 230.1634521484375
y: 372.2185974121094
z: -0.00303079467266798
","x: 230.17733764648438
y: 375.35980224609375
z: -0.0032165737356990576
","x: 227.72686767578125
y: 361.3988952636719
z: -0.0027917071711272
","x: 228.13729858398438
y: 369.38165283203125
z: -0.004061875399202108
","x: 228.15025329589844
y: 374.15032958984375
z: -0.004351896699517965
","x: 228.2340545654297
y: 377.70599365234375
z: -0.004586854949593544
","x: 225.7041778564453
y: 361.4053039550781
z: -0.004321402404457331
","x: 225.61282348632812
y: 368.71087646484375
z: -0.0057362341322004795
","x: 225.453369140625
y: 373.0711364746094
z: -0.006192612461745739
","x: 225.48141479492188
y: 376.2461853027344
z: -0.00648815743625164
","x: 223.5841522216797
y: 360.69866943359375
z: -0.005827581509947777
","x: 223.15719604492188
y: 365.8585205078125
z: -0.0070232367143034935
","x: 222.871826171875
y: 368.9160461425781
z: -0.0073829772882163525
","x: 222.78250122070312
y: 371.3829345703125
z: -0.007597694639116526
",,,,,,,,,,,,,,,,,,,,,
4,"x: 244.2240447998047
y: 252.17111206054688
z: -0.17713485658168793
visibility: 0.999980092048645
","x: 246.42994689941406
y: 247.36532592773438
z: -0.1585046499967575
visibility: 0.9999223947525024
","x: 247.56777954101562
y: 247.84141540527344
z: -0.15851257741451263
visibility: 0.9999256134033203
","x: 248.7325897216797
y: 248.345947265625
z: -0.15850193798542023
visibility: 0.9999144673347473
","x: 242.97628784179688
y: 246.45916748046875
z: -0.1637209951877594
visibility: 0.9999278783798218
","x: 241.6093292236328
y: 246.3427734375
z: -0.1637231856584549
visibility: 0.9999319911003113
","x: 240.08096313476562
y: 246.34942626953125
z: -0.16374662518501282
visibility: 0.9999165534973145
","x: 250.15267944335938
y: 252.8719940185547
z: -0.05399755388498306
visibility: 0.9997285604476929
","x: 236.8162841796875
y: 250.62384033203125
z: -0.0806891918182373
visibility: 0.999830961227417
","x: 245.5050048828125
y: 260.2151184082031
z: -0.13866254687309265
visibility: 0.9999451041221619
","x: 241.2576446533203
y: 259.45751953125
z: -0.1463576853275299
visibility: 0.9999567866325378
","x: 257.63397216796875
y: 289.1961975097656
z: 0.010209865868091583
visibility: 0.9998946189880371
","x: 223.86241149902344
y: 288.6739501953125
z: -0.028822651132941246
visibility: 0.9999465942382812
","x: 266.9278259277344
y: 325.59930419921875
z: -0.06545351445674896
visibility: 0.9891953468322754
","x: 215.53814697265625
y: 328.947265625
z: -0.05246279761195183
visibility: 0.9856889843940735
","x: 263.48046875
y: 299.64013671875
z: -0.24963431060314178
visibility: 0.9849048852920532
","x: 220.98944091796875
y: 347.983642578125
z: -0.15709801018238068
visibility: 0.9458476901054382
","x: 260.1931457519531
y: 292.2560729980469
z: -0.2896416187286377
visibility: 0.9607680439949036
","x: 221.57302856445312
y: 360.139404296875
z: -0.17869579792022705
visibility: 0.8903974890708923
","x: 258.8655700683594
y: 284.3018493652344
z: -0.2843922972679138
visibility: 0.9638235569000244
","x: 225.03269958496094
y: 358.72491455078125
z: -0.19526031613349915
visibility: 0.8971850275993347
","x: 259.512451171875
y: 289.4708557128906
z: -0.2530120015144348
visibility: 0.9543212652206421
","x: 225.2624969482422
y: 354.3090515136719
z: -0.16409508883953094
visibility: 0.8868995904922485
","x: 249.1097869873047
y: 377.4623107910156
z: 0.014566866680979729
visibility: 0.9994754195213318
","x: 229.7124481201172
y: 375.4335021972656
z: -0.014621640555560589
visibility: 0.9997194409370422
","x: 243.05357360839844
y: 438.8241882324219
z: 0.024479471147060394
visibility: 0.9635049104690552
","x: 230.093505859375
y: 439.6698303222656
z: -0.02723604068160057
visibility: 0.9862141013145447
","x: 240.46485900878906
y: 499.6732177734375
z: 0.1120498925447464
visibility: 0.9754154086112976
","x: 225.85400390625
y: 502.6665954589844
z: 0.07657945156097412
visibility: 0.9815970063209534
","x: 237.68795776367188
y: 509.4342041015625
z: 0.11482784897089005
visibility: 0.9030027985572815
","x: 226.0070037841797
y: 512.0518798828125
z: 0.08041024953126907
visibility: 0.7984568476676941
","x: 245.49974060058594
y: 518.0298461914062
z: 0.021266551688313484
visibility: 0.9717955589294434
","x: 227.2071075439453
y: 520.0791625976562
z: -0.022209055721759796
visibility: 0.973599910736084
",4.59257960319519,"x: 224.92218017578125
y: 347.9559326171875
z: 0.0
","x: 227.91615295410156
y: 351.9918518066406
z: 0.0008665213244967163
","x: 229.60516357421875
y: 357.0838928222656
z: 0.0006467382772825658
","x: 229.93878173828125
y: 361.2745361328125
z: 1.1995805834885687e-05
","x: 230.08541870117188
y: 363.8849182128906
z: -0.0006926889764145017
","x: 229.56236267089844
y: 360.7235107421875
z: -0.0011947524035349488
","x: 230.09896850585938
y: 368.10748291015625
z: -0.0025713020004332066
","x: 230.1634521484375
y: 372.2185974121094
z: -0.00303079467266798
","x: 230.17733764648438
y: 375.35980224609375
z: -0.0032165737356990576
","x: 227.72686767578125
y: 361.3988952636719
z: -0.0027917071711272
","x: 228.13729858398438
y: 369.38165283203125
z: -0.004061875399202108
","x: 228.15025329589844
y: 374.15032958984375
z: -0.004351896699517965
","x: 228.2340545654297
y: 377.70599365234375
z: -0.004586854949593544
","x: 225.7041778564453
y: 361.4053039550781
z: -0.004321402404457331
","x: 225.61282348632812
y: 368.71087646484375
z: -0.0057362341322004795
","x: 225.453369140625
y: 373.0711364746094
z: -0.006192612461745739
","x: 225.48141479492188
y: 376.2461853027344
z: -0.00648815743625164
","x: 223.5841522216797
y: 360.69866943359375
z: -0.005827581509947777
","x: 223.15719604492188
y: 365.8585205078125
z: -0.0070232367143034935
","x: 222.871826171875
y: 368.9160461425781
z: -0.0073829772882163525
","x: 222.78250122070312
y: 371.3829345703125
z: -0.007597694639116526
",,,,,,,,,,,,,,,,,,,,,
5,"x: 246.91893005371094
y: 253.92385864257812
z: -0.12933185696601868
visibility: 0.9999812245368958
","x: 248.75689697265625
y: 249.51641845703125
z: -0.10993970930576324
visibility: 0.9999279379844666
","x: 249.721435546875
y: 250.1007843017578
z: -0.10993967205286026
visibility: 0.999930202960968
","x: 250.72125244140625
y: 250.63331604003906
z: -0.10994093120098114
visibility: 0.999920129776001
","x: 245.6053466796875
y: 248.086669921875
z: -0.1184890866279602
visibility: 0.9999335408210754
","x: 244.33407592773438
y: 247.64224243164062
z: -0.11848379671573639
visibility: 0.999937117099762
","x: 242.89169311523438
y: 247.2478485107422
z: -0.11847907304763794
visibility: 0.9999235272407532
","x: 251.20068359375
y: 254.6101531982422
z: -0.004271541256457567
visibility: 0.9997447729110718
","x: 238.99351501464844
y: 250.98846435546875
z: -0.046112753450870514
visibility: 0.999846875667572
","x: 247.68614196777344
y: 261.70269775390625
z: -0.08998413383960724
visibility: 0.9999481439590454
","x: 243.89488220214844
y: 260.17962646484375
z: -0.10206229984760284
visibility: 0.9999603033065796
","x: 257.49609375
y: 288.183349609375
z: 0.05138038471341133
visibility: 0.9998933672904968
","x: 224.2626953125
y: 287.40362548828125
z: -0.0005852374015375972
visibility: 0.9999476075172424
","x: 270.5620422363281
y: 308.7598876953125
z: -0.03905140236020088
visibility: 0.9894952178001404
","x: 215.9990692138672
y: 327.1180419921875
z: -0.013871344737708569
visibility: 0.9858655333518982
","x: 261.1427307128906
y: 271.055419921875
z: -0.2029724419116974
visibility: 0.9852054715156555
","x: 223.07330322265625
y: 347.60418701171875
z: -0.08261667937040329
visibility: 0.946912944316864
","x: 257.76593017578125
y: 262.4124755859375
z: -0.24069972336292267
visibility: 0.9603567719459534
","x: 223.905029296875
y: 359.3920593261719
z: -0.10155250877141953
visibility: 0.8915470838546753
","x: 256.3376770019531
y: 260.364013671875
z: -0.23464107513427734
visibility: 0.9629313349723816
","x: 227.3792724609375
y: 358.3544921875
z: -0.11460177600383759
visibility: 0.8976002931594849
","x: 256.9169006347656
y: 264.2288818359375
z: -0.20568843185901642
visibility: 0.9526864886283875
","x: 227.4152069091797
y: 353.9013366699219
z: -0.08723054081201553
visibility: 0.8851784467697144
","x: 249.8663787841797
y: 375.1085205078125
z: 0.01642150990664959
visibility: 0.999492347240448
","x: 231.1238250732422
y: 373.97821044921875
z: -0.01643974706530571
visibility: 0.999715268611908
","x: 243.91650390625
y: 438.7800598144531
z: 0.021757695823907852
visibility: 0.9652008414268494
","x: 230.6029510498047
y: 439.93853759765625
z: -0.023576166480779648
visibility: 0.986075758934021
","x: 240.67010498046875
y: 499.7796325683594
z: 0.10799552500247955
visibility: 0.9764630794525146
","x: 225.85223388671875
y: 502.4830322265625
z: 0.07730035483837128
visibility: 0.9820346236228943
","x: 238.0426483154297
y: 509.3795471191406
z: 0.11149517446756363
visibility: 0.9076328277587891
","x: 226.03164672851562
y: 511.8443603515625
z: 0.08109738677740097
visibility: 0.8029218316078186
","x: 245.47227478027344
y: 518.213134765625
z: 0.022151067852973938
visibility: 0.973148763179779
","x: 227.09950256347656
y: 520.4518432617188
z: -0.01785203628242016
visibility: 0.9740840792655945
",4.749181747436523,"x: 224.7305908203125
y: 349.550048828125
z: 0.0
","x: 227.9375457763672
y: 353.5619812011719
z: 0.0016629707533866167
","x: 229.38604736328125
y: 358.9193115234375
z: 0.0014681831235066056
","x: 229.77967834472656
y: 363.44427490234375
z: 0.0008550551719963551
","x: 230.00929260253906
y: 366.87274169921875
z: 0.00016724978922866285
","x: 229.55258178710938
y: 361.93865966796875
z: -0.0014301968039944768
","x: 230.60328674316406
y: 368.8563232421875
z: -0.0028294764924794436
","x: 231.26663208007812
y: 373.37249755859375
z: -0.0033577329013496637
","x: 231.77096557617188
y: 376.927978515625
z: -0.0035819995682686567
","x: 227.7613067626953
y: 362.6190185546875
z: -0.003337180009111762
","x: 228.61187744140625
y: 370.2916259765625
z: -0.004740564618259668
","x: 229.23529052734375
y: 375.5331726074219
z: -0.005000376142561436
","x: 229.81448364257812
y: 379.49407958984375
z: -0.005236509721726179
","x: 225.89892578125
y: 362.70672607421875
z: -0.005001686979085207
","x: 226.38851928710938
y: 370.2139892578125
z: -0.006300364155322313
","x: 226.74252319335938
y: 375.0419616699219
z: -0.0064062499441206455
","x: 227.09841918945312
y: 378.5088806152344
z: -0.006546929944306612
","x: 224.0693817138672
y: 362.15118408203125
z: -0.0065452889539301395
","x: 224.06314086914062
y: 368.0630798339844
z: -0.007594502530992031
","x: 224.1503448486328
y: 371.86676025390625
z: -0.007669639773666859
","x: 224.27120971679688
y: 374.8825378417969
z: -0.007731406483799219
",,,,,,,,,,,,,,,,,,,,,
6,"x: 246.91893005371094
y: 253.92385864257812
z: -0.12933185696601868
visibility: 0.9999812245368958
","x: 248.75689697265625
y: 249.51641845703125
z: -0.10993970930576324
visibility: 0.9999279379844666
","x: 249.721435546875
y: 250.1007843017578
z: -0.10993967205286026
visibility: 0.999930202960968
","x: 250.72125244140625
y: 250.63331604003906
z: -0.10994093120098114
visibility: 0.999920129776001
","x: 245.6053466796875
y: 248.086669921875
z: -0.1184890866279602
visibility: 0.9999335408210754
","x: 244.33407592773438
y: 247.64224243164062
z: -0.11848379671573639
visibility: 0.999937117099762
","x: 242.89169311523438
y: 247.2478485107422
z: -0.11847907304763794
visibility: 0.9999235272407532
","x: 251.20068359375
y: 254.6101531982422
z: -0.004271541256457567
visibility: 0.9997447729110718
","x: 238.99351501464844
y: 250.98846435546875
z: -0.046112753450870514
visibility: 0.999846875667572
","x: 247.68614196777344
y: 261.70269775390625
z: -0.08998413383960724
visibility: 0.9999481439590454
","x: 243.89488220214844
y: 260.17962646484375
z: -0.10206229984760284
visibility: 0.9999603033065796
","x: 257.49609375
y: 288.183349609375
z: 0.05138038471341133
visibility: 0.9998933672904968
","x: 224.2626953125
y: 287.40362548828125
z: -0.0005852374015375972
visibility: 0.9999476075172424
","x: 270.5620422363281
y: 308.7598876953125
z: -0.03905140236020088
visibility: 0.9894952178001404
","x: 215.9990692138672
y: 327.1180419921875
z: -0.013871344737708569
visibility: 0.9858655333518982
","x: 261.1427307128906
y: 271.055419921875
z: -0.2029724419116974
visibility: 0.9852054715156555
","x: 223.07330322265625
y: 347.60418701171875
z: -0.08261667937040329
visibility: 0.946912944316864
","x: 257.76593017578125
y: 262.4124755859375
z: -0.24069972336292267
visibility: 0.9603567719459534
","x: 223.905029296875
y: 359.3920593261719
z: -0.10155250877141953
visibility: 0.8915470838546753
","x: 256.3376770019531
y: 260.364013671875
z: -0.23464107513427734
visibility: 0.9629313349723816
","x: 227.3792724609375
y: 358.3544921875
z: -0.11460177600383759
visibility: 0.8976002931594849
","x: 256.9169006347656
y: 264.2288818359375
z: -0.20568843185901642
visibility: 0.9526864886283875
","x: 227.4152069091797
y: 353.9013366699219
z: -0.08723054081201553
visibility: 0.8851784467697144
","x: 249.8663787841797
y: 375.1085205078125
z: 0.01642150990664959
visibility: 0.999492347240448
","x: 231.1238250732422
y: 373.97821044921875
z: -0.01643974706530571
visibility: 0.999715268611908
","x: 243.91650390625
y: 438.7800598144531
z: 0.021757695823907852
visibility: 0.9652008414268494
","x: 230.6029510498047
y: 439.93853759765625
z: -0.023576166480779648
visibility: 0.986075758934021
","x: 240.67010498046875
y: 499.7796325683594
z: 0.10799552500247955
visibility: 0.9764630794525146
","x: 225.85223388671875
y: 502.4830322265625
z: 0.07730035483837128
visibility: 0.9820346236228943
","x: 238.0426483154297
y: 509.3795471191406
z: 0.11149517446756363
visibility: 0.9076328277587891
","x: 226.03164672851562
y: 511.8443603515625
z: 0.08109738677740097
visibility: 0.8029218316078186
","x: 245.47227478027344
y: 518.213134765625
z: 0.022151067852973938
visibility: 0.973148763179779
","x: 227.09950256347656
y: 520.4518432617188
z: -0.01785203628242016
visibility: 0.9740840792655945
",4.749181747436523,"x: 224.7305908203125
y: 349.550048828125
z: 0.0
","x: 227.9375457763672
y: 353.5619812011719
z: 0.0016629707533866167
","x: 229.38604736328125
y: 358.9193115234375
z: 0.0014681831235066056
","x: 229.77967834472656
y: 363.44427490234375
z: 0.0008550551719963551
","x: 230.00929260253906
y: 366.87274169921875
z: 0.00016724978922866285
","x: 229.55258178710938
y: 361.93865966796875
z: -0.0014301968039944768
","x: 230.60328674316406
y: 368.8563232421875
z: -0.0028294764924794436
","x: 231.26663208007812
y: 373.37249755859375
z: -0.0033577329013496637
","x: 231.77096557617188
y: 376.927978515625
z: -0.0035819995682686567
","x: 227.7613067626953
y: 362.6190185546875
z: -0.003337180009111762
","x: 228.61187744140625
y: 370.2916259765625
z: -0.004740564618259668
","x: 229.23529052734375
y: 375.5331726074219
z: -0.005000376142561436
","x: 229.81448364257812
y: 379.49407958984375
z: -0.005236509721726179
","x: 225.89892578125
y: 362.70672607421875
z: -0.005001686979085207
","x: 226.38851928710938
y: 370.2139892578125
z: -0.006300364155322313
","x: 226.74252319335938
y: 375.0419616699219
z: -0.0064062499441206455
","x: 227.09841918945312
y: 378.5088806152344
z: -0.006546929944306612
","x: 224.0693817138672
y: 362.15118408203125
z: -0.0065452889539301395
","x: 224.06314086914062
y: 368.0630798339844
z: -0.007594502530992031
","x: 224.1503448486328
y: 371.86676025390625
z: -0.007669639773666859
","x: 224.27120971679688
y: 374.8825378417969
z: -0.007731406483799219
",,,,,,,,,,,,,,,,,,,,,
7,"x: 246.91893005371094
y: 253.92385864257812
z: -0.12933185696601868
visibility: 0.9999812245368958
","x: 248.75689697265625
y: 249.51641845703125
z: -0.10993970930576324
visibility: 0.9999279379844666
","x: 249.721435546875
y: 250.1007843017578
z: -0.10993967205286026
visibility: 0.999930202960968
","x: 250.72125244140625
y: 250.63331604003906
z: -0.10994093120098114
visibility: 0.999920129776001
","x: 245.6053466796875
y: 248.086669921875
z: -0.1184890866279602
visibility: 0.9999335408210754
","x: 244.33407592773438
y: 247.64224243164062
z: -0.11848379671573639
visibility: 0.999937117099762
","x: 242.89169311523438
y: 247.2478485107422
z: -0.11847907304763794
visibility: 0.9999235272407532
","x: 251.20068359375
y: 254.6101531982422
z: -0.004271541256457567
visibility: 0.9997447729110718
","x: 238.99351501464844
y: 250.98846435546875
z: -0.046112753450870514
visibility: 0.999846875667572
","x: 247.68614196777344
y: 261.70269775390625
z: -0.08998413383960724
visibility: 0.9999481439590454
","x: 243.89488220214844
y: 260.17962646484375
z: -0.10206229984760284
visibility: 0.9999603033065796
","x: 257.49609375
y: 288.183349609375
z: 0.05138038471341133
visibility: 0.9998933672904968
","x: 224.2626953125
y: 287.40362548828125
z: -0.0005852374015375972
visibility: 0.9999476075172424
","x: 270.5620422363281
y: 308.7598876953125
z: -0.03905140236020088
visibility: 0.9894952178001404
","x: 215.9990692138672
y: 327.1180419921875
z: -0.013871344737708569
visibility: 0.9858655333518982
","x: 261.1427307128906
y: 271.055419921875
z: -0.2029724419116974
visibility: 0.9852054715156555
","x: 223.07330322265625
y: 347.60418701171875
z: -0.08261667937040329
visibility: 0.946912944316864
","x: 257.76593017578125
y: 262.4124755859375
z: -0.24069972336292267
visibility: 0.9603567719459534
","x: 223.905029296875
y: 359.3920593261719
z: -0.10155250877141953
visibility: 0.8915470838546753
","x: 256.3376770019531
y: 260.364013671875
z: -0.23464107513427734
visibility: 0.9629313349723816
","x: 227.3792724609375
y: 358.3544921875
z: -0.11460177600383759
visibility: 0.8976002931594849
","x: 256.9169006347656
y: 264.2288818359375
z: -0.20568843185901642
visibility: 0.9526864886283875
","x: 227.4152069091797
y: 353.9013366699219
z: -0.08723054081201553
visibility: 0.8851784467697144
","x: 249.8663787841797
y: 375.1085205078125
z: 0.01642150990664959
visibility: 0.999492347240448
","x: 231.1238250732422
y: 373.97821044921875
z: -0.01643974706530571
visibility: 0.999715268611908
","x: 243.91650390625
y: 438.7800598144531
z: 0.021757695823907852
visibility: 0.9652008414268494
","x: 230.6029510498047
y: 439.93853759765625
z: -0.023576166480779648
visibility: 0.986075758934021
","x: 240.67010498046875
y: 499.7796325683594
z: 0.10799552500247955
visibility: 0.9764630794525146
","x: 225.85223388671875
y: 502.4830322265625
z: 0.07730035483837128
visibility: 0.9820346236228943
","x: 238.0426483154297
y: 509.3795471191406
z: 0.11149517446756363
visibility: 0.9076328277587891
","x: 226.03164672851562
y: 511.8443603515625
z: 0.08109738677740097
visibility: 0.8029218316078186
","x: 245.47227478027344
y: 518.213134765625
z: 0.022151067852973938
visibility: 0.973148763179779
","x: 227.09950256347656
y: 520.4518432617188
z: -0.01785203628242016
visibility: 0.9740840792655945
",4.749181747436523,"x: 224.7305908203125
y: 349.550048828125
z: 0.0
","x: 227.9375457763672
y: 353.5619812011719
z: 0.0016629707533866167
","x: 229.38604736328125
y: 358.9193115234375
z: 0.0014681831235066056
","x: 229.77967834472656
y: 363.44427490234375
z: 0.0008550551719963551
","x: 230.00929260253906
y: 366.87274169921875
z: 0.00016724978922866285
","x: 229.55258178710938
y: 361.93865966796875
z: -0.0014301968039944768
","x: 230.60328674316406
y: 368.8563232421875
z: -0.0028294764924794436
","x: 231.26663208007812
y: 373.37249755859375
z: -0.0033577329013496637
","x: 231.77096557617188
y: 376.927978515625
z: -0.0035819995682686567
","x: 227.7613067626953
y: 362.6190185546875
z: -0.003337180009111762
","x: 228.61187744140625
y: 370.2916259765625
z: -0.004740564618259668
","x: 229.23529052734375
y: 375.5331726074219
z: -0.005000376142561436
","x: 229.81448364257812
y: 379.49407958984375
z: -0.005236509721726179
","x: 225.89892578125
y: 362.70672607421875
z: -0.005001686979085207
","x: 226.38851928710938
y: 370.2139892578125
z: -0.006300364155322313
","x: 226.74252319335938
y: 375.0419616699219
z: -0.0064062499441206455
","x: 227.09841918945312
y: 378.5088806152344
z: -0.006546929944306612
","x: 224.0693817138672
y: 362.15118408203125
z: -0.0065452889539301395
","x: 224.06314086914062
y: 368.0630798339844
z: -0.007594502530992031
","x: 224.1503448486328
y: 371.86676025390625
z: -0.007669639773666859
","x: 224.27120971679688
y: 374.8825378417969
z: -0.007731406483799219
",,,,,,,,,,,,,,,,,,,,,
8,"x: 247.97003173828125
y: 255.26670837402344
z: -0.128668412566185
visibility: 0.999982476234436
","x: 249.86611938476562
y: 251.3365478515625
z: -0.10881169885396957
visibility: 0.9999333024024963
","x: 250.807861328125
y: 252.04745483398438
z: -0.10879231989383698
visibility: 0.999934732913971
","x: 251.73739624023438
y: 252.6943817138672
z: -0.10878149420022964
visibility: 0.9999256134033203
","x: 246.80337524414062
y: 249.25213623046875
z: -0.11966057121753693
visibility: 0.9999390244483948
","x: 245.55235290527344
y: 248.50839233398438
z: -0.11966228485107422
visibility: 0.9999422430992126
","x: 244.1470489501953
y: 247.78631591796875
z: -0.1196514368057251
visibility: 0.999930202960968
","x: 252.07763671875
y: 256.1636047363281
z: -0.00222918763756752
visibility: 0.9997603893280029
","x: 240.22470092773438
y: 251.12356567382812
z: -0.0543096661567688
visibility: 0.9998615384101868
","x: 248.37828063964844
y: 262.8659362792969
z: -0.08900919556617737
visibility: 0.9999510645866394
","x: 244.68687438964844
y: 260.7729187011719
z: -0.10401395708322525
visibility: 0.9999635219573975
","x: 257.1285400390625
y: 288.1374816894531
z: 0.05423232913017273
visibility: 0.9998906850814819
","x: 224.67352294921875
y: 286.98162841796875
z: -0.010444032028317451
visibility: 0.9999486804008484
","x: 273.8359375
y: 300.0960693359375
z: -0.02924055978655815
visibility: 0.9897720217704773
","x: 216.53575134277344
y: 326.4200439453125
z: 0.005680798552930355
visibility: 0.9861567616462708
","x: 260.9286804199219
y: 263.60552978515625
z: -0.18199017643928528
visibility: 0.9847764372825623
","x: 223.2427215576172
y: 349.2769775390625
z: -0.006961297243833542
visibility: 0.9472540616989136
","x: 256.9309387207031
y: 254.77572631835938
z: -0.2158893644809723
visibility: 0.9563503265380859
","x: 224.1106414794922
y: 360.8871154785156
z: -0.017381377518177032
visibility: 0.8909348845481873
","x: 255.55154418945312
y: 254.2867889404297
z: -0.22987401485443115
visibility: 0.9582460522651672
","x: 227.39601135253906
y: 359.96820068359375
z: -0.031624168157577515
visibility: 0.8963816165924072
","x: 256.39959716796875
y: 258.0452880859375
z: -0.1865936666727066
visibility: 0.9470862150192261
","x: 227.44361877441406
y: 355.54510498046875
z: -0.01050798874348402
visibility: 0.8822076320648193
","x: 250.7227783203125
y: 374.8397521972656
z: 0.019990786910057068
visibility: 0.9995073080062866
","x: 232.5113067626953
y: 374.14404296875
z: -0.019999876618385315
visibility: 0.999713659286499
","x: 244.7042694091797
y: 438.6727600097656
z: 0.023892372846603394
visibility: 0.9667054414749146
","x: 231.2904510498047
y: 440.2332763671875
z: -0.025473197922110558
visibility: 0.9860787987709045
","x: 240.92047119140625
y: 499.77618408203125
z: 0.10469520092010498
visibility: 0.9772507548332214
","x: 225.8584442138672
y: 501.95721435546875
z: 0.07316918671131134
visibility: 0.9824840426445007
","x: 238.35617065429688
y: 509.0520935058594
z: 0.10801760852336884
visibility: 0.9116253852844238
","x: 226.05938720703125
y: 511.0049743652344
z: 0.07589336484670639
visibility: 0.8063921928405762
","x: 245.52395629882812
y: 518.6265869140625
z: 0.02236110344529152
visibility: 0.9743385910987854
","x: 227.07220458984375
y: 520.6168212890625
z: -0.022685343399643898
visibility: 0.9745981097221375
",4.915942192077637,"x: 223.35826110839844
y: 351.5965270996094
z: 0.0
","x: 226.6212615966797
y: 354.8663024902344
z: 0.0008846262935549021
","x: 228.60546875
y: 359.895263671875
z: 0.0005003936239518225
","x: 229.30026245117188
y: 364.1535949707031
z: -0.00016699457773938775
","x: 229.56100463867188
y: 367.1501159667969
z: -0.0009012259542942047
","x: 228.09732055664062
y: 364.1302795410156
z: -0.001863835146650672
","x: 228.90745544433594
y: 370.69873046875
z: -0.0033459675032645464
","x: 229.4761962890625
y: 375.03515625
z: -0.0039571854285895824
","x: 229.90211486816406
y: 378.3713073730469
z: -0.004230812657624483
","x: 226.177490234375
y: 364.99359130859375
z: -0.0033038572873920202
","x: 226.81753540039062
y: 372.19549560546875
z: -0.004805765114724636
","x: 227.35018920898438
y: 377.14654541015625
z: -0.005096700042486191
","x: 227.97091674804688
y: 381.00628662109375
z: -0.005350868683308363
","x: 224.3795928955078
y: 365.1876525878906
z: -0.004576229490339756
","x: 224.683837890625
y: 371.953857421875
z: -0.005954716354608536
","x: 224.92263793945312
y: 376.4800720214844
z: -0.006037532351911068
","x: 225.28565979003906
y: 379.74688720703125
z: -0.0061390758492052555
","x: 222.81246948242188
y: 364.5816345214844
z: -0.005798873491585255
","x: 222.68795776367188
y: 369.88848876953125
z: -0.0068651302717626095
","x: 222.6429901123047
y: 373.4414367675781
z: -0.006941530853509903
","x: 222.75657653808594
y: 376.1988830566406
z: -0.006991441361606121
",,,,,,,,,,,,,,,,,,,,,
9,"x: 247.97003173828125
y: 255.26670837402344
z: -0.128668412566185
visibility: 0.999982476234436
","x: 249.86611938476562
y: 251.3365478515625
z: -0.10881169885396957
visibility: 0.9999333024024963
","x: 250.807861328125
y: 252.04745483398438
z: -0.10879231989383698
visibility: 0.999934732913971
","x: 251.73739624023438
y: 252.6943817138672
z: -0.10878149420022964
visibility: 0.9999256134033203
","x: 246.80337524414062
y: 249.25213623046875
z: -0.11966057121753693
visibility: 0.9999390244483948
","x: 245.55235290527344
y: 248.50839233398438
z: -0.11966228485107422
visibility: 0.9999422430992126
","x: 244.1470489501953
y: 247.78631591796875
z: -0.1196514368057251
visibility: 0.999930202960968
","x: 252.07763671875
y: 256.1636047363281
z: -0.00222918763756752
visibility: 0.9997603893280029
","x: 240.22470092773438
y: 251.12356567382812
z: -0.0543096661567688
visibility: 0.9998615384101868
","x: 248.37828063964844
y: 262.8659362792969
z: -0.08900919556617737
visibility: 0.9999510645866394
","x: 244.68687438964844
y: 260.7729187011719
z: -0.10401395708322525
visibility: 0.9999635219573975
","x: 257.1285400390625
y: 288.1374816894531
z: 0.05423232913017273
visibility: 0.9998906850814819
","x: 224.67352294921875
y: 286.98162841796875
z: -0.010444032028317451
visibility: 0.9999486804008484
","x: 273.8359375
y: 300.0960693359375
z: -0.02924055978655815
visibility: 0.9897720217704773
","x: 216.53575134277344
y: 326.4200439453125
z: 0.005680798552930355
visibility: 0.9861567616462708
","x: 260.9286804199219
y: 263.60552978515625
z: -0.18199017643928528
visibility: 0.9847764372825623
","x: 223.2427215576172
y: 349.2769775390625
z: -0.006961297243833542
visibility: 0.9472540616989136
","x: 256.9309387207031
y: 254.77572631835938
z: -0.2158893644809723
visibility: 0.9563503265380859
","x: 224.1106414794922
y: 360.8871154785156
z: -0.017381377518177032
visibility: 0.8909348845481873
","x: 255.55154418945312
y: 254.2867889404297
z: -0.22987401485443115
visibility: 0.9582460522651672
","x: 227.39601135253906
y: 359.96820068359375
z: -0.031624168157577515
visibility: 0.8963816165924072
","x: 256.39959716796875
y: 258.0452880859375
z: -0.1865936666727066
visibility: 0.9470862150192261
","x: 227.44361877441406
y: 355.54510498046875
z: -0.01050798874348402
visibility: 0.8822076320648193
","x: 250.7227783203125
y: 374.8397521972656
z: 0.019990786910057068
visibility: 0.9995073080062866
","x: 232.5113067626953
y: 374.14404296875
z: -0.019999876618385315
visibility: 0.999713659286499
","x: 244.7042694091797
y: 438.6727600097656
z: 0.023892372846603394
visibility: 0.9667054414749146
","x: 231.2904510498047
y: 440.2332763671875
z: -0.025473197922110558
visibility: 0.9860787987709045
","x: 240.92047119140625
y: 499.77618408203125
z: 0.10469520092010498
visibility: 0.9772507548332214
","x: 225.8584442138672
y: 501.95721435546875
z: 0.07316918671131134
visibility: 0.9824840426445007
","x: 238.35617065429688
y: 509.0520935058594
z: 0.10801760852336884
visibility: 0.9116253852844238
","x: 226.05938720703125
y: 511.0049743652344
z: 0.07589336484670639
visibility: 0.8063921928405762
","x: 245.52395629882812
y: 518.6265869140625
z: 0.02236110344529152
visibility: 0.9743385910987854
","x: 227.07220458984375
y: 520.6168212890625
z: -0.022685343399643898
visibility: 0.9745981097221375
",4.915942192077637,"x: 223.35826110839844
y: 351.5965270996094
z: 0.0
","x: 226.6212615966797
y: 354.8663024902344
z: 0.0008846262935549021
","x: 228.60546875
y: 359.895263671875
z: 0.0005003936239518225
","x: 229.30026245117188
y: 364.1535949707031
z: -0.00016699457773938775
","x: 229.56100463867188
y: 367.1501159667969
z: -0.0009012259542942047
","x: 228.09732055664062
y: 364.1302795410156
z: -0.001863835146650672
","x: 228.90745544433594
y: 370.69873046875
z: -0.0033459675032645464
","x: 229.4761962890625
y: 375.03515625
z: -0.0039571854285895824
","x: 229.90211486816406
y: 378.3713073730469
z: -0.004230812657624483
","x: 226.177490234375
y: 364.99359130859375
z: -0.0033038572873920202
","x: 226.81753540039062
y: 372.19549560546875
z: -0.004805765114724636
","x: 227.35018920898438
y: 377.14654541015625
z: -0.005096700042486191
","x: 227.97091674804688
y: 381.00628662109375
z: -0.005350868683308363
","x: 224.3795928955078
y: 365.1876525878906
z: -0.004576229490339756
","x: 224.683837890625
y: 371.953857421875
z: -0.005954716354608536
","x: 224.92263793945312
y: 376.4800720214844
z: -0.006037532351911068
","x: 225.28565979003906
y: 379.74688720703125
z: -0.0061390758492052555
","x: 222.81246948242188
y: 364.5816345214844
z: -0.005798873491585255
","x: 222.68795776367188
y: 369.88848876953125
z: -0.0068651302717626095
","x: 222.6429901123047
y: 373.4414367675781
z: -0.006941530853509903
","x: 222.75657653808594
y: 376.1988830566406
z: -0.006991441361606121
",,,,,,,,,,,,,,,,,,,,,
10,"x: 247.97003173828125
y: 255.26670837402344
z: -0.128668412566185
visibility: 0.999982476234436
","x: 249.86611938476562
y: 251.3365478515625
z: -0.10881169885396957
visibility: 0.9999333024024963
","x: 250.807861328125
y: 252.04745483398438
z: -0.10879231989383698
visibility: 0.999934732913971
","x: 251.73739624023438
y: 252.6943817138672
z: -0.10878149420022964
visibility: 0.9999256134033203
","x: 246.80337524414062
y: 249.25213623046875
z: -0.11966057121753693
visibility: 0.9999390244483948
","x: 245.55235290527344
y: 248.50839233398438
z: -0.11966228485107422
visibility: 0.9999422430992126
","x: 244.1470489501953
y: 247.78631591796875
z: -0.1196514368057251
visibility: 0.999930202960968
","x: 252.07763671875
y: 256.1636047363281
z: -0.00222918763756752
visibility: 0.9997603893280029
","x: 240.22470092773438
y: 251.12356567382812
z: -0.0543096661567688
visibility: 0.9998615384101868
","x: 248.37828063964844
y: 262.8659362792969
z: -0.08900919556617737
visibility: 0.9999510645866394
","x: 244.68687438964844
y: 260.7729187011719
z: -0.10401395708322525
visibility: 0.9999635219573975
","x: 257.1285400390625
y: 288.1374816894531
z: 0.05423232913017273
visibility: 0.9998906850814819
","x: 224.67352294921875
y: 286.98162841796875
z: -0.010444032028317451
visibility: 0.9999486804008484
","x: 273.8359375
y: 300.0960693359375
z: -0.02924055978655815
visibility: 0.9897720217704773
","x: 216.53575134277344
y: 326.4200439453125
z: 0.005680798552930355
visibility: 0.9861567616462708
","x: 260.9286804199219
y: 263.60552978515625
z: -0.18199017643928528
visibility: 0.9847764372825623
","x: 223.2427215576172
y: 349.2769775390625
z: -0.006961297243833542
visibility: 0.9472540616989136
","x: 256.9309387207031
y: 254.77572631835938
z: -0.2158893644809723
visibility: 0.9563503265380859
","x: 224.1106414794922
y: 360.8871154785156
z: -0.017381377518177032
visibility: 0.8909348845481873
","x: 255.55154418945312
y: 254.2867889404297
z: -0.22987401485443115
visibility: 0.9582460522651672
","x: 227.39601135253906
y: 359.96820068359375
z: -0.031624168157577515
visibility: 0.8963816165924072
","x: 256.39959716796875
y: 258.0452880859375
z: -0.1865936666727066
visibility: 0.9470862150192261
","x: 227.44361877441406
y: 355.54510498046875
z: -0.01050798874348402
visibility: 0.8822076320648193
","x: 250.7227783203125
y: 374.8397521972656
z: 0.019990786910057068
visibility: 0.9995073080062866
","x: 232.5113067626953
y: 374.14404296875
z: -0.019999876618385315
visibility: 0.999713659286499
","x: 244.7042694091797
y: 438.6727600097656
z: 0.023892372846603394
visibility: 0.9667054414749146
","x: 231.2904510498047
y: 440.2332763671875
z: -0.025473197922110558
visibility: 0.9860787987709045
","x: 240.92047119140625
y: 499.77618408203125
z: 0.10469520092010498
visibility: 0.9772507548332214
","x: 225.8584442138672
y: 501.95721435546875
z: 0.07316918671131134
visibility: 0.9824840426445007
","x: 238.35617065429688
y: 509.0520935058594
z: 0.10801760852336884
visibility: 0.9116253852844238
","x: 226.05938720703125
y: 511.0049743652344
z: 0.07589336484670639
visibility: 0.8063921928405762
","x: 245.52395629882812
y: 518.6265869140625
z: 0.02236110344529152
visibility: 0.9743385910987854
","x: 227.07220458984375
y: 520.6168212890625
z: -0.022685343399643898
visibility: 0.9745981097221375
",4.915942192077637,"x: 223.35826110839844
y: 351.5965270996094
z: 0.0
","x: 226.6212615966797
y: 354.8663024902344
z: 0.0008846262935549021
","x: 228.60546875
y: 359.895263671875
z: 0.0005003936239518225
","x: 229.30026245117188
y: 364.1535949707031
z: -0.00016699457773938775
","x: 229.56100463867188
y: 367.1501159667969
z: -0.0009012259542942047
","x: 228.09732055664062
y: 364.1302795410156
z: -0.001863835146650672
","x: 228.90745544433594
y: 370.69873046875
z: -0.0033459675032645464
","x: 229.4761962890625
y: 375.03515625
z: -0.0039571854285895824
","x: 229.90211486816406
y: 378.3713073730469
z: -0.004230812657624483
","x: 226.177490234375
y: 364.99359130859375
z: -0.0033038572873920202
","x: 226.81753540039062
y: 372.19549560546875
z: -0.004805765114724636
","x: 227.35018920898438
y: 377.14654541015625
z: -0.005096700042486191
","x: 227.97091674804688
y: 381.00628662109375
z: -0.005350868683308363
","x: 224.3795928955078
y: 365.1876525878906
z: -0.004576229490339756
","x: 224.683837890625
y: 371.953857421875
z: -0.005954716354608536
","x: 224.92263793945312
y: 376.4800720214844
z: -0.006037532351911068
","x: 225.28565979003906
y: 379.74688720703125
z: -0.0061390758492052555
","x: 222.81246948242188
y: 364.5816345214844
z: -0.005798873491585255
","x: 222.68795776367188
y: 369.88848876953125
z: -0.0068651302717626095
","x: 222.6429901123047
y: 373.4414367675781
z: -0.006941530853509903
","x: 222.75657653808594
y: 376.1988830566406
z: -0.006991441361606121
",,,,,,,,,,,,,,,,,,,,,
11,"x: 248.26148986816406
y: 255.50262451171875
z: -0.1385125070810318
visibility: 0.9999827146530151
","x: 250.18141174316406
y: 251.5188751220703
z: -0.11994357407093048
visibility: 0.9999350309371948
","x: 251.15011596679688
y: 252.2044677734375
z: -0.11992855370044708
visibility: 0.9999351501464844
","x: 252.1141357421875
y: 252.8315887451172
z: -0.11991807073354721
visibility: 0.9999269843101501
","x: 247.0054473876953
y: 249.50660705566406
z: -0.12855631113052368
visibility: 0.999941885471344
","x: 245.7130584716797
y: 248.75152587890625
z: -0.1285596489906311
visibility: 0.9999447464942932
","x: 244.332275390625
y: 247.98431396484375
z: -0.12856341898441315
visibility: 0.9999343752861023
","x: 252.60289001464844
y: 256.53265380859375
z: -0.017444489523768425
visibility: 0.9997592568397522
","x: 240.65145874023438
y: 251.19717407226562
z: -0.059525541961193085
visibility: 0.9998732209205627
","x: 248.7857208251953
y: 263.2890625
z: -0.10022660344839096
visibility: 0.9999508857727051
","x: 244.978271484375
y: 261.0775451660156
z: -0.11239746958017349
visibility: 0.9999653100967407
","x: 257.168212890625
y: 288.1668701171875
z: 0.03710078448057175
visibility: 0.9998842477798462
","x: 224.95523071289062
y: 286.8539123535156
z: -0.008020801469683647
visibility: 0.9999483227729797
","x: 276.1160583496094
y: 300.8584289550781
z: -0.039691001176834106
visibility: 0.9902647137641907
","x: 216.52561950683594
y: 324.781982421875
z: 0.027519673109054565
visibility: 0.9863462448120117
","x: 261.3935852050781
y: 266.3336486816406
z: -0.1877586841583252
visibility: 0.9849182367324829
","x: 221.50677490234375
y: 347.3065490722656
z: 0.02174917235970497
visibility: 0.9468318819999695
","x: 258.482421875
y: 257.6209716796875
z: -0.22037270665168762
visibility: 0.9547271728515625
","x: 221.9310760498047
y: 360.0032043457031
z: 0.01579141989350319
visibility: 0.888896107673645
","x: 257.052490234375
y: 257.3103942871094
z: -0.21664658188819885
visibility: 0.9560995697975159
","x: 224.84576416015625
y: 358.949462890625
z: 0.0008739149197936058
visibility: 0.8938748836517334
","x: 257.5829772949219
y: 260.9798889160156
z: -0.18852181732654572
visibility: 0.9441171288490295
","x: 225.26181030273438
y: 354.66876220703125
z: 0.018040556460618973
visibility: 0.8782207369804382
","x: 251.2730255126953
y: 375.14178466796875
z: 0.019760746508836746
visibility: 0.9994996190071106
","x: 233.3191680908203
y: 374.3804626464844
z: -0.019780097529292107
visibility: 0.9996950030326843
","x: 245.1279296875
y: 438.8896484375
z: 0.017983227968215942
visibility: 0.967458963394165
","x: 231.7034912109375
y: 440.223388671875
z: -0.026626553386449814
visibility: 0.9859796762466431
","x: 241.0147247314453
y: 500.4217224121094
z: 0.0954425111413002
visibility: 0.9775933027267456
","x: 225.87562561035156
y: 501.1349792480469
z: 0.06490214169025421
visibility: 0.9825818538665771
","x: 238.343994140625
y: 509.2896728515625
z: 0.09858790040016174
visibility: 0.9144068360328674
","x: 226.05923461914062
y: 510.1214904785156
z: 0.06777839362621307
visibility: 0.807542622089386
","x: 245.62757873535156
y: 519.4236450195312
z: 0.013211958110332489
visibility: 0.9751228094100952
","x: 227.03720092773438
y: 520.5529174804688
z: -0.023339439183473587
visibility: 0.9748751521110535
",5.044598340988159,"x: 222.02308654785156
y: 351.12060546875
z: 0.0
","x: 224.8568115234375
y: 353.84368896484375
z: -6.457048584707081e-06
","x: 227.0198211669922
y: 358.4095764160156
z: -0.000555113423615694
","x: 228.07159423828125
y: 362.1250915527344
z: -0.0013147247955203056
","x: 228.57789611816406
y: 364.4727783203125
z: -0.0020962581038475037
","x: 225.67286682128906
y: 364.0096740722656
z: -0.001520239864476025
","x: 226.238525390625
y: 370.4794616699219
z: -0.002956901676952839
","x: 226.5451202392578
y: 374.48333740234375
z: -0.00360695063136518
","x: 226.75885009765625
y: 377.515869140625
z: -0.003914511762559414
","x: 223.70639038085938
y: 364.99591064453125
z: -0.0025557789485901594
","x: 224.0084991455078
y: 372.0013427734375
z: -0.003932961728423834
","x: 224.21527099609375
y: 376.5307922363281
z: -0.004336998797953129
","x: 224.48081970214844
y: 379.9717712402344
z: -0.0046551902778446674
","x: 221.79649353027344
y: 365.13800048828125
z: -0.0035968285519629717
","x: 221.85556030273438
y: 371.67083740234375
z: -0.005001896992325783
","x: 221.84153747558594
y: 375.7787780761719
z: -0.005321249831467867
","x: 221.9278106689453
y: 378.71234130859375
z: -0.005534104537218809
","x: 220.05215454101562
y: 364.5514221191406
z: -0.0046987105160951614
","x: 219.8812713623047
y: 369.54705810546875
z: -0.005826439708471298
","x: 219.97645568847656
y: 372.8224182128906
z: -0.006113483104854822
","x: 220.15869140625
y: 375.29644775390625
z: -0.006293914746493101
",,,,,,,,,,,,,,,,,,,,,
12,"x: 248.26148986816406
y: 255.50262451171875
z: -0.1385125070810318
visibility: 0.9999827146530151
","x: 250.18141174316406
y: 251.5188751220703
z: -0.11994357407093048
visibility: 0.9999350309371948
","x: 251.15011596679688
y: 252.2044677734375
z: -0.11992855370044708
visibility: 0.9999351501464844
","x: 252.1141357421875
y: 252.8315887451172
z: -0.11991807073354721
visibility: 0.9999269843101501
","x: 247.0054473876953
y: 249.50660705566406
z: -0.12855631113052368
visibility: 0.999941885471344
","x: 245.7130584716797
y: 248.75152587890625
z: -0.1285596489906311
visibility: 0.9999447464942932
","x: 244.332275390625
y: 247.98431396484375
z: -0.12856341898441315
visibility: 0.9999343752861023
","x: 252.60289001464844
y: 256.53265380859375
z: -0.017444489523768425
visibility: 0.9997592568397522
","x: 240.65145874023438
y: 251.19717407226562
z: -0.059525541961193085
visibility: 0.9998732209205627
","x: 248.7857208251953
y: 263.2890625
z: -0.10022660344839096
visibility: 0.9999508857727051
","x: 244.978271484375
y: 261.0775451660156
z: -0.11239746958017349
visibility: 0.9999653100967407
","x: 257.168212890625
y: 288.1668701171875
z: 0.03710078448057175
visibility: 0.9998842477798462
","x: 224.95523071289062
y: 286.8539123535156
z: -0.008020801469683647
visibility: 0.9999483227729797
","x: 276.1160583496094
y: 300.8584289550781
z: -0.039691001176834106
visibility: 0.9902647137641907
","x: 216.52561950683594
y: 324.781982421875
z: 0.027519673109054565
visibility: 0.9863462448120117
","x: 261.3935852050781
y: 266.3336486816406
z: -0.1877586841583252
visibility: 0.9849182367324829
","x: 221.50677490234375
y: 347.3065490722656
z: 0.02174917235970497
visibility: 0.9468318819999695
","x: 258.482421875
y: 257.6209716796875
z: -0.22037270665168762
visibility: 0.9547271728515625
","x: 221.9310760498047
y: 360.0032043457031
z: 0.01579141989350319
visibility: 0.888896107673645
","x: 257.052490234375
y: 257.3103942871094
z: -0.21664658188819885
visibility: 0.9560995697975159
","x: 224.84576416015625
y: 358.949462890625
z: 0.0008739149197936058
visibility: 0.8938748836517334
","x: 257.5829772949219
y: 260.9798889160156
z: -0.18852181732654572
visibility: 0.9441171288490295
","x: 225.26181030273438
y: 354.66876220703125
z: 0.018040556460618973
visibility: 0.8782207369804382
","x: 251.2730255126953
y: 375.14178466796875
z: 0.019760746508836746
visibility: 0.9994996190071106
","x: 233.3191680908203
y: 374.3804626464844
z: -0.019780097529292107
visibility: 0.9996950030326843
","x: 245.1279296875
y: 438.8896484375
z: 0.017983227968215942
visibility: 0.967458963394165
","x: 231.7034912109375
y: 440.223388671875
z: -0.026626553386449814
visibility: 0.9859796762466431
","x: 241.0147247314453
y: 500.4217224121094
z: 0.0954425111413002
visibility: 0.9775933027267456
","x: 225.87562561035156
y: 501.1349792480469
z: 0.06490214169025421
visibility: 0.9825818538665771
","x: 238.343994140625
y: 509.2896728515625
z: 0.09858790040016174
visibility: 0.9144068360328674
","x: 226.05923461914062
y: 510.1214904785156
z: 0.06777839362621307
visibility: 0.807542622089386
","x: 245.62757873535156
y: 519.4236450195312
z: 0.013211958110332489
visibility: 0.9751228094100952
","x: 227.03720092773438
y: 520.5529174804688
z: -0.023339439183473587
visibility: 0.9748751521110535
",5.044598340988159,"x: 222.02308654785156
y: 351.12060546875
z: 0.0
","x: 224.8568115234375
y: 353.84368896484375
z: -6.457048584707081e-06
","x: 227.0198211669922
y: 358.4095764160156
z: -0.000555113423615694
","x: 228.07159423828125
y: 362.1250915527344
z: -0.0013147247955203056
","x: 228.57789611816406
y: 364.4727783203125
z: -0.0020962581038475037
","x: 225.67286682128906
y: 364.0096740722656
z: -0.001520239864476025
","x: 226.238525390625
y: 370.4794616699219
z: -0.002956901676952839
","x: 226.5451202392578
y: 374.48333740234375
z: -0.00360695063136518
","x: 226.75885009765625
y: 377.515869140625
z: -0.003914511762559414
","x: 223.70639038085938
y: 364.99591064453125
z: -0.0025557789485901594
","x: 224.0084991455078
y: 372.0013427734375
z: -0.003932961728423834
","x: 224.21527099609375
y: 376.5307922363281
z: -0.004336998797953129
","x: 224.48081970214844
y: 379.9717712402344
z: -0.0046551902778446674
","x: 221.79649353027344
y: 365.13800048828125
z: -0.0035968285519629717
","x: 221.85556030273438
y: 371.67083740234375
z: -0.005001896992325783
","x: 221.84153747558594
y: 375.7787780761719
z: -0.005321249831467867
","x: 221.9278106689453
y: 378.71234130859375
z: -0.005534104537218809
","x: 220.05215454101562
y: 364.5514221191406
z: -0.0046987105160951614
","x: 219.8812713623047
y: 369.54705810546875
z: -0.005826439708471298
","x: 219.97645568847656
y: 372.8224182128906
z: -0.006113483104854822
","x: 220.15869140625
y: 375.29644775390625
z: -0.006293914746493101
",,,,,,,,,,,,,,,,,,,,,
13,"x: 248.26148986816406
y: 255.50262451171875
z: -0.1385125070810318
visibility: 0.9999827146530151
","x: 250.18141174316406
y: 251.5188751220703
z: -0.11994357407093048
visibility: 0.9999350309371948
","x: 251.15011596679688
y: 252.2044677734375
z: -0.11992855370044708
visibility: 0.9999351501464844
","x: 252.1141357421875
y: 252.8315887451172
z: -0.11991807073354721
visibility: 0.9999269843101501
","x: 247.0054473876953
y: 249.50660705566406
z: -0.12855631113052368
visibility: 0.999941885471344
","x: 245.7130584716797
y: 248.75152587890625
z: -0.1285596489906311
visibility: 0.9999447464942932
","x: 244.332275390625
y: 247.98431396484375
z: -0.12856341898441315
visibility: 0.9999343752861023
","x: 252.60289001464844
y: 256.53265380859375
z: -0.017444489523768425
visibility: 0.9997592568397522
","x: 240.65145874023438
y: 251.19717407226562
z: -0.059525541961193085
visibility: 0.9998732209205627
","x: 248.7857208251953
y: 263.2890625
z: -0.10022660344839096
visibility: 0.9999508857727051
","x: 244.978271484375
y: 261.0775451660156
z: -0.11239746958017349
visibility: 0.9999653100967407
","x: 257.168212890625
y: 288.1668701171875
z: 0.03710078448057175
visibility: 0.9998842477798462
","x: 224.95523071289062
y: 286.8539123535156
z: -0.008020801469683647
visibility: 0.9999483227729797
","x: 276.1160583496094
y: 300.8584289550781
z: -0.039691001176834106
visibility: 0.9902647137641907
","x: 216.52561950683594
y: 324.781982421875
z: 0.027519673109054565
visibility: 0.9863462448120117
","x: 261.3935852050781
y: 266.3336486816406
z: -0.1877586841583252
visibility: 0.9849182367324829
","x: 221.50677490234375
y: 347.3065490722656
z: 0.02174917235970497
visibility: 0.9468318819999695
","x: 258.482421875
y: 257.6209716796875
z: -0.22037270665168762
visibility: 0.9547271728515625
","x: 221.9310760498047
y: 360.0032043457031
z: 0.01579141989350319
visibility: 0.888896107673645
","x: 257.052490234375
y: 257.3103942871094
z: -0.21664658188819885
visibility: 0.9560995697975159
","x: 224.84576416015625
y: 358.949462890625
z: 0.0008739149197936058
visibility: 0.8938748836517334
","x: 257.5829772949219
y: 260.9798889160156
z: -0.18852181732654572
visibility: 0.9441171288490295
","x: 225.26181030273438
y: 354.66876220703125
z: 0.018040556460618973
visibility: 0.8782207369804382
","x: 251.2730255126953
y: 375.14178466796875
z: 0.019760746508836746
visibility: 0.9994996190071106
","x: 233.3191680908203
y: 374.3804626464844
z: -0.019780097529292107
visibility: 0.9996950030326843
","x: 245.1279296875
y: 438.8896484375
z: 0.017983227968215942
visibility: 0.967458963394165
","x: 231.7034912109375
y: 440.223388671875
z: -0.026626553386449814
visibility: 0.9859796762466431
","x: 241.0147247314453
y: 500.4217224121094
z: 0.0954425111413002
visibility: 0.9775933027267456
","x: 225.87562561035156
y: 501.1349792480469
z: 0.06490214169025421
visibility: 0.9825818538665771
","x: 238.343994140625
y: 509.2896728515625
z: 0.09858790040016174
visibility: 0.9144068360328674
","x: 226.05923461914062
y: 510.1214904785156
z: 0.06777839362621307
visibility: 0.807542622089386
","x: 245.62757873535156
y: 519.4236450195312
z: 0.013211958110332489
visibility: 0.9751228094100952
","x: 227.03720092773438
y: 520.5529174804688
z: -0.023339439183473587
visibility: 0.9748751521110535
",5.044598340988159,"x: 222.02308654785156
y: 351.12060546875
z: 0.0
","x: 224.8568115234375
y: 353.84368896484375
z: -6.457048584707081e-06
","x: 227.0198211669922
y: 358.4095764160156
z: -0.000555113423615694
","x: 228.07159423828125
y: 362.1250915527344
z: -0.0013147247955203056
","x: 228.57789611816406
y: 364.4727783203125
z: -0.0020962581038475037
","x: 225.67286682128906
y: 364.0096740722656
z: -0.001520239864476025
","x: 226.238525390625
y: 370.4794616699219
z: -0.002956901676952839
","x: 226.5451202392578
y: 374.48333740234375
z: -0.00360695063136518
","x: 226.75885009765625
y: 377.515869140625
z: -0.003914511762559414
","x: 223.70639038085938
y: 364.99591064453125
z: -0.0025557789485901594
","x: 224.0084991455078
y: 372.0013427734375
z: -0.003932961728423834
","x: 224.21527099609375
y: 376.5307922363281
z: -0.004336998797953129
","x: 224.48081970214844
y: 379.9717712402344
z: -0.0046551902778446674
","x: 221.79649353027344
y: 365.13800048828125
z: -0.0035968285519629717
","x: 221.85556030273438
y: 371.67083740234375
z: -0.005001896992325783
","x: 221.84153747558594
y: 375.7787780761719
z: -0.005321249831467867
","x: 221.9278106689453
y: 378.71234130859375
z: -0.005534104537218809
","x: 220.05215454101562
y: 364.5514221191406
z: -0.0046987105160951614
","x: 219.8812713623047
y: 369.54705810546875
z: -0.005826439708471298
","x: 219.97645568847656
y: 372.8224182128906
z: -0.006113483104854822
","x: 220.15869140625
y: 375.29644775390625
z: -0.006293914746493101
",,,,,,,,,,,,,,,,,,,,,
14,"x: 247.5760498046875
y: 254.82215881347656
z: -0.24465122818946838
visibility: 0.9999806880950928
","x: 249.50491333007812
y: 250.9476318359375
z: -0.2269241064786911
visibility: 0.9999299049377441
","x: 250.55380249023438
y: 251.74562072753906
z: -0.22692100703716278
visibility: 0.99992835521698
","x: 251.59730529785156
y: 252.55592346191406
z: -0.22694237530231476
visibility: 0.9999207258224487
","x: 246.17251586914062
y: 249.00656127929688
z: -0.22953462600708008
visibility: 0.999937891960144
","x: 244.83999633789062
y: 248.361328125
z: -0.22954928874969482
visibility: 0.9999405145645142
","x: 243.43431091308594
y: 247.69290161132812
z: -0.2295571267604828
visibility: 0.9999314546585083
","x: 252.54000854492188
y: 256.13409423828125
z: -0.12225736677646637
visibility: 0.9997406005859375
","x: 240.00772094726562
y: 251.19276428222656
z: -0.13491050899028778
visibility: 0.9998756051063538
","x: 248.3848876953125
y: 263.16912841796875
z: -0.2060989886522293
visibility: 0.9999514818191528
","x: 244.36099243164062
y: 260.85650634765625
z: -0.21026603877544403
visibility: 0.9999662637710571
","x: 258.06475830078125
y: 287.87274169921875
z: -0.0609268918633461
visibility: 0.9998879432678223
","x: 225.30426025390625
y: 286.0997314453125
z: -0.06273865699768066
visibility: 0.9999474287033081
","x: 278.2272644042969
y: 307.40618896484375
z: -0.15480372309684753
visibility: 0.9908859729766846
","x: 213.8256072998047
y: 319.04620361328125
z: -0.0639028251171112
visibility: 0.986953616142273
","x: 263.7530822753906
y: 290.8367004394531
z: -0.3386785387992859
visibility: 0.9853057861328125
","x: 217.3944091796875
y: 341.56201171875
z: -0.15328992903232574
visibility: 0.947218656539917
","x: 259.87908935546875
y: 290.9313659667969
z: -0.38027843832969666
visibility: 0.9550735354423523
","x: 219.10459899902344
y: 355.2505187988281
z: -0.17775018513202667
visibility: 0.8877593278884888
","x: 257.5525207519531
y: 288.4275207519531
z: -0.37522321939468384
visibility: 0.9562812447547913
","x: 222.7791290283203
y: 354.5596008300781
z: -0.19203068315982819
visibility: 0.8923215866088867
","x: 258.14788818359375
y: 289.0596923828125
z: -0.3409135043621063
visibility: 0.9434394240379333
","x: 221.94412231445312
y: 349.271484375
z: -0.15964049100875854
visibility: 0.875140368938446
","x: 251.18853759765625
y: 374.60333251953125
z: 0.017558565363287926
visibility: 0.999530017375946
","x: 232.9100341796875
y: 372.8466796875
z: -0.01765109784901142
visibility: 0.999701976776123
","x: 245.1885528564453
y: 438.9852600097656
z: 0.024025920778512955
visibility: 0.9674344658851624
","x: 231.681396484375
y: 436.6921691894531
z: -0.029342036694288254
visibility: 0.9859447479248047
","x: 241.2608184814453
y: 500.40655517578125
z: 0.17916591465473175
visibility: 0.9772145748138428
","x: 224.54539489746094
y: 489.8204040527344
z: 0.12996789813041687
visibility: 0.9821066856384277
","x: 238.42959594726562
y: 508.8891906738281
z: 0.19080206751823425
visibility: 0.9078018069267273
","x: 224.50306701660156
y: 496.23468017578125
z: 0.1413457691669464
visibility: 0.8021189570426941
","x: 245.6123504638672
y: 519.623291015625
z: 0.09222939610481262
visibility: 0.9748600721359253
","x: 224.7694091796875
y: 513.3829345703125
z: 0.03907306492328644
visibility: 0.9749491810798645
",5.169004440307617,,,,,,,,,,,,,,,,,,,,,,,,,,,,,,,,,,,,,,,,,,
15,"x: 247.5760498046875
y: 254.82215881347656
z: -0.24465122818946838
visibility: 0.9999806880950928
","x: 249.50491333007812
y: 250.9476318359375
z: -0.2269241064786911
visibility: 0.9999299049377441
","x: 250.55380249023438
y: 251.74562072753906
z: -0.22692100703716278
visibility: 0.99992835521698
","x: 251.59730529785156
y: 252.55592346191406
z: -0.22694237530231476
visibility: 0.9999207258224487
","x: 246.17251586914062
y: 249.00656127929688
z: -0.22953462600708008
visibility: 0.999937891960144
","x: 244.83999633789062
y: 248.361328125
z: -0.22954928874969482
visibility: 0.9999405145645142
","x: 243.43431091308594
y: 247.69290161132812
z: -0.2295571267604828
visibility: 0.9999314546585083
","x: 252.54000854492188
y: 256.13409423828125
z: -0.12225736677646637
visibility: 0.9997406005859375
","x: 240.00772094726562
y: 251.19276428222656
z: -0.13491050899028778
visibility: 0.9998756051063538
","x: 248.3848876953125
y: 263.16912841796875
z: -0.2060989886522293
visibility: 0.9999514818191528
","x: 244.36099243164062
y: 260.85650634765625
z: -0.21026603877544403
visibility: 0.9999662637710571
","x: 258.06475830078125
y: 287.87274169921875
z: -0.0609268918633461
visibility: 0.9998879432678223
","x: 225.30426025390625
y: 286.0997314453125
z: -0.06273865699768066
visibility: 0.9999474287033081
","x: 278.2272644042969
y: 307.40618896484375
z: -0.15480372309684753
visibility: 0.9908859729766846
","x: 213.8256072998047
y: 319.04620361328125
z: -0.0639028251171112
visibility: 0.986953616142273
","x: 263.7530822753906
y: 290.8367004394531
z: -0.3386785387992859
visibility: 0.9853057861328125
","x: 217.3944091796875
y: 341.56201171875
z: -0.15328992903232574
visibility: 0.947218656539917
","x: 259.87908935546875
y: 290.9313659667969
z: -0.38027843832969666
visibility: 0.9550735354423523
","x: 219.10459899902344
y: 355.2505187988281
z: -0.17775018513202667
visibility: 0.8877593278884888
","x: 257.5525207519531
y: 288.4275207519531
z: -0.37522321939468384
visibility: 0.9562812447547913
","x: 222.7791290283203
y: 354.5596008300781
z: -0.19203068315982819
visibility: 0.8923215866088867
","x: 258.14788818359375
y: 289.0596923828125
z: -0.3409135043621063
visibility: 0.9434394240379333
","x: 221.94412231445312
y: 349.271484375
z: -0.15964049100875854
visibility: 0.875140368938446
","x: 251.18853759765625
y: 374.60333251953125
z: 0.017558565363287926
visibility: 0.999530017375946
","x: 232.9100341796875
y: 372.8466796875
z: -0.01765109784901142
visibility: 0.999701976776123
","x: 245.1885528564453
y: 438.9852600097656
z: 0.024025920778512955
visibility: 0.9674344658851624
","x: 231.681396484375
y: 436.6921691894531
z: -0.029342036694288254
visibility: 0.9859447479248047
","x: 241.2608184814453
y: 500.40655517578125
z: 0.17916591465473175
visibility: 0.9772145748138428
","x: 224.54539489746094
y: 489.8204040527344
z: 0.12996789813041687
visibility: 0.9821066856384277
","x: 238.42959594726562
y: 508.8891906738281
z: 0.19080206751823425
visibility: 0.9078018069267273
","x: 224.50306701660156
y: 496.23468017578125
z: 0.1413457691669464
visibility: 0.8021189570426941
","x: 245.6123504638672
y: 519.623291015625
z: 0.09222939610481262
visibility: 0.9748600721359253
","x: 224.7694091796875
y: 513.3829345703125
z: 0.03907306492328644
visibility: 0.9749491810798645
",5.169004440307617,,,,,,,,,,,,,,,,,,,,,,,,,,,,,,,,,,,,,,,,,,
16,"x: 247.22671508789062
y: 252.1060028076172
z: -0.2100135087966919
visibility: 0.9999802112579346
","x: 249.17398071289062
y: 248.62905883789062
z: -0.1951766014099121
visibility: 0.9999306201934814
","x: 250.25485229492188
y: 249.17230224609375
z: -0.19519171118736267
visibility: 0.999927818775177
","x: 251.2552032470703
y: 249.75282287597656
z: -0.19519086182117462
visibility: 0.9999218583106995
","x: 245.7305450439453
y: 247.3229217529297
z: -0.1971348226070404
visibility: 0.99993896484375
","x: 244.37229919433594
y: 246.8795928955078
z: -0.1971537470817566
visibility: 0.9999405741691589
","x: 242.9733123779297
y: 246.41204833984375
z: -0.19716911017894745
visibility: 0.9999333024024963
","x: 252.28924560546875
y: 253.86370849609375
z: -0.10203851759433746
visibility: 0.9997459650039673
","x: 239.63238525390625
y: 250.11874389648438
z: -0.11362732946872711
visibility: 0.9998774528503418
","x: 248.1768341064453
y: 260.2441711425781
z: -0.17515923082828522
visibility: 0.999953031539917
","x: 244.00674438476562
y: 258.7148742675781
z: -0.1786154955625534
visibility: 0.9999673962593079
","x: 258.594970703125
y: 286.6251525878906
z: -0.05532948300242424
visibility: 0.999893844127655
","x: 225.30860900878906
y: 283.9071960449219
z: -0.03756857290863991
visibility: 0.9999457001686096
","x: 275.6073303222656
y: 309.33343505859375
z: -0.08834488689899445
visibility: 0.9914847612380981
","x: 212.65196228027344
y: 315.7424621582031
z: -0.01758045330643654
visibility: 0.987213134765625
","x: 262.9891662597656
y: 322.0634765625
z: -0.26528507471084595
visibility: 0.9861001968383789
","x: 215.8600616455078
y: 341.218994140625
z: -0.11989559233188629
visibility: 0.9489879012107849
","x: 258.72857666015625
y: 335.3998107910156
z: -0.2852693200111389
visibility: 0.9573573470115662
","x: 216.2812042236328
y: 354.2798156738281
z: -0.1529533416032791
visibility: 0.8907984495162964
","x: 256.1099548339844
y: 331.2968444824219
z: -0.2826864421367645
visibility: 0.9585064649581909
","x: 220.1532440185547
y: 353.894287109375
z: -0.16464872658252716
visibility: 0.8951331377029419
","x: 256.697509765625
y: 327.4691467285156
z: -0.27712997794151306
visibility: 0.9456234574317932
","x: 219.77264404296875
y: 348.8787841796875
z: -0.12662865221500397
visibility: 0.8774067759513855
","x: 251.15338134765625
y: 372.26873779296875
z: 0.0062165698036551476
visibility: 0.9994522333145142
","x: 232.8749542236328
y: 370.5652160644531
z: -0.006227962207049131
visibility: 0.9996539354324341
","x: 245.1724395751953
y: 436.8588562011719
z: 0.004940573591738939
visibility: 0.9687017202377319
","x: 230.05809020996094
y: 435.1126708984375
z: -0.04282606765627861
visibility: 0.9859606027603149
","x: 241.256103515625
y: 500.38623046875
z: 0.08846506476402283
visibility: 0.9778635501861572
","x: 223.06491088867188
y: 491.564697265625
z: 0.03291258215904236
visibility: 0.982633650302887
","x: 238.34373474121094
y: 508.89715576171875
z: 0.09071101248264313
visibility: 0.907522439956665
","x: 223.75332641601562
y: 496.988525390625
z: 0.033504050225019455
visibility: 0.8049222230911255
","x: 245.60279846191406
y: 519.6122436523438
z: -0.005605352111160755
visibility: 0.9754020571708679
","x: 221.01022338867188
y: 514.6227416992188
z: -0.07154372334480286
visibility: 0.9756770133972168
",5.296048641204834,,,,,,,,,,,,,,,,,,,,,,,,,,,,,,,,,,,,,,,,,,
17,"x: 247.22671508789062
y: 252.1060028076172
z: -0.2100135087966919
visibility: 0.9999802112579346
","x: 249.17398071289062
y: 248.62905883789062
z: -0.1951766014099121
visibility: 0.9999306201934814
","x: 250.25485229492188
y: 249.17230224609375
z: -0.19519171118736267
visibility: 0.999927818775177
","x: 251.2552032470703
y: 249.75282287597656
z: -0.19519086182117462
visibility: 0.9999218583106995
","x: 245.7305450439453
y: 247.3229217529297
z: -0.1971348226070404
visibility: 0.99993896484375
","x: 244.37229919433594
y: 246.8795928955078
z: -0.1971537470817566
visibility: 0.9999405741691589
","x: 242.9733123779297
y: 246.41204833984375
z: -0.19716911017894745
visibility: 0.9999333024024963
","x: 252.28924560546875
y: 253.86370849609375
z: -0.10203851759433746
visibility: 0.9997459650039673
","x: 239.63238525390625
y: 250.11874389648438
z: -0.11362732946872711
visibility: 0.9998774528503418
","x: 248.1768341064453
y: 260.2441711425781
z: -0.17515923082828522
visibility: 0.999953031539917
","x: 244.00674438476562
y: 258.7148742675781
z: -0.1786154955625534
visibility: 0.9999673962593079
","x: 258.594970703125
y: 286.6251525878906
z: -0.05532948300242424
visibility: 0.999893844127655
","x: 225.30860900878906
y: 283.9071960449219
z: -0.03756857290863991
visibility: 0.9999457001686096
","x: 275.6073303222656
y: 309.33343505859375
z: -0.08834488689899445
visibility: 0.9914847612380981
","x: 212.65196228027344
y: 315.7424621582031
z: -0.01758045330643654
visibility: 0.987213134765625
","x: 262.9891662597656
y: 322.0634765625
z: -0.26528507471084595
visibility: 0.9861001968383789
","x: 215.8600616455078
y: 341.218994140625
z: -0.11989559233188629
visibility: 0.9489879012107849
","x: 258.72857666015625
y: 335.3998107910156
z: -0.2852693200111389
visibility: 0.9573573470115662
","x: 216.2812042236328
y: 354.2798156738281
z: -0.1529533416032791
visibility: 0.8907984495162964
","x: 256.1099548339844
y: 331.2968444824219
z: -0.2826864421367645
visibility: 0.9585064649581909
","x: 220.1532440185547
y: 353.894287109375
z: -0.16464872658252716
visibility: 0.8951331377029419
","x: 256.697509765625
y: 327.4691467285156
z: -0.27712997794151306
visibility: 0.9456234574317932
","x: 219.77264404296875
y: 348.8787841796875
z: -0.12662865221500397
visibility: 0.8774067759513855
","x: 251.15338134765625
y: 372.26873779296875
z: 0.0062165698036551476
visibility: 0.9994522333145142
","x: 232.8749542236328
y: 370.5652160644531
z: -0.006227962207049131
visibility: 0.9996539354324341
","x: 245.1724395751953
y: 436.8588562011719
z: 0.004940573591738939
visibility: 0.9687017202377319
","x: 230.05809020996094
y: 435.1126708984375
z: -0.04282606765627861
visibility: 0.9859606027603149
","x: 241.256103515625
y: 500.38623046875
z: 0.08846506476402283
visibility: 0.9778635501861572
","x: 223.06491088867188
y: 491.564697265625
z: 0.03291258215904236
visibility: 0.982633650302887
","x: 238.34373474121094
y: 508.89715576171875
z: 0.09071101248264313
visibility: 0.907522439956665
","x: 223.75332641601562
y: 496.988525390625
z: 0.033504050225019455
visibility: 0.8049222230911255
","x: 245.60279846191406
y: 519.6122436523438
z: -0.005605352111160755
visibility: 0.9754020571708679
","x: 221.01022338867188
y: 514.6227416992188
z: -0.07154372334480286
visibility: 0.9756770133972168
",5.296048641204834,,,,,,,,,,,,,,,,,,,,,,,,,,,,,,,,,,,,,,,,,,
18,"x: 246.28179931640625
y: 252.33865356445312
z: -0.2474450320005417
visibility: 0.9999803304672241
","x: 248.26483154296875
y: 248.64846801757812
z: -0.23186948895454407
visibility: 0.9999321699142456
","x: 249.49453735351562
y: 249.17279052734375
z: -0.23187926411628723
visibility: 0.9999285340309143
","x: 250.63502502441406
y: 249.7340087890625
z: -0.2318609654903412
visibility: 0.9999228715896606
","x: 244.93099975585938
y: 247.3792724609375
z: -0.23465824127197266
visibility: 0.9999411106109619
","x: 243.5300750732422
y: 246.96377563476562
z: -0.2346925437450409
visibility: 0.9999421834945679
","x: 242.07720947265625
y: 246.55592346191406
z: -0.2347218245267868
visibility: 0.9999361634254456
","x: 252.0883331298828
y: 253.8489990234375
z: -0.1360214203596115
visibility: 0.9997477531433105
","x: 238.99424743652344
y: 250.21160888671875
z: -0.1521448940038681
visibility: 0.9998819828033447
","x: 247.51275634765625
y: 260.40155029296875
z: -0.21155042946338654
visibility: 0.9999538064002991
","x: 243.1702423095703
y: 258.85882568359375
z: -0.21623146533966064
visibility: 0.9999687671661377
","x: 258.56439208984375
y: 289.3325500488281
z: -0.0727604404091835
visibility: 0.9998944401741028
","x: 224.4652557373047
y: 284.4195556640625
z: -0.08364515006542206
visibility: 0.9999451637268066
","x: 266.9976806640625
y: 328.19110107421875
z: -0.05408473685383797
visibility: 0.9910829067230225
","x: 212.982177734375
y: 319.9231262207031
z: -0.0692262202501297
visibility: 0.9869745969772339
","x: 260.453369140625
y: 362.72845458984375
z: -0.15585091710090637
visibility: 0.985239565372467
","x: 220.47679138183594
y: 352.70855712890625
z: -0.1665765345096588
visibility: 0.9483662247657776
","x: 258.6844787597656
y: 376.6842956542969
z: -0.18481406569480896
visibility: 0.9565363526344299
","x: 223.2535858154297
y: 364.54693603515625
z: -0.19601640105247498
visibility: 0.8910081386566162
","x: 256.3773193359375
y: 374.1058654785156
z: -0.20799565315246582
visibility: 0.9577692151069641
","x: 226.0759735107422
y: 359.3923645019531
z: -0.2129056751728058
visibility: 0.8950970768928528
","x: 256.2420349121094
y: 369.4464111328125
z: -0.16706010699272156
visibility: 0.9442458152770996
","x: 225.83087158203125
y: 356.3448486328125
z: -0.17404422163963318
visibility: 0.8758122324943542
","x: 250.09548950195312
y: 374.8367004394531
z: 0.007840396836400032
visibility: 0.9994432926177979
","x: 230.95204162597656
y: 371.72930908203125
z: -0.007850579917430878
visibility: 0.9996671676635742
","x: 245.1182861328125
y: 439.4034423828125
z: 0.04035978764295578
visibility: 0.9703392386436462
","x: 227.06382751464844
y: 437.93658447265625
z: -0.04851618409156799
visibility: 0.9867900609970093
","x: 241.25100708007812
y: 500.380615234375
z: 0.15791191160678864
visibility: 0.9789342880249023
","x: 220.90036010742188
y: 500.4980163574219
z: 0.035375840961933136
visibility: 0.983686625957489
","x: 238.1877899169922
y: 508.9202575683594
z: 0.1630139946937561
visibility: 0.9096660017967224
","x: 222.11109924316406
y: 507.0870666503906
z: 0.03700455650687218
visibility: 0.8109043836593628
","x: 245.86228942871094
y: 519.8546752929688
z: 0.06466945260763168
visibility: 0.9762797355651855
","x: 218.57424926757812
y: 521.911376953125
z: -0.07515411078929901
visibility: 0.976887583732605
",5.42319130897522,,,,,,,,,,,,,,,,,,,,,,,,,,,,,,,,,,,,,,,,,,
19,"x: 246.28179931640625
y: 252.33865356445312
z: -0.2474450320005417
visibility: 0.9999803304672241
","x: 248.26483154296875
y: 248.64846801757812
z: -0.23186948895454407
visibility: 0.9999321699142456
","x: 249.49453735351562
y: 249.17279052734375
z: -0.23187926411628723
visibility: 0.9999285340309143
","x: 250.63502502441406
y: 249.7340087890625
z: -0.2318609654903412
visibility: 0.9999228715896606
","x: 244.93099975585938
y: 247.3792724609375
z: -0.23465824127197266
visibility: 0.9999411106109619
","x: 243.5300750732422
y: 246.96377563476562
z: -0.2346925437450409
visibility: 0.9999421834945679
","x: 242.07720947265625
y: 246.55592346191406
z: -0.2347218245267868
visibility: 0.9999361634254456
","x: 252.0883331298828
y: 253.8489990234375
z: -0.1360214203596115
visibility: 0.9997477531433105
","x: 238.99424743652344
y: 250.21160888671875
z: -0.1521448940038681
visibility: 0.9998819828033447
","x: 247.51275634765625
y: 260.40155029296875
z: -0.21155042946338654
visibility: 0.9999538064002991
","x: 243.1702423095703
y: 258.85882568359375
z: -0.21623146533966064
visibility: 0.9999687671661377
","x: 258.56439208984375
y: 289.3325500488281
z: -0.0727604404091835
visibility: 0.9998944401741028
","x: 224.4652557373047
y: 284.4195556640625
z: -0.08364515006542206
visibility: 0.9999451637268066
","x: 266.9976806640625
y: 328.19110107421875
z: -0.05408473685383797
visibility: 0.9910829067230225
","x: 212.982177734375
y: 319.9231262207031
z: -0.0692262202501297
visibility: 0.9869745969772339
","x: 260.453369140625
y: 362.72845458984375
z: -0.15585091710090637
visibility: 0.985239565372467
","x: 220.47679138183594
y: 352.70855712890625
z: -0.1665765345096588
visibility: 0.9483662247657776
","x: 258.6844787597656
y: 376.6842956542969
z: -0.18481406569480896
visibility: 0.9565363526344299
","x: 223.2535858154297
y: 364.54693603515625
z: -0.19601640105247498
visibility: 0.8910081386566162
","x: 256.3773193359375
y: 374.1058654785156
z: -0.20799565315246582
visibility: 0.9577692151069641
","x: 226.0759735107422
y: 359.3923645019531
z: -0.2129056751728058
visibility: 0.8950970768928528
","x: 256.2420349121094
y: 369.4464111328125
z: -0.16706010699272156
visibility: 0.9442458152770996
","x: 225.83087158203125
y: 356.3448486328125
z: -0.17404422163963318
visibility: 0.8758122324943542
","x: 250.09548950195312
y: 374.8367004394531
z: 0.007840396836400032
visibility: 0.9994432926177979
","x: 230.95204162597656
y: 371.72930908203125
z: -0.007850579917430878
visibility: 0.9996671676635742
","x: 245.1182861328125
y: 439.4034423828125
z: 0.04035978764295578
visibility: 0.9703392386436462
","x: 227.06382751464844
y: 437.93658447265625
z: -0.04851618409156799
visibility: 0.9867900609970093
","x: 241.25100708007812
y: 500.380615234375
z: 0.15791191160678864
visibility: 0.9789342880249023
","x: 220.90036010742188
y: 500.4980163574219
z: 0.035375840961933136
visibility: 0.983686625957489
","x: 238.1877899169922
y: 508.9202575683594
z: 0.1630139946937561
visibility: 0.9096660017967224
","x: 222.11109924316406
y: 507.0870666503906
z: 0.03700455650687218
visibility: 0.8109043836593628
","x: 245.86228942871094
y: 519.8546752929688
z: 0.06466945260763168
visibility: 0.9762797355651855
","x: 218.57424926757812
y: 521.911376953125
z: -0.07515411078929901
visibility: 0.976887583732605
",5.42319130897522,,,,,,,,,,,,,,,,,,,,,,,,,,,,,,,,,,,,,,,,,,
20,"x: 246.1342010498047
y: 254.2119140625
z: -0.2379201352596283
visibility: 0.9999821782112122
","x: 248.00253295898438
y: 249.87403869628906
z: -0.2264316827058792
visibility: 0.9999386072158813
","x: 249.21046447753906
y: 250.3221435546875
z: -0.22643177211284637
visibility: 0.9999352693557739
","x: 250.38548278808594
y: 250.8119354248047
z: -0.226230189204216
visibility: 0.9999300837516785
","x: 244.7361602783203
y: 248.65484619140625
z: -0.22845223546028137
visibility: 0.9999465346336365
","x: 243.3360595703125
y: 248.250732421875
z: -0.22850516438484192
visibility: 0.9999474287033081
","x: 241.90357971191406
y: 247.8643798828125
z: -0.22856280207633972
visibility: 0.9999418258666992
","x: 251.84475708007812
y: 255.08816528320312
z: -0.11242713034152985
visibility: 0.9997724890708923
","x: 238.69442749023438
y: 251.40036010742188
z: -0.1353394240140915
visibility: 0.9998922348022461
","x: 247.45919799804688
y: 262.0687561035156
z: -0.20712599158287048
visibility: 0.9999580979347229
","x: 243.11502075195312
y: 260.57818603515625
z: -0.21085235476493835
visibility: 0.9999714493751526
","x: 257.2442932128906
y: 293.0281982421875
z: -0.02418644167482853
visibility: 0.9999011754989624
","x: 225.06605529785156
y: 284.7533874511719
z: -0.08532606065273285
visibility: 0.9999396204948425
","x: 263.0783996582031
y: 335.42584228515625
z: 0.04746968671679497
visibility: 0.9844567775726318
","x: 218.6451873779297
y: 322.79412841796875
z: -0.1323874592781067
visibility: 0.9847787618637085
","x: 274.80181884765625
y: 361.80517578125
z: -0.00802442617714405
visibility: 0.9834630489349365
","x: 219.8755340576172
y: 352.783447265625
z: -0.27460888028144836
visibility: 0.9483138918876648
","x: 280.5651550292969
y: 371.9649658203125
z: -0.020042339339852333
visibility: 0.955559253692627
","x: 219.45767211914062
y: 363.21630859375
z: -0.3055756390094757
visibility: 0.8939942121505737
","x: 280.920654296875
y: 370.101806640625
z: -0.052921462804079056
visibility: 0.9574160575866699
","x: 220.39141845703125
y: 360.892822265625
z: -0.3232559561729431
visibility: 0.8983567357063293
","x: 278.9227600097656
y: 366.6914367675781
z: -0.022599423304200172
visibility: 0.9443245530128479
","x: 222.55580139160156
y: 357.997802734375
z: -0.2853354215621948
visibility: 0.8789258599281311
","x: 249.97035217285156
y: 375.4403381347656
z: 0.015464608557522297
visibility: 0.9994951486587524
","x: 230.77386474609375
y: 375.21002197265625
z: -0.015419567003846169
visibility: 0.9996922612190247
","x: 259.21514892578125
y: 436.1539001464844
z: -0.1819610595703125
visibility: 0.9732009768486023
","x: 226.4520263671875
y: 444.821044921875
z: -0.04626980051398277
visibility: 0.9875121116638184
","x: 246.0731201171875
y: 475.4811096191406
z: 0.025744548067450523
visibility: 0.9799355268478394
","x: 220.2288055419922
y: 505.32830810546875
z: 0.12218602001667023
visibility: 0.9847673177719116
","x: 241.83531188964844
y: 478.35321044921875
z: 0.04309956356883049
visibility: 0.9126988053321838
","x: 220.4637451171875
y: 511.4203186035156
z: 0.13357342779636383
visibility: 0.8175444006919861
","x: 252.52003479003906
y: 504.9185791015625
z: -0.03902808576822281
visibility: 0.9775109887123108
","x: 218.7548828125
y: 526.0982666015625
z: 0.030115216970443726
visibility: 0.9781280159950256
",5.59537148475647,,,,,,,,,,,,,,,,,,,,,,,,,,,,,,,,,,,,,,,,,,
21,"x: 246.1342010498047
y: 254.2119140625
z: -0.2379201352596283
visibility: 0.9999821782112122
","x: 248.00253295898438
y: 249.87403869628906
z: -0.2264316827058792
visibility: 0.9999386072158813
","x: 249.21046447753906
y: 250.3221435546875
z: -0.22643177211284637
visibility: 0.9999352693557739
","x: 250.38548278808594
y: 250.8119354248047
z: -0.226230189204216
visibility: 0.9999300837516785
","x: 244.7361602783203
y: 248.65484619140625
z: -0.22845223546028137
visibility: 0.9999465346336365
","x: 243.3360595703125
y: 248.250732421875
z: -0.22850516438484192
visibility: 0.9999474287033081
","x: 241.90357971191406
y: 247.8643798828125
z: -0.22856280207633972
visibility: 0.9999418258666992
","x: 251.84475708007812
y: 255.08816528320312
z: -0.11242713034152985
visibility: 0.9997724890708923
","x: 238.69442749023438
y: 251.40036010742188
z: -0.1353394240140915
visibility: 0.9998922348022461
","x: 247.45919799804688
y: 262.0687561035156
z: -0.20712599158287048
visibility: 0.9999580979347229
","x: 243.11502075195312
y: 260.57818603515625
z: -0.21085235476493835
visibility: 0.9999714493751526
","x: 257.2442932128906
y: 293.0281982421875
z: -0.02418644167482853
visibility: 0.9999011754989624
","x: 225.06605529785156
y: 284.7533874511719
z: -0.08532606065273285
visibility: 0.9999396204948425
","x: 263.0783996582031
y: 335.42584228515625
z: 0.04746968671679497
visibility: 0.9844567775726318
","x: 218.6451873779297
y: 322.79412841796875
z: -0.1323874592781067
visibility: 0.9847787618637085
","x: 274.80181884765625
y: 361.80517578125
z: -0.00802442617714405
visibility: 0.9834630489349365
","x: 219.8755340576172
y: 352.783447265625
z: -0.27460888028144836
visibility: 0.9483138918876648
","x: 280.5651550292969
y: 371.9649658203125
z: -0.020042339339852333
visibility: 0.955559253692627
","x: 219.45767211914062
y: 363.21630859375
z: -0.3055756390094757
visibility: 0.8939942121505737
","x: 280.920654296875
y: 370.101806640625
z: -0.052921462804079056
visibility: 0.9574160575866699
","x: 220.39141845703125
y: 360.892822265625
z: -0.3232559561729431
visibility: 0.8983567357063293
","x: 278.9227600097656
y: 366.6914367675781
z: -0.022599423304200172
visibility: 0.9443245530128479
","x: 222.55580139160156
y: 357.997802734375
z: -0.2853354215621948
visibility: 0.8789258599281311
","x: 249.97035217285156
y: 375.4403381347656
z: 0.015464608557522297
visibility: 0.9994951486587524
","x: 230.77386474609375
y: 375.21002197265625
z: -0.015419567003846169
visibility: 0.9996922612190247
","x: 259.21514892578125
y: 436.1539001464844
z: -0.1819610595703125
visibility: 0.9732009768486023
","x: 226.4520263671875
y: 444.821044921875
z: -0.04626980051398277
visibility: 0.9875121116638184
","x: 246.0731201171875
y: 475.4811096191406
z: 0.025744548067450523
visibility: 0.9799355268478394
","x: 220.2288055419922
y: 505.32830810546875
z: 0.12218602001667023
visibility: 0.9847673177719116
","x: 241.83531188964844
y: 478.35321044921875
z: 0.04309956356883049
visibility: 0.9126988053321838
","x: 220.4637451171875
y: 511.4203186035156
z: 0.13357342779636383
visibility: 0.8175444006919861
","x: 252.52003479003906
y: 504.9185791015625
z: -0.03902808576822281
visibility: 0.9775109887123108
","x: 218.7548828125
y: 526.0982666015625
z: 0.030115216970443726
visibility: 0.9781280159950256
",5.59537148475647,,,,,,,,,,,,,,,,,,,,,,,,,,,,,,,,,,,,,,,,,,
22,"x: 249.1088104248047
y: 253.99070739746094
z: -0.23412635922431946
visibility: 0.9999839067459106
","x: 251.1907196044922
y: 249.57086181640625
z: -0.2204776257276535
visibility: 0.9999446868896484
","x: 252.3630828857422
y: 250.03146362304688
z: -0.22047677636146545
visibility: 0.9999415874481201
","x: 253.554931640625
y: 250.5244598388672
z: -0.22034351527690887
visibility: 0.9999368786811829
","x: 247.201904296875
y: 248.44369506835938
z: -0.22290806472301483
visibility: 0.9999517798423767
","x: 245.86355590820312
y: 248.10488891601562
z: -0.22294072806835175
visibility: 0.9999526143074036
","x: 244.29376220703125
y: 247.7375946044922
z: -0.2229676991701126
visibility: 0.9999475479125977
","x: 254.60943603515625
y: 254.566650390625
z: -0.10118341445922852
visibility: 0.9997948408126831
","x: 241.37586975097656
y: 251.30902099609375
z: -0.13486261665821075
visibility: 0.9999029040336609
","x: 250.7975616455078
y: 261.82843017578125
z: -0.20437216758728027
visibility: 0.9999620914459229
","x: 246.06524658203125
y: 260.45489501953125
z: -0.20495283603668213
visibility: 0.999974250793457
","x: 259.22314453125
y: 292.4806823730469
z: -0.0025653415359556675
visibility: 0.9999060034751892
","x: 228.0721893310547
y: 283.6197509765625
z: -0.09115006029605865
visibility: 0.9999446272850037
","x: 263.0243225097656
y: 333.047119140625
z: 0.02593330480158329
visibility: 0.9654960036277771
","x: 217.9437713623047
y: 323.3143615722656
z: -0.16100557148456573
visibility: 0.9859294295310974
","x: 277.1910095214844
y: 347.8347473144531
z: -0.10695723444223404
visibility: 0.9809951186180115
","x: 225.95823669433594
y: 339.71514892578125
z: -0.31775063276290894
visibility: 0.9529141187667847
","x: 283.2066650390625
y: 354.58331298828125
z: -0.13401903212070465
visibility: 0.9547539949417114
","x: 229.24639892578125
y: 346.1558837890625
z: -0.3538166880607605
visibility: 0.90329509973526
","x: 284.37841796875
y: 352.5824279785156
z: -0.15626972913742065
visibility: 0.9571614861488342
","x: 230.94432067871094
y: 340.683349609375
z: -0.36063531041145325
visibility: 0.9072341918945312
","x: 281.5285339355469
y: 350.2812194824219
z: -0.12058402597904205
visibility: 0.9440807700157166
","x: 230.30856323242188
y: 338.7408752441406
z: -0.32267946004867554
visibility: 0.8889443278312683
","x: 252.1823272705078
y: 374.8773193359375
z: 0.029106298461556435
visibility: 0.9995386004447937
","x: 232.34825134277344
y: 374.72576904296875
z: -0.029151925817131996
visibility: 0.999716579914093
","x: 265.90362548828125
y: 430.45062255859375
z: -0.08879232406616211
visibility: 0.9757353067398071
","x: 226.98178100585938
y: 444.1314392089844
z: -0.057517193257808685
visibility: 0.9886651039123535
","x: 263.38958740234375
y: 482.7125244140625
z: 0.05879814550280571
visibility: 0.9817313551902771
","x: 220.0536346435547
y: 506.7285461425781
z: 0.07268466055393219
visibility: 0.9861924052238464
","x: 258.44415283203125
y: 489.8211669921875
z: 0.06892846524715424
visibility: 0.9201527833938599
","x: 220.15182495117188
y: 513.5892333984375
z: 0.081027552485466
visibility: 0.8315458297729492
","x: 275.2041320800781
y: 508.74102783203125
z: -0.02092474326491356
visibility: 0.9794489145278931
","x: 218.62643432617188
y: 527.6041870117188
z: -0.03250691667199135
visibility: 0.9799976944923401
",5.704304456710815,,,,,,,,,,,,,,,,,,,,,,"x: 277.8966064453125
y: 344.50958251953125
z: 0.0
","x: 281.0638427734375
y: 342.6697082519531
z: -0.0007411814294755459
","x: 284.22509765625
y: 342.38104248046875
z: -0.0019919038750231266
","x: 286.0452575683594
y: 343.0921936035156
z: -0.0038586631417274475
","x: 287.0251770019531
y: 344.6540832519531
z: -0.005518463905900717
","x: 286.83709716796875
y: 350.7919616699219
z: -0.0002561358269304037
","x: 289.78216552734375
y: 354.6434326171875
z: -0.002538150642067194
","x: 291.58148193359375
y: 357.08575439453125
z: -0.003928380087018013
","x: 292.9266357421875
y: 359.3281555175781
z: -0.004772508982568979
","x: 285.6256408691406
y: 352.9186706542969
z: -0.0017180530121549964
","x: 288.7613525390625
y: 355.97998046875
z: -0.00414896197617054
","x: 290.5380859375
y: 356.982421875
z: -0.005144421011209488
","x: 291.80328369140625
y: 357.7769470214844
z: -0.005629132501780987
","x: 284.0587158203125
y: 354.482666015625
z: -0.003541914513334632
","x: 286.0088806152344
y: 354.81719970703125
z: -0.005975402891635895
","x: 285.4866943359375
y: 351.6549377441406
z: -0.005647748243063688
","x: 284.6871337890625
y: 349.5416259765625
z: -0.004801467526704073
","x: 282.2349548339844
y: 355.2943420410156
z: -0.005715265404433012
","x: 283.9685974121094
y: 355.9024658203125
z: -0.007250108290463686
","x: 283.79498291015625
y: 353.7015075683594
z: -0.006921160034835339
","x: 283.0691833496094
y: 351.96588134765625
z: -0.006238597445189953
"
23,"x: 249.1088104248047
y: 253.99070739746094
z: -0.23412635922431946
visibility: 0.9999839067459106
","x: 251.1907196044922
y: 249.57086181640625
z: -0.2204776257276535
visibility: 0.9999446868896484
","x: 252.3630828857422
y: 250.03146362304688
z: -0.22047677636146545
visibility: 0.9999415874481201
","x: 253.554931640625
y: 250.5244598388672
z: -0.22034351527690887
visibility: 0.9999368786811829
","x: 247.201904296875
y: 248.44369506835938
z: -0.22290806472301483
visibility: 0.9999517798423767
","x: 245.86355590820312
y: 248.10488891601562
z: -0.22294072806835175
visibility: 0.9999526143074036
","x: 244.29376220703125
y: 247.7375946044922
z: -0.2229676991701126
visibility: 0.9999475479125977
","x: 254.60943603515625
y: 254.566650390625
z: -0.10118341445922852
visibility: 0.9997948408126831
","x: 241.37586975097656
y: 251.30902099609375
z: -0.13486261665821075
visibility: 0.9999029040336609
","x: 250.7975616455078
y: 261.82843017578125
z: -0.20437216758728027
visibility: 0.9999620914459229
","x: 246.06524658203125
y: 260.45489501953125
z: -0.20495283603668213
visibility: 0.999974250793457
","x: 259.22314453125
y: 292.4806823730469
z: -0.0025653415359556675
visibility: 0.9999060034751892
","x: 228.0721893310547
y: 283.6197509765625
z: -0.09115006029605865
visibility: 0.9999446272850037
","x: 263.0243225097656
y: 333.047119140625
z: 0.02593330480158329
visibility: 0.9654960036277771
","x: 217.9437713623047
y: 323.3143615722656
z: -0.16100557148456573
visibility: 0.9859294295310974
","x: 277.1910095214844
y: 347.8347473144531
z: -0.10695723444223404
visibility: 0.9809951186180115
","x: 225.95823669433594
y: 339.71514892578125
z: -0.31775063276290894
visibility: 0.9529141187667847
","x: 283.2066650390625
y: 354.58331298828125
z: -0.13401903212070465
visibility: 0.9547539949417114
","x: 229.24639892578125
y: 346.1558837890625
z: -0.3538166880607605
visibility: 0.90329509973526
","x: 284.37841796875
y: 352.5824279785156
z: -0.15626972913742065
visibility: 0.9571614861488342
","x: 230.94432067871094
y: 340.683349609375
z: -0.36063531041145325
visibility: 0.9072341918945312
","x: 281.5285339355469
y: 350.2812194824219
z: -0.12058402597904205
visibility: 0.9440807700157166
","x: 230.30856323242188
y: 338.7408752441406
z: -0.32267946004867554
visibility: 0.8889443278312683
","x: 252.1823272705078
y: 374.8773193359375
z: 0.029106298461556435
visibility: 0.9995386004447937
","x: 232.34825134277344
y: 374.72576904296875
z: -0.029151925817131996
visibility: 0.999716579914093
","x: 265.90362548828125
y: 430.45062255859375
z: -0.08879232406616211
visibility: 0.9757353067398071
","x: 226.98178100585938
y: 444.1314392089844
z: -0.057517193257808685
visibility: 0.9886651039123535
","x: 263.38958740234375
y: 482.7125244140625
z: 0.05879814550280571
visibility: 0.9817313551902771
