uscmakers/ReverseChoreography/data/10_greedy_ariana_grande.csv
,NOSE,LEFT_EYE_INNER,LEFT_EYE,LEFT_EYE_OUTER,RIGHT_EYE_INNER,RIGHT_EYE,RIGHT_EYE_OUTER,LEFT_EAR,RIGHT_EAR,MOUTH_LEFT,MOUTH_RIGHT,LEFT_SHOULDER,RIGHT_SHOULDER,LEFT_ELBOW,RIGHT_ELBOW,LEFT_WRIST,RIGHT_WRIST,LEFT_PINKY,RIGHT_PINKY,LEFT_INDEX,RIGHT_INDEX,LEFT_THUMB,RIGHT_THUMB,LEFT_HIP,RIGHT_HIP,LEFT_KNEE,RIGHT_KNEE,LEFT_ANKLE,RIGHT_ANKLE,LEFT_HEEL,RIGHT_HEEL,LEFT_FOOT_INDEX,RIGHT_FOOT_INDEX,TIMESTAMP,WRIST2,THUMB_CPC2,THUMB_MCP2,THUMB_IP2,THUMB_TIP2,INDEX_FINGER_MCP2,INDEX_FINGER_PIP2,INDEX_FINGER_DIP2,INDEX_FINGER_TIP2,MIDDLE_FINGER_MCP2,MIDDLE_FINGER_PIP2,MIDDLE_FINGER_DIP2,MIDDLE_FINGER_TIP2,RING_FINGER_PIP2,RING_FINGER_DIP2,RING_FINGER_TIP2,RING_FINGER_MCP2,PINKY_MCP2,PINKY_PIP2,PINKY_DIP2,PINKY_TIP2,WRIST,THUMB_CPC,THUMB_MCP,THUMB_IP,THUMB_TIP,INDEX_FINGER_MCP,INDEX_FINGER_PIP,INDEX_FINGER_DIP,INDEX_FINGER_TIP,MIDDLE_FINGER_MCP,MIDDLE_FINGER_PIP,MIDDLE_FINGER_DIP,MIDDLE_FINGER_TIP,RING_FINGER_PIP,RING_FINGER_DIP,RING_FINGER_TIP,RING_FINGER_MCP,PINKY_MCP,PINKY_PIP,PINKY_DIP,PINKY_TIP
0,"x: 295.8481140136719
y: 262.8441162109375
z: -0.4584823548793793
visibility: 0.999972939491272
","x: 298.1399841308594
y: 256.46136474609375
z: -0.4440876543521881
visibility: 0.9998524188995361
","x: 299.4811706542969
y: 256.5972595214844
z: -0.4440651535987854
visibility: 0.9998800754547119
","x: 300.7839660644531
y: 256.8064270019531
z: -0.4440898001194
visibility: 0.99985671043396
","x: 294.2490539550781
y: 256.277099609375
z: -0.44376349449157715
visibility: 0.9998252987861633
","x: 292.9424133300781
y: 256.1575622558594
z: -0.44384923577308655
visibility: 0.9998576641082764
","x: 291.6487121582031
y: 256.1048583984375
z: -0.4438534379005432
visibility: 0.999828577041626
","x: 302.8078918457031
y: 260.6307678222656
z: -0.329163521528244
visibility: 0.9996628761291504
","x: 289.2303161621094
y: 259.32208251953125
z: -0.328967809677124
visibility: 0.9996073842048645
","x: 298.35040283203125
y: 271.03045654296875
z: -0.41352733969688416
visibility: 0.9998912811279297
","x: 293.0342712402344
y: 270.35516357421875
z: -0.41365042328834534
visibility: 0.9998719692230225
","x: 313.3890380859375
y: 293.7389221191406
z: -0.23040130734443665
visibility: 0.9999791383743286
","x: 280.6698303222656
y: 296.77362060546875
z: -0.21377357840538025
visibility: 0.9999223947525024
","x: 322.7882385253906
y: 339.85626220703125
z: -0.1882905811071396
visibility: 0.9951866269111633
","x: 272.17877197265625
y: 346.9624328613281
z: -0.16547641158103943
visibility: 0.9930483102798462
","x: 325.6461486816406
y: 384.725341796875
z: -0.27492231130599976
visibility: 0.9934009909629822
","x: 260.70050048828125
y: 389.4627380371094
z: -0.249569371342659
visibility: 0.9894235730171204
","x: 328.1024169921875
y: 397.02276611328125
z: -0.3043976128101349
visibility: 0.9793255925178528
","x: 254.55145263671875
y: 399.29058837890625
z: -0.2809588313102722
visibility: 0.9725320339202881
","x: 325.5938415527344
y: 397.4921875
z: -0.3329795002937317
visibility: 0.9815071821212769
","x: 254.76219177246094
y: 400.66961669921875
z: -0.3132927119731903
visibility: 0.9753089547157288
","x: 323.8334045410156
y: 393.37579345703125
z: -0.2887074053287506
visibility: 0.9774237275123596
","x: 257.7264404296875
y: 398.0302734375
z: -0.2659272253513336
visibility: 0.9712039232254028
","x: 307.9066467285156
y: 385.010009765625
z: -0.004781059455126524
visibility: 0.9998776912689209
","x: 285.5652770996094
y: 384.9765625
z: 0.004729688633233309
visibility: 0.99992835521698
","x: 314.8548278808594
y: 452.23974609375
z: -0.006607268936932087
visibility: 0.993087112903595
","x: 268.26165771484375
y: 443.5235290527344
z: -0.10050453990697861
visibility: 0.9975259900093079
","x: 320.0037536621094
y: 502.0995788574219
z: 0.24724729359149933
visibility: 0.9905819892883301
","x: 262.7635498046875
y: 500.56890869140625
z: 0.09953317791223526
visibility: 0.9951916933059692
","x: 317.90386962890625
y: 508.2137756347656
z: 0.2667922377586365
visibility: 0.8766404986381531
","x: 264.005126953125
y: 506.78472900390625
z: 0.11396704614162445
visibility: 0.8948150277137756
","x: 325.12823486328125
y: 528.9476928710938
z: 0.14698630571365356
visibility: 0.9858102202415466
","x: 262.3341369628906
y: 525.922607421875
z: -0.013135803863406181
visibility: 0.9917610883712769
",3.9539806842803955,,,,,,,,,,,,,,,,,,,,,,,,,,,,,,,,,,,,,,,,,,
1,"x: 295.8481140136719
y: 262.8441162109375
z: -0.4584823548793793
visibility: 0.999972939491272
","x: 298.1399841308594
y: 256.46136474609375
z: -0.4440876543521881
visibility: 0.9998524188995361
","x: 299.4811706542969
y: 256.5972595214844
z: -0.4440651535987854
visibility: 0.9998800754547119
","x: 300.7839660644531
y: 256.8064270019531
z: -0.4440898001194
visibility: 0.99985671043396
","x: 294.2490539550781
y: 256.277099609375
z: -0.44376349449157715
visibility: 0.9998252987861633
","x: 292.9424133300781
y: 256.1575622558594
z: -0.44384923577308655
visibility: 0.9998576641082764
","x: 291.6487121582031
y: 256.1048583984375
z: -0.4438534379005432
visibility: 0.999828577041626
","x: 302.8078918457031
y: 260.6307678222656
z: -0.329163521528244
visibility: 0.9996628761291504
","x: 289.2303161621094
y: 259.32208251953125
z: -0.328967809677124
visibility: 0.9996073842048645
","x: 298.35040283203125
y: 271.03045654296875
z: -0.41352733969688416
visibility: 0.9998912811279297
","x: 293.0342712402344
y: 270.35516357421875
z: -0.41365042328834534
visibility: 0.9998719692230225
","x: 313.3890380859375
y: 293.7389221191406
z: -0.23040130734443665
visibility: 0.9999791383743286
","x: 280.6698303222656
y: 296.77362060546875
z: -0.21377357840538025
visibility: 0.9999223947525024
","x: 322.7882385253906
y: 339.85626220703125
z: -0.1882905811071396
visibility: 0.9951866269111633
","x: 272.17877197265625
y: 346.9624328613281
z: -0.16547641158103943
visibility: 0.9930483102798462
","x: 325.6461486816406
y: 384.725341796875
z: -0.27492231130599976
visibility: 0.9934009909629822
","x: 260.70050048828125
y: 389.4627380371094
z: -0.249569371342659
visibility: 0.9894235730171204
","x: 328.1024169921875
y: 397.02276611328125
z: -0.3043976128101349
visibility: 0.9793255925178528
","x: 254.55145263671875
y: 399.29058837890625
z: -0.2809588313102722
visibility: 0.9725320339202881
","x: 325.5938415527344
y: 397.4921875
z: -0.3329795002937317
visibility: 0.9815071821212769
","x: 254.76219177246094
y: 400.66961669921875
z: -0.3132927119731903
visibility: 0.9753089547157288
","x: 323.8334045410156
y: 393.37579345703125
z: -0.2887074053287506
visibility: 0.9774237275123596
","x: 257.7264404296875
y: 398.0302734375
z: -0.2659272253513336
visibility: 0.9712039232254028
","x: 307.9066467285156
y: 385.010009765625
z: -0.004781059455126524
visibility: 0.9998776912689209
","x: 285.5652770996094
y: 384.9765625
z: 0.004729688633233309
visibility: 0.99992835521698
","x: 314.8548278808594
y: 452.23974609375
z: -0.006607268936932087
visibility: 0.993087112903595
","x: 268.26165771484375
y: 443.5235290527344
z: -0.10050453990697861
visibility: 0.9975259900093079
","x: 320.0037536621094
y: 502.0995788574219
z: 0.24724729359149933
visibility: 0.9905819892883301
","x: 262.7635498046875
y: 500.56890869140625
z: 0.09953317791223526
visibility: 0.9951916933059692
","x: 317.90386962890625
y: 508.2137756347656
z: 0.2667922377586365
visibility: 0.8766404986381531
","x: 264.005126953125
y: 506.78472900390625
z: 0.11396704614162445
visibility: 0.8948150277137756
","x: 325.12823486328125
y: 528.9476928710938
z: 0.14698630571365356
visibility: 0.9858102202415466
","x: 262.3341369628906
y: 525.922607421875
z: -0.013135803863406181
visibility: 0.9917610883712769
",3.9539806842803955,,,,,,,,,,,,,,,,,,,,,,,,,,,,,,,,,,,,,,,,,,
2,"x: 279.4111633300781
y: 254.8572540283203
z: -0.22563843429088593
visibility: 0.9999469518661499
","x: 280.5828857421875
y: 249.9666748046875
z: -0.21475251019001007
visibility: 0.9997623562812805
","x: 281.6007385253906
y: 250.1626434326172
z: -0.21478620171546936
visibility: 0.9998054504394531
","x: 282.60205078125
y: 250.41873168945312
z: -0.2148008644580841
visibility: 0.9997841715812683
","x: 277.2933349609375
y: 249.8245391845703
z: -0.2145947962999344
visibility: 0.9996877908706665
","x: 275.994873046875
y: 249.93115234375
z: -0.21457310020923615
visibility: 0.9996928572654724
","x: 274.70562744140625
y: 250.10743713378906
z: -0.21458466351032257
visibility: 0.9996122717857361
","x: 283.590087890625
y: 254.34983825683594
z: -0.1366734355688095
visibility: 0.9995275139808655
","x: 271.96087646484375
y: 254.01235961914062
z: -0.13655903935432434
visibility: 0.9990161061286926
","x: 281.1978759765625
y: 262.56280517578125
z: -0.19517824053764343
visibility: 0.9998500347137451
","x: 276.9031066894531
y: 262.2668151855469
z: -0.1953267604112625
visibility: 0.9997912049293518
","x: 293.7899169921875
y: 288.9236145019531
z: -0.09670422971248627
visibility: 0.9999750852584839
","x: 261.20794677734375
y: 289.61102294921875
z: -0.06784961372613907
visibility: 0.9998588562011719
","x: 299.2067565917969
y: 334.1998596191406
z: -0.07172038406133652
visibility: 0.9942967891693115
","x: 253.7161407470703
y: 331.4552307128906
z: -0.03776262328028679
visibility: 0.9797794818878174
","x: 301.85406494140625
y: 376.5589599609375
z: -0.135955348610878
visibility: 0.9922552704811096
","x: 247.77188110351562
y: 366.5574645996094
z: -0.10434116423130035
visibility: 0.9751370549201965
","x: 303.916015625
y: 389.7137756347656
z: -0.15519897639751434
visibility: 0.9776281118392944
","x: 244.83692932128906
y: 378.0975036621094
z: -0.12403403222560883
visibility: 0.9543280005455017
","x: 302.6695251464844
y: 390.5116271972656
z: -0.17948868870735168
visibility: 0.9797910451889038
","x: 245.84060668945312
y: 381.099365234375
z: -0.15068930387496948
visibility: 0.9582355618476868
","x: 301.1340026855469
y: 386.2382507324219
z: -0.1464497596025467
visibility: 0.9753314256668091
","x: 248.27565002441406
y: 377.6335144042969
z: -0.11775988340377808
visibility: 0.954046905040741
","x: 285.3765563964844
y: 382.7037353515625
z: -0.007185737136751413
visibility: 0.9998294711112976
","x: 264.4930114746094
y: 382.9114990234375
z: 0.0071032666601240635
visibility: 0.9998587369918823
","x: 289.7010498046875
y: 447.1832580566406
z: 0.007816338911652565
visibility: 0.9931392073631287
","x: 266.19989013671875
y: 445.30621337890625
z: 0.01429671049118042
visibility: 0.9970446228981018
","x: 299.8564147949219
y: 499.3935852050781
z: 0.12758471071720123
visibility: 0.9908677935600281
","x: 265.20654296875
y: 502.6297302246094
z: 0.13924230635166168
visibility: 0.9949209690093994
","x: 300.2132568359375
y: 504.9158935546875
z: 0.1328412890434265
visibility: 0.8766442537307739
","x: 267.5897216796875
y: 509.8292236328125
z: 0.14622890949249268
visibility: 0.8960198760032654
","x: 302.4593811035156
y: 527.514404296875
z: 0.03667374700307846
visibility: 0.9859481453895569
","x: 261.76788330078125
y: 525.9400024414062
z: 0.05753228813409805
visibility: 0.9912256598472595
",4.5201568603515625,,,,,,,,,,,,,,,,,,,,,,,,,,,,,,,,,,,,,,,,,,
3,"x: 279.4111633300781
y: 254.8572540283203
z: -0.22563843429088593
visibility: 0.9999469518661499
","x: 280.5828857421875
y: 249.9666748046875
z: -0.21475251019001007
visibility: 0.9997623562812805
","x: 281.6007385253906
y: 250.1626434326172
z: -0.21478620171546936
visibility: 0.9998054504394531
","x: 282.60205078125
y: 250.41873168945312
z: -0.2148008644580841
visibility: 0.9997841715812683
","x: 277.2933349609375
y: 249.8245391845703
z: -0.2145947962999344
visibility: 0.9996877908706665
","x: 275.994873046875
y: 249.93115234375
z: -0.21457310020923615
visibility: 0.9996928572654724
","x: 274.70562744140625
y: 250.10743713378906
z: -0.21458466351032257
visibility: 0.9996122717857361
","x: 283.590087890625
y: 254.34983825683594
z: -0.1366734355688095
visibility: 0.9995275139808655
","x: 271.96087646484375
y: 254.01235961914062
z: -0.13655903935432434
visibility: 0.9990161061286926
","x: 281.1978759765625
y: 262.56280517578125
z: -0.19517824053764343
visibility: 0.9998500347137451
","x: 276.9031066894531
y: 262.2668151855469
z: -0.1953267604112625
visibility: 0.9997912049293518
","x: 293.7899169921875
y: 288.9236145019531
z: -0.09670422971248627
visibility: 0.9999750852584839
","x: 261.20794677734375
y: 289.61102294921875
z: -0.06784961372613907
visibility: 0.9998588562011719
","x: 299.2067565917969
y: 334.1998596191406
z: -0.07172038406133652
visibility: 0.9942967891693115
","x: 253.7161407470703
y: 331.4552307128906
z: -0.03776262328028679
visibility: 0.9797794818878174
","x: 301.85406494140625
y: 376.5589599609375
z: -0.135955348610878
visibility: 0.9922552704811096
","x: 247.77188110351562
y: 366.5574645996094
z: -0.10434116423130035
visibility: 0.9751370549201965
","x: 303.916015625
y: 389.7137756347656
z: -0.15519897639751434
visibility: 0.9776281118392944
","x: 244.83692932128906
y: 378.0975036621094
z: -0.12403403222560883
visibility: 0.9543280005455017
","x: 302.6695251464844
y: 390.5116271972656
z: -0.17948868870735168
visibility: 0.9797910451889038
","x: 245.84060668945312
y: 381.099365234375
z: -0.15068930387496948
visibility: 0.9582355618476868
","x: 301.1340026855469
y: 386.2382507324219
z: -0.1464497596025467
visibility: 0.9753314256668091
","x: 248.27565002441406
y: 377.6335144042969
z: -0.11775988340377808
visibility: 0.954046905040741
","x: 285.3765563964844
y: 382.7037353515625
z: -0.007185737136751413
visibility: 0.9998294711112976
","x: 264.4930114746094
y: 382.9114990234375
z: 0.0071032666601240635
visibility: 0.9998587369918823
","x: 289.7010498046875
y: 447.1832580566406
z: 0.007816338911652565
visibility: 0.9931392073631287
","x: 266.19989013671875
y: 445.30621337890625
z: 0.01429671049118042
visibility: 0.9970446228981018
","x: 299.8564147949219
y: 499.3935852050781
z: 0.12758471071720123
visibility: 0.9908677935600281
","x: 265.20654296875
y: 502.6297302246094
z: 0.13924230635166168
visibility: 0.9949209690093994
","x: 300.2132568359375
y: 504.9158935546875
z: 0.1328412890434265
visibility: 0.8766442537307739
","x: 267.5897216796875
y: 509.8292236328125
z: 0.14622890949249268
visibility: 0.8960198760032654
","x: 302.4593811035156
y: 527.514404296875
z: 0.03667374700307846
visibility: 0.9859481453895569
","x: 261.76788330078125
y: 525.9400024414062
z: 0.05753228813409805
visibility: 0.9912256598472595
",4.5201568603515625,,,,,,,,,,,,,,,,,,,,,,,,,,,,,,,,,,,,,,,,,,
4,"x: 275.3755798339844
y: 252.82684326171875
z: -0.20973221957683563
visibility: 0.9999176859855652
","x: 276.8189392089844
y: 247.8307342529297
z: -0.19854521751403809
visibility: 0.9996918439865112
","x: 277.90692138671875
y: 248.18768310546875
z: -0.19858886301517487
visibility: 0.999730110168457
","x: 278.88043212890625
y: 248.58819580078125
z: -0.19863572716712952
visibility: 0.9997209906578064
","x: 273.50848388671875
y: 247.14883422851562
z: -0.19632546603679657
visibility: 0.9996102452278137
","x: 271.9681701660156
y: 247.05810546875
z: -0.19629420340061188
visibility: 0.9995622634887695
","x: 270.4612731933594
y: 247.04766845703125
z: -0.19627007842063904
visibility: 0.9994745850563049
","x: 280.3360290527344
y: 252.28150939941406
z: -0.11266715824604034
visibility: 0.9994761943817139
","x: 267.2047119140625
y: 250.68670654296875
z: -0.10355888307094574
visibility: 0.9986259937286377
","x: 276.9278564453125
y: 260.56201171875
z: -0.1756090223789215
visibility: 0.9998053908348083
","x: 272.89788818359375
y: 259.62713623046875
z: -0.17305609583854675
visibility: 0.9997155070304871
","x: 289.2536315917969
y: 284.6910705566406
z: -0.07535979151725769
visibility: 0.9999709725379944
","x: 256.2949523925781
y: 282.8487243652344
z: -0.009146991185843945
visibility: 0.9997946619987488
","x: 295.1247863769531
y: 329.12115478515625
z: -0.08143635839223862
visibility: 0.9944469928741455
","x: 250.59988403320312
y: 321.1390380859375
z: 0.028893208131194115
visibility: 0.9617781043052673
","x: 277.6622314453125
y: 348.8116455078125
z: -0.17910051345825195
visibility: 0.9923141002655029
","x: 251.8348846435547
y: 351.6820983886719
z: -0.06457354128360748
visibility: 0.9594246745109558
","x: 273.20538330078125
y: 359.05267333984375
z: -0.2130279242992401
visibility: 0.9779362082481384
","x: 252.36773681640625
y: 363.72320556640625
z: -0.08791475743055344
visibility: 0.934550940990448
","x: 271.39080810546875
y: 352.8130798339844
z: -0.22599002718925476
visibility: 0.9798784255981445
","x: 254.27186584472656
y: 360.0459289550781
z: -0.11157065629959106
visibility: 0.9387547969818115
","x: 272.2324523925781
y: 349.49945068359375
z: -0.18493476510047913
visibility: 0.9746649265289307
","x: 253.86634826660156
y: 355.6400146484375
z: -0.07596193253993988
visibility: 0.9315159320831299
","x: 281.76019287109375
y: 371.3034362792969
z: -0.017804298549890518
visibility: 0.9996868968009949
","x: 261.5941467285156
y: 373.7066345214844
z: 0.017906272783875465
visibility: 0.9996992945671082
","x: 278.1924133300781
y: 441.1358947753906
z: -0.06608601659536362
visibility: 0.9913011789321899
","x: 264.7155456542969
y: 445.06414794921875
z: 0.0026991518680006266
visibility: 0.9928277134895325
","x: 273.6192626953125
y: 499.46063232421875
z: 0.015423503704369068
visibility: 0.989039957523346
","x: 266.6110534667969
y: 507.6842041015625
z: 0.08771468698978424
visibility: 0.993450403213501
","x: 272.55712890625
y: 506.7093505859375
z: 0.017684200778603554
visibility: 0.8761681318283081
","x: 269.11944580078125
y: 517.9442138671875
z: 0.0863596647977829
visibility: 0.8985658288002014
","x: 276.13873291015625
y: 525.448974609375
z: -0.07762444019317627
visibility: 0.9843060970306396
","x: 259.22479248046875
y: 526.0601196289062
z: 0.0048009371384978294
visibility: 0.9889889359474182
",4.639493465423584,"x: 275.7864074707031
y: 346.47509765625
z: 0.0
","x: 271.7901916503906
y: 344.5373840332031
z: 0.0007449160912074149
","x: 267.5562438964844
y: 346.65252685546875
z: 0.00021165212092455477
","x: 264.6228942871094
y: 349.704345703125
z: -0.0004330013180151582
","x: 262.5503234863281
y: 351.9571228027344
z: -0.0009705180418677628
","x: 266.9921875
y: 347.3800354003906
z: -0.0028202582616358995
","x: 262.7237854003906
y: 350.7301025390625
z: -0.00415281904861331
","x: 260.70172119140625
y: 352.76513671875
z: -0.0038329127710312605
","x: 259.43304443359375
y: 354.10968017578125
z: -0.0033204169012606144
","x: 268.10906982421875
y: 350.4757995605469
z: -0.003948087338358164
","x: 263.79022216796875
y: 354.3841552734375
z: -0.005232410971075296
","x: 261.6482238769531
y: 356.11279296875
z: -0.004275952000170946
","x: 260.1914978027344
y: 357.202880859375
z: -0.0034507617820054293
","x: 269.5076904296875
y: 353.6341857910156
z: -0.004877512343227863
","x: 265.5816650390625
y: 357.669921875
z: -0.006225764751434326
","x: 263.5834655761719
y: 359.0130920410156
z: -0.005279436241835356
","x: 262.2133483886719
y: 359.81390380859375
z: -0.004480273462831974
","x: 271.0448913574219
y: 356.5640869140625
z: -0.005705754738301039
","x: 268.1570129394531
y: 360.2025146484375
z: -0.0067930929362773895
","x: 266.63653564453125
y: 361.2640075683594
z: -0.0063187479972839355
","x: 265.4734191894531
y: 361.7760925292969
z: -0.00578364497050643
",,,,,,,,,,,,,,,,,,,,,
5,"x: 275.3755798339844
y: 252.82684326171875
z: -0.20973221957683563
visibility: 0.9999176859855652
","x: 276.8189392089844
y: 247.8307342529297
z: -0.19854521751403809
visibility: 0.9996918439865112
","x: 277.90692138671875
y: 248.18768310546875
z: -0.19858886301517487
visibility: 0.999730110168457
","x: 278.88043212890625
y: 248.58819580078125
z: -0.19863572716712952
visibility: 0.9997209906578064
","x: 273.50848388671875
y: 247.14883422851562
z: -0.19632546603679657
visibility: 0.9996102452278137
","x: 271.9681701660156
y: 247.05810546875
z: -0.19629420340061188
visibility: 0.9995622634887695
","x: 270.4612731933594
y: 247.04766845703125
z: -0.19627007842063904
visibility: 0.9994745850563049
","x: 280.3360290527344
y: 252.28150939941406
z: -0.11266715824604034
visibility: 0.9994761943817139
","x: 267.2047119140625
y: 250.68670654296875
z: -0.10355888307094574
visibility: 0.9986259937286377
","x: 276.9278564453125
y: 260.56201171875
z: -0.1756090223789215
visibility: 0.9998053908348083
","x: 272.89788818359375
y: 259.62713623046875
z: -0.17305609583854675
visibility: 0.9997155070304871
","x: 289.2536315917969
y: 284.6910705566406
z: -0.07535979151725769
visibility: 0.9999709725379944
","x: 256.2949523925781
y: 282.8487243652344
z: -0.009146991185843945
visibility: 0.9997946619987488
","x: 295.1247863769531
y: 329.12115478515625
z: -0.08143635839223862
visibility: 0.9944469928741455
","x: 250.59988403320312
y: 321.1390380859375
z: 0.028893208131194115
visibility: 0.9617781043052673
","x: 277.6622314453125
y: 348.8116455078125
z: -0.17910051345825195
visibility: 0.9923141002655029
","x: 251.8348846435547
y: 351.6820983886719
z: -0.06457354128360748
visibility: 0.9594246745109558
","x: 273.20538330078125
y: 359.05267333984375
z: -0.2130279242992401
visibility: 0.9779362082481384
","x: 252.36773681640625
y: 363.72320556640625
z: -0.08791475743055344
visibility: 0.934550940990448
","x: 271.39080810546875
y: 352.8130798339844
z: -0.22599002718925476
visibility: 0.9798784255981445
","x: 254.27186584472656
y: 360.0459289550781
z: -0.11157065629959106
visibility: 0.9387547969818115
","x: 272.2324523925781
y: 349.49945068359375
z: -0.18493476510047913
visibility: 0.9746649265289307
","x: 253.86634826660156
y: 355.6400146484375
z: -0.07596193253993988
visibility: 0.9315159320831299
","x: 281.76019287109375
y: 371.3034362792969
z: -0.017804298549890518
visibility: 0.9996868968009949
","x: 261.5941467285156
y: 373.7066345214844
z: 0.017906272783875465
visibility: 0.9996992945671082
","x: 278.1924133300781
y: 441.1358947753906
z: -0.06608601659536362
visibility: 0.9913011789321899
","x: 264.7155456542969
y: 445.06414794921875
z: 0.0026991518680006266
visibility: 0.9928277134895325
","x: 273.6192626953125
y: 499.46063232421875
z: 0.015423503704369068
visibility: 0.989039957523346
","x: 266.6110534667969
y: 507.6842041015625
z: 0.08771468698978424
visibility: 0.993450403213501
","x: 272.55712890625
y: 506.7093505859375
z: 0.017684200778603554
visibility: 0.8761681318283081
","x: 269.11944580078125
y: 517.9442138671875
z: 0.0863596647977829
visibility: 0.8985658288002014
","x: 276.13873291015625
y: 525.448974609375
z: -0.07762444019317627
visibility: 0.9843060970306396
","x: 259.22479248046875
y: 526.0601196289062
z: 0.0048009371384978294
visibility: 0.9889889359474182
",4.639493465423584,"x: 275.7864074707031
y: 346.47509765625
z: 0.0
","x: 271.7901916503906
y: 344.5373840332031
z: 0.0007449160912074149
","x: 267.5562438964844
y: 346.65252685546875
z: 0.00021165212092455477
","x: 264.6228942871094
y: 349.704345703125
z: -0.0004330013180151582
","x: 262.5503234863281
y: 351.9571228027344
z: -0.0009705180418677628
","x: 266.9921875
y: 347.3800354003906
z: -0.0028202582616358995
","x: 262.7237854003906
y: 350.7301025390625
z: -0.00415281904861331
","x: 260.70172119140625
y: 352.76513671875
z: -0.0038329127710312605
","x: 259.43304443359375
y: 354.10968017578125
z: -0.0033204169012606144
","x: 268.10906982421875
y: 350.4757995605469
z: -0.003948087338358164
","x: 263.79022216796875
y: 354.3841552734375
z: -0.005232410971075296
","x: 261.6482238769531
y: 356.11279296875
z: -0.004275952000170946
","x: 260.1914978027344
y: 357.202880859375
z: -0.0034507617820054293
","x: 269.5076904296875
y: 353.6341857910156
z: -0.004877512343227863
","x: 265.5816650390625
y: 357.669921875
z: -0.006225764751434326
","x: 263.5834655761719
y: 359.0130920410156
z: -0.005279436241835356
","x: 262.2133483886719
y: 359.81390380859375
z: -0.004480273462831974
","x: 271.0448913574219
y: 356.5640869140625
z: -0.005705754738301039
","x: 268.1570129394531
y: 360.2025146484375
z: -0.0067930929362773895
","x: 266.63653564453125
y: 361.2640075683594
z: -0.0063187479972839355
","x: 265.4734191894531
y: 361.7760925292969
z: -0.00578364497050643
",,,,,,,,,,,,,,,,,,,,,
6,"x: 275.3755798339844
y: 252.82684326171875
z: -0.20973221957683563
visibility: 0.9999176859855652
","x: 276.8189392089844
y: 247.8307342529297
z: -0.19854521751403809
visibility: 0.9996918439865112
","x: 277.90692138671875
y: 248.18768310546875
z: -0.19858886301517487
visibility: 0.999730110168457
","x: 278.88043212890625
y: 248.58819580078125
z: -0.19863572716712952
visibility: 0.9997209906578064
","x: 273.50848388671875
y: 247.14883422851562
z: -0.19632546603679657
visibility: 0.9996102452278137
","x: 271.9681701660156
y: 247.05810546875
z: -0.19629420340061188
visibility: 0.9995622634887695
","x: 270.4612731933594
y: 247.04766845703125
z: -0.19627007842063904
visibility: 0.9994745850563049
","x: 280.3360290527344
y: 252.28150939941406
z: -0.11266715824604034
visibility: 0.9994761943817139
","x: 267.2047119140625
y: 250.68670654296875
z: -0.10355888307094574
visibility: 0.9986259937286377
","x: 276.9278564453125
y: 260.56201171875
z: -0.1756090223789215
visibility: 0.9998053908348083
","x: 272.89788818359375
y: 259.62713623046875
z: -0.17305609583854675
visibility: 0.9997155070304871
","x: 289.2536315917969
y: 284.6910705566406
z: -0.07535979151725769
visibility: 0.9999709725379944
","x: 256.2949523925781
y: 282.8487243652344
z: -0.009146991185843945
visibility: 0.9997946619987488
","x: 295.1247863769531
y: 329.12115478515625
z: -0.08143635839223862
visibility: 0.9944469928741455
","x: 250.59988403320312
y: 321.1390380859375
z: 0.028893208131194115
visibility: 0.9617781043052673
","x: 277.6622314453125
y: 348.8116455078125
z: -0.17910051345825195
visibility: 0.9923141002655029
","x: 251.8348846435547
y: 351.6820983886719
z: -0.06457354128360748
visibility: 0.9594246745109558
","x: 273.20538330078125
y: 359.05267333984375
z: -0.2130279242992401
visibility: 0.9779362082481384
","x: 252.36773681640625
y: 363.72320556640625
z: -0.08791475743055344
visibility: 0.934550940990448
","x: 271.39080810546875
y: 352.8130798339844
z: -0.22599002718925476
visibility: 0.9798784255981445
","x: 254.27186584472656
y: 360.0459289550781
z: -0.11157065629959106
visibility: 0.9387547969818115
","x: 272.2324523925781
y: 349.49945068359375
z: -0.18493476510047913
visibility: 0.9746649265289307
","x: 253.86634826660156
y: 355.6400146484375
z: -0.07596193253993988
visibility: 0.9315159320831299
","x: 281.76019287109375
y: 371.3034362792969
z: -0.017804298549890518
visibility: 0.9996868968009949
","x: 261.5941467285156
y: 373.7066345214844
z: 0.017906272783875465
visibility: 0.9996992945671082
","x: 278.1924133300781
y: 441.1358947753906
z: -0.06608601659536362
visibility: 0.9913011789321899
","x: 264.7155456542969
y: 445.06414794921875
z: 0.0026991518680006266
visibility: 0.9928277134895325
","x: 273.6192626953125
y: 499.46063232421875
z: 0.015423503704369068
visibility: 0.989039957523346
","x: 266.6110534667969
y: 507.6842041015625
z: 0.08771468698978424
visibility: 0.993450403213501
","x: 272.55712890625
y: 506.7093505859375
z: 0.017684200778603554
visibility: 0.8761681318283081
","x: 269.11944580078125
y: 517.9442138671875
z: 0.0863596647977829
visibility: 0.8985658288002014
","x: 276.13873291015625
y: 525.448974609375
z: -0.07762444019317627
visibility: 0.9843060970306396
","x: 259.22479248046875
y: 526.0601196289062
z: 0.0048009371384978294
visibility: 0.9889889359474182
",4.639493465423584,"x: 275.7864074707031
y: 346.47509765625
z: 0.0
","x: 271.7901916503906
y: 344.5373840332031
z: 0.0007449160912074149
","x: 267.5562438964844
y: 346.65252685546875
z: 0.00021165212092455477
","x: 264.6228942871094
y: 349.704345703125
z: -0.0004330013180151582
","x: 262.5503234863281
y: 351.9571228027344
z: -0.0009705180418677628
","x: 266.9921875
y: 347.3800354003906
z: -0.0028202582616358995
","x: 262.7237854003906
y: 350.7301025390625
z: -0.00415281904861331
","x: 260.70172119140625
y: 352.76513671875
z: -0.0038329127710312605
","x: 259.43304443359375
y: 354.10968017578125
z: -0.0033204169012606144
","x: 268.10906982421875
y: 350.4757995605469
z: -0.003948087338358164
","x: 263.79022216796875
y: 354.3841552734375
z: -0.005232410971075296
","x: 261.6482238769531
y: 356.11279296875
z: -0.004275952000170946
","x: 260.1914978027344
y: 357.202880859375
z: -0.0034507617820054293
","x: 269.5076904296875
y: 353.6341857910156
z: -0.004877512343227863
","x: 265.5816650390625
y: 357.669921875
z: -0.006225764751434326
","x: 263.5834655761719
y: 359.0130920410156
z: -0.005279436241835356
","x: 262.2133483886719
y: 359.81390380859375
z: -0.004480273462831974
","x: 271.0448913574219
y: 356.5640869140625
z: -0.005705754738301039
","x: 268.1570129394531
y: 360.2025146484375
z: -0.0067930929362773895
","x: 266.63653564453125
y: 361.2640075683594
z: -0.0063187479972839355
","x: 265.4734191894531
y: 361.7760925292969
z: -0.00578364497050643
",,,,,,,,,,,,,,,,,,,,,
7,"x: 273.6329040527344
y: 251.30841064453125
z: -0.14907856285572052
visibility: 0.9999075531959534
","x: 275.4136962890625
y: 246.7111053466797
z: -0.134356290102005
visibility: 0.9996843338012695
","x: 276.6575012207031
y: 247.13238525390625
z: -0.13437703251838684
visibility: 0.9997165203094482
","x: 277.8501281738281
y: 247.57955932617188
z: -0.13439491391181946
visibility: 0.9997101426124573
","x: 271.7179870605469
y: 245.86090087890625
z: -0.13296079635620117
visibility: 0.9996041655540466
","x: 270.4327697753906
y: 245.7546844482422
z: -0.1329510360956192
visibility: 0.999556303024292
","x: 269.1687927246094
y: 245.75254821777344
z: -0.132936492562294
visibility: 0.9994862675666809
","x: 279.34576416015625
y: 251.21640014648438
z: -0.04254261404275894
visibility: 0.9994804263114929
","x: 266.4869079589844
y: 249.3968963623047
z: -0.03535647317767143
visibility: 0.9986655116081238
","x: 275.66143798828125
y: 258.6513671875
z: -0.11396602541208267
visibility: 0.9998045563697815
","x: 271.0837097167969
y: 257.72991943359375
z: -0.11213433742523193
visibility: 0.9997215867042542
","x: 288.186767578125
y: 283.91375732421875
z: -0.011899535544216633
visibility: 0.9999668002128601
","x: 255.20350646972656
y: 281.82537841796875
z: 0.03356396406888962
visibility: 0.9997744560241699
","x: 293.6990661621094
y: 328.3116455078125
z: -0.08217161148786545
visibility: 0.992580771446228
","x: 248.35690307617188
y: 323.7303466796875
z: -0.016716977581381798
visibility: 0.9555824995040894
","x: 277.2690124511719
y: 329.1861267089844
z: -0.2283513844013214
visibility: 0.9889001250267029
","x: 259.9595031738281
y: 333.1939697265625
z: -0.14939028024673462
visibility: 0.9546463489532471
","x: 273.1473083496094
y: 331.4912109375
z: -0.2793820798397064
visibility: 0.9730768203735352
","x: 265.62664794921875
y: 337.806640625
z: -0.1368175745010376
visibility: 0.9275962710380554
","x: 272.2140197753906
y: 326.4146728515625
z: -0.25298014283180237
visibility: 0.9746909141540527
","x: 267.3710021972656
y: 332.4557800292969
z: -0.20815889537334442
visibility: 0.9311280846595764
","x: 273.6965026855469
y: 325.13623046875
z: -0.2161843329668045
visibility: 0.9661319255828857
","x: 266.01641845703125
y: 330.3044128417969
z: -0.16718819737434387
visibility: 0.9202423095703125
","x: 281.2812805175781
y: 370.2193908691406
z: -0.023569192737340927
visibility: 0.9996529221534729
","x: 260.1182556152344
y: 370.5918884277344
z: 0.0236318651586771
visibility: 0.9996297359466553
","x: 277.9051208496094
y: 441.8395690917969
z: -0.07189550995826721
visibility: 0.9918140769004822
","x: 263.40338134765625
y: 444.83209228515625
z: 0.0030270086135715246
visibility: 0.9924512505531311
","x: 279.491455078125
y: 500.0718688964844
z: 0.06286963075399399
visibility: 0.9897597432136536
","x: 266.38018798828125
y: 506.8948974609375
z: 0.11523327976465225
visibility: 0.9935293793678284
","x: 279.4322814941406
y: 506.7904052734375
z: 0.07002874463796616
visibility: 0.8777180314064026
","x: 268.7549743652344
y: 515.783447265625
z: 0.11745290458202362
visibility: 0.9027379751205444
","x: 276.4713439941406
y: 525.6561889648438
z: -0.0417155846953392
visibility: 0.9851943254470825
","x: 261.09661865234375
y: 526.7546997070312
z: 0.022762944921851158
visibility: 0.9892001152038574
",4.750933408737183,,,,,,,,,,,,,,,,,,,,,,,,,,,,,,,,,,,,,,,,,,
8,"x: 273.6329040527344
y: 251.30841064453125
z: -0.14907856285572052
visibility: 0.9999075531959534
","x: 275.4136962890625
y: 246.7111053466797
z: -0.134356290102005
visibility: 0.9996843338012695
","x: 276.6575012207031
y: 247.13238525390625
z: -0.13437703251838684
visibility: 0.9997165203094482
","x: 277.8501281738281
y: 247.57955932617188
z: -0.13439491391181946
visibility: 0.9997101426124573
","x: 271.7179870605469
y: 245.86090087890625
z: -0.13296079635620117
visibility: 0.9996041655540466
","x: 270.4327697753906
y: 245.7546844482422
z: -0.1329510360956192
visibility: 0.999556303024292
","x: 269.1687927246094
y: 245.75254821777344
z: -0.132936492562294
visibility: 0.9994862675666809
","x: 279.34576416015625
y: 251.21640014648438
z: -0.04254261404275894
visibility: 0.9994804263114929
","x: 266.4869079589844
y: 249.3968963623047
z: -0.03535647317767143
visibility: 0.9986655116081238
","x: 275.66143798828125
y: 258.6513671875
z: -0.11396602541208267
visibility: 0.9998045563697815
","x: 271.0837097167969
y: 257.72991943359375
z: -0.11213433742523193
visibility: 0.9997215867042542
","x: 288.186767578125
y: 283.91375732421875
z: -0.011899535544216633
visibility: 0.9999668002128601
","x: 255.20350646972656
y: 281.82537841796875
z: 0.03356396406888962
visibility: 0.9997744560241699
","x: 293.6990661621094
y: 328.3116455078125
z: -0.08217161148786545
visibility: 0.992580771446228
","x: 248.35690307617188
y: 323.7303466796875
z: -0.016716977581381798
visibility: 0.9555824995040894
","x: 277.2690124511719
y: 329.1861267089844
z: -0.2283513844013214
visibility: 0.9889001250267029
","x: 259.9595031738281
y: 333.1939697265625
z: -0.14939028024673462
visibility: 0.9546463489532471
","x: 273.1473083496094
y: 331.4912109375
z: -0.2793820798397064
visibility: 0.9730768203735352
","x: 265.62664794921875
y: 337.806640625
z: -0.1368175745010376
visibility: 0.9275962710380554
","x: 272.2140197753906
y: 326.4146728515625
z: -0.25298014283180237
visibility: 0.9746909141540527
","x: 267.3710021972656
y: 332.4557800292969
z: -0.20815889537334442
visibility: 0.9311280846595764
","x: 273.6965026855469
y: 325.13623046875
z: -0.2161843329668045
visibility: 0.9661319255828857
","x: 266.01641845703125
y: 330.3044128417969
z: -0.16718819737434387
visibility: 0.9202423095703125
","x: 281.2812805175781
y: 370.2193908691406
z: -0.023569192737340927
visibility: 0.9996529221534729
","x: 260.1182556152344
y: 370.5918884277344
z: 0.0236318651586771
visibility: 0.9996297359466553
","x: 277.9051208496094
y: 441.8395690917969
z: -0.07189550995826721
visibility: 0.9918140769004822
","x: 263.40338134765625
y: 444.83209228515625
z: 0.0030270086135715246
visibility: 0.9924512505531311
","x: 279.491455078125
y: 500.0718688964844
z: 0.06286963075399399
visibility: 0.9897597432136536
","x: 266.38018798828125
y: 506.8948974609375
z: 0.11523327976465225
visibility: 0.9935293793678284
","x: 279.4322814941406
y: 506.7904052734375
z: 0.07002874463796616
visibility: 0.8777180314064026
","x: 268.7549743652344
y: 515.783447265625
z: 0.11745290458202362
visibility: 0.9027379751205444
","x: 276.4713439941406
y: 525.6561889648438
z: -0.0417155846953392
visibility: 0.9851943254470825
","x: 261.09661865234375
y: 526.7546997070312
z: 0.022762944921851158
visibility: 0.9892001152038574
",4.750933408737183,,,,,,,,,,,,,,,,,,,,,,,,,,,,,,,,,,,,,,,,,,
9,"x: 274.0130615234375
y: 250.25411987304688
z: -0.2101958692073822
visibility: 0.9999094009399414
","x: 275.816650390625
y: 245.53445434570312
z: -0.19303472340106964
visibility: 0.9996987581253052
","x: 276.9128723144531
y: 245.93927001953125
z: -0.19305211305618286
visibility: 0.9997261762619019
","x: 277.9337158203125
y: 246.25680541992188
z: -0.19307546317577362
visibility: 0.9997227191925049
","x: 272.2579345703125
y: 244.38418579101562
z: -0.19598498940467834
visibility: 0.9996215105056763
","x: 270.9516296386719
y: 243.9982452392578
z: -0.19598384201526642
visibility: 0.99957275390625
","x: 269.5813293457031
y: 243.6369171142578
z: -0.1959671974182129
visibility: 0.9995103478431702
","x: 278.7096862792969
y: 248.92190551757812
z: -0.09184596687555313
visibility: 0.9995077848434448
","x: 266.4355773925781
y: 246.2300262451172
z: -0.10656199604272842
visibility: 0.9987096190452576
","x: 275.51715087890625
y: 256.7864685058594
z: -0.1721438616514206
visibility: 0.999814510345459
","x: 270.922607421875
y: 255.49073791503906
z: -0.17658507823944092
visibility: 0.9997360706329346
","x: 286.8247985839844
y: 281.94976806640625
z: -0.04295619949698448
visibility: 0.999965250492096
","x: 252.97662353515625
y: 281.0467834472656
z: -0.036679208278656006
visibility: 0.9997246861457825
","x: 296.9433288574219
y: 324.7267150878906
z: -0.07486502081155777
visibility: 0.9924004673957825
","x: 246.28915405273438
y: 321.70416259765625
z: -0.06411727517843246
visibility: 0.9499486684799194
","x: 283.3242492675781
y: 338.71661376953125
z: -0.22431878745555878
visibility: 0.988580048084259
","x: 259.84765625
y: 335.920654296875
z: -0.22430892288684845
visibility: 0.9455387592315674
","x: 278.9635314941406
y: 345.45489501953125
z: -0.26897376775741577
visibility: 0.9724451899528503
","x: 263.20062255859375
y: 342.3822021484375
z: -0.25755906105041504
visibility: 0.9173848628997803
","x: 277.280029296875
y: 338.9211730957031
z: -0.27013087272644043
visibility: 0.9739617705345154
","x: 265.2574157714844
y: 335.75335693359375
z: -0.27047839760780334
visibility: 0.9209702014923096
","x: 278.42254638671875
y: 336.6204528808594
z: -0.2274438440799713
visibility: 0.9644668102264404
","x: 264.9722595214844
y: 333.1228942871094
z: -0.23104019463062286
visibility: 0.9055375456809998
","x: 282.1557312011719
y: 366.57220458984375
z: -0.006271046586334705
visibility: 0.9996252059936523
","x: 260.4166564941406
y: 368.9945983886719
z: 0.006300229579210281
visibility: 0.9995805025100708
","x: 283.4916076660156
y: 433.9635009765625
z: -0.1067386046051979
visibility: 0.9922518730163574
","x: 263.6524658203125
y: 441.27642822265625
z: -0.028049299493432045
visibility: 0.9921378493309021
","x: 285.1067810058594
y: 487.840576171875
z: 0.030599836260080338
visibility: 0.9900307059288025
","x: 266.52032470703125
y: 506.7502136230469
z: 0.07642604410648346
visibility: 0.9934036135673523
","x: 282.9271545410156
y: 493.9384765625
z: 0.03912181779742241
visibility: 0.8811357617378235
","x: 268.9313049316406
y: 514.71875
z: 0.07935981452465057
visibility: 0.9014050960540771
","x: 287.0510559082031
y: 518.1778564453125
z: -0.07161632180213928
visibility: 0.9857672452926636
","x: 262.6684875488281
y: 526.8612060546875
z: -0.03061028942465782
visibility: 0.9887332320213318
",4.875198125839233,"x: 282.51373291015625
y: 341.219482421875
z: 0.0
","x: 280.7947998046875
y: 336.532958984375
z: -0.0013742566807195544
","x: 278.36834716796875
y: 333.4286804199219
z: -0.0032735702116042376
","x: 276.1050720214844
y: 331.45501708984375
z: -0.004644807893782854
","x: 274.81146240234375
y: 330.13385009765625
z: -0.006033741869032383
","x: 277.1939392089844
y: 336.73150634765625
z: -0.008659766986966133
","x: 272.3360595703125
y: 335.1822204589844
z: -0.010732084512710571
","x: 269.83636474609375
y: 334.4601135253906
z: -0.010261554270982742
","x: 268.2867736816406
y: 333.98980712890625
z: -0.009523905813694
","x: 276.7529296875
y: 341.1263732910156
z: -0.008957985788583755
","x: 271.0978088378906
y: 340.0601501464844
z: -0.010736506432294846
","x: 268.54669189453125
y: 339.49041748046875
z: -0.0092135826125741
","x: 267.2528076171875
y: 339.24578857421875
z: -0.007994750514626503
","x: 276.552734375
y: 345.1156921386719
z: -0.008884074166417122
","x: 271.2165222167969
y: 344.5840148925781
z: -0.010432795621454716
","x: 269.0110778808594
y: 343.88690185546875
z: -0.009019159711897373
","x: 267.9527282714844
y: 343.4495544433594
z: -0.008013053797185421
","x: 276.55169677734375
y: 348.5142517089844
z: -0.008791763335466385
","x: 272.4443054199219
y: 348.8017578125
z: -0.010228057391941547
","x: 270.496826171875
y: 348.5123291015625
z: -0.009664121083915234
","x: 269.2870178222656
y: 348.0300598144531
z: -0.009075908921658993
",,,,,,,,,,,,,,,,,,,,,
10,"x: 274.0130615234375
y: 250.25411987304688
z: -0.2101958692073822
visibility: 0.9999094009399414
","x: 275.816650390625
y: 245.53445434570312
z: -0.19303472340106964
visibility: 0.9996987581253052
","x: 276.9128723144531
y: 245.93927001953125
z: -0.19305211305618286
visibility: 0.9997261762619019
","x: 277.9337158203125
y: 246.25680541992188
z: -0.19307546317577362
visibility: 0.9997227191925049
","x: 272.2579345703125
y: 244.38418579101562
z: -0.19598498940467834
visibility: 0.9996215105056763
","x: 270.9516296386719
y: 243.9982452392578
z: -0.19598384201526642
visibility: 0.99957275390625
","x: 269.5813293457031
y: 243.6369171142578
z: -0.1959671974182129
visibility: 0.9995103478431702
","x: 278.7096862792969
y: 248.92190551757812
z: -0.09184596687555313
visibility: 0.9995077848434448
","x: 266.4355773925781
y: 246.2300262451172
z: -0.10656199604272842
visibility: 0.9987096190452576
","x: 275.51715087890625
y: 256.7864685058594
z: -0.1721438616514206
visibility: 0.999814510345459
","x: 270.922607421875
y: 255.49073791503906
z: -0.17658507823944092
visibility: 0.9997360706329346
","x: 286.8247985839844
y: 281.94976806640625
z: -0.04295619949698448
visibility: 0.999965250492096
","x: 252.97662353515625
y: 281.0467834472656
z: -0.036679208278656006
visibility: 0.9997246861457825
","x: 296.9433288574219
y: 324.7267150878906
z: -0.07486502081155777
visibility: 0.9924004673957825
","x: 246.28915405273438
y: 321.70416259765625
z: -0.06411727517843246
visibility: 0.9499486684799194
","x: 283.3242492675781
y: 338.71661376953125
z: -0.22431878745555878
visibility: 0.988580048084259
","x: 259.84765625
y: 335.920654296875
z: -0.22430892288684845
visibility: 0.9455387592315674
","x: 278.9635314941406
y: 345.45489501953125
z: -0.26897376775741577
visibility: 0.9724451899528503
","x: 263.20062255859375
y: 342.3822021484375
z: -0.25755906105041504
visibility: 0.9173848628997803
","x: 277.280029296875
y: 338.9211730957031
z: -0.27013087272644043
visibility: 0.9739617705345154
","x: 265.2574157714844
y: 335.75335693359375
z: -0.27047839760780334
visibility: 0.9209702014923096
","x: 278.42254638671875
y: 336.6204528808594
z: -0.2274438440799713
visibility: 0.9644668102264404
","x: 264.9722595214844
y: 333.1228942871094
z: -0.23104019463062286
visibility: 0.9055375456809998
","x: 282.1557312011719
y: 366.57220458984375
z: -0.006271046586334705
visibility: 0.9996252059936523
","x: 260.4166564941406
y: 368.9945983886719
z: 0.006300229579210281
visibility: 0.9995805025100708
","x: 283.4916076660156
y: 433.9635009765625
z: -0.1067386046051979
visibility: 0.9922518730163574
","x: 263.6524658203125
y: 441.27642822265625
z: -0.028049299493432045
visibility: 0.9921378493309021
","x: 285.1067810058594
y: 487.840576171875
z: 0.030599836260080338
visibility: 0.9900307059288025
","x: 266.52032470703125
y: 506.7502136230469
z: 0.07642604410648346
visibility: 0.9934036135673523
","x: 282.9271545410156
y: 493.9384765625
z: 0.03912181779742241
visibility: 0.8811357617378235
","x: 268.9313049316406
y: 514.71875
z: 0.07935981452465057
visibility: 0.9014050960540771
","x: 287.0510559082031
y: 518.1778564453125
z: -0.07161632180213928
visibility: 0.9857672452926636
","x: 262.6684875488281
y: 526.8612060546875
z: -0.03061028942465782
visibility: 0.9887332320213318
",4.875198125839233,"x: 282.51373291015625
y: 341.219482421875
z: 0.0
","x: 280.7947998046875
y: 336.532958984375
z: -0.0013742566807195544
","x: 278.36834716796875
y: 333.4286804199219
z: -0.0032735702116042376
","x: 276.1050720214844
y: 331.45501708984375
z: -0.004644807893782854
","x: 274.81146240234375
y: 330.13385009765625
z: -0.006033741869032383
","x: 277.1939392089844
y: 336.73150634765625
z: -0.008659766986966133
","x: 272.3360595703125
y: 335.1822204589844
z: -0.010732084512710571
","x: 269.83636474609375
y: 334.4601135253906
z: -0.010261554270982742
","x: 268.2867736816406
y: 333.98980712890625
z: -0.009523905813694
","x: 276.7529296875
y: 341.1263732910156
z: -0.008957985788583755
","x: 271.0978088378906
y: 340.0601501464844
z: -0.010736506432294846
","x: 268.54669189453125
y: 339.49041748046875
z: -0.0092135826125741
","x: 267.2528076171875
y: 339.24578857421875
z: -0.007994750514626503
","x: 276.552734375
y: 345.1156921386719
z: -0.008884074166417122
","x: 271.2165222167969
y: 344.5840148925781
z: -0.010432795621454716
","x: 269.0110778808594
y: 343.88690185546875
z: -0.009019159711897373
","x: 267.9527282714844
y: 343.4495544433594
z: -0.008013053797185421
","x: 276.55169677734375
y: 348.5142517089844
z: -0.008791763335466385
","x: 272.4443054199219
y: 348.8017578125
z: -0.010228057391941547
","x: 270.496826171875
y: 348.5123291015625
z: -0.009664121083915234
","x: 269.2870178222656
y: 348.0300598144531
z: -0.009075908921658993
",,,,,,,,,,,,,,,,,,,,,
11,"x: 274.0130615234375
y: 250.25411987304688
z: -0.2101958692073822
visibility: 0.9999094009399414
","x: 275.816650390625
y: 245.53445434570312
z: -0.19303472340106964
visibility: 0.9996987581253052
","x: 276.9128723144531
y: 245.93927001953125
z: -0.19305211305618286
visibility: 0.9997261762619019
","x: 277.9337158203125
y: 246.25680541992188
z: -0.19307546317577362
visibility: 0.9997227191925049
","x: 272.2579345703125
y: 244.38418579101562
z: -0.19598498940467834
visibility: 0.9996215105056763
","x: 270.9516296386719
y: 243.9982452392578
z: -0.19598384201526642
visibility: 0.99957275390625
","x: 269.5813293457031
y: 243.6369171142578
z: -0.1959671974182129
visibility: 0.9995103478431702
","x: 278.7096862792969
y: 248.92190551757812
z: -0.09184596687555313
visibility: 0.9995077848434448
","x: 266.4355773925781
y: 246.2300262451172
z: -0.10656199604272842
visibility: 0.9987096190452576
","x: 275.51715087890625
y: 256.7864685058594
z: -0.1721438616514206
visibility: 0.999814510345459
","x: 270.922607421875
y: 255.49073791503906
z: -0.17658507823944092
visibility: 0.9997360706329346
","x: 286.8247985839844
y: 281.94976806640625
z: -0.04295619949698448
visibility: 0.999965250492096
","x: 252.97662353515625
y: 281.0467834472656
z: -0.036679208278656006
visibility: 0.9997246861457825
","x: 296.9433288574219
y: 324.7267150878906
z: -0.07486502081155777
visibility: 0.9924004673957825
","x: 246.28915405273438
y: 321.70416259765625
z: -0.06411727517843246
visibility: 0.9499486684799194
","x: 283.3242492675781
y: 338.71661376953125
z: -0.22431878745555878
visibility: 0.988580048084259
","x: 259.84765625
y: 335.920654296875
z: -0.22430892288684845
visibility: 0.9455387592315674
","x: 278.9635314941406
y: 345.45489501953125
z: -0.26897376775741577
visibility: 0.9724451899528503
","x: 263.20062255859375
y: 342.3822021484375
z: -0.25755906105041504
visibility: 0.9173848628997803
","x: 277.280029296875
y: 338.9211730957031
z: -0.27013087272644043
visibility: 0.9739617705345154
","x: 265.2574157714844
y: 335.75335693359375
z: -0.27047839760780334
visibility: 0.9209702014923096
","x: 278.42254638671875
y: 336.6204528808594
z: -0.2274438440799713
visibility: 0.9644668102264404
","x: 264.9722595214844
y: 333.1228942871094
z: -0.23104019463062286
visibility: 0.9055375456809998
","x: 282.1557312011719
y: 366.57220458984375
z: -0.006271046586334705
visibility: 0.9996252059936523
","x: 260.4166564941406
y: 368.9945983886719
z: 0.006300229579210281
visibility: 0.9995805025100708
","x: 283.4916076660156
y: 433.9635009765625
z: -0.1067386046051979
visibility: 0.9922518730163574
","x: 263.6524658203125
y: 441.27642822265625
z: -0.028049299493432045
visibility: 0.9921378493309021
","x: 285.1067810058594
y: 487.840576171875
z: 0.030599836260080338
visibility: 0.9900307059288025
","x: 266.52032470703125
y: 506.7502136230469
z: 0.07642604410648346
visibility: 0.9934036135673523
","x: 282.9271545410156
y: 493.9384765625
z: 0.03912181779742241
visibility: 0.8811357617378235
","x: 268.9313049316406
y: 514.71875
z: 0.07935981452465057
visibility: 0.9014050960540771
","x: 287.0510559082031
y: 518.1778564453125
z: -0.07161632180213928
visibility: 0.9857672452926636
","x: 262.6684875488281
y: 526.8612060546875
z: -0.03061028942465782
visibility: 0.9887332320213318
",4.875198125839233,"x: 282.51373291015625
y: 341.219482421875
z: 0.0
","x: 280.7947998046875
y: 336.532958984375
z: -0.0013742566807195544
","x: 278.36834716796875
y: 333.4286804199219
z: -0.0032735702116042376
","x: 276.1050720214844
y: 331.45501708984375
z: -0.004644807893782854
","x: 274.81146240234375
y: 330.13385009765625
z: -0.006033741869032383
","x: 277.1939392089844
y: 336.73150634765625
z: -0.008659766986966133
","x: 272.3360595703125
y: 335.1822204589844
z: -0.010732084512710571
","x: 269.83636474609375
y: 334.4601135253906
z: -0.010261554270982742
","x: 268.2867736816406
y: 333.98980712890625
z: -0.009523905813694
","x: 276.7529296875
y: 341.1263732910156
z: -0.008957985788583755
","x: 271.0978088378906
y: 340.0601501464844
z: -0.010736506432294846
","x: 268.54669189453125
y: 339.49041748046875
z: -0.0092135826125741
","x: 267.2528076171875
y: 339.24578857421875
z: -0.007994750514626503
","x: 276.552734375
y: 345.1156921386719
z: -0.008884074166417122
","x: 271.2165222167969
y: 344.5840148925781
z: -0.010432795621454716
","x: 269.0110778808594
y: 343.88690185546875
z: -0.009019159711897373
","x: 267.9527282714844
y: 343.4495544433594
z: -0.008013053797185421
","x: 276.55169677734375
y: 348.5142517089844
z: -0.008791763335466385
","x: 272.4443054199219
y: 348.8017578125
z: -0.010228057391941547
","x: 270.496826171875
y: 348.5123291015625
z: -0.009664121083915234
","x: 269.2870178222656
y: 348.0300598144531
z: -0.009075908921658993
",,,,,,,,,,,,,,,,,,,,,
12,"x: 274.21484375
y: 248.0070343017578
z: -0.24542486667633057
visibility: 0.9999160766601562
","x: 275.7204895019531
y: 242.77532958984375
z: -0.23077788949012756
visibility: 0.9997197985649109
","x: 276.7123107910156
y: 243.07725524902344
z: -0.23077824711799622
visibility: 0.9997437596321106
","x: 277.85748291015625
y: 243.33839416503906
z: -0.23076395690441132
visibility: 0.9997400045394897
","x: 272.2379150390625
y: 241.99978637695312
z: -0.23210254311561584
visibility: 0.9996510148048401
","x: 270.90289306640625
y: 241.75559997558594
z: -0.23211900889873505
visibility: 0.9996064901351929
","x: 269.5370178222656
y: 241.52731323242188
z: -0.23213183879852295
visibility: 0.9995505213737488
","x: 279.4818420410156
y: 247.1449432373047
z: -0.13822834193706512
visibility: 0.9995337724685669
","x: 266.4560852050781
y: 245.22714233398438
z: -0.14519791305065155
visibility: 0.9988172650337219
","x: 276.11474609375
y: 254.8360595703125
z: -0.21040093898773193
visibility: 0.9998289346694946
","x: 271.5445861816406
y: 253.611083984375
z: -0.21257779002189636
visibility: 0.999759316444397
","x: 289.1762390136719
y: 281.75543212890625
z: -0.07848984003067017
visibility: 0.9999641180038452
","x: 255.26361083984375
y: 281.7903747558594
z: -0.07622696459293365
visibility: 0.9997434020042419
","x: 297.4023742675781
y: 324.0380554199219
z: -0.05826117470860481
visibility: 0.9921672940254211
","x: 248.28904724121094
y: 323.807861328125
z: -0.07159852236509323
visibility: 0.9521244764328003
","x: 289.9900207519531
y: 344.5591735839844
z: -0.1560402661561966
visibility: 0.9880309104919434
","x: 259.69696044921875
y: 349.0028381347656
z: -0.18039663136005402
visibility: 0.9452977180480957
","x: 288.45648193359375
y: 359.6685485839844
z: -0.18624930083751678
visibility: 0.9713973999023438
","x: 261.4841003417969
y: 343.3868408203125
z: -0.21191377937793732
visibility: 0.9161583185195923
","x: 285.93865966796875
y: 349.8835754394531
z: -0.2085774689912796
visibility: 0.97275710105896
","x: 264.0479736328125
y: 343.82745361328125
z: -0.22880515456199646
visibility: 0.9194846749305725
","x: 285.9418029785156
y: 339.70526123046875
z: -0.16593128442764282
visibility: 0.9626414775848389
","x: 264.0476379394531
y: 347.1246337890625
z: -0.1883121132850647
visibility: 0.9031004905700684
","x: 283.6278076171875
y: 368.48858642578125
z: 0.0009543237974867225
visibility: 0.9996142983436584
","x: 261.9015197753906
y: 370.23309326171875
z: -0.0009826305322349072
visibility: 0.9995971918106079
","x: 286.66839599609375
y: 436.1328430175781
z: -0.007723518647253513
visibility: 0.9926767349243164
","x: 263.9427185058594
y: 440.5682373046875
z: -0.033625949174165726
visibility: 0.9925602674484253
","x: 288.35821533203125
y: 490.735107421875
z: 0.11523056030273438
visibility: 0.9904221892356873
","x: 266.6009216308594
y: 505.2882080078125
z: 0.08152200281620026
visibility: 0.9936299324035645
","x: 286.63568115234375
y: 496.3668518066406
z: 0.1109490767121315
visibility: 0.8826429843902588
","x: 268.7963562011719
y: 512.9378662109375
z: 0.0862506777048111
visibility: 0.901287317276001
","x: 291.94744873046875
y: 518.7576904296875
z: 0.02255505882203579
visibility: 0.9861851930618286
","x: 263.2247009277344
y: 526.8567504882812
z: -0.026239141821861267
visibility: 0.9890813827514648
",5.001022815704346,,,,,,,,,,,,,,,,,,,,,,,,,,,,,,,,,,,,,,,,,,
13,"x: 274.21484375
y: 248.0070343017578
z: -0.24542486667633057
visibility: 0.9999160766601562
","x: 275.7204895019531
y: 242.77532958984375
z: -0.23077788949012756
visibility: 0.9997197985649109
","x: 276.7123107910156
y: 243.07725524902344
z: -0.23077824711799622
visibility: 0.9997437596321106
","x: 277.85748291015625
y: 243.33839416503906
z: -0.23076395690441132
visibility: 0.9997400045394897
","x: 272.2379150390625
y: 241.99978637695312
z: -0.23210254311561584
visibility: 0.9996510148048401
","x: 270.90289306640625
y: 241.75559997558594
z: -0.23211900889873505
visibility: 0.9996064901351929
","x: 269.5370178222656
y: 241.52731323242188
z: -0.23213183879852295
visibility: 0.9995505213737488
","x: 279.4818420410156
y: 247.1449432373047
z: -0.13822834193706512
visibility: 0.9995337724685669
","x: 266.4560852050781
y: 245.22714233398438
z: -0.14519791305065155
visibility: 0.9988172650337219
","x: 276.11474609375
y: 254.8360595703125
z: -0.21040093898773193
visibility: 0.9998289346694946
","x: 271.5445861816406
y: 253.611083984375
z: -0.21257779002189636
visibility: 0.999759316444397
","x: 289.1762390136719
y: 281.75543212890625
z: -0.07848984003067017
visibility: 0.9999641180038452
","x: 255.26361083984375
y: 281.7903747558594
z: -0.07622696459293365
visibility: 0.9997434020042419
","x: 297.4023742675781
y: 324.0380554199219
z: -0.05826117470860481
visibility: 0.9921672940254211
","x: 248.28904724121094
y: 323.807861328125
z: -0.07159852236509323
visibility: 0.9521244764328003
","x: 289.9900207519531
y: 344.5591735839844
z: -0.1560402661561966
visibility: 0.9880309104919434
","x: 259.69696044921875
y: 349.0028381347656
z: -0.18039663136005402
visibility: 0.9452977180480957
","x: 288.45648193359375
y: 359.6685485839844
z: -0.18624930083751678
visibility: 0.9713973999023438
","x: 261.4841003417969
y: 343.3868408203125
z: -0.21191377937793732
visibility: 0.9161583185195923
","x: 285.93865966796875
y: 349.8835754394531
z: -0.2085774689912796
visibility: 0.97275710105896
","x: 264.0479736328125
y: 343.82745361328125
z: -0.22880515456199646
visibility: 0.9194846749305725
","x: 285.9418029785156
y: 339.70526123046875
z: -0.16593128442764282
visibility: 0.9626414775848389
","x: 264.0476379394531
y: 347.1246337890625
z: -0.1883121132850647
visibility: 0.9031004905700684
","x: 283.6278076171875
y: 368.48858642578125
z: 0.0009543237974867225
visibility: 0.9996142983436584
","x: 261.9015197753906
y: 370.23309326171875
z: -0.0009826305322349072
visibility: 0.9995971918106079
","x: 286.66839599609375
y: 436.1328430175781
z: -0.007723518647253513
visibility: 0.9926767349243164
","x: 263.9427185058594
y: 440.5682373046875
z: -0.033625949174165726
visibility: 0.9925602674484253
","x: 288.35821533203125
y: 490.735107421875
z: 0.11523056030273438
visibility: 0.9904221892356873
","x: 266.6009216308594
y: 505.2882080078125
z: 0.08152200281620026
visibility: 0.9936299324035645
","x: 286.63568115234375
y: 496.3668518066406
z: 0.1109490767121315
visibility: 0.8826429843902588
","x: 268.7963562011719
y: 512.9378662109375
z: 0.0862506777048111
visibility: 0.901287317276001
","x: 291.94744873046875
y: 518.7576904296875
z: 0.02255505882203579
visibility: 0.9861851930618286
","x: 263.2247009277344
y: 526.8567504882812
z: -0.026239141821861267
visibility: 0.9890813827514648
",5.001022815704346,,,,,,,,,,,,,,,,,,,,,,,,,,,,,,,,,,,,,,,,,,
14,"x: 274.6641845703125
y: 248.71234130859375
z: -0.24707122147083282
visibility: 0.9999197721481323
","x: 276.33428955078125
y: 244.3746337890625
z: -0.23243939876556396
visibility: 0.9997300505638123
","x: 277.4316711425781
y: 244.77569580078125
z: -0.23246824741363525
visibility: 0.9997508525848389
","x: 278.6831359863281
y: 245.34091186523438
z: -0.23246869444847107
visibility: 0.9997467994689941
","x: 272.8074951171875
y: 243.41920471191406
z: -0.23292335867881775
visibility: 0.9996680617332458
","x: 271.45147705078125
y: 243.20468139648438
z: -0.2329365760087967
visibility: 0.9996250867843628
","x: 270.0556335449219
y: 243.05662536621094
z: -0.23296281695365906
visibility: 0.9995735883712769
","x: 280.4971618652344
y: 249.2056884765625
z: -0.14030171930789948
visibility: 0.9995386004447937
","x: 267.32098388671875
y: 247.26358032226562
z: -0.14307717978954315
visibility: 0.9988802075386047
","x: 276.70892333984375
y: 256.5295104980469
z: -0.21228833496570587
visibility: 0.9998378753662109
","x: 272.03448486328125
y: 254.39353942871094
z: -0.21318788826465607
visibility: 0.9997756481170654
","x: 290.5048828125
y: 284.8508605957031
z: -0.08589587360620499
visibility: 0.9999618530273438
","x: 256.821044921875
y: 288.27581787109375
z: -0.07846254110336304
visibility: 0.9997561573982239
","x: 297.9027099609375
y: 325.8039855957031
z: -0.07217748463153839
visibility: 0.9917911887168884
","x: 251.75686645507812
y: 332.7430419921875
z: -0.059401821345090866
visibility: 0.9518773555755615
","x: 289.52630615234375
y: 363.5888977050781
z: -0.16972705721855164
visibility: 0.987284243106842
","x: 259.6038513183594
y: 368.09552001953125
z: -0.1477666050195694
visibility: 0.9414106011390686
","x: 289.21044921875
y: 379.5517578125
z: -0.20177289843559265
visibility: 0.9698677062988281
","x: 260.63983154296875
y: 378.577392578125
z: -0.17873704433441162
visibility: 0.910197913646698
","x: 286.71484375
y: 375.8706359863281
z: -0.22548320889472961
visibility: 0.9711103439331055
","x: 262.4931640625
y: 378.5815734863281
z: -0.2017369568347931
visibility: 0.9136045575141907
","x: 285.9818420410156
y: 369.8599853515625
z: -0.18052050471305847
visibility: 0.9603205919265747
","x: 263.0749206542969
y: 374.845703125
z: -0.1586744785308838
visibility: 0.8961265087127686
","x: 284.4381103515625
y: 377.4597473144531
z: 0.0013854457065463066
visibility: 0.9996002912521362
","x: 263.3707580566406
y: 377.9358215332031
z: -0.0013684488367289305
visibility: 0.9996136426925659
","x: 288.38592529296875
y: 443.6903381347656
z: 0.021574748679995537
visibility: 0.9928639531135559
","x: 264.02484130859375
y: 447.9248046875
z: -0.02330353483557701
visibility: 0.992929995059967
","x: 289.1072692871094
y: 492.43994140625
z: 0.18119779229164124
visibility: 0.9903760552406311
","x: 266.60638427734375
y: 506.416015625
z: 0.09599699079990387
visibility: 0.9937875866889954
","x: 287.1845397949219
y: 497.5451965332031
z: 0.18979857861995697
visibility: 0.8851829767227173
","x: 268.7434997558594
y: 515.189697265625
z: 0.09882286190986633
visibility: 0.9015761017799377
","x: 294.3644104003906
y: 519.6141967773438
z: 0.09217063337564468
visibility: 0.9861281514167786
","x: 263.20361328125
y: 527.064697265625
z: -0.01173590961843729
visibility: 0.9892975091934204
",5.1251914501190186,"x: 287.7714538574219
y: 368.7113037109375
z: 0.0
","x: 284.72772216796875
y: 373.91436767578125
z: 0.00021583163470495492
","x: 283.1119384765625
y: 380.07318115234375
z: 0.00020455350750125945
","x: 281.82659912109375
y: 384.02020263671875
z: -0.0005949442856945097
","x: 280.6949462890625
y: 386.5731201171875
z: -0.0011593041708692908
","x: 288.0834045410156
y: 389.23626708984375
z: 0.003821151563897729
","x: 288.9263610839844
y: 396.0231018066406
z: 0.0024267365224659443
","x: 289.02923583984375
y: 399.7993469238281
z: 0.001327979494817555
","x: 289.1078796386719
y: 402.5238342285156
z: 0.0008308638352900743
","x: 289.9225158691406
y: 389.17193603515625
z: 0.002020077547058463
","x: 291.3411560058594
y: 395.981201171875
z: 0.0008994476520456374
","x: 291.88336181640625
y: 399.7794189453125
z: 0.00018787138105835766
","x: 292.30474853515625
y: 402.94586181640625
z: -0.00012022999726468697
","x: 291.3822021484375
y: 388.3375244140625
z: -0.00042266095988452435
","x: 292.9584655761719
y: 395.18829345703125
z: -0.002064960077404976
","x: 293.43975830078125
y: 399.25689697265625
z: -0.002559719607234001
","x: 293.703857421875
y: 402.56103515625
z: -0.002577595179900527
","x: 292.47528076171875
y: 386.40380859375
z: -0.0031734649091959
","x: 293.837890625
y: 392.5091552734375
z: -0.004540284164249897
","x: 294.32464599609375
y: 396.5855407714844
z: -0.004858263302594423
","x: 294.3639221191406
y: 400.06878662109375
z: -0.004832067526876926
","x: 254.2783966064453
y: 369.75054931640625
z: 0.0
","x: 258.342529296875
y: 375.17620849609375
z: 9.165673691313714e-05
","x: 260.2431945800781
y: 382.47869873046875
z: 0.000257797131780535
","x: 261.43414306640625
y: 388.53497314453125
z: 0.00015063515456859022
","x: 262.9683532714844
y: 392.46209716796875
z: 0.0003508056397549808
","x: 256.8323059082031
y: 388.1797790527344
z: 0.002113729016855359
","x: 255.48114013671875
y: 395.1681213378906
z: 0.001790807000361383
","x: 254.25619506835938
y: 399.1824035644531
z: 0.0018026118632405996
","x: 253.0838623046875
y: 402.034912109375
z: 0.00197393330745399
","x: 254.5765380859375
y: 388.71905517578125
z: 0.0014022653922438622
","x: 253.1856231689453
y: 395.5931091308594
z: 0.0010621531400829554
","x: 251.91481018066406
y: 399.6021728515625
z: 0.0008781442884355783
","x: 250.57675170898438
y: 402.52337646484375
z: 0.0007745408220216632
","x: 252.9740753173828
y: 388.60504150390625
z: 0.00044667362817563117
","x: 251.53443908691406
y: 394.79681396484375
z: -0.000445105426479131
","x: 250.47177124023438
y: 398.1852722167969
z: -0.0009582247002981603
","x: 249.4319610595703
y: 401.00640869140625
z: -0.0011341607896611094
","x: 251.9246063232422
y: 387.7699279785156
z: -0.0006292611360549927
","x: 250.6712188720703
y: 393.0791015625
z: -0.0014391753356903791
","x: 249.82040405273438
y: 395.99169921875
z: -0.0018007027683779597
","x: 249.02880859375
y: 398.480712890625
z: -0.0018424199661239982
"
15,"x: 274.6641845703125
y: 248.71234130859375
z: -0.24707122147083282
visibility: 0.9999197721481323
","x: 276.33428955078125
y: 244.3746337890625
z: -0.23243939876556396
visibility: 0.9997300505638123
","x: 277.4316711425781
y: 244.77569580078125
z: -0.23246824741363525
visibility: 0.9997508525848389
","x: 278.6831359863281
y: 245.34091186523438
z: -0.23246869444847107
visibility: 0.9997467994689941
","x: 272.8074951171875
y: 243.41920471191406
z: -0.23292335867881775
visibility: 0.9996680617332458
","x: 271.45147705078125
y: 243.20468139648438
z: -0.2329365760087967
visibility: 0.9996250867843628
","x: 270.0556335449219
y: 243.05662536621094
z: -0.23296281695365906
visibility: 0.9995735883712769
","x: 280.4971618652344
y: 249.2056884765625
z: -0.14030171930789948
visibility: 0.9995386004447937
","x: 267.32098388671875
y: 247.26358032226562
z: -0.14307717978954315
visibility: 0.9988802075386047
","x: 276.70892333984375
y: 256.5295104980469
z: -0.21228833496570587
visibility: 0.9998378753662109
","x: 272.03448486328125
y: 254.39353942871094
z: -0.21318788826465607
visibility: 0.9997756481170654
","x: 290.5048828125
y: 284.8508605957031
z: -0.08589587360620499
visibility: 0.9999618530273438
","x: 256.821044921875
y: 288.27581787109375
z: -0.07846254110336304
visibility: 0.9997561573982239
","x: 297.9027099609375
y: 325.8039855957031
z: -0.07217748463153839
visibility: 0.9917911887168884
","x: 251.75686645507812
y: 332.7430419921875
z: -0.059401821345090866
visibility: 0.9518773555755615
","x: 289.52630615234375
y: 363.5888977050781
z: -0.16972705721855164
visibility: 0.987284243106842
","x: 259.6038513183594
y: 368.09552001953125
z: -0.1477666050195694
visibility: 0.9414106011390686
","x: 289.21044921875
y: 379.5517578125
z: -0.20177289843559265
visibility: 0.9698677062988281
","x: 260.63983154296875
y: 378.577392578125
z: -0.17873704433441162
visibility: 0.910197913646698
","x: 286.71484375
y: 375.8706359863281
z: -0.22548320889472961
visibility: 0.9711103439331055
","x: 262.4931640625
y: 378.5815734863281
z: -0.2017369568347931
visibility: 0.9136045575141907
","x: 285.9818420410156
y: 369.8599853515625
z: -0.18052050471305847
visibility: 0.9603205919265747
","x: 263.0749206542969
y: 374.845703125
z: -0.1586744785308838
visibility: 0.8961265087127686
","x: 284.4381103515625
y: 377.4597473144531
z: 0.0013854457065463066
visibility: 0.9996002912521362
","x: 263.3707580566406
y: 377.9358215332031
z: -0.0013684488367289305
visibility: 0.9996136426925659
","x: 288.38592529296875
y: 443.6903381347656
z: 0.021574748679995537
visibility: 0.9928639531135559
","x: 264.02484130859375
y: 447.9248046875
z: -0.02330353483557701
visibility: 0.992929995059967
","x: 289.1072692871094
y: 492.43994140625
z: 0.18119779229164124
visibility: 0.9903760552406311
","x: 266.60638427734375
y: 506.416015625
z: 0.09599699079990387
visibility: 0.9937875866889954
","x: 287.1845397949219
y: 497.5451965332031
z: 0.18979857861995697
visibility: 0.8851829767227173
","x: 268.7434997558594
y: 515.189697265625
z: 0.09882286190986633
visibility: 0.9015761017799377
","x: 294.3644104003906
y: 519.6141967773438
z: 0.09217063337564468
visibility: 0.9861281514167786
","x: 263.20361328125
y: 527.064697265625
z: -0.01173590961843729
visibility: 0.9892975091934204
",5.1251914501190186,"x: 287.7714538574219
y: 368.7113037109375
z: 0.0
","x: 284.72772216796875
y: 373.91436767578125
z: 0.00021583163470495492
","x: 283.1119384765625
y: 380.07318115234375
z: 0.00020455350750125945
","x: 281.82659912109375
y: 384.02020263671875
z: -0.0005949442856945097
","x: 280.6949462890625
y: 386.5731201171875
z: -0.0011593041708692908
","x: 288.0834045410156
y: 389.23626708984375
z: 0.003821151563897729
","x: 288.9263610839844
y: 396.0231018066406
z: 0.0024267365224659443
","x: 289.02923583984375
y: 399.7993469238281
z: 0.001327979494817555
","x: 289.1078796386719
y: 402.5238342285156
z: 0.0008308638352900743
","x: 289.9225158691406
y: 389.17193603515625
z: 0.002020077547058463
","x: 291.3411560058594
y: 395.981201171875
z: 0.0008994476520456374
","x: 291.88336181640625
y: 399.7794189453125
z: 0.00018787138105835766
","x: 292.30474853515625
y: 402.94586181640625
z: -0.00012022999726468697
","x: 291.3822021484375
y: 388.3375244140625
z: -0.00042266095988452435
","x: 292.9584655761719
y: 395.18829345703125
z: -0.002064960077404976
","x: 293.43975830078125
y: 399.25689697265625
z: -0.002559719607234001
","x: 293.703857421875
y: 402.56103515625
z: -0.002577595179900527
","x: 292.47528076171875
y: 386.40380859375
z: -0.0031734649091959
","x: 293.837890625
y: 392.5091552734375
z: -0.004540284164249897
","x: 294.32464599609375
y: 396.5855407714844
z: -0.004858263302594423
","x: 294.3639221191406
y: 400.06878662109375
z: -0.004832067526876926
","x: 254.2783966064453
y: 369.75054931640625
z: 0.0
","x: 258.342529296875
y: 375.17620849609375
z: 9.165673691313714e-05
","x: 260.2431945800781
y: 382.47869873046875
z: 0.000257797131780535
","x: 261.43414306640625
y: 388.53497314453125
z: 0.00015063515456859022
","x: 262.9683532714844
y: 392.46209716796875
z: 0.0003508056397549808
","x: 256.8323059082031
y: 388.1797790527344
z: 0.002113729016855359
","x: 255.48114013671875
y: 395.1681213378906
z: 0.001790807000361383
","x: 254.25619506835938
y: 399.1824035644531
z: 0.0018026118632405996
","x: 253.0838623046875
y: 402.034912109375
z: 0.00197393330745399
","x: 254.5765380859375
y: 388.71905517578125
z: 0.0014022653922438622
","x: 253.1856231689453
y: 395.5931091308594
z: 0.0010621531400829554
","x: 251.91481018066406
y: 399.6021728515625
z: 0.0008781442884355783
","x: 250.57675170898438
y: 402.52337646484375
z: 0.0007745408220216632
","x: 252.9740753173828
y: 388.60504150390625
z: 0.00044667362817563117
","x: 251.53443908691406
y: 394.79681396484375
z: -0.000445105426479131
","x: 250.47177124023438
y: 398.1852722167969
z: -0.0009582247002981603
","x: 249.4319610595703
y: 401.00640869140625
z: -0.0011341607896611094
","x: 251.9246063232422
y: 387.7699279785156
z: -0.0006292611360549927
","x: 250.6712188720703
y: 393.0791015625
z: -0.0014391753356903791
","x: 249.82040405273438
y: 395.99169921875
z: -0.0018007027683779597
","x: 249.02880859375
y: 398.480712890625
z: -0.0018424199661239982
"
16,"x: 274.6641845703125
y: 248.71234130859375
z: -0.24707122147083282
visibility: 0.9999197721481323
","x: 276.33428955078125
y: 244.3746337890625
z: -0.23243939876556396
visibility: 0.9997300505638123
","x: 277.4316711425781
y: 244.77569580078125
z: -0.23246824741363525
visibility: 0.9997508525848389
","x: 278.6831359863281
y: 245.34091186523438
z: -0.23246869444847107
visibility: 0.9997467994689941
","x: 272.8074951171875
y: 243.41920471191406
z: -0.23292335867881775
visibility: 0.9996680617332458
","x: 271.45147705078125
y: 243.20468139648438
z: -0.2329365760087967
visibility: 0.9996250867843628
","x: 270.0556335449219
y: 243.05662536621094
z: -0.23296281695365906
visibility: 0.9995735883712769
","x: 280.4971618652344
y: 249.2056884765625
z: -0.14030171930789948
visibility: 0.9995386004447937
","x: 267.32098388671875
y: 247.26358032226562
z: -0.14307717978954315
visibility: 0.9988802075386047
","x: 276.70892333984375
y: 256.5295104980469
z: -0.21228833496570587
visibility: 0.9998378753662109
","x: 272.03448486328125
y: 254.39353942871094
z: -0.21318788826465607
visibility: 0.9997756481170654
","x: 290.5048828125
y: 284.8508605957031
z: -0.08589587360620499
visibility: 0.9999618530273438
","x: 256.821044921875
y: 288.27581787109375
z: -0.07846254110336304
visibility: 0.9997561573982239
","x: 297.9027099609375
y: 325.8039855957031
z: -0.07217748463153839
visibility: 0.9917911887168884
","x: 251.75686645507812
y: 332.7430419921875
z: -0.059401821345090866
visibility: 0.9518773555755615
","x: 289.52630615234375
y: 363.5888977050781
z: -0.16972705721855164
visibility: 0.987284243106842
","x: 259.6038513183594
y: 368.09552001953125
z: -0.1477666050195694
visibility: 0.9414106011390686
","x: 289.21044921875
y: 379.5517578125
z: -0.20177289843559265
visibility: 0.9698677062988281
","x: 260.63983154296875
y: 378.577392578125
z: -0.17873704433441162
visibility: 0.910197913646698
","x: 286.71484375
y: 375.8706359863281
z: -0.22548320889472961
visibility: 0.9711103439331055
","x: 262.4931640625
y: 378.5815734863281
z: -0.2017369568347931
visibility: 0.9136045575141907
","x: 285.9818420410156
y: 369.8599853515625
z: -0.18052050471305847
visibility: 0.9603205919265747
","x: 263.0749206542969
y: 374.845703125
z: -0.1586744785308838
visibility: 0.8961265087127686
","x: 284.4381103515625
y: 377.4597473144531
z: 0.0013854457065463066
visibility: 0.9996002912521362
","x: 263.3707580566406
y: 377.9358215332031
z: -0.0013684488367289305
visibility: 0.9996136426925659
","x: 288.38592529296875
y: 443.6903381347656
z: 0.021574748679995537
visibility: 0.9928639531135559
","x: 264.02484130859375
y: 447.9248046875
z: -0.02330353483557701
visibility: 0.992929995059967
","x: 289.1072692871094
y: 492.43994140625
z: 0.18119779229164124
visibility: 0.9903760552406311
","x: 266.60638427734375
y: 506.416015625
z: 0.09599699079990387
visibility: 0.9937875866889954
","x: 287.1845397949219
y: 497.5451965332031
z: 0.18979857861995697
visibility: 0.8851829767227173
","x: 268.7434997558594
y: 515.189697265625
z: 0.09882286190986633
visibility: 0.9015761017799377
","x: 294.3644104003906
y: 519.6141967773438
z: 0.09217063337564468
visibility: 0.9861281514167786
","x: 263.20361328125
y: 527.064697265625
z: -0.01173590961843729
visibility: 0.9892975091934204
",5.1251914501190186,"x: 287.7714538574219
y: 368.7113037109375
z: 0.0
","x: 284.72772216796875
y: 373.91436767578125
z: 0.00021583163470495492
","x: 283.1119384765625
y: 380.07318115234375
z: 0.00020455350750125945
","x: 281.82659912109375
y: 384.02020263671875
z: -0.0005949442856945097
","x: 280.6949462890625
y: 386.5731201171875
z: -0.0011593041708692908
","x: 288.0834045410156
y: 389.23626708984375
z: 0.003821151563897729
","x: 288.9263610839844
y: 396.0231018066406
z: 0.0024267365224659443
","x: 289.02923583984375
y: 399.7993469238281
z: 0.001327979494817555
","x: 289.1078796386719
y: 402.5238342285156
z: 0.0008308638352900743
","x: 289.9225158691406
y: 389.17193603515625
z: 0.002020077547058463
","x: 291.3411560058594
y: 395.981201171875
z: 0.0008994476520456374
","x: 291.88336181640625
y: 399.7794189453125
z: 0.00018787138105835766
","x: 292.30474853515625
y: 402.94586181640625
z: -0.00012022999726468697
","x: 291.3822021484375
y: 388.3375244140625
z: -0.00042266095988452435
","x: 292.9584655761719
y: 395.18829345703125
z: -0.002064960077404976
","x: 293.43975830078125
y: 399.25689697265625
z: -0.002559719607234001
","x: 293.703857421875
y: 402.56103515625
z: -0.002577595179900527
","x: 292.47528076171875
y: 386.40380859375
z: -0.0031734649091959
","x: 293.837890625
y: 392.5091552734375
z: -0.004540284164249897
","x: 294.32464599609375
y: 396.5855407714844
z: -0.004858263302594423
","x: 294.3639221191406
y: 400.06878662109375
z: -0.004832067526876926
","x: 254.2783966064453
y: 369.75054931640625
z: 0.0
","x: 258.342529296875
y: 375.17620849609375
z: 9.165673691313714e-05
","x: 260.2431945800781
y: 382.47869873046875
z: 0.000257797131780535
","x: 261.43414306640625
y: 388.53497314453125
z: 0.00015063515456859022
","x: 262.9683532714844
y: 392.46209716796875
z: 0.0003508056397549808
","x: 256.8323059082031
y: 388.1797790527344
z: 0.002113729016855359
","x: 255.48114013671875
y: 395.1681213378906
z: 0.001790807000361383
","x: 254.25619506835938
y: 399.1824035644531
z: 0.0018026118632405996
","x: 253.0838623046875
y: 402.034912109375
z: 0.00197393330745399
","x: 254.5765380859375
y: 388.71905517578125
z: 0.0014022653922438622
","x: 253.1856231689453
y: 395.5931091308594
z: 0.0010621531400829554
","x: 251.91481018066406
y: 399.6021728515625
z: 0.0008781442884355783
","x: 250.57675170898438
y: 402.52337646484375
z: 0.0007745408220216632
","x: 252.9740753173828
y: 388.60504150390625
z: 0.00044667362817563117
","x: 251.53443908691406
y: 394.79681396484375
z: -0.000445105426479131
","x: 250.47177124023438
y: 398.1852722167969
z: -0.0009582247002981603
","x: 249.4319610595703
y: 401.00640869140625
z: -0.0011341607896611094
","x: 251.9246063232422
y: 387.7699279785156
z: -0.0006292611360549927
","x: 250.6712188720703
y: 393.0791015625
z: -0.0014391753356903791
","x: 249.82040405273438
y: 395.99169921875
z: -0.0018007027683779597
","x: 249.02880859375
y: 398.480712890625
z: -0.0018424199661239982
"
17,"x: 274.6641845703125
y: 248.71234130859375
z: -0.24707122147083282
visibility: 0.9999197721481323
","x: 276.33428955078125
y: 244.3746337890625
z: -0.23243939876556396
visibility: 0.9997300505638123
","x: 277.4316711425781
y: 244.77569580078125
z: -0.23246824741363525
visibility: 0.9997508525848389
","x: 278.6831359863281
y: 245.34091186523438
z: -0.23246869444847107
visibility: 0.9997467994689941
","x: 272.8074951171875
y: 243.41920471191406
z: -0.23292335867881775
visibility: 0.9996680617332458
","x: 271.45147705078125
y: 243.20468139648438
z: -0.2329365760087967
visibility: 0.9996250867843628
","x: 270.0556335449219
y: 243.05662536621094
z: -0.23296281695365906
visibility: 0.9995735883712769
","x: 280.4971618652344
y: 249.2056884765625
z: -0.14030171930789948
visibility: 0.9995386004447937
","x: 267.32098388671875
y: 247.26358032226562
z: -0.14307717978954315
visibility: 0.9988802075386047
","x: 276.70892333984375
y: 256.5295104980469
z: -0.21228833496570587
visibility: 0.9998378753662109
","x: 272.03448486328125
y: 254.39353942871094
z: -0.21318788826465607
visibility: 0.9997756481170654
","x: 290.5048828125
y: 284.8508605957031
z: -0.08589587360620499
visibility: 0.9999618530273438
","x: 256.821044921875
y: 288.27581787109375
z: -0.07846254110336304
visibility: 0.9997561573982239
","x: 297.9027099609375
y: 325.8039855957031
z: -0.07217748463153839
visibility: 0.9917911887168884
","x: 251.75686645507812
y: 332.7430419921875
z: -0.059401821345090866
visibility: 0.9518773555755615
","x: 289.52630615234375
y: 363.5888977050781
z: -0.16972705721855164
visibility: 0.987284243106842
","x: 259.6038513183594
y: 368.09552001953125
z: -0.1477666050195694
visibility: 0.9414106011390686
","x: 289.21044921875
y: 379.5517578125
z: -0.20177289843559265
visibility: 0.9698677062988281
","x: 260.63983154296875
y: 378.577392578125
z: -0.17873704433441162
visibility: 0.910197913646698
","x: 286.71484375
y: 375.8706359863281
z: -0.22548320889472961
visibility: 0.9711103439331055
","x: 262.4931640625
y: 378.5815734863281
z: -0.2017369568347931
visibility: 0.9136045575141907
","x: 285.9818420410156
y: 369.8599853515625
z: -0.18052050471305847
visibility: 0.9603205919265747
","x: 263.0749206542969
y: 374.845703125
z: -0.1586744785308838
visibility: 0.8961265087127686
","x: 284.4381103515625
y: 377.4597473144531
z: 0.0013854457065463066
visibility: 0.9996002912521362
","x: 263.3707580566406
y: 377.9358215332031
z: -0.0013684488367289305
visibility: 0.9996136426925659
","x: 288.38592529296875
y: 443.6903381347656
z: 0.021574748679995537
visibility: 0.9928639531135559
","x: 264.02484130859375
y: 447.9248046875
z: -0.02330353483557701
visibility: 0.992929995059967
","x: 289.1072692871094
y: 492.43994140625
z: 0.18119779229164124
visibility: 0.9903760552406311
","x: 266.60638427734375
y: 506.416015625
z: 0.09599699079990387
visibility: 0.9937875866889954
","x: 287.1845397949219
y: 497.5451965332031
z: 0.18979857861995697
visibility: 0.8851829767227173
","x: 268.7434997558594
y: 515.189697265625
z: 0.09882286190986633
visibility: 0.9015761017799377
","x: 294.3644104003906
y: 519.6141967773438
z: 0.09217063337564468
visibility: 0.9861281514167786
","x: 263.20361328125
y: 527.064697265625
z: -0.01173590961843729
visibility: 0.9892975091934204
",5.1251914501190186,"x: 287.7714538574219
y: 368.7113037109375
z: 0.0
","x: 284.72772216796875
y: 373.91436767578125
z: 0.00021583163470495492
","x: 283.1119384765625
y: 380.07318115234375
z: 0.00020455350750125945
","x: 281.82659912109375
y: 384.02020263671875
z: -0.0005949442856945097
","x: 280.6949462890625
y: 386.5731201171875
z: -0.0011593041708692908
","x: 288.0834045410156
y: 389.23626708984375
z: 0.003821151563897729
","x: 288.9263610839844
y: 396.0231018066406
z: 0.0024267365224659443
","x: 289.02923583984375
y: 399.7993469238281
z: 0.001327979494817555
","x: 289.1078796386719
y: 402.5238342285156
z: 0.0008308638352900743
","x: 289.9225158691406
y: 389.17193603515625
z: 0.002020077547058463
","x: 291.3411560058594
y: 395.981201171875
z: 0.0008994476520456374
","x: 291.88336181640625
y: 399.7794189453125
z: 0.00018787138105835766
","x: 292.30474853515625
y: 402.94586181640625
z: -0.00012022999726468697
","x: 291.3822021484375
y: 388.3375244140625
z: -0.00042266095988452435
","x: 292.9584655761719
y: 395.18829345703125
z: -0.002064960077404976
","x: 293.43975830078125
y: 399.25689697265625
z: -0.002559719607234001
","x: 293.703857421875
y: 402.56103515625
z: -0.002577595179900527
","x: 292.47528076171875
y: 386.40380859375
z: -0.0031734649091959
","x: 293.837890625
y: 392.5091552734375
z: -0.004540284164249897
","x: 294.32464599609375
y: 396.5855407714844
z: -0.004858263302594423
","x: 294.3639221191406
y: 400.06878662109375
z: -0.004832067526876926
","x: 254.2783966064453
y: 369.75054931640625
z: 0.0
","x: 258.342529296875
y: 375.17620849609375
z: 9.165673691313714e-05
","x: 260.2431945800781
y: 382.47869873046875
z: 0.000257797131780535
","x: 261.43414306640625
y: 388.53497314453125
z: 0.00015063515456859022
","x: 262.9683532714844
y: 392.46209716796875
z: 0.0003508056397549808
","x: 256.8323059082031
y: 388.1797790527344
z: 0.002113729016855359
","x: 255.48114013671875
y: 395.1681213378906
z: 0.001790807000361383
","x: 254.25619506835938
y: 399.1824035644531
z: 0.0018026118632405996
","x: 253.0838623046875
y: 402.034912109375
z: 0.00197393330745399
","x: 254.5765380859375
y: 388.71905517578125
z: 0.0014022653922438622
","x: 253.1856231689453
y: 395.5931091308594
z: 0.0010621531400829554
","x: 251.91481018066406
y: 399.6021728515625
z: 0.0008781442884355783
","x: 250.57675170898438
y: 402.52337646484375
z: 0.0007745408220216632
","x: 252.9740753173828
y: 388.60504150390625
z: 0.00044667362817563117
","x: 251.53443908691406
y: 394.79681396484375
z: -0.000445105426479131
","x: 250.47177124023438
y: 398.1852722167969
z: -0.0009582247002981603
","x: 249.4319610595703
y: 401.00640869140625
z: -0.0011341607896611094
","x: 251.9246063232422
y: 387.7699279785156
z: -0.0006292611360549927
","x: 250.6712188720703
y: 393.0791015625
z: -0.0014391753356903791
","x: 249.82040405273438
y: 395.99169921875
z: -0.0018007027683779597
","x: 249.02880859375
y: 398.480712890625
z: -0.0018424199661239982
"
18,"x: 276.6065979003906
y: 258.2376403808594
z: -0.11771156638860703
visibility: 0.9998465180397034
","x: 278.33050537109375
y: 253.49179077148438
z: -0.10607179254293442
visibility: 0.9996036887168884
","x: 279.532958984375
y: 253.5166778564453
z: -0.10611645877361298
visibility: 0.9996137022972107
","x: 280.7853088378906
y: 253.56182861328125
z: -0.10617540031671524
visibility: 0.9996105432510376
","x: 274.7421569824219
y: 253.46885681152344
z: -0.10310433059930801
visibility: 0.9995093941688538
","x: 273.4186096191406
y: 253.5301971435547
z: -0.10306145995855331
visibility: 0.9993847012519836
","x: 272.0358581542969
y: 253.69488525390625
z: -0.10305454581975937
visibility: 0.9993159174919128
","x: 282.4709167480469
y: 256.37811279296875
z: -0.029768411070108414
visibility: 0.9994841814041138
","x: 269.343994140625
y: 257.1820373535156
z: -0.01358843594789505
visibility: 0.9981648325920105
","x: 278.64520263671875
y: 264.87310791015625
z: -0.08787880837917328
visibility: 0.9997403621673584
","x: 274.0783996582031
y: 265.1488342285156
z: -0.08331310749053955
visibility: 0.9996033906936646
","x: 292.4068908691406
y: 285.1687927246094
z: -0.00790941622108221
visibility: 0.9998818635940552
","x: 258.8006286621094
y: 294.2572326660156
z: 0.03294995427131653
visibility: 0.9994834661483765
","x: 294.2654724121094
y: 326.99884033203125
z: -0.07450087368488312
visibility: 0.9867552518844604
","x: 259.7143249511719
y: 343.48468017578125
z: -0.05174873396754265
visibility: 0.9387643933296204
","x: 274.15557861328125
y: 309.54736328125
z: -0.1726989597082138
visibility: 0.9837218523025513
","x: 266.0220947265625
y: 312.04705810546875
z: -0.19477543234825134
visibility: 0.9356465339660645
","x: 269.18341064453125
y: 302.0966796875
z: -0.1973450779914856
visibility: 0.9636691212654114
","x: 266.04620361328125
y: 301.1321716308594
z: -0.22283479571342468
visibility: 0.9018793106079102
","x: 269.5677185058594
y: 298.56561279296875
z: -0.1943722516298294
visibility: 0.963897705078125
","x: 265.9413146972656
y: 296.0760498046875
z: -0.22004671394824982
visibility: 0.9033675193786621
","x: 270.75323486328125
y: 300.48419189453125
z: -0.17293383181095123
visibility: 0.9503687024116516
","x: 266.2530822753906
y: 300.08258056640625
z: -0.19366586208343506
visibility: 0.8816540241241455
","x: 286.37396240234375
y: 377.5349426269531
z: 0.0018688032869249582
visibility: 0.9996061325073242
","x: 264.8074035644531
y: 378.7059020996094
z: -0.001834801398217678
visibility: 0.9995962977409363
","x: 301.0201721191406
y: 432.78875732421875
z: -0.18685059249401093
visibility: 0.9934237003326416
","x: 263.5965270996094
y: 447.251220703125
z: -0.037465859204530716
visibility: 0.9931729435920715
","x: 287.9420471191406
y: 481.6773681640625
z: 0.016434060409665108
visibility: 0.9901072978973389
","x: 266.5570983886719
y: 506.7625427246094
z: 0.09618113934993744
visibility: 0.9938868880271912
","x: 283.23626708984375
y: 484.7486877441406
z: 0.03396500274538994
visibility: 0.8908096551895142
","x: 268.40460205078125
y: 516.8206176757812
z: 0.09912040829658508
visibility: 0.9043421149253845
","x: 290.4156188964844
y: 513.474609375
z: -0.04547034949064255
visibility: 0.9858376383781433
","x: 262.51947021484375
y: 527.0714111328125
z: 0.006774313747882843
visibility: 0.9890003800392151
",5.252543210983276,,,,,,,,,,,,,,,,,,,,,,,,,,,,,,,,,,,,,,,,,,
19,"x: 276.6065979003906
y: 258.2376403808594
z: -0.11771156638860703
visibility: 0.9998465180397034
","x: 278.33050537109375
y: 253.49179077148438
z: -0.10607179254293442
visibility: 0.9996036887168884
","x: 279.532958984375
y: 253.5166778564453
z: -0.10611645877361298
visibility: 0.9996137022972107
","x: 280.7853088378906
y: 253.56182861328125
z: -0.10617540031671524
visibility: 0.9996105432510376
","x: 274.7421569824219
y: 253.46885681152344
z: -0.10310433059930801
visibility: 0.9995093941688538
","x: 273.4186096191406
y: 253.5301971435547
z: -0.10306145995855331
visibility: 0.9993847012519836
","x: 272.0358581542969
y: 253.69488525390625
z: -0.10305454581975937
visibility: 0.9993159174919128
","x: 282.4709167480469
y: 256.37811279296875
z: -0.029768411070108414
visibility: 0.9994841814041138
","x: 269.343994140625
y: 257.1820373535156
z: -0.01358843594789505
visibility: 0.9981648325920105
","x: 278.64520263671875
y: 264.87310791015625
z: -0.08787880837917328
visibility: 0.9997403621673584
","x: 274.0783996582031
y: 265.1488342285156
z: -0.08331310749053955
visibility: 0.9996033906936646
","x: 292.4068908691406
y: 285.1687927246094
z: -0.00790941622108221
visibility: 0.9998818635940552
","x: 258.8006286621094
y: 294.2572326660156
z: 0.03294995427131653
visibility: 0.9994834661483765
","x: 294.2654724121094
y: 326.99884033203125
z: -0.07450087368488312
visibility: 0.9867552518844604
","x: 259.7143249511719
y: 343.48468017578125
z: -0.05174873396754265
visibility: 0.9387643933296204
","x: 274.15557861328125
y: 309.54736328125
z: -0.1726989597082138
visibility: 0.9837218523025513
","x: 266.0220947265625
y: 312.04705810546875
z: -0.19477543234825134
visibility: 0.9356465339660645
","x: 269.18341064453125
y: 302.0966796875
z: -0.1973450779914856
visibility: 0.9636691212654114
","x: 266.04620361328125
y: 301.1321716308594
z: -0.22283479571342468
visibility: 0.9018793106079102
","x: 269.5677185058594
y: 298.56561279296875
z: -0.1943722516298294
visibility: 0.963897705078125
","x: 265.9413146972656
y: 296.0760498046875
z: -0.22004671394824982
visibility: 0.9033675193786621
","x: 270.75323486328125
y: 300.48419189453125
z: -0.17293383181095123
visibility: 0.9503687024116516
","x: 266.2530822753906
y: 300.08258056640625
z: -0.19366586208343506
visibility: 0.8816540241241455
","x: 286.37396240234375
y: 377.5349426269531
z: 0.0018688032869249582
visibility: 0.9996061325073242
","x: 264.8074035644531
y: 378.7059020996094
z: -0.001834801398217678
visibility: 0.9995962977409363
","x: 301.0201721191406
y: 432.78875732421875
z: -0.18685059249401093
visibility: 0.9934237003326416
","x: 263.5965270996094
y: 447.251220703125
z: -0.037465859204530716
visibility: 0.9931729435920715
","x: 287.9420471191406
y: 481.6773681640625
z: 0.016434060409665108
visibility: 0.9901072978973389
","x: 266.5570983886719
y: 506.7625427246094
z: 0.09618113934993744
visibility: 0.9938868880271912
","x: 283.23626708984375
y: 484.7486877441406
z: 0.03396500274538994
visibility: 0.8908096551895142
","x: 268.40460205078125
y: 516.8206176757812
z: 0.09912040829658508
visibility: 0.9043421149253845
","x: 290.4156188964844
y: 513.474609375
z: -0.04547034949064255
visibility: 0.9858376383781433
","x: 262.51947021484375
y: 527.0714111328125
z: 0.006774313747882843
visibility: 0.9890003800392151
",5.252543210983276,,,,,,,,,,,,,,,,,,,,,,,,,,,,,,,,,,,,,,,,,,
20,"x: 281.1215515136719
y: 258.3211975097656
z: -0.17275068163871765
visibility: 0.9998583197593689
","x: 282.91680908203125
y: 253.7781982421875
z: -0.15704300999641418
visibility: 0.9996367692947388
","x: 284.0346374511719
y: 253.86534118652344
z: -0.15704657137393951
visibility: 0.9996449947357178
","x: 285.0914001464844
y: 253.99655151367188
z: -0.1570846140384674
visibility: 0.9996418356895447
","x: 279.25927734375
y: 253.6602783203125
z: -0.15571628510951996
visibility: 0.9995502829551697
","x: 277.9300231933594
y: 253.6634521484375
z: -0.15573087334632874
visibility: 0.9994361996650696
","x: 276.6642761230469
y: 253.71275329589844
z: -0.1557144820690155
visibility: 0.9993737936019897
","x: 286.6766052246094
y: 257.06103515625
z: -0.06777720898389816
visibility: 0.9995279312133789
","x: 274.6936340332031
y: 257.0008239746094
z: -0.060473889112472534
visibility: 0.998325526714325
","x: 283.22314453125
y: 264.816162109375
z: -0.1395093947649002
visibility: 0.9997598528862
","x: 278.5228271484375
y: 264.95147705078125
z: -0.13763470947742462
visibility: 0.9996338486671448
","x: 298.4169006347656
y: 285.74609375
z: -0.028631310909986496
visibility: 0.9998559951782227
","x: 263.61126708984375
y: 293.7706298828125
z: -0.013881114311516285
visibility: 0.9994758367538452
","x: 302.04193115234375
y: 327.1177978515625
z: -0.12688061594963074
visibility: 0.9869346022605896
","x: 261.3839111328125
y: 342.94610595703125
z: -0.11307146400213242
visibility: 0.9422504305839539
","x: 284.4996032714844
y: 299.0826110839844
z: -0.27394095063209534
visibility: 0.9843380451202393
","x: 267.9645080566406
y: 301.18267822265625
z: -0.2781049609184265
visibility: 0.9404966831207275
","x: 281.7184143066406
y: 289.1252746582031
z: -0.3048890233039856
visibility: 0.9643005728721619
","x: 269.26409912109375
y: 288.8941345214844
z: -0.3119703531265259
visibility: 0.9078432321548462
","x: 280.9447326660156
y: 285.7962646484375
z: -0.2909112572669983
visibility: 0.9640800356864929
","x: 269.5122985839844
y: 285.6838684082031
z: -0.3029063045978546
visibility: 0.9086387157440186
","x: 281.1868591308594
y: 288.67987060546875
z: -0.27133843302726746
visibility: 0.9497875571250916
","x: 269.72637939453125
y: 289.7578125
z: -0.2786831855773926
visibility: 0.8866220116615295
","x: 293.4345397949219
y: 375.708251953125
z: 0.0017473145853728056
visibility: 0.9996165037155151
","x: 271.3885498046875
y: 378.67291259765625
z: -0.0017720044124871492
visibility: 0.999604344367981
","x: 312.40435791015625
y: 429.1321105957031
z: -0.18489667773246765
visibility: 0.9940143823623657
","x: 263.78466796875
y: 446.9617919921875
z: -0.09646026045084
visibility: 0.9937472939491272
","x: 309.3345031738281
y: 483.36767578125
z: 0.019494587555527687
visibility: 0.9908240437507629
","x: 266.74810791015625
y: 506.50323486328125
z: 0.06805667281150818
visibility: 0.9943613409996033
","x: 305.505126953125
y: 489.0191955566406
z: 0.035598866641521454
visibility: 0.8988251090049744
","x: 268.96832275390625
y: 516.0035400390625
z: 0.07825853675603867
visibility: 0.910981297492981
","x: 316.273681640625
y: 512.8892822265625
z: -0.06127624586224556
visibility: 0.9866585731506348
","x: 262.1437683105469
y: 527.08740234375
z: -0.024551713839173317
visibility: 0.9895833134651184
",5.378258943557739,,,,,,,,,,,,,,,,,,,,,,,,,,,,,,,,,,,,,,,,,,
21,"x: 281.1215515136719
y: 258.3211975097656
z: -0.17275068163871765
visibility: 0.9998583197593689
","x: 282.91680908203125
y: 253.7781982421875
z: -0.15704300999641418
visibility: 0.9996367692947388
","x: 284.0346374511719
y: 253.86534118652344
z: -0.15704657137393951
visibility: 0.9996449947357178
","x: 285.0914001464844
y: 253.99655151367188
z: -0.1570846140384674
visibility: 0.9996418356895447
","x: 279.25927734375
y: 253.6602783203125
z: -0.15571628510951996
visibility: 0.9995502829551697
","x: 277.9300231933594
y: 253.6634521484375
z: -0.15573087334632874
visibility: 0.9994361996650696
","x: 276.6642761230469
y: 253.71275329589844
z: -0.1557144820690155
visibility: 0.9993737936019897
","x: 286.6766052246094
y: 257.06103515625
z: -0.06777720898389816
visibility: 0.9995279312133789
","x: 274.6936340332031
y: 257.0008239746094
z: -0.060473889112472534
visibility: 0.998325526714325
","x: 283.22314453125
y: 264.816162109375
z: -0.1395093947649002
visibility: 0.9997598528862
","x: 278.5228271484375
y: 264.95147705078125
z: -0.13763470947742462
visibility: 0.9996338486671448
","x: 298.4169006347656
y: 285.74609375
z: -0.028631310909986496
visibility: 0.9998559951782227
","x: 263.61126708984375
y: 293.7706298828125
z: -0.013881114311516285
visibility: 0.9994758367538452
","x: 302.04193115234375
y: 327.1177978515625
z: -0.12688061594963074
visibility: 0.9869346022605896
","x: 261.3839111328125
y: 342.94610595703125
z: -0.11307146400213242
visibility: 0.9422504305839539
","x: 284.4996032714844
y: 299.0826110839844
z: -0.27394095063209534
visibility: 0.9843380451202393
","x: 267.9645080566406
y: 301.18267822265625
z: -0.2781049609184265
visibility: 0.9404966831207275
","x: 281.7184143066406
y: 289.1252746582031
z: -0.3048890233039856
visibility: 0.9643005728721619
","x: 269.26409912109375
y: 288.8941345214844
z: -0.3119703531265259
visibility: 0.9078432321548462
","x: 280.9447326660156
y: 285.7962646484375
z: -0.2909112572669983
visibility: 0.9640800356864929
","x: 269.5122985839844
y: 285.6838684082031
z: -0.3029063045978546
visibility: 0.9086387157440186
","x: 281.1868591308594
y: 288.67987060546875
z: -0.27133843302726746
visibility: 0.9497875571250916
","x: 269.72637939453125
y: 289.7578125
z: -0.2786831855773926
visibility: 0.8866220116615295
","x: 293.4345397949219
y: 375.708251953125
z: 0.0017473145853728056
visibility: 0.9996165037155151
","x: 271.3885498046875
y: 378.67291259765625
z: -0.0017720044124871492
visibility: 0.999604344367981
","x: 312.40435791015625
y: 429.1321105957031
z: -0.18489667773246765
visibility: 0.9940143823623657
","x: 263.78466796875
y: 446.9617919921875
z: -0.09646026045084
visibility: 0.9937472939491272
","x: 309.3345031738281
y: 483.36767578125
z: 0.019494587555527687
visibility: 0.9908240437507629
","x: 266.74810791015625
y: 506.50323486328125
z: 0.06805667281150818
visibility: 0.9943613409996033
","x: 305.505126953125
y: 489.0191955566406
z: 0.035598866641521454
visibility: 0.8988251090049744
","x: 268.96832275390625
y: 516.0035400390625
z: 0.07825853675603867
visibility: 0.910981297492981
","x: 316.273681640625
y: 512.8892822265625
z: -0.06127624586224556
visibility: 0.9866585731506348
","x: 262.1437683105469
y: 527.08740234375
z: -0.024551713839173317
visibility: 0.9895833134651184
",5.378258943557739,,,,,,,,,,,,,,,,,,,,,,,,,,,,,,,,,,,,,,,,,,
22,"x: 288.5022888183594
y: 259.46234130859375
z: -0.2793098986148834
visibility: 0.9998723268508911
","x: 289.9261474609375
y: 254.83767700195312
z: -0.26596060395240784
visibility: 0.9996721744537354
","x: 290.9222717285156
y: 254.94439697265625
z: -0.2659442722797394
visibility: 0.9996795654296875
","x: 291.9112243652344
y: 255.11251831054688
z: -0.26595383882522583
visibility: 0.9996767044067383
","x: 286.6451110839844
y: 254.8288116455078
z: -0.2651374042034149
visibility: 0.9995943307876587
","x: 285.34454345703125
y: 254.9337158203125
z: -0.2651918828487396
visibility: 0.9994916319847107
","x: 283.9909973144531
y: 255.11842346191406
z: -0.2651861906051636
visibility: 0.9994354844093323
","x: 293.1854248046875
y: 258.2766418457031
z: -0.17543266713619232
visibility: 0.9995736479759216
","x: 281.51226806640625
y: 258.762939453125
z: -0.1704808622598648
visibility: 0.9984914064407349
","x: 290.26422119140625
y: 266.1873779296875
z: -0.24448128044605255
visibility: 0.9997835159301758
","x: 285.89727783203125
y: 266.6000671386719
z: -0.24321886897087097
visibility: 0.9996699690818787
","x: 305.37554931640625
y: 289.86065673828125
z: -0.11473061144351959
visibility: 0.9998700022697449
","x: 272.26470947265625
y: 294.8377380371094
z: -0.07647860795259476
visibility: 0.9995269179344177
","x: 316.0167236328125
y: 328.11590576171875
z: -0.0952027291059494
visibility: 0.9881005883216858
","x: 266.2519226074219
y: 342.281982421875
z: -0.04507817327976227
visibility: 0.9458566904067993
","x: 320.21978759765625
y: 368.20806884765625
z: -0.16701792180538177
visibility: 0.9856141209602356
","x: 266.14398193359375
y: 375.0279235839844
z: -0.12873972952365875
visibility: 0.9446110725402832
","x: 323.4480895996094
y: 380.5591125488281
z: -0.18820711970329285
visibility: 0.9668928384780884
","x: 268.0929260253906
y: 383.72271728515625
z: -0.15423531830310822
visibility: 0.9129864573478699
","x: 320.2265319824219
y: 382.8472595214844
z: -0.21651974320411682
visibility: 0.9667818546295166
","x: 266.7435607910156
y: 385.1042175292969
z: -0.1853417605161667
visibility: 0.9140901565551758
","x: 318.3769836425781
y: 378.5364990234375
z: -0.17928625643253326
visibility: 0.9534879326820374
","x: 268.010498046875
y: 381.9990539550781
z: -0.1434500515460968
visibility: 0.8936625719070435
","x: 305.25811767578125
y: 379.1611022949219
z: -0.009582019411027431
visibility: 0.9996464848518372
","x: 283.17547607421875
y: 381.7294006347656
z: 0.009494831785559654
visibility: 0.9996411204338074
","x: 319.16937255859375
y: 447.724853515625
z: -0.08246662467718124
visibility: 0.994504451751709
","x: 265.79248046875
y: 446.88043212890625
z: -0.10739044845104218
visibility: 0.9943209290504456
","x: 332.20269775390625
y: 501.66455078125
z: 0.09327449649572372
visibility: 0.9915887713432312
","x: 270.65478515625
y: 506.36859130859375
z: 0.05923983454704285
visibility: 0.9948574304580688
","x: 331.3954772949219
y: 507.46197509765625
z: 0.09991336613893509
visibility: 0.9017704129219055
","x: 276.2257385253906
y: 515.9210815429688
z: 0.06894485652446747
visibility: 0.9186077117919922
","x: 337.3904113769531
y: 526.6021728515625
z: -0.03072335384786129
visibility: 0.9875572323799133
","x: 262.1383056640625
y: 527.0855712890625
z: -0.03205818682909012
visibility: 0.9904318451881409
",5.519015789031982,,,,,,,,,,,,,,,,,,,,,,"x: 265.4168701171875
y: 381.75299072265625
z: 0.0
","x: 266.3475646972656
y: 386.45831298828125
z: 0.00028846689383499324
","x: 267.18109130859375
y: 392.3124694824219
z: -0.0011045555584132671
","x: 268.5805969238281
y: 396.58502197265625
z: -0.0030272481963038445
","x: 270.3880920410156
y: 399.2620849609375
z: -0.00486241839826107
","x: 266.1925964355469
y: 396.0072021484375
z: -0.0018759914673864841
","x: 264.8567199707031
y: 401.10198974609375
z: -0.004032728727906942
","x: 264.0060119628906
y: 404.48382568359375
z: -0.005521455314010382
","x: 263.30804443359375
y: 407.1640319824219
z: -0.006584597285836935
","x: 265.50384521484375
y: 394.7666015625
z: -0.003771283430978656
","x: 262.0530090332031
y: 398.5322265625
z: -0.0058500864543020725
","x: 259.93310546875
y: 400.12109375
z: -0.006827628705650568
","x: 258.2508850097656
y: 401.5466613769531
z: -0.0077064549550414085
","x: 264.76300048828125
y: 392.7609558105469
z: -0.005645895376801491
","x: 261.4200439453125
y: 395.7830810546875
z: -0.007521765306591988
","x: 259.2765197753906
y: 397.1361083984375
z: -0.008023025467991829
","x: 257.6725769042969
y: 398.00079345703125
z: -0.008549906313419342
","x: 264.0868835449219
y: 390.1647644042969
z: -0.007553997915238142
","x: 261.84149169921875
y: 392.2052307128906
z: -0.008777233771979809
","x: 260.48492431640625
y: 392.5262451171875
z: -0.008762044832110405
","x: 259.4078369140625
y: 392.448486328125
z: -0.008889108896255493
"
23,"x: 288.5022888183594
y: 259.46234130859375
z: -0.2793098986148834
visibility: 0.9998723268508911
","x: 289.9261474609375
y: 254.83767700195312
z: -0.26596060395240784
visibility: 0.9996721744537354
","x: 290.9222717285156
y: 254.94439697265625
z: -0.2659442722797394
visibility: 0.9996795654296875
