uscmakers/ReverseChoreography/data/10_get_up_ciara.csv
,NOSE,LEFT_EYE_INNER,LEFT_EYE,LEFT_EYE_OUTER,RIGHT_EYE_INNER,RIGHT_EYE,RIGHT_EYE_OUTER,LEFT_EAR,RIGHT_EAR,MOUTH_LEFT,MOUTH_RIGHT,LEFT_SHOULDER,RIGHT_SHOULDER,LEFT_ELBOW,RIGHT_ELBOW,LEFT_WRIST,RIGHT_WRIST,LEFT_PINKY,RIGHT_PINKY,LEFT_INDEX,RIGHT_INDEX,LEFT_THUMB,RIGHT_THUMB,LEFT_HIP,RIGHT_HIP,LEFT_KNEE,RIGHT_KNEE,LEFT_ANKLE,RIGHT_ANKLE,LEFT_HEEL,RIGHT_HEEL,LEFT_FOOT_INDEX,RIGHT_FOOT_INDEX,TIMESTAMP,WRIST,THUMB_CPC,THUMB_MCP,THUMB_IP,THUMB_TIP,INDEX_FINGER_MCP,INDEX_FINGER_PIP,INDEX_FINGER_DIP,INDEX_FINGER_TIP,MIDDLE_FINGER_MCP,MIDDLE_FINGER_PIP,MIDDLE_FINGER_DIP,MIDDLE_FINGER_TIP,RING_FINGER_PIP,RING_FINGER_DIP,RING_FINGER_TIP,RING_FINGER_MCP,PINKY_MCP,PINKY_PIP,PINKY_DIP,PINKY_TIP,WRIST2,THUMB_CPC2,THUMB_MCP2,THUMB_IP2,THUMB_TIP2,INDEX_FINGER_MCP2,INDEX_FINGER_PIP2,INDEX_FINGER_DIP2,INDEX_FINGER_TIP2,MIDDLE_FINGER_MCP2,MIDDLE_FINGER_PIP2,MIDDLE_FINGER_DIP2,MIDDLE_FINGER_TIP2,RING_FINGER_PIP2,RING_FINGER_DIP2,RING_FINGER_TIP2,RING_FINGER_MCP2,PINKY_MCP2,PINKY_PIP2,PINKY_DIP2,PINKY_TIP2
0,"x: 263.222900390625
y: 256.9601135253906
z: -0.22010120749473572
visibility: 0.9999512434005737
","x: 265.232177734375
y: 253.3345947265625
z: -0.2058197557926178
visibility: 0.9998291730880737
","x: 266.22235107421875
y: 253.65237426757812
z: -0.20585277676582336
visibility: 0.9998258948326111
","x: 267.272705078125
y: 254.04884338378906
z: -0.20588728785514832
visibility: 0.9998520612716675
","x: 261.6260681152344
y: 252.45790100097656
z: -0.2076750099658966
visibility: 0.999815046787262
","x: 260.1771545410156
y: 252.33062744140625
z: -0.2076699435710907
visibility: 0.9997640252113342
","x: 258.8487854003906
y: 252.20538330078125
z: -0.20765666663646698
visibility: 0.9997448325157166
","x: 268.7403259277344
y: 257.95556640625
z: -0.11704506725072861
visibility: 0.9996001124382019
","x: 256.44549560546875
y: 254.7655487060547
z: -0.12615163624286652
visibility: 0.9993903636932373
","x: 265.17462158203125
y: 264.6783447265625
z: -0.18646475672721863
visibility: 0.9998979568481445
","x: 260.11029052734375
y: 263.9139099121094
z: -0.1891433596611023
visibility: 0.9998420476913452
","x: 277.1816101074219
y: 293.022216796875
z: -0.06250229477882385
visibility: 0.9999467134475708
","x: 244.21331787109375
y: 287.41180419921875
z: -0.05698677897453308
visibility: 0.9996172189712524
","x: 283.35174560546875
y: 328.5440368652344
z: -0.02433912456035614
visibility: 0.9867196679115295
","x: 235.71702575683594
y: 324.4668273925781
z: -0.020677287131547928
visibility: 0.9391369819641113
","x: 279.339111328125
y: 351.716796875
z: -0.1087399497628212
visibility: 0.9658297300338745
","x: 238.57791137695312
y: 347.0007019042969
z: -0.09320452064275742
visibility: 0.8333062529563904
","x: 276.95074462890625
y: 363.53704833984375
z: -0.13571318984031677
visibility: 0.9250283241271973
","x: 239.00936889648438
y: 356.97442626953125
z: -0.11649119853973389
visibility: 0.7403413653373718
","x: 275.0977478027344
y: 360.8759765625
z: -0.15837720036506653
visibility: 0.9303041100502014
","x: 241.25619506835938
y: 354.7459411621094
z: -0.1390613317489624
visibility: 0.7481563687324524
","x: 275.2637023925781
y: 357.0356750488281
z: -0.11917029321193695
visibility: 0.9067400693893433
","x: 241.55459594726562
y: 352.016357421875
z: -0.10395094007253647
visibility: 0.7193865776062012
","x: 265.6831970214844
y: 371.2953186035156
z: -0.003387622069567442
visibility: 0.9995453953742981
","x: 247.1544189453125
y: 369.8995666503906
z: 0.0034290128387510777
visibility: 0.9992881417274475
","x: 261.00433349609375
y: 434.7713928222656
z: -0.028448129072785378
visibility: 0.9884753227233887
","x: 245.69403076171875
y: 433.06683349609375
z: 0.022649692371487617
visibility: 0.9851585030555725
","x: 258.41363525390625
y: 496.819580078125
z: 0.04858320578932762
visibility: 0.98976069688797
","x: 246.2313995361328
y: 486.0137634277344
z: 0.15654167532920837
visibility: 0.9839566349983215
","x: 256.29986572265625
y: 504.0869445800781
z: 0.049853093922138214
visibility: 0.9180469512939453
","x: 247.5698699951172
y: 493.88470458984375
z: 0.16365037858486176
visibility: 0.8661726713180542
","x: 261.2900695800781
y: 513.7042236328125
z: -0.05426747724413872
visibility: 0.9853004813194275
","x: 240.4562225341797
y: 508.4537048339844
z: 0.07363184541463852
visibility: 0.978357195854187
",3.895486354827881,,,,,,,,,,,,,,,,,,,,,,,,,,,,,,,,,,,,,,,,,,
1,"x: 263.222900390625
y: 256.9601135253906
z: -0.22010120749473572
visibility: 0.9999512434005737
","x: 265.232177734375
y: 253.3345947265625
z: -0.2058197557926178
visibility: 0.9998291730880737
","x: 266.22235107421875
y: 253.65237426757812
z: -0.20585277676582336
visibility: 0.9998258948326111
","x: 267.272705078125
y: 254.04884338378906
z: -0.20588728785514832
visibility: 0.9998520612716675
","x: 261.6260681152344
y: 252.45790100097656
z: -0.2076750099658966
visibility: 0.999815046787262
","x: 260.1771545410156
y: 252.33062744140625
z: -0.2076699435710907
visibility: 0.9997640252113342
","x: 258.8487854003906
y: 252.20538330078125
z: -0.20765666663646698
visibility: 0.9997448325157166
","x: 268.7403259277344
y: 257.95556640625
z: -0.11704506725072861
visibility: 0.9996001124382019
","x: 256.44549560546875
y: 254.7655487060547
z: -0.12615163624286652
visibility: 0.9993903636932373
","x: 265.17462158203125
y: 264.6783447265625
z: -0.18646475672721863
visibility: 0.9998979568481445
","x: 260.11029052734375
y: 263.9139099121094
z: -0.1891433596611023
visibility: 0.9998420476913452
","x: 277.1816101074219
y: 293.022216796875
z: -0.06250229477882385
visibility: 0.9999467134475708
","x: 244.21331787109375
y: 287.41180419921875
z: -0.05698677897453308
visibility: 0.9996172189712524
","x: 283.35174560546875
y: 328.5440368652344
z: -0.02433912456035614
visibility: 0.9867196679115295
","x: 235.71702575683594
y: 324.4668273925781
z: -0.020677287131547928
visibility: 0.9391369819641113
","x: 279.339111328125
y: 351.716796875
z: -0.1087399497628212
visibility: 0.9658297300338745
","x: 238.57791137695312
y: 347.0007019042969
z: -0.09320452064275742
visibility: 0.8333062529563904
","x: 276.95074462890625
y: 363.53704833984375
z: -0.13571318984031677
visibility: 0.9250283241271973
","x: 239.00936889648438
y: 356.97442626953125
z: -0.11649119853973389
visibility: 0.7403413653373718
","x: 275.0977478027344
y: 360.8759765625
z: -0.15837720036506653
visibility: 0.9303041100502014
","x: 241.25619506835938
y: 354.7459411621094
z: -0.1390613317489624
visibility: 0.7481563687324524
","x: 275.2637023925781
y: 357.0356750488281
z: -0.11917029321193695
visibility: 0.9067400693893433
","x: 241.55459594726562
y: 352.016357421875
z: -0.10395094007253647
visibility: 0.7193865776062012
","x: 265.6831970214844
y: 371.2953186035156
z: -0.003387622069567442
visibility: 0.9995453953742981
","x: 247.1544189453125
y: 369.8995666503906
z: 0.0034290128387510777
visibility: 0.9992881417274475
","x: 261.00433349609375
y: 434.7713928222656
z: -0.028448129072785378
visibility: 0.9884753227233887
","x: 245.69403076171875
y: 433.06683349609375
z: 0.022649692371487617
visibility: 0.9851585030555725
","x: 258.41363525390625
y: 496.819580078125
z: 0.04858320578932762
visibility: 0.98976069688797
","x: 246.2313995361328
y: 486.0137634277344
z: 0.15654167532920837
visibility: 0.9839566349983215
","x: 256.29986572265625
y: 504.0869445800781
z: 0.049853093922138214
visibility: 0.9180469512939453
","x: 247.5698699951172
y: 493.88470458984375
z: 0.16365037858486176
visibility: 0.8661726713180542
","x: 261.2900695800781
y: 513.7042236328125
z: -0.05426747724413872
visibility: 0.9853004813194275
","x: 240.4562225341797
y: 508.4537048339844
z: 0.07363184541463852
visibility: 0.978357195854187
",3.895486354827881,,,,,,,,,,,,,,,,,,,,,,,,,,,,,,,,,,,,,,,,,,
2,"x: 260.7571105957031
y: 255.82647705078125
z: -0.21812251210212708
visibility: 0.9999555945396423
","x: 262.6678771972656
y: 251.63999938964844
z: -0.20290789008140564
visibility: 0.9998450875282288
","x: 263.9948425292969
y: 252.02175903320312
z: -0.2029225379228592
visibility: 0.9998420476913452
","x: 265.18365478515625
y: 252.40850830078125
z: -0.20292076468467712
visibility: 0.9998655915260315
","x: 258.8935241699219
y: 251.2915802001953
z: -0.2039792239665985
visibility: 0.9998323321342468
","x: 257.5960693359375
y: 251.3819580078125
z: -0.20400139689445496
visibility: 0.9997862577438354
","x: 256.5372314453125
y: 251.48159790039062
z: -0.20400507748126984
visibility: 0.9997689127922058
","x: 266.7844543457031
y: 256.4588623046875
z: -0.10997460782527924
visibility: 0.999637246131897
","x: 254.5675048828125
y: 254.7469940185547
z: -0.11543254554271698
visibility: 0.9994490146636963
","x: 263.4047546386719
y: 263.70794677734375
z: -0.18366724252700806
visibility: 0.9999076724052429
","x: 257.9709167480469
y: 263.1719970703125
z: -0.18540219962596893
visibility: 0.9998573660850525
","x: 275.8510437011719
y: 292.94268798828125
z: -0.05510226637125015
visibility: 0.999950647354126
","x: 242.43023681640625
y: 287.95184326171875
z: -0.06031112000346184
visibility: 0.9996517300605774
","x: 282.0346984863281
y: 329.81744384765625
z: -0.07583171129226685
visibility: 0.9874429702758789
","x: 235.00108337402344
y: 326.78045654296875
z: -0.09583896398544312
visibility: 0.9439745545387268
","x: 276.1119689941406
y: 359.68267822265625
z: -0.21689128875732422
visibility: 0.9684537649154663
","x: 240.903564453125
y: 350.30084228515625
z: -0.23375988006591797
visibility: 0.8473815321922302
","x: 274.0937194824219
y: 372.5901794433594
z: -0.25567150115966797
visibility: 0.9307123422622681
","x: 241.0251922607422
y: 363.72021484375
z: -0.27104705572128296
visibility: 0.761443555355072
","x: 271.9487609863281
y: 369.7203369140625
z: -0.2751838266849518
visibility: 0.9355799555778503
","x: 244.3934783935547
y: 361.8954772949219
z: -0.2845277488231659
visibility: 0.7685627937316895
","x: 271.79833984375
y: 365.8471984863281
z: -0.22741584479808807
visibility: 0.9134514331817627
","x: 245.07562255859375
y: 357.5096435546875
z: -0.24146568775177002
visibility: 0.7406968474388123
","x: 265.6277770996094
y: 371.937255859375
z: 0.0033708426635712385
visibility: 0.9995740056037903
","x: 246.874755859375
y: 370.7171630859375
z: -0.003359370632097125
visibility: 0.9993466734886169
","x: 260.5456237792969
y: 435.6663818359375
z: 0.007698587141931057
visibility: 0.9886517524719238
","x: 244.85040283203125
y: 434.5814514160156
z: -0.012715643271803856
visibility: 0.9856655597686768
","x: 258.8392333984375
y: 496.8114013671875
z: 0.1130959540605545
visibility: 0.9899764060974121
","x: 242.28964233398438
y: 494.91412353515625
z: 0.09863351285457611
visibility: 0.9846106767654419
","x: 256.20013427734375
y: 504.9810485839844
z: 0.11722519248723984
visibility: 0.9187796115875244
","x: 244.00808715820312
y: 502.71124267578125
z: 0.10299111902713776
visibility: 0.8628526329994202
","x: 261.7377624511719
y: 513.8800659179688
z: 0.01296973042190075
visibility: 0.9856809973716736
","x: 240.10116577148438
y: 514.1992797851562
z: -0.003542943624779582
visibility: 0.9790722727775574
",4.5010154247283936,"x: 242.34146118164062
y: 350.9327697753906
z: 0.0
","x: 245.3489990234375
y: 355.2850646972656
z: 0.0023376650642603636
","x: 246.50570678710938
y: 361.43243408203125
z: 0.0031490903347730637
","x: 245.97779846191406
y: 366.2001953125
z: 0.003581796307116747
","x: 245.19728088378906
y: 369.07281494140625
z: 0.0042645628564059734
","x: 246.601806640625
y: 365.2693176269531
z: 0.0002654674171935767
","x: 247.23712158203125
y: 373.35040283203125
z: 0.00019959603378083557
","x: 246.6544189453125
y: 375.80828857421875
z: 0.0015428999904543161
","x: 245.93362426757812
y: 376.22772216796875
z: 0.0029223032761365175
","x: 244.5192413330078
y: 366.0845947265625
z: -0.0009649231797084212
","x: 245.07447814941406
y: 374.13018798828125
z: -0.0006170758279040456
","x: 244.68736267089844
y: 376.5989685058594
z: 0.0012955868151038885
","x: 244.2247314453125
y: 376.9210510253906
z: 0.0028659277595579624
","x: 242.4901123046875
y: 365.9034729003906
z: -0.002028681570664048
","x: 242.46633911132812
y: 373.19146728515625
z: -0.002017935737967491
","x: 242.43150329589844
y: 375.3800964355469
z: -0.000726575031876564
","x: 242.4181365966797
y: 375.75732421875
z: 0.0004208979953546077
","x: 240.54928588867188
y: 364.90130615234375
z: -0.0029277345165610313
","x: 240.17257690429688
y: 369.875244140625
z: -0.0029777102172374725
","x: 240.15220642089844
y: 371.2599182128906
z: -0.002263677306473255
","x: 240.2552947998047
y: 371.3426513671875
z: -0.0013942450750619173
",,,,,,,,,,,,,,,,,,,,,
3,"x: 260.7571105957031
y: 255.82647705078125
z: -0.21812251210212708
visibility: 0.9999555945396423
","x: 262.6678771972656
y: 251.63999938964844
z: -0.20290789008140564
visibility: 0.9998450875282288
","x: 263.9948425292969
y: 252.02175903320312
z: -0.2029225379228592
visibility: 0.9998420476913452
","x: 265.18365478515625
y: 252.40850830078125
z: -0.20292076468467712
visibility: 0.9998655915260315
","x: 258.8935241699219
y: 251.2915802001953
z: -0.2039792239665985
visibility: 0.9998323321342468
","x: 257.5960693359375
y: 251.3819580078125
z: -0.20400139689445496
visibility: 0.9997862577438354
","x: 256.5372314453125
y: 251.48159790039062
z: -0.20400507748126984
visibility: 0.9997689127922058
","x: 266.7844543457031
y: 256.4588623046875
z: -0.10997460782527924
visibility: 0.999637246131897
","x: 254.5675048828125
y: 254.7469940185547
z: -0.11543254554271698
visibility: 0.9994490146636963
","x: 263.4047546386719
y: 263.70794677734375
z: -0.18366724252700806
visibility: 0.9999076724052429
","x: 257.9709167480469
y: 263.1719970703125
z: -0.18540219962596893
visibility: 0.9998573660850525
","x: 275.8510437011719
y: 292.94268798828125
z: -0.05510226637125015
visibility: 0.999950647354126
","x: 242.43023681640625
y: 287.95184326171875
z: -0.06031112000346184
visibility: 0.9996517300605774
","x: 282.0346984863281
y: 329.81744384765625
z: -0.07583171129226685
visibility: 0.9874429702758789
","x: 235.00108337402344
y: 326.78045654296875
z: -0.09583896398544312
visibility: 0.9439745545387268
","x: 276.1119689941406
y: 359.68267822265625
z: -0.21689128875732422
visibility: 0.9684537649154663
","x: 240.903564453125
y: 350.30084228515625
z: -0.23375988006591797
visibility: 0.8473815321922302
","x: 274.0937194824219
y: 372.5901794433594
z: -0.25567150115966797
visibility: 0.9307123422622681
","x: 241.0251922607422
y: 363.72021484375
z: -0.27104705572128296
visibility: 0.761443555355072
","x: 271.9487609863281
y: 369.7203369140625
z: -0.2751838266849518
visibility: 0.9355799555778503
","x: 244.3934783935547
y: 361.8954772949219
z: -0.2845277488231659
visibility: 0.7685627937316895
","x: 271.79833984375
y: 365.8471984863281
z: -0.22741584479808807
visibility: 0.9134514331817627
","x: 245.07562255859375
y: 357.5096435546875
z: -0.24146568775177002
visibility: 0.7406968474388123
","x: 265.6277770996094
y: 371.937255859375
z: 0.0033708426635712385
visibility: 0.9995740056037903
","x: 246.874755859375
y: 370.7171630859375
z: -0.003359370632097125
visibility: 0.9993466734886169
","x: 260.5456237792969
y: 435.6663818359375
z: 0.007698587141931057
visibility: 0.9886517524719238
","x: 244.85040283203125
y: 434.5814514160156
z: -0.012715643271803856
visibility: 0.9856655597686768
","x: 258.8392333984375
y: 496.8114013671875
z: 0.1130959540605545
visibility: 0.9899764060974121
","x: 242.28964233398438
y: 494.91412353515625
z: 0.09863351285457611
visibility: 0.9846106767654419
","x: 256.20013427734375
y: 504.9810485839844
z: 0.11722519248723984
visibility: 0.9187796115875244
","x: 244.00808715820312
y: 502.71124267578125
z: 0.10299111902713776
visibility: 0.8628526329994202
","x: 261.7377624511719
y: 513.8800659179688
z: 0.01296973042190075
visibility: 0.9856809973716736
","x: 240.10116577148438
y: 514.1992797851562
z: -0.003542943624779582
visibility: 0.9790722727775574
",4.5010154247283936,"x: 242.34146118164062
y: 350.9327697753906
z: 0.0
","x: 245.3489990234375
y: 355.2850646972656
z: 0.0023376650642603636
","x: 246.50570678710938
y: 361.43243408203125
z: 0.0031490903347730637
","x: 245.97779846191406
y: 366.2001953125
z: 0.003581796307116747
","x: 245.19728088378906
y: 369.07281494140625
z: 0.0042645628564059734
","x: 246.601806640625
y: 365.2693176269531
z: 0.0002654674171935767
","x: 247.23712158203125
y: 373.35040283203125
z: 0.00019959603378083557
","x: 246.6544189453125
y: 375.80828857421875
z: 0.0015428999904543161
","x: 245.93362426757812
y: 376.22772216796875
z: 0.0029223032761365175
","x: 244.5192413330078
y: 366.0845947265625
z: -0.0009649231797084212
","x: 245.07447814941406
y: 374.13018798828125
z: -0.0006170758279040456
","x: 244.68736267089844
y: 376.5989685058594
z: 0.0012955868151038885
","x: 244.2247314453125
y: 376.9210510253906
z: 0.0028659277595579624
","x: 242.4901123046875
y: 365.9034729003906
z: -0.002028681570664048
","x: 242.46633911132812
y: 373.19146728515625
z: -0.002017935737967491
","x: 242.43150329589844
y: 375.3800964355469
z: -0.000726575031876564
","x: 242.4181365966797
y: 375.75732421875
z: 0.0004208979953546077
","x: 240.54928588867188
y: 364.90130615234375
z: -0.0029277345165610313
","x: 240.17257690429688
y: 369.875244140625
z: -0.0029777102172374725
","x: 240.15220642089844
y: 371.2599182128906
z: -0.002263677306473255
","x: 240.2552947998047
y: 371.3426513671875
z: -0.0013942450750619173
",,,,,,,,,,,,,,,,,,,,,
4,"x: 260.7571105957031
y: 255.82647705078125
z: -0.21812251210212708
visibility: 0.9999555945396423
","x: 262.6678771972656
y: 251.63999938964844
z: -0.20290789008140564
visibility: 0.9998450875282288
","x: 263.9948425292969
y: 252.02175903320312
z: -0.2029225379228592
visibility: 0.9998420476913452
","x: 265.18365478515625
y: 252.40850830078125
z: -0.20292076468467712
visibility: 0.9998655915260315
","x: 258.8935241699219
y: 251.2915802001953
z: -0.2039792239665985
visibility: 0.9998323321342468
","x: 257.5960693359375
y: 251.3819580078125
z: -0.20400139689445496
visibility: 0.9997862577438354
","x: 256.5372314453125
y: 251.48159790039062
z: -0.20400507748126984
visibility: 0.9997689127922058
","x: 266.7844543457031
y: 256.4588623046875
z: -0.10997460782527924
visibility: 0.999637246131897
","x: 254.5675048828125
y: 254.7469940185547
z: -0.11543254554271698
visibility: 0.9994490146636963
","x: 263.4047546386719
y: 263.70794677734375
z: -0.18366724252700806
visibility: 0.9999076724052429
","x: 257.9709167480469
y: 263.1719970703125
z: -0.18540219962596893
visibility: 0.9998573660850525
","x: 275.8510437011719
y: 292.94268798828125
z: -0.05510226637125015
visibility: 0.999950647354126
","x: 242.43023681640625
y: 287.95184326171875
z: -0.06031112000346184
visibility: 0.9996517300605774
","x: 282.0346984863281
y: 329.81744384765625
z: -0.07583171129226685
visibility: 0.9874429702758789
","x: 235.00108337402344
y: 326.78045654296875
z: -0.09583896398544312
visibility: 0.9439745545387268
","x: 276.1119689941406
y: 359.68267822265625
z: -0.21689128875732422
visibility: 0.9684537649154663
","x: 240.903564453125
y: 350.30084228515625
z: -0.23375988006591797
visibility: 0.8473815321922302
","x: 274.0937194824219
y: 372.5901794433594
z: -0.25567150115966797
visibility: 0.9307123422622681
","x: 241.0251922607422
y: 363.72021484375
z: -0.27104705572128296
visibility: 0.761443555355072
","x: 271.9487609863281
y: 369.7203369140625
z: -0.2751838266849518
visibility: 0.9355799555778503
","x: 244.3934783935547
y: 361.8954772949219
z: -0.2845277488231659
visibility: 0.7685627937316895
","x: 271.79833984375
y: 365.8471984863281
z: -0.22741584479808807
visibility: 0.9134514331817627
","x: 245.07562255859375
y: 357.5096435546875
z: -0.24146568775177002
visibility: 0.7406968474388123
","x: 265.6277770996094
y: 371.937255859375
z: 0.0033708426635712385
visibility: 0.9995740056037903
","x: 246.874755859375
y: 370.7171630859375
z: -0.003359370632097125
visibility: 0.9993466734886169
","x: 260.5456237792969
y: 435.6663818359375
z: 0.007698587141931057
visibility: 0.9886517524719238
","x: 244.85040283203125
y: 434.5814514160156
z: -0.012715643271803856
visibility: 0.9856655597686768
","x: 258.8392333984375
y: 496.8114013671875
z: 0.1130959540605545
visibility: 0.9899764060974121
","x: 242.28964233398438
y: 494.91412353515625
z: 0.09863351285457611
visibility: 0.9846106767654419
","x: 256.20013427734375
y: 504.9810485839844
z: 0.11722519248723984
visibility: 0.9187796115875244
","x: 244.00808715820312
y: 502.71124267578125
z: 0.10299111902713776
visibility: 0.8628526329994202
","x: 261.7377624511719
y: 513.8800659179688
z: 0.01296973042190075
visibility: 0.9856809973716736
","x: 240.10116577148438
y: 514.1992797851562
z: -0.003542943624779582
visibility: 0.9790722727775574
",4.5010154247283936,"x: 242.34146118164062
y: 350.9327697753906
z: 0.0
","x: 245.3489990234375
y: 355.2850646972656
z: 0.0023376650642603636
","x: 246.50570678710938
y: 361.43243408203125
z: 0.0031490903347730637
","x: 245.97779846191406
y: 366.2001953125
z: 0.003581796307116747
","x: 245.19728088378906
y: 369.07281494140625
z: 0.0042645628564059734
","x: 246.601806640625
y: 365.2693176269531
z: 0.0002654674171935767
","x: 247.23712158203125
y: 373.35040283203125
z: 0.00019959603378083557
","x: 246.6544189453125
y: 375.80828857421875
z: 0.0015428999904543161
","x: 245.93362426757812
y: 376.22772216796875
z: 0.0029223032761365175
","x: 244.5192413330078
y: 366.0845947265625
z: -0.0009649231797084212
","x: 245.07447814941406
y: 374.13018798828125
z: -0.0006170758279040456
","x: 244.68736267089844
y: 376.5989685058594
z: 0.0012955868151038885
","x: 244.2247314453125
y: 376.9210510253906
z: 0.0028659277595579624
","x: 242.4901123046875
y: 365.9034729003906
z: -0.002028681570664048
","x: 242.46633911132812
y: 373.19146728515625
z: -0.002017935737967491
","x: 242.43150329589844
y: 375.3800964355469
z: -0.000726575031876564
","x: 242.4181365966797
y: 375.75732421875
z: 0.0004208979953546077
","x: 240.54928588867188
y: 364.90130615234375
z: -0.0029277345165610313
","x: 240.17257690429688
y: 369.875244140625
z: -0.0029777102172374725
","x: 240.15220642089844
y: 371.2599182128906
z: -0.002263677306473255
","x: 240.2552947998047
y: 371.3426513671875
z: -0.0013942450750619173
",,,,,,,,,,,,,,,,,,,,,
5,"x: 258.6609191894531
y: 254.87249755859375
z: -0.21822233498096466
visibility: 0.9999592304229736
","x: 260.499755859375
y: 250.69960021972656
z: -0.2026001662015915
visibility: 0.9998586773872375
","x: 261.760498046875
y: 251.08694458007812
z: -0.20261433720588684
visibility: 0.9998556971549988
","x: 263.0286865234375
y: 251.54214477539062
z: -0.2026118040084839
visibility: 0.999876856803894
","x: 256.7190856933594
y: 250.2320556640625
z: -0.20395226776599884
visibility: 0.9998471736907959
","x: 255.62030029296875
y: 250.28106689453125
z: -0.20397627353668213
visibility: 0.9998054504394531
","x: 254.55445861816406
y: 250.38941955566406
z: -0.20398226380348206
visibility: 0.9997897744178772
","x: 264.5143737792969
y: 255.50836181640625
z: -0.10710412263870239
visibility: 0.9996688961982727
","x: 252.07293701171875
y: 254.3002166748047
z: -0.11538007110357285
visibility: 0.999500572681427
","x: 261.20904541015625
y: 262.7801818847656
z: -0.1835189163684845
visibility: 0.999916136264801
","x: 255.8961639404297
y: 262.2934265136719
z: -0.1856301724910736
visibility: 0.999871015548706
","x: 273.5172119140625
y: 292.8787536621094
z: -0.05020543932914734
visibility: 0.9999534487724304
","x: 239.78668212890625
y: 288.69329833984375
z: -0.06349039077758789
visibility: 0.9996804594993591
","x: 280.9695129394531
y: 330.6428527832031
z: -0.062166161835193634
visibility: 0.9879798889160156
","x: 231.55865478515625
y: 327.2036437988281
z: -0.10704706609249115
visibility: 0.9477201700210571
","x: 275.9680480957031
y: 364.039794921875
z: -0.18635249137878418
visibility: 0.970389723777771
","x: 238.6832733154297
y: 349.61419677734375
z: -0.25223901867866516
visibility: 0.8587630391120911
","x: 274.5050354003906
y: 378.1120300292969
z: -0.22160856425762177
visibility: 0.9348083734512329
","x: 239.85565185546875
y: 362.5189208984375
z: -0.28962475061416626
visibility: 0.77852863073349
","x: 272.19549560546875
y: 376.0278625488281
z: -0.24194955825805664
visibility: 0.9393893480300903
","x: 244.29879760742188
y: 360.6080322265625
z: -0.30348700284957886
visibility: 0.7851376533508301
","x: 271.76446533203125
y: 371.95062255859375
z: -0.19685593247413635
visibility: 0.918316125869751
","x: 244.98439025878906
y: 356.6877746582031
z: -0.2604343295097351
visibility: 0.7576903700828552
","x: 264.2452697753906
y: 375.00115966796875
z: 0.006924276240170002
visibility: 0.9995973110198975
","x: 245.5172882080078
y: 373.6784362792969
z: -0.006925802677869797
visibility: 0.999397873878479
","x: 259.9622802734375
y: 437.11236572265625
z: 0.019385233521461487
visibility: 0.988869845867157
","x: 243.9379425048828
y: 436.6731262207031
z: -0.018887244164943695
visibility: 0.986044704914093
","x: 258.85772705078125
y: 496.882568359375
z: 0.1454814225435257
visibility: 0.9901500940322876
","x: 241.5452423095703
y: 497.0167541503906
z: 0.10171353816986084
visibility: 0.9852407574653625
","x: 256.0869140625
y: 505.5501708984375
z: 0.15156510472297668
visibility: 0.9194912314414978
","x: 243.2604522705078
y: 504.9189453125
z: 0.1069209948182106
visibility: 0.8614529371261597
","x: 261.8715515136719
y: 514.06396484375
z: 0.048395391553640366
visibility: 0.9859715700149536
","x: 239.92568969726562
y: 516.302001953125
z: -0.0005140650318935513
visibility: 0.9798277616500854
",4.644306182861328,"x: 238.75411987304688
y: 350.44921875
z: 0.0
","x: 242.3804931640625
y: 353.7905578613281
z: 0.0013987129786983132
","x: 245.1006622314453
y: 359.6577453613281
z: 0.0012722177198156714
","x: 246.82852172851562
y: 364.81072998046875
z: 0.0007580826641060412
","x: 247.86538696289062
y: 368.34588623046875
z: 0.0005397570785135031
","x: 243.33627319335938
y: 363.2305603027344
z: -0.0015005490276962519
","x: 244.6475830078125
y: 370.90826416015625
z: -0.00198590150102973
","x: 245.088623046875
y: 371.31951904296875
z: -0.0004267088370397687
","x: 245.02752685546875
y: 370.5131530761719
z: 0.0010343778412789106
","x: 241.2022247314453
y: 364.4075927734375
z: -0.002843744121491909
","x: 242.48536682128906
y: 372.96112060546875
z: -0.002840170171111822
","x: 242.85598754882812
y: 372.4368591308594
z: -0.0004853348946198821
","x: 242.61209106445312
y: 370.3275146484375
z: 0.0014594602398574352
","x: 239.18215942382812
y: 364.72149658203125
z: -0.004042219370603561
","x: 240.15206909179688
y: 372.4729919433594
z: -0.00426042266190052
","x: 240.6350860595703
y: 371.357666015625
z: -0.00202347245067358
","x: 240.5389862060547
y: 369.0667419433594
z: -0.00025077516329474747
","x: 237.31207275390625
y: 364.3680114746094
z: -0.005170102696865797
","x: 237.86610412597656
y: 370.2234191894531
z: -0.005244146101176739
","x: 238.2824249267578
y: 369.4320068359375
z: -0.0038444730453193188
","x: 238.22573852539062
y: 367.50341796875
z: -0.0024943489115685225
","x: 276.445068359375
y: 367.1222229003906
z: 0.0
","x: 272.517578125
y: 370.0738830566406
z: -0.0022256106603890657
","x: 270.5079345703125
y: 375.9285888671875
z: -0.0028744975570589304
","x: 269.9324645996094
y: 382.4097900390625
z: -0.0029317953158169985
","x: 269.363525390625
y: 387.6739196777344
z: -0.0026094780769199133
","x: 273.04296875
y: 384.8465576171875
z: -0.0009259728249162436
","x: 271.44696044921875
y: 392.1003723144531
z: -0.0002904488646890968
","x: 270.06158447265625
y: 395.96881103515625
z: 0.0006765749421902001
","x: 269.1369934082031
y: 398.530517578125
z: 0.0016063569346442819
","x: 274.91796875
y: 386.39398193359375
z: 5.5298743973253295e-05
","x: 273.83929443359375
y: 394.60357666015625
z: 0.001346671604551375
","x: 272.8067626953125
y: 399.2176513671875
z: 0.0026658365968614817
","x: 272.04736328125
y: 402.83258056640625
z: 0.0035105159040540457
","x: 276.0440979003906
y: 386.82220458984375
z: 0.0007969512371346354
","x: 275.11346435546875
y: 394.61126708984375
z: 0.0017778711626306176
","x: 274.33843994140625
y: 399.70745849609375
z: 0.0025256213266402483
","x: 273.69317626953125
y: 403.5330505371094
z: 0.002860219683498144
","x: 276.6401672363281
y: 386.33392333984375
z: 0.001212546369060874
","x: 275.9686584472656
y: 393.24810791015625
z: 0.0017504640854895115
","x: 275.3616943359375
y: 397.6510009765625
z: 0.002245041774585843
","x: 274.6957702636719
y: 400.8924865722656
z: 0.0025947210378944874
"
6,"x: 258.6609191894531
y: 254.87249755859375
z: -0.21822233498096466
visibility: 0.9999592304229736
","x: 260.499755859375
y: 250.69960021972656
z: -0.2026001662015915
visibility: 0.9998586773872375
","x: 261.760498046875
y: 251.08694458007812
z: -0.20261433720588684
visibility: 0.9998556971549988
","x: 263.0286865234375
y: 251.54214477539062
z: -0.2026118040084839
visibility: 0.999876856803894
","x: 256.7190856933594
y: 250.2320556640625
z: -0.20395226776599884
visibility: 0.9998471736907959
","x: 255.62030029296875
y: 250.28106689453125
z: -0.20397627353668213
visibility: 0.9998054504394531
","x: 254.55445861816406
y: 250.38941955566406
z: -0.20398226380348206
visibility: 0.9997897744178772
","x: 264.5143737792969
y: 255.50836181640625
z: -0.10710412263870239
visibility: 0.9996688961982727
","x: 252.07293701171875
y: 254.3002166748047
z: -0.11538007110357285
visibility: 0.999500572681427
","x: 261.20904541015625
y: 262.7801818847656
z: -0.1835189163684845
visibility: 0.999916136264801
","x: 255.8961639404297
y: 262.2934265136719
z: -0.1856301724910736
visibility: 0.999871015548706
","x: 273.5172119140625
y: 292.8787536621094
z: -0.05020543932914734
visibility: 0.9999534487724304
","x: 239.78668212890625
y: 288.69329833984375
z: -0.06349039077758789
visibility: 0.9996804594993591
","x: 280.9695129394531
y: 330.6428527832031
z: -0.062166161835193634
visibility: 0.9879798889160156
","x: 231.55865478515625
y: 327.2036437988281
z: -0.10704706609249115
visibility: 0.9477201700210571
","x: 275.9680480957031
y: 364.039794921875
z: -0.18635249137878418
visibility: 0.970389723777771
","x: 238.6832733154297
y: 349.61419677734375
z: -0.25223901867866516
visibility: 0.8587630391120911
","x: 274.5050354003906
y: 378.1120300292969
z: -0.22160856425762177
visibility: 0.9348083734512329
","x: 239.85565185546875
y: 362.5189208984375
z: -0.28962475061416626
visibility: 0.77852863073349
","x: 272.19549560546875
y: 376.0278625488281
z: -0.24194955825805664
visibility: 0.9393893480300903
","x: 244.29879760742188
y: 360.6080322265625
z: -0.30348700284957886
visibility: 0.7851376533508301
","x: 271.76446533203125
y: 371.95062255859375
z: -0.19685593247413635
visibility: 0.918316125869751
","x: 244.98439025878906
y: 356.6877746582031
z: -0.2604343295097351
visibility: 0.7576903700828552
","x: 264.2452697753906
y: 375.00115966796875
z: 0.006924276240170002
visibility: 0.9995973110198975
","x: 245.5172882080078
y: 373.6784362792969
z: -0.006925802677869797
visibility: 0.999397873878479
","x: 259.9622802734375
y: 437.11236572265625
z: 0.019385233521461487
visibility: 0.988869845867157
","x: 243.9379425048828
y: 436.6731262207031
z: -0.018887244164943695
visibility: 0.986044704914093
","x: 258.85772705078125
y: 496.882568359375
z: 0.1454814225435257
visibility: 0.9901500940322876
","x: 241.5452423095703
y: 497.0167541503906
z: 0.10171353816986084
visibility: 0.9852407574653625
","x: 256.0869140625
y: 505.5501708984375
z: 0.15156510472297668
visibility: 0.9194912314414978
","x: 243.2604522705078
y: 504.9189453125
z: 0.1069209948182106
visibility: 0.8614529371261597
","x: 261.8715515136719
y: 514.06396484375
z: 0.048395391553640366
visibility: 0.9859715700149536
","x: 239.92568969726562
y: 516.302001953125
z: -0.0005140650318935513
visibility: 0.9798277616500854
",4.644306182861328,"x: 238.75411987304688
y: 350.44921875
z: 0.0
","x: 242.3804931640625
y: 353.7905578613281
z: 0.0013987129786983132
","x: 245.1006622314453
y: 359.6577453613281
z: 0.0012722177198156714
","x: 246.82852172851562
y: 364.81072998046875
z: 0.0007580826641060412
","x: 247.86538696289062
y: 368.34588623046875
z: 0.0005397570785135031
","x: 243.33627319335938
y: 363.2305603027344
z: -0.0015005490276962519
","x: 244.6475830078125
y: 370.90826416015625
z: -0.00198590150102973
","x: 245.088623046875
y: 371.31951904296875
z: -0.0004267088370397687
","x: 245.02752685546875
y: 370.5131530761719
z: 0.0010343778412789106
","x: 241.2022247314453
y: 364.4075927734375
z: -0.002843744121491909
","x: 242.48536682128906
y: 372.96112060546875
z: -0.002840170171111822
","x: 242.85598754882812
y: 372.4368591308594
z: -0.0004853348946198821
","x: 242.61209106445312
y: 370.3275146484375
z: 0.0014594602398574352
","x: 239.18215942382812
y: 364.72149658203125
z: -0.004042219370603561
","x: 240.15206909179688
y: 372.4729919433594
z: -0.00426042266190052
","x: 240.6350860595703
y: 371.357666015625
z: -0.00202347245067358
","x: 240.5389862060547
y: 369.0667419433594
z: -0.00025077516329474747
","x: 237.31207275390625
y: 364.3680114746094
z: -0.005170102696865797
","x: 237.86610412597656
y: 370.2234191894531
z: -0.005244146101176739
","x: 238.2824249267578
y: 369.4320068359375
z: -0.0038444730453193188
","x: 238.22573852539062
y: 367.50341796875
z: -0.0024943489115685225
","x: 276.445068359375
y: 367.1222229003906
z: 0.0
","x: 272.517578125
y: 370.0738830566406
z: -0.0022256106603890657
","x: 270.5079345703125
y: 375.9285888671875
z: -0.0028744975570589304
","x: 269.9324645996094
y: 382.4097900390625
z: -0.0029317953158169985
","x: 269.363525390625
y: 387.6739196777344
z: -0.0026094780769199133
","x: 273.04296875
y: 384.8465576171875
z: -0.0009259728249162436
","x: 271.44696044921875
y: 392.1003723144531
z: -0.0002904488646890968
","x: 270.06158447265625
y: 395.96881103515625
z: 0.0006765749421902001
","x: 269.1369934082031
y: 398.530517578125
z: 0.0016063569346442819
","x: 274.91796875
y: 386.39398193359375
z: 5.5298743973253295e-05
","x: 273.83929443359375
y: 394.60357666015625
z: 0.001346671604551375
","x: 272.8067626953125
y: 399.2176513671875
z: 0.0026658365968614817
","x: 272.04736328125
y: 402.83258056640625
z: 0.0035105159040540457
","x: 276.0440979003906
y: 386.82220458984375
z: 0.0007969512371346354
","x: 275.11346435546875
y: 394.61126708984375
z: 0.0017778711626306176
","x: 274.33843994140625
y: 399.70745849609375
z: 0.0025256213266402483
","x: 273.69317626953125
y: 403.5330505371094
z: 0.002860219683498144
","x: 276.6401672363281
y: 386.33392333984375
z: 0.001212546369060874
","x: 275.9686584472656
y: 393.24810791015625
z: 0.0017504640854895115
","x: 275.3616943359375
y: 397.6510009765625
z: 0.002245041774585843
","x: 274.6957702636719
y: 400.8924865722656
z: 0.0025947210378944874
"
7,"x: 258.6609191894531
y: 254.87249755859375
z: -0.21822233498096466
visibility: 0.9999592304229736
","x: 260.499755859375
y: 250.69960021972656
z: -0.2026001662015915
visibility: 0.9998586773872375
","x: 261.760498046875
y: 251.08694458007812
z: -0.20261433720588684
visibility: 0.9998556971549988
","x: 263.0286865234375
y: 251.54214477539062
z: -0.2026118040084839
visibility: 0.999876856803894
","x: 256.7190856933594
y: 250.2320556640625
z: -0.20395226776599884
visibility: 0.9998471736907959
","x: 255.62030029296875
y: 250.28106689453125
z: -0.20397627353668213
visibility: 0.9998054504394531
","x: 254.55445861816406
y: 250.38941955566406
z: -0.20398226380348206
visibility: 0.9997897744178772
","x: 264.5143737792969
y: 255.50836181640625
z: -0.10710412263870239
visibility: 0.9996688961982727
","x: 252.07293701171875
y: 254.3002166748047
z: -0.11538007110357285
visibility: 0.999500572681427
","x: 261.20904541015625
y: 262.7801818847656
z: -0.1835189163684845
visibility: 0.999916136264801
","x: 255.8961639404297
y: 262.2934265136719
z: -0.1856301724910736
visibility: 0.999871015548706
","x: 273.5172119140625
y: 292.8787536621094
z: -0.05020543932914734
visibility: 0.9999534487724304
","x: 239.78668212890625
y: 288.69329833984375
z: -0.06349039077758789
visibility: 0.9996804594993591
","x: 280.9695129394531
y: 330.6428527832031
z: -0.062166161835193634
visibility: 0.9879798889160156
","x: 231.55865478515625
y: 327.2036437988281
z: -0.10704706609249115
visibility: 0.9477201700210571
","x: 275.9680480957031
y: 364.039794921875
z: -0.18635249137878418
visibility: 0.970389723777771
","x: 238.6832733154297
y: 349.61419677734375
z: -0.25223901867866516
visibility: 0.8587630391120911
","x: 274.5050354003906
y: 378.1120300292969
z: -0.22160856425762177
visibility: 0.9348083734512329
","x: 239.85565185546875
y: 362.5189208984375
z: -0.28962475061416626
visibility: 0.77852863073349
","x: 272.19549560546875
y: 376.0278625488281
z: -0.24194955825805664
visibility: 0.9393893480300903
","x: 244.29879760742188
y: 360.6080322265625
z: -0.30348700284957886
visibility: 0.7851376533508301
","x: 271.76446533203125
y: 371.95062255859375
z: -0.19685593247413635
visibility: 0.918316125869751
","x: 244.98439025878906
y: 356.6877746582031
z: -0.2604343295097351
visibility: 0.7576903700828552
","x: 264.2452697753906
y: 375.00115966796875
z: 0.006924276240170002
visibility: 0.9995973110198975
","x: 245.5172882080078
y: 373.6784362792969
z: -0.006925802677869797
visibility: 0.999397873878479
","x: 259.9622802734375
y: 437.11236572265625
z: 0.019385233521461487
visibility: 0.988869845867157
","x: 243.9379425048828
y: 436.6731262207031
z: -0.018887244164943695
visibility: 0.986044704914093
","x: 258.85772705078125
y: 496.882568359375
z: 0.1454814225435257
visibility: 0.9901500940322876
","x: 241.5452423095703
y: 497.0167541503906
z: 0.10171353816986084
visibility: 0.9852407574653625
","x: 256.0869140625
y: 505.5501708984375
z: 0.15156510472297668
visibility: 0.9194912314414978
","x: 243.2604522705078
y: 504.9189453125
z: 0.1069209948182106
visibility: 0.8614529371261597
","x: 261.8715515136719
y: 514.06396484375
z: 0.048395391553640366
visibility: 0.9859715700149536
","x: 239.92568969726562
y: 516.302001953125
z: -0.0005140650318935513
visibility: 0.9798277616500854
",4.644306182861328,"x: 238.75411987304688
y: 350.44921875
z: 0.0
","x: 242.3804931640625
y: 353.7905578613281
z: 0.0013987129786983132
","x: 245.1006622314453
y: 359.6577453613281
z: 0.0012722177198156714
","x: 246.82852172851562
y: 364.81072998046875
z: 0.0007580826641060412
","x: 247.86538696289062
y: 368.34588623046875
z: 0.0005397570785135031
","x: 243.33627319335938
y: 363.2305603027344
z: -0.0015005490276962519
","x: 244.6475830078125
y: 370.90826416015625
z: -0.00198590150102973
","x: 245.088623046875
y: 371.31951904296875
z: -0.0004267088370397687
","x: 245.02752685546875
y: 370.5131530761719
z: 0.0010343778412789106
","x: 241.2022247314453
y: 364.4075927734375
z: -0.002843744121491909
","x: 242.48536682128906
y: 372.96112060546875
z: -0.002840170171111822
","x: 242.85598754882812
y: 372.4368591308594
z: -0.0004853348946198821
","x: 242.61209106445312
y: 370.3275146484375
z: 0.0014594602398574352
","x: 239.18215942382812
y: 364.72149658203125
z: -0.004042219370603561
","x: 240.15206909179688
y: 372.4729919433594
z: -0.00426042266190052
","x: 240.6350860595703
y: 371.357666015625
z: -0.00202347245067358
","x: 240.5389862060547
y: 369.0667419433594
z: -0.00025077516329474747
","x: 237.31207275390625
y: 364.3680114746094
z: -0.005170102696865797
","x: 237.86610412597656
y: 370.2234191894531
z: -0.005244146101176739
","x: 238.2824249267578
y: 369.4320068359375
z: -0.0038444730453193188
","x: 238.22573852539062
y: 367.50341796875
z: -0.0024943489115685225
","x: 276.445068359375
y: 367.1222229003906
z: 0.0
","x: 272.517578125
y: 370.0738830566406
z: -0.0022256106603890657
","x: 270.5079345703125
y: 375.9285888671875
z: -0.0028744975570589304
","x: 269.9324645996094
y: 382.4097900390625
z: -0.0029317953158169985
","x: 269.363525390625
y: 387.6739196777344
z: -0.0026094780769199133
","x: 273.04296875
y: 384.8465576171875
z: -0.0009259728249162436
","x: 271.44696044921875
y: 392.1003723144531
z: -0.0002904488646890968
","x: 270.06158447265625
y: 395.96881103515625
z: 0.0006765749421902001
","x: 269.1369934082031
y: 398.530517578125
z: 0.0016063569346442819
","x: 274.91796875
y: 386.39398193359375
z: 5.5298743973253295e-05
","x: 273.83929443359375
y: 394.60357666015625
z: 0.001346671604551375
","x: 272.8067626953125
y: 399.2176513671875
z: 0.0026658365968614817
","x: 272.04736328125
y: 402.83258056640625
z: 0.0035105159040540457
","x: 276.0440979003906
y: 386.82220458984375
z: 0.0007969512371346354
","x: 275.11346435546875
y: 394.61126708984375
z: 0.0017778711626306176
","x: 274.33843994140625
y: 399.70745849609375
z: 0.0025256213266402483
","x: 273.69317626953125
y: 403.5330505371094
z: 0.002860219683498144
","x: 276.6401672363281
y: 386.33392333984375
z: 0.001212546369060874
","x: 275.9686584472656
y: 393.24810791015625
z: 0.0017504640854895115
","x: 275.3616943359375
y: 397.6510009765625
z: 0.002245041774585843
","x: 274.6957702636719
y: 400.8924865722656
z: 0.0025947210378944874
"
8,"x: 258.6609191894531
y: 254.87249755859375
z: -0.21822233498096466
visibility: 0.9999592304229736
","x: 260.499755859375
y: 250.69960021972656
z: -0.2026001662015915
visibility: 0.9998586773872375
","x: 261.760498046875
y: 251.08694458007812
z: -0.20261433720588684
visibility: 0.9998556971549988
","x: 263.0286865234375
y: 251.54214477539062
z: -0.2026118040084839
visibility: 0.999876856803894
","x: 256.7190856933594
y: 250.2320556640625
z: -0.20395226776599884
visibility: 0.9998471736907959
","x: 255.62030029296875
y: 250.28106689453125
z: -0.20397627353668213
visibility: 0.9998054504394531
","x: 254.55445861816406
y: 250.38941955566406
z: -0.20398226380348206
visibility: 0.9997897744178772
","x: 264.5143737792969
y: 255.50836181640625
z: -0.10710412263870239
visibility: 0.9996688961982727
","x: 252.07293701171875
y: 254.3002166748047
z: -0.11538007110357285
visibility: 0.999500572681427
","x: 261.20904541015625
y: 262.7801818847656
z: -0.1835189163684845
visibility: 0.999916136264801
","x: 255.8961639404297
y: 262.2934265136719
z: -0.1856301724910736
visibility: 0.999871015548706
","x: 273.5172119140625
y: 292.8787536621094
z: -0.05020543932914734
visibility: 0.9999534487724304
","x: 239.78668212890625
y: 288.69329833984375
z: -0.06349039077758789
visibility: 0.9996804594993591
","x: 280.9695129394531
y: 330.6428527832031
z: -0.062166161835193634
visibility: 0.9879798889160156
","x: 231.55865478515625
y: 327.2036437988281
z: -0.10704706609249115
visibility: 0.9477201700210571
","x: 275.9680480957031
y: 364.039794921875
z: -0.18635249137878418
visibility: 0.970389723777771
","x: 238.6832733154297
y: 349.61419677734375
z: -0.25223901867866516
visibility: 0.8587630391120911
","x: 274.5050354003906
y: 378.1120300292969
z: -0.22160856425762177
visibility: 0.9348083734512329
","x: 239.85565185546875
y: 362.5189208984375
z: -0.28962475061416626
visibility: 0.77852863073349
","x: 272.19549560546875
y: 376.0278625488281
z: -0.24194955825805664
visibility: 0.9393893480300903
","x: 244.29879760742188
y: 360.6080322265625
z: -0.30348700284957886
visibility: 0.7851376533508301
","x: 271.76446533203125
y: 371.95062255859375
z: -0.19685593247413635
visibility: 0.918316125869751
","x: 244.98439025878906
y: 356.6877746582031
z: -0.2604343295097351
visibility: 0.7576903700828552
","x: 264.2452697753906
y: 375.00115966796875
z: 0.006924276240170002
visibility: 0.9995973110198975
","x: 245.5172882080078
y: 373.6784362792969
z: -0.006925802677869797
visibility: 0.999397873878479
","x: 259.9622802734375
y: 437.11236572265625
z: 0.019385233521461487
visibility: 0.988869845867157
","x: 243.9379425048828
y: 436.6731262207031
z: -0.018887244164943695
visibility: 0.986044704914093
","x: 258.85772705078125
y: 496.882568359375
z: 0.1454814225435257
visibility: 0.9901500940322876
","x: 241.5452423095703
y: 497.0167541503906
z: 0.10171353816986084
visibility: 0.9852407574653625
","x: 256.0869140625
y: 505.5501708984375
z: 0.15156510472297668
visibility: 0.9194912314414978
","x: 243.2604522705078
y: 504.9189453125
z: 0.1069209948182106
visibility: 0.8614529371261597
","x: 261.8715515136719
y: 514.06396484375
z: 0.048395391553640366
visibility: 0.9859715700149536
","x: 239.92568969726562
y: 516.302001953125
z: -0.0005140650318935513
visibility: 0.9798277616500854
",4.644306182861328,"x: 238.75411987304688
y: 350.44921875
z: 0.0
","x: 242.3804931640625
y: 353.7905578613281
z: 0.0013987129786983132
","x: 245.1006622314453
y: 359.6577453613281
z: 0.0012722177198156714
","x: 246.82852172851562
y: 364.81072998046875
z: 0.0007580826641060412
","x: 247.86538696289062
y: 368.34588623046875
z: 0.0005397570785135031
","x: 243.33627319335938
y: 363.2305603027344
z: -0.0015005490276962519
","x: 244.6475830078125
y: 370.90826416015625
z: -0.00198590150102973
","x: 245.088623046875
y: 371.31951904296875
z: -0.0004267088370397687
","x: 245.02752685546875
y: 370.5131530761719
z: 0.0010343778412789106
","x: 241.2022247314453
y: 364.4075927734375
z: -0.002843744121491909
","x: 242.48536682128906
y: 372.96112060546875
z: -0.002840170171111822
","x: 242.85598754882812
y: 372.4368591308594
z: -0.0004853348946198821
","x: 242.61209106445312
y: 370.3275146484375
z: 0.0014594602398574352
","x: 239.18215942382812
y: 364.72149658203125
z: -0.004042219370603561
","x: 240.15206909179688
y: 372.4729919433594
z: -0.00426042266190052
","x: 240.6350860595703
y: 371.357666015625
z: -0.00202347245067358
","x: 240.5389862060547
y: 369.0667419433594
z: -0.00025077516329474747
","x: 237.31207275390625
y: 364.3680114746094
z: -0.005170102696865797
","x: 237.86610412597656
y: 370.2234191894531
z: -0.005244146101176739
","x: 238.2824249267578
y: 369.4320068359375
z: -0.0038444730453193188
","x: 238.22573852539062
y: 367.50341796875
z: -0.0024943489115685225
","x: 276.445068359375
y: 367.1222229003906
z: 0.0
","x: 272.517578125
y: 370.0738830566406
z: -0.0022256106603890657
","x: 270.5079345703125
y: 375.9285888671875
z: -0.0028744975570589304
","x: 269.9324645996094
y: 382.4097900390625
z: -0.0029317953158169985
","x: 269.363525390625
y: 387.6739196777344
z: -0.0026094780769199133
","x: 273.04296875
y: 384.8465576171875
z: -0.0009259728249162436
","x: 271.44696044921875
y: 392.1003723144531
z: -0.0002904488646890968
","x: 270.06158447265625
y: 395.96881103515625
z: 0.0006765749421902001
","x: 269.1369934082031
y: 398.530517578125
z: 0.0016063569346442819
","x: 274.91796875
y: 386.39398193359375
z: 5.5298743973253295e-05
","x: 273.83929443359375
y: 394.60357666015625
z: 0.001346671604551375
","x: 272.8067626953125
y: 399.2176513671875
z: 0.0026658365968614817
","x: 272.04736328125
y: 402.83258056640625
z: 0.0035105159040540457
","x: 276.0440979003906
y: 386.82220458984375
z: 0.0007969512371346354
","x: 275.11346435546875
y: 394.61126708984375
z: 0.0017778711626306176
","x: 274.33843994140625
y: 399.70745849609375
z: 0.0025256213266402483
","x: 273.69317626953125
y: 403.5330505371094
z: 0.002860219683498144
","x: 276.6401672363281
y: 386.33392333984375
z: 0.001212546369060874
","x: 275.9686584472656
y: 393.24810791015625
z: 0.0017504640854895115
","x: 275.3616943359375
y: 397.6510009765625
z: 0.002245041774585843
","x: 274.6957702636719
y: 400.8924865722656
z: 0.0025947210378944874
"
9,"x: 256.6040344238281
y: 252.18299865722656
z: -0.24836759269237518
visibility: 0.9999625086784363
","x: 258.4996643066406
y: 247.9842529296875
z: -0.23270800709724426
visibility: 0.9998701214790344
","x: 259.7483215332031
y: 248.40126037597656
z: -0.2327118217945099
visibility: 0.999867856502533
","x: 261.0216064453125
y: 248.85284423828125
z: -0.2326897829771042
visibility: 0.9998863339424133
","x: 254.75572204589844
y: 247.33602905273438
z: -0.23455703258514404
visibility: 0.9998592138290405
","x: 253.69046020507812
y: 247.3140869140625
z: -0.2345823347568512
visibility: 0.999822199344635
","x: 252.5357666015625
y: 247.3141326904297
z: -0.23457744717597961
visibility: 0.9998077750205994
","x: 262.7363586425781
y: 253.1608428955078
z: -0.1341467648744583
visibility: 0.9996960759162903
","x: 250.36337280273438
y: 251.42987060546875
z: -0.14452140033245087
visibility: 0.9995452761650085
","x: 259.15679931640625
y: 259.9200439453125
z: -0.21173901855945587
visibility: 0.9999235272407532
","x: 254.04885864257812
y: 259.2589416503906
z: -0.21473178267478943
visibility: 0.9998826384544373
","x: 272.01025390625
y: 291.1437072753906
z: -0.0580073781311512
visibility: 0.9999561309814453
","x: 237.92384338378906
y: 287.9411926269531
z: -0.07260631024837494
visibility: 0.9996993541717529
","x: 280.2957763671875
y: 329.9388427734375
z: -0.013880068436264992
visibility: 0.9889702796936035
","x: 228.01002502441406
y: 323.31195068359375
z: -0.03470223397016525
visibility: 0.9516229033470154
","x: 276.3802185058594
y: 362.10107421875
z: -0.0870247408747673
visibility: 0.972811222076416
","x: 231.2384490966797
y: 343.2663269042969
z: -0.0951768085360527
visibility: 0.8697925209999084
","x: 274.87158203125
y: 375.573974609375
z: -0.10734938085079193
visibility: 0.9391708970069885
","x: 232.44601440429688
y: 355.75909423828125
z: -0.11551745235919952
visibility: 0.7938885688781738
","x: 272.438232421875
y: 373.14385986328125
z: -0.13423721492290497
visibility: 0.9435084462165833
","x: 234.8894805908203
y: 353.7109069824219
z: -0.13565471768379211
visibility: 0.8000667095184326
","x: 272.2091064453125
y: 368.7355041503906
z: -0.09835977852344513
visibility: 0.9237576723098755
","x: 234.8221435546875
y: 348.5567626953125
z: -0.10303791612386703
visibility: 0.7732449769973755
","x: 263.39019775390625
y: 374.7555236816406
z: 0.005926263984292746
visibility: 0.9995877146720886
","x: 244.25543212890625
y: 373.31805419921875
z: -0.005955052562057972
visibility: 0.9994221329689026
","x: 259.62091064453125
y: 436.9860534667969
z: 0.02235005609691143
visibility: 0.9892852902412415
","x: 243.75765991210938
y: 436.4262390136719
z: -0.013415214605629444
visibility: 0.9868022203445435
","x: 259.36871337890625
y: 496.680419921875
z: 0.14348390698432922
visibility: 0.990574061870575
","x: 240.56936645507812
y: 496.5634765625
z: 0.1033184751868248
visibility: 0.9861842393875122
","x: 256.5189208984375
y: 505.2939147949219
z: 0.14868780970573425
visibility: 0.9212958216667175
","x: 242.37193298339844
y: 504.644287109375
z: 0.10773267596960068
visibility: 0.8651828169822693
","x: 262.5790100097656
y: 514.27392578125
z: 0.044035524129867554
visibility: 0.9866079688072205
","x: 239.92642211914062
y: 516.577880859375
z: -0.00016159482765942812
visibility: 0.9810498952865601
",4.784235715866089,,,,,,,,,,,,,,,,,,,,,,"x: 277.0040283203125
y: 360.22662353515625
z: 0.0
","x: 273.1966552734375
y: 363.3067321777344
z: -0.0016456865705549717
","x: 271.1781921386719
y: 369.1167907714844
z: -0.001884240424260497
","x: 270.5465393066406
y: 375.11016845703125
z: -0.0017735015135258436
","x: 270.12652587890625
y: 379.32379150390625
z: -0.0012248774291947484
","x: 274.4024658203125
y: 376.12860107421875
z: -0.0014155427925288677
","x: 272.3365478515625
y: 383.5287170410156
z: -0.0014848996652290225
","x: 270.32855224609375
y: 384.2723388671875
z: -0.0007155996863730252
","x: 269.080322265625
y: 383.4093933105469
z: 0.00013539072824642062
","x: 275.81976318359375
y: 377.55499267578125
z: -0.0008498500101268291
","x: 273.63848876953125
y: 384.9415588378906
z: -0.00030523986788466573
","x: 271.6944885253906
y: 386.25732421875
z: 0.0007775083649903536
","x: 270.4035949707031
y: 386.26385498046875
z: 0.0015189731493592262
","x: 276.4693603515625
y: 377.809814453125
z: -0.00045301043428480625
","x: 274.44073486328125
y: 384.7206115722656
z: -0.00029810346313752234
","x: 272.78125
y: 386.5019226074219
z: 0.0003381949500180781
","x: 271.5184631347656
y: 386.693359375
z: 0.0007537311757914722
","x: 276.49932861328125
y: 377.2442932128906
z: -0.00030648987740278244
","x: 274.6785888671875
y: 383.0003662109375
z: -0.0006287903524935246
","x: 273.035888671875
y: 384.84991455078125
z: -0.0002798586501739919
","x: 271.62847900390625
y: 385.0374755859375
z: 0.00022203900152817369
"
10,"x: 256.6040344238281
y: 252.18299865722656
z: -0.24836759269237518
visibility: 0.9999625086784363
","x: 258.4996643066406
y: 247.9842529296875
z: -0.23270800709724426
visibility: 0.9998701214790344
","x: 259.7483215332031
y: 248.40126037597656
z: -0.2327118217945099
visibility: 0.999867856502533
","x: 261.0216064453125
y: 248.85284423828125
z: -0.2326897829771042
visibility: 0.9998863339424133
","x: 254.75572204589844
y: 247.33602905273438
z: -0.23455703258514404
visibility: 0.9998592138290405
","x: 253.69046020507812
y: 247.3140869140625
z: -0.2345823347568512
visibility: 0.999822199344635
","x: 252.5357666015625
y: 247.3141326904297
z: -0.23457744717597961
visibility: 0.9998077750205994
","x: 262.7363586425781
y: 253.1608428955078
z: -0.1341467648744583
visibility: 0.9996960759162903
","x: 250.36337280273438
y: 251.42987060546875
z: -0.14452140033245087
visibility: 0.9995452761650085
","x: 259.15679931640625
y: 259.9200439453125
z: -0.21173901855945587
visibility: 0.9999235272407532
","x: 254.04885864257812
y: 259.2589416503906
z: -0.21473178267478943
visibility: 0.9998826384544373
","x: 272.01025390625
y: 291.1437072753906
z: -0.0580073781311512
visibility: 0.9999561309814453
","x: 237.92384338378906
y: 287.9411926269531
z: -0.07260631024837494
visibility: 0.9996993541717529
","x: 280.2957763671875
y: 329.9388427734375
z: -0.013880068436264992
visibility: 0.9889702796936035
","x: 228.01002502441406
y: 323.31195068359375
z: -0.03470223397016525
visibility: 0.9516229033470154
","x: 276.3802185058594
y: 362.10107421875
z: -0.0870247408747673
visibility: 0.972811222076416
","x: 231.2384490966797
y: 343.2663269042969
z: -0.0951768085360527
visibility: 0.8697925209999084
","x: 274.87158203125
y: 375.573974609375
z: -0.10734938085079193
visibility: 0.9391708970069885
","x: 232.44601440429688
y: 355.75909423828125
z: -0.11551745235919952
visibility: 0.7938885688781738
","x: 272.438232421875
y: 373.14385986328125
z: -0.13423721492290497
visibility: 0.9435084462165833
","x: 234.8894805908203
y: 353.7109069824219
z: -0.13565471768379211
visibility: 0.8000667095184326
","x: 272.2091064453125
y: 368.7355041503906
z: -0.09835977852344513
visibility: 0.9237576723098755
","x: 234.8221435546875
y: 348.5567626953125
z: -0.10303791612386703
visibility: 0.7732449769973755
","x: 263.39019775390625
y: 374.7555236816406
z: 0.005926263984292746
visibility: 0.9995877146720886
","x: 244.25543212890625
y: 373.31805419921875
z: -0.005955052562057972
visibility: 0.9994221329689026
","x: 259.62091064453125
y: 436.9860534667969
z: 0.02235005609691143
visibility: 0.9892852902412415
","x: 243.75765991210938
y: 436.4262390136719
z: -0.013415214605629444
visibility: 0.9868022203445435
","x: 259.36871337890625
y: 496.680419921875
z: 0.14348390698432922
visibility: 0.990574061870575
","x: 240.56936645507812
y: 496.5634765625
z: 0.1033184751868248
visibility: 0.9861842393875122
","x: 256.5189208984375
y: 505.2939147949219
z: 0.14868780970573425
visibility: 0.9212958216667175
","x: 242.37193298339844
y: 504.644287109375
z: 0.10773267596960068
visibility: 0.8651828169822693
","x: 262.5790100097656
y: 514.27392578125
z: 0.044035524129867554
visibility: 0.9866079688072205
","x: 239.92642211914062
y: 516.577880859375
z: -0.00016159482765942812
visibility: 0.9810498952865601
",4.784235715866089,,,,,,,,,,,,,,,,,,,,,,"x: 277.0040283203125
y: 360.22662353515625
z: 0.0
","x: 273.1966552734375
y: 363.3067321777344
z: -0.0016456865705549717
","x: 271.1781921386719
y: 369.1167907714844
z: -0.001884240424260497
","x: 270.5465393066406
y: 375.11016845703125
z: -0.0017735015135258436
","x: 270.12652587890625
y: 379.32379150390625
z: -0.0012248774291947484
","x: 274.4024658203125
y: 376.12860107421875
z: -0.0014155427925288677
","x: 272.3365478515625
y: 383.5287170410156
z: -0.0014848996652290225
","x: 270.32855224609375
y: 384.2723388671875
z: -0.0007155996863730252
","x: 269.080322265625
y: 383.4093933105469
z: 0.00013539072824642062
","x: 275.81976318359375
y: 377.55499267578125
z: -0.0008498500101268291
","x: 273.63848876953125
y: 384.9415588378906
z: -0.00030523986788466573
","x: 271.6944885253906
y: 386.25732421875
z: 0.0007775083649903536
","x: 270.4035949707031
y: 386.26385498046875
z: 0.0015189731493592262
","x: 276.4693603515625
y: 377.809814453125
z: -0.00045301043428480625
","x: 274.44073486328125
y: 384.7206115722656
z: -0.00029810346313752234
","x: 272.78125
y: 386.5019226074219
z: 0.0003381949500180781
","x: 271.5184631347656
y: 386.693359375
z: 0.0007537311757914722
","x: 276.49932861328125
y: 377.2442932128906
z: -0.00030648987740278244
","x: 274.6785888671875
y: 383.0003662109375
z: -0.0006287903524935246
","x: 273.035888671875
y: 384.84991455078125
z: -0.0002798586501739919
","x: 271.62847900390625
y: 385.0374755859375
z: 0.00022203900152817369
"
11,"x: 256.6040344238281
y: 252.18299865722656
z: -0.24836759269237518
visibility: 0.9999625086784363
","x: 258.4996643066406
y: 247.9842529296875
z: -0.23270800709724426
visibility: 0.9998701214790344
","x: 259.7483215332031
y: 248.40126037597656
z: -0.2327118217945099
visibility: 0.999867856502533
","x: 261.0216064453125
y: 248.85284423828125
z: -0.2326897829771042
visibility: 0.9998863339424133
","x: 254.75572204589844
y: 247.33602905273438
z: -0.23455703258514404
visibility: 0.9998592138290405
","x: 253.69046020507812
y: 247.3140869140625
z: -0.2345823347568512
visibility: 0.999822199344635
","x: 252.5357666015625
y: 247.3141326904297
z: -0.23457744717597961
visibility: 0.9998077750205994
","x: 262.7363586425781
y: 253.1608428955078
z: -0.1341467648744583
visibility: 0.9996960759162903
","x: 250.36337280273438
y: 251.42987060546875
z: -0.14452140033245087
visibility: 0.9995452761650085
","x: 259.15679931640625
y: 259.9200439453125
z: -0.21173901855945587
visibility: 0.9999235272407532
","x: 254.04885864257812
y: 259.2589416503906
z: -0.21473178267478943
visibility: 0.9998826384544373
","x: 272.01025390625
y: 291.1437072753906
z: -0.0580073781311512
visibility: 0.9999561309814453
","x: 237.92384338378906
y: 287.9411926269531
z: -0.07260631024837494
visibility: 0.9996993541717529
","x: 280.2957763671875
y: 329.9388427734375
z: -0.013880068436264992
visibility: 0.9889702796936035
","x: 228.01002502441406
y: 323.31195068359375
z: -0.03470223397016525
visibility: 0.9516229033470154
","x: 276.3802185058594
y: 362.10107421875
z: -0.0870247408747673
visibility: 0.972811222076416
","x: 231.2384490966797
y: 343.2663269042969
z: -0.0951768085360527
visibility: 0.8697925209999084
","x: 274.87158203125
y: 375.573974609375
z: -0.10734938085079193
visibility: 0.9391708970069885
","x: 232.44601440429688
y: 355.75909423828125
z: -0.11551745235919952
visibility: 0.7938885688781738
","x: 272.438232421875
y: 373.14385986328125
z: -0.13423721492290497
visibility: 0.9435084462165833
","x: 234.8894805908203
y: 353.7109069824219
z: -0.13565471768379211
visibility: 0.8000667095184326
","x: 272.2091064453125
y: 368.7355041503906
z: -0.09835977852344513
visibility: 0.9237576723098755
","x: 234.8221435546875
y: 348.5567626953125
z: -0.10303791612386703
visibility: 0.7732449769973755
","x: 263.39019775390625
y: 374.7555236816406
z: 0.005926263984292746
visibility: 0.9995877146720886
","x: 244.25543212890625
y: 373.31805419921875
z: -0.005955052562057972
visibility: 0.9994221329689026
","x: 259.62091064453125
y: 436.9860534667969
z: 0.02235005609691143
visibility: 0.9892852902412415
","x: 243.75765991210938
y: 436.4262390136719
z: -0.013415214605629444
visibility: 0.9868022203445435
","x: 259.36871337890625
y: 496.680419921875
z: 0.14348390698432922
visibility: 0.990574061870575
","x: 240.56936645507812
y: 496.5634765625
z: 0.1033184751868248
visibility: 0.9861842393875122
","x: 256.5189208984375
y: 505.2939147949219
z: 0.14868780970573425
visibility: 0.9212958216667175
","x: 242.37193298339844
y: 504.644287109375
z: 0.10773267596960068
visibility: 0.8651828169822693
","x: 262.5790100097656
y: 514.27392578125
z: 0.044035524129867554
visibility: 0.9866079688072205
","x: 239.92642211914062
y: 516.577880859375
z: -0.00016159482765942812
visibility: 0.9810498952865601
",4.784235715866089,,,,,,,,,,,,,,,,,,,,,,"x: 277.0040283203125
y: 360.22662353515625
z: 0.0
","x: 273.1966552734375
y: 363.3067321777344
z: -0.0016456865705549717
","x: 271.1781921386719
y: 369.1167907714844
z: -0.001884240424260497
","x: 270.5465393066406
y: 375.11016845703125
z: -0.0017735015135258436
","x: 270.12652587890625
y: 379.32379150390625
z: -0.0012248774291947484
","x: 274.4024658203125
y: 376.12860107421875
z: -0.0014155427925288677
","x: 272.3365478515625
y: 383.5287170410156
z: -0.0014848996652290225
","x: 270.32855224609375
y: 384.2723388671875
z: -0.0007155996863730252
","x: 269.080322265625
y: 383.4093933105469
z: 0.00013539072824642062
","x: 275.81976318359375
y: 377.55499267578125
z: -0.0008498500101268291
","x: 273.63848876953125
y: 384.9415588378906
z: -0.00030523986788466573
","x: 271.6944885253906
y: 386.25732421875
z: 0.0007775083649903536
","x: 270.4035949707031
y: 386.26385498046875
z: 0.0015189731493592262
","x: 276.4693603515625
y: 377.809814453125
z: -0.00045301043428480625
","x: 274.44073486328125
y: 384.7206115722656
z: -0.00029810346313752234
","x: 272.78125
y: 386.5019226074219
z: 0.0003381949500180781
","x: 271.5184631347656
y: 386.693359375
z: 0.0007537311757914722
","x: 276.49932861328125
y: 377.2442932128906
z: -0.00030648987740278244
","x: 274.6785888671875
y: 383.0003662109375
z: -0.0006287903524935246
","x: 273.035888671875
y: 384.84991455078125
z: -0.0002798586501739919
","x: 271.62847900390625
y: 385.0374755859375
z: 0.00022203900152817369
"
12,"x: 256.38189697265625
y: 252.57850646972656
z: -0.26172178983688354
visibility: 0.9999654293060303
","x: 258.16748046875
y: 248.26510620117188
z: -0.24711671471595764
visibility: 0.9998805522918701
","x: 259.4501037597656
y: 248.669189453125
z: -0.24712030589580536
visibility: 0.9998788833618164
","x: 260.6895446777344
y: 249.10581970214844
z: -0.24710595607757568
visibility: 0.999894917011261
","x: 254.3730926513672
y: 247.6667938232422
z: -0.24977843463420868
visibility: 0.9998701214790344
","x: 253.1504669189453
y: 247.67648315429688
z: -0.2498081475496292
visibility: 0.999837338924408
","x: 252.02162170410156
y: 247.70079040527344
z: -0.24980077147483826
visibility: 0.9998241066932678
","x: 262.3317565917969
y: 253.2133331298828
z: -0.14934313297271729
visibility: 0.999721109867096
","x: 249.70724487304688
y: 251.65109252929688
z: -0.16323719918727875
visibility: 0.9995865225791931
","x: 259.10333251953125
y: 260.36328125
z: -0.2246207892894745
visibility: 0.999930202960968
","x: 253.6562957763672
y: 259.7041931152344
z: -0.22864404320716858
visibility: 0.9998931288719177
","x: 271.83056640625
y: 290.07037353515625
z: -0.06895133852958679
visibility: 0.999958872795105
","x: 237.5152130126953
y: 287.86212158203125
z: -0.08379453420639038
visibility: 0.9997159838676453
","x: 279.9778747558594
y: 329.029541015625
z: -0.009569654241204262
visibility: 0.989741325378418
","x: 227.8803253173828
y: 323.4293212890625
z: -0.022945204749703407
visibility: 0.9547592997550964
","x: 276.46563720703125
y: 361.49462890625
z: -0.07815449684858322
visibility: 0.9746529459953308
","x: 232.12310791015625
y: 345.31292724609375
z: -0.06454892456531525
visibility: 0.8778467178344727
","x: 274.9014587402344
y: 374.914794921875
z: -0.09763167798519135
visibility: 0.9421411156654358
","x: 233.4031982421875
y: 358.17803955078125
z: -0.08119295537471771
visibility: 0.804207444190979
","x: 272.6745300292969
y: 372.5378112792969
z: -0.12481749057769775
visibility: 0.9463471174240112
","x: 235.95230102539062
y: 355.96514892578125
z: -0.10105647146701813
visibility: 0.8099512457847595
","x: 272.37939453125
y: 368.0632019042969
z: -0.08948789536952972
visibility: 0.927513062953949
","x: 235.92315673828125
y: 351.0333557128906
z: -0.0716523751616478
visibility: 0.7830876708030701
","x: 263.46038818359375
y: 374.4750671386719
z: 0.005370214581489563
visibility: 0.9995701909065247
","x: 244.27789306640625
y: 373.3680725097656
z: -0.005399847868829966
visibility: 0.9994284510612488
","x: 259.5953674316406
y: 437.2471923828125
z: 0.017122572287917137
visibility: 0.9897313714027405
","x: 243.6005096435547
y: 437.1494140625
z: -0.007101621478796005
visibility: 0.9874501824378967
","x: 259.5929870605469
y: 496.6580505371094
z: 0.1366068571805954
visibility: 0.9909887909889221
","x: 239.98057556152344
y: 496.43377685546875
z: 0.11347321420907974
visibility: 0.9869744777679443
","x: 256.8792419433594
y: 505.2430725097656
z: 0.14172019064426422
visibility: 0.9228246212005615
","x: 241.91102600097656
y: 504.2801513671875
z: 0.11844128370285034
visibility: 0.8678643107414246
","x: 262.65093994140625
y: 514.7217407226562
z: 0.037252314388751984
visibility: 0.9871695041656494
","x: 239.8553466796875
y: 516.6973876953125
z: 0.012482755817472935
visibility: 0.9820196628570557
",4.911644697189331,"x: 232.6355438232422
y: 349.80987548828125
z: 0.0
","x: 230.600341796875
y: 355.7774353027344
z: 0.0027332522440701723
","x: 230.36953735351562
y: 362.1831970214844
z: 0.0035978418309241533
","x: 230.95562744140625
y: 366.8783264160156
z: 0.003832803573459387
","x: 231.80218505859375
y: 370.0936584472656
z: 0.004119195509701967
","x: 230.89219665527344
y: 365.38848876953125
z: 0.00229329289868474
","x: 231.44024658203125
y: 372.5642395019531
z: 0.002247398253530264
","x: 232.1718292236328
y: 376.1005859375
z: 0.0028656921349465847
","x: 232.84999084472656
y: 377.58026123046875
z: 0.0035199790727347136
","x: 232.95010375976562
y: 365.42498779296875
z: 0.0002986419713124633
","x: 233.7718963623047
y: 373.3028869628906
z: 0.0003013336390722543
","x: 234.56716918945312
y: 376.525634765625
z: 0.0011383492965251207
","x: 235.09339904785156
y: 377.7393798828125
z: 0.0018639516783878207
","x: 235.12188720703125
y: 364.8858642578125
z: -0.0015864159213379025
","x: 235.81222534179688
y: 372.3949890136719
z: -0.0016448638634756207
","x: 236.3752899169922
y: 375.80291748046875
z: -0.0008097514510154724
","x: 236.74098205566406
y: 377.5596618652344
z: -0.00019587797578424215
","x: 237.2616729736328
y: 363.8385009765625
z: -0.0033607017248868942
","x: 237.8501739501953
y: 369.98663330078125
z: -0.0036667841486632824
","x: 238.1378936767578
y: 373.27093505859375
z: -0.003276837756857276
","x: 238.26495361328125
y: 375.5677490234375
z: -0.0028535209130495787
","x: 276.9720153808594
y: 359.38433837890625
z: 0.0
","x: 273.3414611816406
y: 363.486083984375
z: -0.0011049237800762057
","x: 271.51568603515625
y: 369.5272216796875
z: -0.0009385584853589535
","x: 270.9654541015625
y: 375.38641357421875
z: -0.0004148549633100629
","x: 270.397216796875
y: 379.4403381347656
z: 0.0005178431165404618
","x: 274.5963439941406
y: 374.6786193847656
z: -0.0010206621373072267
","x: 273.1357421875
y: 382.5508117675781
z: -0.000625300221145153
","x: 271.2059631347656
y: 383.67132568359375
z: 0.00044496121699921787
","x: 269.9685974121094
y: 383.00091552734375
z: 0.0014818301424384117
","x: 276.2065734863281
y: 375.54815673828125
z: -0.00038819617475382984
","x: 274.33111572265625
y: 382.8851623535156
z: 0.0006603843648917973
","x: 272.3734130859375
y: 383.74310302734375
z: 0.0018405866576358676
","x: 271.17071533203125
y: 383.10247802734375
z: 0.002623165724799037
","x: 276.9968566894531
y: 375.635986328125
z: 0.00018372097110841423
","x: 275.11932373046875
y: 382.41827392578125
z: 0.0008759293705224991
","x: 273.3190002441406
y: 383.4757995605469
z: 0.0013916955795139074
","x: 272.0845947265625
y: 382.9151916503906
z: 0.001684189192019403
","x: 277.1699523925781
y: 375.0904541015625
z: 0.0006086446810513735
","x: 275.53338623046875
y: 380.9423828125
z: 0.0007074649329297245
","x: 273.80706787109375
y: 382.41436767578125
z: 0.0010033585131168365
","x: 272.440185546875
y: 382.11572265625
z: 0.0014343076618388295
"
13,"x: 256.38189697265625
y: 252.57850646972656
z: -0.26172178983688354
visibility: 0.9999654293060303
","x: 258.16748046875
y: 248.26510620117188
z: -0.24711671471595764
visibility: 0.9998805522918701
","x: 259.4501037597656
y: 248.669189453125
z: -0.24712030589580536
visibility: 0.9998788833618164
","x: 260.6895446777344
y: 249.10581970214844
z: -0.24710595607757568
visibility: 0.999894917011261
","x: 254.3730926513672
y: 247.6667938232422
z: -0.24977843463420868
visibility: 0.9998701214790344
","x: 253.1504669189453
y: 247.67648315429688
z: -0.2498081475496292
visibility: 0.999837338924408
","x: 252.02162170410156
y: 247.70079040527344
z: -0.24980077147483826
visibility: 0.9998241066932678
","x: 262.3317565917969
y: 253.2133331298828
z: -0.14934313297271729
visibility: 0.999721109867096
","x: 249.70724487304688
y: 251.65109252929688
z: -0.16323719918727875
visibility: 0.9995865225791931
","x: 259.10333251953125
y: 260.36328125
z: -0.2246207892894745
visibility: 0.999930202960968
","x: 253.6562957763672
y: 259.7041931152344
z: -0.22864404320716858
visibility: 0.9998931288719177
","x: 271.83056640625
y: 290.07037353515625
z: -0.06895133852958679
visibility: 0.999958872795105
","x: 237.5152130126953
y: 287.86212158203125
z: -0.08379453420639038
visibility: 0.9997159838676453
","x: 279.9778747558594
y: 329.029541015625
z: -0.009569654241204262
visibility: 0.989741325378418
","x: 227.8803253173828
y: 323.4293212890625
z: -0.022945204749703407
visibility: 0.9547592997550964
","x: 276.46563720703125
y: 361.49462890625
z: -0.07815449684858322
visibility: 0.9746529459953308
","x: 232.12310791015625
y: 345.31292724609375
z: -0.06454892456531525
visibility: 0.8778467178344727
","x: 274.9014587402344
y: 374.914794921875
z: -0.09763167798519135
visibility: 0.9421411156654358
","x: 233.4031982421875
y: 358.17803955078125
z: -0.08119295537471771
visibility: 0.804207444190979
","x: 272.6745300292969
y: 372.5378112792969
z: -0.12481749057769775
visibility: 0.9463471174240112
","x: 235.95230102539062
y: 355.96514892578125
z: -0.10105647146701813
visibility: 0.8099512457847595
","x: 272.37939453125
y: 368.0632019042969
z: -0.08948789536952972
visibility: 0.927513062953949
","x: 235.92315673828125
y: 351.0333557128906
z: -0.0716523751616478
visibility: 0.7830876708030701
","x: 263.46038818359375
y: 374.4750671386719
z: 0.005370214581489563
visibility: 0.9995701909065247
","x: 244.27789306640625
y: 373.3680725097656
z: -0.005399847868829966
visibility: 0.9994284510612488
","x: 259.5953674316406
y: 437.2471923828125
z: 0.017122572287917137
visibility: 0.9897313714027405
","x: 243.6005096435547
y: 437.1494140625
z: -0.007101621478796005
visibility: 0.9874501824378967
","x: 259.5929870605469
y: 496.6580505371094
z: 0.1366068571805954
visibility: 0.9909887909889221
","x: 239.98057556152344
y: 496.43377685546875
z: 0.11347321420907974
visibility: 0.9869744777679443
","x: 256.8792419433594
y: 505.2430725097656
z: 0.14172019064426422
visibility: 0.9228246212005615
","x: 241.91102600097656
y: 504.2801513671875
z: 0.11844128370285034
visibility: 0.8678643107414246
","x: 262.65093994140625
y: 514.7217407226562
z: 0.037252314388751984
visibility: 0.9871695041656494
","x: 239.8553466796875
y: 516.6973876953125
z: 0.012482755817472935
visibility: 0.9820196628570557
",4.911644697189331,"x: 232.6355438232422
y: 349.80987548828125
z: 0.0
","x: 230.600341796875
y: 355.7774353027344
z: 0.0027332522440701723
","x: 230.36953735351562
y: 362.1831970214844
z: 0.0035978418309241533
","x: 230.95562744140625
y: 366.8783264160156
z: 0.003832803573459387
","x: 231.80218505859375
y: 370.0936584472656
z: 0.004119195509701967
","x: 230.89219665527344
y: 365.38848876953125
z: 0.00229329289868474
","x: 231.44024658203125
y: 372.5642395019531
z: 0.002247398253530264
","x: 232.1718292236328
y: 376.1005859375
z: 0.0028656921349465847
","x: 232.84999084472656
y: 377.58026123046875
z: 0.0035199790727347136
","x: 232.95010375976562
y: 365.42498779296875
z: 0.0002986419713124633
","x: 233.7718963623047
y: 373.3028869628906
z: 0.0003013336390722543
","x: 234.56716918945312
y: 376.525634765625
z: 0.0011383492965251207
","x: 235.09339904785156
y: 377.7393798828125
z: 0.0018639516783878207
","x: 235.12188720703125
y: 364.8858642578125
z: -0.0015864159213379025
","x: 235.81222534179688
y: 372.3949890136719
z: -0.0016448638634756207
","x: 236.3752899169922
y: 375.80291748046875
z: -0.0008097514510154724
","x: 236.74098205566406
y: 377.5596618652344
z: -0.00019587797578424215
","x: 237.2616729736328
y: 363.8385009765625
z: -0.0033607017248868942
","x: 237.8501739501953
y: 369.98663330078125
z: -0.0036667841486632824
","x: 238.1378936767578
y: 373.27093505859375
z: -0.003276837756857276
","x: 238.26495361328125
y: 375.5677490234375
z: -0.0028535209130495787
","x: 276.9720153808594
y: 359.38433837890625
z: 0.0
","x: 273.3414611816406
y: 363.486083984375
z: -0.0011049237800762057
","x: 271.51568603515625
y: 369.5272216796875
z: -0.0009385584853589535
","x: 270.9654541015625
y: 375.38641357421875
z: -0.0004148549633100629
","x: 270.397216796875
y: 379.4403381347656
z: 0.0005178431165404618
","x: 274.5963439941406
y: 374.6786193847656
z: -0.0010206621373072267
","x: 273.1357421875
y: 382.5508117675781
z: -0.000625300221145153
","x: 271.2059631347656
y: 383.67132568359375
z: 0.00044496121699921787
","x: 269.9685974121094
y: 383.00091552734375
z: 0.0014818301424384117
","x: 276.2065734863281
y: 375.54815673828125
z: -0.00038819617475382984
","x: 274.33111572265625
y: 382.8851623535156
z: 0.0006603843648917973
","x: 272.3734130859375
y: 383.74310302734375
z: 0.0018405866576358676
","x: 271.17071533203125
y: 383.10247802734375
z: 0.002623165724799037
","x: 276.9968566894531
y: 375.635986328125
z: 0.00018372097110841423
","x: 275.11932373046875
y: 382.41827392578125
z: 0.0008759293705224991
","x: 273.3190002441406
y: 383.4757995605469
z: 0.0013916955795139074
","x: 272.0845947265625
y: 382.9151916503906
z: 0.001684189192019403
","x: 277.1699523925781
y: 375.0904541015625
z: 0.0006086446810513735
","x: 275.53338623046875
y: 380.9423828125
z: 0.0007074649329297245
","x: 273.80706787109375
y: 382.41436767578125
z: 0.0010033585131168365
","x: 272.440185546875
y: 382.11572265625
z: 0.0014343076618388295
"
14,"x: 256.38189697265625
y: 252.57850646972656
z: -0.26172178983688354
visibility: 0.9999654293060303
","x: 258.16748046875
y: 248.26510620117188
z: -0.24711671471595764
visibility: 0.9998805522918701
","x: 259.4501037597656
y: 248.669189453125
z: -0.24712030589580536
visibility: 0.9998788833618164
","x: 260.6895446777344
y: 249.10581970214844
z: -0.24710595607757568
visibility: 0.999894917011261
","x: 254.3730926513672
y: 247.6667938232422
z: -0.24977843463420868
visibility: 0.9998701214790344
","x: 253.1504669189453
y: 247.67648315429688
z: -0.2498081475496292
visibility: 0.999837338924408
","x: 252.02162170410156
y: 247.70079040527344
z: -0.24980077147483826
visibility: 0.9998241066932678
","x: 262.3317565917969
y: 253.2133331298828
z: -0.14934313297271729
visibility: 0.999721109867096
","x: 249.70724487304688
y: 251.65109252929688
z: -0.16323719918727875
visibility: 0.9995865225791931
","x: 259.10333251953125
y: 260.36328125
z: -0.2246207892894745
visibility: 0.999930202960968
","x: 253.6562957763672
y: 259.7041931152344
z: -0.22864404320716858
visibility: 0.9998931288719177
","x: 271.83056640625
y: 290.07037353515625
z: -0.06895133852958679
visibility: 0.999958872795105
","x: 237.5152130126953
y: 287.86212158203125
z: -0.08379453420639038
visibility: 0.9997159838676453
","x: 279.9778747558594
y: 329.029541015625
z: -0.009569654241204262
visibility: 0.989741325378418
","x: 227.8803253173828
y: 323.4293212890625
z: -0.022945204749703407
visibility: 0.9547592997550964
","x: 276.46563720703125
y: 361.49462890625
z: -0.07815449684858322
visibility: 0.9746529459953308
","x: 232.12310791015625
y: 345.31292724609375
z: -0.06454892456531525
visibility: 0.8778467178344727
","x: 274.9014587402344
y: 374.914794921875
z: -0.09763167798519135
visibility: 0.9421411156654358
","x: 233.4031982421875
y: 358.17803955078125
z: -0.08119295537471771
visibility: 0.804207444190979
","x: 272.6745300292969
y: 372.5378112792969
z: -0.12481749057769775
visibility: 0.9463471174240112
","x: 235.95230102539062
y: 355.96514892578125
z: -0.10105647146701813
visibility: 0.8099512457847595
","x: 272.37939453125
y: 368.0632019042969
z: -0.08948789536952972
visibility: 0.927513062953949
","x: 235.92315673828125
y: 351.0333557128906
z: -0.0716523751616478
visibility: 0.7830876708030701
","x: 263.46038818359375
y: 374.4750671386719
z: 0.005370214581489563
visibility: 0.9995701909065247
","x: 244.27789306640625
y: 373.3680725097656
z: -0.005399847868829966
visibility: 0.9994284510612488
","x: 259.5953674316406
y: 437.2471923828125
z: 0.017122572287917137
visibility: 0.9897313714027405
","x: 243.6005096435547
y: 437.1494140625
z: -0.007101621478796005
visibility: 0.9874501824378967
","x: 259.5929870605469
y: 496.6580505371094
z: 0.1366068571805954
visibility: 0.9909887909889221
","x: 239.98057556152344
y: 496.43377685546875
z: 0.11347321420907974
visibility: 0.9869744777679443
","x: 256.8792419433594
y: 505.2430725097656
z: 0.14172019064426422
visibility: 0.9228246212005615
","x: 241.91102600097656
y: 504.2801513671875
z: 0.11844128370285034
visibility: 0.8678643107414246
","x: 262.65093994140625
y: 514.7217407226562
z: 0.037252314388751984
visibility: 0.9871695041656494
","x: 239.8553466796875
y: 516.6973876953125
z: 0.012482755817472935
visibility: 0.9820196628570557
",4.911644697189331,"x: 232.6355438232422
y: 349.80987548828125
z: 0.0
","x: 230.600341796875
y: 355.7774353027344
z: 0.0027332522440701723
","x: 230.36953735351562
y: 362.1831970214844
z: 0.0035978418309241533
","x: 230.95562744140625
y: 366.8783264160156
z: 0.003832803573459387
","x: 231.80218505859375
y: 370.0936584472656
z: 0.004119195509701967
","x: 230.89219665527344
y: 365.38848876953125
z: 0.00229329289868474
","x: 231.44024658203125
y: 372.5642395019531
z: 0.002247398253530264
","x: 232.1718292236328
y: 376.1005859375
z: 0.0028656921349465847
","x: 232.84999084472656
y: 377.58026123046875
z: 0.0035199790727347136
","x: 232.95010375976562
y: 365.42498779296875
z: 0.0002986419713124633
","x: 233.7718963623047
y: 373.3028869628906
z: 0.0003013336390722543
","x: 234.56716918945312
y: 376.525634765625
z: 0.0011383492965251207
","x: 235.09339904785156
y: 377.7393798828125
z: 0.0018639516783878207
","x: 235.12188720703125
y: 364.8858642578125
z: -0.0015864159213379025
","x: 235.81222534179688
y: 372.3949890136719
z: -0.0016448638634756207
","x: 236.3752899169922
y: 375.80291748046875
z: -0.0008097514510154724
","x: 236.74098205566406
y: 377.5596618652344
z: -0.00019587797578424215
","x: 237.2616729736328
y: 363.8385009765625
z: -0.0033607017248868942
","x: 237.8501739501953
y: 369.98663330078125
z: -0.0036667841486632824
","x: 238.1378936767578
y: 373.27093505859375
z: -0.003276837756857276
","x: 238.26495361328125
y: 375.5677490234375
z: -0.0028535209130495787
","x: 276.9720153808594
y: 359.38433837890625
z: 0.0
","x: 273.3414611816406
y: 363.486083984375
z: -0.0011049237800762057
","x: 271.51568603515625
y: 369.5272216796875
z: -0.0009385584853589535
","x: 270.9654541015625
y: 375.38641357421875
z: -0.0004148549633100629
","x: 270.397216796875
y: 379.4403381347656
z: 0.0005178431165404618
","x: 274.5963439941406
y: 374.6786193847656
z: -0.0010206621373072267
","x: 273.1357421875
y: 382.5508117675781
z: -0.000625300221145153
","x: 271.2059631347656
y: 383.67132568359375
z: 0.00044496121699921787
","x: 269.9685974121094
y: 383.00091552734375
z: 0.0014818301424384117
","x: 276.2065734863281
y: 375.54815673828125
z: -0.00038819617475382984
","x: 274.33111572265625
y: 382.8851623535156
z: 0.0006603843648917973
","x: 272.3734130859375
y: 383.74310302734375
z: 0.0018405866576358676
","x: 271.17071533203125
y: 383.10247802734375
z: 0.002623165724799037
","x: 276.9968566894531
y: 375.635986328125
z: 0.00018372097110841423
","x: 275.11932373046875
y: 382.41827392578125
z: 0.0008759293705224991
","x: 273.3190002441406
y: 383.4757995605469
z: 0.0013916955795139074
","x: 272.0845947265625
y: 382.9151916503906
z: 0.001684189192019403
","x: 277.1699523925781
y: 375.0904541015625
z: 0.0006086446810513735
","x: 275.53338623046875
y: 380.9423828125
z: 0.0007074649329297245
","x: 273.80706787109375
y: 382.41436767578125
z: 0.0010033585131168365
","x: 272.440185546875
y: 382.11572265625
z: 0.0014343076618388295
"
15,"x: 256.38189697265625
y: 252.57850646972656
z: -0.26172178983688354
visibility: 0.9999654293060303
","x: 258.16748046875
y: 248.26510620117188
z: -0.24711671471595764
visibility: 0.9998805522918701
","x: 259.4501037597656
y: 248.669189453125
z: -0.24712030589580536
visibility: 0.9998788833618164
","x: 260.6895446777344
y: 249.10581970214844
z: -0.24710595607757568
visibility: 0.999894917011261
","x: 254.3730926513672
y: 247.6667938232422
z: -0.24977843463420868
visibility: 0.9998701214790344
","x: 253.1504669189453
y: 247.67648315429688
z: -0.2498081475496292
visibility: 0.999837338924408
","x: 252.02162170410156
y: 247.70079040527344
z: -0.24980077147483826
visibility: 0.9998241066932678
","x: 262.3317565917969
y: 253.2133331298828
z: -0.14934313297271729
visibility: 0.999721109867096
","x: 249.70724487304688
y: 251.65109252929688
z: -0.16323719918727875
visibility: 0.9995865225791931
","x: 259.10333251953125
y: 260.36328125
z: -0.2246207892894745
visibility: 0.999930202960968
","x: 253.6562957763672
y: 259.7041931152344
z: -0.22864404320716858
visibility: 0.9998931288719177
","x: 271.83056640625
y: 290.07037353515625
z: -0.06895133852958679
visibility: 0.999958872795105
","x: 237.5152130126953
y: 287.86212158203125
z: -0.08379453420639038
visibility: 0.9997159838676453
","x: 279.9778747558594
y: 329.029541015625
z: -0.009569654241204262
visibility: 0.989741325378418
","x: 227.8803253173828
y: 323.4293212890625
z: -0.022945204749703407
visibility: 0.9547592997550964
","x: 276.46563720703125
y: 361.49462890625
z: -0.07815449684858322
visibility: 0.9746529459953308
","x: 232.12310791015625
y: 345.31292724609375
z: -0.06454892456531525
visibility: 0.8778467178344727
","x: 274.9014587402344
y: 374.914794921875
z: -0.09763167798519135
visibility: 0.9421411156654358
","x: 233.4031982421875
y: 358.17803955078125
z: -0.08119295537471771
visibility: 0.804207444190979
","x: 272.6745300292969
y: 372.5378112792969
z: -0.12481749057769775
visibility: 0.9463471174240112
","x: 235.95230102539062
y: 355.96514892578125
z: -0.10105647146701813
visibility: 0.8099512457847595
","x: 272.37939453125
y: 368.0632019042969
z: -0.08948789536952972
visibility: 0.927513062953949
","x: 235.92315673828125
y: 351.0333557128906
z: -0.0716523751616478
visibility: 0.7830876708030701
","x: 263.46038818359375
y: 374.4750671386719
z: 0.005370214581489563
visibility: 0.9995701909065247
","x: 244.27789306640625
y: 373.3680725097656
z: -0.005399847868829966
visibility: 0.9994284510612488
","x: 259.5953674316406
y: 437.2471923828125
z: 0.017122572287917137
visibility: 0.9897313714027405
","x: 243.6005096435547
y: 437.1494140625
z: -0.007101621478796005
visibility: 0.9874501824378967
","x: 259.5929870605469
y: 496.6580505371094
z: 0.1366068571805954
visibility: 0.9909887909889221
","x: 239.98057556152344
y: 496.43377685546875
z: 0.11347321420907974
visibility: 0.9869744777679443
","x: 256.8792419433594
y: 505.2430725097656
z: 0.14172019064426422
visibility: 0.9228246212005615
","x: 241.91102600097656
y: 504.2801513671875
z: 0.11844128370285034
visibility: 0.8678643107414246
","x: 262.65093994140625
y: 514.7217407226562
z: 0.037252314388751984
visibility: 0.9871695041656494
","x: 239.8553466796875
y: 516.6973876953125
z: 0.012482755817472935
visibility: 0.9820196628570557
",4.911644697189331,"x: 232.6355438232422
y: 349.80987548828125
z: 0.0
","x: 230.600341796875
y: 355.7774353027344
z: 0.0027332522440701723
","x: 230.36953735351562
y: 362.1831970214844
z: 0.0035978418309241533
","x: 230.95562744140625
y: 366.8783264160156
z: 0.003832803573459387
","x: 231.80218505859375
y: 370.0936584472656
z: 0.004119195509701967
","x: 230.89219665527344
y: 365.38848876953125
z: 0.00229329289868474
","x: 231.44024658203125
y: 372.5642395019531
z: 0.002247398253530264
","x: 232.1718292236328
y: 376.1005859375
z: 0.0028656921349465847
","x: 232.84999084472656
y: 377.58026123046875
z: 0.0035199790727347136
","x: 232.95010375976562
y: 365.42498779296875
z: 0.0002986419713124633
","x: 233.7718963623047
y: 373.3028869628906
z: 0.0003013336390722543
","x: 234.56716918945312
y: 376.525634765625
z: 0.0011383492965251207
","x: 235.09339904785156
y: 377.7393798828125
z: 0.0018639516783878207
","x: 235.12188720703125
y: 364.8858642578125
z: -0.0015864159213379025
","x: 235.81222534179688
y: 372.3949890136719
z: -0.0016448638634756207
","x: 236.3752899169922
y: 375.80291748046875
z: -0.0008097514510154724
","x: 236.74098205566406
y: 377.5596618652344
z: -0.00019587797578424215
","x: 237.2616729736328
y: 363.8385009765625
z: -0.0033607017248868942
","x: 237.8501739501953
y: 369.98663330078125
z: -0.0036667841486632824
","x: 238.1378936767578
y: 373.27093505859375
z: -0.003276837756857276
","x: 238.26495361328125
y: 375.5677490234375
z: -0.0028535209130495787
","x: 276.9720153808594
y: 359.38433837890625
z: 0.0
","x: 273.3414611816406
y: 363.486083984375
z: -0.0011049237800762057
","x: 271.51568603515625
y: 369.5272216796875
z: -0.0009385584853589535
","x: 270.9654541015625
y: 375.38641357421875
z: -0.0004148549633100629
","x: 270.397216796875
y: 379.4403381347656
z: 0.0005178431165404618
","x: 274.5963439941406
y: 374.6786193847656
z: -0.0010206621373072267
","x: 273.1357421875
y: 382.5508117675781
z: -0.000625300221145153
","x: 271.2059631347656
y: 383.67132568359375
z: 0.00044496121699921787
","x: 269.9685974121094
y: 383.00091552734375
z: 0.0014818301424384117
","x: 276.2065734863281
y: 375.54815673828125
z: -0.00038819617475382984
","x: 274.33111572265625
y: 382.8851623535156
z: 0.0006603843648917973
","x: 272.3734130859375
y: 383.74310302734375
z: 0.0018405866576358676
","x: 271.17071533203125
y: 383.10247802734375
z: 0.002623165724799037
","x: 276.9968566894531
y: 375.635986328125
z: 0.00018372097110841423
","x: 275.11932373046875
y: 382.41827392578125
z: 0.0008759293705224991
","x: 273.3190002441406
y: 383.4757995605469
z: 0.0013916955795139074
","x: 272.0845947265625
y: 382.9151916503906
z: 0.001684189192019403
","x: 277.1699523925781
y: 375.0904541015625
z: 0.0006086446810513735
","x: 275.53338623046875
y: 380.9423828125
z: 0.0007074649329297245
","x: 273.80706787109375
y: 382.41436767578125
z: 0.0010033585131168365
","x: 272.440185546875
y: 382.11572265625
z: 0.0014343076618388295
"
16,"x: 257.0560607910156
y: 252.63604736328125
z: -0.2338300496339798
visibility: 0.9999673962593079
","x: 258.8752136230469
y: 248.58009338378906
z: -0.21900653839111328
visibility: 0.9998880624771118
","x: 260.1002197265625
y: 248.9901123046875
z: -0.2190256118774414
visibility: 0.9998864531517029
","x: 261.1861572265625
y: 249.43667602539062
z: -0.21899624168872833
visibility: 0.9999008178710938
","x: 255.13772583007812
y: 247.887451171875
z: -0.221908301115036
visibility: 0.999878466129303
","x: 253.8760528564453
y: 247.8226318359375
z: -0.2219325602054596
visibility: 0.9998486638069153
","x: 252.6757049560547
y: 247.73153686523438
z: -0.22194838523864746
visibility: 0.9998367428779602
","x: 262.7842102050781
y: 253.515625
z: -0.12367834150791168
visibility: 0.9997375011444092
","x: 250.40777587890625
y: 251.97930908203125
z: -0.1381191611289978
visibility: 0.9996182918548584
","x: 259.57745361328125
y: 260.546142578125
z: -0.1977212280035019
visibility: 0.9999351501464844
","x: 254.375732421875
y: 259.7448425292969
z: -0.20185205340385437
visibility: 0.9999016523361206
","x: 272.2901306152344
y: 290.188720703125
z: -0.05196865648031235
visibility: 0.9999601244926453
","x: 238.29864501953125
y: 288.1804504394531
z: -0.06322319060564041
visibility: 0.9997283220291138
","x: 280.2098083496094
y: 328.499755859375
z: -0.007149104028940201
visibility: 0.9902976155281067
","x: 229.1363067626953
y: 323.564453125
z: -0.01507220882922411
visibility: 0.9574344158172607
","x: 275.3493347167969
y: 356.8058776855469
z: -0.09599378705024719
visibility: 0.9761688709259033
","x: 233.15354919433594
y: 345.24114990234375
z: -0.08786267042160034
visibility: 0.8855586647987366
","x: 273.0663757324219
y: 369.5408630371094
z: -0.12173774093389511
visibility: 0.9450045228004456
","x: 233.62225341796875
y: 357.828125
z: -0.1112866997718811
visibility: 0.8150767087936401
","x: 270.876220703125
y: 367.1668701171875
z: -0.14604820311069489
visibility: 0.9490073919296265
","x: 236.7059326171875
y: 355.685302734375
z: -0.13189023733139038
visibility: 0.8205839395523071
","x: 270.8597106933594
y: 363.23858642578125
z: -0.10670708119869232
visibility: 0.9308027029037476
","x: 236.8479766845703
y: 351.0533142089844
z: -0.09658429026603699
visibility: 0.7938487529754639
","x: 263.5892639160156
y: 374.39691162109375
z: 0.005252266302704811
visibility: 0.9995383620262146
","x: 244.3898162841797
y: 373.38214111328125
z: -0.005262103397399187
visibility: 0.999420166015625
","x: 259.6062927246094
y: 437.5075988769531
z: 0.013767031021416187
visibility: 0.9899054765701294
","x: 243.69403076171875
y: 437.11566162109375
z: -0.00795663334429264
visibility: 0.9879375696182251
","x: 259.5644226074219
y: 496.9183654785156
z: 0.11599507182836533
visibility: 0.9912368059158325
","x: 240.1370391845703
y: 496.6544189453125
z: 0.09772752225399017
visibility: 0.9875586628913879
","x: 256.87188720703125
y: 505.34979248046875
z: 0.11950947344303131
visibility: 0.9242234230041504
","x: 241.89828491210938
y: 504.7413635253906
z: 0.10120590031147003
visibility: 0.8686485290527344
","x: 262.7889099121094
y: 514.9481201171875
z: 0.016432054340839386
visibility: 0.9874727725982666
","x: 239.73190307617188
y: 516.173583984375
z: -0.002284431364387274
visibility: 0.9826645255088806
",5.051549673080444,,,,,,,,,,,,,,,,,,,,,,,,,,,,,,,,,,,,,,,,,,
17,"x: 257.0560607910156
y: 252.63604736328125
z: -0.2338300496339798
visibility: 0.9999673962593079
","x: 258.8752136230469
y: 248.58009338378906
z: -0.21900653839111328
visibility: 0.9998880624771118
","x: 260.1002197265625
y: 248.9901123046875
z: -0.2190256118774414
visibility: 0.9998864531517029
","x: 261.1861572265625
y: 249.43667602539062
z: -0.21899624168872833
visibility: 0.9999008178710938
","x: 255.13772583007812
y: 247.887451171875
z: -0.221908301115036
visibility: 0.999878466129303
","x: 253.8760528564453
y: 247.8226318359375
z: -0.2219325602054596
visibility: 0.9998486638069153
","x: 252.6757049560547
y: 247.73153686523438
z: -0.22194838523864746
visibility: 0.9998367428779602
","x: 262.7842102050781
y: 253.515625
z: -0.12367834150791168
visibility: 0.9997375011444092
","x: 250.40777587890625
y: 251.97930908203125
z: -0.1381191611289978
visibility: 0.9996182918548584
","x: 259.57745361328125
y: 260.546142578125
z: -0.1977212280035019
visibility: 0.9999351501464844
","x: 254.375732421875
y: 259.7448425292969
z: -0.20185205340385437
visibility: 0.9999016523361206
","x: 272.2901306152344
y: 290.188720703125
z: -0.05196865648031235
visibility: 0.9999601244926453
","x: 238.29864501953125
y: 288.1804504394531
z: -0.06322319060564041
visibility: 0.9997283220291138
","x: 280.2098083496094
y: 328.499755859375
z: -0.007149104028940201
visibility: 0.9902976155281067
","x: 229.1363067626953
y: 323.564453125
z: -0.01507220882922411
visibility: 0.9574344158172607
","x: 275.3493347167969
y: 356.8058776855469
z: -0.09599378705024719
visibility: 0.9761688709259033
","x: 233.15354919433594
y: 345.24114990234375
z: -0.08786267042160034
visibility: 0.8855586647987366
","x: 273.0663757324219
y: 369.5408630371094
z: -0.12173774093389511
visibility: 0.9450045228004456
","x: 233.62225341796875
y: 357.828125
z: -0.1112866997718811
visibility: 0.8150767087936401
","x: 270.876220703125
y: 367.1668701171875
z: -0.14604820311069489
visibility: 0.9490073919296265
","x: 236.7059326171875
y: 355.685302734375
z: -0.13189023733139038
visibility: 0.8205839395523071
","x: 270.8597106933594
y: 363.23858642578125
z: -0.10670708119869232
visibility: 0.9308027029037476
","x: 236.8479766845703
y: 351.0533142089844
z: -0.09658429026603699
visibility: 0.7938487529754639
","x: 263.5892639160156
y: 374.39691162109375
z: 0.005252266302704811
visibility: 0.9995383620262146
","x: 244.3898162841797
y: 373.38214111328125
z: -0.005262103397399187
visibility: 0.999420166015625
","x: 259.6062927246094
y: 437.5075988769531
z: 0.013767031021416187
visibility: 0.9899054765701294
","x: 243.69403076171875
y: 437.11566162109375
z: -0.00795663334429264
visibility: 0.9879375696182251
","x: 259.5644226074219
y: 496.9183654785156
z: 0.11599507182836533
visibility: 0.9912368059158325
","x: 240.1370391845703
y: 496.6544189453125
z: 0.09772752225399017
visibility: 0.9875586628913879
","x: 256.87188720703125
y: 505.34979248046875
z: 0.11950947344303131
visibility: 0.9242234230041504
","x: 241.89828491210938
y: 504.7413635253906
z: 0.10120590031147003
visibility: 0.8686485290527344
","x: 262.7889099121094
y: 514.9481201171875
z: 0.016432054340839386
visibility: 0.9874727725982666
","x: 239.73190307617188
y: 516.173583984375
z: -0.002284431364387274
visibility: 0.9826645255088806
",5.051549673080444,,,,,,,,,,,,,,,,,,,,,,,,,,,,,,,,,,,,,,,,,,
18,"x: 257.4469909667969
y: 250.3195037841797
z: -0.21442186832427979
visibility: 0.9999696016311646
","x: 259.2064208984375
y: 245.91595458984375
z: -0.19964589178562164
visibility: 0.9998968839645386
","x: 260.4109802246094
y: 246.2400665283203
z: -0.19965893030166626
visibility: 0.9998953342437744
","x: 261.4496765136719
y: 246.58433532714844
z: -0.19964775443077087
visibility: 0.9999082684516907
","x: 255.4396209716797
y: 245.52593994140625
z: -0.20160846412181854
visibility: 0.9998881816864014
","x: 254.16952514648438
y: 245.62132263183594
z: -0.20163576304912567
visibility: 0.9998611211776733
","x: 252.95748901367188
y: 245.78294372558594
z: -0.20164117217063904
visibility: 0.9998503923416138
","x: 263.11297607421875
y: 250.5143585205078
z: -0.10564042627811432
visibility: 0.999758243560791
","x: 250.78070068359375
y: 250.22584533691406
z: -0.11601033061742783
visibility: 0.9996513724327087
","x: 259.9700927734375
y: 258.1033630371094
z: -0.17871060967445374
visibility: 0.9999402761459351
","x: 254.81529235839844
y: 258.1505126953125
z: -0.18184050917625427
visibility: 0.9999102354049683
","x: 272.651123046875
y: 287.325927734375
z: -0.04474285989999771
visibility: 0.999961793422699
","x: 238.73641967773438
y: 285.2552490234375
z: -0.047085683792829514
visibility: 0.9997454285621643
","x: 280.2827453613281
y: 324.97894287109375
z: -0.0528302900493145
visibility: 0.9908980131149292
","x: 229.64968872070312
y: 321.3705139160156
z: -0.045199546962976456
visibility: 0.9590471386909485
","x: 272.6387023925781
y: 346.440673828125
z: -0.1890709102153778
visibility: 0.9778531193733215
","x: 238.3113555908203
y: 338.55963134765625
z: -0.174070805311203
visibility: 0.8921538591384888
","x: 269.9491882324219
y: 355.5325622558594
z: -0.2238033562898636
visibility: 0.9486247897148132
","x: 240.0405731201172
y: 346.4437255859375
z: -0.2057677060365677
visibility: 0.8251523375511169
","x: 267.4213562011719
y: 350.5068359375
z: -0.23715949058532715
visibility: 0.9522898197174072
","x: 242.13375854492188
y: 344.005615234375
z: -0.21861997246742249
visibility: 0.8302531838417053
","x: 267.7100830078125
y: 347.8039245605469
z: -0.19601979851722717
visibility: 0.9347716569900513
","x: 241.95013427734375
y: 340.6852722167969
z: -0.18074320256710052
visibility: 0.8027250170707703
","x: 263.81463623046875
y: 370.42425537109375
z: 0.004818580113351345
visibility: 0.9995224475860596
","x: 244.618896484375
y: 368.14019775390625
z: -0.004825161769986153
visibility: 0.9994344115257263
","x: 259.8006286621094
y: 434.1337890625
z: 0.017140869051218033
visibility: 0.989846408367157
","x: 244.9134063720703
y: 432.7789611816406
z: -0.02743462659418583
visibility: 0.9881851673126221
","x: 259.6737976074219
y: 496.1851806640625
z: 0.11297086626291275
visibility: 0.9912649989128113
","x: 240.17274475097656
y: 495.8739929199219
z: 0.06191273778676987
visibility: 0.9879535436630249
","x: 257.23028564453125
y: 504.19903564453125
z: 0.11589391529560089
visibility: 0.9228793978691101
","x: 242.3953399658203
y: 503.9053955078125
z: 0.06403262168169022
visibility: 0.8680093884468079
","x: 262.76202392578125
y: 514.917236328125
z: 0.011883215978741646
visibility: 0.9874589443206787
","x: 240.11019897460938
y: 515.8792724609375
z: -0.04309632629156113
visibility: 0.9831191897392273
",5.194894790649414,,,,,,,,,,,,,,,,,,,,,,"x: 272.4299011230469
y: 341.74053955078125
z: 0.0
","x: 269.3021240234375
y: 339.82464599609375
z: -0.002161909593269229
","x: 265.75445556640625
y: 341.9950866699219
z: -0.004193242639303207
","x: 263.14794921875
y: 345.8090515136719
z: -0.005309917964041233
","x: 261.42596435546875
y: 348.81085205078125
z: -0.006019269116222858
","x: 267.7875061035156
y: 346.97406005859375
z: -0.011331954970955849
","x: 262.731201171875
y: 353.96893310546875
z: -0.013257462531328201
","x: 261.2823486328125
y: 352.2700500488281
z: -0.011383941397070885
","x: 261.50421142578125
y: 349.6420593261719
z: -0.009433138184249401
","x: 268.8079833984375
y: 350.13763427734375
z: -0.010674865916371346
","x: 263.7289733886719
y: 355.9957580566406
z: -0.012523508630692959
","x: 262.2855224609375
y: 354.0941162109375
z: -0.009412433952093124
","x: 262.5664367675781
y: 351.8982238769531
z: -0.006776237394660711
","x: 269.3262939453125
y: 352.3276062011719
z: -0.009546143002808094
","x: 264.82220458984375
y: 357.199462890625
z: -0.011505200527608395
","x: 263.4873046875
y: 355.2431945800781
z: -0.00890465546399355
","x: 263.6580810546875
y: 352.9696350097656
z: -0.006675385870039463
","x: 269.2979431152344
y: 353.8299865722656
z: -0.008347457274794579
","x: 265.6321716308594
y: 357.718994140625
z: -0.01031637005507946
","x: 264.2300720214844
y: 356.6481018066406
z: -0.009284241124987602
","x: 264.06146240234375
y: 354.7584533691406
z: -0.0078651774674654
"
19,"x: 257.4469909667969
y: 250.3195037841797
z: -0.21442186832427979
visibility: 0.9999696016311646
","x: 259.2064208984375
y: 245.91595458984375
z: -0.19964589178562164
visibility: 0.9998968839645386
","x: 260.4109802246094
y: 246.2400665283203
z: -0.19965893030166626
visibility: 0.9998953342437744
","x: 261.4496765136719
y: 246.58433532714844
z: -0.19964775443077087
visibility: 0.9999082684516907
","x: 255.4396209716797
y: 245.52593994140625
z: -0.20160846412181854
visibility: 0.9998881816864014
","x: 254.16952514648438
y: 245.62132263183594
z: -0.20163576304912567
visibility: 0.9998611211776733
","x: 252.95748901367188
y: 245.78294372558594
z: -0.20164117217063904
visibility: 0.9998503923416138
","x: 263.11297607421875
y: 250.5143585205078
z: -0.10564042627811432
visibility: 0.999758243560791
","x: 250.78070068359375
y: 250.22584533691406
z: -0.11601033061742783
visibility: 0.9996513724327087
","x: 259.9700927734375
y: 258.1033630371094
z: -0.17871060967445374
visibility: 0.9999402761459351
","x: 254.81529235839844
y: 258.1505126953125
z: -0.18184050917625427
visibility: 0.9999102354049683
","x: 272.651123046875
y: 287.325927734375
z: -0.04474285989999771
visibility: 0.999961793422699
","x: 238.73641967773438
y: 285.2552490234375
z: -0.047085683792829514
visibility: 0.9997454285621643
","x: 280.2827453613281
y: 324.97894287109375
z: -0.0528302900493145
visibility: 0.9908980131149292
","x: 229.64968872070312
y: 321.3705139160156
z: -0.045199546962976456
visibility: 0.9590471386909485
","x: 272.6387023925781
y: 346.440673828125
z: -0.1890709102153778
visibility: 0.9778531193733215
","x: 238.3113555908203
y: 338.55963134765625
z: -0.174070805311203
visibility: 0.8921538591384888
","x: 269.9491882324219
y: 355.5325622558594
z: -0.2238033562898636
visibility: 0.9486247897148132
","x: 240.0405731201172
y: 346.4437255859375
z: -0.2057677060365677
visibility: 0.8251523375511169
","x: 267.4213562011719
y: 350.5068359375
z: -0.23715949058532715
