uscmakers/ReverseChoreography/data/10_good_4_u_olivia_rodrigo.csv
,NOSE,LEFT_EYE_INNER,LEFT_EYE,LEFT_EYE_OUTER,RIGHT_EYE_INNER,RIGHT_EYE,RIGHT_EYE_OUTER,LEFT_EAR,RIGHT_EAR,MOUTH_LEFT,MOUTH_RIGHT,LEFT_SHOULDER,RIGHT_SHOULDER,LEFT_ELBOW,RIGHT_ELBOW,LEFT_WRIST,RIGHT_WRIST,LEFT_PINKY,RIGHT_PINKY,LEFT_INDEX,RIGHT_INDEX,LEFT_THUMB,RIGHT_THUMB,LEFT_HIP,RIGHT_HIP,LEFT_KNEE,RIGHT_KNEE,LEFT_ANKLE,RIGHT_ANKLE,LEFT_HEEL,RIGHT_HEEL,LEFT_FOOT_INDEX,RIGHT_FOOT_INDEX,WRIST2,THUMB_CPC2,THUMB_MCP2,THUMB_IP2,THUMB_TIP2,INDEX_FINGER_MCP2,INDEX_FINGER_PIP2,INDEX_FINGER_DIP2,INDEX_FINGER_TIP2,MIDDLE_FINGER_MCP2,MIDDLE_FINGER_PIP2,MIDDLE_FINGER_DIP2,MIDDLE_FINGER_TIP2,RING_FINGER_PIP2,RING_FINGER_DIP2,RING_FINGER_TIP2,RING_FINGER_MCP2,PINKY_MCP2,PINKY_PIP2,PINKY_DIP2,PINKY_TIP2,TIMESTAMP,WRIST,THUMB_CPC,THUMB_MCP,THUMB_IP,THUMB_TIP,INDEX_FINGER_MCP,INDEX_FINGER_PIP,INDEX_FINGER_DIP,INDEX_FINGER_TIP,MIDDLE_FINGER_MCP,MIDDLE_FINGER_PIP,MIDDLE_FINGER_DIP,MIDDLE_FINGER_TIP,RING_FINGER_PIP,RING_FINGER_DIP,RING_FINGER_TIP,RING_FINGER_MCP,PINKY_MCP,PINKY_PIP,PINKY_DIP,PINKY_TIP
0,"x: 250.61959838867188
y: 260.638427734375
z: -0.20107881724834442
visibility: 0.9988973140716553
","x: 252.3361358642578
y: 256.38873291015625
z: -0.18597500026226044
visibility: 0.9973388314247131
","x: 253.47576904296875
y: 256.6949768066406
z: -0.18595698475837708
visibility: 0.9968385696411133
","x: 254.35952758789062
y: 256.94793701171875
z: -0.18596090376377106
visibility: 0.9971848130226135
","x: 249.36590576171875
y: 255.49771118164062
z: -0.18774373829364777
visibility: 0.9974831938743591
","x: 248.02244567871094
y: 255.30963134765625
z: -0.187773197889328
visibility: 0.9974574446678162
","x: 246.802734375
y: 255.13705444335938
z: -0.18780462443828583
visibility: 0.9980858564376831
","x: 256.5291748046875
y: 261.1330871582031
z: -0.10072900354862213
visibility: 0.9916954636573792
","x: 244.57855224609375
y: 258.79620361328125
z: -0.11149618774652481
visibility: 0.9968655705451965
","x: 252.3468017578125
y: 267.82940673828125
z: -0.16960006952285767
visibility: 0.9985652565956116
","x: 248.15614318847656
y: 266.9583740234375
z: -0.17294250428676605
visibility: 0.9992172718048096
","x: 264.39605712890625
y: 291.24310302734375
z: -0.06292235106229782
visibility: 0.9992328882217407
","x: 234.19454956054688
y: 286.28704833984375
z: -0.0747142806649208
visibility: 0.999279797077179
","x: 279.64544677734375
y: 321.7065124511719
z: -0.15929622948169708
visibility: 0.9915651082992554
","x: 214.397705078125
y: 302.17926025390625
z: -0.17380423843860626
visibility: 0.9944064617156982
","x: 266.08734130859375
y: 310.0450439453125
z: -0.29280462861061096
visibility: 0.9818422794342041
","x: 232.981201171875
y: 305.9273986816406
z: -0.29473766684532166
visibility: 0.9586981534957886
","x: 262.3998718261719
y: 310.5520935058594
z: -0.3219044506549835
visibility: 0.9446426630020142
","x: 238.49697875976562
y: 308.2930603027344
z: -0.3223564624786377
visibility: 0.8659482002258301
","x: 259.8854064941406
y: 308.2069091796875
z: -0.31098970770835876
visibility: 0.9413554668426514
","x: 240.54925537109375
y: 307.43212890625
z: -0.31102532148361206
visibility: 0.8551713228225708
","x: 260.4002990722656
y: 308.1911315917969
z: -0.2909749448299408
visibility: 0.9152944087982178
","x: 238.66616821289062
y: 306.3733215332031
z: -0.29217252135276794
visibility: 0.8206022381782532
","x: 256.076416015625
y: 370.0826416015625
z: 0.002728103194385767
visibility: 0.9992613196372986
","x: 237.84457397460938
y: 367.42535400390625
z: -0.0028277698438614607
visibility: 0.999133288860321
","x: 249.91542053222656
y: 430.5075378417969
z: -0.007136636879295111
visibility: 0.9769501686096191
","x: 237.47085571289062
y: 425.1044921875
z: -0.05374623090028763
visibility: 0.9743820428848267
","x: 248.44613647460938
y: 485.2162170410156
z: 0.11623875796794891
visibility: 0.9711125493049622
","x: 230.8737030029297
y: 472.0834045410156
z: 0.0837773010134697
visibility: 0.9592389464378357
","x: 246.98123168945312
y: 491.2613525390625
z: 0.12414319813251495
visibility: 0.6942702531814575
","x: 231.39035034179688
y: 475.04638671875
z: 0.09352008998394012
visibility: 0.6411842107772827
","x: 248.89935302734375
y: 503.8870544433594
z: 0.03794485330581665
visibility: 0.9591349959373474
","x: 230.77345275878906
y: 496.42144775390625
z: 0.006970627699047327
visibility: 0.9578612446784973
","x: 263.5555114746094
y: 310.36865234375
z: 0.0
","x: 261.7578430175781
y: 306.4516296386719
z: -0.00042060037958435714
","x: 259.1102600097656
y: 304.4057922363281
z: -0.0012668512063100934
","x: 256.9613037109375
y: 304.23382568359375
z: -0.0024926757905632257
","x: 255.45504760742188
y: 304.84246826171875
z: -0.0034917716402560472
","x: 256.4349365234375
y: 306.0133972167969
z: -0.0005042156553827226
","x: 253.18971252441406
y: 305.2513122558594
z: -0.0022750520147383213
","x: 251.21017456054688
y: 304.65301513671875
z: -0.003163139568641782
","x: 249.81982421875
y: 304.2317810058594
z: -0.003654324449598789
","x: 256.71026611328125
y: 308.8854675292969
z: -0.001598506816662848
","x: 254.34556579589844
y: 309.2430419921875
z: -0.003458237973973155
","x: 254.9996795654297
y: 308.23907470703125
z: -0.003238775534555316
","x: 255.81939697265625
y: 307.4242858886719
z: -0.0026160473935306072
","x: 257.4961853027344
y: 311.8817138671875
z: -0.0029803276993334293
","x: 256.3495178222656
y: 311.5565490722656
z: -0.004794372711330652
","x: 257.79364013671875
y: 310.55657958984375
z: -0.0037665478885173798
","x: 258.9961242675781
y: 310.0448303222656
z: -0.002586820162832737
","x: 258.6648254394531
y: 314.7470703125
z: -0.004620884079486132
","x: 257.6800842285156
y: 314.0533142089844
z: -0.005915659945458174
","x: 258.6885070800781
y: 313.078857421875
z: -0.005328792612999678
","x: 259.6583251953125
y: 312.70281982421875
z: -0.004444633610546589
",4.257019758224487,,,,,,,,,,,,,,,,,,,,,
1,"x: 250.61959838867188
y: 260.638427734375
z: -0.20107881724834442
visibility: 0.9988973140716553
","x: 252.3361358642578
y: 256.38873291015625
z: -0.18597500026226044
visibility: 0.9973388314247131
","x: 253.47576904296875
y: 256.6949768066406
z: -0.18595698475837708
visibility: 0.9968385696411133
","x: 254.35952758789062
y: 256.94793701171875
z: -0.18596090376377106
visibility: 0.9971848130226135
","x: 249.36590576171875
y: 255.49771118164062
z: -0.18774373829364777
visibility: 0.9974831938743591
","x: 248.02244567871094
y: 255.30963134765625
z: -0.187773197889328
visibility: 0.9974574446678162
","x: 246.802734375
y: 255.13705444335938
z: -0.18780462443828583
visibility: 0.9980858564376831
","x: 256.5291748046875
y: 261.1330871582031
z: -0.10072900354862213
visibility: 0.9916954636573792
","x: 244.57855224609375
y: 258.79620361328125
z: -0.11149618774652481
visibility: 0.9968655705451965
","x: 252.3468017578125
y: 267.82940673828125
z: -0.16960006952285767
visibility: 0.9985652565956116
","x: 248.15614318847656
y: 266.9583740234375
z: -0.17294250428676605
visibility: 0.9992172718048096
","x: 264.39605712890625
y: 291.24310302734375
z: -0.06292235106229782
visibility: 0.9992328882217407
","x: 234.19454956054688
y: 286.28704833984375
z: -0.0747142806649208
visibility: 0.999279797077179
","x: 279.64544677734375
y: 321.7065124511719
z: -0.15929622948169708
visibility: 0.9915651082992554
","x: 214.397705078125
y: 302.17926025390625
z: -0.17380423843860626
visibility: 0.9944064617156982
","x: 266.08734130859375
y: 310.0450439453125
z: -0.29280462861061096
visibility: 0.9818422794342041
","x: 232.981201171875
y: 305.9273986816406
z: -0.29473766684532166
visibility: 0.9586981534957886
","x: 262.3998718261719
y: 310.5520935058594
z: -0.3219044506549835
visibility: 0.9446426630020142
","x: 238.49697875976562
y: 308.2930603027344
z: -0.3223564624786377
visibility: 0.8659482002258301
","x: 259.8854064941406
y: 308.2069091796875
z: -0.31098970770835876
visibility: 0.9413554668426514
","x: 240.54925537109375
y: 307.43212890625
z: -0.31102532148361206
visibility: 0.8551713228225708
","x: 260.4002990722656
y: 308.1911315917969
z: -0.2909749448299408
visibility: 0.9152944087982178
","x: 238.66616821289062
y: 306.3733215332031
z: -0.29217252135276794
visibility: 0.8206022381782532
","x: 256.076416015625
y: 370.0826416015625
z: 0.002728103194385767
visibility: 0.9992613196372986
","x: 237.84457397460938
y: 367.42535400390625
z: -0.0028277698438614607
visibility: 0.999133288860321
","x: 249.91542053222656
y: 430.5075378417969
z: -0.007136636879295111
visibility: 0.9769501686096191
","x: 237.47085571289062
y: 425.1044921875
z: -0.05374623090028763
visibility: 0.9743820428848267
","x: 248.44613647460938
y: 485.2162170410156
z: 0.11623875796794891
visibility: 0.9711125493049622
","x: 230.8737030029297
y: 472.0834045410156
z: 0.0837773010134697
visibility: 0.9592389464378357
","x: 246.98123168945312
y: 491.2613525390625
z: 0.12414319813251495
visibility: 0.6942702531814575
","x: 231.39035034179688
y: 475.04638671875
z: 0.09352008998394012
visibility: 0.6411842107772827
","x: 248.89935302734375
y: 503.8870544433594
z: 0.03794485330581665
visibility: 0.9591349959373474
","x: 230.77345275878906
y: 496.42144775390625
z: 0.006970627699047327
visibility: 0.9578612446784973
","x: 263.5555114746094
y: 310.36865234375
z: 0.0
","x: 261.7578430175781
y: 306.4516296386719
z: -0.00042060037958435714
","x: 259.1102600097656
y: 304.4057922363281
z: -0.0012668512063100934
","x: 256.9613037109375
y: 304.23382568359375
z: -0.0024926757905632257
","x: 255.45504760742188
y: 304.84246826171875
z: -0.0034917716402560472
","x: 256.4349365234375
y: 306.0133972167969
z: -0.0005042156553827226
","x: 253.18971252441406
y: 305.2513122558594
z: -0.0022750520147383213
","x: 251.21017456054688
y: 304.65301513671875
z: -0.003163139568641782
","x: 249.81982421875
y: 304.2317810058594
z: -0.003654324449598789
","x: 256.71026611328125
y: 308.8854675292969
z: -0.001598506816662848
","x: 254.34556579589844
y: 309.2430419921875
z: -0.003458237973973155
","x: 254.9996795654297
y: 308.23907470703125
z: -0.003238775534555316
","x: 255.81939697265625
y: 307.4242858886719
z: -0.0026160473935306072
","x: 257.4961853027344
y: 311.8817138671875
z: -0.0029803276993334293
","x: 256.3495178222656
y: 311.5565490722656
z: -0.004794372711330652
","x: 257.79364013671875
y: 310.55657958984375
z: -0.0037665478885173798
","x: 258.9961242675781
y: 310.0448303222656
z: -0.002586820162832737
","x: 258.6648254394531
y: 314.7470703125
z: -0.004620884079486132
","x: 257.6800842285156
y: 314.0533142089844
z: -0.005915659945458174
","x: 258.6885070800781
y: 313.078857421875
z: -0.005328792612999678
","x: 259.6583251953125
y: 312.70281982421875
z: -0.004444633610546589
",4.257019758224487,,,,,,,,,,,,,,,,,,,,,
2,"x: 250.61959838867188
y: 260.638427734375
z: -0.20107881724834442
visibility: 0.9988973140716553
","x: 252.3361358642578
y: 256.38873291015625
z: -0.18597500026226044
visibility: 0.9973388314247131
","x: 253.47576904296875
y: 256.6949768066406
z: -0.18595698475837708
visibility: 0.9968385696411133
","x: 254.35952758789062
y: 256.94793701171875
z: -0.18596090376377106
visibility: 0.9971848130226135
","x: 249.36590576171875
y: 255.49771118164062
z: -0.18774373829364777
visibility: 0.9974831938743591
","x: 248.02244567871094
y: 255.30963134765625
z: -0.187773197889328
visibility: 0.9974574446678162
","x: 246.802734375
y: 255.13705444335938
z: -0.18780462443828583
visibility: 0.9980858564376831
","x: 256.5291748046875
y: 261.1330871582031
z: -0.10072900354862213
visibility: 0.9916954636573792
","x: 244.57855224609375
y: 258.79620361328125
z: -0.11149618774652481
visibility: 0.9968655705451965
","x: 252.3468017578125
y: 267.82940673828125
z: -0.16960006952285767
visibility: 0.9985652565956116
","x: 248.15614318847656
y: 266.9583740234375
z: -0.17294250428676605
visibility: 0.9992172718048096
","x: 264.39605712890625
y: 291.24310302734375
z: -0.06292235106229782
visibility: 0.9992328882217407
","x: 234.19454956054688
y: 286.28704833984375
z: -0.0747142806649208
visibility: 0.999279797077179
","x: 279.64544677734375
y: 321.7065124511719
z: -0.15929622948169708
visibility: 0.9915651082992554
","x: 214.397705078125
y: 302.17926025390625
z: -0.17380423843860626
visibility: 0.9944064617156982
","x: 266.08734130859375
y: 310.0450439453125
z: -0.29280462861061096
visibility: 0.9818422794342041
","x: 232.981201171875
y: 305.9273986816406
z: -0.29473766684532166
visibility: 0.9586981534957886
","x: 262.3998718261719
y: 310.5520935058594
z: -0.3219044506549835
visibility: 0.9446426630020142
","x: 238.49697875976562
y: 308.2930603027344
z: -0.3223564624786377
visibility: 0.8659482002258301
","x: 259.8854064941406
y: 308.2069091796875
z: -0.31098970770835876
visibility: 0.9413554668426514
","x: 240.54925537109375
y: 307.43212890625
z: -0.31102532148361206
visibility: 0.8551713228225708
","x: 260.4002990722656
y: 308.1911315917969
z: -0.2909749448299408
visibility: 0.9152944087982178
","x: 238.66616821289062
y: 306.3733215332031
z: -0.29217252135276794
visibility: 0.8206022381782532
","x: 256.076416015625
y: 370.0826416015625
z: 0.002728103194385767
visibility: 0.9992613196372986
","x: 237.84457397460938
y: 367.42535400390625
z: -0.0028277698438614607
visibility: 0.999133288860321
","x: 249.91542053222656
y: 430.5075378417969
z: -0.007136636879295111
visibility: 0.9769501686096191
","x: 237.47085571289062
y: 425.1044921875
z: -0.05374623090028763
visibility: 0.9743820428848267
","x: 248.44613647460938
y: 485.2162170410156
z: 0.11623875796794891
visibility: 0.9711125493049622
","x: 230.8737030029297
y: 472.0834045410156
z: 0.0837773010134697
visibility: 0.9592389464378357
","x: 246.98123168945312
y: 491.2613525390625
z: 0.12414319813251495
visibility: 0.6942702531814575
","x: 231.39035034179688
y: 475.04638671875
z: 0.09352008998394012
visibility: 0.6411842107772827
","x: 248.89935302734375
y: 503.8870544433594
z: 0.03794485330581665
visibility: 0.9591349959373474
","x: 230.77345275878906
y: 496.42144775390625
z: 0.006970627699047327
visibility: 0.9578612446784973
","x: 263.5555114746094
y: 310.36865234375
z: 0.0
","x: 261.7578430175781
y: 306.4516296386719
z: -0.00042060037958435714
","x: 259.1102600097656
y: 304.4057922363281
z: -0.0012668512063100934
","x: 256.9613037109375
y: 304.23382568359375
z: -0.0024926757905632257
","x: 255.45504760742188
y: 304.84246826171875
z: -0.0034917716402560472
","x: 256.4349365234375
y: 306.0133972167969
z: -0.0005042156553827226
","x: 253.18971252441406
y: 305.2513122558594
z: -0.0022750520147383213
","x: 251.21017456054688
y: 304.65301513671875
z: -0.003163139568641782
","x: 249.81982421875
y: 304.2317810058594
z: -0.003654324449598789
","x: 256.71026611328125
y: 308.8854675292969
z: -0.001598506816662848
","x: 254.34556579589844
y: 309.2430419921875
z: -0.003458237973973155
","x: 254.9996795654297
y: 308.23907470703125
z: -0.003238775534555316
","x: 255.81939697265625
y: 307.4242858886719
z: -0.0026160473935306072
","x: 257.4961853027344
y: 311.8817138671875
z: -0.0029803276993334293
","x: 256.3495178222656
y: 311.5565490722656
z: -0.004794372711330652
","x: 257.79364013671875
y: 310.55657958984375
z: -0.0037665478885173798
","x: 258.9961242675781
y: 310.0448303222656
z: -0.002586820162832737
","x: 258.6648254394531
y: 314.7470703125
z: -0.004620884079486132
","x: 257.6800842285156
y: 314.0533142089844
z: -0.005915659945458174
","x: 258.6885070800781
y: 313.078857421875
z: -0.005328792612999678
","x: 259.6583251953125
y: 312.70281982421875
z: -0.004444633610546589
",4.257019758224487,,,,,,,,,,,,,,,,,,,,,
3,"x: 251.92929077148438
y: 260.60430908203125
z: -0.2562186121940613
visibility: 0.9990068078041077
","x: 253.6103515625
y: 256.3079528808594
z: -0.24314847588539124
visibility: 0.997602641582489
","x: 254.7145538330078
y: 256.6135559082031
z: -0.24314577877521515
visibility: 0.9971522092819214
","x: 255.68161010742188
y: 256.86480712890625
z: -0.24314184486865997
visibility: 0.9974637627601624
","x: 250.5708465576172
y: 255.49935913085938
z: -0.24435897171497345
visibility: 0.9977325201034546
","x: 249.29005432128906
y: 255.33653259277344
z: -0.2443939745426178
visibility: 0.9977091550827026
","x: 248.12713623046875
y: 255.21112060546875
z: -0.24441513419151306
visibility: 0.9982746839523315
","x: 257.67034912109375
y: 261.1295471191406
z: -0.15590518712997437
visibility: 0.992518961429596
","x: 246.0922088623047
y: 259.0621337890625
z: -0.1635424792766571
visibility: 0.9971743822097778
","x: 253.64527893066406
y: 267.7784423828125
z: -0.2230244129896164
visibility: 0.9987075328826904
","x: 249.51776123046875
y: 266.9576721191406
z: -0.22526511549949646
visibility: 0.9992945194244385
","x: 265.93511962890625
y: 293.8085632324219
z: -0.08691758662462234
visibility: 0.9993064999580383
","x: 235.87890625
y: 291.4713134765625
z: -0.09559942781925201
visibility: 0.9993448853492737
","x: 275.52398681640625
y: 331.36920166015625
z: -0.04923604056239128
visibility: 0.9917033910751343
","x: 224.94171142578125
y: 326.6938781738281
z: -0.06958308070898056
visibility: 0.9936659932136536
","x: 268.19561767578125
y: 362.223388671875
z: -0.12456732988357544
visibility: 0.9821707606315613
","x: 233.26983642578125
y: 350.8746032714844
z: -0.14107465744018555
visibility: 0.958914041519165
","x: 267.0045471191406
y: 374.0531005859375
z: -0.14883926510810852
visibility: 0.9462730288505554
","x: 235.5327606201172
y: 362.4908142089844
z: -0.16418930888175964
visibility: 0.8712426424026489
","x: 264.4868469238281
y: 371.50189208984375
z: -0.17110511660575867
visibility: 0.9435713887214661
","x: 238.06900024414062
y: 360.3316955566406
z: -0.1829768568277359
visibility: 0.8617212772369385
","x: 264.14056396484375
y: 367.08453369140625
z: -0.1340847611427307
visibility: 0.9187360405921936
","x: 238.07765197753906
y: 356.2103576660156
z: -0.1489061564207077
visibility: 0.8282622694969177
","x: 256.3473815917969
y: 371.7567138671875
z: 0.003523746971040964
visibility: 0.9992935061454773
","x: 239.07608032226562
y: 370.2593688964844
z: -0.0035835090093314648
visibility: 0.9991758465766907
","x: 250.2367401123047
y: 430.521728515625
z: 0.01245761476457119
visibility: 0.9771656394004822
","x: 239.44778442382812
y: 429.8404541015625
z: -0.0009873727103695273
visibility: 0.9753995537757874
","x: 248.44082641601562
y: 485.27630615234375
z: 0.1266758292913437
visibility: 0.9725852608680725
","x: 238.5572509765625
y: 481.38800048828125
z: 0.12071913480758667
visibility: 0.9616307616233826
","x: 246.9851531982422
y: 491.5704345703125
z: 0.1322503536939621
visibility: 0.7161226868629456
","x: 238.54669189453125
y: 488.3623046875
z: 0.12719230353832245
visibility: 0.6580407619476318
","x: 249.2338409423828
y: 503.88140869140625
z: 0.04046842083334923
visibility: 0.9613369107246399
","x: 236.734130859375
y: 499.2660827636719
z: 0.032630421221256256
visibility: 0.9597967267036438
",,,,,,,,,,,,,,,,,,,,,,4.8314313888549805,"x: 233.46188354492188
y: 353.4360046386719
z: 0.0
","x: 233.07879638671875
y: 359.1146240234375
z: 0.003755846293643117
","x: 233.57781982421875
y: 364.6582336425781
z: 0.005407135002315044
","x: 234.6298828125
y: 368.0796813964844
z: 0.006122114602476358
","x: 235.7565460205078
y: 370.3682861328125
z: 0.006825694348663092
","x: 233.52218627929688
y: 368.64508056640625
z: 0.005099195055663586
","x: 233.8903350830078
y: 374.3387451171875
z: 0.005598932038992643
","x: 234.5611114501953
y: 377.26373291015625
z: 0.0061993044801056385
","x: 235.08604431152344
y: 378.88092041015625
z: 0.00678464537486434
","x: 234.88819885253906
y: 368.75421142578125
z: 0.0026618309784680605
","x: 235.8191375732422
y: 375.118408203125
z: 0.0034760446287691593
","x: 236.6050567626953
y: 378.4042663574219
z: 0.004359113518148661
","x: 237.12066650390625
y: 380.7199401855469
z: 0.004906260874122381
","x: 236.38792419433594
y: 368.11163330078125
z: 0.000159096292918548
","x: 237.31756591796875
y: 374.3294677734375
z: 0.0006584319053217769
","x: 237.9713592529297
y: 377.8180236816406
z: 0.0014029631856828928
","x: 238.3971405029297
y: 380.7803955078125
z: 0.0018041982548311353
","x: 237.9931640625
y: 366.84130859375
z: -0.002232511295005679
","x: 238.76193237304688
y: 371.9994812011719
z: -0.002112708752974868
","x: 239.19171142578125
y: 375.11572265625
z: -0.0016589274164289236
","x: 239.48695373535156
y: 377.86676025390625
z: -0.001326390658505261
"
4,"x: 251.92929077148438
y: 260.60430908203125
z: -0.2562186121940613
visibility: 0.9990068078041077
","x: 253.6103515625
y: 256.3079528808594
z: -0.24314847588539124
visibility: 0.997602641582489
","x: 254.7145538330078
y: 256.6135559082031
z: -0.24314577877521515
visibility: 0.9971522092819214
","x: 255.68161010742188
y: 256.86480712890625
z: -0.24314184486865997
visibility: 0.9974637627601624
","x: 250.5708465576172
y: 255.49935913085938
z: -0.24435897171497345
visibility: 0.9977325201034546
","x: 249.29005432128906
y: 255.33653259277344
z: -0.2443939745426178
visibility: 0.9977091550827026
","x: 248.12713623046875
y: 255.21112060546875
z: -0.24441513419151306
visibility: 0.9982746839523315
","x: 257.67034912109375
y: 261.1295471191406
z: -0.15590518712997437
visibility: 0.992518961429596
","x: 246.0922088623047
y: 259.0621337890625
z: -0.1635424792766571
visibility: 0.9971743822097778
","x: 253.64527893066406
y: 267.7784423828125
z: -0.2230244129896164
visibility: 0.9987075328826904
","x: 249.51776123046875
y: 266.9576721191406
z: -0.22526511549949646
visibility: 0.9992945194244385
","x: 265.93511962890625
y: 293.8085632324219
z: -0.08691758662462234
visibility: 0.9993064999580383
","x: 235.87890625
y: 291.4713134765625
z: -0.09559942781925201
visibility: 0.9993448853492737
","x: 275.52398681640625
y: 331.36920166015625
z: -0.04923604056239128
visibility: 0.9917033910751343
","x: 224.94171142578125
y: 326.6938781738281
z: -0.06958308070898056
visibility: 0.9936659932136536
","x: 268.19561767578125
y: 362.223388671875
z: -0.12456732988357544
visibility: 0.9821707606315613
","x: 233.26983642578125
y: 350.8746032714844
z: -0.14107465744018555
visibility: 0.958914041519165
","x: 267.0045471191406
y: 374.0531005859375
z: -0.14883926510810852
visibility: 0.9462730288505554
","x: 235.5327606201172
y: 362.4908142089844
z: -0.16418930888175964
visibility: 0.8712426424026489
","x: 264.4868469238281
y: 371.50189208984375
z: -0.17110511660575867
visibility: 0.9435713887214661
","x: 238.06900024414062
y: 360.3316955566406
z: -0.1829768568277359
visibility: 0.8617212772369385
","x: 264.14056396484375
y: 367.08453369140625
z: -0.1340847611427307
visibility: 0.9187360405921936
","x: 238.07765197753906
y: 356.2103576660156
z: -0.1489061564207077
visibility: 0.8282622694969177
","x: 256.3473815917969
y: 371.7567138671875
z: 0.003523746971040964
visibility: 0.9992935061454773
","x: 239.07608032226562
y: 370.2593688964844
z: -0.0035835090093314648
visibility: 0.9991758465766907
","x: 250.2367401123047
y: 430.521728515625
z: 0.01245761476457119
visibility: 0.9771656394004822
","x: 239.44778442382812
y: 429.8404541015625
z: -0.0009873727103695273
visibility: 0.9753995537757874
","x: 248.44082641601562
y: 485.27630615234375
z: 0.1266758292913437
visibility: 0.9725852608680725
","x: 238.5572509765625
y: 481.38800048828125
z: 0.12071913480758667
visibility: 0.9616307616233826
","x: 246.9851531982422
y: 491.5704345703125
z: 0.1322503536939621
visibility: 0.7161226868629456
","x: 238.54669189453125
y: 488.3623046875
z: 0.12719230353832245
visibility: 0.6580407619476318
","x: 249.2338409423828
y: 503.88140869140625
z: 0.04046842083334923
visibility: 0.9613369107246399
","x: 236.734130859375
y: 499.2660827636719
z: 0.032630421221256256
visibility: 0.9597967267036438
",,,,,,,,,,,,,,,,,,,,,,4.8314313888549805,"x: 233.46188354492188
y: 353.4360046386719
z: 0.0
","x: 233.07879638671875
y: 359.1146240234375
z: 0.003755846293643117
","x: 233.57781982421875
y: 364.6582336425781
z: 0.005407135002315044
","x: 234.6298828125
y: 368.0796813964844
z: 0.006122114602476358
","x: 235.7565460205078
y: 370.3682861328125
z: 0.006825694348663092
","x: 233.52218627929688
y: 368.64508056640625
z: 0.005099195055663586
","x: 233.8903350830078
y: 374.3387451171875
z: 0.005598932038992643
","x: 234.5611114501953
y: 377.26373291015625
z: 0.0061993044801056385
","x: 235.08604431152344
y: 378.88092041015625
z: 0.00678464537486434
","x: 234.88819885253906
y: 368.75421142578125
z: 0.0026618309784680605
","x: 235.8191375732422
y: 375.118408203125
z: 0.0034760446287691593
","x: 236.6050567626953
y: 378.4042663574219
z: 0.004359113518148661
","x: 237.12066650390625
y: 380.7199401855469
z: 0.004906260874122381
","x: 236.38792419433594
y: 368.11163330078125
z: 0.000159096292918548
","x: 237.31756591796875
y: 374.3294677734375
z: 0.0006584319053217769
","x: 237.9713592529297
y: 377.8180236816406
z: 0.0014029631856828928
","x: 238.3971405029297
y: 380.7803955078125
z: 0.0018041982548311353
","x: 237.9931640625
y: 366.84130859375
z: -0.002232511295005679
","x: 238.76193237304688
y: 371.9994812011719
z: -0.002112708752974868
","x: 239.19171142578125
y: 375.11572265625
z: -0.0016589274164289236
","x: 239.48695373535156
y: 377.86676025390625
z: -0.001326390658505261
"
5,"x: 251.92929077148438
y: 260.60430908203125
z: -0.2562186121940613
visibility: 0.9990068078041077
","x: 253.6103515625
y: 256.3079528808594
z: -0.24314847588539124
visibility: 0.997602641582489
","x: 254.7145538330078
y: 256.6135559082031
z: -0.24314577877521515
visibility: 0.9971522092819214
","x: 255.68161010742188
y: 256.86480712890625
z: -0.24314184486865997
visibility: 0.9974637627601624
","x: 250.5708465576172
y: 255.49935913085938
z: -0.24435897171497345
visibility: 0.9977325201034546
","x: 249.29005432128906
y: 255.33653259277344
z: -0.2443939745426178
visibility: 0.9977091550827026
","x: 248.12713623046875
y: 255.21112060546875
z: -0.24441513419151306
visibility: 0.9982746839523315
","x: 257.67034912109375
y: 261.1295471191406
z: -0.15590518712997437
visibility: 0.992518961429596
","x: 246.0922088623047
y: 259.0621337890625
z: -0.1635424792766571
visibility: 0.9971743822097778
","x: 253.64527893066406
y: 267.7784423828125
z: -0.2230244129896164
visibility: 0.9987075328826904
","x: 249.51776123046875
y: 266.9576721191406
z: -0.22526511549949646
visibility: 0.9992945194244385
","x: 265.93511962890625
y: 293.8085632324219
z: -0.08691758662462234
visibility: 0.9993064999580383
","x: 235.87890625
y: 291.4713134765625
z: -0.09559942781925201
visibility: 0.9993448853492737
","x: 275.52398681640625
y: 331.36920166015625
z: -0.04923604056239128
visibility: 0.9917033910751343
","x: 224.94171142578125
y: 326.6938781738281
z: -0.06958308070898056
visibility: 0.9936659932136536
","x: 268.19561767578125
y: 362.223388671875
z: -0.12456732988357544
visibility: 0.9821707606315613
","x: 233.26983642578125
y: 350.8746032714844
z: -0.14107465744018555
visibility: 0.958914041519165
","x: 267.0045471191406
y: 374.0531005859375
z: -0.14883926510810852
visibility: 0.9462730288505554
","x: 235.5327606201172
y: 362.4908142089844
z: -0.16418930888175964
visibility: 0.8712426424026489
","x: 264.4868469238281
y: 371.50189208984375
z: -0.17110511660575867
visibility: 0.9435713887214661
","x: 238.06900024414062
y: 360.3316955566406
z: -0.1829768568277359
visibility: 0.8617212772369385
","x: 264.14056396484375
y: 367.08453369140625
z: -0.1340847611427307
visibility: 0.9187360405921936
","x: 238.07765197753906
y: 356.2103576660156
z: -0.1489061564207077
visibility: 0.8282622694969177
","x: 256.3473815917969
y: 371.7567138671875
z: 0.003523746971040964
visibility: 0.9992935061454773
","x: 239.07608032226562
y: 370.2593688964844
z: -0.0035835090093314648
visibility: 0.9991758465766907
","x: 250.2367401123047
y: 430.521728515625
z: 0.01245761476457119
visibility: 0.9771656394004822
","x: 239.44778442382812
y: 429.8404541015625
z: -0.0009873727103695273
visibility: 0.9753995537757874
","x: 248.44082641601562
y: 485.27630615234375
z: 0.1266758292913437
visibility: 0.9725852608680725
","x: 238.5572509765625
y: 481.38800048828125
z: 0.12071913480758667
visibility: 0.9616307616233826
","x: 246.9851531982422
y: 491.5704345703125
z: 0.1322503536939621
visibility: 0.7161226868629456
","x: 238.54669189453125
y: 488.3623046875
z: 0.12719230353832245
visibility: 0.6580407619476318
","x: 249.2338409423828
y: 503.88140869140625
z: 0.04046842083334923
visibility: 0.9613369107246399
","x: 236.734130859375
y: 499.2660827636719
z: 0.032630421221256256
visibility: 0.9597967267036438
",,,,,,,,,,,,,,,,,,,,,,4.8314313888549805,"x: 233.46188354492188
y: 353.4360046386719
z: 0.0
","x: 233.07879638671875
y: 359.1146240234375
z: 0.003755846293643117
","x: 233.57781982421875
y: 364.6582336425781
z: 0.005407135002315044
","x: 234.6298828125
y: 368.0796813964844
z: 0.006122114602476358
","x: 235.7565460205078
y: 370.3682861328125
z: 0.006825694348663092
","x: 233.52218627929688
y: 368.64508056640625
z: 0.005099195055663586
","x: 233.8903350830078
y: 374.3387451171875
z: 0.005598932038992643
","x: 234.5611114501953
y: 377.26373291015625
z: 0.0061993044801056385
","x: 235.08604431152344
y: 378.88092041015625
z: 0.00678464537486434
","x: 234.88819885253906
y: 368.75421142578125
z: 0.0026618309784680605
","x: 235.8191375732422
y: 375.118408203125
z: 0.0034760446287691593
","x: 236.6050567626953
y: 378.4042663574219
z: 0.004359113518148661
","x: 237.12066650390625
y: 380.7199401855469
z: 0.004906260874122381
","x: 236.38792419433594
y: 368.11163330078125
z: 0.000159096292918548
","x: 237.31756591796875
y: 374.3294677734375
z: 0.0006584319053217769
","x: 237.9713592529297
y: 377.8180236816406
z: 0.0014029631856828928
","x: 238.3971405029297
y: 380.7803955078125
z: 0.0018041982548311353
","x: 237.9931640625
y: 366.84130859375
z: -0.002232511295005679
","x: 238.76193237304688
y: 371.9994812011719
z: -0.002112708752974868
","x: 239.19171142578125
y: 375.11572265625
z: -0.0016589274164289236
","x: 239.48695373535156
y: 377.86676025390625
z: -0.001326390658505261
"
6,"x: 252.38336181640625
y: 260.3837890625
z: -0.31339025497436523
visibility: 0.9991055727005005
","x: 253.79393005371094
y: 256.0229797363281
z: -0.3006787896156311
visibility: 0.9978407621383667
","x: 254.8094024658203
y: 256.24615478515625
z: -0.3006781041622162
visibility: 0.9974356889724731
","x: 255.8158721923828
y: 256.43450927734375
z: -0.3007127046585083
visibility: 0.9977160692214966
","x: 250.71630859375
y: 255.4564666748047
z: -0.30346134305000305
visibility: 0.9979568719863892
","x: 249.44467163085938
y: 255.33551025390625
z: -0.30350226163864136
visibility: 0.997935950756073
","x: 248.16444396972656
y: 255.2388153076172
z: -0.30348819494247437
visibility: 0.9984442591667175
","x: 257.653564453125
y: 260.47381591796875
z: -0.20755240321159363
visibility: 0.9932643175125122
","x: 246.04348754882812
y: 259.1969909667969
z: -0.2222226858139038
visibility: 0.9974517822265625
","x: 254.0014190673828
y: 267.1606750488281
z: -0.2773125469684601
visibility: 0.9988358616828918
","x: 249.95458984375
y: 266.6842956542969
z: -0.2816334664821625
visibility: 0.999363124370575
","x: 266.13720703125
y: 293.8643798828125
z: -0.13130827248096466
visibility: 0.9993749260902405
","x: 235.806884765625
y: 291.495361328125
z: -0.13553300499916077
visibility: 0.9993898272514343
","x: 273.9660949707031
y: 329.1263427734375
z: -0.07279526442289352
visibility: 0.9921866059303284
","x: 225.7290802001953
y: 322.77203369140625
z: -0.06772217154502869
visibility: 0.9903766512870789
","x: 273.1905517578125
y: 359.7088623046875
z: -0.12483427673578262
visibility: 0.9830971360206604
","x: 225.84194946289062
y: 352.40667724609375
z: -0.09072987735271454
visibility: 0.9495521187782288
","x: 272.9085693359375
y: 372.8262023925781
z: -0.13965122401714325
visibility: 0.9486429691314697
","x: 224.67239379882812
y: 364.28662109375
z: -0.10215715318918228
visibility: 0.8600223660469055
","x: 270.4518737792969
y: 372.2773742675781
z: -0.166310116648674
visibility: 0.946535050868988
","x: 226.41075134277344
y: 363.947021484375
z: -0.12671375274658203
visibility: 0.8524580001831055
","x: 269.7248840332031
y: 367.7746887207031
z: -0.13540734350681305
visibility: 0.9232288599014282
","x: 227.3345489501953
y: 361.0008544921875
z: -0.10017137229442596
visibility: 0.8197088241577148
","x: 256.5062255859375
y: 371.70721435546875
z: 0.0023453233297914267
visibility: 0.9993346333503723
","x: 239.18995666503906
y: 370.26373291015625
z: -0.002400986384600401
visibility: 0.9992088675498962
","x: 250.41883850097656
y: 430.5780334472656
z: 0.0038248307537287474
visibility: 0.9781078100204468
","x: 239.98489379882812
y: 430.6077575683594
z: -0.015696626156568527
visibility: 0.9763237237930298
","x: 248.2467498779297
y: 485.4385986328125
z: 0.1278906911611557
visibility: 0.9742645621299744
","x: 239.7231903076172
y: 482.74603271484375
z: 0.13223333656787872
visibility: 0.9638240337371826
","x: 246.83103942871094
y: 492.230224609375
z: 0.13495811820030212
visibility: 0.7349980473518372
","x: 239.47869873046875
y: 490.0248718261719
z: 0.14112181961536407
visibility: 0.6745032072067261
","x: 249.679931640625
y: 503.914794921875
z: 0.040319789201021194
visibility: 0.9638033509254456
","x: 237.73146057128906
y: 500.6808166503906
z: 0.045126669108867645
visibility: 0.9618830680847168
",,,,,,,,,,,,,,,,,,,,,,4.987191677093506,,,,,,,,,,,,,,,,,,,,,
7,"x: 252.38336181640625
y: 260.3837890625
z: -0.31339025497436523
visibility: 0.9991055727005005
","x: 253.79393005371094
y: 256.0229797363281
z: -0.3006787896156311
visibility: 0.9978407621383667
","x: 254.8094024658203
y: 256.24615478515625
z: -0.3006781041622162
visibility: 0.9974356889724731
","x: 255.8158721923828
y: 256.43450927734375
z: -0.3007127046585083
visibility: 0.9977160692214966
","x: 250.71630859375
y: 255.4564666748047
z: -0.30346134305000305
visibility: 0.9979568719863892
","x: 249.44467163085938
y: 255.33551025390625
z: -0.30350226163864136
visibility: 0.997935950756073
","x: 248.16444396972656
y: 255.2388153076172
z: -0.30348819494247437
visibility: 0.9984442591667175
","x: 257.653564453125
y: 260.47381591796875
z: -0.20755240321159363
visibility: 0.9932643175125122
","x: 246.04348754882812
y: 259.1969909667969
z: -0.2222226858139038
visibility: 0.9974517822265625
","x: 254.0014190673828
y: 267.1606750488281
z: -0.2773125469684601
visibility: 0.9988358616828918
","x: 249.95458984375
y: 266.6842956542969
z: -0.2816334664821625
visibility: 0.999363124370575
","x: 266.13720703125
y: 293.8643798828125
z: -0.13130827248096466
visibility: 0.9993749260902405
","x: 235.806884765625
y: 291.495361328125
z: -0.13553300499916077
visibility: 0.9993898272514343
","x: 273.9660949707031
y: 329.1263427734375
z: -0.07279526442289352
visibility: 0.9921866059303284
","x: 225.7290802001953
y: 322.77203369140625
z: -0.06772217154502869
visibility: 0.9903766512870789
","x: 273.1905517578125
y: 359.7088623046875
z: -0.12483427673578262
visibility: 0.9830971360206604
","x: 225.84194946289062
y: 352.40667724609375
z: -0.09072987735271454
visibility: 0.9495521187782288
","x: 272.9085693359375
y: 372.8262023925781
z: -0.13965122401714325
visibility: 0.9486429691314697
","x: 224.67239379882812
y: 364.28662109375
z: -0.10215715318918228
visibility: 0.8600223660469055
","x: 270.4518737792969
y: 372.2773742675781
z: -0.166310116648674
visibility: 0.946535050868988
","x: 226.41075134277344
y: 363.947021484375
z: -0.12671375274658203
visibility: 0.8524580001831055
","x: 269.7248840332031
y: 367.7746887207031
z: -0.13540734350681305
visibility: 0.9232288599014282
","x: 227.3345489501953
y: 361.0008544921875
z: -0.10017137229442596
visibility: 0.8197088241577148
","x: 256.5062255859375
y: 371.70721435546875
z: 0.0023453233297914267
visibility: 0.9993346333503723
","x: 239.18995666503906
y: 370.26373291015625
z: -0.002400986384600401
visibility: 0.9992088675498962
","x: 250.41883850097656
y: 430.5780334472656
z: 0.0038248307537287474
visibility: 0.9781078100204468
","x: 239.98489379882812
y: 430.6077575683594
z: -0.015696626156568527
visibility: 0.9763237237930298
","x: 248.2467498779297
y: 485.4385986328125
z: 0.1278906911611557
visibility: 0.9742645621299744
","x: 239.7231903076172
y: 482.74603271484375
z: 0.13223333656787872
visibility: 0.9638240337371826
","x: 246.83103942871094
y: 492.230224609375
z: 0.13495811820030212
visibility: 0.7349980473518372
","x: 239.47869873046875
y: 490.0248718261719
z: 0.14112181961536407
visibility: 0.6745032072067261
","x: 249.679931640625
y: 503.914794921875
z: 0.040319789201021194
visibility: 0.9638033509254456
","x: 237.73146057128906
y: 500.6808166503906
z: 0.045126669108867645
visibility: 0.9618830680847168
",,,,,,,,,,,,,,,,,,,,,,4.987191677093506,,,,,,,,,,,,,,,,,,,,,
8,"x: 252.26986694335938
y: 258.2366027832031
z: -0.2714041769504547
visibility: 0.9991946220397949
","x: 253.70822143554688
y: 254.32473754882812
z: -0.25738924741744995
visibility: 0.9980552792549133
","x: 254.74099731445312
y: 254.53460693359375
z: -0.25738853216171265
visibility: 0.9976908564567566
","x: 255.73117065429688
y: 254.7225341796875
z: -0.25739777088165283
visibility: 0.9979427456855774
","x: 250.70460510253906
y: 253.87796020507812
z: -0.25912779569625854
visibility: 0.9981592893600464
","x: 249.42185974121094
y: 253.84197998046875
z: -0.25915586948394775
visibility: 0.9981406331062317
","x: 248.13462829589844
y: 253.878173828125
z: -0.2591340243816376
visibility: 0.9985975623130798
","x: 257.61865234375
y: 258.2926025390625
z: -0.1623711884021759
visibility: 0.9939350485801697
","x: 245.9562225341797
y: 257.58404541015625
z: -0.17216186225414276
visibility: 0.9977033138275146
","x: 253.8951873779297
y: 265.0351867675781
z: -0.23490211367607117
visibility: 0.9989513754844666
","x: 249.8419189453125
y: 264.9128112792969
z: -0.2376287430524826
visibility: 0.9994249939918518
","x: 266.158203125
y: 291.8546142578125
z: -0.12107719480991364
visibility: 0.9994364976882935
","x: 235.75961303710938
y: 290.4636535644531
z: -0.09964355081319809
visibility: 0.9994360208511353
","x: 275.05303955078125
y: 323.78887939453125
z: -0.011848393827676773
visibility: 0.9926807284355164
","x: 226.18263244628906
y: 317.9693603515625
z: -0.0056284330785274506
visibility: 0.988416850566864
","x: 274.5312805175781
y: 347.17724609375
z: -0.06799973547458649
visibility: 0.9841997623443604
","x: 222.38941955566406
y: 344.242431640625
z: -0.034840624779462814
visibility: 0.9487277269363403
","x: 274.0993347167969
y: 358.1326599121094
z: -0.08290176838636398
visibility: 0.9513739347457886
","x: 220.9073944091797
y: 353.2922668457031
z: -0.04557295888662338
visibility: 0.8621020317077637
","x: 271.6761474609375
y: 356.97857666015625
z: -0.10772866010665894
visibility: 0.9498002529144287
","x: 222.13462829589844
y: 352.9952697753906
z: -0.07099707424640656
visibility: 0.8560888767242432
","x: 271.0732727050781
y: 353.1961669921875
z: -0.07816248387098312
visibility: 0.9280602335929871
","x: 223.38951110839844
y: 350.622802734375
z: -0.04466771334409714
visibility: 0.8253475427627563
","x: 256.5378112792969
y: 371.03515625
z: 0.0020005444530397654
visibility: 0.9993559122085571
","x: 239.18429565429688
y: 369.01312255859375
z: -0.0020534670911729336
visibility: 0.999234676361084
","x: 250.82791137695312
y: 429.8556213378906
z: 0.0023909490555524826
visibility: 0.979008674621582
","x: 239.9871368408203
y: 429.97900390625
z: -0.0150265172123909
visibility: 0.9772845506668091
","x: 248.24993896484375
y: 484.8643798828125
z: 0.12578555941581726
visibility: 0.9758892059326172
","x: 238.113525390625
y: 480.7703857421875
z: 0.12245198339223862
visibility: 0.9663893580436707
","x: 246.70263671875
y: 491.45306396484375
z: 0.1331329643726349
visibility: 0.7543149590492249
","x: 238.2612762451172
y: 486.84747314453125
z: 0.1301189810037613
visibility: 0.6957512497901917
","x: 249.77694702148438
y: 504.232421875
z: 0.03933436796069145
visibility: 0.9662331342697144
","x: 236.6237335205078
y: 500.35296630859375
z: 0.0379236564040184
visibility: 0.9644712805747986
",,,,,,,,,,,,,,,,,,,,,,5.157024145126343,,,,,,,,,,,,,,,,,,,,,
9,"x: 252.26986694335938
y: 258.2366027832031
z: -0.2714041769504547
visibility: 0.9991946220397949
","x: 253.70822143554688
y: 254.32473754882812
z: -0.25738924741744995
visibility: 0.9980552792549133
","x: 254.74099731445312
y: 254.53460693359375
z: -0.25738853216171265
visibility: 0.9976908564567566
","x: 255.73117065429688
y: 254.7225341796875
z: -0.25739777088165283
visibility: 0.9979427456855774
","x: 250.70460510253906
y: 253.87796020507812
z: -0.25912779569625854
visibility: 0.9981592893600464
","x: 249.42185974121094
y: 253.84197998046875
z: -0.25915586948394775
visibility: 0.9981406331062317
","x: 248.13462829589844
y: 253.878173828125
z: -0.2591340243816376
visibility: 0.9985975623130798
","x: 257.61865234375
y: 258.2926025390625
z: -0.1623711884021759
visibility: 0.9939350485801697
","x: 245.9562225341797
y: 257.58404541015625
z: -0.17216186225414276
visibility: 0.9977033138275146
","x: 253.8951873779297
y: 265.0351867675781
z: -0.23490211367607117
visibility: 0.9989513754844666
","x: 249.8419189453125
y: 264.9128112792969
z: -0.2376287430524826
visibility: 0.9994249939918518
","x: 266.158203125
y: 291.8546142578125
z: -0.12107719480991364
visibility: 0.9994364976882935
","x: 235.75961303710938
y: 290.4636535644531
z: -0.09964355081319809
visibility: 0.9994360208511353
","x: 275.05303955078125
y: 323.78887939453125
z: -0.011848393827676773
visibility: 0.9926807284355164
","x: 226.18263244628906
y: 317.9693603515625
z: -0.0056284330785274506
visibility: 0.988416850566864
","x: 274.5312805175781
y: 347.17724609375
z: -0.06799973547458649
visibility: 0.9841997623443604
","x: 222.38941955566406
y: 344.242431640625
z: -0.034840624779462814
visibility: 0.9487277269363403
","x: 274.0993347167969
y: 358.1326599121094
z: -0.08290176838636398
visibility: 0.9513739347457886
","x: 220.9073944091797
y: 353.2922668457031
z: -0.04557295888662338
visibility: 0.8621020317077637
","x: 271.6761474609375
y: 356.97857666015625
z: -0.10772866010665894
visibility: 0.9498002529144287
","x: 222.13462829589844
y: 352.9952697753906
z: -0.07099707424640656
visibility: 0.8560888767242432
","x: 271.0732727050781
y: 353.1961669921875
z: -0.07816248387098312
visibility: 0.9280602335929871
","x: 223.38951110839844
y: 350.622802734375
z: -0.04466771334409714
visibility: 0.8253475427627563
","x: 256.5378112792969
y: 371.03515625
z: 0.0020005444530397654
visibility: 0.9993559122085571
","x: 239.18429565429688
y: 369.01312255859375
z: -0.0020534670911729336
visibility: 0.999234676361084
","x: 250.82791137695312
y: 429.8556213378906
z: 0.0023909490555524826
visibility: 0.979008674621582
","x: 239.9871368408203
y: 429.97900390625
z: -0.0150265172123909
visibility: 0.9772845506668091
","x: 248.24993896484375
y: 484.8643798828125
z: 0.12578555941581726
visibility: 0.9758892059326172
","x: 238.113525390625
y: 480.7703857421875
z: 0.12245198339223862
visibility: 0.9663893580436707
","x: 246.70263671875
y: 491.45306396484375
z: 0.1331329643726349
visibility: 0.7543149590492249
","x: 238.2612762451172
y: 486.84747314453125
z: 0.1301189810037613
visibility: 0.6957512497901917
","x: 249.77694702148438
y: 504.232421875
z: 0.03933436796069145
visibility: 0.9662331342697144
","x: 236.6237335205078
y: 500.35296630859375
z: 0.0379236564040184
visibility: 0.9644712805747986
",,,,,,,,,,,,,,,,,,,,,,5.157024145126343,,,,,,,,,,,,,,,,,,,,,
10,"x: 252.12429809570312
y: 256.7523193359375
z: -0.16090217232704163
visibility: 0.9992741942405701
","x: 253.63661193847656
y: 252.9789581298828
z: -0.14718827605247498
visibility: 0.9982478022575378
","x: 254.69129943847656
y: 253.16058349609375
z: -0.1472378522157669
visibility: 0.9979196190834045
","x: 255.6513671875
y: 253.29200744628906
z: -0.14725002646446228
visibility: 0.9981464147567749
","x: 250.24893188476562
y: 252.60690307617188
z: -0.14839908480644226
visibility: 0.9983410239219666
","x: 248.93783569335938
y: 252.64453125
z: -0.14840516448020935
visibility: 0.9983238577842712
","x: 247.65489196777344
y: 252.779052734375
z: -0.14838436245918274
visibility: 0.9987350106239319
","x: 257.549072265625
y: 256.7624816894531
z: -0.06109471246600151
visibility: 0.9945377707481384
","x: 245.7725372314453
y: 256.3231201171875
z: -0.06773470342159271
visibility: 0.9979280233383179
","x: 253.84927368164062
y: 263.5043640136719
z: -0.12859156727790833
visibility: 0.9990551471710205
","x: 249.5980987548828
y: 263.7689208984375
z: -0.13051223754882812
visibility: 0.9994812607765198
","x: 266.1348876953125
y: 289.6468811035156
z: -0.017107853665947914
visibility: 0.9994912147521973
","x: 235.31417846679688
y: 289.0106201171875
z: -0.009470352903008461
visibility: 0.999477744102478
","x: 275.38720703125
y: 321.1896057128906
z: -0.04300009831786156
visibility: 0.9926632046699524
","x: 224.34707641601562
y: 317.81451416015625
z: -0.03942897170782089
visibility: 0.9857417941093445
","x: 275.1754150390625
y: 341.2662353515625
z: -0.17143848538398743
visibility: 0.9845918416976929
","x: 222.31040954589844
y: 337.27459716796875
z: -0.1543292999267578
visibility: 0.9448736906051636
","x: 274.5369567871094
y: 351.1314392089844
z: -0.18677560985088348
visibility: 0.9535562992095947
","x: 222.18600463867188
y: 343.8699645996094
z: -0.10790085792541504
visibility: 0.8617382049560547
","x: 272.06982421875
y: 349.4093017578125
z: -0.13840334117412567
visibility: 0.9524241089820862
","x: 224.51336669921875
y: 342.2701416015625
z: -0.18991445004940033
visibility: 0.8571089506149292
","x: 271.59783935546875
y: 345.9859924316406
z: -0.1749497801065445
visibility: 0.9317629933357239
","x: 225.2486572265625
y: 340.32843017578125
z: -0.13769680261611938
visibility: 0.8264800310134888
","x: 256.49658203125
y: 370.4739074707031
z: 0.0012614306760951877
visibility: 0.9993709325790405
","x: 239.01022338867188
y: 367.04931640625
z: -0.0012513853143900633
visibility: 0.9992474317550659
","x: 250.8047637939453
y: 429.2997741699219
z: 0.001947906450368464
visibility: 0.9798476696014404
","x: 238.0418243408203
y: 428.1724853515625
z: -0.02369789220392704
visibility: 0.9783352613449097
","x: 248.73658752441406
y: 485.5120544433594
z: 0.08511699736118317
visibility: 0.977324903011322
","x: 231.20013427734375
y: 483.6148681640625
z: 0.0600203275680542
visibility: 0.9686155915260315
","x: 246.92893981933594
y: 492.8027648925781
z: 0.08743897825479507
visibility: 0.7692201733589172
","x: 232.14439392089844
y: 491.893798828125
z: 0.06173503398895264
visibility: 0.7098029851913452
","x: 249.9075469970703
y: 504.3749694824219
z: -0.008947505615651608
visibility: 0.9682402014732361
","x: 231.41314697265625
y: 500.556640625
z: -0.03664657473564148
visibility: 0.9662884473800659
",,,,,,,,,,,,,,,,,,,,,,5.301058530807495,,,,,,,,,,,,,,,,,,,,,
11,"x: 252.12429809570312
y: 256.7523193359375
z: -0.16090217232704163
visibility: 0.9992741942405701
","x: 253.63661193847656
y: 252.9789581298828
z: -0.14718827605247498
visibility: 0.9982478022575378
","x: 254.69129943847656
y: 253.16058349609375
z: -0.1472378522157669
visibility: 0.9979196190834045
","x: 255.6513671875
y: 253.29200744628906
z: -0.14725002646446228
visibility: 0.9981464147567749
","x: 250.24893188476562
y: 252.60690307617188
z: -0.14839908480644226
visibility: 0.9983410239219666
","x: 248.93783569335938
y: 252.64453125
z: -0.14840516448020935
visibility: 0.9983238577842712
","x: 247.65489196777344
y: 252.779052734375
z: -0.14838436245918274
visibility: 0.9987350106239319
","x: 257.549072265625
y: 256.7624816894531
z: -0.06109471246600151
visibility: 0.9945377707481384
","x: 245.7725372314453
y: 256.3231201171875
z: -0.06773470342159271
visibility: 0.9979280233383179
","x: 253.84927368164062
y: 263.5043640136719
z: -0.12859156727790833
visibility: 0.9990551471710205
","x: 249.5980987548828
y: 263.7689208984375
z: -0.13051223754882812
visibility: 0.9994812607765198
","x: 266.1348876953125
y: 289.6468811035156
z: -0.017107853665947914
visibility: 0.9994912147521973
","x: 235.31417846679688
y: 289.0106201171875
z: -0.009470352903008461
visibility: 0.999477744102478
","x: 275.38720703125
y: 321.1896057128906
z: -0.04300009831786156
visibility: 0.9926632046699524
","x: 224.34707641601562
y: 317.81451416015625
z: -0.03942897170782089
visibility: 0.9857417941093445
","x: 275.1754150390625
y: 341.2662353515625
z: -0.17143848538398743
visibility: 0.9845918416976929
","x: 222.31040954589844
y: 337.27459716796875
z: -0.1543292999267578
visibility: 0.9448736906051636
","x: 274.5369567871094
y: 351.1314392089844
z: -0.18677560985088348
visibility: 0.9535562992095947
","x: 222.18600463867188
y: 343.8699645996094
z: -0.10790085792541504
visibility: 0.8617382049560547
","x: 272.06982421875
y: 349.4093017578125
z: -0.13840334117412567
visibility: 0.9524241089820862
","x: 224.51336669921875
y: 342.2701416015625
z: -0.18991445004940033
visibility: 0.8571089506149292
","x: 271.59783935546875
y: 345.9859924316406
z: -0.1749497801065445
visibility: 0.9317629933357239
","x: 225.2486572265625
y: 340.32843017578125
z: -0.13769680261611938
visibility: 0.8264800310134888
","x: 256.49658203125
y: 370.4739074707031
z: 0.0012614306760951877
visibility: 0.9993709325790405
","x: 239.01022338867188
y: 367.04931640625
z: -0.0012513853143900633
visibility: 0.9992474317550659
","x: 250.8047637939453
y: 429.2997741699219
z: 0.001947906450368464
visibility: 0.9798476696014404
","x: 238.0418243408203
y: 428.1724853515625
z: -0.02369789220392704
visibility: 0.9783352613449097
","x: 248.73658752441406
y: 485.5120544433594
z: 0.08511699736118317
visibility: 0.977324903011322
","x: 231.20013427734375
y: 483.6148681640625
z: 0.0600203275680542
visibility: 0.9686155915260315
","x: 246.92893981933594
y: 492.8027648925781
z: 0.08743897825479507
visibility: 0.7692201733589172
","x: 232.14439392089844
y: 491.893798828125
z: 0.06173503398895264
visibility: 0.7098029851913452
","x: 249.9075469970703
y: 504.3749694824219
z: -0.008947505615651608
visibility: 0.9682402014732361
","x: 231.41314697265625
y: 500.556640625
z: -0.03664657473564148
visibility: 0.9662884473800659
",,,,,,,,,,,,,,,,,,,,,,5.301058530807495,,,,,,,,,,,,,,,,,,,,,
12,"x: 251.63758850097656
y: 257.6471862792969
z: -0.13720186054706573
visibility: 0.9993461966514587
","x: 253.12277221679688
y: 253.3531036376953
z: -0.12342055141925812
visibility: 0.9984219074249268
","x: 254.21990966796875
y: 253.48878479003906
z: -0.12349057197570801
visibility: 0.9981264472007751
","x: 255.15538024902344
y: 253.60037231445312
z: -0.12350745499134064
visibility: 0.9983306527137756
","x: 249.4735870361328
y: 253.25167846679688
z: -0.1235656887292862
visibility: 0.9985052943229675
","x: 248.1844940185547
y: 253.41024780273438
z: -0.12357255071401596
visibility: 0.9984893798828125
","x: 246.9082794189453
y: 253.6288604736328
z: -0.1235509067773819
visibility: 0.9988594055175781
","x: 256.5320739746094
y: 256.8124694824219
z: -0.042386431246995926
visibility: 0.9950820207595825
","x: 245.1747283935547
y: 257.3259582519531
z: -0.043319933116436005
visibility: 0.9981302618980408
","x: 253.60499572753906
y: 264.2562561035156
z: -0.1073770746588707
visibility: 0.9991486072540283
","x: 249.09982299804688
y: 264.70172119140625
z: -0.10758765786886215
visibility: 0.9995314478874207
","x: 265.49798583984375
y: 292.137939453125
z: -0.010073479264974594
visibility: 0.9995385408401489
","x: 234.6895751953125
y: 292.60137939453125
z: 0.008211378008127213
visibility: 0.9995119571685791
","x: 269.7778015136719
y: 326.8673095703125
z: -0.0623343400657177
visibility: 0.9891432523727417
","x: 228.02520751953125
y: 329.5780944824219
z: -0.020782876759767532
visibility: 0.978752851486206
","x: 273.2318420410156
y: 344.70758056640625
z: -0.21287855505943298
visibility: 0.9833346605300903
","x: 218.79222106933594
y: 339.2065124511719
z: -0.16974802315235138
visibility: 0.9460932016372681
","x: 272.43719482421875
y: 352.76800537109375
z: -0.24921417236328125
visibility: 0.9540033936500549
","x: 214.00601196289062
y: 342.5076904296875
z: -0.18975088000297546
visibility: 0.8701715469360352
","x: 270.58062744140625
y: 350.6068115234375
z: -0.26355209946632385
visibility: 0.9534112811088562
","x: 213.51658630371094
y: 340.7551574707031
z: -0.21167054772377014
visibility: 0.8666791319847107
","x: 269.8096618652344
y: 347.9185791015625
z: -0.22559604048728943
visibility: 0.9335504174232483
","x: 215.66897583007812
y: 339.77484130859375
z: -0.1773720234632492
visibility: 0.838127613067627
","x: 255.251708984375
y: 372.8880615234375
z: -0.0013614660128951073
visibility: 0.9994052052497864
","x: 237.88458251953125
y: 368.48553466796875
z: 0.0014071525074541569
visibility: 0.9992963671684265
","x: 250.57015991210938
y: 431.4023132324219
z: -0.01093149185180664
visibility: 0.9809187650680542
","x: 234.1022491455078
y: 430.1136779785156
z: -0.030259231105446815
visibility: 0.979884922504425
","x: 248.7332763671875
y: 486.4653015136719
z: 0.08379780501127243
visibility: 0.9786617755889893
","x: 228.33425903320312
y: 487.68267822265625
z: 0.06051868945360184
visibility: 0.9711485505104065
","x: 246.61004638671875
y: 494.5550842285156
z: 0.08800236880779266
visibility: 0.7845500707626343
","x: 230.2601318359375
y: 496.3236999511719
z: 0.0642213374376297
visibility: 0.7277783751487732
","x: 250.61062622070312
y: 504.9319152832031
z: -0.002142448676750064
visibility: 0.9702526926994324
","x: 225.91636657714844
y: 504.0518493652344
z: -0.030909370630979538
visibility: 0.968625545501709
",,,,,,,,,,,,,,,,,,,,,,5.426197052001953,,,,,,,,,,,,,,,,,,,,,
13,"x: 251.63758850097656
y: 257.6471862792969
z: -0.13720186054706573
visibility: 0.9993461966514587
","x: 253.12277221679688
y: 253.3531036376953
z: -0.12342055141925812
visibility: 0.9984219074249268
","x: 254.21990966796875
y: 253.48878479003906
z: -0.12349057197570801
visibility: 0.9981264472007751
","x: 255.15538024902344
y: 253.60037231445312
z: -0.12350745499134064
visibility: 0.9983306527137756
","x: 249.4735870361328
y: 253.25167846679688
z: -0.1235656887292862
visibility: 0.9985052943229675
","x: 248.1844940185547
y: 253.41024780273438
z: -0.12357255071401596
visibility: 0.9984893798828125
","x: 246.9082794189453
y: 253.6288604736328
z: -0.1235509067773819
visibility: 0.9988594055175781
","x: 256.5320739746094
y: 256.8124694824219
z: -0.042386431246995926
visibility: 0.9950820207595825
","x: 245.1747283935547
y: 257.3259582519531
z: -0.043319933116436005
visibility: 0.9981302618980408
","x: 253.60499572753906
y: 264.2562561035156
z: -0.1073770746588707
visibility: 0.9991486072540283
","x: 249.09982299804688
y: 264.70172119140625
z: -0.10758765786886215
visibility: 0.9995314478874207
","x: 265.49798583984375
y: 292.137939453125
z: -0.010073479264974594
visibility: 0.9995385408401489
","x: 234.6895751953125
y: 292.60137939453125
z: 0.008211378008127213
visibility: 0.9995119571685791
","x: 269.7778015136719
y: 326.8673095703125
z: -0.0623343400657177
visibility: 0.9891432523727417
","x: 228.02520751953125
y: 329.5780944824219
z: -0.020782876759767532
visibility: 0.978752851486206
","x: 273.2318420410156
y: 344.70758056640625
z: -0.21287855505943298
visibility: 0.9833346605300903
","x: 218.79222106933594
y: 339.2065124511719
z: -0.16974802315235138
visibility: 0.9460932016372681
","x: 272.43719482421875
y: 352.76800537109375
z: -0.24921417236328125
visibility: 0.9540033936500549
","x: 214.00601196289062
y: 342.5076904296875
z: -0.18975088000297546
visibility: 0.8701715469360352
","x: 270.58062744140625
y: 350.6068115234375
z: -0.26355209946632385
visibility: 0.9534112811088562
","x: 213.51658630371094
y: 340.7551574707031
z: -0.21167054772377014
visibility: 0.8666791319847107
","x: 269.8096618652344
y: 347.9185791015625
z: -0.22559604048728943
visibility: 0.9335504174232483
","x: 215.66897583007812
y: 339.77484130859375
z: -0.1773720234632492
visibility: 0.838127613067627
","x: 255.251708984375
y: 372.8880615234375
z: -0.0013614660128951073
visibility: 0.9994052052497864
","x: 237.88458251953125
y: 368.48553466796875
z: 0.0014071525074541569
visibility: 0.9992963671684265
","x: 250.57015991210938
y: 431.4023132324219
z: -0.01093149185180664
visibility: 0.9809187650680542
","x: 234.1022491455078
y: 430.1136779785156
z: -0.030259231105446815
visibility: 0.979884922504425
","x: 248.7332763671875
y: 486.4653015136719
z: 0.08379780501127243
visibility: 0.9786617755889893
","x: 228.33425903320312
y: 487.68267822265625
z: 0.06051868945360184
visibility: 0.9711485505104065
","x: 246.61004638671875
y: 494.5550842285156
z: 0.08800236880779266
visibility: 0.7845500707626343
","x: 230.2601318359375
y: 496.3236999511719
z: 0.0642213374376297
visibility: 0.7277783751487732
","x: 250.61062622070312
y: 504.9319152832031
z: -0.002142448676750064
visibility: 0.9702526926994324
","x: 225.91636657714844
y: 504.0518493652344
z: -0.030909370630979538
visibility: 0.968625545501709
",,,,,,,,,,,,,,,,,,,,,,5.426197052001953,,,,,,,,,,,,,,,,,,,,,
14,"x: 250.35238647460938
y: 259.12945556640625
z: -0.1763048768043518
visibility: 0.9994106888771057
","x: 251.9202880859375
y: 255.13467407226562
z: -0.16138538718223572
visibility: 0.9985783100128174
","x: 252.99859619140625
y: 255.2013397216797
z: -0.16140709817409515
visibility: 0.9983120560646057
","x: 254.02381896972656
y: 255.326171875
z: -0.16141356527805328
visibility: 0.9984956383705139
","x: 248.41372680664062
y: 255.012451171875
z: -0.16374656558036804
visibility: 0.9986532926559448
","x: 247.21360778808594
y: 255.04559326171875
z: -0.16376474499702454
visibility: 0.9986388087272644
","x: 246.02926635742188
y: 255.19198608398438
z: -0.1637640744447708
visibility: 0.9989719390869141
","x: 254.8853302001953
y: 258.5638427734375
z: -0.068549744784832
visibility: 0.9955700039863586
","x: 244.0225372314453
y: 258.6087646484375
z: -0.08233298361301422
visibility: 0.9983153343200684
","x: 252.1134796142578
y: 265.3943786621094
z: -0.14167554676532745
visibility: 0.9992328882217407
","x: 247.544921875
y: 265.5020751953125
z: -0.14554519951343536
visibility: 0.9995777606964111
","x: 262.9794921875
y: 293.4920959472656
z: -0.012870073318481445
visibility: 0.9995805025100708
","x: 232.03298950195312
y: 292.25408935546875
z: -0.028211768716573715
visibility: 0.9995556473731995
","x: 265.82330322265625
y: 334.25
z: -0.0750347301363945
visibility: 0.98929363489151
","x: 225.973388671875
y: 330.277587890625
z: -0.033164724707603455
visibility: 0.9793084263801575
","x: 256.6239929199219
y: 326.9432373046875
z: -0.25252002477645874
visibility: 0.9842433929443359
","x: 235.6128692626953
y: 336.598876953125
z: -0.2306114137172699
visibility: 0.9483472108840942
","x: 253.7235870361328
y: 322.729248046875
z: -0.2925923466682434
visibility: 0.9566658139228821
","x: 239.3503875732422
y: 336.407958984375
z: -0.2648260295391083
visibility: 0.8763516545295715
","x: 253.40426635742188
y: 316.6722717285156
z: -0.2935902178287506
visibility: 0.9561650156974792
","x: 240.3738250732422
y: 331.7471618652344
z: -0.26687896251678467
visibility: 0.8728246092796326
","x: 253.90823364257812
y: 317.5948791503906
z: -0.2568480372428894
visibility: 0.9368473887443542
","x: 239.467529296875
y: 331.2783203125
z: -0.23293189704418182
visibility: 0.8432352542877197
","x: 254.50558471679688
y: 372.6885681152344
z: 0.009709659032523632
visibility: 0.9994069337844849
","x: 236.6503143310547
y: 369.0386962890625
z: -0.009701727889478207
visibility: 0.9993257522583008
","x: 250.0696563720703
y: 432.1448974609375
z: 0.012253454886376858
visibility: 0.9819234609603882
","x: 232.98330688476562
y: 431.4637451171875
z: -0.035981856286525726
visibility: 0.9813836812973022
","x: 248.54576110839844
y: 486.4366455078125
z: 0.16499462723731995
visibility: 0.9799246191978455
","x: 225.13311767578125
y: 490.31451416015625
z: 0.07320024818181992
visibility: 0.9735162258148193
","x: 246.41842651367188
y: 494.34857177734375
z: 0.17517457902431488
visibility: 0.8001028299331665
","x: 225.4690704345703
y: 498.6356201171875
z: 0.07901255786418915
visibility: 0.7449679970741272
","x: 250.5433807373047
y: 504.9562072753906
z: 0.08297929167747498
visibility: 0.9720883965492249
","x: 226.44309997558594
y: 506.2045593261719
z: -0.021171361207962036
visibility: 0.970740556716919
",,,,,,,,,,,,,,,,,,,,,,5.55052375793457,,,,,,,,,,,,,,,,,,,,,
15,"x: 250.35238647460938
y: 259.12945556640625
z: -0.1763048768043518
visibility: 0.9994106888771057
","x: 251.9202880859375
y: 255.13467407226562
z: -0.16138538718223572
visibility: 0.9985783100128174
","x: 252.99859619140625
y: 255.2013397216797
z: -0.16140709817409515
visibility: 0.9983120560646057
","x: 254.02381896972656
y: 255.326171875
z: -0.16141356527805328
visibility: 0.9984956383705139
","x: 248.41372680664062
y: 255.012451171875
z: -0.16374656558036804
visibility: 0.9986532926559448
","x: 247.21360778808594
y: 255.04559326171875
z: -0.16376474499702454
visibility: 0.9986388087272644
","x: 246.02926635742188
y: 255.19198608398438
z: -0.1637640744447708
visibility: 0.9989719390869141
","x: 254.8853302001953
y: 258.5638427734375
z: -0.068549744784832
visibility: 0.9955700039863586
","x: 244.0225372314453
y: 258.6087646484375
z: -0.08233298361301422
visibility: 0.9983153343200684
","x: 252.1134796142578
y: 265.3943786621094
z: -0.14167554676532745
visibility: 0.9992328882217407
","x: 247.544921875
y: 265.5020751953125
z: -0.14554519951343536
visibility: 0.9995777606964111
","x: 262.9794921875
y: 293.4920959472656
z: -0.012870073318481445
visibility: 0.9995805025100708
","x: 232.03298950195312
y: 292.25408935546875
z: -0.028211768716573715
visibility: 0.9995556473731995
","x: 265.82330322265625
y: 334.25
z: -0.0750347301363945
visibility: 0.98929363489151
","x: 225.973388671875
y: 330.277587890625
z: -0.033164724707603455
visibility: 0.9793084263801575
","x: 256.6239929199219
y: 326.9432373046875
z: -0.25252002477645874
visibility: 0.9842433929443359
","x: 235.6128692626953
y: 336.598876953125
z: -0.2306114137172699
visibility: 0.9483472108840942
","x: 253.7235870361328
y: 322.729248046875
z: -0.2925923466682434
visibility: 0.9566658139228821
","x: 239.3503875732422
y: 336.407958984375
z: -0.2648260295391083
visibility: 0.8763516545295715
","x: 253.40426635742188
y: 316.6722717285156
z: -0.2935902178287506
visibility: 0.9561650156974792
","x: 240.3738250732422
y: 331.7471618652344
z: -0.26687896251678467
visibility: 0.8728246092796326
","x: 253.90823364257812
y: 317.5948791503906
z: -0.2568480372428894
visibility: 0.9368473887443542
","x: 239.467529296875
y: 331.2783203125
z: -0.23293189704418182
visibility: 0.8432352542877197
","x: 254.50558471679688
y: 372.6885681152344
z: 0.009709659032523632
visibility: 0.9994069337844849
","x: 236.6503143310547
y: 369.0386962890625
z: -0.009701727889478207
visibility: 0.9993257522583008
","x: 250.0696563720703
y: 432.1448974609375
z: 0.012253454886376858
visibility: 0.9819234609603882
","x: 232.98330688476562
y: 431.4637451171875
z: -0.035981856286525726
visibility: 0.9813836812973022
","x: 248.54576110839844
y: 486.4366455078125
z: 0.16499462723731995
visibility: 0.9799246191978455
","x: 225.13311767578125
y: 490.31451416015625
z: 0.07320024818181992
visibility: 0.9735162258148193
","x: 246.41842651367188
y: 494.34857177734375
z: 0.17517457902431488
visibility: 0.8001028299331665
","x: 225.4690704345703
y: 498.6356201171875
z: 0.07901255786418915
visibility: 0.7449679970741272
","x: 250.5433807373047
y: 504.9562072753906
z: 0.08297929167747498
visibility: 0.9720883965492249
","x: 226.44309997558594
y: 506.2045593261719
z: -0.021171361207962036
visibility: 0.970740556716919
",,,,,,,,,,,,,,,,,,,,,,5.55052375793457,,,,,,,,,,,,,,,,,,,,,
16,"x: 249.08697509765625
y: 266.902099609375
z: -0.14136452972888947
visibility: 0.9994606375694275
","x: 250.52438354492188
y: 262.52264404296875
z: -0.12722985446453094
visibility: 0.9987049102783203
","x: 251.6636505126953
y: 262.65216064453125
z: -0.12724879384040833
visibility: 0.9984621405601501
","x: 252.76617431640625
y: 262.8531799316406
z: -0.1272793710231781
visibility: 0.998629093170166
","x: 246.89212036132812
y: 262.3817138671875
z: -0.1290481835603714
visibility: 0.9987711310386658
","x: 245.6337890625
y: 262.4278564453125
z: -0.12903150916099548
visibility: 0.9987502098083496
","x: 244.48179626464844
y: 262.5566711425781
z: -0.12903790175914764
visibility: 0.9990479946136475
","x: 253.65725708007812
y: 265.4980163574219
z: -0.04671953245997429
visibility: 0.9960008859634399
","x: 242.3591766357422
y: 265.8089599609375
z: -0.0515257827937603
visibility: 0.9984315037727356
","x: 251.3206329345703
y: 273.0761413574219
z: -0.10983262956142426
visibility: 0.9993006587028503
","x: 246.58750915527344
y: 273.57733154296875
z: -0.11134056001901627
visibility: 0.9996047019958496
","x: 260.8564147949219
y: 294.562255859375
z: -0.009497500024735928
visibility: 0.9996121525764465
","x: 232.3313446044922
y: 295.0214538574219
z: -0.029607146978378296
visibility: 0.9995597004890442
","x: 257.6058349609375
y: 331.285888671875
z: -0.0693383663892746
visibility: 0.9884851574897766
","x: 240.6204376220703
y: 329.6920166015625
z: -0.04449580982327461
visibility: 0.9802926182746887
","x: 239.47604370117188
y: 320.6744079589844
z: -0.18025794625282288
visibility: 0.9837397933006287
","x: 262.9925537109375
y: 345.6538391113281
z: -0.06883221864700317
visibility: 0.9487797617912292
","x: 233.96343994140625
y: 318.9683837890625
z: -0.20812289416790009
visibility: 0.9566356539726257
","x: 269.8977355957031
y: 348.9193420410156
z: -0.08435185998678207
visibility: 0.879177987575531
","x: 233.51763916015625
y: 315.00250244140625
z: -0.20154979825019836
visibility: 0.955828070640564
","x: 270.30828857421875
y: 344.86859130859375
z: -0.08464363217353821
visibility: 0.8754732608795166
","x: 235.28512573242188
y: 315.57208251953125
z: -0.17938785254955292
visibility: 0.9365707635879517
","x: 267.4251403808594
y: 343.92889404296875
z: -0.06842168420553207
visibility: 0.8431475162506104
","x: 253.20913696289062
y: 373.865966796875
z: 0.010122539475560188
visibility: 0.9994537234306335
","x: 235.1397705078125
y: 372.23828125
z: -0.010128666646778584
visibility: 0.9993701577186584
","x: 262.66497802734375
y: 418.7672119140625
z: -0.15928882360458374
visibility: 0.9834966659545898
","x: 233.12156677246094
y: 434.4778747558594
z: -0.03608407825231552
visibility: 0.9828183054924011
","x: 248.11077880859375
y: 444.1841125488281
z: 0.06011982634663582
visibility: 0.9779217839241028
","x: 224.95701599121094
y: 492.37115478515625
z: 0.07766170054674149
visibility: 0.9756639003753662
","x: 243.91299438476562
y: 442.4560546875
z: 0.08269797265529633
visibility: 0.8072999715805054
","x: 223.52700805664062
y: 499.4735412597656
z: 0.08379535377025604
visibility: 0.7608253359794617
","x: 249.88609313964844
y: 473.5937805175781
z: 0.05865476652979851
visibility: 0.9711948037147522
","x: 226.03314208984375
y: 508.25091552734375
z: 0.005732185207307339
visibility: 0.9725457429885864
","x: 240.5984649658203
y: 322.9935302734375
z: 0.0
","x: 235.09007263183594
y: 322.8392333984375
z: 0.00431563938036561
","x: 231.6607666015625
y: 321.10931396484375
z: 0.0051112850196659565
","x: 228.99656677246094
y: 321.060302734375
z: 0.004176042508333921
","x: 226.9508819580078
y: 321.4094543457031
z: 0.0036026982124894857
","x: 230.45458984375
y: 310.67108154296875
z: 0.005886867642402649
","x: 227.16099548339844
y: 308.242431640625
z: 0.004345519468188286
","x: 226.54295349121094
y: 311.417236328125
z: 0.003713152837008238
","x: 226.8258056640625
y: 314.1481018066406
z: 0.0037836518604308367
","x: 230.83438110351562
y: 310.04205322265625
z: 0.002066010143607855
","x: 227.1043701171875
y: 306.98870849609375
z: 0.0005063363933004439
","x: 226.14080810546875
y: 309.6263122558594
z: 0.0004938932252116501
","x: 226.0671844482422
y: 311.9622497558594
z: 0.0009651156142354012
","x: 231.39053344726562
y: 310.38873291015625
z: -0.0020643158350139856
","x: 228.0383758544922
y: 307.02685546875
z: -0.00305660767480731
","x: 227.07577514648438
y: 309.2879333496094
z: -0.0016705578891560435
","x: 226.9501190185547
y: 311.3563232421875
z: -0.0004957075580023229
","x: 232.00839233398438
y: 311.70086669921875
z: -0.006267833989113569
","x: 229.5854034423828
y: 308.0107116699219
z: -0.006469665560871363
","x: 228.35415649414062
y: 307.84063720703125
z: -0.005241174716502428
","x: 227.79150390625
y: 308.0954895019531
z: -0.004147508647292852
",5.692182540893555,,,,,,,,,,,,,,,,,,,,,
17,"x: 249.08697509765625
y: 266.902099609375
z: -0.14136452972888947
visibility: 0.9994606375694275
","x: 250.52438354492188
y: 262.52264404296875
z: -0.12722985446453094
visibility: 0.9987049102783203
","x: 251.6636505126953
y: 262.65216064453125
z: -0.12724879384040833
visibility: 0.9984621405601501
","x: 252.76617431640625
y: 262.8531799316406
z: -0.1272793710231781
visibility: 0.998629093170166
","x: 246.89212036132812
y: 262.3817138671875
z: -0.1290481835603714
visibility: 0.9987711310386658
","x: 245.6337890625
y: 262.4278564453125
z: -0.12903150916099548
visibility: 0.9987502098083496
","x: 244.48179626464844
y: 262.5566711425781
z: -0.12903790175914764
visibility: 0.9990479946136475
","x: 253.65725708007812
y: 265.4980163574219
z: -0.04671953245997429
visibility: 0.9960008859634399
","x: 242.3591766357422
y: 265.8089599609375
z: -0.0515257827937603
visibility: 0.9984315037727356
","x: 251.3206329345703
y: 273.0761413574219
z: -0.10983262956142426
visibility: 0.9993006587028503
","x: 246.58750915527344
y: 273.57733154296875
z: -0.11134056001901627
visibility: 0.9996047019958496
","x: 260.8564147949219
y: 294.562255859375
z: -0.009497500024735928
visibility: 0.9996121525764465
","x: 232.3313446044922
y: 295.0214538574219
z: -0.029607146978378296
visibility: 0.9995597004890442
","x: 257.6058349609375
y: 331.285888671875
z: -0.0693383663892746
visibility: 0.9884851574897766
","x: 240.6204376220703
y: 329.6920166015625
z: -0.04449580982327461
visibility: 0.9802926182746887
","x: 239.47604370117188
y: 320.6744079589844
z: -0.18025794625282288
visibility: 0.9837397933006287
","x: 262.9925537109375
y: 345.6538391113281
z: -0.06883221864700317
visibility: 0.9487797617912292
","x: 233.96343994140625
y: 318.9683837890625
z: -0.20812289416790009
visibility: 0.9566356539726257
","x: 269.8977355957031
y: 348.9193420410156
z: -0.08435185998678207
visibility: 0.879177987575531
","x: 233.51763916015625
y: 315.00250244140625
z: -0.20154979825019836
visibility: 0.955828070640564
","x: 270.30828857421875
y: 344.86859130859375
z: -0.08464363217353821
visibility: 0.8754732608795166
","x: 235.28512573242188
y: 315.57208251953125
z: -0.17938785254955292
visibility: 0.9365707635879517
","x: 267.4251403808594
y: 343.92889404296875
z: -0.06842168420553207
visibility: 0.8431475162506104
","x: 253.20913696289062
y: 373.865966796875
z: 0.010122539475560188
visibility: 0.9994537234306335
","x: 235.1397705078125
y: 372.23828125
z: -0.010128666646778584
visibility: 0.9993701577186584
","x: 262.66497802734375
y: 418.7672119140625
z: -0.15928882360458374
visibility: 0.9834966659545898
","x: 233.12156677246094
y: 434.4778747558594
z: -0.03608407825231552
visibility: 0.9828183054924011
","x: 248.11077880859375
y: 444.1841125488281
z: 0.06011982634663582
visibility: 0.9779217839241028
","x: 224.95701599121094
y: 492.37115478515625
z: 0.07766170054674149
visibility: 0.9756639003753662
","x: 243.91299438476562
y: 442.4560546875
z: 0.08269797265529633
visibility: 0.8072999715805054
","x: 223.52700805664062
y: 499.4735412597656
z: 0.08379535377025604
visibility: 0.7608253359794617
","x: 249.88609313964844
y: 473.5937805175781
z: 0.05865476652979851
visibility: 0.9711948037147522
","x: 226.03314208984375
y: 508.25091552734375
z: 0.005732185207307339
visibility: 0.9725457429885864
","x: 240.5984649658203
y: 322.9935302734375
z: 0.0
","x: 235.09007263183594
y: 322.8392333984375
z: 0.00431563938036561
","x: 231.6607666015625
y: 321.10931396484375
z: 0.0051112850196659565
","x: 228.99656677246094
y: 321.060302734375
z: 0.004176042508333921
","x: 226.9508819580078
y: 321.4094543457031
z: 0.0036026982124894857
","x: 230.45458984375
y: 310.67108154296875
z: 0.005886867642402649
","x: 227.16099548339844
y: 308.242431640625
z: 0.004345519468188286
","x: 226.54295349121094
y: 311.417236328125
z: 0.003713152837008238
","x: 226.8258056640625
y: 314.1481018066406
z: 0.0037836518604308367
","x: 230.83438110351562
y: 310.04205322265625
z: 0.002066010143607855
","x: 227.1043701171875
y: 306.98870849609375
z: 0.0005063363933004439
","x: 226.14080810546875
y: 309.6263122558594
z: 0.0004938932252116501
","x: 226.0671844482422
y: 311.9622497558594
z: 0.0009651156142354012
","x: 231.39053344726562
y: 310.38873291015625
z: -0.0020643158350139856
","x: 228.0383758544922
y: 307.02685546875
z: -0.00305660767480731
","x: 227.07577514648438
y: 309.2879333496094
z: -0.0016705578891560435
","x: 226.9501190185547
y: 311.3563232421875
z: -0.0004957075580023229
","x: 232.00839233398438
y: 311.70086669921875
z: -0.006267833989113569
","x: 229.5854034423828
y: 308.0107116699219
z: -0.006469665560871363
","x: 228.35415649414062
y: 307.84063720703125
z: -0.005241174716502428
","x: 227.79150390625
y: 308.0954895019531
z: -0.004147508647292852
",5.692182540893555,,,,,,,,,,,,,,,,,,,,,
18,"x: 249.08697509765625
y: 266.902099609375
z: -0.14136452972888947
visibility: 0.9994606375694275
","x: 250.52438354492188
y: 262.52264404296875
z: -0.12722985446453094
visibility: 0.9987049102783203
","x: 251.6636505126953
y: 262.65216064453125
z: -0.12724879384040833
visibility: 0.9984621405601501
","x: 252.76617431640625
y: 262.8531799316406
z: -0.1272793710231781
visibility: 0.998629093170166
","x: 246.89212036132812
y: 262.3817138671875
z: -0.1290481835603714
visibility: 0.9987711310386658
","x: 245.6337890625
y: 262.4278564453125
z: -0.12903150916099548
visibility: 0.9987502098083496
","x: 244.48179626464844
y: 262.5566711425781
z: -0.12903790175914764
visibility: 0.9990479946136475
","x: 253.65725708007812
y: 265.4980163574219
z: -0.04671953245997429
visibility: 0.9960008859634399
","x: 242.3591766357422
y: 265.8089599609375
z: -0.0515257827937603
visibility: 0.9984315037727356
","x: 251.3206329345703
y: 273.0761413574219
z: -0.10983262956142426
visibility: 0.9993006587028503
","x: 246.58750915527344
y: 273.57733154296875
z: -0.11134056001901627
visibility: 0.9996047019958496
","x: 260.8564147949219
y: 294.562255859375
z: -0.009497500024735928
visibility: 0.9996121525764465
","x: 232.3313446044922
y: 295.0214538574219
z: -0.029607146978378296
visibility: 0.9995597004890442
","x: 257.6058349609375
y: 331.285888671875
z: -0.0693383663892746
visibility: 0.9884851574897766
","x: 240.6204376220703
y: 329.6920166015625
z: -0.04449580982327461
visibility: 0.9802926182746887
","x: 239.47604370117188
y: 320.6744079589844
z: -0.18025794625282288
visibility: 0.9837397933006287
","x: 262.9925537109375
y: 345.6538391113281
z: -0.06883221864700317
visibility: 0.9487797617912292
","x: 233.96343994140625
y: 318.9683837890625
z: -0.20812289416790009
visibility: 0.9566356539726257
","x: 269.8977355957031
y: 348.9193420410156
z: -0.08435185998678207
visibility: 0.879177987575531
","x: 233.51763916015625
y: 315.00250244140625
z: -0.20154979825019836
visibility: 0.955828070640564
","x: 270.30828857421875
y: 344.86859130859375
z: -0.08464363217353821
visibility: 0.8754732608795166
","x: 235.28512573242188
y: 315.57208251953125
z: -0.17938785254955292
visibility: 0.9365707635879517
","x: 267.4251403808594
y: 343.92889404296875
z: -0.06842168420553207
visibility: 0.8431475162506104
","x: 253.20913696289062
y: 373.865966796875
z: 0.010122539475560188
visibility: 0.9994537234306335
","x: 235.1397705078125
y: 372.23828125
z: -0.010128666646778584
visibility: 0.9993701577186584
","x: 262.66497802734375
y: 418.7672119140625
z: -0.15928882360458374
visibility: 0.9834966659545898
","x: 233.12156677246094
y: 434.4778747558594
z: -0.03608407825231552
visibility: 0.9828183054924011
","x: 248.11077880859375
y: 444.1841125488281
z: 0.06011982634663582
visibility: 0.9779217839241028
","x: 224.95701599121094
y: 492.37115478515625
z: 0.07766170054674149
visibility: 0.9756639003753662
","x: 243.91299438476562
y: 442.4560546875
z: 0.08269797265529633
visibility: 0.8072999715805054
","x: 223.52700805664062
y: 499.4735412597656
z: 0.08379535377025604
visibility: 0.7608253359794617
","x: 249.88609313964844
y: 473.5937805175781
z: 0.05865476652979851
visibility: 0.9711948037147522
","x: 226.03314208984375
y: 508.25091552734375
z: 0.005732185207307339
visibility: 0.9725457429885864
","x: 240.5984649658203
y: 322.9935302734375
z: 0.0
","x: 235.09007263183594
y: 322.8392333984375
z: 0.00431563938036561
","x: 231.6607666015625
y: 321.10931396484375
z: 0.0051112850196659565
","x: 228.99656677246094
y: 321.060302734375
z: 0.004176042508333921
","x: 226.9508819580078
y: 321.4094543457031
z: 0.0036026982124894857
","x: 230.45458984375
y: 310.67108154296875
z: 0.005886867642402649
","x: 227.16099548339844
y: 308.242431640625
z: 0.004345519468188286
","x: 226.54295349121094
y: 311.417236328125
z: 0.003713152837008238
","x: 226.8258056640625
y: 314.1481018066406
z: 0.0037836518604308367
","x: 230.83438110351562
y: 310.04205322265625
z: 0.002066010143607855
","x: 227.1043701171875
y: 306.98870849609375
z: 0.0005063363933004439
","x: 226.14080810546875
y: 309.6263122558594
z: 0.0004938932252116501
","x: 226.0671844482422
y: 311.9622497558594
z: 0.0009651156142354012
","x: 231.39053344726562
y: 310.38873291015625
z: -0.0020643158350139856
","x: 228.0383758544922
y: 307.02685546875
z: -0.00305660767480731
","x: 227.07577514648438
y: 309.2879333496094
z: -0.0016705578891560435
","x: 226.9501190185547
y: 311.3563232421875
z: -0.0004957075580023229
","x: 232.00839233398438
y: 311.70086669921875
z: -0.006267833989113569
","x: 229.5854034423828
y: 308.0107116699219
z: -0.006469665560871363
","x: 228.35415649414062
y: 307.84063720703125
z: -0.005241174716502428
","x: 227.79150390625
y: 308.0954895019531
z: -0.004147508647292852
",5.692182540893555,,,,,,,,,,,,,,,,,,,,,
19,"x: 250.65602111816406
y: 265.5321044921875
z: -0.16781120002269745
visibility: 0.9995110630989075
","x: 251.35423278808594
y: 261.52972412109375
z: -0.15239746868610382
visibility: 0.998828113079071
","x: 252.2244873046875
y: 262.12091064453125
z: -0.15244705975055695
visibility: 0.9986085295677185
","x: 253.2972412109375
y: 262.59222412109375
z: -0.15251648426055908
visibility: 0.9987584352493286
","x: 248.0711212158203
y: 260.9518127441406
z: -0.1560596227645874
visibility: 0.9988866448402405
","x: 246.77890014648438
y: 260.9914245605469
z: -0.15606141090393066
visibility: 0.998866617679596
","x: 245.53659057617188
y: 261.12640380859375
z: -0.15606942772865295
visibility: 0.9991328120231628
","x: 254.0328826904297
y: 263.9688415527344
z: -0.060964472591876984
visibility: 0.996393084526062
","x: 243.3088836669922
y: 264.5273132324219
z: -0.07777921855449677
visibility: 0.99857497215271
","x: 252.67881774902344
y: 272.06597900390625
z: -0.1336091160774231
visibility: 0.9993632435798645
","x: 248.66357421875
y: 272.1514587402344
z: -0.13837209343910217
visibility: 0.9996356964111328
","x: 261.48175048828125
y: 292.7837829589844
z: 0.01690988428890705
visibility: 0.9995771050453186
","x: 236.6913604736328
y: 294.32525634765625
z: -0.07162947952747345
visibility: 0.9995075464248657
","x: 270.7691955566406
y: 319.4525146484375
z: 0.0030581688042730093
visibility: 0.9415823221206665
","x: 239.8450164794922
y: 327.6795959472656
z: -0.13770753145217896
visibility: 0.9381428360939026
","x: 285.9891357421875
y: 321.88238525390625
z: -0.11823614686727524
visibility: 0.9208136796951294
","x: 248.97262573242188
y: 348.10260009765625
z: -0.2418319284915924
visibility: 0.8745989799499512
","x: 289.8274841308594
y: 323.4520263671875
z: -0.14141084253787994
visibility: 0.892475426197052
","x: 250.91769409179688
y: 354.6029968261719
z: -0.26752182841300964
visibility: 0.8118679523468018
","x: 289.79534912109375
y: 320.3542785644531
z: -0.15691088140010834
visibility: 0.8938925862312317
","x: 251.7520751953125
y: 351.35687255859375
z: -0.27980703115463257
visibility: 0.8087621331214905
","x: 287.7031555175781
y: 319.9908142089844
z: -0.12908686697483063
visibility: 0.8765283226966858
","x: 251.15664672851562
y: 348.9376525878906
z: -0.2493075132369995
visibility: 0.7765334844589233
","x: 255.30722045898438
y: 372.25848388671875
z: 0.03147319704294205
visibility: 0.9994614124298096
","x: 238.3704071044922
y: 371.8680114746094
z: -0.0314219631254673
visibility: 0.999377965927124
","x: 274.1983642578125
y: 409.43109130859375
z: -0.07942591607570648
visibility: 0.9846054315567017
","x: 233.77337646484375
y: 434.3816833496094
z: -0.07234971225261688
visibility: 0.9843938946723938
","x: 262.92431640625
y: 452.4801940917969
z: 0.08532656729221344
visibility: 0.9789140224456787
","x: 225.61325073242188
y: 491.8402404785156
z: 0.0052018919959664345
visibility: 0.9779423475265503
","x: 256.0683288574219
y: 458.6986999511719
z: 0.09891951829195023
visibility: 0.8238166570663452
","x: 224.83987426757812
y: 499.1650390625
z: 0.007874460890889168
visibility: 0.7802519202232361
","x: 274.0786437988281
y: 478.0440979003906
z: 0.047218434512615204
visibility: 0.9722716808319092
","x: 226.6417999267578
y: 508.87811279296875
z: -0.09000780433416367
visibility: 0.974631667137146
",,,,,,,,,,,,,,,,,,,,,,5.818192005157471,,,,,,,,,,,,,,,,,,,,,
20,"x: 250.65602111816406
y: 265.5321044921875
z: -0.16781120002269745
visibility: 0.9995110630989075
","x: 251.35423278808594
y: 261.52972412109375
z: -0.15239746868610382
visibility: 0.998828113079071
","x: 252.2244873046875
y: 262.12091064453125
z: -0.15244705975055695
visibility: 0.9986085295677185
","x: 253.2972412109375
y: 262.59222412109375
z: -0.15251648426055908
visibility: 0.9987584352493286
","x: 248.0711212158203
y: 260.9518127441406
z: -0.1560596227645874
visibility: 0.9988866448402405
","x: 246.77890014648438
y: 260.9914245605469
z: -0.15606141090393066
visibility: 0.998866617679596
","x: 245.53659057617188
y: 261.12640380859375
z: -0.15606942772865295
visibility: 0.9991328120231628
","x: 254.0328826904297
y: 263.9688415527344
z: -0.060964472591876984
visibility: 0.996393084526062
","x: 243.3088836669922
y: 264.5273132324219
z: -0.07777921855449677
visibility: 0.99857497215271
","x: 252.67881774902344
y: 272.06597900390625
z: -0.1336091160774231
visibility: 0.9993632435798645
","x: 248.66357421875
y: 272.1514587402344
z: -0.13837209343910217
visibility: 0.9996356964111328
","x: 261.48175048828125
y: 292.7837829589844
z: 0.01690988428890705
visibility: 0.9995771050453186
","x: 236.6913604736328
y: 294.32525634765625
z: -0.07162947952747345
visibility: 0.9995075464248657
","x: 270.7691955566406
y: 319.4525146484375
z: 0.0030581688042730093
visibility: 0.9415823221206665
","x: 239.8450164794922
y: 327.6795959472656
z: -0.13770753145217896
visibility: 0.9381428360939026
","x: 285.9891357421875
y: 321.88238525390625
z: -0.11823614686727524
visibility: 0.9208136796951294
","x: 248.97262573242188
y: 348.10260009765625
z: -0.2418319284915924
visibility: 0.8745989799499512
","x: 289.8274841308594
y: 323.4520263671875
z: -0.14141084253787994
visibility: 0.892475426197052
","x: 250.91769409179688
y: 354.6029968261719
z: -0.26752182841300964
visibility: 0.8118679523468018
","x: 289.79534912109375
y: 320.3542785644531
z: -0.15691088140010834
visibility: 0.8938925862312317
","x: 251.7520751953125
y: 351.35687255859375
z: -0.27980703115463257
visibility: 0.8087621331214905
","x: 287.7031555175781
y: 319.9908142089844
z: -0.12908686697483063
visibility: 0.8765283226966858
","x: 251.15664672851562
y: 348.9376525878906
z: -0.2493075132369995
visibility: 0.7765334844589233
","x: 255.30722045898438
y: 372.25848388671875
z: 0.03147319704294205
visibility: 0.9994614124298096
","x: 238.3704071044922
y: 371.8680114746094
z: -0.0314219631254673
visibility: 0.999377965927124
","x: 274.1983642578125
y: 409.43109130859375
z: -0.07942591607570648
visibility: 0.9846054315567017
","x: 233.77337646484375
y: 434.3816833496094
z: -0.07234971225261688
visibility: 0.9843938946723938
","x: 262.92431640625
y: 452.4801940917969
z: 0.08532656729221344
visibility: 0.9789140224456787
","x: 225.61325073242188
y: 491.8402404785156
z: 0.0052018919959664345
visibility: 0.9779423475265503
","x: 256.0683288574219
y: 458.6986999511719
z: 0.09891951829195023
visibility: 0.8238166570663452
","x: 224.83987426757812
y: 499.1650390625
z: 0.007874460890889168
visibility: 0.7802519202232361
","x: 274.0786437988281
y: 478.0440979003906
z: 0.047218434512615204
visibility: 0.9722716808319092
","x: 226.6417999267578
y: 508.87811279296875
z: -0.09000780433416367
visibility: 0.974631667137146
",,,,,,,,,,,,,,,,,,,,,,5.818192005157471,,,,,,,,,,,,,,,,,,,,,
21,"x: 259.5491638183594
y: 266.2239990234375
z: -0.22809083759784698
visibility: 0.9995596408843994
","x: 260.4590148925781
y: 261.47503662109375
z: -0.216520756483078
visibility: 0.9989433288574219
","x: 261.516357421875
y: 261.67919921875
z: -0.21654458343982697
visibility: 0.9987460374832153
","x: 262.5627136230469
y: 261.8321533203125
z: -0.21656544506549835
visibility: 0.9988803267478943
","x: 257.2232666015625
y: 261.7562255859375
z: -0.2169153392314911
visibility: 0.9989962577819824
","x: 255.99969482421875
y: 262.09478759765625
z: -0.216966912150383
visibility: 0.9989784359931946
","x: 254.73207092285156
y: 262.5032958984375
z: -0.216961070895195
visibility: 0.9992173910140991
","x: 264.28369140625
y: 264.4381103515625
z: -0.13465279340744019
visibility: 0.9967491030693054
","x: 252.78317260742188
y: 266.3164978027344
z: -0.13598285615444183
visibility: 0.9987149834632874
","x: 262.067626953125
y: 272.8699645996094
z: -0.1968383640050888
visibility: 0.9994245171546936
","x: 257.53558349609375
y: 273.69256591796875
z: -0.1972586214542389
visibility: 0.9996702671051025
","x: 274.3604431152344
y: 294.39495849609375
z: -0.0669269859790802
visibility: 0.999614953994751
","x: 243.73243713378906
y: 293.61163330078125
z: -0.08510009199380875
visibility: 0.9995524287223816
","x: 292.5008544921875
y: 310.28466796875
z: -0.05973668023943901
visibility: 0.9471004605293274
","x: 229.61073303222656
y: 308.5427551269531
z: -0.09510548412799835
visibility: 0.9441511631011963
","x: 313.2659606933594
y: 311.4670715332031
z: -0.16630573570728302
visibility: 0.9282290935516357
","x: 207.30551147460938
y: 325.8302307128906
z: -0.15880845487117767
visibility: 0.8866356611251831
","x: 318.780029296875
y: 309.8938293457031
z: -0.1905422955751419
visibility: 0.9014247059822083
","x: 202.09307861328125
y: 322.299072265625
z: -0.17575347423553467
visibility: 0.8287743926048279
","x: 319.75543212890625
y: 308.3245849609375
z: -0.1873077005147934
visibility: 0.9031311869621277
","x: 201.63314819335938
y: 322.4678039550781
z: -0.2034890353679657
visibility: 0.8263235092163086
","x: 317.0546569824219
y: 310.1031188964844
z: -0.16540665924549103
visibility: 0.8874924182891846
","x: 203.94410705566406
y: 325.33624267578125
z: -0.17312708497047424
visibility: 0.7971687912940979
","x: 265.5601501464844
y: 376.223876953125
z: 0.027849992737174034
visibility: 0.999475359916687
","x: 247.0323944091797
y: 373.79156494140625
z: -0.027898594737052917
visibility: 0.9994091987609863
","x: 277.17279052734375
y: 432.09027099609375
z: 0.010387413203716278
visibility: 0.9856408834457397
","x: 237.9997100830078
y: 435.22686767578125
z: -0.04582156240940094
visibility: 0.9858525991439819
","x: 288.81341552734375
y: 486.6519775390625
z: 0.11360697448253632
visibility: 0.9807626008987427
","x: 226.2562255859375
y: 491.81634521484375
z: 0.04550272598862648
visibility: 0.9800400733947754
","x: 286.67498779296875
y: 496.5375061035156
z: 0.11823715269565582
visibility: 0.8385271430015564
","x: 225.41705322265625
y: 499.68524169921875
z: 0.05027272179722786
visibility: 0.7979558110237122
","x: 294.228271484375
y: 507.38446044921875
z: 0.046361662447452545
visibility: 0.9744868874549866
","x: 226.19668579101562
y: 509.0054931640625
z: -0.04653004929423332
visibility: 0.9768412113189697
",,,,,,,,,,,,,,,,,,,,,,5.974474906921387,,,,,,,,,,,,,,,,,,,,,
22,"x: 259.5491638183594
y: 266.2239990234375
z: -0.22809083759784698
visibility: 0.9995596408843994
","x: 260.4590148925781
y: 261.47503662109375
z: -0.216520756483078
visibility: 0.9989433288574219
","x: 261.516357421875
y: 261.67919921875
z: -0.21654458343982697
visibility: 0.9987460374832153
","x: 262.5627136230469
y: 261.8321533203125
z: -0.21656544506549835
visibility: 0.9988803267478943
","x: 257.2232666015625
y: 261.7562255859375
z: -0.2169153392314911
visibility: 0.9989962577819824
","x: 255.99969482421875
y: 262.09478759765625
z: -0.216966912150383
visibility: 0.9989784359931946
","x: 254.73207092285156
y: 262.5032958984375
z: -0.216961070895195
visibility: 0.9992173910140991
","x: 264.28369140625
y: 264.4381103515625
z: -0.13465279340744019
visibility: 0.9967491030693054
","x: 252.78317260742188
y: 266.3164978027344
z: -0.13598285615444183
visibility: 0.9987149834632874
","x: 262.067626953125
y: 272.8699645996094
z: -0.1968383640050888
visibility: 0.9994245171546936
","x: 257.53558349609375
y: 273.69256591796875
z: -0.1972586214542389
visibility: 0.9996702671051025
","x: 274.3604431152344
y: 294.39495849609375
z: -0.0669269859790802
visibility: 0.999614953994751
","x: 243.73243713378906
y: 293.61163330078125
z: -0.08510009199380875
visibility: 0.9995524287223816
","x: 292.5008544921875
y: 310.28466796875
z: -0.05973668023943901
visibility: 0.9471004605293274
","x: 229.61073303222656
y: 308.5427551269531
z: -0.09510548412799835
visibility: 0.9441511631011963
","x: 313.2659606933594
y: 311.4670715332031
z: -0.16630573570728302
visibility: 0.9282290935516357
","x: 207.30551147460938
y: 325.8302307128906
z: -0.15880845487117767
visibility: 0.8866356611251831
","x: 318.780029296875
y: 309.8938293457031
z: -0.1905422955751419
visibility: 0.9014247059822083
","x: 202.09307861328125
y: 322.299072265625
z: -0.17575347423553467
visibility: 0.8287743926048279
","x: 319.75543212890625
y: 308.3245849609375
z: -0.1873077005147934
visibility: 0.9031311869621277
","x: 201.63314819335938
y: 322.4678039550781
z: -0.2034890353679657
visibility: 0.8263235092163086
","x: 317.0546569824219
y: 310.1031188964844
z: -0.16540665924549103
visibility: 0.8874924182891846
","x: 203.94410705566406
y: 325.33624267578125
z: -0.17312708497047424
visibility: 0.7971687912940979
","x: 265.5601501464844
y: 376.223876953125
z: 0.027849992737174034
visibility: 0.999475359916687
","x: 247.0323944091797
y: 373.79156494140625
z: -0.027898594737052917
visibility: 0.9994091987609863
","x: 277.17279052734375
y: 432.09027099609375
z: 0.010387413203716278
visibility: 0.9856408834457397
","x: 237.9997100830078
y: 435.22686767578125
z: -0.04582156240940094
visibility: 0.9858525991439819
","x: 288.81341552734375
y: 486.6519775390625
z: 0.11360697448253632
visibility: 0.9807626008987427
","x: 226.2562255859375
y: 491.81634521484375
z: 0.04550272598862648
visibility: 0.9800400733947754
","x: 286.67498779296875
y: 496.5375061035156
z: 0.11823715269565582
visibility: 0.8385271430015564
","x: 225.41705322265625
y: 499.68524169921875
z: 0.05027272179722786
visibility: 0.7979558110237122
","x: 294.228271484375
y: 507.38446044921875
z: 0.046361662447452545
visibility: 0.9744868874549866
","x: 226.19668579101562
y: 509.0054931640625
z: -0.04653004929423332
visibility: 0.9768412113189697
",,,,,,,,,,,,,,,,,,,,,,5.974474906921387,,,,,,,,,,,,,,,,,,,,,
23,"x: 263.9331970214844
y: 268.69635009765625
z: -0.22574909031391144
visibility: 0.9996030926704407
","x: 265.3016357421875
y: 263.9775695800781
z: -0.21583251655101776
visibility: 0.9990476965904236
","x: 266.5147399902344
y: 263.7885437011719
z: -0.21584418416023254
visibility: 0.9988701343536377
","x: 267.71282958984375
y: 263.5574035644531
z: -0.2158677875995636
visibility: 0.9989907741546631
","x: 261.7834167480469
y: 264.8826904296875
z: -0.21201089024543762
visibility: 0.9990953803062439
","x: 260.62518310546875
y: 265.316650390625
z: -0.21204444766044617
visibility: 0.9990789294242859
","x: 259.5966491699219
y: 265.821044921875
z: -0.21203991770744324
visibility: 0.9992936849594116
","x: 269.89312744140625
y: 265.964111328125
z: -0.13233546912670135
visibility: 0.9970716834068298
","x: 258.2439270019531
y: 268.64654541015625
z: -0.11956844478845596
visibility: 0.9988424777984619
","x: 266.8072814941406
y: 274.8682861328125
z: -0.19310826063156128
visibility: 0.9994816780090332
","x: 262.1197509765625
y: 276.2187805175781
z: -0.18848653137683868
visibility: 0.9997029304504395
","x: 281.7675476074219
y: 294.48907470703125
z: -0.07060761749744415
visibility: 0.9996523261070251
","x: 249.31967163085938
y: 293.1856994628906
z: -0.05988423153758049
visibility: 0.9995962977409363
","x: 296.4822998046875
y: 313.0633544921875
z: -0.16675275564193726
visibility: 0.9511974453926086
","x: 229.99545288085938
y: 306.26458740234375
z: -0.09240774810314178
visibility: 0.9493231177330017
","x: 296.22039794921875
y: 312.6769714355469
z: -0.3525104224681854
visibility: 0.9320961833000183
","x: 211.66781616210938
y: 327.0269470214844
z: -0.2140970528125763
visibility: 0.8956370949745178
","x: 298.1169128417969
y: 315.80560302734375
z: -0.3882982134819031
visibility: 0.9049973487854004
","x: 211.2421875
y: 327.01739501953125
z: -0.24051086604595184
visibility: 0.8393240571022034
","x: 296.2765197753906
y: 314.6318359375
z: -0.3941367566585541
visibility: 0.9069514274597168
","x: 221.57029724121094
y: 329.9165344238281
z: -0.2497430294752121
visibility: 0.8371675610542297
","x: 295.1695251464844
y: 315.18231201171875
z: -0.358314573764801
visibility: 0.8899281024932861
","x: 221.17185974121094
y: 327.7810974121094
z: -0.22050714492797852
visibility: 0.8095035552978516
","x: 269.4073791503906
y: 376.4598083496094
z: 0.013797295279800892
visibility: 0.9995265603065491
","x: 249.4700469970703
y: 373.67303466796875
z: -0.013865945860743523
visibility: 0.9994658827781677
","x: 281.7667541503906
y: 436.8091125488281
z: -0.037879299372434616
visibility: 0.9868308305740356
","x: 240.65672302246094
y: 433.37640380859375
z: -0.046110592782497406
visibility: 0.9871397018432617
","x: 290.1556091308594
y: 492.6395263671875
z: 0.08228883892297745
visibility: 0.9824336767196655
","x: 232.6284942626953
y: 472.528564453125
z: 0.1728011965751648
visibility: 0.9812853336334229
","x: 288.06494140625
y: 501.2341613769531
z: 0.08966460078954697
visibility: 0.85117107629776
","x: 232.8267059326172
y: 475.7498779296875
z: 0.19176407158374786
visibility: 0.8060947060585022
","x: 295.3918762207031
y: 511.8896789550781
z: -0.008518708869814873
visibility: 0.9763904809951782
","x: 228.28219604492188
y: 497.2926330566406
z: 0.11423711478710175
visibility: 0.9775670170783997
",,,,,,,,,,,,,,,,,,,,,,6.101763725280762,,,,,,,,,,,,,,,,,,,,,
24,"x: 263.9331970214844
y: 268.69635009765625
z: -0.22574909031391144
visibility: 0.9996030926704407
","x: 265.3016357421875
y: 263.9775695800781
z: -0.21583251655101776
visibility: 0.9990476965904236
","x: 266.5147399902344
y: 263.7885437011719
z: -0.21584418416023254
visibility: 0.9988701343536377
","x: 267.71282958984375
y: 263.5574035644531
z: -0.2158677875995636
visibility: 0.9989907741546631
","x: 261.7834167480469
y: 264.8826904296875
z: -0.21201089024543762
visibility: 0.9990953803062439
","x: 260.62518310546875
y: 265.316650390625
z: -0.21204444766044617
visibility: 0.9990789294242859
","x: 259.5966491699219
y: 265.821044921875
z: -0.21203991770744324
visibility: 0.9992936849594116
","x: 269.89312744140625
y: 265.964111328125
z: -0.13233546912670135
visibility: 0.9970716834068298
","x: 258.2439270019531
y: 268.64654541015625
z: -0.11956844478845596
visibility: 0.9988424777984619
","x: 266.8072814941406
y: 274.8682861328125
z: -0.19310826063156128
visibility: 0.9994816780090332
","x: 262.1197509765625
y: 276.2187805175781
z: -0.18848653137683868
visibility: 0.9997029304504395
","x: 281.7675476074219
y: 294.48907470703125
z: -0.07060761749744415
visibility: 0.9996523261070251
","x: 249.31967163085938
y: 293.1856994628906
z: -0.05988423153758049
visibility: 0.9995962977409363
","x: 296.4822998046875
y: 313.0633544921875
z: -0.16675275564193726
visibility: 0.9511974453926086
","x: 229.99545288085938
y: 306.26458740234375
z: -0.09240774810314178
visibility: 0.9493231177330017
","x: 296.22039794921875
y: 312.6769714355469
z: -0.3525104224681854
visibility: 0.9320961833000183
","x: 211.66781616210938
y: 327.0269470214844
z: -0.2140970528125763
visibility: 0.8956370949745178
","x: 298.1169128417969
y: 315.80560302734375
z: -0.3882982134819031
visibility: 0.9049973487854004
","x: 211.2421875
y: 327.01739501953125
z: -0.24051086604595184
visibility: 0.8393240571022034
","x: 296.2765197753906
y: 314.6318359375
z: -0.3941367566585541
visibility: 0.9069514274597168
","x: 221.57029724121094
y: 329.9165344238281
z: -0.2497430294752121
visibility: 0.8371675610542297
","x: 295.1695251464844
y: 315.18231201171875
z: -0.358314573764801
visibility: 0.8899281024932861
","x: 221.17185974121094
y: 327.7810974121094
z: -0.22050714492797852
visibility: 0.8095035552978516
","x: 269.4073791503906
y: 376.4598083496094
z: 0.013797295279800892
visibility: 0.9995265603065491
","x: 249.4700469970703
y: 373.67303466796875
z: -0.013865945860743523
visibility: 0.9994658827781677
","x: 281.7667541503906
y: 436.8091125488281
z: -0.037879299372434616
visibility: 0.9868308305740356
","x: 240.65672302246094
y: 433.37640380859375
z: -0.046110592782497406
visibility: 0.9871397018432617
","x: 290.1556091308594
y: 492.6395263671875
z: 0.08228883892297745
visibility: 0.9824336767196655
","x: 232.6284942626953
y: 472.528564453125
z: 0.1728011965751648
visibility: 0.9812853336334229
","x: 288.06494140625
y: 501.2341613769531
z: 0.08966460078954697
visibility: 0.85117107629776
","x: 232.8267059326172
y: 475.7498779296875
z: 0.19176407158374786
visibility: 0.8060947060585022
","x: 295.3918762207031
y: 511.8896789550781
z: -0.008518708869814873
visibility: 0.9763904809951782
","x: 228.28219604492188
y: 497.2926330566406
z: 0.11423711478710175
visibility: 0.9775670170783997
",,,,,,,,,,,,,,,,,,,,,,6.101763725280762,,,,,,,,,,,,,,,,,,,,,
25,"x: 262.16375732421875
y: 271.0311584472656
z: -0.3240964412689209
visibility: 0.999642550945282
","x: 263.9833679199219
y: 266.3760681152344
z: -0.3130548596382141
visibility: 0.9991424679756165
","x: 265.15899658203125
y: 266.47674560546875
z: -0.31305259466171265
visibility: 0.9989826679229736
","x: 266.30596923828125
y: 266.6449279785156
z: -0.31309306621551514
visibility: 0.9990912079811096
","x: 260.607666015625
y: 266.7650146484375
z: -0.31090912222862244
visibility: 0.99918532371521
","x: 259.4654846191406
y: 267.16522216796875
z: -0.3109797537326813
visibility: 0.9991704821586609
","x: 258.4666442871094
y: 267.6087646484375
z: -0.31096649169921875
visibility: 0.9993636012077332
","x: 268.4298095703125
y: 270.0518493652344
z: -0.22466552257537842
visibility: 0.9973633885383606
","x: 257.117431640625
y: 271.3404541015625
z: -0.21382594108581543
visibility: 0.9989568591117859
","x: 264.76202392578125
y: 277.76666259765625
z: -0.28984224796295166
visibility: 0.9995332956314087
","x: 260.1517028808594
y: 278.4326477050781
z: -0.2869303524494171
visibility: 0.9997321963310242
","x: 279.1515808105469
y: 303.2778015136719
z: -0.16542497277259827
visibility: 0.9996864199638367
","x: 247.7156982421875
y: 303.9165344238281
z: -0.14150294661521912
visibility: 0.9996329545974731
","x: 288.6900634765625
y: 346.7077331542969
z: -0.2438802272081375
visibility: 0.9553402662277222
","x: 241.76759338378906
y: 343.1478576660156
z: -0.21721012890338898
visibility: 0.9493580460548401
","x: 273.131103515625
y: 349.3214111328125
z: -0.40518298745155334
visibility: 0.937240719795227
","x: 241.07345581054688
y: 344.3582458496094
z: -0.41243308782577515
visibility: 0.9006726741790771
","x: 267.8809509277344
y: 348.2989196777344
z: -0.44605690240859985
visibility: 0.9109742045402527
","x: 242.25167846679688
y: 342.4253845214844
z: -0.4565095901489258
visibility: 0.8478065729141235
","x: 267.7470703125
y: 340.6149597167969
z: -0.44805049896240234
