uscmakers/ReverseChoreography/data/10_humble_kendrick_lamar.csv
,NOSE,LEFT_EYE_INNER,LEFT_EYE,LEFT_EYE_OUTER,RIGHT_EYE_INNER,RIGHT_EYE,RIGHT_EYE_OUTER,LEFT_EAR,RIGHT_EAR,MOUTH_LEFT,MOUTH_RIGHT,LEFT_SHOULDER,RIGHT_SHOULDER,LEFT_ELBOW,RIGHT_ELBOW,LEFT_WRIST,RIGHT_WRIST,LEFT_PINKY,RIGHT_PINKY,LEFT_INDEX,RIGHT_INDEX,LEFT_THUMB,RIGHT_THUMB,LEFT_HIP,RIGHT_HIP,LEFT_KNEE,RIGHT_KNEE,LEFT_ANKLE,RIGHT_ANKLE,LEFT_HEEL,RIGHT_HEEL,LEFT_FOOT_INDEX,RIGHT_FOOT_INDEX,TIMESTAMP,WRIST,THUMB_CPC,THUMB_MCP,THUMB_IP,THUMB_TIP,INDEX_FINGER_MCP,INDEX_FINGER_PIP,INDEX_FINGER_DIP,INDEX_FINGER_TIP,MIDDLE_FINGER_MCP,MIDDLE_FINGER_PIP,MIDDLE_FINGER_DIP,MIDDLE_FINGER_TIP,RING_FINGER_PIP,RING_FINGER_DIP,RING_FINGER_TIP,RING_FINGER_MCP,PINKY_MCP,PINKY_PIP,PINKY_DIP,PINKY_TIP,WRIST2,THUMB_CPC2,THUMB_MCP2,THUMB_IP2,THUMB_TIP2,INDEX_FINGER_MCP2,INDEX_FINGER_PIP2,INDEX_FINGER_DIP2,INDEX_FINGER_TIP2,MIDDLE_FINGER_MCP2,MIDDLE_FINGER_PIP2,MIDDLE_FINGER_DIP2,MIDDLE_FINGER_TIP2,RING_FINGER_PIP2,RING_FINGER_DIP2,RING_FINGER_TIP2,RING_FINGER_MCP2,PINKY_MCP2,PINKY_PIP2,PINKY_DIP2,PINKY_TIP2
0,"x: 236.12815856933594
y: 246.3108673095703
z: -0.24238471686840057
visibility: 0.9998302459716797
","x: 237.38946533203125
y: 241.22938537597656
z: -0.22918269038200378
visibility: 0.9993840456008911
","x: 238.40988159179688
y: 241.43313598632812
z: -0.2292223870754242
visibility: 0.9994590878486633
","x: 239.51527404785156
y: 241.68104553222656
z: -0.22923696041107178
visibility: 0.9994938373565674
","x: 234.20941162109375
y: 241.114990234375
z: -0.23023156821727753
visibility: 0.9992245435714722
","x: 232.93490600585938
y: 241.18614196777344
z: -0.2302338182926178
visibility: 0.9991673231124878
","x: 231.59817504882812
y: 241.3082733154297
z: -0.2302323281764984
visibility: 0.9990492463111877
","x: 241.66317749023438
y: 246.18740844726562
z: -0.1372002363204956
visibility: 0.9990459084510803
","x: 228.4984893798828
y: 245.88478088378906
z: -0.14240697026252747
visibility: 0.9975425004959106
","x: 238.38784790039062
y: 253.64320373535156
z: -0.20698687434196472
visibility: 0.9997387528419495
","x: 233.7626495361328
y: 253.63111877441406
z: -0.2085694521665573
visibility: 0.9995231628417969
","x: 252.46751403808594
y: 282.6478271484375
z: -0.07694080471992493
visibility: 0.9999204874038696
","x: 217.05715942382812
y: 283.20843505859375
z: -0.055036090314388275
visibility: 0.9993643164634705
","x: 262.87237548828125
y: 319.6021728515625
z: -0.02063348889350891
visibility: 0.9895783066749573
","x: 209.91256713867188
y: 323.4064025878906
z: 0.013941682875156403
visibility: 0.9181117415428162
","x: 259.02874755859375
y: 347.4082946777344
z: -0.09263274073600769
visibility: 0.9709630608558655
","x: 202.1546630859375
y: 354.5541076660156
z: -0.049202099442481995
visibility: 0.8371217846870422
","x: 258.62384033203125
y: 357.5312805175781
z: -0.1148536428809166
visibility: 0.9331551790237427
","x: 197.90402221679688
y: 365.3039245605469
z: -0.06889370083808899
visibility: 0.7553620338439941
","x: 256.80181884765625
y: 354.53607177734375
z: -0.14202091097831726
visibility: 0.9386962056159973
","x: 197.47401428222656
y: 365.74530029296875
z: -0.0999302864074707
visibility: 0.773629903793335
","x: 256.399658203125
y: 350.75860595703125
z: -0.10413751751184464
visibility: 0.9221377968788147
","x: 200.24647521972656
y: 361.6202087402344
z: -0.06376062333583832
visibility: 0.7699328660964966
","x: 244.28109741210938
y: 376.1947021484375
z: -0.005613755900412798
visibility: 0.9985442161560059
","x: 223.52854919433594
y: 377.216552734375
z: 0.005624110344797373
visibility: 0.998310923576355
","x: 243.3590087890625
y: 446.3085632324219
z: 0.016317011788487434
visibility: 0.9917992353439331
","x: 226.90403747558594
y: 447.84307861328125
z: 0.013419458642601967
visibility: 0.9906424880027771
","x: 248.24366760253906
y: 510.9090881347656
z: 0.12394227087497711
visibility: 0.9924489259719849
","x: 226.73670959472656
y: 509.8099365234375
z: 0.1320437639951706
visibility: 0.9894696474075317
","x: 246.87767028808594
y: 520.90234375
z: 0.12771686911582947
visibility: 0.889637291431427
","x: 227.85813903808594
y: 517.707275390625
z: 0.13703086972236633
visibility: 0.8739917874336243
","x: 247.01654052734375
y: 530.3912963867188
z: 0.017470184713602066
visibility: 0.986335277557373
","x: 225.1383819580078
y: 531.9991455078125
z: 0.032259684056043625
visibility: 0.9840098023414612
",4.078737735748291,,,,,,,,,,,,,,,,,,,,,,,,,,,,,,,,,,,,,,,,,,
1,"x: 236.12815856933594
y: 246.3108673095703
z: -0.24238471686840057
visibility: 0.9998302459716797
","x: 237.38946533203125
y: 241.22938537597656
z: -0.22918269038200378
visibility: 0.9993840456008911
","x: 238.40988159179688
y: 241.43313598632812
z: -0.2292223870754242
visibility: 0.9994590878486633
","x: 239.51527404785156
y: 241.68104553222656
z: -0.22923696041107178
visibility: 0.9994938373565674
","x: 234.20941162109375
y: 241.114990234375
z: -0.23023156821727753
visibility: 0.9992245435714722
","x: 232.93490600585938
y: 241.18614196777344
z: -0.2302338182926178
visibility: 0.9991673231124878
","x: 231.59817504882812
y: 241.3082733154297
z: -0.2302323281764984
visibility: 0.9990492463111877
","x: 241.66317749023438
y: 246.18740844726562
z: -0.1372002363204956
visibility: 0.9990459084510803
","x: 228.4984893798828
y: 245.88478088378906
z: -0.14240697026252747
visibility: 0.9975425004959106
","x: 238.38784790039062
y: 253.64320373535156
z: -0.20698687434196472
visibility: 0.9997387528419495
","x: 233.7626495361328
y: 253.63111877441406
z: -0.2085694521665573
visibility: 0.9995231628417969
","x: 252.46751403808594
y: 282.6478271484375
z: -0.07694080471992493
visibility: 0.9999204874038696
","x: 217.05715942382812
y: 283.20843505859375
z: -0.055036090314388275
visibility: 0.9993643164634705
","x: 262.87237548828125
y: 319.6021728515625
z: -0.02063348889350891
visibility: 0.9895783066749573
","x: 209.91256713867188
y: 323.4064025878906
z: 0.013941682875156403
visibility: 0.9181117415428162
","x: 259.02874755859375
y: 347.4082946777344
z: -0.09263274073600769
visibility: 0.9709630608558655
","x: 202.1546630859375
y: 354.5541076660156
z: -0.049202099442481995
visibility: 0.8371217846870422
","x: 258.62384033203125
y: 357.5312805175781
z: -0.1148536428809166
visibility: 0.9331551790237427
","x: 197.90402221679688
y: 365.3039245605469
z: -0.06889370083808899
visibility: 0.7553620338439941
","x: 256.80181884765625
y: 354.53607177734375
z: -0.14202091097831726
visibility: 0.9386962056159973
","x: 197.47401428222656
y: 365.74530029296875
z: -0.0999302864074707
visibility: 0.773629903793335
","x: 256.399658203125
y: 350.75860595703125
z: -0.10413751751184464
visibility: 0.9221377968788147
","x: 200.24647521972656
y: 361.6202087402344
z: -0.06376062333583832
visibility: 0.7699328660964966
","x: 244.28109741210938
y: 376.1947021484375
z: -0.005613755900412798
visibility: 0.9985442161560059
","x: 223.52854919433594
y: 377.216552734375
z: 0.005624110344797373
visibility: 0.998310923576355
","x: 243.3590087890625
y: 446.3085632324219
z: 0.016317011788487434
visibility: 0.9917992353439331
","x: 226.90403747558594
y: 447.84307861328125
z: 0.013419458642601967
visibility: 0.9906424880027771
","x: 248.24366760253906
y: 510.9090881347656
z: 0.12394227087497711
visibility: 0.9924489259719849
","x: 226.73670959472656
y: 509.8099365234375
z: 0.1320437639951706
visibility: 0.9894696474075317
","x: 246.87767028808594
y: 520.90234375
z: 0.12771686911582947
visibility: 0.889637291431427
","x: 227.85813903808594
y: 517.707275390625
z: 0.13703086972236633
visibility: 0.8739917874336243
","x: 247.01654052734375
y: 530.3912963867188
z: 0.017470184713602066
visibility: 0.986335277557373
","x: 225.1383819580078
y: 531.9991455078125
z: 0.032259684056043625
visibility: 0.9840098023414612
",4.078737735748291,,,,,,,,,,,,,,,,,,,,,,,,,,,,,,,,,,,,,,,,,,
2,"x: 229.81251525878906
y: 245.263916015625
z: -0.2449660301208496
visibility: 0.9997856020927429
","x: 231.144287109375
y: 241.50709533691406
z: -0.23485985398292542
visibility: 0.999245285987854
","x: 232.44845581054688
y: 241.611328125
z: -0.23488347232341766
visibility: 0.9993475675582886
","x: 233.70755004882812
y: 241.77737426757812
z: -0.23490747809410095
visibility: 0.9993948340415955
","x: 227.43179321289062
y: 242.81854248046875
z: -0.232676699757576
visibility: 0.9990870952606201
","x: 226.1604766845703
y: 243.94842529296875
z: -0.23268763720989227
visibility: 0.9990072846412659
","x: 224.80731201171875
y: 245.1359405517578
z: -0.2327278107404709
visibility: 0.9988715052604675
","x: 236.06483459472656
y: 246.18844604492188
z: -0.1558874100446701
visibility: 0.9988774061203003
","x: 223.65261840820312
y: 249.7987518310547
z: -0.14341101050376892
visibility: 0.9971292018890381
","x: 233.35301208496094
y: 251.4421844482422
z: -0.21329689025878906
visibility: 0.999693751335144
","x: 228.068359375
y: 252.98583984375
z: -0.21021640300750732
visibility: 0.9994389414787292
","x: 248.94384765625
y: 277.7333984375
z: -0.10845348984003067
visibility: 0.999921441078186
","x: 215.8933868408203
y: 283.3965759277344
z: -0.07795324176549911
visibility: 0.9993849992752075
","x: 255.10963439941406
y: 318.56854248046875
z: -0.16215071082115173
visibility: 0.9901790618896484
","x: 214.89083862304688
y: 325.8242492675781
z: -0.05920829623937607
visibility: 0.9205309748649597
","x: 231.5050506591797
y: 327.35400390625
z: -0.29039275646209717
visibility: 0.9733840227127075
","x: 222.52207946777344
y: 363.44219970703125
z: -0.11453709751367569
visibility: 0.8398879766464233
","x: 224.8064422607422
y: 332.3718566894531
z: -0.3262318968772888
visibility: 0.9383431077003479
","x: 223.33895874023438
y: 377.48406982421875
z: -0.13778851926326752
visibility: 0.758338451385498
","x: 223.51058959960938
y: 328.79644775390625
z: -0.32860296964645386
visibility: 0.9432955384254456
","x: 226.21751403808594
y: 376.0453796386719
z: -0.15130609273910522
visibility: 0.7740603685379028
","x: 225.05099487304688
y: 327.5564270019531
z: -0.2923696041107178
visibility: 0.9270879030227661
","x: 226.34483337402344
y: 372.0196228027344
z: -0.12055850028991699
visibility: 0.7648857235908508
","x: 242.25111389160156
y: 371.571533203125
z: -0.002836811589077115
visibility: 0.9985522031784058
","x: 222.06756591796875
y: 372.92010498046875
z: 0.002796835033223033
visibility: 0.998385488986969
","x: 242.72764587402344
y: 439.3465576171875
z: -0.015513020567595959
visibility: 0.9909008741378784
","x: 226.33131408691406
y: 444.2403564453125
z: -0.01671779714524746
visibility: 0.990559458732605
","x: 240.29656982421875
y: 500.80010986328125
z: 0.08123756945133209
visibility: 0.9914380311965942
","x: 226.74334716796875
y: 508.9886169433594
z: 0.07241909950971603
visibility: 0.9892061948776245
","x: 238.094970703125
y: 508.8002014160156
z: 0.08602899312973022
visibility: 0.8881998062133789
","x: 227.80934143066406
y: 517.2808227539062
z: 0.07569874823093414
visibility: 0.8651653528213501
","x: 243.14990234375
y: 522.609619140625
z: -0.0152031434699893
visibility: 0.9856080412864685
","x: 225.1647186279297
y: 531.7652587890625
z: -0.028461817651987076
visibility: 0.9835377931594849
",4.666590690612793,,,,,,,,,,,,,,,,,,,,,,,,,,,,,,,,,,,,,,,,,,
3,"x: 229.81251525878906
y: 245.263916015625
z: -0.2449660301208496
visibility: 0.9997856020927429
","x: 231.144287109375
y: 241.50709533691406
z: -0.23485985398292542
visibility: 0.999245285987854
","x: 232.44845581054688
y: 241.611328125
z: -0.23488347232341766
visibility: 0.9993475675582886
","x: 233.70755004882812
y: 241.77737426757812
z: -0.23490747809410095
visibility: 0.9993948340415955
","x: 227.43179321289062
y: 242.81854248046875
z: -0.232676699757576
visibility: 0.9990870952606201
","x: 226.1604766845703
y: 243.94842529296875
z: -0.23268763720989227
visibility: 0.9990072846412659
","x: 224.80731201171875
y: 245.1359405517578
z: -0.2327278107404709
visibility: 0.9988715052604675
","x: 236.06483459472656
y: 246.18844604492188
z: -0.1558874100446701
visibility: 0.9988774061203003
","x: 223.65261840820312
y: 249.7987518310547
z: -0.14341101050376892
visibility: 0.9971292018890381
","x: 233.35301208496094
y: 251.4421844482422
z: -0.21329689025878906
visibility: 0.999693751335144
","x: 228.068359375
y: 252.98583984375
z: -0.21021640300750732
visibility: 0.9994389414787292
","x: 248.94384765625
y: 277.7333984375
z: -0.10845348984003067
visibility: 0.999921441078186
","x: 215.8933868408203
y: 283.3965759277344
z: -0.07795324176549911
visibility: 0.9993849992752075
","x: 255.10963439941406
y: 318.56854248046875
z: -0.16215071082115173
visibility: 0.9901790618896484
","x: 214.89083862304688
y: 325.8242492675781
z: -0.05920829623937607
visibility: 0.9205309748649597
","x: 231.5050506591797
y: 327.35400390625
z: -0.29039275646209717
visibility: 0.9733840227127075
","x: 222.52207946777344
y: 363.44219970703125
z: -0.11453709751367569
visibility: 0.8398879766464233
","x: 224.8064422607422
y: 332.3718566894531
z: -0.3262318968772888
visibility: 0.9383431077003479
","x: 223.33895874023438
y: 377.48406982421875
z: -0.13778851926326752
visibility: 0.758338451385498
","x: 223.51058959960938
y: 328.79644775390625
z: -0.32860296964645386
visibility: 0.9432955384254456
","x: 226.21751403808594
y: 376.0453796386719
z: -0.15130609273910522
visibility: 0.7740603685379028
","x: 225.05099487304688
y: 327.5564270019531
z: -0.2923696041107178
visibility: 0.9270879030227661
","x: 226.34483337402344
y: 372.0196228027344
z: -0.12055850028991699
visibility: 0.7648857235908508
","x: 242.25111389160156
y: 371.571533203125
z: -0.002836811589077115
visibility: 0.9985522031784058
","x: 222.06756591796875
y: 372.92010498046875
z: 0.002796835033223033
visibility: 0.998385488986969
","x: 242.72764587402344
y: 439.3465576171875
z: -0.015513020567595959
visibility: 0.9909008741378784
","x: 226.33131408691406
y: 444.2403564453125
z: -0.01671779714524746
visibility: 0.990559458732605
","x: 240.29656982421875
y: 500.80010986328125
z: 0.08123756945133209
visibility: 0.9914380311965942
","x: 226.74334716796875
y: 508.9886169433594
z: 0.07241909950971603
visibility: 0.9892061948776245
","x: 238.094970703125
y: 508.8002014160156
z: 0.08602899312973022
visibility: 0.8881998062133789
","x: 227.80934143066406
y: 517.2808227539062
z: 0.07569874823093414
visibility: 0.8651653528213501
","x: 243.14990234375
y: 522.609619140625
z: -0.0152031434699893
visibility: 0.9856080412864685
","x: 225.1647186279297
y: 531.7652587890625
z: -0.028461817651987076
visibility: 0.9835377931594849
",4.666590690612793,,,,,,,,,,,,,,,,,,,,,,,,,,,,,,,,,,,,,,,,,,
4,"x: 230.84617614746094
y: 249.17066955566406
z: -0.20669043064117432
visibility: 0.9997826814651489
","x: 232.24322509765625
y: 246.51348876953125
z: -0.1971038579940796
visibility: 0.9992577433586121
","x: 233.5714874267578
y: 246.26760864257812
z: -0.1971219927072525
visibility: 0.9993546009063721
","x: 234.85675048828125
y: 245.99769592285156
z: -0.19715026021003723
visibility: 0.9994050860404968
","x: 228.5498046875
y: 248.4266357421875
z: -0.19471856951713562
visibility: 0.9991068243980408
","x: 227.36672973632812
y: 249.51577758789062
z: -0.19471360743045807
visibility: 0.9990156292915344
","x: 226.12413024902344
y: 250.49951171875
z: -0.19474582374095917
visibility: 0.9988867044448853
","x: 237.19818115234375
y: 249.92575073242188
z: -0.1145048514008522
visibility: 0.9988940358161926
","x: 224.54666137695312
y: 254.88905334472656
z: -0.10296090692281723
visibility: 0.9972410202026367
","x: 234.1808624267578
y: 254.44088745117188
z: -0.17336125671863556
visibility: 0.9996968507766724
","x: 228.9844207763672
y: 257.3002014160156
z: -0.17021600902080536
visibility: 0.9994537830352783
","x: 249.01119995117188
y: 277.75994873046875
z: -0.07005833089351654
visibility: 0.999926745891571
","x: 216.61001586914062
y: 282.400634765625
z: -0.03871523588895798
visibility: 0.9994364976882935
","x: 254.74191284179688
y: 318.3175048828125
z: -0.13664977252483368
visibility: 0.9908170104026794
","x: 215.9728240966797
y: 325.16534423828125
z: -0.02502252720296383
visibility: 0.9238079190254211
","x: 230.42018127441406
y: 320.38616943359375
z: -0.28362834453582764
visibility: 0.9757472276687622
","x: 220.04786682128906
y: 362.7847595214844
z: -0.08567909896373749
visibility: 0.8461016416549683
","x: 223.61376953125
y: 324.7561950683594
z: -0.32405713200569153
visibility: 0.9435482621192932
","x: 219.82730102539062
y: 377.12847900390625
z: -0.1081414446234703
visibility: 0.7654218077659607
","x: 222.7332000732422
y: 320.76275634765625
z: -0.32317692041397095
visibility: 0.9479988217353821
","x: 222.52621459960938
y: 375.8409118652344
z: -0.12996487319469452
visibility: 0.7793256640434265
","x: 224.4559783935547
y: 319.33575439453125
z: -0.28528571128845215
visibility: 0.9325438141822815
","x: 223.00250244140625
y: 371.20068359375
z: -0.09596452862024307
visibility: 0.7665956020355225
","x: 242.37945556640625
y: 369.2625732421875
z: -0.0010249915067106485
visibility: 0.9986518621444702
","x: 222.1589813232422
y: 370.3426513671875
z: 0.0010312044760212302
visibility: 0.9985035061836243
","x: 241.0183563232422
y: 437.9654235839844
z: -0.008093951269984245
visibility: 0.9896592497825623
","x: 226.33926391601562
y: 441.2625427246094
z: -0.007324868347495794
visibility: 0.9902437329292297
","x: 237.50315856933594
y: 500.8797912597656
z: 0.07667689025402069
visibility: 0.9908154606819153
","x: 226.7315216064453
y: 507.9723815917969
z: 0.08255168050527573
visibility: 0.9888486266136169
","x: 235.42523193359375
y: 509.566162109375
z: 0.08036990463733673
visibility: 0.8917573094367981
","x: 227.55828857421875
y: 517.0694580078125
z: 0.08538468182086945
visibility: 0.8599628806114197
","x: 242.6836395263672
y: 521.094482421875
z: -0.020064128562808037
visibility: 0.9855239391326904
","x: 225.19790649414062
y: 531.4571533203125
z: -0.015624570660293102
visibility: 0.9829408526420593
",4.796621084213257,"x: 220.4927215576172
y: 363.85406494140625
z: 0.0
","x: 223.3199462890625
y: 367.9534606933594
z: 0.0008713448187336326
","x: 225.1051483154297
y: 373.9620666503906
z: 0.00048150646034628153
","x: 225.1002655029297
y: 378.8828125
z: -0.0004014903970528394
","x: 224.5511932373047
y: 382.16534423828125
z: -0.0008842027164064348
","x: 225.3815155029297
y: 377.57867431640625
z: -0.002278474625200033
","x: 225.74261474609375
y: 386.3856506347656
z: -0.0037400382570922375
","x: 225.20291137695312
y: 385.2874450683594
z: -0.0027985312044620514
","x: 225.01495361328125
y: 382.3710632324219
z: -0.0016763190506026149
","x: 222.8800811767578
y: 378.1611633300781
z: -0.0038041584193706512
","x: 223.0535430908203
y: 386.5880126953125
z: -0.004922153428196907
","x: 222.7006378173828
y: 384.812744140625
z: -0.0031579528003931046
","x: 222.58641052246094
y: 381.6875
z: -0.0014983299188315868
","x: 220.35581970214844
y: 377.85345458984375
z: -0.005296667106449604
","x: 220.2871551513672
y: 384.7156982421875
z: -0.006308100651949644
","x: 220.15963745117188
y: 382.7008056640625
z: -0.004336568061262369
","x: 220.11141967773438
y: 380.02557373046875
z: -0.002653644420206547
","x: 217.835693359375
y: 376.9107666015625
z: -0.006819357164204121
","x: 217.92764282226562
y: 382.12786865234375
z: -0.007493073586374521
","x: 218.01844787597656
y: 380.52813720703125
z: -0.006298572290688753
","x: 217.99220275878906
y: 378.13055419921875
z: -0.005002348218113184
","x: 230.44705200195312
y: 317.7921142578125
z: 0.0
","x: 226.69827270507812
y: 315.706787109375
z: 0.0015340351965278387
","x: 222.9481201171875
y: 316.57159423828125
z: 0.00041359150782227516
","x: 220.57444763183594
y: 319.2826232910156
z: -0.0012888736091554165
","x: 219.43267822265625
y: 322.2326965332031
z: -0.0027862321585416794
","x: 221.8278350830078
y: 314.92852783203125
z: -0.0031949819531291723
","x: 217.07232666015625
y: 318.04766845703125
z: -0.005226159002631903
","x: 216.0645294189453
y: 321.8604736328125
z: -0.005324870813637972
","x: 215.9395294189453
y: 324.4295959472656
z: -0.005202929954975843
","x: 222.75010681152344
y: 317.3638000488281
z: -0.0055845873430371284
","x: 218.2187957763672
y: 321.9003601074219
z: -0.007457714062184095
","x: 218.96563720703125
y: 323.2691955566406
z: -0.0061761061660945415
","x: 220.42251586914062
y: 322.78570556640625
z: -0.005001706071197987
","x: 223.9629669189453
y: 320.3409423828125
z: -0.007788496091961861
","x: 219.9646453857422
y: 324.6794128417969
z: -0.008838237263262272
","x: 220.82476806640625
y: 325.42828369140625
z: -0.006723808124661446
","x: 222.0585174560547
y: 324.5215148925781
z: -0.005290552973747253
","x: 225.2957305908203
y: 323.40869140625
z: -0.009981445968151093
","x: 222.0814208984375
y: 326.98199462890625
z: -0.010511769913136959
","x: 222.5350341796875
y: 327.168701171875
z: -0.009071167558431625
","x: 223.5980224609375
y: 326.1981201171875
z: -0.007942468859255314
"
5,"x: 230.84617614746094
y: 249.17066955566406
z: -0.20669043064117432
visibility: 0.9997826814651489
","x: 232.24322509765625
y: 246.51348876953125
z: -0.1971038579940796
visibility: 0.9992577433586121
","x: 233.5714874267578
y: 246.26760864257812
z: -0.1971219927072525
visibility: 0.9993546009063721
","x: 234.85675048828125
y: 245.99769592285156
z: -0.19715026021003723
visibility: 0.9994050860404968
","x: 228.5498046875
y: 248.4266357421875
z: -0.19471856951713562
visibility: 0.9991068243980408
","x: 227.36672973632812
y: 249.51577758789062
z: -0.19471360743045807
visibility: 0.9990156292915344
","x: 226.12413024902344
y: 250.49951171875
z: -0.19474582374095917
visibility: 0.9988867044448853
","x: 237.19818115234375
y: 249.92575073242188
z: -0.1145048514008522
visibility: 0.9988940358161926
","x: 224.54666137695312
y: 254.88905334472656
z: -0.10296090692281723
visibility: 0.9972410202026367
","x: 234.1808624267578
y: 254.44088745117188
z: -0.17336125671863556
visibility: 0.9996968507766724
","x: 228.9844207763672
y: 257.3002014160156
z: -0.17021600902080536
visibility: 0.9994537830352783
","x: 249.01119995117188
y: 277.75994873046875
z: -0.07005833089351654
visibility: 0.999926745891571
","x: 216.61001586914062
y: 282.400634765625
z: -0.03871523588895798
visibility: 0.9994364976882935
","x: 254.74191284179688
y: 318.3175048828125
z: -0.13664977252483368
visibility: 0.9908170104026794
","x: 215.9728240966797
y: 325.16534423828125
z: -0.02502252720296383
visibility: 0.9238079190254211
","x: 230.42018127441406
y: 320.38616943359375
z: -0.28362834453582764
visibility: 0.9757472276687622
","x: 220.04786682128906
y: 362.7847595214844
z: -0.08567909896373749
visibility: 0.8461016416549683
","x: 223.61376953125
y: 324.7561950683594
z: -0.32405713200569153
visibility: 0.9435482621192932
","x: 219.82730102539062
y: 377.12847900390625
z: -0.1081414446234703
visibility: 0.7654218077659607
","x: 222.7332000732422
y: 320.76275634765625
z: -0.32317692041397095
visibility: 0.9479988217353821
","x: 222.52621459960938
y: 375.8409118652344
z: -0.12996487319469452
visibility: 0.7793256640434265
","x: 224.4559783935547
y: 319.33575439453125
z: -0.28528571128845215
visibility: 0.9325438141822815
","x: 223.00250244140625
y: 371.20068359375
z: -0.09596452862024307
visibility: 0.7665956020355225
","x: 242.37945556640625
y: 369.2625732421875
z: -0.0010249915067106485
visibility: 0.9986518621444702
","x: 222.1589813232422
y: 370.3426513671875
z: 0.0010312044760212302
visibility: 0.9985035061836243
","x: 241.0183563232422
y: 437.9654235839844
z: -0.008093951269984245
visibility: 0.9896592497825623
","x: 226.33926391601562
y: 441.2625427246094
z: -0.007324868347495794
visibility: 0.9902437329292297
","x: 237.50315856933594
y: 500.8797912597656
z: 0.07667689025402069
visibility: 0.9908154606819153
","x: 226.7315216064453
y: 507.9723815917969
z: 0.08255168050527573
visibility: 0.9888486266136169
","x: 235.42523193359375
y: 509.566162109375
z: 0.08036990463733673
visibility: 0.8917573094367981
","x: 227.55828857421875
y: 517.0694580078125
z: 0.08538468182086945
visibility: 0.8599628806114197
","x: 242.6836395263672
y: 521.094482421875
z: -0.020064128562808037
visibility: 0.9855239391326904
","x: 225.19790649414062
y: 531.4571533203125
z: -0.015624570660293102
visibility: 0.9829408526420593
",4.796621084213257,"x: 220.4927215576172
y: 363.85406494140625
z: 0.0
","x: 223.3199462890625
y: 367.9534606933594
z: 0.0008713448187336326
","x: 225.1051483154297
y: 373.9620666503906
z: 0.00048150646034628153
","x: 225.1002655029297
y: 378.8828125
z: -0.0004014903970528394
","x: 224.5511932373047
y: 382.16534423828125
z: -0.0008842027164064348
","x: 225.3815155029297
y: 377.57867431640625
z: -0.002278474625200033
","x: 225.74261474609375
y: 386.3856506347656
z: -0.0037400382570922375
","x: 225.20291137695312
y: 385.2874450683594
z: -0.0027985312044620514
","x: 225.01495361328125
y: 382.3710632324219
z: -0.0016763190506026149
","x: 222.8800811767578
y: 378.1611633300781
z: -0.0038041584193706512
","x: 223.0535430908203
y: 386.5880126953125
z: -0.004922153428196907
","x: 222.7006378173828
y: 384.812744140625
z: -0.0031579528003931046
","x: 222.58641052246094
y: 381.6875
z: -0.0014983299188315868
","x: 220.35581970214844
y: 377.85345458984375
z: -0.005296667106449604
","x: 220.2871551513672
y: 384.7156982421875
z: -0.006308100651949644
","x: 220.15963745117188
y: 382.7008056640625
z: -0.004336568061262369
","x: 220.11141967773438
y: 380.02557373046875
z: -0.002653644420206547
","x: 217.835693359375
y: 376.9107666015625
z: -0.006819357164204121
","x: 217.92764282226562
y: 382.12786865234375
z: -0.007493073586374521
","x: 218.01844787597656
y: 380.52813720703125
z: -0.006298572290688753
","x: 217.99220275878906
y: 378.13055419921875
z: -0.005002348218113184
","x: 230.44705200195312
y: 317.7921142578125
z: 0.0
","x: 226.69827270507812
y: 315.706787109375
z: 0.0015340351965278387
","x: 222.9481201171875
y: 316.57159423828125
z: 0.00041359150782227516
","x: 220.57444763183594
y: 319.2826232910156
z: -0.0012888736091554165
","x: 219.43267822265625
y: 322.2326965332031
z: -0.0027862321585416794
","x: 221.8278350830078
y: 314.92852783203125
z: -0.0031949819531291723
","x: 217.07232666015625
y: 318.04766845703125
z: -0.005226159002631903
","x: 216.0645294189453
y: 321.8604736328125
z: -0.005324870813637972
","x: 215.9395294189453
y: 324.4295959472656
z: -0.005202929954975843
","x: 222.75010681152344
y: 317.3638000488281
z: -0.0055845873430371284
","x: 218.2187957763672
y: 321.9003601074219
z: -0.007457714062184095
","x: 218.96563720703125
y: 323.2691955566406
z: -0.0061761061660945415
","x: 220.42251586914062
y: 322.78570556640625
z: -0.005001706071197987
","x: 223.9629669189453
y: 320.3409423828125
z: -0.007788496091961861
","x: 219.9646453857422
y: 324.6794128417969
z: -0.008838237263262272
","x: 220.82476806640625
y: 325.42828369140625
z: -0.006723808124661446
","x: 222.0585174560547
y: 324.5215148925781
z: -0.005290552973747253
","x: 225.2957305908203
y: 323.40869140625
z: -0.009981445968151093
","x: 222.0814208984375
y: 326.98199462890625
z: -0.010511769913136959
","x: 222.5350341796875
y: 327.168701171875
z: -0.009071167558431625
","x: 223.5980224609375
y: 326.1981201171875
z: -0.007942468859255314
"
6,"x: 230.84617614746094
y: 249.17066955566406
z: -0.20669043064117432
visibility: 0.9997826814651489
","x: 232.24322509765625
y: 246.51348876953125
z: -0.1971038579940796
visibility: 0.9992577433586121
","x: 233.5714874267578
y: 246.26760864257812
z: -0.1971219927072525
visibility: 0.9993546009063721
","x: 234.85675048828125
y: 245.99769592285156
z: -0.19715026021003723
visibility: 0.9994050860404968
","x: 228.5498046875
y: 248.4266357421875
z: -0.19471856951713562
visibility: 0.9991068243980408
","x: 227.36672973632812
y: 249.51577758789062
z: -0.19471360743045807
visibility: 0.9990156292915344
","x: 226.12413024902344
y: 250.49951171875
z: -0.19474582374095917
visibility: 0.9988867044448853
","x: 237.19818115234375
y: 249.92575073242188
z: -0.1145048514008522
visibility: 0.9988940358161926
","x: 224.54666137695312
y: 254.88905334472656
z: -0.10296090692281723
visibility: 0.9972410202026367
","x: 234.1808624267578
y: 254.44088745117188
z: -0.17336125671863556
visibility: 0.9996968507766724
","x: 228.9844207763672
y: 257.3002014160156
z: -0.17021600902080536
visibility: 0.9994537830352783
","x: 249.01119995117188
y: 277.75994873046875
z: -0.07005833089351654
visibility: 0.999926745891571
","x: 216.61001586914062
y: 282.400634765625
z: -0.03871523588895798
visibility: 0.9994364976882935
","x: 254.74191284179688
y: 318.3175048828125
z: -0.13664977252483368
visibility: 0.9908170104026794
","x: 215.9728240966797
y: 325.16534423828125
z: -0.02502252720296383
visibility: 0.9238079190254211
","x: 230.42018127441406
y: 320.38616943359375
z: -0.28362834453582764
visibility: 0.9757472276687622
","x: 220.04786682128906
y: 362.7847595214844
z: -0.08567909896373749
visibility: 0.8461016416549683
","x: 223.61376953125
y: 324.7561950683594
z: -0.32405713200569153
visibility: 0.9435482621192932
","x: 219.82730102539062
y: 377.12847900390625
z: -0.1081414446234703
visibility: 0.7654218077659607
","x: 222.7332000732422
y: 320.76275634765625
z: -0.32317692041397095
visibility: 0.9479988217353821
","x: 222.52621459960938
y: 375.8409118652344
z: -0.12996487319469452
visibility: 0.7793256640434265
","x: 224.4559783935547
y: 319.33575439453125
z: -0.28528571128845215
visibility: 0.9325438141822815
","x: 223.00250244140625
y: 371.20068359375
z: -0.09596452862024307
visibility: 0.7665956020355225
","x: 242.37945556640625
y: 369.2625732421875
z: -0.0010249915067106485
visibility: 0.9986518621444702
","x: 222.1589813232422
y: 370.3426513671875
z: 0.0010312044760212302
visibility: 0.9985035061836243
","x: 241.0183563232422
y: 437.9654235839844
z: -0.008093951269984245
visibility: 0.9896592497825623
","x: 226.33926391601562
y: 441.2625427246094
z: -0.007324868347495794
visibility: 0.9902437329292297
","x: 237.50315856933594
y: 500.8797912597656
z: 0.07667689025402069
visibility: 0.9908154606819153
","x: 226.7315216064453
y: 507.9723815917969
z: 0.08255168050527573
visibility: 0.9888486266136169
","x: 235.42523193359375
y: 509.566162109375
z: 0.08036990463733673
visibility: 0.8917573094367981
","x: 227.55828857421875
y: 517.0694580078125
z: 0.08538468182086945
visibility: 0.8599628806114197
","x: 242.6836395263672
y: 521.094482421875
z: -0.020064128562808037
visibility: 0.9855239391326904
","x: 225.19790649414062
y: 531.4571533203125
z: -0.015624570660293102
visibility: 0.9829408526420593
",4.796621084213257,"x: 220.4927215576172
y: 363.85406494140625
z: 0.0
","x: 223.3199462890625
y: 367.9534606933594
z: 0.0008713448187336326
","x: 225.1051483154297
y: 373.9620666503906
z: 0.00048150646034628153
","x: 225.1002655029297
y: 378.8828125
z: -0.0004014903970528394
","x: 224.5511932373047
y: 382.16534423828125
z: -0.0008842027164064348
","x: 225.3815155029297
y: 377.57867431640625
z: -0.002278474625200033
","x: 225.74261474609375
y: 386.3856506347656
z: -0.0037400382570922375
","x: 225.20291137695312
y: 385.2874450683594
z: -0.0027985312044620514
","x: 225.01495361328125
y: 382.3710632324219
z: -0.0016763190506026149
","x: 222.8800811767578
y: 378.1611633300781
z: -0.0038041584193706512
","x: 223.0535430908203
y: 386.5880126953125
z: -0.004922153428196907
","x: 222.7006378173828
y: 384.812744140625
z: -0.0031579528003931046
","x: 222.58641052246094
y: 381.6875
z: -0.0014983299188315868
","x: 220.35581970214844
y: 377.85345458984375
z: -0.005296667106449604
","x: 220.2871551513672
y: 384.7156982421875
z: -0.006308100651949644
","x: 220.15963745117188
y: 382.7008056640625
z: -0.004336568061262369
","x: 220.11141967773438
y: 380.02557373046875
z: -0.002653644420206547
","x: 217.835693359375
y: 376.9107666015625
z: -0.006819357164204121
","x: 217.92764282226562
y: 382.12786865234375
z: -0.007493073586374521
","x: 218.01844787597656
y: 380.52813720703125
z: -0.006298572290688753
","x: 217.99220275878906
y: 378.13055419921875
z: -0.005002348218113184
","x: 230.44705200195312
y: 317.7921142578125
z: 0.0
","x: 226.69827270507812
y: 315.706787109375
z: 0.0015340351965278387
","x: 222.9481201171875
y: 316.57159423828125
z: 0.00041359150782227516
","x: 220.57444763183594
y: 319.2826232910156
z: -0.0012888736091554165
","x: 219.43267822265625
y: 322.2326965332031
z: -0.0027862321585416794
","x: 221.8278350830078
y: 314.92852783203125
z: -0.0031949819531291723
","x: 217.07232666015625
y: 318.04766845703125
z: -0.005226159002631903
","x: 216.0645294189453
y: 321.8604736328125
z: -0.005324870813637972
","x: 215.9395294189453
y: 324.4295959472656
z: -0.005202929954975843
","x: 222.75010681152344
y: 317.3638000488281
z: -0.0055845873430371284
","x: 218.2187957763672
y: 321.9003601074219
z: -0.007457714062184095
","x: 218.96563720703125
y: 323.2691955566406
z: -0.0061761061660945415
","x: 220.42251586914062
y: 322.78570556640625
z: -0.005001706071197987
","x: 223.9629669189453
y: 320.3409423828125
z: -0.007788496091961861
","x: 219.9646453857422
y: 324.6794128417969
z: -0.008838237263262272
","x: 220.82476806640625
y: 325.42828369140625
z: -0.006723808124661446
","x: 222.0585174560547
y: 324.5215148925781
z: -0.005290552973747253
","x: 225.2957305908203
y: 323.40869140625
z: -0.009981445968151093
","x: 222.0814208984375
y: 326.98199462890625
z: -0.010511769913136959
","x: 222.5350341796875
y: 327.168701171875
z: -0.009071167558431625
","x: 223.5980224609375
y: 326.1981201171875
z: -0.007942468859255314
"
7,"x: 230.84617614746094
y: 249.17066955566406
z: -0.20669043064117432
visibility: 0.9997826814651489
","x: 232.24322509765625
y: 246.51348876953125
z: -0.1971038579940796
visibility: 0.9992577433586121
","x: 233.5714874267578
y: 246.26760864257812
z: -0.1971219927072525
visibility: 0.9993546009063721
","x: 234.85675048828125
y: 245.99769592285156
z: -0.19715026021003723
visibility: 0.9994050860404968
","x: 228.5498046875
y: 248.4266357421875
z: -0.19471856951713562
visibility: 0.9991068243980408
","x: 227.36672973632812
y: 249.51577758789062
z: -0.19471360743045807
visibility: 0.9990156292915344
","x: 226.12413024902344
y: 250.49951171875
z: -0.19474582374095917
visibility: 0.9988867044448853
","x: 237.19818115234375
y: 249.92575073242188
z: -0.1145048514008522
visibility: 0.9988940358161926
","x: 224.54666137695312
y: 254.88905334472656
z: -0.10296090692281723
visibility: 0.9972410202026367
","x: 234.1808624267578
y: 254.44088745117188
z: -0.17336125671863556
visibility: 0.9996968507766724
","x: 228.9844207763672
y: 257.3002014160156
z: -0.17021600902080536
visibility: 0.9994537830352783
","x: 249.01119995117188
y: 277.75994873046875
z: -0.07005833089351654
visibility: 0.999926745891571
","x: 216.61001586914062
y: 282.400634765625
z: -0.03871523588895798
visibility: 0.9994364976882935
","x: 254.74191284179688
y: 318.3175048828125
z: -0.13664977252483368
visibility: 0.9908170104026794
","x: 215.9728240966797
y: 325.16534423828125
z: -0.02502252720296383
visibility: 0.9238079190254211
","x: 230.42018127441406
y: 320.38616943359375
z: -0.28362834453582764
visibility: 0.9757472276687622
","x: 220.04786682128906
y: 362.7847595214844
z: -0.08567909896373749
visibility: 0.8461016416549683
","x: 223.61376953125
y: 324.7561950683594
z: -0.32405713200569153
visibility: 0.9435482621192932
","x: 219.82730102539062
y: 377.12847900390625
z: -0.1081414446234703
visibility: 0.7654218077659607
","x: 222.7332000732422
y: 320.76275634765625
z: -0.32317692041397095
visibility: 0.9479988217353821
","x: 222.52621459960938
y: 375.8409118652344
z: -0.12996487319469452
visibility: 0.7793256640434265
","x: 224.4559783935547
y: 319.33575439453125
z: -0.28528571128845215
visibility: 0.9325438141822815
","x: 223.00250244140625
y: 371.20068359375
z: -0.09596452862024307
visibility: 0.7665956020355225
","x: 242.37945556640625
y: 369.2625732421875
z: -0.0010249915067106485
visibility: 0.9986518621444702
","x: 222.1589813232422
y: 370.3426513671875
z: 0.0010312044760212302
visibility: 0.9985035061836243
","x: 241.0183563232422
y: 437.9654235839844
z: -0.008093951269984245
visibility: 0.9896592497825623
","x: 226.33926391601562
y: 441.2625427246094
z: -0.007324868347495794
visibility: 0.9902437329292297
","x: 237.50315856933594
y: 500.8797912597656
z: 0.07667689025402069
visibility: 0.9908154606819153
","x: 226.7315216064453
y: 507.9723815917969
z: 0.08255168050527573
visibility: 0.9888486266136169
","x: 235.42523193359375
y: 509.566162109375
z: 0.08036990463733673
visibility: 0.8917573094367981
","x: 227.55828857421875
y: 517.0694580078125
z: 0.08538468182086945
visibility: 0.8599628806114197
","x: 242.6836395263672
y: 521.094482421875
z: -0.020064128562808037
visibility: 0.9855239391326904
","x: 225.19790649414062
y: 531.4571533203125
z: -0.015624570660293102
visibility: 0.9829408526420593
",4.796621084213257,"x: 220.4927215576172
y: 363.85406494140625
z: 0.0
","x: 223.3199462890625
y: 367.9534606933594
z: 0.0008713448187336326
","x: 225.1051483154297
y: 373.9620666503906
z: 0.00048150646034628153
","x: 225.1002655029297
y: 378.8828125
z: -0.0004014903970528394
","x: 224.5511932373047
y: 382.16534423828125
z: -0.0008842027164064348
","x: 225.3815155029297
y: 377.57867431640625
z: -0.002278474625200033
","x: 225.74261474609375
y: 386.3856506347656
z: -0.0037400382570922375
","x: 225.20291137695312
y: 385.2874450683594
z: -0.0027985312044620514
","x: 225.01495361328125
y: 382.3710632324219
z: -0.0016763190506026149
","x: 222.8800811767578
y: 378.1611633300781
z: -0.0038041584193706512
","x: 223.0535430908203
y: 386.5880126953125
z: -0.004922153428196907
","x: 222.7006378173828
y: 384.812744140625
z: -0.0031579528003931046
","x: 222.58641052246094
y: 381.6875
z: -0.0014983299188315868
","x: 220.35581970214844
y: 377.85345458984375
z: -0.005296667106449604
","x: 220.2871551513672
y: 384.7156982421875
z: -0.006308100651949644
","x: 220.15963745117188
y: 382.7008056640625
z: -0.004336568061262369
","x: 220.11141967773438
y: 380.02557373046875
z: -0.002653644420206547
","x: 217.835693359375
y: 376.9107666015625
z: -0.006819357164204121
","x: 217.92764282226562
y: 382.12786865234375
z: -0.007493073586374521
","x: 218.01844787597656
y: 380.52813720703125
z: -0.006298572290688753
","x: 217.99220275878906
y: 378.13055419921875
z: -0.005002348218113184
","x: 230.44705200195312
y: 317.7921142578125
z: 0.0
","x: 226.69827270507812
y: 315.706787109375
z: 0.0015340351965278387
","x: 222.9481201171875
y: 316.57159423828125
z: 0.00041359150782227516
","x: 220.57444763183594
y: 319.2826232910156
z: -0.0012888736091554165
","x: 219.43267822265625
y: 322.2326965332031
z: -0.0027862321585416794
","x: 221.8278350830078
y: 314.92852783203125
z: -0.0031949819531291723
","x: 217.07232666015625
y: 318.04766845703125
z: -0.005226159002631903
","x: 216.0645294189453
y: 321.8604736328125
z: -0.005324870813637972
","x: 215.9395294189453
y: 324.4295959472656
z: -0.005202929954975843
","x: 222.75010681152344
y: 317.3638000488281
z: -0.0055845873430371284
","x: 218.2187957763672
y: 321.9003601074219
z: -0.007457714062184095
","x: 218.96563720703125
y: 323.2691955566406
z: -0.0061761061660945415
","x: 220.42251586914062
y: 322.78570556640625
z: -0.005001706071197987
","x: 223.9629669189453
y: 320.3409423828125
z: -0.007788496091961861
","x: 219.9646453857422
y: 324.6794128417969
z: -0.008838237263262272
","x: 220.82476806640625
y: 325.42828369140625
z: -0.006723808124661446
","x: 222.0585174560547
y: 324.5215148925781
z: -0.005290552973747253
","x: 225.2957305908203
y: 323.40869140625
z: -0.009981445968151093
","x: 222.0814208984375
y: 326.98199462890625
z: -0.010511769913136959
","x: 222.5350341796875
y: 327.168701171875
z: -0.009071167558431625
","x: 223.5980224609375
y: 326.1981201171875
z: -0.007942468859255314
"
8,"x: 235.6040496826172
y: 257.1588134765625
z: -0.20500557124614716
visibility: 0.999796450138092
","x: 238.68304443359375
y: 254.01031494140625
z: -0.19400419294834137
visibility: 0.9993147253990173
","x: 239.9396514892578
y: 254.34539794921875
z: -0.19403904676437378
visibility: 0.9994020462036133
","x: 241.23049926757812
y: 254.5482177734375
z: -0.19407108426094055
visibility: 0.9994507431983948
","x: 233.8992462158203
y: 252.51248168945312
z: -0.19313575327396393
visibility: 0.9991739988327026
","x: 232.75128173828125
y: 252.6235809326172
z: -0.19314095377922058
visibility: 0.9990841150283813
","x: 231.61793518066406
y: 252.73074340820312
z: -0.1931603103876114
visibility: 0.9989662766456604
","x: 242.50196838378906
y: 257.1267395019531
z: -0.10220102965831757
visibility: 0.9989789724349976
","x: 230.4902801513672
y: 255.8482666015625
z: -0.10011216253042221
visibility: 0.9974542856216431
","x: 238.22630310058594
y: 259.1150207519531
z: -0.16852089762687683
visibility: 0.9997178912162781
","x: 234.0373077392578
y: 260.77490234375
z: -0.1680755317211151
visibility: 0.999495804309845
","x: 250.46636962890625
y: 281.1917724609375
z: -0.05814025551080704
visibility: 0.9999322295188904
","x: 218.37799072265625
y: 281.4055480957031
z: -0.02225174568593502
visibility: 0.9994851350784302
","x: 255.10305786132812
y: 324.29913330078125
z: -0.1302374303340912
visibility: 0.9915083646774292
","x: 215.6659393310547
y: 323.18475341796875
z: -0.01698775216937065
visibility: 0.9283754825592041
","x: 233.99844360351562
y: 322.9826354980469
z: -0.2951381206512451
visibility: 0.9780780076980591
","x: 215.20367431640625
y: 352.49151611328125
z: -0.13294599950313568
visibility: 0.8587047457695007
","x: 227.968017578125
y: 327.0792236328125
z: -0.3407602906227112
visibility: 0.9489011764526367
","x: 213.47056579589844
y: 361.8724060058594
z: -0.1635529100894928
visibility: 0.7841793298721313
","x: 226.83297729492188
y: 321.4085693359375
z: -0.34477323293685913
visibility: 0.9529153108596802
","x: 215.03875732421875
y: 360.4156188964844
z: -0.18723247945308685
visibility: 0.7969029545783997
","x: 228.17971801757812
y: 319.9786682128906
z: -0.2990075945854187
visibility: 0.9387015104293823
","x: 216.6399383544922
y: 357.7959899902344
z: -0.14487767219543457
visibility: 0.7839296460151672
","x: 242.68553161621094
y: 370.0466613769531
z: 0.0006671163719147444
visibility: 0.9987394213676453
","x: 222.55673217773438
y: 370.6735534667969
z: -0.0005984434392303228
visibility: 0.9986163377761841
","x: 240.18392944335938
y: 437.1481018066406
z: -0.00012222638179082423
visibility: 0.9887394309043884
","x: 226.9268798828125
y: 439.4486083984375
z: -0.0074136704206466675
visibility: 0.9900506138801575
","x: 237.02719116210938
y: 501.47198486328125
z: 0.09156595170497894
visibility: 0.9898455142974854
","x: 226.6230010986328
y: 507.8173828125
z: 0.08692671358585358
visibility: 0.9885603189468384
","x: 235.19528198242188
y: 510.50616455078125
z: 0.09541051089763641
visibility: 0.8960997462272644
","x: 227.31619262695312
y: 517.4805297851562
z: 0.08990989625453949
visibility: 0.8576402068138123
","x: 242.25328063964844
y: 519.8211059570312
z: -0.015669286251068115
visibility: 0.9854181408882141
","x: 225.03143310546875
y: 529.981201171875
z: -0.012797558680176735
visibility: 0.9825538992881775
",4.945669412612915,,,,,,,,,,,,,,,,,,,,,,"x: 231.3545379638672
y: 323.33489990234375
z: 0.0
","x: 227.8199005126953
y: 319.80596923828125
z: 0.0008103668806143105
","x: 223.77767944335938
y: 318.1131286621094
z: -0.0008798749186098576
","x: 220.94430541992188
y: 317.19000244140625
z: -0.003157814498990774
","x: 219.68032836914062
y: 316.7386474609375
z: -0.005237544886767864
","x: 224.2689971923828
y: 319.409912109375
z: -0.005330601241439581
","x: 219.4323272705078
y: 320.9744567871094
z: -0.00861202459782362
","x: 219.925048828125
y: 321.1056213378906
z: -0.008944193832576275
","x: 221.116455078125
y: 320.5696105957031
z: -0.00878705084323883
","x: 225.3892822265625
y: 322.8177490234375
z: -0.007866361178457737
","x: 219.6476287841797
y: 326.74859619140625
z: -0.011589991860091686
","x: 220.8817901611328
y: 326.41607666015625
z: -0.010776250623166561
","x: 222.9969940185547
y: 325.4063720703125
z: -0.009504901245236397
","x: 226.3944549560547
y: 326.6954040527344
z: -0.010225667618215084
","x: 221.099609375
y: 330.5574035644531
z: -0.012513633817434311
","x: 222.1905059814453
y: 330.49810791015625
z: -0.010132718831300735
","x: 224.11749267578125
y: 329.4320068359375
z: -0.008311622776091099
","x: 227.3074188232422
y: 330.5614929199219
z: -0.012590319849550724
","x: 223.0015869140625
y: 333.50469970703125
z: -0.013666359707713127
","x: 223.56634521484375
y: 333.34271240234375
z: -0.012071738950908184
","x: 225.14736938476562
y: 332.5064392089844
z: -0.010732647031545639
"
9,"x: 235.6040496826172
y: 257.1588134765625
z: -0.20500557124614716
visibility: 0.999796450138092
","x: 238.68304443359375
y: 254.01031494140625
z: -0.19400419294834137
visibility: 0.9993147253990173
","x: 239.9396514892578
y: 254.34539794921875
z: -0.19403904676437378
visibility: 0.9994020462036133
","x: 241.23049926757812
y: 254.5482177734375
z: -0.19407108426094055
visibility: 0.9994507431983948
","x: 233.8992462158203
y: 252.51248168945312
z: -0.19313575327396393
visibility: 0.9991739988327026
","x: 232.75128173828125
y: 252.6235809326172
z: -0.19314095377922058
visibility: 0.9990841150283813
","x: 231.61793518066406
y: 252.73074340820312
z: -0.1931603103876114
visibility: 0.9989662766456604
","x: 242.50196838378906
y: 257.1267395019531
z: -0.10220102965831757
visibility: 0.9989789724349976
","x: 230.4902801513672
y: 255.8482666015625
z: -0.10011216253042221
visibility: 0.9974542856216431
","x: 238.22630310058594
y: 259.1150207519531
z: -0.16852089762687683
visibility: 0.9997178912162781
","x: 234.0373077392578
y: 260.77490234375
z: -0.1680755317211151
visibility: 0.999495804309845
","x: 250.46636962890625
y: 281.1917724609375
z: -0.05814025551080704
visibility: 0.9999322295188904
","x: 218.37799072265625
y: 281.4055480957031
z: -0.02225174568593502
visibility: 0.9994851350784302
","x: 255.10305786132812
y: 324.29913330078125
z: -0.1302374303340912
visibility: 0.9915083646774292
","x: 215.6659393310547
y: 323.18475341796875
z: -0.01698775216937065
visibility: 0.9283754825592041
","x: 233.99844360351562
y: 322.9826354980469
z: -0.2951381206512451
visibility: 0.9780780076980591
","x: 215.20367431640625
y: 352.49151611328125
z: -0.13294599950313568
visibility: 0.8587047457695007
","x: 227.968017578125
y: 327.0792236328125
z: -0.3407602906227112
visibility: 0.9489011764526367
","x: 213.47056579589844
y: 361.8724060058594
z: -0.1635529100894928
visibility: 0.7841793298721313
","x: 226.83297729492188
y: 321.4085693359375
z: -0.34477323293685913
visibility: 0.9529153108596802
","x: 215.03875732421875
y: 360.4156188964844
z: -0.18723247945308685
visibility: 0.7969029545783997
","x: 228.17971801757812
y: 319.9786682128906
z: -0.2990075945854187
visibility: 0.9387015104293823
","x: 216.6399383544922
y: 357.7959899902344
z: -0.14487767219543457
visibility: 0.7839296460151672
","x: 242.68553161621094
y: 370.0466613769531
z: 0.0006671163719147444
visibility: 0.9987394213676453
","x: 222.55673217773438
y: 370.6735534667969
z: -0.0005984434392303228
visibility: 0.9986163377761841
","x: 240.18392944335938
y: 437.1481018066406
z: -0.00012222638179082423
visibility: 0.9887394309043884
","x: 226.9268798828125
y: 439.4486083984375
z: -0.0074136704206466675
visibility: 0.9900506138801575
","x: 237.02719116210938
y: 501.47198486328125
z: 0.09156595170497894
visibility: 0.9898455142974854
","x: 226.6230010986328
y: 507.8173828125
z: 0.08692671358585358
visibility: 0.9885603189468384
","x: 235.19528198242188
y: 510.50616455078125
z: 0.09541051089763641
visibility: 0.8960997462272644
","x: 227.31619262695312
y: 517.4805297851562
z: 0.08990989625453949
visibility: 0.8576402068138123
","x: 242.25328063964844
y: 519.8211059570312
z: -0.015669286251068115
visibility: 0.9854181408882141
","x: 225.03143310546875
y: 529.981201171875
z: -0.012797558680176735
visibility: 0.9825538992881775
",4.945669412612915,,,,,,,,,,,,,,,,,,,,,,"x: 231.3545379638672
y: 323.33489990234375
z: 0.0
","x: 227.8199005126953
y: 319.80596923828125
z: 0.0008103668806143105
","x: 223.77767944335938
y: 318.1131286621094
z: -0.0008798749186098576
","x: 220.94430541992188
y: 317.19000244140625
z: -0.003157814498990774
","x: 219.68032836914062
y: 316.7386474609375
z: -0.005237544886767864
","x: 224.2689971923828
y: 319.409912109375
z: -0.005330601241439581
","x: 219.4323272705078
y: 320.9744567871094
z: -0.00861202459782362
","x: 219.925048828125
y: 321.1056213378906
z: -0.008944193832576275
","x: 221.116455078125
y: 320.5696105957031
z: -0.00878705084323883
","x: 225.3892822265625
y: 322.8177490234375
z: -0.007866361178457737
","x: 219.6476287841797
y: 326.74859619140625
z: -0.011589991860091686
","x: 220.8817901611328
y: 326.41607666015625
z: -0.010776250623166561
","x: 222.9969940185547
y: 325.4063720703125
z: -0.009504901245236397
","x: 226.3944549560547
y: 326.6954040527344
z: -0.010225667618215084
","x: 221.099609375
y: 330.5574035644531
z: -0.012513633817434311
","x: 222.1905059814453
y: 330.49810791015625
z: -0.010132718831300735
","x: 224.11749267578125
y: 329.4320068359375
z: -0.008311622776091099
","x: 227.3074188232422
y: 330.5614929199219
z: -0.012590319849550724
","x: 223.0015869140625
y: 333.50469970703125
z: -0.013666359707713127
","x: 223.56634521484375
y: 333.34271240234375
z: -0.012071738950908184
","x: 225.14736938476562
y: 332.5064392089844
z: -0.010732647031545639
"
10,"x: 235.6040496826172
y: 257.1588134765625
z: -0.20500557124614716
visibility: 0.999796450138092
","x: 238.68304443359375
y: 254.01031494140625
z: -0.19400419294834137
visibility: 0.9993147253990173
","x: 239.9396514892578
y: 254.34539794921875
z: -0.19403904676437378
visibility: 0.9994020462036133
","x: 241.23049926757812
y: 254.5482177734375
z: -0.19407108426094055
visibility: 0.9994507431983948
","x: 233.8992462158203
y: 252.51248168945312
z: -0.19313575327396393
visibility: 0.9991739988327026
","x: 232.75128173828125
y: 252.6235809326172
z: -0.19314095377922058
visibility: 0.9990841150283813
","x: 231.61793518066406
y: 252.73074340820312
z: -0.1931603103876114
visibility: 0.9989662766456604
","x: 242.50196838378906
y: 257.1267395019531
z: -0.10220102965831757
visibility: 0.9989789724349976
","x: 230.4902801513672
y: 255.8482666015625
z: -0.10011216253042221
visibility: 0.9974542856216431
","x: 238.22630310058594
y: 259.1150207519531
z: -0.16852089762687683
visibility: 0.9997178912162781
","x: 234.0373077392578
y: 260.77490234375
z: -0.1680755317211151
visibility: 0.999495804309845
","x: 250.46636962890625
y: 281.1917724609375
z: -0.05814025551080704
visibility: 0.9999322295188904
","x: 218.37799072265625
y: 281.4055480957031
z: -0.02225174568593502
visibility: 0.9994851350784302
","x: 255.10305786132812
y: 324.29913330078125
z: -0.1302374303340912
visibility: 0.9915083646774292
","x: 215.6659393310547
y: 323.18475341796875
z: -0.01698775216937065
visibility: 0.9283754825592041
","x: 233.99844360351562
y: 322.9826354980469
z: -0.2951381206512451
visibility: 0.9780780076980591
","x: 215.20367431640625
y: 352.49151611328125
z: -0.13294599950313568
visibility: 0.8587047457695007
","x: 227.968017578125
y: 327.0792236328125
z: -0.3407602906227112
visibility: 0.9489011764526367
","x: 213.47056579589844
y: 361.8724060058594
z: -0.1635529100894928
visibility: 0.7841793298721313
","x: 226.83297729492188
y: 321.4085693359375
z: -0.34477323293685913
visibility: 0.9529153108596802
","x: 215.03875732421875
y: 360.4156188964844
z: -0.18723247945308685
visibility: 0.7969029545783997
","x: 228.17971801757812
y: 319.9786682128906
z: -0.2990075945854187
visibility: 0.9387015104293823
","x: 216.6399383544922
y: 357.7959899902344
z: -0.14487767219543457
visibility: 0.7839296460151672
","x: 242.68553161621094
y: 370.0466613769531
z: 0.0006671163719147444
visibility: 0.9987394213676453
","x: 222.55673217773438
y: 370.6735534667969
z: -0.0005984434392303228
visibility: 0.9986163377761841
","x: 240.18392944335938
y: 437.1481018066406
z: -0.00012222638179082423
visibility: 0.9887394309043884
","x: 226.9268798828125
y: 439.4486083984375
z: -0.0074136704206466675
visibility: 0.9900506138801575
","x: 237.02719116210938
y: 501.47198486328125
z: 0.09156595170497894
visibility: 0.9898455142974854
","x: 226.6230010986328
y: 507.8173828125
z: 0.08692671358585358
visibility: 0.9885603189468384
","x: 235.19528198242188
y: 510.50616455078125
z: 0.09541051089763641
visibility: 0.8960997462272644
","x: 227.31619262695312
y: 517.4805297851562
z: 0.08990989625453949
visibility: 0.8576402068138123
","x: 242.25328063964844
y: 519.8211059570312
z: -0.015669286251068115
visibility: 0.9854181408882141
","x: 225.03143310546875
y: 529.981201171875
z: -0.012797558680176735
visibility: 0.9825538992881775
",4.945669412612915,,,,,,,,,,,,,,,,,,,,,,"x: 231.3545379638672
y: 323.33489990234375
z: 0.0
","x: 227.8199005126953
y: 319.80596923828125
z: 0.0008103668806143105
","x: 223.77767944335938
y: 318.1131286621094
z: -0.0008798749186098576
","x: 220.94430541992188
y: 317.19000244140625
z: -0.003157814498990774
","x: 219.68032836914062
y: 316.7386474609375
z: -0.005237544886767864
","x: 224.2689971923828
y: 319.409912109375
z: -0.005330601241439581
","x: 219.4323272705078
y: 320.9744567871094
z: -0.00861202459782362
","x: 219.925048828125
y: 321.1056213378906
z: -0.008944193832576275
","x: 221.116455078125
y: 320.5696105957031
z: -0.00878705084323883
","x: 225.3892822265625
y: 322.8177490234375
z: -0.007866361178457737
","x: 219.6476287841797
y: 326.74859619140625
z: -0.011589991860091686
","x: 220.8817901611328
y: 326.41607666015625
z: -0.010776250623166561
","x: 222.9969940185547
y: 325.4063720703125
z: -0.009504901245236397
","x: 226.3944549560547
y: 326.6954040527344
z: -0.010225667618215084
","x: 221.099609375
y: 330.5574035644531
z: -0.012513633817434311
","x: 222.1905059814453
y: 330.49810791015625
z: -0.010132718831300735
","x: 224.11749267578125
y: 329.4320068359375
z: -0.008311622776091099
","x: 227.3074188232422
y: 330.5614929199219
z: -0.012590319849550724
","x: 223.0015869140625
y: 333.50469970703125
z: -0.013666359707713127
","x: 223.56634521484375
y: 333.34271240234375
z: -0.012071738950908184
","x: 225.14736938476562
y: 332.5064392089844
z: -0.010732647031545639
"
11,"x: 240.69216918945312
y: 253.3182373046875
z: -0.11843844503164291
visibility: 0.9997982382774353
","x: 242.88450622558594
y: 251.47149658203125
z: -0.10163470357656479
visibility: 0.9993502497673035
","x: 243.96498107910156
y: 251.99388122558594
z: -0.10169360786676407
visibility: 0.9994255900382996
","x: 245.0590362548828
y: 252.64479064941406
z: -0.10171642154455185
visibility: 0.99947589635849
","x: 239.60165405273438
y: 250.85733032226562
z: -0.10297726094722748
visibility: 0.999221920967102
","x: 238.5471954345703
y: 251.20880126953125
z: -0.10298671573400497
visibility: 0.9991318583488464
","x: 237.511962890625
y: 251.6647186279297
z: -0.10300575196743011
visibility: 0.9990262389183044
","x: 245.81646728515625
y: 257.354248046875
z: -0.010372020304203033
visibility: 0.9990152716636658
","x: 235.2686004638672
y: 254.7101593017578
z: -0.01869514398276806
visibility: 0.9975972175598145
","x: 241.63673400878906
y: 257.38043212890625
z: -0.08516307175159454
visibility: 0.9997199177742004
","x: 238.06475830078125
y: 255.53636169433594
z: -0.08766941726207733
visibility: 0.9995127320289612
","x: 252.5402374267578
y: 284.9073486328125
z: 0.009978825226426125
visibility: 0.9999262094497681
","x: 219.95101928710938
y: 281.6976013183594
z: 0.029984941706061363
visibility: 0.9995067715644836
","x: 255.85203552246094
y: 327.927978515625
z: -0.07833050936460495
visibility: 0.9912497401237488
","x: 215.8809356689453
y: 323.9448547363281
z: -0.01525231171399355
visibility: 0.9249642491340637
","x: 234.4310302734375
y: 326.19183349609375
z: -0.22679917514324188
visibility: 0.9796880483627319
","x: 214.48870849609375
y: 349.1562194824219
z: -0.1587091088294983
visibility: 0.8644375801086426
","x: 227.9154510498047
y: 329.7647399902344
z: -0.26767852902412415
visibility: 0.9527297616004944
","x: 211.62034606933594
y: 355.9505920410156
z: -0.19517555832862854
visibility: 0.795348584651947
","x: 226.95948791503906
y: 324.77972412109375
z: -0.2744513750076294
visibility: 0.9564040303230286
","x: 211.07249450683594
y: 354.1415710449219
z: -0.21448473632335663
visibility: 0.8072276711463928
","x: 228.6803436279297
y: 323.4062194824219
z: -0.23206599056720734
visibility: 0.9426278471946716
","x: 213.32794189453125
y: 352.44464111328125
z: -0.17062219977378845
visibility: 0.7929866313934326
","x: 242.9619598388672
y: 370.515625
z: 0.005754102952778339
visibility: 0.9987896084785461
","x: 223.2623748779297
y: 370.97369384765625
z: -0.005671889055520296
visibility: 0.9987059831619263
","x: 239.57249450683594
y: 436.5576477050781
z: 0.0009527135407552123
visibility: 0.9874604344367981
","x: 227.581787109375
y: 438.5561828613281
z: -0.021506179124116898
visibility: 0.9896453022956848
","x: 236.45932006835938
y: 502.19720458984375
z: 0.08409847319126129
visibility: 0.9884636998176575
","x: 226.23985290527344
y: 507.0987243652344
z: 0.0644569844007492
visibility: 0.9883999824523926
","x: 234.5694122314453
y: 511.5731506347656
z: 0.08697004616260529
visibility: 0.8981030583381653
","x: 226.94895935058594
y: 517.4874267578125
z: 0.06632138043642044
visibility: 0.8558511137962341
","x: 241.87911987304688
y: 519.4349365234375
z: -0.008195675909519196
visibility: 0.984580934047699
","x: 224.04673767089844
y: 528.3372802734375
z: -0.031769540160894394
visibility: 0.982075572013855
",5.073357105255127,,,,,,,,,,,,,,,,,,,,,,,,,,,,,,,,,,,,,,,,,,
12,"x: 240.69216918945312
y: 253.3182373046875
z: -0.11843844503164291
visibility: 0.9997982382774353
","x: 242.88450622558594
y: 251.47149658203125
z: -0.10163470357656479
visibility: 0.9993502497673035
","x: 243.96498107910156
y: 251.99388122558594
z: -0.10169360786676407
visibility: 0.9994255900382996
","x: 245.0590362548828
y: 252.64479064941406
z: -0.10171642154455185
visibility: 0.99947589635849
","x: 239.60165405273438
y: 250.85733032226562
z: -0.10297726094722748
visibility: 0.999221920967102
","x: 238.5471954345703
y: 251.20880126953125
z: -0.10298671573400497
visibility: 0.9991318583488464
","x: 237.511962890625
y: 251.6647186279297
z: -0.10300575196743011
visibility: 0.9990262389183044
","x: 245.81646728515625
y: 257.354248046875
z: -0.010372020304203033
visibility: 0.9990152716636658
","x: 235.2686004638672
y: 254.7101593017578
z: -0.01869514398276806
visibility: 0.9975972175598145
","x: 241.63673400878906
y: 257.38043212890625
z: -0.08516307175159454
visibility: 0.9997199177742004
","x: 238.06475830078125
y: 255.53636169433594
z: -0.08766941726207733
visibility: 0.9995127320289612
","x: 252.5402374267578
y: 284.9073486328125
z: 0.009978825226426125
visibility: 0.9999262094497681
","x: 219.95101928710938
y: 281.6976013183594
z: 0.029984941706061363
visibility: 0.9995067715644836
","x: 255.85203552246094
y: 327.927978515625
z: -0.07833050936460495
visibility: 0.9912497401237488
","x: 215.8809356689453
y: 323.9448547363281
z: -0.01525231171399355
visibility: 0.9249642491340637
","x: 234.4310302734375
y: 326.19183349609375
z: -0.22679917514324188
visibility: 0.9796880483627319
","x: 214.48870849609375
y: 349.1562194824219
z: -0.1587091088294983
visibility: 0.8644375801086426
","x: 227.9154510498047
y: 329.7647399902344
z: -0.26767852902412415
visibility: 0.9527297616004944
","x: 211.62034606933594
y: 355.9505920410156
z: -0.19517555832862854
visibility: 0.795348584651947
","x: 226.95948791503906
y: 324.77972412109375
z: -0.2744513750076294
visibility: 0.9564040303230286
","x: 211.07249450683594
y: 354.1415710449219
z: -0.21448473632335663
visibility: 0.8072276711463928
","x: 228.6803436279297
y: 323.4062194824219
z: -0.23206599056720734
visibility: 0.9426278471946716
","x: 213.32794189453125
y: 352.44464111328125
z: -0.17062219977378845
visibility: 0.7929866313934326
","x: 242.9619598388672
y: 370.515625
z: 0.005754102952778339
visibility: 0.9987896084785461
","x: 223.2623748779297
y: 370.97369384765625
z: -0.005671889055520296
visibility: 0.9987059831619263
","x: 239.57249450683594
y: 436.5576477050781
z: 0.0009527135407552123
visibility: 0.9874604344367981
","x: 227.581787109375
y: 438.5561828613281
z: -0.021506179124116898
visibility: 0.9896453022956848
","x: 236.45932006835938
y: 502.19720458984375
z: 0.08409847319126129
visibility: 0.9884636998176575
","x: 226.23985290527344
y: 507.0987243652344
z: 0.0644569844007492
visibility: 0.9883999824523926
","x: 234.5694122314453
y: 511.5731506347656
z: 0.08697004616260529
visibility: 0.8981030583381653
","x: 226.94895935058594
y: 517.4874267578125
z: 0.06632138043642044
visibility: 0.8558511137962341
","x: 241.87911987304688
y: 519.4349365234375
z: -0.008195675909519196
visibility: 0.984580934047699
","x: 224.04673767089844
y: 528.3372802734375
z: -0.031769540160894394
visibility: 0.982075572013855
",5.073357105255127,,,,,,,,,,,,,,,,,,,,,,,,,,,,,,,,,,,,,,,,,,
13,"x: 241.9796600341797
y: 253.1800079345703
z: -0.15527763962745667
visibility: 0.9998078346252441
","x: 243.8853302001953
y: 250.65895080566406
z: -0.1410127580165863
visibility: 0.9993918538093567
","x: 245.0015869140625
y: 251.4984130859375
z: -0.14106452465057373
visibility: 0.9994596838951111
","x: 246.1155548095703
y: 252.39309692382812
z: -0.1410854011774063
visibility: 0.9995095729827881
","x: 240.6102294921875
y: 249.8086700439453
z: -0.1416321098804474
visibility: 0.9992724061012268
","x: 239.44808959960938
y: 250.11270141601562
z: -0.14164069294929504
visibility: 0.999184250831604
","x: 238.29331970214844
y: 250.4620361328125
z: -0.14165803790092468
visibility: 0.999087393283844
","x: 246.85108947753906
y: 257.5103454589844
z: -0.0536164715886116
visibility: 0.9990710616111755
","x: 235.6681365966797
y: 253.9995574951172
z: -0.058145493268966675
visibility: 0.9977404475212097
","x: 242.85012817382812
y: 257.0561828613281
z: -0.12254796922206879
visibility: 0.9997326731681824
","x: 239.17391967773438
y: 255.46124267578125
z: -0.12395868450403214
visibility: 0.9995399117469788
","x: 253.37124633789062
y: 285.2510986328125
z: -0.022153351455926895
visibility: 0.9999287724494934
","x: 220.998046875
y: 281.72003173828125
z: 0.003573447000235319
visibility: 0.9995396137237549
","x: 256.1808776855469
y: 329.2453308105469
z: -0.08010715246200562
visibility: 0.9916130304336548
","x: 216.24180603027344
y: 323.87445068359375
z: 0.002522842725738883
visibility: 0.9268232583999634
","x: 235.0631103515625
y: 327.02935791015625
z: -0.2254858762025833
visibility: 0.981462299823761
","x: 213.8575439453125
y: 350.12890625
z: -0.11877872049808502
visibility: 0.8714398145675659
","x: 228.718994140625
y: 330.2843017578125
z: -0.26601240038871765
visibility: 0.9567846655845642
","x: 208.147705078125
y: 358.3427429199219
z: -0.14725711941719055
visibility: 0.8064500689506531
","x: 227.82554626464844
y: 325.14752197265625
z: -0.2716541886329651
visibility: 0.9601221680641174
","x: 206.67564392089844
y: 357.4082946777344
z: -0.1706855744123459
visibility: 0.8175430297851562
","x: 229.457275390625
y: 323.8553161621094
z: -0.22976501286029816
visibility: 0.9471096992492676
","x: 209.27499389648438
y: 354.8924255371094
z: -0.13082686066627502
visibility: 0.8025190234184265
","x: 243.33372497558594
y: 370.063232421875
z: 0.0074615576304495335
visibility: 0.9988436102867126
","x: 223.9173583984375
y: 369.3381042480469
z: -0.0073880827985703945
visibility: 0.998784601688385
","x: 239.4301300048828
y: 434.6982421875
z: -0.015261830762028694
visibility: 0.9860881567001343
","x: 227.56398010253906
y: 436.2585754394531
z: -0.04120177775621414
visibility: 0.989398717880249
","x: 236.6856689453125
y: 502.66015625
z: 0.048433419317007065
visibility: 0.9874817728996277
","x: 223.31321716308594
y: 506.618896484375
z: 0.029798433184623718
visibility: 0.988204300403595
","x: 233.90426635742188
y: 512.0960693359375
z: 0.04960964247584343
visibility: 0.9006369709968567
","x: 223.8524627685547
y: 517.2919311523438
z: 0.03007243573665619
visibility: 0.8533251881599426
","x: 242.30320739746094
y: 520.0142211914062
z: -0.043017007410526276
visibility: 0.98414546251297
","x: 222.34619140625
y: 525.1505126953125
z: -0.07042471319437027
visibility: 0.9816415309906006
",5.182607412338257,,,,,,,,,,,,,,,,,,,,,,,,,,,,,,,,,,,,,,,,,,
14,"x: 241.9796600341797
y: 253.1800079345703
z: -0.15527763962745667
visibility: 0.9998078346252441
","x: 243.8853302001953
y: 250.65895080566406
z: -0.1410127580165863
visibility: 0.9993918538093567
","x: 245.0015869140625
y: 251.4984130859375
z: -0.14106452465057373
visibility: 0.9994596838951111
","x: 246.1155548095703
y: 252.39309692382812
z: -0.1410854011774063
visibility: 0.9995095729827881
","x: 240.6102294921875
y: 249.8086700439453
z: -0.1416321098804474
visibility: 0.9992724061012268
","x: 239.44808959960938
y: 250.11270141601562
z: -0.14164069294929504
visibility: 0.999184250831604
","x: 238.29331970214844
y: 250.4620361328125
z: -0.14165803790092468
visibility: 0.999087393283844
","x: 246.85108947753906
y: 257.5103454589844
z: -0.0536164715886116
visibility: 0.9990710616111755
","x: 235.6681365966797
y: 253.9995574951172
z: -0.058145493268966675
visibility: 0.9977404475212097
","x: 242.85012817382812
y: 257.0561828613281
z: -0.12254796922206879
visibility: 0.9997326731681824
","x: 239.17391967773438
y: 255.46124267578125
z: -0.12395868450403214
visibility: 0.9995399117469788
","x: 253.37124633789062
y: 285.2510986328125
z: -0.022153351455926895
visibility: 0.9999287724494934
","x: 220.998046875
y: 281.72003173828125
z: 0.003573447000235319
visibility: 0.9995396137237549
","x: 256.1808776855469
y: 329.2453308105469
z: -0.08010715246200562
visibility: 0.9916130304336548
","x: 216.24180603027344
y: 323.87445068359375
z: 0.002522842725738883
visibility: 0.9268232583999634
","x: 235.0631103515625
y: 327.02935791015625
z: -0.2254858762025833
visibility: 0.981462299823761
","x: 213.8575439453125
y: 350.12890625
z: -0.11877872049808502
visibility: 0.8714398145675659
","x: 228.718994140625
y: 330.2843017578125
z: -0.26601240038871765
visibility: 0.9567846655845642
","x: 208.147705078125
y: 358.3427429199219
z: -0.14725711941719055
visibility: 0.8064500689506531
","x: 227.82554626464844
y: 325.14752197265625
z: -0.2716541886329651
visibility: 0.9601221680641174
","x: 206.67564392089844
y: 357.4082946777344
z: -0.1706855744123459
visibility: 0.8175430297851562
","x: 229.457275390625
y: 323.8553161621094
z: -0.22976501286029816
visibility: 0.9471096992492676
","x: 209.27499389648438
y: 354.8924255371094
z: -0.13082686066627502
visibility: 0.8025190234184265
","x: 243.33372497558594
y: 370.063232421875
z: 0.0074615576304495335
visibility: 0.9988436102867126
","x: 223.9173583984375
y: 369.3381042480469
z: -0.0073880827985703945
visibility: 0.998784601688385
","x: 239.4301300048828
y: 434.6982421875
z: -0.015261830762028694
visibility: 0.9860881567001343
","x: 227.56398010253906
y: 436.2585754394531
z: -0.04120177775621414
visibility: 0.989398717880249
","x: 236.6856689453125
y: 502.66015625
z: 0.048433419317007065
visibility: 0.9874817728996277
","x: 223.31321716308594
y: 506.618896484375
z: 0.029798433184623718
visibility: 0.988204300403595
","x: 233.90426635742188
y: 512.0960693359375
z: 0.04960964247584343
visibility: 0.9006369709968567
","x: 223.8524627685547
y: 517.2919311523438
z: 0.03007243573665619
visibility: 0.8533251881599426
","x: 242.30320739746094
y: 520.0142211914062
z: -0.043017007410526276
visibility: 0.98414546251297
","x: 222.34619140625
y: 525.1505126953125
z: -0.07042471319437027
visibility: 0.9816415309906006
",5.182607412338257,,,,,,,,,,,,,,,,,,,,,,,,,,,,,,,,,,,,,,,,,,
15,"x: 242.1898193359375
y: 252.38685607910156
z: -0.1989550143480301
visibility: 0.9998219609260559
","x: 244.0225067138672
y: 250.27386474609375
z: -0.18374815583229065
visibility: 0.9994404315948486
","x: 245.101806640625
y: 251.18771362304688
z: -0.18380814790725708
visibility: 0.9995013475418091
","x: 246.16175842285156
y: 252.04542541503906
z: -0.18381264805793762
visibility: 0.9995477795600891
","x: 240.80111694335938
y: 249.17694091796875
z: -0.1840866506099701
visibility: 0.9993306994438171
","x: 239.6392364501953
y: 249.5430145263672
z: -0.18407435715198517
visibility: 0.999247133731842
","x: 238.43408203125
y: 250.14337158203125
z: -0.18408069014549255
visibility: 0.9991583824157715
","x: 246.9207000732422
y: 256.6971740722656
z: -0.09393316507339478
visibility: 0.9991388916969299
","x: 235.32086181640625
y: 253.63323974609375
z: -0.09766290336847305
visibility: 0.997917115688324
","x: 243.13568115234375
y: 257.064208984375
z: -0.16587521135807037
visibility: 0.9997516870498657
","x: 239.35671997070312
y: 255.60818481445312
z: -0.16692742705345154
visibility: 0.9995760917663574
","x: 253.75070190429688
y: 285.67730712890625
z: -0.060241006314754486
visibility: 0.9999325275421143
","x: 220.90606689453125
y: 282.3547668457031
z: -0.013985937461256981
visibility: 0.9995737075805664
","x: 256.5296630859375
y: 329.589111328125
z: -0.1117807999253273
visibility: 0.992141842842102
","x: 215.79537963867188
y: 325.53076171875
z: 0.012292374856770039
visibility: 0.9312012195587158
","x: 236.61476135253906
y: 325.98748779296875
z: -0.26162219047546387
visibility: 0.9831449389457703
","x: 208.7996063232422
y: 355.8529357910156
z: -0.07745709270238876
visibility: 0.880598247051239
","x: 230.4982452392578
y: 328.4561767578125
z: -0.3009313941001892
visibility: 0.9606029987335205
","x: 203.2665557861328
y: 364.9696044921875
z: -0.10046792030334473
visibility: 0.8193947672843933
","x: 229.31011962890625
y: 323.49774169921875
z: -0.30673736333847046
visibility: 0.9636202454566956
","x: 202.34890747070312
y: 364.3143310546875
z: -0.1292233020067215
visibility: 0.8297508955001831
","x: 230.78636169433594
y: 322.1471862792969
z: -0.26567789912223816
visibility: 0.9514168500900269
","x: 204.54971313476562
y: 361.87359619140625
z: -0.0906764417886734
visibility: 0.8146742582321167
","x: 243.46926879882812
y: 370.321044921875
z: 0.005912660621106625
visibility: 0.9988825917243958
","x: 224.24143981933594
y: 369.63079833984375
z: -0.005852130241692066
visibility: 0.9988397359848022
","x: 239.36146545410156
y: 434.5599060058594
z: -0.01836344413459301
visibility: 0.9854210019111633
","x: 226.49107360839844
y: 435.7796936035156
z: -0.04309709370136261
visibility: 0.9893770217895508
","x: 237.01351928710938
y: 502.8028564453125
z: 0.047694168984889984
visibility: 0.9868454337120056
","x: 220.49461364746094
y: 503.736328125
z: 0.03632567450404167
visibility: 0.987983226776123
","x: 234.15042114257812
y: 512.002685546875
z: 0.048777155578136444
visibility: 0.9029551148414612
","x: 221.37637329101562
y: 514.25048828125
z: 0.03733842074871063
visibility: 0.8508974313735962
","x: 242.5032196044922
y: 520.2493896484375
z: -0.04793766885995865
visibility: 0.9837402701377869
","x: 219.47486877441406
y: 521.2390747070312
z: -0.0662827268242836
visibility: 0.9811737537384033
",5.291375637054443,,,,,,,,,,,,,,,,,,,,,,"x: 234.37770080566406
y: 327.2624206542969
z: 0.0
","x: 232.18287658691406
y: 322.96453857421875
z: 0.0005625256453640759
","x: 228.82994079589844
y: 321.9288635253906
z: -8.356960461242124e-05
","x: 226.41807556152344
y: 323.41143798828125
z: -0.0010625822469592094
","x: 225.1833953857422
y: 326.017822265625
z: -0.0017048901645466685
","x: 227.31890869140625
y: 322.3575439453125
z: -0.0023944294080138206
","x: 222.88531494140625
y: 323.2449951171875
z: -0.0039025440346449614
","x: 223.76930236816406
y: 324.0655517578125
z: -0.0035150800831615925
","x: 225.48130798339844
y: 324.15625
z: -0.0028782500885427
","x: 227.30235290527344
y: 325.8492431640625
z: -0.003672644728794694
","x: 223.16221618652344
y: 327.1110534667969
z: -0.0047162678092718124
","x: 224.27468872070312
y: 327.41766357421875
z: -0.0036193591076880693
","x: 225.89053344726562
y: 327.2147216796875
z: -0.0026300002355128527
","x: 227.48414611816406
y: 329.4288330078125
z: -0.004879696760326624
","x: 223.74880981445312
y: 330.485107421875
z: -0.005277717486023903
","x: 224.7307891845703
y: 330.39324951171875
z: -0.0036039899569004774
","x: 226.11196899414062
y: 330.0856018066406
z: -0.0025227670557796955
","x: 227.87442016601562
y: 332.82769775390625
z: -0.006124397274106741
","x: 224.6101531982422
y: 333.0194396972656
z: -0.006169058848172426
","x: 225.3573760986328
y: 332.794677734375
z: -0.004936890210956335
","x: 226.730224609375
y: 332.8020935058594
z: -0.003970341291278601
"
16,"x: 242.1898193359375
y: 252.38685607910156
z: -0.1989550143480301
visibility: 0.9998219609260559
","x: 244.0225067138672
y: 250.27386474609375
z: -0.18374815583229065
visibility: 0.9994404315948486
","x: 245.101806640625
y: 251.18771362304688
z: -0.18380814790725708
visibility: 0.9995013475418091
","x: 246.16175842285156
y: 252.04542541503906
z: -0.18381264805793762
visibility: 0.9995477795600891
","x: 240.80111694335938
y: 249.17694091796875
z: -0.1840866506099701
visibility: 0.9993306994438171
","x: 239.6392364501953
y: 249.5430145263672
z: -0.18407435715198517
visibility: 0.999247133731842
","x: 238.43408203125
y: 250.14337158203125
z: -0.18408069014549255
visibility: 0.9991583824157715
","x: 246.9207000732422
y: 256.6971740722656
z: -0.09393316507339478
visibility: 0.9991388916969299
","x: 235.32086181640625
y: 253.63323974609375
z: -0.09766290336847305
visibility: 0.997917115688324
","x: 243.13568115234375
y: 257.064208984375
z: -0.16587521135807037
visibility: 0.9997516870498657
","x: 239.35671997070312
y: 255.60818481445312
z: -0.16692742705345154
visibility: 0.9995760917663574
","x: 253.75070190429688
y: 285.67730712890625
z: -0.060241006314754486
visibility: 0.9999325275421143
","x: 220.90606689453125
y: 282.3547668457031
z: -0.013985937461256981
visibility: 0.9995737075805664
","x: 256.5296630859375
y: 329.589111328125
z: -0.1117807999253273
visibility: 0.992141842842102
","x: 215.79537963867188
y: 325.53076171875
z: 0.012292374856770039
visibility: 0.9312012195587158
","x: 236.61476135253906
y: 325.98748779296875
z: -0.26162219047546387
visibility: 0.9831449389457703
","x: 208.7996063232422
y: 355.8529357910156
z: -0.07745709270238876
visibility: 0.880598247051239
","x: 230.4982452392578
y: 328.4561767578125
z: -0.3009313941001892
visibility: 0.9606029987335205
","x: 203.2665557861328
y: 364.9696044921875
z: -0.10046792030334473
visibility: 0.8193947672843933
","x: 229.31011962890625
y: 323.49774169921875
z: -0.30673736333847046
visibility: 0.9636202454566956
","x: 202.34890747070312
y: 364.3143310546875
z: -0.1292233020067215
visibility: 0.8297508955001831
","x: 230.78636169433594
y: 322.1471862792969
z: -0.26567789912223816
visibility: 0.9514168500900269
","x: 204.54971313476562
y: 361.87359619140625
z: -0.0906764417886734
visibility: 0.8146742582321167
","x: 243.46926879882812
y: 370.321044921875
z: 0.005912660621106625
visibility: 0.9988825917243958
","x: 224.24143981933594
y: 369.63079833984375
z: -0.005852130241692066
visibility: 0.9988397359848022
","x: 239.36146545410156
y: 434.5599060058594
z: -0.01836344413459301
visibility: 0.9854210019111633
","x: 226.49107360839844
y: 435.7796936035156
z: -0.04309709370136261
visibility: 0.9893770217895508
","x: 237.01351928710938
y: 502.8028564453125
z: 0.047694168984889984
visibility: 0.9868454337120056
","x: 220.49461364746094
y: 503.736328125
z: 0.03632567450404167
visibility: 0.987983226776123
","x: 234.15042114257812
y: 512.002685546875
z: 0.048777155578136444
visibility: 0.9029551148414612
","x: 221.37637329101562
y: 514.25048828125
z: 0.03733842074871063
visibility: 0.8508974313735962
","x: 242.5032196044922
y: 520.2493896484375
z: -0.04793766885995865
visibility: 0.9837402701377869
","x: 219.47486877441406
y: 521.2390747070312
z: -0.0662827268242836
visibility: 0.9811737537384033
",5.291375637054443,,,,,,,,,,,,,,,,,,,,,,"x: 234.37770080566406
y: 327.2624206542969
z: 0.0
","x: 232.18287658691406
y: 322.96453857421875
z: 0.0005625256453640759
","x: 228.82994079589844
y: 321.9288635253906
z: -8.356960461242124e-05
","x: 226.41807556152344
y: 323.41143798828125
z: -0.0010625822469592094
","x: 225.1833953857422
y: 326.017822265625
z: -0.0017048901645466685
","x: 227.31890869140625
y: 322.3575439453125
z: -0.0023944294080138206
","x: 222.88531494140625
y: 323.2449951171875
z: -0.0039025440346449614
","x: 223.76930236816406
y: 324.0655517578125
z: -0.0035150800831615925
","x: 225.48130798339844
y: 324.15625
z: -0.0028782500885427
","x: 227.30235290527344
y: 325.8492431640625
z: -0.003672644728794694
","x: 223.16221618652344
y: 327.1110534667969
z: -0.0047162678092718124
","x: 224.27468872070312
y: 327.41766357421875
z: -0.0036193591076880693
","x: 225.89053344726562
y: 327.2147216796875
z: -0.0026300002355128527
","x: 227.48414611816406
y: 329.4288330078125
z: -0.004879696760326624
","x: 223.74880981445312
y: 330.485107421875
z: -0.005277717486023903
","x: 224.7307891845703
y: 330.39324951171875
z: -0.0036039899569004774
","x: 226.11196899414062
y: 330.0856018066406
z: -0.0025227670557796955
","x: 227.87442016601562
y: 332.82769775390625
z: -0.006124397274106741
","x: 224.6101531982422
y: 333.0194396972656
z: -0.006169058848172426
","x: 225.3573760986328
y: 332.794677734375
z: -0.004936890210956335
","x: 226.730224609375
y: 332.8020935058594
z: -0.003970341291278601
"
17,"x: 242.1898193359375
y: 252.38685607910156
z: -0.1989550143480301
visibility: 0.9998219609260559
","x: 244.0225067138672
y: 250.27386474609375
z: -0.18374815583229065
visibility: 0.9994404315948486
","x: 245.101806640625
y: 251.18771362304688
z: -0.18380814790725708
visibility: 0.9995013475418091
","x: 246.16175842285156
y: 252.04542541503906
z: -0.18381264805793762
visibility: 0.9995477795600891
","x: 240.80111694335938
y: 249.17694091796875
z: -0.1840866506099701
visibility: 0.9993306994438171
","x: 239.6392364501953
y: 249.5430145263672
z: -0.18407435715198517
visibility: 0.999247133731842
","x: 238.43408203125
y: 250.14337158203125
z: -0.18408069014549255
visibility: 0.9991583824157715
","x: 246.9207000732422
y: 256.6971740722656
z: -0.09393316507339478
visibility: 0.9991388916969299
","x: 235.32086181640625
y: 253.63323974609375
z: -0.09766290336847305
visibility: 0.997917115688324
","x: 243.13568115234375
y: 257.064208984375
z: -0.16587521135807037
visibility: 0.9997516870498657
","x: 239.35671997070312
y: 255.60818481445312
z: -0.16692742705345154
visibility: 0.9995760917663574
","x: 253.75070190429688
y: 285.67730712890625
z: -0.060241006314754486
visibility: 0.9999325275421143
","x: 220.90606689453125
y: 282.3547668457031
z: -0.013985937461256981
visibility: 0.9995737075805664
","x: 256.5296630859375
y: 329.589111328125
z: -0.1117807999253273
visibility: 0.992141842842102
","x: 215.79537963867188
y: 325.53076171875
z: 0.012292374856770039
visibility: 0.9312012195587158
","x: 236.61476135253906
y: 325.98748779296875
z: -0.26162219047546387
visibility: 0.9831449389457703
","x: 208.7996063232422
y: 355.8529357910156
z: -0.07745709270238876
visibility: 0.880598247051239
","x: 230.4982452392578
y: 328.4561767578125
z: -0.3009313941001892
visibility: 0.9606029987335205
","x: 203.2665557861328
y: 364.9696044921875
z: -0.10046792030334473
visibility: 0.8193947672843933
","x: 229.31011962890625
y: 323.49774169921875
z: -0.30673736333847046
visibility: 0.9636202454566956
","x: 202.34890747070312
y: 364.3143310546875
z: -0.1292233020067215
visibility: 0.8297508955001831
","x: 230.78636169433594
y: 322.1471862792969
z: -0.26567789912223816
visibility: 0.9514168500900269
","x: 204.54971313476562
y: 361.87359619140625
z: -0.0906764417886734
visibility: 0.8146742582321167
","x: 243.46926879882812
y: 370.321044921875
z: 0.005912660621106625
visibility: 0.9988825917243958
","x: 224.24143981933594
y: 369.63079833984375
z: -0.005852130241692066
visibility: 0.9988397359848022
","x: 239.36146545410156
y: 434.5599060058594
z: -0.01836344413459301
visibility: 0.9854210019111633
","x: 226.49107360839844
y: 435.7796936035156
z: -0.04309709370136261
visibility: 0.9893770217895508
","x: 237.01351928710938
y: 502.8028564453125
z: 0.047694168984889984
visibility: 0.9868454337120056
","x: 220.49461364746094
y: 503.736328125
z: 0.03632567450404167
visibility: 0.987983226776123
","x: 234.15042114257812
y: 512.002685546875
z: 0.048777155578136444
visibility: 0.9029551148414612
","x: 221.37637329101562
y: 514.25048828125
z: 0.03733842074871063
visibility: 0.8508974313735962
","x: 242.5032196044922
y: 520.2493896484375
z: -0.04793766885995865
visibility: 0.9837402701377869
","x: 219.47486877441406
y: 521.2390747070312
z: -0.0662827268242836
visibility: 0.9811737537384033
",5.291375637054443,,,,,,,,,,,,,,,,,,,,,,"x: 234.37770080566406
y: 327.2624206542969
z: 0.0
","x: 232.18287658691406
y: 322.96453857421875
z: 0.0005625256453640759
","x: 228.82994079589844
y: 321.9288635253906
z: -8.356960461242124e-05
","x: 226.41807556152344
y: 323.41143798828125
z: -0.0010625822469592094
","x: 225.1833953857422
y: 326.017822265625
z: -0.0017048901645466685
","x: 227.31890869140625
y: 322.3575439453125
z: -0.0023944294080138206
","x: 222.88531494140625
y: 323.2449951171875
z: -0.0039025440346449614
","x: 223.76930236816406
y: 324.0655517578125
z: -0.0035150800831615925
","x: 225.48130798339844
y: 324.15625
z: -0.0028782500885427
","x: 227.30235290527344
y: 325.8492431640625
z: -0.003672644728794694
","x: 223.16221618652344
y: 327.1110534667969
z: -0.0047162678092718124
","x: 224.27468872070312
y: 327.41766357421875
z: -0.0036193591076880693
","x: 225.89053344726562
y: 327.2147216796875
z: -0.0026300002355128527
","x: 227.48414611816406
y: 329.4288330078125
z: -0.004879696760326624
","x: 223.74880981445312
y: 330.485107421875
z: -0.005277717486023903
","x: 224.7307891845703
y: 330.39324951171875
z: -0.0036039899569004774
","x: 226.11196899414062
y: 330.0856018066406
z: -0.0025227670557796955
","x: 227.87442016601562
y: 332.82769775390625
z: -0.006124397274106741
","x: 224.6101531982422
y: 333.0194396972656
z: -0.006169058848172426
","x: 225.3573760986328
y: 332.794677734375
z: -0.004936890210956335
","x: 226.730224609375
y: 332.8020935058594
z: -0.003970341291278601
"
18,"x: 241.2567901611328
y: 246.9040069580078
z: -0.21902787685394287
visibility: 0.9998260736465454
","x: 242.93292236328125
y: 246.82415771484375
z: -0.20404720306396484
visibility: 0.9994591474533081
","x: 243.99951171875
y: 247.94696044921875
z: -0.20408885180950165
visibility: 0.999518096446991
","x: 245.08718872070312
y: 249.1829833984375
z: -0.20409443974494934
visibility: 0.999560534954071
","x: 239.90538024902344
y: 245.52056884765625
z: -0.20414932072162628
visibility: 0.9993627071380615
","x: 238.8355712890625
y: 245.6946563720703
z: -0.204161137342453
visibility: 0.9992841482162476
","x: 237.72674560546875
y: 246.00914001464844
z: -0.2042003870010376
visibility: 0.9991999864578247
","x: 246.141845703125
y: 256.49810791015625
z: -0.1181049719452858
visibility: 0.9991413950920105
","x: 234.63829040527344
y: 251.90467834472656
z: -0.1197350025177002
visibility: 0.9980397820472717
","x: 242.4657440185547
y: 252.8187713623047
z: -0.18745127320289612
visibility: 0.9997571110725403
","x: 238.54164123535156
y: 251.23597717285156
z: -0.1880563646554947
visibility: 0.9995959401130676
","x: 253.71214294433594
y: 287.0550537109375
z: -0.08366204053163528
visibility: 0.9999324679374695
","x: 220.870361328125
y: 283.65545654296875
z: -0.04583636671304703
visibility: 0.9995971322059631
","x: 258.8321228027344
y: 329.4044494628906
z: -0.11791551113128662
visibility: 0.9923666715621948
","x: 210.68409729003906
y: 326.92718505859375
z: -0.00021575854043476284
visibility: 0.9350277185440063
","x: 237.57632446289062
y: 333.2735595703125
z: -0.2592552900314331
visibility: 0.9839403033256531
","x: 208.84226989746094
y: 364.00823974609375
z: -0.06967572122812271
visibility: 0.8806042671203613
","x: 232.75881958007812
y: 339.2840881347656
z: -0.2941816449165344
visibility: 0.9622442722320557
","x: 206.01663208007812
y: 378.13983154296875
z: -0.08831436932086945
visibility: 0.8160964250564575
","x: 231.48391723632812
y: 333.5639953613281
z: -0.30232423543930054
visibility: 0.9650118350982666
","x: 208.94668579101562
y: 378.38946533203125
z: -0.10927803814411163
visibility: 0.8255442976951599
","x: 232.7855224609375
y: 332.36370849609375
z: -0.26385942101478577
visibility: 0.9521266222000122
","x: 209.9481201171875
y: 373.337890625
z: -0.07892637699842453
visibility: 0.8081377744674683
","x: 243.48387145996094
y: 370.66571044921875
z: 0.002776359673589468
visibility: 0.9988370537757874
","x: 224.2494659423828
y: 369.7648620605469
z: -0.0027997163124382496
visibility: 0.998857319355011
","x: 239.08547973632812
y: 434.6923522949219
z: -0.010672861710190773
visibility: 0.9852277636528015
","x: 222.63986206054688
y: 433.584716796875
z: -0.031292371451854706
visibility: 0.9891014695167542
","x: 237.3834686279297
y: 502.6882629394531
z: 0.05829044058918953
visibility: 0.9867308735847473
","x: 215.02713012695312
y: 499.8643493652344
z: 0.06388963013887405
visibility: 0.9875071048736572
","x: 234.9188690185547
y: 511.7586975097656
z: 0.06207726150751114
visibility: 0.9027237892150879
","x: 215.8977813720703
y: 510.525146484375
z: 0.06838744878768921
visibility: 0.8433787226676941
","x: 242.10244750976562
y: 519.5411987304688
z: -0.03176272660493851
visibility: 0.9831395745277405
","x: 214.9654541015625
y: 516.364013671875
z: -0.039894916117191315
visibility: 0.9801855087280273
",5.416944980621338,,,,,,,,,,,,,,,,,,,,,,,,,,,,,,,,,,,,,,,,,,
19,"x: 241.2567901611328
y: 246.9040069580078
z: -0.21902787685394287
visibility: 0.9998260736465454
","x: 242.93292236328125
y: 246.82415771484375
z: -0.20404720306396484
visibility: 0.9994591474533081
","x: 243.99951171875
y: 247.94696044921875
z: -0.20408885180950165
visibility: 0.999518096446991
","x: 245.08718872070312
y: 249.1829833984375
z: -0.20409443974494934
visibility: 0.999560534954071
","x: 239.90538024902344
y: 245.52056884765625
z: -0.20414932072162628
visibility: 0.9993627071380615
","x: 238.8355712890625
y: 245.6946563720703
z: -0.204161137342453
visibility: 0.9992841482162476
","x: 237.72674560546875
y: 246.00914001464844
z: -0.2042003870010376
visibility: 0.9991999864578247
","x: 246.141845703125
y: 256.49810791015625
z: -0.1181049719452858
visibility: 0.9991413950920105
","x: 234.63829040527344
y: 251.90467834472656
z: -0.1197350025177002
visibility: 0.9980397820472717
","x: 242.4657440185547
y: 252.8187713623047
z: -0.18745127320289612
visibility: 0.9997571110725403
","x: 238.54164123535156
y: 251.23597717285156
z: -0.1880563646554947
visibility: 0.9995959401130676
","x: 253.71214294433594
y: 287.0550537109375
z: -0.08366204053163528
visibility: 0.9999324679374695
","x: 220.870361328125
y: 283.65545654296875
z: -0.04583636671304703
visibility: 0.9995971322059631
","x: 258.8321228027344
y: 329.4044494628906
z: -0.11791551113128662
visibility: 0.9923666715621948
","x: 210.68409729003906
y: 326.92718505859375
z: -0.00021575854043476284
visibility: 0.9350277185440063
","x: 237.57632446289062
y: 333.2735595703125
z: -0.2592552900314331
visibility: 0.9839403033256531
","x: 208.84226989746094
y: 364.00823974609375
z: -0.06967572122812271
visibility: 0.8806042671203613
","x: 232.75881958007812
y: 339.2840881347656
z: -0.2941816449165344
visibility: 0.9622442722320557
","x: 206.01663208007812
y: 378.13983154296875
z: -0.08831436932086945
visibility: 0.8160964250564575
","x: 231.48391723632812
y: 333.5639953613281
z: -0.30232423543930054
visibility: 0.9650118350982666
","x: 208.94668579101562
y: 378.38946533203125
z: -0.10927803814411163
visibility: 0.8255442976951599
","x: 232.7855224609375
y: 332.36370849609375
z: -0.26385942101478577
visibility: 0.9521266222000122
","x: 209.9481201171875
y: 373.337890625
z: -0.07892637699842453
visibility: 0.8081377744674683
","x: 243.48387145996094
y: 370.66571044921875
z: 0.002776359673589468
visibility: 0.9988370537757874
","x: 224.2494659423828
y: 369.7648620605469
z: -0.0027997163124382496
visibility: 0.998857319355011
","x: 239.08547973632812
y: 434.6923522949219
z: -0.010672861710190773
visibility: 0.9852277636528015
","x: 222.63986206054688
y: 433.584716796875
z: -0.031292371451854706
visibility: 0.9891014695167542
","x: 237.3834686279297
y: 502.6882629394531
z: 0.05829044058918953
visibility: 0.9867308735847473
","x: 215.02713012695312
y: 499.8643493652344
z: 0.06388963013887405
visibility: 0.9875071048736572
","x: 234.9188690185547
y: 511.7586975097656
z: 0.06207726150751114
visibility: 0.9027237892150879
","x: 215.8977813720703
y: 510.525146484375
z: 0.06838744878768921
visibility: 0.8433787226676941
","x: 242.10244750976562
y: 519.5411987304688
z: -0.03176272660493851
visibility: 0.9831395745277405
","x: 214.9654541015625
y: 516.364013671875
z: -0.039894916117191315
visibility: 0.9801855087280273
",5.416944980621338,,,,,,,,,,,,,,,,,,,,,,,,,,,,,,,,,,,,,,,,,,
20,"x: 240.21841430664062
y: 246.4502716064453
z: -0.2177823781967163
visibility: 0.9998414516448975
","x: 241.583984375
y: 245.5660858154297
z: -0.20369306206703186
visibility: 0.9995068907737732
","x: 242.5023956298828
y: 246.4784393310547
z: -0.20369985699653625
visibility: 0.999559760093689
","x: 243.47772216796875
y: 247.51007080078125
z: -0.20368532836437225
visibility: 0.9995980858802795
","x: 239.26589965820312
y: 244.58013916015625
z: -0.20459330081939697
visibility: 0.9994213581085205
","x: 238.45138549804688
y: 244.802978515625
z: -0.20462357997894287
visibility: 0.9993504881858826
","x: 237.57949829101562
y: 245.15533447265625
z: -0.20465700328350067
visibility: 0.9992749094963074
","x: 245.13336181640625
y: 255.65415954589844
z: -0.12007729709148407
visibility: 0.9992110729217529
","x: 233.84254455566406
y: 251.76795959472656
z: -0.12659385800361633
visibility: 0.998225212097168
","x: 241.55130004882812
y: 252.9704132080078
z: -0.18679800629615784
visibility: 0.9997786283493042
","x: 237.6502227783203
y: 251.68458557128906
z: -0.18862482905387878
visibility: 0.9996339082717896
","x: 252.8959197998047
y: 288.71771240234375
z: -0.0746171623468399
visibility: 0.9999359250068665
","x: 218.7870330810547
y: 285.404296875
z: -0.06359712779521942
visibility: 0.9996324777603149
","x: 260.5800476074219
y: 328.64849853515625
z: -0.048088233917951584
visibility: 0.9927870035171509
","x: 206.5068817138672
y: 326.7048645019531
z: -0.02617914415895939
visibility: 0.9407229423522949
","x: 248.27920532226562
y: 349.7436218261719
z: -0.13673248887062073
visibility: 0.9848390817642212
","x: 209.2498016357422
y: 362.25042724609375
z: -0.08815157413482666
visibility: 0.8892508745193481
","x: 245.0595703125
y: 362.2982482910156
z: -0.16366951167583466
visibility: 0.9639474153518677
","x: 210.15830993652344
y: 375.6815185546875
z: -0.10840260982513428
visibility: 0.8268731236457825
","x: 242.08067321777344
y: 358.349853515625
z: -0.18179623782634735
visibility: 0.9664907455444336
","x: 213.68280029296875
y: 374.73468017578125
z: -0.12003660202026367
visibility: 0.8353548049926758
","x: 242.3667755126953
y: 354.6185302734375
z: -0.1441311240196228
visibility: 0.9535994529724121
","x: 213.59278869628906
y: 370.37042236328125
z: -0.09383942186832428
visibility: 0.8177056312561035
","x: 242.60130310058594
y: 372.062744140625
z: 0.0025892513804137707
visibility: 0.9988841414451599
","x: 223.2652587890625
y: 370.94000244140625
z: -0.0026033460162580013
visibility: 0.9989392757415771
","x: 238.5207061767578
y: 435.2589111328125
z: 0.009071597829461098
visibility: 0.9858019948005676
","x: 217.9029083251953
y: 434.030029296875
z: -0.02568231150507927
visibility: 0.9895176291465759
","x: 237.4287872314453
y: 502.5351257324219
z: 0.09678706526756287
visibility: 0.9871875643730164
","x: 212.0362548828125
y: 500.35089111328125
z: 0.0694967731833458
visibility: 0.9879140257835388
","x: 235.0733642578125
y: 511.6164855957031
z: 0.09970209002494812
visibility: 0.9053794145584106
","x: 213.0922393798828
y: 510.26727294921875
z: 0.07317812740802765
visibility: 0.8451147079467773
","x: 242.0509033203125
y: 519.8992309570312
z: 0.0016513109439983964
visibility: 0.98348069190979
","x: 210.69290161132812
y: 518.1249389648438
z: -0.03249833732843399
visibility: 0.9806450605392456
",5.542774677276611,,,,,,,,,,,,,,,,,,,,,,,,,,,,,,,,,,,,,,,,,,
21,"x: 240.21841430664062
y: 246.4502716064453
z: -0.2177823781967163
visibility: 0.9998414516448975
","x: 241.583984375
y: 245.5660858154297
z: -0.20369306206703186
visibility: 0.9995068907737732
","x: 242.5023956298828
y: 246.4784393310547
z: -0.20369985699653625
visibility: 0.999559760093689
","x: 243.47772216796875
y: 247.51007080078125
z: -0.20368532836437225
visibility: 0.9995980858802795
","x: 239.26589965820312
y: 244.58013916015625
z: -0.20459330081939697
visibility: 0.9994213581085205
","x: 238.45138549804688
y: 244.802978515625
z: -0.20462357997894287
visibility: 0.9993504881858826
","x: 237.57949829101562
y: 245.15533447265625
z: -0.20465700328350067
visibility: 0.9992749094963074
","x: 245.13336181640625
y: 255.65415954589844
z: -0.12007729709148407
visibility: 0.9992110729217529
","x: 233.84254455566406
y: 251.76795959472656
z: -0.12659385800361633
visibility: 0.998225212097168
","x: 241.55130004882812
y: 252.9704132080078
z: -0.18679800629615784
visibility: 0.9997786283493042
","x: 237.6502227783203
y: 251.68458557128906
z: -0.18862482905387878
visibility: 0.9996339082717896
","x: 252.8959197998047
y: 288.71771240234375
z: -0.0746171623468399
visibility: 0.9999359250068665
","x: 218.7870330810547
y: 285.404296875
z: -0.06359712779521942
visibility: 0.9996324777603149
","x: 260.5800476074219
y: 328.64849853515625
z: -0.048088233917951584
visibility: 0.9927870035171509
","x: 206.5068817138672
y: 326.7048645019531
z: -0.02617914415895939
visibility: 0.9407229423522949
","x: 248.27920532226562
y: 349.7436218261719
z: -0.13673248887062073
visibility: 0.9848390817642212
","x: 209.2498016357422
y: 362.25042724609375
z: -0.08815157413482666
visibility: 0.8892508745193481
","x: 245.0595703125
y: 362.2982482910156
z: -0.16366951167583466
visibility: 0.9639474153518677
","x: 210.15830993652344
y: 375.6815185546875
z: -0.10840260982513428
visibility: 0.8268731236457825
","x: 242.08067321777344
y: 358.349853515625
z: -0.18179623782634735
visibility: 0.9664907455444336
","x: 213.68280029296875
y: 374.73468017578125
z: -0.12003660202026367
visibility: 0.8353548049926758
","x: 242.3667755126953
y: 354.6185302734375
z: -0.1441311240196228
visibility: 0.9535994529724121
","x: 213.59278869628906
y: 370.37042236328125
z: -0.09383942186832428
visibility: 0.8177056312561035
","x: 242.60130310058594
y: 372.062744140625
z: 0.0025892513804137707
visibility: 0.9988841414451599
","x: 223.2652587890625
y: 370.94000244140625
z: -0.0026033460162580013
visibility: 0.9989392757415771
","x: 238.5207061767578
y: 435.2589111328125
z: 0.009071597829461098
visibility: 0.9858019948005676
","x: 217.9029083251953
y: 434.030029296875
z: -0.02568231150507927
visibility: 0.9895176291465759
","x: 237.4287872314453
y: 502.5351257324219
z: 0.09678706526756287
visibility: 0.9871875643730164
","x: 212.0362548828125
y: 500.35089111328125
z: 0.0694967731833458
visibility: 0.9879140257835388
","x: 235.0733642578125
y: 511.6164855957031
z: 0.09970209002494812
visibility: 0.9053794145584106
","x: 213.0922393798828
y: 510.26727294921875
z: 0.07317812740802765
visibility: 0.8451147079467773
","x: 242.0509033203125
y: 519.8992309570312
z: 0.0016513109439983964
visibility: 0.98348069190979
","x: 210.69290161132812
y: 518.1249389648438
z: -0.03249833732843399
visibility: 0.9806450605392456
",5.542774677276611,,,,,,,,,,,,,,,,,,,,,,,,,,,,,,,,,,,,,,,,,,
22,"x: 236.69366455078125
y: 244.05752563476562
z: -0.2722719609737396
visibility: 0.9998543858528137
","x: 237.99807739257812
y: 243.21168518066406
z: -0.26397818326950073
visibility: 0.9995471239089966
","x: 238.93199157714844
y: 243.94448852539062
z: -0.26395994424819946
visibility: 0.9995970129966736
","x: 239.8877716064453
y: 244.73171997070312
z: -0.2639952301979065
visibility: 0.9996305108070374
","x: 235.42477416992188
y: 242.55331420898438
z: -0.26429837942123413
visibility: 0.9994692802429199
","x: 234.47128295898438
y: 242.83567810058594
z: -0.2643373906612396
visibility: 0.9994071125984192
","x: 233.46031188964844
y: 243.20298767089844
z: -0.2643129825592041
visibility: 0.9993361830711365
","x: 241.42845153808594
y: 252.21421813964844
z: -0.1925612986087799
visibility: 0.9992771744728088
","x: 230.00396728515625
y: 250.45899963378906
z: -0.19514301419258118
visibility: 0.9983822107315063
","x: 238.4877471923828
y: 250.76414489746094
z: -0.24433140456676483
visibility: 0.9997959136962891
","x: 234.08656311035156
y: 249.75405883789062
z: -0.2451171875
visibility: 0.999660849571228
","x: 250.44021606445312
y: 289.1393737792969
z: -0.11707446724176407
visibility: 0.999936044216156
","x: 215.8489990234375
y: 285.44854736328125
z: -0.1150553971529007
visibility: 0.999639093875885
","x: 260.49273681640625
y: 327.5927429199219
z: -0.022045399993658066
visibility: 0.9928218722343445
","x: 207.58197021484375
y: 325.1838684082031
z: -0.025011930614709854
visibility: 0.9357011318206787
","x: 259.2117004394531
y: 353.15313720703125
z: -0.009933438152074814
visibility: 0.9828786253929138
","x: 208.272705078125
y: 361.30877685546875
z: -0.016638735309243202
visibility: 0.8554114103317261
","x: 260.0020446777344
y: 365.5630187988281
z: -0.011440998874604702
visibility: 0.9569414258003235
","x: 209.7238311767578
y: 373.98175048828125
z: -0.018719997256994247
visibility: 0.7840632796287537
","x: 258.0428771972656
y: 364.6285400390625
z: -0.034072596579790115
visibility: 0.9601559638977051
","x: 212.27587890625
y: 373.122314453125
z: -0.040541525930166245
visibility: 0.7926859259605408
","x: 256.779052734375
y: 359.9481506347656
z: -0.016957610845565796
visibility: 0.9456194043159485
","x: 212.74234008789062
y: 368.92327880859375
z: -0.02399446815252304
visibility: 0.7743366956710815
","x: 240.86036682128906
y: 373.7243957519531
z: 0.001524730701930821
visibility: 0.9988780617713928
","x: 220.5026092529297
y: 372.7520446777344
z: -0.0015893431846052408
visibility: 0.9989586472511292
","x: 237.68597412109375
y: 435.5753173828125
z: 0.01250590942800045
visibility: 0.9862470030784607
","x: 216.42955017089844
y: 435.18701171875
z: -0.033534981310367584
visibility: 0.9896963238716125
","x: 237.13706970214844
y: 502.22308349609375
z: 0.11581188440322876
visibility: 0.9879016280174255
","x: 210.96054077148438
y: 500.4940185546875
z: 0.07172884047031403
visibility: 0.9884045124053955
","x: 234.84732055664062
y: 511.15911865234375
z: 0.11953084170818329
visibility: 0.9077684283256531
","x: 212.08782958984375
y: 511.0273742675781
z: 0.07528339326381683
visibility: 0.8488926291465759
","x: 241.9178924560547
y: 519.974853515625
z: 0.017798269167542458
visibility: 0.9842702746391296
","x: 208.75343322753906
y: 518.9744873046875
z: -0.030599107965826988
visibility: 0.9815754294395447
",5.654565095901489,,,,,,,,,,,,,,,,,,,,,,,,,,,,,,,,,,,,,,,,,,
23,"x: 236.69366455078125
y: 244.05752563476562
z: -0.2722719609737396
visibility: 0.9998543858528137
","x: 237.99807739257812
y: 243.21168518066406
z: -0.26397818326950073
visibility: 0.9995471239089966
","x: 238.93199157714844
y: 243.94448852539062
z: -0.26395994424819946
visibility: 0.9995970129966736
","x: 239.8877716064453
y: 244.73171997070312
z: -0.2639952301979065
visibility: 0.9996305108070374
","x: 235.42477416992188
y: 242.55331420898438
z: -0.26429837942123413
visibility: 0.9994692802429199
","x: 234.47128295898438
y: 242.83567810058594
z: -0.2643373906612396
visibility: 0.9994071125984192
","x: 233.46031188964844
y: 243.20298767089844
z: -0.2643129825592041
visibility: 0.9993361830711365
","x: 241.42845153808594
y: 252.21421813964844
z: -0.1925612986087799
visibility: 0.9992771744728088
","x: 230.00396728515625
y: 250.45899963378906
z: -0.19514301419258118
visibility: 0.9983822107315063
","x: 238.4877471923828
y: 250.76414489746094
z: -0.24433140456676483
visibility: 0.9997959136962891
","x: 234.08656311035156
y: 249.75405883789062
z: -0.2451171875
visibility: 0.999660849571228
","x: 250.44021606445312
y: 289.1393737792969
