uscmakers/ReverseChoreography/data/10_in_the_name_of_love_martin_garrix.csv
,NOSE,LEFT_EYE_INNER,LEFT_EYE,LEFT_EYE_OUTER,RIGHT_EYE_INNER,RIGHT_EYE,RIGHT_EYE_OUTER,LEFT_EAR,RIGHT_EAR,MOUTH_LEFT,MOUTH_RIGHT,LEFT_SHOULDER,RIGHT_SHOULDER,LEFT_ELBOW,RIGHT_ELBOW,LEFT_WRIST,RIGHT_WRIST,LEFT_PINKY,RIGHT_PINKY,LEFT_INDEX,RIGHT_INDEX,LEFT_THUMB,RIGHT_THUMB,LEFT_HIP,RIGHT_HIP,LEFT_KNEE,RIGHT_KNEE,LEFT_ANKLE,RIGHT_ANKLE,LEFT_HEEL,RIGHT_HEEL,LEFT_FOOT_INDEX,RIGHT_FOOT_INDEX,TIMESTAMP,WRIST2,THUMB_CPC2,THUMB_MCP2,THUMB_IP2,THUMB_TIP2,INDEX_FINGER_MCP2,INDEX_FINGER_PIP2,INDEX_FINGER_DIP2,INDEX_FINGER_TIP2,MIDDLE_FINGER_MCP2,MIDDLE_FINGER_PIP2,MIDDLE_FINGER_DIP2,MIDDLE_FINGER_TIP2,RING_FINGER_PIP2,RING_FINGER_DIP2,RING_FINGER_TIP2,RING_FINGER_MCP2,PINKY_MCP2,PINKY_PIP2,PINKY_DIP2,PINKY_TIP2,WRIST,THUMB_CPC,THUMB_MCP,THUMB_IP,THUMB_TIP,INDEX_FINGER_MCP,INDEX_FINGER_PIP,INDEX_FINGER_DIP,INDEX_FINGER_TIP,MIDDLE_FINGER_MCP,MIDDLE_FINGER_PIP,MIDDLE_FINGER_DIP,MIDDLE_FINGER_TIP,RING_FINGER_PIP,RING_FINGER_DIP,RING_FINGER_TIP,RING_FINGER_MCP,PINKY_MCP,PINKY_PIP,PINKY_DIP,PINKY_TIP
0,"x: 262.6058654785156
y: 242.93862915039062
z: -0.15573203563690186
visibility: 0.9999698400497437
","x: 264.4728698730469
y: 238.30792236328125
z: -0.15171976387500763
visibility: 0.9999139308929443
","x: 265.55853271484375
y: 238.376708984375
z: -0.15178224444389343
visibility: 0.9999309778213501
","x: 266.66546630859375
y: 238.5009002685547
z: -0.15179364383220673
visibility: 0.9999121427536011
","x: 261.5662841796875
y: 238.57501220703125
z: -0.1404142528772354
visibility: 0.9999097585678101
","x: 260.5976257324219
y: 238.86080932617188
z: -0.14038944244384766
visibility: 0.999893307685852
","x: 259.5168762207031
y: 239.04693603515625
z: -0.14043192565441132
visibility: 0.9998531341552734
","x: 269.63006591796875
y: 241.70387268066406
z: -0.09537427872419357
visibility: 0.9998950958251953
","x: 258.8799133300781
y: 241.929931640625
z: -0.042561329901218414
visibility: 0.9998346567153931
","x: 264.55902099609375
y: 248.72189331054688
z: -0.13185569643974304
visibility: 0.9999439716339111
","x: 261.25567626953125
y: 249.63369750976562
z: -0.11701224744319916
visibility: 0.9999194145202637
","x: 281.1222229003906
y: 269.50238037109375
z: -0.09931036084890366
visibility: 0.9999755620956421
","x: 254.91903686523438
y: 273.54888916015625
z: 0.052616894245147705
visibility: 0.9999173879623413
","x: 273.3514099121094
y: 300.84027099609375
z: -0.22740676999092102
visibility: 0.9923893809318542
","x: 249.57762145996094
y: 312.38519287109375
z: 0.06898906081914902
visibility: 0.5347217321395874
","x: 258.4992370605469
y: 265.5059509277344
z: -0.3808937072753906
visibility: 0.992469847202301
","x: 240.0835418701172
y: 340.8165283203125
z: -0.0426921583712101
visibility: 0.7674425840377808
","x: 252.94589233398438
y: 255.7020263671875
z: -0.4217681884765625
visibility: 0.9869458079338074
","x: 237.83131408691406
y: 348.36627197265625
z: -0.061316557228565216
visibility: 0.7394774556159973
","x: 254.00982666015625
y: 251.7533721923828
z: -0.4186484217643738
visibility: 0.9863942265510559
","x: 238.00575256347656
y: 347.1003723144531
z: -0.08657030761241913
visibility: 0.7484109401702881
","x: 255.96571350097656
y: 254.3942413330078
z: -0.3830350339412689
visibility: 0.9724683165550232
","x: 239.8534698486328
y: 345.6915588378906
z: -0.05655503273010254
visibility: 0.7161706686019897
","x: 275.541748046875
y: 359.9298095703125
z: -0.052587948739528656
visibility: 0.9999185800552368
","x: 257.4740905761719
y: 361.6835021972656
z: 0.05248989537358284
visibility: 0.9998602867126465
","x: 273.6051940917969
y: 426.4788513183594
z: -0.06364250928163528
visibility: 0.9974877834320068
","x: 259.0526123046875
y: 427.0568542480469
z: 0.06446830183267593
visibility: 0.9855965971946716
","x: 277.11846923828125
y: 493.1246643066406
z: -0.010786136612296104
visibility: 0.9985443353652954
","x: 262.6567687988281
y: 488.45770263671875
z: 0.16942931711673737
visibility: 0.9926977753639221
","x: 280.7575988769531
y: 502.88531494140625
z: -0.01141723245382309
visibility: 0.9652611613273621
","x: 266.3387451171875
y: 497.3423767089844
z: 0.17444413900375366
visibility: 0.9635277986526489
","x: 266.9801025390625
y: 516.4180297851562
z: -0.12272562086582184
visibility: 0.9983304142951965
","x: 253.30029296875
y: 509.5218505859375
z: 0.09632611274719238
visibility: 0.9944868683815002
",3.6760165691375732,,,,,,,,,,,,,,,,,,,,,,,,,,,,,,,,,,,,,,,,,,
1,"x: 262.6058654785156
y: 242.93862915039062
z: -0.15573203563690186
visibility: 0.9999698400497437
","x: 264.4728698730469
y: 238.30792236328125
z: -0.15171976387500763
visibility: 0.9999139308929443
","x: 265.55853271484375
y: 238.376708984375
z: -0.15178224444389343
visibility: 0.9999309778213501
","x: 266.66546630859375
y: 238.5009002685547
z: -0.15179364383220673
visibility: 0.9999121427536011
","x: 261.5662841796875
y: 238.57501220703125
z: -0.1404142528772354
visibility: 0.9999097585678101
","x: 260.5976257324219
y: 238.86080932617188
z: -0.14038944244384766
visibility: 0.999893307685852
","x: 259.5168762207031
y: 239.04693603515625
z: -0.14043192565441132
visibility: 0.9998531341552734
","x: 269.63006591796875
y: 241.70387268066406
z: -0.09537427872419357
visibility: 0.9998950958251953
","x: 258.8799133300781
y: 241.929931640625
z: -0.042561329901218414
visibility: 0.9998346567153931
","x: 264.55902099609375
y: 248.72189331054688
z: -0.13185569643974304
visibility: 0.9999439716339111
","x: 261.25567626953125
y: 249.63369750976562
z: -0.11701224744319916
visibility: 0.9999194145202637
","x: 281.1222229003906
y: 269.50238037109375
z: -0.09931036084890366
visibility: 0.9999755620956421
","x: 254.91903686523438
y: 273.54888916015625
z: 0.052616894245147705
visibility: 0.9999173879623413
","x: 273.3514099121094
y: 300.84027099609375
z: -0.22740676999092102
visibility: 0.9923893809318542
","x: 249.57762145996094
y: 312.38519287109375
z: 0.06898906081914902
visibility: 0.5347217321395874
","x: 258.4992370605469
y: 265.5059509277344
z: -0.3808937072753906
visibility: 0.992469847202301
","x: 240.0835418701172
y: 340.8165283203125
z: -0.0426921583712101
visibility: 0.7674425840377808
","x: 252.94589233398438
y: 255.7020263671875
z: -0.4217681884765625
visibility: 0.9869458079338074
","x: 237.83131408691406
y: 348.36627197265625
z: -0.061316557228565216
visibility: 0.7394774556159973
","x: 254.00982666015625
y: 251.7533721923828
z: -0.4186484217643738
visibility: 0.9863942265510559
","x: 238.00575256347656
y: 347.1003723144531
z: -0.08657030761241913
visibility: 0.7484109401702881
","x: 255.96571350097656
y: 254.3942413330078
z: -0.3830350339412689
visibility: 0.9724683165550232
","x: 239.8534698486328
y: 345.6915588378906
z: -0.05655503273010254
visibility: 0.7161706686019897
","x: 275.541748046875
y: 359.9298095703125
z: -0.052587948739528656
visibility: 0.9999185800552368
","x: 257.4740905761719
y: 361.6835021972656
z: 0.05248989537358284
visibility: 0.9998602867126465
","x: 273.6051940917969
y: 426.4788513183594
z: -0.06364250928163528
visibility: 0.9974877834320068
","x: 259.0526123046875
y: 427.0568542480469
z: 0.06446830183267593
visibility: 0.9855965971946716
","x: 277.11846923828125
y: 493.1246643066406
z: -0.010786136612296104
visibility: 0.9985443353652954
","x: 262.6567687988281
y: 488.45770263671875
z: 0.16942931711673737
visibility: 0.9926977753639221
","x: 280.7575988769531
y: 502.88531494140625
z: -0.01141723245382309
visibility: 0.9652611613273621
","x: 266.3387451171875
y: 497.3423767089844
z: 0.17444413900375366
visibility: 0.9635277986526489
","x: 266.9801025390625
y: 516.4180297851562
z: -0.12272562086582184
visibility: 0.9983304142951965
","x: 253.30029296875
y: 509.5218505859375
z: 0.09632611274719238
visibility: 0.9944868683815002
",3.6760165691375732,,,,,,,,,,,,,,,,,,,,,,,,,,,,,,,,,,,,,,,,,,
2,"x: 262.5997009277344
y: 253.5025177001953
z: -0.10463578999042511
visibility: 0.9999657869338989
","x: 264.4523010253906
y: 247.9038848876953
z: -0.09765942394733429
visibility: 0.99991375207901
","x: 265.558837890625
y: 247.55455017089844
z: -0.09773314744234085
visibility: 0.9999294877052307
","x: 266.69293212890625
y: 247.22373962402344
z: -0.0977824330329895
visibility: 0.9999145865440369
","x: 261.3505554199219
y: 249.25161743164062
z: -0.08473554998636246
visibility: 0.9999081492424011
","x: 260.3531799316406
y: 249.82351684570312
z: -0.08472448587417603
visibility: 0.9998884797096252
","x: 259.31402587890625
y: 250.29364013671875
z: -0.0847250372171402
visibility: 0.9998536705970764
","x: 269.662109375
y: 249.44247436523438
z: -0.0417875275015831
visibility: 0.9999008178710938
","x: 258.8848876953125
y: 253.2473907470703
z: 0.018299369141459465
visibility: 0.9998090267181396
","x: 265.0943603515625
y: 258.92047119140625
z: -0.08284251391887665
visibility: 0.9999371767044067
","x: 261.2564697265625
y: 260.24456787109375
z: -0.06583785265684128
visibility: 0.9998950362205505
","x: 277.8018493652344
y: 276.704345703125
z: -0.08846291899681091
visibility: 0.9999764561653137
","x: 256.92767333984375
y: 286.99114990234375
z: 0.12267506122589111
visibility: 0.9998481273651123
","x: 265.46978759765625
y: 309.07171630859375
z: -0.14945918321609497
visibility: 0.991478681564331
","x: 251.3665008544922
y: 319.50091552734375
z: 0.06768372654914856
visibility: 0.49325045943260193
","x: 250.1986846923828
y: 326.15478515625
z: -0.18401174247264862
visibility: 0.9870833158493042
","x: 247.6306610107422
y: 337.61700439453125
z: -0.11026296764612198
visibility: 0.7132012248039246
","x: 245.71560668945312
y: 333.6681823730469
z: -0.2147025763988495
visibility: 0.9790535569190979
","x: 245.41986083984375
y: 344.7000732421875
z: -0.13691796362400055
visibility: 0.6922707557678223
","x: 244.53271484375
y: 332.2127685546875
z: -0.21717779338359833
visibility: 0.978761613368988
","x: 246.86148071289062
y: 341.5445556640625
z: -0.1515142172574997
visibility: 0.7008813619613647
","x: 246.28915405273438
y: 329.93505859375
z: -0.18466971814632416
visibility: 0.9607943296432495
","x: 248.02630615234375
y: 339.20306396484375
z: -0.12254978716373444
visibility: 0.6709131002426147
","x: 277.6675109863281
y: 363.6016540527344
z: -0.0729154422879219
visibility: 0.9999063014984131
","x: 260.9269714355469
y: 365.43896484375
z: 0.07289933413267136
visibility: 0.9998475313186646
","x: 270.6219177246094
y: 431.7131042480469
z: -0.1147841066122055
visibility: 0.9972366094589233
","x: 259.0672912597656
y: 430.547607421875
z: 0.04336526617407799
visibility: 0.9812046885490417
","x: 282.93646240234375
y: 492.6055908203125
z: -0.05797082185745239
visibility: 0.9984018206596375
","x: 264.5766906738281
y: 489.195068359375
z: 0.11050961166620255
visibility: 0.9913240671157837
","x: 289.1954650878906
y: 500.93377685546875
z: -0.05691337585449219
visibility: 0.9634011387825012
","x: 269.01458740234375
y: 499.18597412109375
z: 0.11198244243860245
visibility: 0.961395800113678
","x: 270.4726867675781
y: 515.9744873046875
z: -0.14704781770706177
visibility: 0.9981341361999512
","x: 255.68759155273438
y: 511.07244873046875
z: 0.045983053743839264
visibility: 0.9931002259254456
",4.280246019363403,,,,,,,,,,,,,,,,,,,,,,,,,,,,,,,,,,,,,,,,,,
3,"x: 262.5997009277344
y: 253.5025177001953
z: -0.10463578999042511
visibility: 0.9999657869338989
","x: 264.4523010253906
y: 247.9038848876953
z: -0.09765942394733429
visibility: 0.99991375207901
","x: 265.558837890625
y: 247.55455017089844
z: -0.09773314744234085
visibility: 0.9999294877052307
","x: 266.69293212890625
y: 247.22373962402344
z: -0.0977824330329895
visibility: 0.9999145865440369
","x: 261.3505554199219
y: 249.25161743164062
z: -0.08473554998636246
visibility: 0.9999081492424011
","x: 260.3531799316406
y: 249.82351684570312
z: -0.08472448587417603
visibility: 0.9998884797096252
","x: 259.31402587890625
y: 250.29364013671875
z: -0.0847250372171402
visibility: 0.9998536705970764
","x: 269.662109375
y: 249.44247436523438
z: -0.0417875275015831
visibility: 0.9999008178710938
","x: 258.8848876953125
y: 253.2473907470703
z: 0.018299369141459465
visibility: 0.9998090267181396
","x: 265.0943603515625
y: 258.92047119140625
z: -0.08284251391887665
visibility: 0.9999371767044067
","x: 261.2564697265625
y: 260.24456787109375
z: -0.06583785265684128
visibility: 0.9998950362205505
","x: 277.8018493652344
y: 276.704345703125
z: -0.08846291899681091
visibility: 0.9999764561653137
","x: 256.92767333984375
y: 286.99114990234375
z: 0.12267506122589111
visibility: 0.9998481273651123
","x: 265.46978759765625
y: 309.07171630859375
z: -0.14945918321609497
visibility: 0.991478681564331
","x: 251.3665008544922
y: 319.50091552734375
z: 0.06768372654914856
visibility: 0.49325045943260193
","x: 250.1986846923828
y: 326.15478515625
z: -0.18401174247264862
visibility: 0.9870833158493042
","x: 247.6306610107422
y: 337.61700439453125
z: -0.11026296764612198
visibility: 0.7132012248039246
","x: 245.71560668945312
y: 333.6681823730469
z: -0.2147025763988495
visibility: 0.9790535569190979
","x: 245.41986083984375
y: 344.7000732421875
z: -0.13691796362400055
visibility: 0.6922707557678223
","x: 244.53271484375
y: 332.2127685546875
z: -0.21717779338359833
visibility: 0.978761613368988
","x: 246.86148071289062
y: 341.5445556640625
z: -0.1515142172574997
visibility: 0.7008813619613647
","x: 246.28915405273438
y: 329.93505859375
z: -0.18466971814632416
visibility: 0.9607943296432495
","x: 248.02630615234375
y: 339.20306396484375
z: -0.12254978716373444
visibility: 0.6709131002426147
","x: 277.6675109863281
y: 363.6016540527344
z: -0.0729154422879219
visibility: 0.9999063014984131
","x: 260.9269714355469
y: 365.43896484375
z: 0.07289933413267136
visibility: 0.9998475313186646
","x: 270.6219177246094
y: 431.7131042480469
z: -0.1147841066122055
visibility: 0.9972366094589233
","x: 259.0672912597656
y: 430.547607421875
z: 0.04336526617407799
visibility: 0.9812046885490417
","x: 282.93646240234375
y: 492.6055908203125
z: -0.05797082185745239
visibility: 0.9984018206596375
","x: 264.5766906738281
y: 489.195068359375
z: 0.11050961166620255
visibility: 0.9913240671157837
","x: 289.1954650878906
y: 500.93377685546875
z: -0.05691337585449219
visibility: 0.9634011387825012
","x: 269.01458740234375
y: 499.18597412109375
z: 0.11198244243860245
visibility: 0.961395800113678
","x: 270.4726867675781
y: 515.9744873046875
z: -0.14704781770706177
visibility: 0.9981341361999512
","x: 255.68759155273438
y: 511.07244873046875
z: 0.045983053743839264
visibility: 0.9931002259254456
",4.280246019363403,,,,,,,,,,,,,,,,,,,,,,,,,,,,,,,,,,,,,,,,,,
4,"x: 263.5412902832031
y: 257.78192138671875
z: -0.1041002869606018
visibility: 0.9999651908874512
","x: 265.0067138671875
y: 252.05499267578125
z: -0.09876076877117157
visibility: 0.9999156594276428
","x: 266.10882568359375
y: 251.6893768310547
z: -0.09882155805826187
visibility: 0.9999303221702576
","x: 267.2384033203125
y: 251.33966064453125
z: -0.09888056665658951
visibility: 0.9999185800552368
","x: 261.9444885253906
y: 253.4430694580078
z: -0.0878734141588211
visibility: 0.9999072551727295
","x: 260.9340515136719
y: 254.07443237304688
z: -0.08785177767276764
visibility: 0.9998844861984253
","x: 259.9417419433594
y: 254.64947509765625
z: -0.08783376961946487
visibility: 0.9998534321784973
","x: 269.73907470703125
y: 253.43988037109375
z: -0.04667815938591957
visibility: 0.9999079704284668
","x: 259.309326171875
y: 257.8268127441406
z: 0.0037574595771729946
visibility: 0.9997879266738892
","x: 266.30645751953125
y: 263.3915100097656
z: -0.08333207666873932
visibility: 0.9999396800994873
","x: 262.2813415527344
y: 264.89031982421875
z: -0.06925290822982788
visibility: 0.9998949766159058
","x: 277.44903564453125
y: 282.5525207519531
z: -0.08240318298339844
visibility: 0.9999780058860779
","x: 257.2250671386719
y: 289.8153381347656
z: 0.11021000146865845
visibility: 0.9998363256454468
","x: 267.2230224609375
y: 322.498046875
z: -0.10528957843780518
visibility: 0.9907013773918152
","x: 254.3040313720703
y: 322.4175720214844
z: 0.09061272442340851
visibility: 0.4543394148349762
","x: 251.68682861328125
y: 351.2000732421875
z: -0.10962756723165512
visibility: 0.9812163710594177
","x: 251.6390380859375
y: 328.9065246582031
z: -0.054962027817964554
visibility: 0.6593000292778015
","x: 247.39834594726562
y: 360.2439880371094
z: -0.13299116492271423
visibility: 0.9702053070068359
","x: 250.2702178955078
y: 333.5831298828125
z: -0.07592174410820007
visibility: 0.6444476246833801
","x: 246.69253540039062
y: 356.515869140625
z: -0.13918326795101166
visibility: 0.96998530626297
","x: 251.10060119628906
y: 329.9917907714844
z: -0.08743511140346527
visibility: 0.6526782512664795
","x: 248.23622131347656
y: 354.6593933105469
z: -0.1106981635093689
visibility: 0.9483795762062073
","x: 251.99266052246094
y: 327.8951721191406
z: -0.06509256362915039
visibility: 0.6249622106552124
","x: 278.5164794921875
y: 364.9508972167969
z: -0.06733118742704391
visibility: 0.9999103546142578
","x: 261.9400939941406
y: 367.4809265136719
z: 0.06722377985715866
visibility: 0.9998571276664734
","x: 270.9148864746094
y: 434.39520263671875
z: -0.11776493489742279
visibility: 0.9973483681678772
","x: 258.8079833984375
y: 432.5339050292969
z: 0.023481305688619614
visibility: 0.9817565679550171
","x: 294.4118957519531
y: 488.4580993652344
z: -0.02268870174884796
visibility: 0.998397946357727
","x: 264.5599670410156
y: 492.9457092285156
z: 0.10793431103229523
visibility: 0.9918217658996582
","x: 300.0929260253906
y: 487.2947692871094
z: -0.012566663324832916
visibility: 0.9616376161575317
","x: 268.8717346191406
y: 503.43621826171875
z: 0.11092749983072281
visibility: 0.9626637101173401
","x: 295.1413269042969
y: 516.675537109375
z: -0.08619233220815659
visibility: 0.9980296492576599
","x: 254.81097412109375
y: 512.0613403320312
z: 0.0391957089304924
visibility: 0.9931559562683105
",4.428437948226929,,,,,,,,,,,,,,,,,,,,,,,,,,,,,,,,,,,,,,,,,,
5,"x: 263.5412902832031
y: 257.78192138671875
z: -0.1041002869606018
visibility: 0.9999651908874512
","x: 265.0067138671875
y: 252.05499267578125
z: -0.09876076877117157
visibility: 0.9999156594276428
","x: 266.10882568359375
y: 251.6893768310547
z: -0.09882155805826187
visibility: 0.9999303221702576
","x: 267.2384033203125
y: 251.33966064453125
z: -0.09888056665658951
visibility: 0.9999185800552368
","x: 261.9444885253906
y: 253.4430694580078
z: -0.0878734141588211
visibility: 0.9999072551727295
","x: 260.9340515136719
y: 254.07443237304688
z: -0.08785177767276764
visibility: 0.9998844861984253
","x: 259.9417419433594
y: 254.64947509765625
z: -0.08783376961946487
visibility: 0.9998534321784973
","x: 269.73907470703125
y: 253.43988037109375
z: -0.04667815938591957
visibility: 0.9999079704284668
","x: 259.309326171875
y: 257.8268127441406
z: 0.0037574595771729946
visibility: 0.9997879266738892
","x: 266.30645751953125
y: 263.3915100097656
z: -0.08333207666873932
visibility: 0.9999396800994873
","x: 262.2813415527344
y: 264.89031982421875
z: -0.06925290822982788
visibility: 0.9998949766159058
","x: 277.44903564453125
y: 282.5525207519531
z: -0.08240318298339844
visibility: 0.9999780058860779
","x: 257.2250671386719
y: 289.8153381347656
z: 0.11021000146865845
visibility: 0.9998363256454468
","x: 267.2230224609375
y: 322.498046875
z: -0.10528957843780518
visibility: 0.9907013773918152
","x: 254.3040313720703
y: 322.4175720214844
z: 0.09061272442340851
visibility: 0.4543394148349762
","x: 251.68682861328125
y: 351.2000732421875
z: -0.10962756723165512
visibility: 0.9812163710594177
","x: 251.6390380859375
y: 328.9065246582031
z: -0.054962027817964554
visibility: 0.6593000292778015
","x: 247.39834594726562
y: 360.2439880371094
z: -0.13299116492271423
visibility: 0.9702053070068359
","x: 250.2702178955078
y: 333.5831298828125
z: -0.07592174410820007
visibility: 0.6444476246833801
","x: 246.69253540039062
y: 356.515869140625
z: -0.13918326795101166
visibility: 0.96998530626297
","x: 251.10060119628906
y: 329.9917907714844
z: -0.08743511140346527
visibility: 0.6526782512664795
","x: 248.23622131347656
y: 354.6593933105469
z: -0.1106981635093689
visibility: 0.9483795762062073
","x: 251.99266052246094
y: 327.8951721191406
z: -0.06509256362915039
visibility: 0.6249622106552124
","x: 278.5164794921875
y: 364.9508972167969
z: -0.06733118742704391
visibility: 0.9999103546142578
","x: 261.9400939941406
y: 367.4809265136719
z: 0.06722377985715866
visibility: 0.9998571276664734
","x: 270.9148864746094
y: 434.39520263671875
z: -0.11776493489742279
visibility: 0.9973483681678772
","x: 258.8079833984375
y: 432.5339050292969
z: 0.023481305688619614
visibility: 0.9817565679550171
","x: 294.4118957519531
y: 488.4580993652344
z: -0.02268870174884796
visibility: 0.998397946357727
","x: 264.5599670410156
y: 492.9457092285156
z: 0.10793431103229523
visibility: 0.9918217658996582
","x: 300.0929260253906
y: 487.2947692871094
z: -0.012566663324832916
visibility: 0.9616376161575317
","x: 268.8717346191406
y: 503.43621826171875
z: 0.11092749983072281
visibility: 0.9626637101173401
","x: 295.1413269042969
y: 516.675537109375
z: -0.08619233220815659
visibility: 0.9980296492576599
","x: 254.81097412109375
y: 512.0613403320312
z: 0.0391957089304924
visibility: 0.9931559562683105
",4.428437948226929,,,,,,,,,,,,,,,,,,,,,,,,,,,,,,,,,,,,,,,,,,
6,"x: 266.6463623046875
y: 254.4364776611328
z: -0.15043199062347412
visibility: 0.9999645352363586
","x: 268.1064147949219
y: 249.37106323242188
z: -0.13596484065055847
visibility: 0.9999139904975891
","x: 269.1450500488281
y: 249.2894744873047
z: -0.13598114252090454
visibility: 0.9999279379844666
","x: 270.2088928222656
y: 249.25082397460938
z: -0.13600115478038788
visibility: 0.9999182224273682
","x: 265.03582763671875
y: 250.1515350341797
z: -0.13329660892486572
visibility: 0.9999036192893982
","x: 263.97332763671875
y: 250.6229248046875
z: -0.1332884132862091
visibility: 0.9998795986175537
","x: 262.8815002441406
y: 251.04888916015625
z: -0.1332395374774933
visibility: 0.9998494386672974
","x: 271.97271728515625
y: 252.41732788085938
z: -0.06030429154634476
visibility: 0.9999116659164429
","x: 260.42376708984375
y: 254.58314514160156
z: -0.042995233088731766
visibility: 0.9997656345367432
","x: 268.9498596191406
y: 260.56951904296875
z: -0.12267397344112396
visibility: 0.9999432563781738
","x: 264.5594177246094
y: 261.3419494628906
z: -0.11764802783727646
visibility: 0.9998990297317505
","x: 280.4946594238281
y: 282.3376159667969
z: -0.07695088535547256
visibility: 0.9999799132347107
","x: 255.8297882080078
y: 291.4599609375
z: 0.04242263361811638
visibility: 0.9998242259025574
","x: 289.5469665527344
y: 318.758544921875
z: -0.12028948217630386
visibility: 0.9913836717605591
","x: 252.7090606689453
y: 324.8941345214844
z: 0.03014395199716091
visibility: 0.46736690402030945
","x: 269.41876220703125
y: 339.9917907714844
z: -0.21663442254066467
visibility: 0.9822877049446106
","x: 252.8285369873047
y: 337.9209899902344
z: -0.10414208471775055
visibility: 0.6639978289604187
","x: 266.073974609375
y: 349.97991943359375
z: -0.2528002858161926
visibility: 0.9713404774665833
","x: 253.32745361328125
y: 345.40386962890625
z: -0.13287922739982605
visibility: 0.6467574238777161
","x: 262.2946472167969
y: 346.87445068359375
z: -0.25868111848831177
visibility: 0.9710783362388611
","x: 254.95382690429688
y: 342.500244140625
z: -0.1529380977153778
visibility: 0.6545856595039368
","x: 263.4136657714844
y: 343.741455078125
z: -0.21986934542655945
visibility: 0.9501398205757141
","x: 255.80465698242188
y: 340.0472717285156
z: -0.1163455992937088
visibility: 0.6271816492080688
","x: 280.4565734863281
y: 367.8274841308594
z: -0.047181256115436554
visibility: 0.9999106526374817
","x: 262.2448425292969
y: 370.8462219238281
z: 0.047248803079128265
visibility: 0.9998534917831421
","x: 284.4740905761719
y: 433.7591552734375
z: -0.1130441278219223
visibility: 0.9975340366363525
","x: 258.8573913574219
y: 435.133544921875
z: 0.048142269253730774
visibility: 0.9828263521194458
","x: 302.5802001953125
y: 489.0054016113281
z: 0.010931691154837608
visibility: 0.9984495043754578
","x: 264.8989562988281
y: 494.02947998046875
z: 0.200434610247612
visibility: 0.9922710061073303
","x: 306.6954040527344
y: 491.4483642578125
z: 0.01451274286955595
visibility: 0.957037091255188
","x: 269.1691589355469
y: 504.14434814453125
z: 0.2085704803466797
visibility: 0.9634599089622498
","x: 300.0564880371094
y: 517.4006958007812
z: -0.09544443339109421
visibility: 0.9979657530784607
","x: 254.71258544921875
y: 512.8338012695312
z: 0.1263178586959839
visibility: 0.9932507276535034
",4.601292848587036,,,,,,,,,,,,,,,,,,,,,,,,,,,,,,,,,,,,,,,,,,
7,"x: 266.6463623046875
y: 254.4364776611328
z: -0.15043199062347412
visibility: 0.9999645352363586
","x: 268.1064147949219
y: 249.37106323242188
z: -0.13596484065055847
visibility: 0.9999139904975891
","x: 269.1450500488281
y: 249.2894744873047
z: -0.13598114252090454
visibility: 0.9999279379844666
","x: 270.2088928222656
y: 249.25082397460938
z: -0.13600115478038788
visibility: 0.9999182224273682
","x: 265.03582763671875
y: 250.1515350341797
z: -0.13329660892486572
visibility: 0.9999036192893982
","x: 263.97332763671875
y: 250.6229248046875
z: -0.1332884132862091
visibility: 0.9998795986175537
","x: 262.8815002441406
y: 251.04888916015625
z: -0.1332395374774933
visibility: 0.9998494386672974
","x: 271.97271728515625
y: 252.41732788085938
z: -0.06030429154634476
visibility: 0.9999116659164429
","x: 260.42376708984375
y: 254.58314514160156
z: -0.042995233088731766
visibility: 0.9997656345367432
","x: 268.9498596191406
y: 260.56951904296875
z: -0.12267397344112396
visibility: 0.9999432563781738
","x: 264.5594177246094
y: 261.3419494628906
z: -0.11764802783727646
visibility: 0.9998990297317505
","x: 280.4946594238281
y: 282.3376159667969
z: -0.07695088535547256
visibility: 0.9999799132347107
","x: 255.8297882080078
y: 291.4599609375
z: 0.04242263361811638
visibility: 0.9998242259025574
","x: 289.5469665527344
y: 318.758544921875
z: -0.12028948217630386
visibility: 0.9913836717605591
","x: 252.7090606689453
y: 324.8941345214844
z: 0.03014395199716091
visibility: 0.46736690402030945
","x: 269.41876220703125
y: 339.9917907714844
z: -0.21663442254066467
visibility: 0.9822877049446106
","x: 252.8285369873047
y: 337.9209899902344
z: -0.10414208471775055
visibility: 0.6639978289604187
","x: 266.073974609375
y: 349.97991943359375
z: -0.2528002858161926
visibility: 0.9713404774665833
","x: 253.32745361328125
y: 345.40386962890625
z: -0.13287922739982605
visibility: 0.6467574238777161
","x: 262.2946472167969
y: 346.87445068359375
z: -0.25868111848831177
visibility: 0.9710783362388611
","x: 254.95382690429688
y: 342.500244140625
z: -0.1529380977153778
visibility: 0.6545856595039368
","x: 263.4136657714844
y: 343.741455078125
z: -0.21986934542655945
visibility: 0.9501398205757141
","x: 255.80465698242188
y: 340.0472717285156
z: -0.1163455992937088
visibility: 0.6271816492080688
","x: 280.4565734863281
y: 367.8274841308594
z: -0.047181256115436554
visibility: 0.9999106526374817
","x: 262.2448425292969
y: 370.8462219238281
z: 0.047248803079128265
visibility: 0.9998534917831421
","x: 284.4740905761719
y: 433.7591552734375
z: -0.1130441278219223
visibility: 0.9975340366363525
","x: 258.8573913574219
y: 435.133544921875
z: 0.048142269253730774
visibility: 0.9828263521194458
","x: 302.5802001953125
y: 489.0054016113281
z: 0.010931691154837608
visibility: 0.9984495043754578
","x: 264.8989562988281
y: 494.02947998046875
z: 0.200434610247612
visibility: 0.9922710061073303
","x: 306.6954040527344
y: 491.4483642578125
z: 0.01451274286955595
visibility: 0.957037091255188
","x: 269.1691589355469
y: 504.14434814453125
z: 0.2085704803466797
visibility: 0.9634599089622498
","x: 300.0564880371094
y: 517.4006958007812
z: -0.09544443339109421
visibility: 0.9979657530784607
","x: 254.71258544921875
y: 512.8338012695312
z: 0.1263178586959839
visibility: 0.9932507276535034
",4.601292848587036,,,,,,,,,,,,,,,,,,,,,,,,,,,,,,,,,,,,,,,,,,
8,"x: 267.7074279785156
y: 254.84243774414062
z: -0.2715022563934326
visibility: 0.9999658465385437
","x: 269.0518798828125
y: 249.80227661132812
z: -0.2583756446838379
visibility: 0.9999144673347473
","x: 270.015380859375
y: 249.8571014404297
z: -0.2583779990673065
visibility: 0.9999274611473083
","x: 270.980712890625
y: 249.93399047851562
z: -0.2584025263786316
visibility: 0.9999191164970398
","x: 265.99566650390625
y: 250.08218383789062
z: -0.25685542821884155
visibility: 0.9999050498008728
","x: 264.89398193359375
y: 250.35169982910156
z: -0.25688737630844116
visibility: 0.9998825192451477
","x: 263.76959228515625
y: 250.6077423095703
z: -0.256903737783432
visibility: 0.9998542070388794
","x: 272.4500732421875
y: 253.72042846679688
z: -0.18060001730918884
visibility: 0.9999098181724548
","x: 261.1065673828125
y: 254.7359619140625
z: -0.17176446318626404
visibility: 0.9997702240943909
","x: 269.8405456542969
y: 261.60198974609375
z: -0.2424028217792511
visibility: 0.9999460577964783
","x: 265.48944091796875
y: 261.87750244140625
z: -0.2399575412273407
visibility: 0.9999043941497803
","x: 283.79522705078125
y: 287.441162109375
z: -0.14572595059871674
visibility: 0.9999792575836182
","x: 254.25904846191406
y: 294.4662780761719
z: -0.10414965450763702
visibility: 0.9998265504837036
","x: 289.67047119140625
y: 332.9107971191406
z: -0.14796681702136993
visibility: 0.9918107986450195
","x: 252.68531799316406
y: 336.0296936035156
z: -0.0840332880616188
visibility: 0.5139608979225159
","x: 276.421875
y: 370.50164794921875
z: -0.22357133030891418
visibility: 0.9829776287078857
","x: 259.51422119140625
y: 370.30126953125
z: -0.15158525109291077
visibility: 0.6852055191993713
","x: 273.2287902832031
y: 383.5046691894531
z: -0.25412124395370483
visibility: 0.9715994000434875
","x: 261.698974609375
y: 383.0491943359375
z: -0.17737974226474762
visibility: 0.6620587706565857
","x: 269.8581848144531
y: 380.40966796875
z: -0.26985013484954834
visibility: 0.9713131785392761
","x: 263.4311828613281
y: 381.2102966308594
z: -0.1976407766342163
visibility: 0.6689738631248474
","x: 270.5487060546875
y: 376.0786437988281
z: -0.23039360344409943
visibility: 0.9509801864624023
","x: 263.2195129394531
y: 375.82159423828125
z: -0.16150470077991486
visibility: 0.6419296264648438
","x: 282.7167053222656
y: 371.28460693359375
z: -0.02019966021180153
visibility: 0.999906063079834
","x: 262.5181579589844
y: 374.3902587890625
z: 0.020201709121465683
visibility: 0.9998612999916077
","x: 290.0981750488281
y: 439.1572265625
z: -0.046114224940538406
visibility: 0.9976084232330322
","x: 257.5380554199219
y: 438.2591552734375
z: -0.014381845481693745
visibility: 0.9843789935112
","x: 295.2335205078125
y: 490.88330078125
z: 0.09468705207109451
visibility: 0.9984048008918762
","x: 264.7879638671875
y: 493.74505615234375
z: 0.13011910021305084
visibility: 0.9929162263870239
","x: 300.45416259765625
y: 497.2288818359375
z: 0.10124629735946655
visibility: 0.9567667841911316
","x: 269.3468933105469
y: 503.875244140625
z: 0.13806581497192383
visibility: 0.9654161334037781
","x: 301.88421630859375
y: 517.3754272460938
z: 0.00164745282381773
visibility: 0.9977067708969116
","x: 253.9234619140625
y: 512.927978515625
z: 0.05273989960551262
visibility: 0.9936273097991943
",4.7585320472717285,"x: 276.7229919433594
y: 368.88836669921875
z: 0.0
","x: 272.6415100097656
y: 372.0541076660156
z: 0.0011996852699667215
","x: 269.79052734375
y: 376.8304138183594
z: 0.001452069845981896
","x: 268.1738586425781
y: 381.01727294921875
z: 0.0009585542138665915
","x: 267.2114562988281
y: 383.8792419433594
z: 0.0006696974742226303
","x: 269.5157470703125
y: 381.3222961425781
z: 0.0024400881957262754
","x: 267.5908508300781
y: 386.6133117675781
z: 0.001342071802355349
","x: 266.8345642089844
y: 387.8413391113281
z: 0.0009908090578392148
","x: 266.5084228515625
y: 388.06915283203125
z: 0.0009726022835820913
","x: 270.99432373046875
y: 382.8014831542969
z: 0.0005788708804175258
","x: 269.1833801269531
y: 388.7051696777344
z: -0.0004912897711619735
","x: 268.52069091796875
y: 389.7441101074219
z: -0.0006357711390592158
","x: 268.3050537109375
y: 389.6493835449219
z: -0.0004399855388328433
","x: 272.7673645019531
y: 383.55316162109375
z: -0.0015734289772808552
","x: 271.42352294921875
y: 389.73016357421875
z: -0.0027948832139372826
","x: 270.7965393066406
y: 391.3093566894531
z: -0.0026669693179428577
","x: 270.4288635253906
y: 391.8957214355469
z: -0.002320526633411646
","x: 274.8406677246094
y: 383.5347900390625
z: -0.003830762580037117
","x: 274.37646484375
y: 388.85223388671875
z: -0.0048972079530358315
","x: 273.9443054199219
y: 391.35357666015625
z: -0.004922080785036087
","x: 273.5144958496094
y: 393.18328857421875
z: -0.004669579211622477
",,,,,,,,,,,,,,,,,,,,,
9,"x: 267.7074279785156
y: 254.84243774414062
z: -0.2715022563934326
visibility: 0.9999658465385437
","x: 269.0518798828125
y: 249.80227661132812
z: -0.2583756446838379
visibility: 0.9999144673347473
","x: 270.015380859375
y: 249.8571014404297
z: -0.2583779990673065
visibility: 0.9999274611473083
","x: 270.980712890625
y: 249.93399047851562
z: -0.2584025263786316
visibility: 0.9999191164970398
","x: 265.99566650390625
y: 250.08218383789062
z: -0.25685542821884155
visibility: 0.9999050498008728
","x: 264.89398193359375
y: 250.35169982910156
z: -0.25688737630844116
visibility: 0.9998825192451477
","x: 263.76959228515625
y: 250.6077423095703
z: -0.256903737783432
visibility: 0.9998542070388794
","x: 272.4500732421875
y: 253.72042846679688
z: -0.18060001730918884
visibility: 0.9999098181724548
","x: 261.1065673828125
y: 254.7359619140625
z: -0.17176446318626404
visibility: 0.9997702240943909
","x: 269.8405456542969
y: 261.60198974609375
z: -0.2424028217792511
visibility: 0.9999460577964783
","x: 265.48944091796875
y: 261.87750244140625
z: -0.2399575412273407
visibility: 0.9999043941497803
","x: 283.79522705078125
y: 287.441162109375
z: -0.14572595059871674
visibility: 0.9999792575836182
","x: 254.25904846191406
y: 294.4662780761719
z: -0.10414965450763702
visibility: 0.9998265504837036
","x: 289.67047119140625
y: 332.9107971191406
z: -0.14796681702136993
visibility: 0.9918107986450195
","x: 252.68531799316406
y: 336.0296936035156
z: -0.0840332880616188
visibility: 0.5139608979225159
","x: 276.421875
y: 370.50164794921875
z: -0.22357133030891418
visibility: 0.9829776287078857
","x: 259.51422119140625
y: 370.30126953125
z: -0.15158525109291077
visibility: 0.6852055191993713
","x: 273.2287902832031
y: 383.5046691894531
z: -0.25412124395370483
visibility: 0.9715994000434875
","x: 261.698974609375
y: 383.0491943359375
z: -0.17737974226474762
visibility: 0.6620587706565857
","x: 269.8581848144531
y: 380.40966796875
z: -0.26985013484954834
visibility: 0.9713131785392761
","x: 263.4311828613281
y: 381.2102966308594
z: -0.1976407766342163
visibility: 0.6689738631248474
","x: 270.5487060546875
y: 376.0786437988281
z: -0.23039360344409943
visibility: 0.9509801864624023
","x: 263.2195129394531
y: 375.82159423828125
z: -0.16150470077991486
visibility: 0.6419296264648438
","x: 282.7167053222656
y: 371.28460693359375
z: -0.02019966021180153
visibility: 0.999906063079834
","x: 262.5181579589844
y: 374.3902587890625
z: 0.020201709121465683
visibility: 0.9998612999916077
","x: 290.0981750488281
y: 439.1572265625
z: -0.046114224940538406
visibility: 0.9976084232330322
","x: 257.5380554199219
y: 438.2591552734375
z: -0.014381845481693745
visibility: 0.9843789935112
","x: 295.2335205078125
y: 490.88330078125
z: 0.09468705207109451
visibility: 0.9984048008918762
","x: 264.7879638671875
y: 493.74505615234375
z: 0.13011910021305084
visibility: 0.9929162263870239
","x: 300.45416259765625
y: 497.2288818359375
z: 0.10124629735946655
visibility: 0.9567667841911316
","x: 269.3468933105469
y: 503.875244140625
z: 0.13806581497192383
visibility: 0.9654161334037781
","x: 301.88421630859375
y: 517.3754272460938
z: 0.00164745282381773
visibility: 0.9977067708969116
","x: 253.9234619140625
y: 512.927978515625
z: 0.05273989960551262
visibility: 0.9936273097991943
",4.7585320472717285,"x: 276.7229919433594
y: 368.88836669921875
z: 0.0
","x: 272.6415100097656
y: 372.0541076660156
z: 0.0011996852699667215
","x: 269.79052734375
y: 376.8304138183594
z: 0.001452069845981896
","x: 268.1738586425781
y: 381.01727294921875
z: 0.0009585542138665915
","x: 267.2114562988281
y: 383.8792419433594
z: 0.0006696974742226303
","x: 269.5157470703125
y: 381.3222961425781
z: 0.0024400881957262754
","x: 267.5908508300781
y: 386.6133117675781
z: 0.001342071802355349
","x: 266.8345642089844
y: 387.8413391113281
z: 0.0009908090578392148
","x: 266.5084228515625
y: 388.06915283203125
z: 0.0009726022835820913
","x: 270.99432373046875
y: 382.8014831542969
z: 0.0005788708804175258
","x: 269.1833801269531
y: 388.7051696777344
z: -0.0004912897711619735
","x: 268.52069091796875
y: 389.7441101074219
z: -0.0006357711390592158
","x: 268.3050537109375
y: 389.6493835449219
z: -0.0004399855388328433
","x: 272.7673645019531
y: 383.55316162109375
z: -0.0015734289772808552
","x: 271.42352294921875
y: 389.73016357421875
z: -0.0027948832139372826
","x: 270.7965393066406
y: 391.3093566894531
z: -0.0026669693179428577
","x: 270.4288635253906
y: 391.8957214355469
z: -0.002320526633411646
","x: 274.8406677246094
y: 383.5347900390625
z: -0.003830762580037117
","x: 274.37646484375
y: 388.85223388671875
z: -0.0048972079530358315
","x: 273.9443054199219
y: 391.35357666015625
z: -0.004922080785036087
","x: 273.5144958496094
y: 393.18328857421875
z: -0.004669579211622477
",,,,,,,,,,,,,,,,,,,,,
10,"x: 267.7074279785156
y: 254.84243774414062
z: -0.2715022563934326
visibility: 0.9999658465385437
","x: 269.0518798828125
y: 249.80227661132812
z: -0.2583756446838379
visibility: 0.9999144673347473
","x: 270.015380859375
y: 249.8571014404297
z: -0.2583779990673065
visibility: 0.9999274611473083
","x: 270.980712890625
y: 249.93399047851562
z: -0.2584025263786316
visibility: 0.9999191164970398
","x: 265.99566650390625
y: 250.08218383789062
z: -0.25685542821884155
visibility: 0.9999050498008728
","x: 264.89398193359375
y: 250.35169982910156
z: -0.25688737630844116
visibility: 0.9998825192451477
","x: 263.76959228515625
y: 250.6077423095703
z: -0.256903737783432
visibility: 0.9998542070388794
","x: 272.4500732421875
y: 253.72042846679688
z: -0.18060001730918884
visibility: 0.9999098181724548
","x: 261.1065673828125
y: 254.7359619140625
z: -0.17176446318626404
visibility: 0.9997702240943909
","x: 269.8405456542969
y: 261.60198974609375
z: -0.2424028217792511
visibility: 0.9999460577964783
","x: 265.48944091796875
y: 261.87750244140625
z: -0.2399575412273407
visibility: 0.9999043941497803
","x: 283.79522705078125
y: 287.441162109375
z: -0.14572595059871674
visibility: 0.9999792575836182
","x: 254.25904846191406
y: 294.4662780761719
z: -0.10414965450763702
visibility: 0.9998265504837036
","x: 289.67047119140625
y: 332.9107971191406
z: -0.14796681702136993
visibility: 0.9918107986450195
","x: 252.68531799316406
y: 336.0296936035156
z: -0.0840332880616188
visibility: 0.5139608979225159
","x: 276.421875
y: 370.50164794921875
z: -0.22357133030891418
visibility: 0.9829776287078857
","x: 259.51422119140625
y: 370.30126953125
z: -0.15158525109291077
visibility: 0.6852055191993713
","x: 273.2287902832031
y: 383.5046691894531
z: -0.25412124395370483
visibility: 0.9715994000434875
","x: 261.698974609375
y: 383.0491943359375
z: -0.17737974226474762
visibility: 0.6620587706565857
","x: 269.8581848144531
y: 380.40966796875
z: -0.26985013484954834
visibility: 0.9713131785392761
","x: 263.4311828613281
y: 381.2102966308594
z: -0.1976407766342163
visibility: 0.6689738631248474
","x: 270.5487060546875
y: 376.0786437988281
z: -0.23039360344409943
visibility: 0.9509801864624023
","x: 263.2195129394531
y: 375.82159423828125
z: -0.16150470077991486
visibility: 0.6419296264648438
","x: 282.7167053222656
y: 371.28460693359375
z: -0.02019966021180153
visibility: 0.999906063079834
","x: 262.5181579589844
y: 374.3902587890625
z: 0.020201709121465683
visibility: 0.9998612999916077
","x: 290.0981750488281
y: 439.1572265625
z: -0.046114224940538406
visibility: 0.9976084232330322
","x: 257.5380554199219
y: 438.2591552734375
z: -0.014381845481693745
visibility: 0.9843789935112
","x: 295.2335205078125
y: 490.88330078125
z: 0.09468705207109451
visibility: 0.9984048008918762
","x: 264.7879638671875
y: 493.74505615234375
z: 0.13011910021305084
visibility: 0.9929162263870239
","x: 300.45416259765625
y: 497.2288818359375
z: 0.10124629735946655
visibility: 0.9567667841911316
","x: 269.3468933105469
y: 503.875244140625
z: 0.13806581497192383
visibility: 0.9654161334037781
","x: 301.88421630859375
y: 517.3754272460938
z: 0.00164745282381773
visibility: 0.9977067708969116
","x: 253.9234619140625
y: 512.927978515625
z: 0.05273989960551262
visibility: 0.9936273097991943
",4.7585320472717285,"x: 276.7229919433594
y: 368.88836669921875
z: 0.0
","x: 272.6415100097656
y: 372.0541076660156
z: 0.0011996852699667215
","x: 269.79052734375
y: 376.8304138183594
z: 0.001452069845981896
","x: 268.1738586425781
y: 381.01727294921875
z: 0.0009585542138665915
","x: 267.2114562988281
y: 383.8792419433594
z: 0.0006696974742226303
","x: 269.5157470703125
y: 381.3222961425781
z: 0.0024400881957262754
","x: 267.5908508300781
y: 386.6133117675781
z: 0.001342071802355349
","x: 266.8345642089844
y: 387.8413391113281
z: 0.0009908090578392148
","x: 266.5084228515625
y: 388.06915283203125
z: 0.0009726022835820913
","x: 270.99432373046875
y: 382.8014831542969
z: 0.0005788708804175258
","x: 269.1833801269531
y: 388.7051696777344
z: -0.0004912897711619735
","x: 268.52069091796875
y: 389.7441101074219
z: -0.0006357711390592158
","x: 268.3050537109375
y: 389.6493835449219
z: -0.0004399855388328433
","x: 272.7673645019531
y: 383.55316162109375
z: -0.0015734289772808552
","x: 271.42352294921875
y: 389.73016357421875
z: -0.0027948832139372826
","x: 270.7965393066406
y: 391.3093566894531
z: -0.0026669693179428577
","x: 270.4288635253906
y: 391.8957214355469
z: -0.002320526633411646
","x: 274.8406677246094
y: 383.5347900390625
z: -0.003830762580037117
","x: 274.37646484375
y: 388.85223388671875
z: -0.0048972079530358315
","x: 273.9443054199219
y: 391.35357666015625
z: -0.004922080785036087
","x: 273.5144958496094
y: 393.18328857421875
z: -0.004669579211622477
",,,,,,,,,,,,,,,,,,,,,
11,"x: 274.36639404296875
y: 254.84201049804688
z: -0.26747995615005493
visibility: 0.9999681115150452
","x: 275.8285827636719
y: 250.0034942626953
z: -0.2523871064186096
visibility: 0.9999187588691711
","x: 276.9459228515625
y: 250.2103271484375
z: -0.252373605966568
visibility: 0.9999297261238098
","x: 278.010009765625
y: 250.44100952148438
z: -0.25237616896629333
visibility: 0.9999218583106995
","x: 272.36920166015625
y: 249.88221740722656
z: -0.2530193328857422
visibility: 0.999911367893219
","x: 271.1485900878906
y: 250.07281494140625
z: -0.25307491421699524
visibility: 0.9998909831047058
","x: 269.8376159667969
y: 250.2775421142578
z: -0.2531105875968933
visibility: 0.9998658895492554
","x: 278.9920349121094
y: 254.11260986328125
z: -0.16562002897262573
visibility: 0.9999089241027832
","x: 267.45733642578125
y: 254.6121368408203
z: -0.16742126643657684
visibility: 0.9997891783714294
","x: 276.2831726074219
y: 262.0284423828125
z: -0.23517628014087677
visibility: 0.9999496936798096
","x: 271.8276672363281
y: 261.55462646484375
z: -0.2358815222978592
visibility: 0.9999127388000488
","x: 289.8938903808594
y: 289.8861389160156
z: -0.12219437211751938
visibility: 0.999975860118866
","x: 257.35284423828125
y: 293.14752197265625
z: -0.11035843938589096
visibility: 0.9998414516448975
","x: 297.6708679199219
y: 333.26263427734375
z: -0.10355182737112045
visibility: 0.9919841885566711
","x: 252.60821533203125
y: 337.4275207519531
z: -0.10616914182901382
visibility: 0.5618868470191956
","x: 289.6773376464844
y: 367.9266662597656
z: -0.19387167692184448
visibility: 0.9833299517631531
","x: 261.6687927246094
y: 367.2479248046875
z: -0.19384172558784485
visibility: 0.7155041694641113
","x: 287.85638427734375
y: 378.4907531738281
z: -0.22310903668403625
visibility: 0.9712291955947876
","x: 263.7386474609375
y: 378.7298583984375
z: -0.22452032566070557
visibility: 0.6930851936340332
","x: 284.75347900390625
y: 375.0268249511719
z: -0.24219545722007751
visibility: 0.9709216952323914
","x: 266.8304748535156
y: 376.4295654296875
z: -0.2418043166399002
visibility: 0.6992740035057068
","x: 284.4512023925781
y: 371.7295837402344
z: -0.20276227593421936
visibility: 0.9509369730949402
","x: 266.88446044921875
y: 372.42413330078125
z: -0.2021762579679489
visibility: 0.673832356929779
","x: 285.033203125
y: 373.9627380371094
z: -0.0038189750630408525
visibility: 0.9999011754989624
","x: 264.0693054199219
y: 374.31640625
z: 0.003795978147536516
visibility: 0.9998708963394165
","x: 294.5871276855469
y: 439.3193054199219
z: -0.05729716271162033
visibility: 0.9976441264152527
","x: 257.81689453125
y: 437.8661804199219
z: -0.07793523371219635
visibility: 0.9858453869819641
","x: 296.2181701660156
y: 492.2949523925781
z: 0.07239994406700134
visibility: 0.9983125329017639
","x: 264.77362060546875
y: 493.40509033203125
z: 0.0645514577627182
visibility: 0.9935259819030762
","x: 295.7552490234375
y: 499.72576904296875
z: 0.07840246707201004
visibility: 0.957010805606842
","x: 269.2084655761719
y: 503.4823913574219
z: 0.07204775512218475
visibility: 0.9669976234436035
","x: 303.0643310546875
y: 517.3555908203125
z: -0.021141333505511284
visibility: 0.9973857998847961
","x: 254.0072021484375
y: 513.4303588867188
z: -0.02277533896267414
visibility: 0.9940204620361328
",4.885851860046387,"x: 291.5445556640625
y: 365.80419921875
z: 0.0
","x: 290.66064453125
y: 372.26116943359375
z: 0.001507698674686253
","x: 289.3759765625
y: 378.1722412109375
z: 0.0012434840900823474
","x: 287.83148193359375
y: 381.46868896484375
z: 0.0003041685849893838
","x: 286.3098449707031
y: 382.69580078125
z: -0.0003108752134721726
","x: 289.5918273925781
y: 381.14715576171875
z: -0.0010334613034501672
","x: 287.14532470703125
y: 386.75494384765625
z: -0.0025075776502490044
","x: 286.632568359375
y: 385.5313720703125
z: -0.0021835407242178917
","x: 287.12335205078125
y: 383.9374084472656
z: -0.0016008508391678333
","x: 288.8021240234375
y: 379.4548034667969
z: -0.0029287119396030903
","x: 285.94384765625
y: 385.56866455078125
z: -0.00435063848271966
","x: 285.718017578125
y: 384.1388244628906
z: -0.0031821660231798887
","x: 286.4725036621094
y: 382.1060791015625
z: -0.0019629220478236675
","x: 287.89971923828125
y: 376.9326477050781
z: -0.004774064756929874
","x: 285.1899719238281
y: 382.2267150878906
z: -0.006036659702658653
","x: 285.2095031738281
y: 381.1450500488281
z: -0.004385984502732754
","x: 285.94696044921875
y: 379.46185302734375
z: -0.002924287458881736
","x: 286.93109130859375
y: 373.84381103515625
z: -0.006634221877902746
","x: 284.7176513671875
y: 377.4606018066406
z: -0.007523271720856428
","x: 284.57293701171875
y: 377.0937805175781
z: -0.0065435124561190605
","x: 284.9388122558594
y: 376.08905029296875
z: -0.005437461659312248
","x: 262.10919189453125
y: 367.6821594238281
z: 0.0
","x: 265.4236755371094
y: 370.36395263671875
z: 0.0007863650098443031
","x: 268.1378479003906
y: 374.11212158203125
z: 0.0004968252615071833
","x: 270.0540466308594
y: 377.2406005859375
z: -0.0004979473305866122
","x: 271.3941345214844
y: 378.9566345214844
z: -0.0011407352285459638
","x: 267.0148010253906
y: 379.69384765625
z: 0.0011427599238231778
","x: 267.31549072265625
y: 384.772705078125
z: -0.0001649605401325971
","x: 266.88946533203125
y: 384.2451171875
z: -0.0003060346934944391
","x: 266.74176025390625
y: 382.56884765625
z: -9.343747660750523e-05
","x: 265.3994140625
y: 380.9141540527344
z: -0.0005187456263229251
","x: 265.61627197265625
y: 386.8544921875
z: -0.0020342417992651463
","x: 265.0853271484375
y: 385.42645263671875
z: -0.0016627346631139517
","x: 264.7069396972656
y: 382.58685302734375
z: -0.0009406450553797185
","x: 263.7017822265625
y: 381.5713195800781
z: -0.0023694722913205624
","x: 263.82244873046875
y: 387.5976257324219
z: -0.0034826123155653477
","x: 263.5047302246094
y: 386.21820068359375
z: -0.002112944843247533
","x: 263.27728271484375
y: 383.6334228515625
z: -0.0008814531029202044
","x: 262.01171875
y: 381.54302978515625
z: -0.004402067977935076
","x: 261.8937072753906
y: 386.97076416015625
z: -0.004802866838872433
","x: 261.6177978515625
y: 386.8712158203125
z: -0.0037507605738937855
","x: 261.3915710449219
y: 385.483642578125
z: -0.0027231054846197367
"
12,"x: 274.36639404296875
y: 254.84201049804688
z: -0.26747995615005493
visibility: 0.9999681115150452
","x: 275.8285827636719
y: 250.0034942626953
z: -0.2523871064186096
visibility: 0.9999187588691711
","x: 276.9459228515625
y: 250.2103271484375
z: -0.252373605966568
visibility: 0.9999297261238098
","x: 278.010009765625
y: 250.44100952148438
z: -0.25237616896629333
visibility: 0.9999218583106995
","x: 272.36920166015625
y: 249.88221740722656
z: -0.2530193328857422
visibility: 0.999911367893219
","x: 271.1485900878906
y: 250.07281494140625
z: -0.25307491421699524
visibility: 0.9998909831047058
","x: 269.8376159667969
y: 250.2775421142578
z: -0.2531105875968933
visibility: 0.9998658895492554
","x: 278.9920349121094
y: 254.11260986328125
z: -0.16562002897262573
visibility: 0.9999089241027832
","x: 267.45733642578125
y: 254.6121368408203
z: -0.16742126643657684
visibility: 0.9997891783714294
","x: 276.2831726074219
y: 262.0284423828125
z: -0.23517628014087677
visibility: 0.9999496936798096
","x: 271.8276672363281
y: 261.55462646484375
z: -0.2358815222978592
visibility: 0.9999127388000488
","x: 289.8938903808594
y: 289.8861389160156
z: -0.12219437211751938
visibility: 0.999975860118866
","x: 257.35284423828125
y: 293.14752197265625
z: -0.11035843938589096
visibility: 0.9998414516448975
","x: 297.6708679199219
y: 333.26263427734375
z: -0.10355182737112045
visibility: 0.9919841885566711
","x: 252.60821533203125
y: 337.4275207519531
z: -0.10616914182901382
visibility: 0.5618868470191956
","x: 289.6773376464844
y: 367.9266662597656
z: -0.19387167692184448
visibility: 0.9833299517631531
","x: 261.6687927246094
y: 367.2479248046875
z: -0.19384172558784485
visibility: 0.7155041694641113
","x: 287.85638427734375
y: 378.4907531738281
z: -0.22310903668403625
visibility: 0.9712291955947876
","x: 263.7386474609375
y: 378.7298583984375
z: -0.22452032566070557
visibility: 0.6930851936340332
","x: 284.75347900390625
y: 375.0268249511719
z: -0.24219545722007751
visibility: 0.9709216952323914
","x: 266.8304748535156
y: 376.4295654296875
z: -0.2418043166399002
visibility: 0.6992740035057068
","x: 284.4512023925781
y: 371.7295837402344
z: -0.20276227593421936
visibility: 0.9509369730949402
","x: 266.88446044921875
y: 372.42413330078125
z: -0.2021762579679489
visibility: 0.673832356929779
","x: 285.033203125
y: 373.9627380371094
z: -0.0038189750630408525
visibility: 0.9999011754989624
","x: 264.0693054199219
y: 374.31640625
z: 0.003795978147536516
visibility: 0.9998708963394165
","x: 294.5871276855469
y: 439.3193054199219
z: -0.05729716271162033
visibility: 0.9976441264152527
","x: 257.81689453125
y: 437.8661804199219
z: -0.07793523371219635
visibility: 0.9858453869819641
","x: 296.2181701660156
y: 492.2949523925781
z: 0.07239994406700134
visibility: 0.9983125329017639
","x: 264.77362060546875
y: 493.40509033203125
z: 0.0645514577627182
visibility: 0.9935259819030762
","x: 295.7552490234375
y: 499.72576904296875
z: 0.07840246707201004
visibility: 0.957010805606842
","x: 269.2084655761719
y: 503.4823913574219
z: 0.07204775512218475
visibility: 0.9669976234436035
","x: 303.0643310546875
y: 517.3555908203125
z: -0.021141333505511284
visibility: 0.9973857998847961
","x: 254.0072021484375
y: 513.4303588867188
z: -0.02277533896267414
visibility: 0.9940204620361328
",4.885851860046387,"x: 291.5445556640625
y: 365.80419921875
z: 0.0
","x: 290.66064453125
y: 372.26116943359375
z: 0.001507698674686253
","x: 289.3759765625
y: 378.1722412109375
z: 0.0012434840900823474
","x: 287.83148193359375
y: 381.46868896484375
z: 0.0003041685849893838
","x: 286.3098449707031
y: 382.69580078125
z: -0.0003108752134721726
","x: 289.5918273925781
y: 381.14715576171875
z: -0.0010334613034501672
","x: 287.14532470703125
y: 386.75494384765625
z: -0.0025075776502490044
","x: 286.632568359375
y: 385.5313720703125
z: -0.0021835407242178917
","x: 287.12335205078125
y: 383.9374084472656
z: -0.0016008508391678333
","x: 288.8021240234375
y: 379.4548034667969
z: -0.0029287119396030903
","x: 285.94384765625
y: 385.56866455078125
z: -0.00435063848271966
","x: 285.718017578125
y: 384.1388244628906
z: -0.0031821660231798887
","x: 286.4725036621094
y: 382.1060791015625
z: -0.0019629220478236675
","x: 287.89971923828125
y: 376.9326477050781
z: -0.004774064756929874
","x: 285.1899719238281
y: 382.2267150878906
z: -0.006036659702658653
","x: 285.2095031738281
y: 381.1450500488281
z: -0.004385984502732754
","x: 285.94696044921875
y: 379.46185302734375
z: -0.002924287458881736
","x: 286.93109130859375
y: 373.84381103515625
z: -0.006634221877902746
","x: 284.7176513671875
y: 377.4606018066406
z: -0.007523271720856428
","x: 284.57293701171875
y: 377.0937805175781
z: -0.0065435124561190605
","x: 284.9388122558594
y: 376.08905029296875
z: -0.005437461659312248
","x: 262.10919189453125
y: 367.6821594238281
z: 0.0
","x: 265.4236755371094
y: 370.36395263671875
z: 0.0007863650098443031
","x: 268.1378479003906
y: 374.11212158203125
z: 0.0004968252615071833
","x: 270.0540466308594
y: 377.2406005859375
z: -0.0004979473305866122
","x: 271.3941345214844
y: 378.9566345214844
z: -0.0011407352285459638
","x: 267.0148010253906
y: 379.69384765625
z: 0.0011427599238231778
","x: 267.31549072265625
y: 384.772705078125
z: -0.0001649605401325971
","x: 266.88946533203125
y: 384.2451171875
z: -0.0003060346934944391
","x: 266.74176025390625
y: 382.56884765625
z: -9.343747660750523e-05
","x: 265.3994140625
y: 380.9141540527344
z: -0.0005187456263229251
","x: 265.61627197265625
y: 386.8544921875
z: -0.0020342417992651463
","x: 265.0853271484375
y: 385.42645263671875
z: -0.0016627346631139517
","x: 264.7069396972656
y: 382.58685302734375
z: -0.0009406450553797185
","x: 263.7017822265625
y: 381.5713195800781
z: -0.0023694722913205624
","x: 263.82244873046875
y: 387.5976257324219
z: -0.0034826123155653477
","x: 263.5047302246094
y: 386.21820068359375
z: -0.002112944843247533
","x: 263.27728271484375
y: 383.6334228515625
z: -0.0008814531029202044
","x: 262.01171875
y: 381.54302978515625
z: -0.004402067977935076
","x: 261.8937072753906
y: 386.97076416015625
z: -0.004802866838872433
","x: 261.6177978515625
y: 386.8712158203125
z: -0.0037507605738937855
","x: 261.3915710449219
y: 385.483642578125
z: -0.0027231054846197367
"
13,"x: 274.36639404296875
y: 254.84201049804688
z: -0.26747995615005493
visibility: 0.9999681115150452
","x: 275.8285827636719
y: 250.0034942626953
z: -0.2523871064186096
visibility: 0.9999187588691711
","x: 276.9459228515625
y: 250.2103271484375
z: -0.252373605966568
visibility: 0.9999297261238098
","x: 278.010009765625
y: 250.44100952148438
z: -0.25237616896629333
visibility: 0.9999218583106995
","x: 272.36920166015625
y: 249.88221740722656
z: -0.2530193328857422
visibility: 0.999911367893219
","x: 271.1485900878906
y: 250.07281494140625
z: -0.25307491421699524
visibility: 0.9998909831047058
","x: 269.8376159667969
y: 250.2775421142578
z: -0.2531105875968933
visibility: 0.9998658895492554
","x: 278.9920349121094
y: 254.11260986328125
z: -0.16562002897262573
visibility: 0.9999089241027832
","x: 267.45733642578125
y: 254.6121368408203
z: -0.16742126643657684
visibility: 0.9997891783714294
","x: 276.2831726074219
y: 262.0284423828125
z: -0.23517628014087677
visibility: 0.9999496936798096
","x: 271.8276672363281
y: 261.55462646484375
z: -0.2358815222978592
visibility: 0.9999127388000488
","x: 289.8938903808594
y: 289.8861389160156
z: -0.12219437211751938
visibility: 0.999975860118866
","x: 257.35284423828125
y: 293.14752197265625
z: -0.11035843938589096
visibility: 0.9998414516448975
","x: 297.6708679199219
y: 333.26263427734375
z: -0.10355182737112045
visibility: 0.9919841885566711
","x: 252.60821533203125
y: 337.4275207519531
z: -0.10616914182901382
visibility: 0.5618868470191956
","x: 289.6773376464844
y: 367.9266662597656
z: -0.19387167692184448
visibility: 0.9833299517631531
","x: 261.6687927246094
y: 367.2479248046875
z: -0.19384172558784485
visibility: 0.7155041694641113
","x: 287.85638427734375
y: 378.4907531738281
z: -0.22310903668403625
visibility: 0.9712291955947876
","x: 263.7386474609375
y: 378.7298583984375
z: -0.22452032566070557
visibility: 0.6930851936340332
","x: 284.75347900390625
y: 375.0268249511719
z: -0.24219545722007751
visibility: 0.9709216952323914
","x: 266.8304748535156
y: 376.4295654296875
z: -0.2418043166399002
visibility: 0.6992740035057068
","x: 284.4512023925781
y: 371.7295837402344
z: -0.20276227593421936
visibility: 0.9509369730949402
","x: 266.88446044921875
y: 372.42413330078125
z: -0.2021762579679489
visibility: 0.673832356929779
","x: 285.033203125
y: 373.9627380371094
z: -0.0038189750630408525
visibility: 0.9999011754989624
","x: 264.0693054199219
y: 374.31640625
z: 0.003795978147536516
visibility: 0.9998708963394165
","x: 294.5871276855469
y: 439.3193054199219
z: -0.05729716271162033
visibility: 0.9976441264152527
","x: 257.81689453125
y: 437.8661804199219
z: -0.07793523371219635
visibility: 0.9858453869819641
","x: 296.2181701660156
y: 492.2949523925781
z: 0.07239994406700134
visibility: 0.9983125329017639
","x: 264.77362060546875
y: 493.40509033203125
z: 0.0645514577627182
visibility: 0.9935259819030762
","x: 295.7552490234375
y: 499.72576904296875
z: 0.07840246707201004
visibility: 0.957010805606842
","x: 269.2084655761719
y: 503.4823913574219
z: 0.07204775512218475
visibility: 0.9669976234436035
","x: 303.0643310546875
y: 517.3555908203125
z: -0.021141333505511284
visibility: 0.9973857998847961
","x: 254.0072021484375
y: 513.4303588867188
z: -0.02277533896267414
visibility: 0.9940204620361328
",4.885851860046387,"x: 291.5445556640625
y: 365.80419921875
z: 0.0
","x: 290.66064453125
y: 372.26116943359375
z: 0.001507698674686253
","x: 289.3759765625
y: 378.1722412109375
z: 0.0012434840900823474
","x: 287.83148193359375
y: 381.46868896484375
z: 0.0003041685849893838
","x: 286.3098449707031
y: 382.69580078125
z: -0.0003108752134721726
","x: 289.5918273925781
y: 381.14715576171875
z: -0.0010334613034501672
","x: 287.14532470703125
y: 386.75494384765625
z: -0.0025075776502490044
","x: 286.632568359375
y: 385.5313720703125
z: -0.0021835407242178917
","x: 287.12335205078125
y: 383.9374084472656
z: -0.0016008508391678333
","x: 288.8021240234375
y: 379.4548034667969
z: -0.0029287119396030903
","x: 285.94384765625
y: 385.56866455078125
z: -0.00435063848271966
","x: 285.718017578125
y: 384.1388244628906
z: -0.0031821660231798887
","x: 286.4725036621094
y: 382.1060791015625
z: -0.0019629220478236675
","x: 287.89971923828125
y: 376.9326477050781
z: -0.004774064756929874
","x: 285.1899719238281
y: 382.2267150878906
z: -0.006036659702658653
","x: 285.2095031738281
y: 381.1450500488281
z: -0.004385984502732754
","x: 285.94696044921875
y: 379.46185302734375
z: -0.002924287458881736
","x: 286.93109130859375
y: 373.84381103515625
z: -0.006634221877902746
","x: 284.7176513671875
y: 377.4606018066406
z: -0.007523271720856428
","x: 284.57293701171875
y: 377.0937805175781
z: -0.0065435124561190605
","x: 284.9388122558594
y: 376.08905029296875
z: -0.005437461659312248
","x: 262.10919189453125
y: 367.6821594238281
z: 0.0
","x: 265.4236755371094
y: 370.36395263671875
z: 0.0007863650098443031
","x: 268.1378479003906
y: 374.11212158203125
z: 0.0004968252615071833
","x: 270.0540466308594
y: 377.2406005859375
z: -0.0004979473305866122
","x: 271.3941345214844
y: 378.9566345214844
z: -0.0011407352285459638
","x: 267.0148010253906
y: 379.69384765625
z: 0.0011427599238231778
","x: 267.31549072265625
y: 384.772705078125
z: -0.0001649605401325971
","x: 266.88946533203125
y: 384.2451171875
z: -0.0003060346934944391
","x: 266.74176025390625
y: 382.56884765625
z: -9.343747660750523e-05
","x: 265.3994140625
y: 380.9141540527344
z: -0.0005187456263229251
","x: 265.61627197265625
y: 386.8544921875
z: -0.0020342417992651463
","x: 265.0853271484375
y: 385.42645263671875
z: -0.0016627346631139517
","x: 264.7069396972656
y: 382.58685302734375
z: -0.0009406450553797185
","x: 263.7017822265625
y: 381.5713195800781
z: -0.0023694722913205624
","x: 263.82244873046875
y: 387.5976257324219
z: -0.0034826123155653477
","x: 263.5047302246094
y: 386.21820068359375
z: -0.002112944843247533
","x: 263.27728271484375
y: 383.6334228515625
z: -0.0008814531029202044
","x: 262.01171875
y: 381.54302978515625
z: -0.004402067977935076
","x: 261.8937072753906
y: 386.97076416015625
z: -0.004802866838872433
","x: 261.6177978515625
y: 386.8712158203125
z: -0.0037507605738937855
","x: 261.3915710449219
y: 385.483642578125
z: -0.0027231054846197367
"
14,"x: 274.36639404296875
y: 254.84201049804688
z: -0.26747995615005493
visibility: 0.9999681115150452
","x: 275.8285827636719
y: 250.0034942626953
z: -0.2523871064186096
visibility: 0.9999187588691711
","x: 276.9459228515625
y: 250.2103271484375
z: -0.252373605966568
visibility: 0.9999297261238098
","x: 278.010009765625
y: 250.44100952148438
z: -0.25237616896629333
visibility: 0.9999218583106995
","x: 272.36920166015625
y: 249.88221740722656
z: -0.2530193328857422
visibility: 0.999911367893219
","x: 271.1485900878906
y: 250.07281494140625
z: -0.25307491421699524
visibility: 0.9998909831047058
","x: 269.8376159667969
y: 250.2775421142578
z: -0.2531105875968933
visibility: 0.9998658895492554
","x: 278.9920349121094
y: 254.11260986328125
z: -0.16562002897262573
visibility: 0.9999089241027832
","x: 267.45733642578125
y: 254.6121368408203
z: -0.16742126643657684
visibility: 0.9997891783714294
","x: 276.2831726074219
y: 262.0284423828125
z: -0.23517628014087677
visibility: 0.9999496936798096
","x: 271.8276672363281
y: 261.55462646484375
z: -0.2358815222978592
visibility: 0.9999127388000488
","x: 289.8938903808594
y: 289.8861389160156
z: -0.12219437211751938
visibility: 0.999975860118866
","x: 257.35284423828125
y: 293.14752197265625
z: -0.11035843938589096
visibility: 0.9998414516448975
","x: 297.6708679199219
y: 333.26263427734375
z: -0.10355182737112045
visibility: 0.9919841885566711
","x: 252.60821533203125
y: 337.4275207519531
z: -0.10616914182901382
visibility: 0.5618868470191956
","x: 289.6773376464844
y: 367.9266662597656
z: -0.19387167692184448
visibility: 0.9833299517631531
","x: 261.6687927246094
y: 367.2479248046875
z: -0.19384172558784485
visibility: 0.7155041694641113
","x: 287.85638427734375
y: 378.4907531738281
z: -0.22310903668403625
visibility: 0.9712291955947876
","x: 263.7386474609375
y: 378.7298583984375
z: -0.22452032566070557
visibility: 0.6930851936340332
","x: 284.75347900390625
y: 375.0268249511719
z: -0.24219545722007751
visibility: 0.9709216952323914
","x: 266.8304748535156
y: 376.4295654296875
z: -0.2418043166399002
visibility: 0.6992740035057068
","x: 284.4512023925781
y: 371.7295837402344
z: -0.20276227593421936
visibility: 0.9509369730949402
","x: 266.88446044921875
y: 372.42413330078125
z: -0.2021762579679489
visibility: 0.673832356929779
","x: 285.033203125
y: 373.9627380371094
z: -0.0038189750630408525
visibility: 0.9999011754989624
","x: 264.0693054199219
y: 374.31640625
z: 0.003795978147536516
visibility: 0.9998708963394165
","x: 294.5871276855469
y: 439.3193054199219
z: -0.05729716271162033
visibility: 0.9976441264152527
","x: 257.81689453125
y: 437.8661804199219
z: -0.07793523371219635
visibility: 0.9858453869819641
","x: 296.2181701660156
y: 492.2949523925781
z: 0.07239994406700134
visibility: 0.9983125329017639
","x: 264.77362060546875
y: 493.40509033203125
z: 0.0645514577627182
visibility: 0.9935259819030762
","x: 295.7552490234375
y: 499.72576904296875
z: 0.07840246707201004
visibility: 0.957010805606842
","x: 269.2084655761719
y: 503.4823913574219
z: 0.07204775512218475
visibility: 0.9669976234436035
","x: 303.0643310546875
y: 517.3555908203125
z: -0.021141333505511284
visibility: 0.9973857998847961
","x: 254.0072021484375
y: 513.4303588867188
z: -0.02277533896267414
visibility: 0.9940204620361328
",4.885851860046387,"x: 291.5445556640625
y: 365.80419921875
z: 0.0
","x: 290.66064453125
y: 372.26116943359375
z: 0.001507698674686253
","x: 289.3759765625
y: 378.1722412109375
z: 0.0012434840900823474
","x: 287.83148193359375
y: 381.46868896484375
z: 0.0003041685849893838
","x: 286.3098449707031
y: 382.69580078125
z: -0.0003108752134721726
","x: 289.5918273925781
y: 381.14715576171875
z: -0.0010334613034501672
","x: 287.14532470703125
y: 386.75494384765625
z: -0.0025075776502490044
","x: 286.632568359375
y: 385.5313720703125
z: -0.0021835407242178917
","x: 287.12335205078125
y: 383.9374084472656
z: -0.0016008508391678333
","x: 288.8021240234375
y: 379.4548034667969
z: -0.0029287119396030903
","x: 285.94384765625
y: 385.56866455078125
z: -0.00435063848271966
","x: 285.718017578125
y: 384.1388244628906
z: -0.0031821660231798887
","x: 286.4725036621094
y: 382.1060791015625
z: -0.0019629220478236675
","x: 287.89971923828125
y: 376.9326477050781
z: -0.004774064756929874
","x: 285.1899719238281
y: 382.2267150878906
z: -0.006036659702658653
","x: 285.2095031738281
y: 381.1450500488281
z: -0.004385984502732754
","x: 285.94696044921875
y: 379.46185302734375
z: -0.002924287458881736
","x: 286.93109130859375
y: 373.84381103515625
z: -0.006634221877902746
","x: 284.7176513671875
y: 377.4606018066406
z: -0.007523271720856428
","x: 284.57293701171875
y: 377.0937805175781
z: -0.0065435124561190605
","x: 284.9388122558594
y: 376.08905029296875
z: -0.005437461659312248
","x: 262.10919189453125
y: 367.6821594238281
z: 0.0
","x: 265.4236755371094
y: 370.36395263671875
z: 0.0007863650098443031
","x: 268.1378479003906
y: 374.11212158203125
z: 0.0004968252615071833
","x: 270.0540466308594
y: 377.2406005859375
z: -0.0004979473305866122
","x: 271.3941345214844
y: 378.9566345214844
z: -0.0011407352285459638
","x: 267.0148010253906
y: 379.69384765625
z: 0.0011427599238231778
","x: 267.31549072265625
y: 384.772705078125
z: -0.0001649605401325971
","x: 266.88946533203125
y: 384.2451171875
z: -0.0003060346934944391
","x: 266.74176025390625
y: 382.56884765625
z: -9.343747660750523e-05
","x: 265.3994140625
y: 380.9141540527344
z: -0.0005187456263229251
","x: 265.61627197265625
y: 386.8544921875
z: -0.0020342417992651463
","x: 265.0853271484375
y: 385.42645263671875
z: -0.0016627346631139517
","x: 264.7069396972656
y: 382.58685302734375
z: -0.0009406450553797185
","x: 263.7017822265625
y: 381.5713195800781
z: -0.0023694722913205624
","x: 263.82244873046875
y: 387.5976257324219
z: -0.0034826123155653477
","x: 263.5047302246094
y: 386.21820068359375
z: -0.002112944843247533
","x: 263.27728271484375
y: 383.6334228515625
z: -0.0008814531029202044
","x: 262.01171875
y: 381.54302978515625
z: -0.004402067977935076
","x: 261.8937072753906
y: 386.97076416015625
z: -0.004802866838872433
","x: 261.6177978515625
y: 386.8712158203125
z: -0.0037507605738937855
","x: 261.3915710449219
y: 385.483642578125
z: -0.0027231054846197367
"
15,"x: 279.17510986328125
y: 249.73904418945312
z: -0.21419596672058105
visibility: 0.9999709129333496
","x: 280.79681396484375
y: 245.001220703125
z: -0.20171721279621124
visibility: 0.9999262094497681
","x: 281.94970703125
y: 245.2601318359375
z: -0.20174439251422882
visibility: 0.999936044216156
","x: 283.0301818847656
y: 245.607666015625
z: -0.20176073908805847
visibility: 0.9999288320541382
","x: 277.2532958984375
y: 244.9148712158203
z: -0.1984255015850067
visibility: 0.999919056892395
","x: 275.9822082519531
y: 245.02870178222656
z: -0.19842949509620667
visibility: 0.9999005198478699
","x: 274.7655029296875
y: 245.141357421875
z: -0.19843533635139465
visibility: 0.9998776912689209
","x: 284.04974365234375
y: 250.4827117919922
z: -0.0971260592341423
visibility: 0.9999166131019592
","x: 272.85675048828125
y: 249.2838134765625
z: -0.10444778203964233
visibility: 0.9998077750205994
","x: 281.0096435546875
y: 257.61871337890625
z: -0.18498241901397705
visibility: 0.9999542236328125
","x: 276.5316467285156
y: 256.6198425292969
z: -0.17847515642642975
visibility: 0.9999207854270935
","x: 292.49261474609375
y: 286.4217834472656
z: -0.027896439656615257
visibility: 0.9999758005142212
","x: 262.1352844238281
y: 282.4355773925781
z: -0.04144541174173355
visibility: 0.9998359084129333
","x: 298.2231140136719
y: 330.9605712890625
z: -0.08044414222240448
visibility: 0.9713433384895325
","x: 253.21311950683594
y: 317.2615661621094
z: -0.10266846418380737
visibility: 0.5947876572608948
","x: 306.414794921875
y: 339.7960205078125
z: -0.22087299823760986
visibility: 0.9720526337623596
","x: 257.75238037109375
y: 330.37908935546875
z: -0.2749079763889313
visibility: 0.7236096262931824
","x: 310.6154479980469
y: 344.1517333984375
z: -0.2760031223297119
visibility: 0.9613019227981567
","x: 257.3119812011719
y: 335.1983337402344
z: -0.3131634593009949
visibility: 0.6975433230400085
","x: 311.19989013671875
y: 340.55596923828125
z: -0.317889541387558
visibility: 0.962701141834259
","x: 259.7356872558594
y: 332.68231201171875
z: -0.3280326724052429
visibility: 0.704395055770874
","x: 309.0014343261719
y: 339.10211181640625
z: -0.26379114389419556
visibility: 0.9413679242134094
","x: 260.2767028808594
y: 331.1054992675781
z: -0.28535962104797363
visibility: 0.6792289614677429
","x: 287.83953857421875
y: 370.9420166015625
z: 0.002916688332334161
visibility: 0.9999063014984131
","x: 266.4113464355469
y: 371.61669921875
z: -0.002985321916639805
visibility: 0.9998700618743896
","x: 295.9242858886719
y: 436.1787414550781
z: -0.03690185397863388
visibility: 0.9978348016738892
","x: 258.9245910644531
y: 437.502685546875
z: -0.024365544319152832
visibility: 0.987177312374115
","x: 302.9747314453125
y: 490.9136657714844
z: 0.12682780623435974
visibility: 0.9984013438224792
","x: 254.3904266357422
y: 489.8449401855469
z: 0.17654377222061157
visibility: 0.9939064383506775
","x: 302.7838439941406
y: 497.27947998046875
z: 0.13667497038841248
visibility: 0.952094316482544
","x: 253.49729919433594
y: 494.690185546875
z: 0.19364149868488312
visibility: 0.9595010280609131
","x: 303.59197998046875
y: 517.3460083007812
z: 0.02305016666650772
visibility: 0.997412919998169
","x: 252.81875610351562
y: 513.3074951171875
z: 0.097164586186409
visibility: 0.9941527843475342
",4.99709677696228,,,,,,,,,,,,,,,,,,,,,,,,,,,,,,,,,,,,,,,,,,
16,"x: 279.17510986328125
y: 249.73904418945312
z: -0.21419596672058105
visibility: 0.9999709129333496
","x: 280.79681396484375
y: 245.001220703125
z: -0.20171721279621124
visibility: 0.9999262094497681
","x: 281.94970703125
y: 245.2601318359375
z: -0.20174439251422882
visibility: 0.999936044216156
","x: 283.0301818847656
y: 245.607666015625
z: -0.20176073908805847
visibility: 0.9999288320541382
","x: 277.2532958984375
y: 244.9148712158203
z: -0.1984255015850067
visibility: 0.999919056892395
","x: 275.9822082519531
y: 245.02870178222656
z: -0.19842949509620667
visibility: 0.9999005198478699
","x: 274.7655029296875
y: 245.141357421875
z: -0.19843533635139465
visibility: 0.9998776912689209
","x: 284.04974365234375
y: 250.4827117919922
z: -0.0971260592341423
visibility: 0.9999166131019592
","x: 272.85675048828125
y: 249.2838134765625
z: -0.10444778203964233
visibility: 0.9998077750205994
","x: 281.0096435546875
y: 257.61871337890625
z: -0.18498241901397705
visibility: 0.9999542236328125
","x: 276.5316467285156
y: 256.6198425292969
z: -0.17847515642642975
visibility: 0.9999207854270935
","x: 292.49261474609375
y: 286.4217834472656
z: -0.027896439656615257
visibility: 0.9999758005142212
","x: 262.1352844238281
y: 282.4355773925781
z: -0.04144541174173355
visibility: 0.9998359084129333
","x: 298.2231140136719
y: 330.9605712890625
z: -0.08044414222240448
visibility: 0.9713433384895325
","x: 253.21311950683594
y: 317.2615661621094
z: -0.10266846418380737
visibility: 0.5947876572608948
","x: 306.414794921875
y: 339.7960205078125
z: -0.22087299823760986
visibility: 0.9720526337623596
","x: 257.75238037109375
y: 330.37908935546875
z: -0.2749079763889313
visibility: 0.7236096262931824
","x: 310.6154479980469
y: 344.1517333984375
z: -0.2760031223297119
visibility: 0.9613019227981567
","x: 257.3119812011719
y: 335.1983337402344
z: -0.3131634593009949
visibility: 0.6975433230400085
","x: 311.19989013671875
y: 340.55596923828125
z: -0.317889541387558
visibility: 0.962701141834259
","x: 259.7356872558594
y: 332.68231201171875
z: -0.3280326724052429
visibility: 0.704395055770874
","x: 309.0014343261719
y: 339.10211181640625
z: -0.26379114389419556
visibility: 0.9413679242134094
","x: 260.2767028808594
y: 331.1054992675781
z: -0.28535962104797363
visibility: 0.6792289614677429
","x: 287.83953857421875
y: 370.9420166015625
z: 0.002916688332334161
visibility: 0.9999063014984131
","x: 266.4113464355469
y: 371.61669921875
z: -0.002985321916639805
visibility: 0.9998700618743896
","x: 295.9242858886719
y: 436.1787414550781
z: -0.03690185397863388
visibility: 0.9978348016738892
","x: 258.9245910644531
y: 437.502685546875
z: -0.024365544319152832
visibility: 0.987177312374115
","x: 302.9747314453125
y: 490.9136657714844
z: 0.12682780623435974
visibility: 0.9984013438224792
","x: 254.3904266357422
y: 489.8449401855469
z: 0.17654377222061157
visibility: 0.9939064383506775
","x: 302.7838439941406
y: 497.27947998046875
z: 0.13667497038841248
visibility: 0.952094316482544
","x: 253.49729919433594
y: 494.690185546875
z: 0.19364149868488312
visibility: 0.9595010280609131
","x: 303.59197998046875
y: 517.3460083007812
z: 0.02305016666650772
visibility: 0.997412919998169
","x: 252.81875610351562
y: 513.3074951171875
z: 0.097164586186409
visibility: 0.9941527843475342
",4.99709677696228,,,,,,,,,,,,,,,,,,,,,,,,,,,,,,,,,,,,,,,,,,
17,"x: 284.29193115234375
y: 249.400390625
z: -0.29466941952705383
visibility: 0.9999737739562988
","x: 285.71087646484375
y: 244.69024658203125
z: -0.2782279849052429
visibility: 0.9999334812164307
","x: 286.8550109863281
y: 244.92225646972656
z: -0.2781614661216736
visibility: 0.9999423027038574
","x: 287.91839599609375
y: 245.24423217773438
z: -0.2782265841960907
visibility: 0.9999357461929321
","x: 282.0419921875
y: 244.74362182617188
z: -0.28261619806289673
visibility: 0.9999271035194397
","x: 280.70355224609375
y: 244.90060424804688
z: -0.2826681435108185
visibility: 0.9999104142189026
","x: 279.4112243652344
y: 245.0487060546875
z: -0.2826812267303467
visibility: 0.9998898506164551
","x: 288.903076171875
y: 250.07769775390625
z: -0.16952607035636902
visibility: 0.9999247193336487
","x: 277.4778137207031
y: 248.93150329589844
z: -0.1926880180835724
visibility: 0.999826967716217
","x: 286.3507995605469
y: 257.1031494140625
z: -0.2539057731628418
visibility: 0.9999585747718811
","x: 281.5845031738281
y: 256.1804504394531
z: -0.26074156165122986
visibility: 0.9999285936355591
","x: 295.0216064453125
y: 285.0108642578125
z: -0.052216630429029465
visibility: 0.9999693632125854
","x: 267.2381286621094
y: 276.8722229003906
z: -0.13571064174175262
visibility: 0.9998448491096497
","x: 298.2803955078125
y: 315.74945068359375
z: 0.13428524136543274
visibility: 0.9235442280769348
","x: 253.1827392578125
y: 304.0887145996094
z: -0.19843222200870514
visibility: 0.631152331829071
","x: 307.0116271972656
y: 315.8794860839844
z: 0.26674461364746094
visibility: 0.9517365097999573
","x: 249.28465270996094
y: 307.24267578125
z: -0.32502317428588867
visibility: 0.7454581260681152
","x: 310.2979736328125
y: 313.56268310546875
z: 0.29390567541122437
visibility: 0.9399869441986084
","x: 246.48251342773438
y: 307.7630920410156
z: -0.35018283128738403
visibility: 0.7179685831069946
","x: 310.29083251953125
y: 312.3507385253906
z: 0.26865360140800476
visibility: 0.9430174231529236
","x: 249.98265075683594
y: 306.46099853515625
z: -0.36045002937316895
visibility: 0.7250733375549316
","x: 308.7590026855469
y: 313.3127136230469
z: 0.261534184217453
visibility: 0.9205306768417358
","x: 251.91241455078125
y: 306.06268310546875
z: -0.33207783102989197
visibility: 0.7007288336753845
","x: 289.0810546875
y: 369.978759765625
z: 0.014691747725009918
visibility: 0.9999123215675354
","x: 267.46807861328125
y: 369.3913269042969
z: -0.014975493773818016
visibility: 0.9998760223388672
","x: 296.1903991699219
y: 435.9920959472656
z: -0.0039453268982470036
visibility: 0.9979943633079529
","x: 259.076904296875
y: 435.0618896484375
z: -0.04003014415502548
visibility: 0.9882259368896484
","x: 303.7444763183594
y: 490.9332275390625
z: 0.2123490869998932
visibility: 0.99842768907547
","x: 246.55621337890625
y: 487.7106018066406
z: 0.1533038467168808
visibility: 0.9942996501922607
","x: 303.7062683105469
y: 497.06121826171875
z: 0.2279651165008545
visibility: 0.9448126554489136
","x: 243.9622344970703
y: 493.1149597167969
z: 0.18454506993293762
visibility: 0.9512453675270081
","x: 304.7521667480469
y: 517.6349487304688
z: 0.12036587297916412
visibility: 0.997373640537262
","x: 251.02285766601562
y: 513.1846313476562
z: 0.05276690050959587
visibility: 0.9944456219673157
",5.136400938034058,,,,,,,,,,,,,,,,,,,,,,,,,,,,,,,,,,,,,,,,,,
18,"x: 284.29193115234375
y: 249.400390625
z: -0.29466941952705383
visibility: 0.9999737739562988
","x: 285.71087646484375
y: 244.69024658203125
z: -0.2782279849052429
visibility: 0.9999334812164307
","x: 286.8550109863281
y: 244.92225646972656
z: -0.2781614661216736
visibility: 0.9999423027038574
","x: 287.91839599609375
y: 245.24423217773438
z: -0.2782265841960907
visibility: 0.9999357461929321
","x: 282.0419921875
y: 244.74362182617188
z: -0.28261619806289673
visibility: 0.9999271035194397
","x: 280.70355224609375
y: 244.90060424804688
z: -0.2826681435108185
visibility: 0.9999104142189026
","x: 279.4112243652344
y: 245.0487060546875
z: -0.2826812267303467
visibility: 0.9998898506164551
","x: 288.903076171875
y: 250.07769775390625
z: -0.16952607035636902
visibility: 0.9999247193336487
","x: 277.4778137207031
y: 248.93150329589844
z: -0.1926880180835724
visibility: 0.999826967716217
","x: 286.3507995605469
y: 257.1031494140625
z: -0.2539057731628418
visibility: 0.9999585747718811
","x: 281.5845031738281
y: 256.1804504394531
z: -0.26074156165122986
visibility: 0.9999285936355591
","x: 295.0216064453125
y: 285.0108642578125
z: -0.052216630429029465
visibility: 0.9999693632125854
","x: 267.2381286621094
y: 276.8722229003906
z: -0.13571064174175262
visibility: 0.9998448491096497
","x: 298.2803955078125
y: 315.74945068359375
z: 0.13428524136543274
visibility: 0.9235442280769348
","x: 253.1827392578125
y: 304.0887145996094
z: -0.19843222200870514
visibility: 0.631152331829071
","x: 307.0116271972656
y: 315.8794860839844
z: 0.26674461364746094
visibility: 0.9517365097999573
","x: 249.28465270996094
y: 307.24267578125
z: -0.32502317428588867
visibility: 0.7454581260681152
","x: 310.2979736328125
y: 313.56268310546875
z: 0.29390567541122437
visibility: 0.9399869441986084
","x: 246.48251342773438
y: 307.7630920410156
z: -0.35018283128738403
visibility: 0.7179685831069946
","x: 310.29083251953125
y: 312.3507385253906
z: 0.26865360140800476
visibility: 0.9430174231529236
","x: 249.98265075683594
y: 306.46099853515625
z: -0.36045002937316895
visibility: 0.7250733375549316
","x: 308.7590026855469
y: 313.3127136230469
z: 0.261534184217453
visibility: 0.9205306768417358
","x: 251.91241455078125
y: 306.06268310546875
z: -0.33207783102989197
visibility: 0.7007288336753845
","x: 289.0810546875
y: 369.978759765625
z: 0.014691747725009918
visibility: 0.9999123215675354
","x: 267.46807861328125
y: 369.3913269042969
z: -0.014975493773818016
visibility: 0.9998760223388672
","x: 296.1903991699219
y: 435.9920959472656
z: -0.0039453268982470036
visibility: 0.9979943633079529
","x: 259.076904296875
y: 435.0618896484375
z: -0.04003014415502548
visibility: 0.9882259368896484
","x: 303.7444763183594
y: 490.9332275390625
z: 0.2123490869998932
visibility: 0.99842768907547
","x: 246.55621337890625
y: 487.7106018066406
z: 0.1533038467168808
visibility: 0.9942996501922607
","x: 303.7062683105469
y: 497.06121826171875
z: 0.2279651165008545
visibility: 0.9448126554489136
","x: 243.9622344970703
y: 493.1149597167969
z: 0.18454506993293762
visibility: 0.9512453675270081
","x: 304.7521667480469
y: 517.6349487304688
z: 0.12036587297916412
visibility: 0.997373640537262
","x: 251.02285766601562
y: 513.1846313476562
z: 0.05276690050959587
visibility: 0.9944456219673157
",5.136400938034058,,,,,,,,,,,,,,,,,,,,,,,,,,,,,,,,,,,,,,,,,,
19,"x: 281.7242431640625
y: 247.67462158203125
z: -0.20750483870506287
visibility: 0.9999759197235107
","x: 283.10931396484375
y: 242.9639434814453
z: -0.19429996609687805
visibility: 0.9999393224716187
","x: 284.02447509765625
y: 243.13316345214844
z: -0.1942947655916214
visibility: 0.9999473094940186
","x: 284.9329833984375
y: 243.34982299804688
z: -0.19431018829345703
visibility: 0.9999412894248962
","x: 279.9864196777344
y: 242.79031372070312
z: -0.1963338553905487
visibility: 0.9999329447746277
","x: 278.72869873046875
y: 242.78933715820312
z: -0.19634602963924408
visibility: 0.9999178051948547
","x: 277.4155578613281
y: 242.79263305664062
z: -0.19630691409111023
visibility: 0.9998992085456848
","x: 286.06060791015625
y: 247.0631103515625
z: -0.09773217886686325
visibility: 0.9999312162399292
","x: 275.0193176269531
y: 246.03466796875
z: -0.10124583542346954
visibility: 0.9998424053192139
","x: 283.4554443359375
y: 254.81040954589844
z: -0.16944685578346252
visibility: 0.9999621510505676
","x: 279.4753112792969
y: 254.1984405517578
z: -0.17166057229042053
visibility: 0.9999350309371948
","x: 293.22308349609375
y: 279.8569030761719
z: -0.040080875158309937
visibility: 0.9999679923057556
","x: 266.2221374511719
y: 273.1884460449219
z: -0.0745241716504097
visibility: 0.9998450875282288
","x: 298.4494934082031
y: 298.8445739746094
z: -0.1305534690618515
visibility: 0.9253299832344055
","x: 252.03695678710938
y: 293.8584289550781
z: -0.0841575413942337
visibility: 0.6642418503761292
","x: 297.5120544433594
y: 266.574951171875
z: -0.33642223477363586
visibility: 0.9526726007461548
","x: 238.48741149902344
y: 295.9991760253906
z: -0.20518800616264343
visibility: 0.7665313482284546
","x: 296.9341735839844
y: 260.1780090332031
z: -0.37327471375465393
visibility: 0.9401991367340088
","x: 232.77072143554688
y: 295.1586608886719
z: -0.2314179390668869
visibility: 0.7385865449905396
","x: 296.3388977050781
y: 259.9454345703125
z: -0.3797540068626404
visibility: 0.9429149627685547
","x: 232.87648010253906
y: 293.1802978515625
z: -0.24810492992401123
visibility: 0.74577796459198
","x: 301.8948669433594
y: 271.03570556640625
z: -0.34470081329345703
visibility: 0.9206441044807434
","x: 235.6758270263672
y: 294.02056884765625
z: -0.21559198200702667
visibility: 0.7231026887893677
","x: 287.2928771972656
y: 363.8551025390625
z: -0.0011017686920240521
visibility: 0.9999138116836548
","x: 266.83154296875
y: 362.5640563964844
z: 0.0009373573702760041
visibility: 0.9998695850372314
","x: 295.04339599609375
y: 432.6010437011719
z: -0.030124381184577942
visibility: 0.998107373714447
","x: 257.28387451171875
y: 432.46575927734375
z: -0.017340319231152534
visibility: 0.98928302526474
","x: 304.8633117675781
y: 490.6461181640625
z: 0.11555790901184082
visibility: 0.9984332919120789
","x: 244.78494262695312
y: 487.16119384765625
z: 0.112607941031456
visibility: 0.9946624040603638
","x: 304.969970703125
y: 496.1070251464844
z: 0.12406677007675171
visibility: 0.9365296363830566
","x: 243.1871795654297
y: 493.2409362792969
z: 0.12227952480316162
visibility: 0.9449401497840881
","x: 304.3215637207031
y: 517.5199584960938
z: 0.012539583258330822
visibility: 0.9972556233406067
","x: 247.42572021484375
y: 513.0972900390625
z: 0.012182807549834251
visibility: 0.9945364594459534
",5.294711589813232,,,,,,,,,,,,,,,,,,,,,,,,,,,,,,,,,,,,,,,,,,
20,"x: 281.7242431640625
y: 247.67462158203125
z: -0.20750483870506287
visibility: 0.9999759197235107
","x: 283.10931396484375
y: 242.9639434814453
z: -0.19429996609687805
visibility: 0.9999393224716187
","x: 284.02447509765625
y: 243.13316345214844
z: -0.1942947655916214
visibility: 0.9999473094940186
","x: 284.9329833984375
y: 243.34982299804688
z: -0.19431018829345703
visibility: 0.9999412894248962
","x: 279.9864196777344
y: 242.79031372070312
z: -0.1963338553905487
visibility: 0.9999329447746277
","x: 278.72869873046875
y: 242.78933715820312
z: -0.19634602963924408
visibility: 0.9999178051948547
","x: 277.4155578613281
y: 242.79263305664062
z: -0.19630691409111023
visibility: 0.9998992085456848
","x: 286.06060791015625
y: 247.0631103515625
z: -0.09773217886686325
visibility: 0.9999312162399292
","x: 275.0193176269531
y: 246.03466796875
z: -0.10124583542346954
visibility: 0.9998424053192139
","x: 283.4554443359375
y: 254.81040954589844
z: -0.16944685578346252
visibility: 0.9999621510505676
","x: 279.4753112792969
y: 254.1984405517578
z: -0.17166057229042053
visibility: 0.9999350309371948
","x: 293.22308349609375
y: 279.8569030761719
z: -0.040080875158309937
visibility: 0.9999679923057556
","x: 266.2221374511719
y: 273.1884460449219
z: -0.0745241716504097
visibility: 0.9998450875282288
","x: 298.4494934082031
y: 298.8445739746094
z: -0.1305534690618515
visibility: 0.9253299832344055
","x: 252.03695678710938
y: 293.8584289550781
z: -0.0841575413942337
visibility: 0.6642418503761292
","x: 297.5120544433594
y: 266.574951171875
z: -0.33642223477363586
visibility: 0.9526726007461548
","x: 238.48741149902344
y: 295.9991760253906
z: -0.20518800616264343
visibility: 0.7665313482284546
","x: 296.9341735839844
y: 260.1780090332031
z: -0.37327471375465393
visibility: 0.9401991367340088
","x: 232.77072143554688
y: 295.1586608886719
z: -0.2314179390668869
visibility: 0.7385865449905396
","x: 296.3388977050781
y: 259.9454345703125
z: -0.3797540068626404
visibility: 0.9429149627685547
","x: 232.87648010253906
y: 293.1802978515625
z: -0.24810492992401123
visibility: 0.74577796459198
","x: 301.8948669433594
y: 271.03570556640625
z: -0.34470081329345703
visibility: 0.9206441044807434
","x: 235.6758270263672
y: 294.02056884765625
z: -0.21559198200702667
visibility: 0.7231026887893677
","x: 287.2928771972656
y: 363.8551025390625
z: -0.0011017686920240521
visibility: 0.9999138116836548
","x: 266.83154296875
y: 362.5640563964844
z: 0.0009373573702760041
visibility: 0.9998695850372314
","x: 295.04339599609375
y: 432.6010437011719
z: -0.030124381184577942
visibility: 0.998107373714447
","x: 257.28387451171875
y: 432.46575927734375
z: -0.017340319231152534
visibility: 0.98928302526474
","x: 304.8633117675781
y: 490.6461181640625
z: 0.11555790901184082
visibility: 0.9984332919120789
","x: 244.78494262695312
y: 487.16119384765625
z: 0.112607941031456
visibility: 0.9946624040603638
","x: 304.969970703125
y: 496.1070251464844
z: 0.12406677007675171
visibility: 0.9365296363830566
","x: 243.1871795654297
y: 493.2409362792969
z: 0.12227952480316162
visibility: 0.9449401497840881
","x: 304.3215637207031
y: 517.5199584960938
z: 0.012539583258330822
visibility: 0.9972556233406067
","x: 247.42572021484375
y: 513.0972900390625
z: 0.012182807549834251
visibility: 0.9945364594459534
",5.294711589813232,,,,,,,,,,,,,,,,,,,,,,,,,,,,,,,,,,,,,,,,,,
21,"x: 279.0515441894531
y: 264.0842590332031
z: -0.2704105079174042
visibility: 0.9999772310256958
","x: 280.8302917480469
y: 258.5311279296875
z: -0.25968512892723083
visibility: 0.9999391436576843
","x: 281.70758056640625
y: 258.4102783203125
z: -0.25966593623161316
visibility: 0.9999470710754395
","x: 282.54107666015625
y: 258.2976379394531
z: -0.2596994638442993
visibility: 0.9999409914016724
","x: 277.6298828125
y: 259.175537109375
z: -0.2601490616798401
visibility: 0.9999333620071411
","x: 276.2967224121094
y: 259.5063171386719
z: -0.2602110505104065
visibility: 0.9999207258224487
","x: 274.8863525390625
y: 259.78070068359375
z: -0.26020383834838867
visibility: 0.9999036192893982
","x: 283.5334167480469
y: 260.3799743652344
z: -0.1740589439868927
visibility: 0.9999306797981262
","x: 272.49578857421875
y: 261.9945068359375
z: -0.17430493235588074
visibility: 0.9998496770858765
","x: 280.6229248046875
y: 269.99078369140625
z: -0.23667630553245544
visibility: 0.999962329864502
","x: 276.535888671875
y: 270.1266174316406
z: -0.2369178980588913
visibility: 0.9999380111694336
","x: 292.1463623046875
y: 289.1354064941406
z: -0.10272302478551865
visibility: 0.9999690055847168
","x: 263.6670227050781
y: 285.61956787109375
z: -0.1095280647277832
visibility: 0.9998541474342346
","x: 309.60919189453125
y: 300.1136474609375
z: -0.10547808557748795
visibility: 0.9325708746910095
","x: 241.0262451171875
y: 299.42962646484375
z: -0.09693659842014313
visibility: 0.6976639628410339
","x: 329.35723876953125
y: 287.2085876464844
z: -0.20143234729766846
visibility: 0.9568337798118591
","x: 218.25851440429688
y: 307.4179992675781
z: -0.184066504240036
visibility: 0.7893775701522827
","x: 335.8524475097656
y: 277.5995788574219
z: -0.22260317206382751
visibility: 0.9440764784812927
","x: 210.7744903564453
y: 312.67230224609375
z: -0.21008236706256866
visibility: 0.7627801895141602
","x: 336.8831787109375
y: 260.930419921875
z: -0.2588846981525421
visibility: 0.9468680024147034
","x: 210.83473205566406
y: 311.9317321777344
z: -0.23095257580280304
visibility: 0.7696024775505066
","x: 334.7088928222656
y: 284.1170959472656
z: -0.2222270518541336
visibility: 0.9267973899841309
","x: 213.60641479492188
y: 310.9671936035156
z: -0.19665642082691193
visibility: 0.7491499185562134
","x: 286.43170166015625
y: 373.7209777832031
z: -0.002130333799868822
visibility: 0.9998871088027954
","x: 266.1670837402344
y: 373.12396240234375
z: 0.0020541425328701735
visibility: 0.999837338924408
","x: 295.3251647949219
y: 436.12322998046875
z: -0.03902636095881462
visibility: 0.9982408285140991
","x: 249.00392150878906
y: 438.69097900390625
z: -0.021127529442310333
visibility: 0.990277886390686
","x: 305.58685302734375
y: 490.6698303222656
z: 0.11453837156295776
visibility: 0.9984703660011292
","x: 235.75027465820312
y: 490.82989501953125
z: 0.11148904263973236
visibility: 0.9950399994850159
","x: 305.63800048828125
y: 496.2598876953125
z: 0.12413389980792999
visibility: 0.9348169565200806
","x: 235.19139099121094
y: 495.5188293457031
z: 0.11975868791341782
visibility: 0.9441238641738892
","x: 305.1097412109375
y: 515.395751953125
z: 0.01376474928110838
visibility: 0.9971897602081299
","x: 235.19371032714844
y: 512.7198486328125
z: 0.016166282817721367
visibility: 0.9947118759155273
",5.41899847984314,,,,,,,,,,,,,,,,,,,,,,,,,,,,,,,,,,,,,,,,,,
22,"x: 279.0515441894531
y: 264.0842590332031
z: -0.2704105079174042
visibility: 0.9999772310256958
","x: 280.8302917480469
y: 258.5311279296875
z: -0.25968512892723083
visibility: 0.9999391436576843
","x: 281.70758056640625
y: 258.4102783203125
z: -0.25966593623161316
visibility: 0.9999470710754395
","x: 282.54107666015625
y: 258.2976379394531
z: -0.2596994638442993
visibility: 0.9999409914016724
","x: 277.6298828125
y: 259.175537109375
z: -0.2601490616798401
visibility: 0.9999333620071411
","x: 276.2967224121094
y: 259.5063171386719
z: -0.2602110505104065
visibility: 0.9999207258224487
","x: 274.8863525390625
y: 259.78070068359375
z: -0.26020383834838867
visibility: 0.9999036192893982
","x: 283.5334167480469
y: 260.3799743652344
z: -0.1740589439868927
visibility: 0.9999306797981262
","x: 272.49578857421875
y: 261.9945068359375
z: -0.17430493235588074
visibility: 0.9998496770858765
","x: 280.6229248046875
y: 269.99078369140625
z: -0.23667630553245544
visibility: 0.999962329864502
","x: 276.535888671875
y: 270.1266174316406
z: -0.2369178980588913
visibility: 0.9999380111694336
","x: 292.1463623046875
y: 289.1354064941406
z: -0.10272302478551865
visibility: 0.9999690055847168
","x: 263.6670227050781
y: 285.61956787109375
z: -0.1095280647277832
visibility: 0.9998541474342346
","x: 309.60919189453125
y: 300.1136474609375
z: -0.10547808557748795
visibility: 0.9325708746910095
","x: 241.0262451171875
y: 299.42962646484375
z: -0.09693659842014313
visibility: 0.6976639628410339
","x: 329.35723876953125
y: 287.2085876464844
z: -0.20143234729766846
visibility: 0.9568337798118591
","x: 218.25851440429688
y: 307.4179992675781
z: -0.184066504240036
visibility: 0.7893775701522827
","x: 335.8524475097656
y: 277.5995788574219
z: -0.22260317206382751
visibility: 0.9440764784812927
","x: 210.7744903564453
y: 312.67230224609375
z: -0.21008236706256866
visibility: 0.7627801895141602
","x: 336.8831787109375
y: 260.930419921875
z: -0.2588846981525421
visibility: 0.9468680024147034
","x: 210.83473205566406
y: 311.9317321777344
z: -0.23095257580280304
visibility: 0.7696024775505066
","x: 334.7088928222656
y: 284.1170959472656
z: -0.2222270518541336
visibility: 0.9267973899841309
","x: 213.60641479492188
y: 310.9671936035156
z: -0.19665642082691193
visibility: 0.7491499185562134
","x: 286.43170166015625
y: 373.7209777832031
z: -0.002130333799868822
visibility: 0.9998871088027954
","x: 266.1670837402344
y: 373.12396240234375
z: 0.0020541425328701735
visibility: 0.999837338924408
","x: 295.3251647949219
y: 436.12322998046875
z: -0.03902636095881462
visibility: 0.9982408285140991
","x: 249.00392150878906
y: 438.69097900390625
z: -0.021127529442310333
visibility: 0.990277886390686
","x: 305.58685302734375
y: 490.6698303222656
z: 0.11453837156295776
visibility: 0.9984703660011292
","x: 235.75027465820312
y: 490.82989501953125
z: 0.11148904263973236
visibility: 0.9950399994850159
","x: 305.63800048828125
y: 496.2598876953125
z: 0.12413389980792999
visibility: 0.9348169565200806
","x: 235.19139099121094
y: 495.5188293457031
z: 0.11975868791341782
visibility: 0.9441238641738892
","x: 305.1097412109375
y: 515.395751953125
z: 0.01376474928110838
visibility: 0.9971897602081299
","x: 235.19371032714844
y: 512.7198486328125
z: 0.016166282817721367
visibility: 0.9947118759155273
",5.41899847984314,,,,,,,,,,,,,,,,,,,,,,,,,,,,,,,,,,,,,,,,,,
23,"x: 277.6357116699219
y: 286.80853271484375
z: -0.3135865330696106
visibility: 0.9999783039093018
","x: 278.8678894042969
y: 281.87603759765625
z: -0.30405890941619873
visibility: 0.999938428401947
","x: 278.9953918457031
y: 281.7958984375
z: -0.3040314018726349
visibility: 0.9999462962150574
","x: 279.2961120605469
y: 281.7837829589844
z: -0.304100900888443
visibility: 0.9999406933784485
","x: 277.34417724609375
y: 282.4894104003906
z: -0.3044341504573822
visibility: 0.9999322295188904
","x: 275.715576171875
y: 282.89556884765625
z: -0.3045254051685333
visibility: 0.9999216794967651
","x: 274.19586181640625
y: 283.3603515625
z: -0.3045298457145691
visibility: 0.9999052286148071
","x: 278.7440185546875
y: 285.35174560546875
z: -0.22936303913593292
visibility: 0.9999322295188904
","x: 271.09820556640625
y: 287.9281311035156
z: -0.2291042059659958
visibility: 0.9998546242713928
","x: 280.53790283203125
y: 293.55224609375
z: -0.284359872341156
visibility: 0.9999619126319885
","x: 275.3376770019531
y: 293.89971923828125
z: -0.28420788049697876
visibility: 0.9999375343322754
","x: 291.1579284667969
y: 310.1706237792969
z: -0.17347975075244904
visibility: 0.9999704360961914
","x: 258.83294677734375
y: 312.5257263183594
z: -0.16779658198356628
visibility: 0.9998563528060913
","x: 309.6701354980469
y: 317.7641906738281
z: -0.1835048943758011
visibility: 0.9392226338386536
","x: 237.9755401611328
y: 323.5235900878906
z: -0.17004379630088806
visibility: 0.7277420163154602
","x: 330.17083740234375
y: 327.08001708984375
z: -0.2680964767932892
visibility: 0.9607912302017212
","x: 214.03884887695312
y: 334.663330078125
z: -0.23851875960826874
visibility: 0.8096649050712585
","x: 336.9355163574219
y: 330.8204650878906
z: -0.2898857593536377
visibility: 0.9480676651000977
","x: 208.3910369873047
y: 339.9905700683594
z: -0.2583441138267517
visibility: 0.7835333347320557
","x: 337.2660217285156
y: 329.70269775390625
z: -0.315331369638443
visibility: 0.9508612751960754
","x: 208.19569396972656
y: 340.90899658203125
z: -0.2849158048629761
visibility: 0.7901437282562256
","x: 335.1017150878906
y: 331.0798645019531
z: -0.28293538093566895
visibility: 0.9327226281166077
","x: 210.6530303955078
y: 340.248046875
z: -0.2532886564731598
visibility: 0.7716493010520935
","x: 286.040771484375
y: 393.7127685546875
z: -0.004236734472215176
visibility: 0.9998584985733032
","x: 263.8297424316406
y: 393.7042236328125
z: 0.004175690468400717
visibility: 0.9998190999031067
","x: 297.45294189453125
y: 449.01910400390625
z: -0.14177629351615906
visibility: 0.9983011484146118
","x: 243.4563751220703
y: 447.28289794921875
z: -0.10519812256097794
visibility: 0.9911497831344604
","x: 303.2533874511719
y: 493.04443359375
z: 0.05829159542918205
visibility: 0.9983924031257629
","x: 234.5888671875
y: 495.85614013671875
z: 0.07568048685789108
visibility: 0.9953415989875793
","x: 302.99383544921875
y: 499.1116638183594
z: 0.07318878173828125
visibility: 0.9365968704223633
","x: 236.10873413085938
y: 501.98974609375
z: 0.08820533007383347
visibility: 0.9461836814880371
","x: 306.519775390625
y: 515.803955078125
z: -0.02583574317395687
visibility: 0.9968085885047913
","x: 229.21371459960938
y: 512.7601928710938
z: -0.0021974947303533554
visibility: 0.9947012662887573
",5.543515920639038,,,,,,,,,,,,,,,,,,,,,,,,,,,,,,,,,,,,,,,,,,
24,"x: 277.6357116699219
y: 286.80853271484375
z: -0.3135865330696106
visibility: 0.9999783039093018
","x: 278.8678894042969
y: 281.87603759765625
z: -0.30405890941619873
visibility: 0.999938428401947
","x: 278.9953918457031
y: 281.7958984375
z: -0.3040314018726349
visibility: 0.9999462962150574
","x: 279.2961120605469
y: 281.7837829589844
z: -0.304100900888443
visibility: 0.9999406933784485
","x: 277.34417724609375
y: 282.4894104003906
z: -0.3044341504573822
visibility: 0.9999322295188904
","x: 275.715576171875
y: 282.89556884765625
z: -0.3045254051685333
visibility: 0.9999216794967651
","x: 274.19586181640625
y: 283.3603515625
z: -0.3045298457145691
visibility: 0.9999052286148071
","x: 278.7440185546875
y: 285.35174560546875
z: -0.22936303913593292
visibility: 0.9999322295188904
","x: 271.09820556640625
y: 287.9281311035156
z: -0.2291042059659958
visibility: 0.9998546242713928
","x: 280.53790283203125
y: 293.55224609375
z: -0.284359872341156
visibility: 0.9999619126319885
","x: 275.3376770019531
y: 293.89971923828125
z: -0.28420788049697876
visibility: 0.9999375343322754
","x: 291.1579284667969
y: 310.1706237792969
z: -0.17347975075244904
visibility: 0.9999704360961914
","x: 258.83294677734375
y: 312.5257263183594
z: -0.16779658198356628
visibility: 0.9998563528060913
","x: 309.6701354980469
y: 317.7641906738281
z: -0.1835048943758011
visibility: 0.9392226338386536
","x: 237.9755401611328
y: 323.5235900878906
z: -0.17004379630088806
visibility: 0.7277420163154602
","x: 330.17083740234375
y: 327.08001708984375
z: -0.2680964767932892
visibility: 0.9607912302017212
","x: 214.03884887695312
y: 334.663330078125
z: -0.23851875960826874
visibility: 0.8096649050712585
","x: 336.9355163574219
y: 330.8204650878906
z: -0.2898857593536377
visibility: 0.9480676651000977
","x: 208.3910369873047
y: 339.9905700683594
z: -0.2583441138267517
visibility: 0.7835333347320557
","x: 337.2660217285156
y: 329.70269775390625
z: -0.315331369638443
visibility: 0.9508612751960754
","x: 208.19569396972656
y: 340.90899658203125
z: -0.2849158048629761
visibility: 0.7901437282562256
","x: 335.1017150878906
y: 331.0798645019531
z: -0.28293538093566895
visibility: 0.9327226281166077
","x: 210.6530303955078
y: 340.248046875
z: -0.2532886564731598
visibility: 0.7716493010520935
","x: 286.040771484375
y: 393.7127685546875
z: -0.004236734472215176
visibility: 0.9998584985733032
","x: 263.8297424316406
y: 393.7042236328125
z: 0.004175690468400717
visibility: 0.9998190999031067
","x: 297.45294189453125
y: 449.01910400390625
z: -0.14177629351615906
