uscmakers/ReverseChoreography/data/10_intuition_interlude_jamie_foxx.csv
,NOSE,LEFT_EYE_INNER,LEFT_EYE,LEFT_EYE_OUTER,RIGHT_EYE_INNER,RIGHT_EYE,RIGHT_EYE_OUTER,LEFT_EAR,RIGHT_EAR,MOUTH_LEFT,MOUTH_RIGHT,LEFT_SHOULDER,RIGHT_SHOULDER,LEFT_ELBOW,RIGHT_ELBOW,LEFT_WRIST,RIGHT_WRIST,LEFT_PINKY,RIGHT_PINKY,LEFT_INDEX,RIGHT_INDEX,LEFT_THUMB,RIGHT_THUMB,LEFT_HIP,RIGHT_HIP,LEFT_KNEE,RIGHT_KNEE,LEFT_ANKLE,RIGHT_ANKLE,LEFT_HEEL,RIGHT_HEEL,LEFT_FOOT_INDEX,RIGHT_FOOT_INDEX,WRIST2,THUMB_CPC2,THUMB_MCP2,THUMB_IP2,THUMB_TIP2,INDEX_FINGER_MCP2,INDEX_FINGER_PIP2,INDEX_FINGER_DIP2,INDEX_FINGER_TIP2,MIDDLE_FINGER_MCP2,MIDDLE_FINGER_PIP2,MIDDLE_FINGER_DIP2,MIDDLE_FINGER_TIP2,RING_FINGER_PIP2,RING_FINGER_DIP2,RING_FINGER_TIP2,RING_FINGER_MCP2,PINKY_MCP2,PINKY_PIP2,PINKY_DIP2,PINKY_TIP2,TIMESTAMP,WRIST,THUMB_CPC,THUMB_MCP,THUMB_IP,THUMB_TIP,INDEX_FINGER_MCP,INDEX_FINGER_PIP,INDEX_FINGER_DIP,INDEX_FINGER_TIP,MIDDLE_FINGER_MCP,MIDDLE_FINGER_PIP,MIDDLE_FINGER_DIP,MIDDLE_FINGER_TIP,RING_FINGER_PIP,RING_FINGER_DIP,RING_FINGER_TIP,RING_FINGER_MCP,PINKY_MCP,PINKY_PIP,PINKY_DIP,PINKY_TIP
0,"x: 243.12548828125
y: 238.8616943359375
z: -0.2983158230781555
visibility: 0.999901533126831
","x: 244.98390197753906
y: 233.292236328125
z: -0.2814600169658661
visibility: 0.9997331500053406
","x: 246.25222778320312
y: 233.6859893798828
z: -0.2814902663230896
visibility: 0.9997404217720032
","x: 247.57180786132812
y: 234.15402221679688
z: -0.2815536558628082
visibility: 0.99978107213974
","x: 241.1087646484375
y: 232.8491973876953
z: -0.2845490276813507
visibility: 0.9996498823165894
","x: 239.4945831298828
y: 233.02520751953125
z: -0.28455156087875366
visibility: 0.9995850920677185
","x: 237.9162139892578
y: 233.3741912841797
z: -0.2845781743526459
visibility: 0.9995256662368774
","x: 249.46701049804688
y: 238.72274780273438
z: -0.1738576740026474
visibility: 0.9995269775390625
","x: 234.77969360351562
y: 238.76564025878906
z: -0.1884666085243225
visibility: 0.9988277554512024
","x: 245.2073211669922
y: 246.5325927734375
z: -0.2574138343334198
visibility: 0.9998557567596436
","x: 239.99075317382812
y: 245.9783172607422
z: -0.2617896795272827
visibility: 0.9997727274894714
","x: 262.65374755859375
y: 281.1697998046875
z: -0.09803202748298645
visibility: 0.9999028444290161
","x: 222.9231719970703
y: 281.519287109375
z: -0.1137714758515358
visibility: 0.9991734623908997
","x: 266.16357421875
y: 331.9617919921875
z: -0.05048736184835434
visibility: 0.9498392343521118
","x: 216.58319091796875
y: 331.5372009277344
z: -0.08573968708515167
visibility: 0.7331105470657349
","x: 269.30560302734375
y: 377.685791015625
z: -0.12197653204202652
visibility: 0.894525408744812
","x: 220.12318420410156
y: 378.711669921875
z: -0.15987779200077057
visibility: 0.39406618475914
","x: 269.98626708984375
y: 391.615966796875
z: -0.14527595043182373
visibility: 0.8153131604194641
","x: 217.01084899902344
y: 394.51171875
z: -0.18612101674079895
visibility: 0.336891233921051
","x: 268.1319274902344
y: 392.29718017578125
z: -0.176378071308136
visibility: 0.8272963762283325
","x: 218.93470764160156
y: 395.89007568359375
z: -0.21731631457805634
visibility: 0.3494150936603546
","x: 266.9103698730469
y: 387.8369445800781
z: -0.1355588436126709
visibility: 0.7944433093070984
","x: 220.72079467773438
y: 390.02203369140625
z: -0.1745000034570694
visibility: 0.3329785466194153
","x: 254.3431396484375
y: 378.230712890625
z: 0.009471248835325241
visibility: 0.999610960483551
","x: 228.91879272460938
y: 379.7602844238281
z: -0.009491431526839733
visibility: 0.9994292855262756
","x: 258.8305358886719
y: 462.16070556640625
z: -0.01924636773765087
visibility: 0.9929900169372559
","x: 231.17909240722656
y: 461.7093200683594
z: -0.020388010889291763
visibility: 0.9919832348823547
","x: 257.93017578125
y: 533.1641845703125
z: 0.12046276032924652
visibility: 0.9942734837532043
","x: 230.85470581054688
y: 535.1058349609375
z: 0.12162663787603378
visibility: 0.9942189455032349
","x: 254.2425994873047
y: 544.2803955078125
z: 0.12633636593818665
visibility: 0.9140848517417908
","x: 233.0296630859375
y: 544.9871215820312
z: 0.12730365991592407
visibility: 0.8637068867683411
","x: 264.86322021484375
y: 561.1708984375
z: -3.7134948797756806e-05
visibility: 0.9895846247673035
","x: 227.77374267578125
y: 560.2466430664062
z: -0.0012560301693156362
visibility: 0.9897133111953735
","x: 269.6407775878906
y: 373.5151672363281
z: 0.0
","x: 266.9901428222656
y: 379.9735107421875
z: 0.0026963751297444105
","x: 266.759033203125
y: 386.46295166015625
z: 0.003692331025376916
","x: 266.4748229980469
y: 391.4383544921875
z: 0.0036016409285366535
","x: 266.8580322265625
y: 395.046630859375
z: 0.003933423198759556
","x: 272.85943603515625
y: 391.40142822265625
z: 0.004886728245764971
","x: 271.670166015625
y: 399.21343994140625
z: 0.004205553792417049
","x: 269.0184020996094
y: 400.71124267578125
z: 0.003777863457798958
","x: 267.0176696777344
y: 399.93359375
z: 0.0038337071891874075
","x: 273.5726013183594
y: 391.72491455078125
z: 0.0025866227224469185
","x: 272.0330810546875
y: 400.1518249511719
z: 0.0018198007019236684
","x: 268.9563293457031
y: 401.324462890625
z: 0.0012757034273818135
","x: 266.8934631347656
y: 400.1524658203125
z: 0.0012197337346151471
","x: 273.42718505859375
y: 391.7061767578125
z: 0.00010562599345576018
","x: 271.77557373046875
y: 399.70733642578125
z: -0.00037614128086715937
","x: 268.7725830078125
y: 401.06182861328125
z: -0.00011567399633349851
","x: 266.6980285644531
y: 400.00848388671875
z: 0.00022541280486620963
","x: 272.3521728515625
y: 391.2614440917969
z: -0.0024139436427503824
","x: 270.9566345214844
y: 398.35015869140625
z: -0.0026264903135597706
","x: 268.7008361816406
y: 400.33721923828125
z: -0.002111736685037613
","x: 266.8510437011719
y: 400.01934814453125
z: -0.0015171252889558673
",3.545924663543701,,,,,,,,,,,,,,,,,,,,,
1,"x: 243.12548828125
y: 238.8616943359375
z: -0.2983158230781555
visibility: 0.999901533126831
","x: 244.98390197753906
y: 233.292236328125
z: -0.2814600169658661
visibility: 0.9997331500053406
","x: 246.25222778320312
y: 233.6859893798828
z: -0.2814902663230896
visibility: 0.9997404217720032
","x: 247.57180786132812
y: 234.15402221679688
z: -0.2815536558628082
visibility: 0.99978107213974
","x: 241.1087646484375
y: 232.8491973876953
z: -0.2845490276813507
visibility: 0.9996498823165894
","x: 239.4945831298828
y: 233.02520751953125
z: -0.28455156087875366
visibility: 0.9995850920677185
","x: 237.9162139892578
y: 233.3741912841797
z: -0.2845781743526459
visibility: 0.9995256662368774
","x: 249.46701049804688
y: 238.72274780273438
z: -0.1738576740026474
visibility: 0.9995269775390625
","x: 234.77969360351562
y: 238.76564025878906
z: -0.1884666085243225
visibility: 0.9988277554512024
","x: 245.2073211669922
y: 246.5325927734375
z: -0.2574138343334198
visibility: 0.9998557567596436
","x: 239.99075317382812
y: 245.9783172607422
z: -0.2617896795272827
visibility: 0.9997727274894714
","x: 262.65374755859375
y: 281.1697998046875
z: -0.09803202748298645
visibility: 0.9999028444290161
","x: 222.9231719970703
y: 281.519287109375
z: -0.1137714758515358
visibility: 0.9991734623908997
","x: 266.16357421875
y: 331.9617919921875
z: -0.05048736184835434
visibility: 0.9498392343521118
","x: 216.58319091796875
y: 331.5372009277344
z: -0.08573968708515167
visibility: 0.7331105470657349
","x: 269.30560302734375
y: 377.685791015625
z: -0.12197653204202652
visibility: 0.894525408744812
","x: 220.12318420410156
y: 378.711669921875
z: -0.15987779200077057
visibility: 0.39406618475914
","x: 269.98626708984375
y: 391.615966796875
z: -0.14527595043182373
visibility: 0.8153131604194641
","x: 217.01084899902344
y: 394.51171875
z: -0.18612101674079895
visibility: 0.336891233921051
","x: 268.1319274902344
y: 392.29718017578125
z: -0.176378071308136
visibility: 0.8272963762283325
","x: 218.93470764160156
y: 395.89007568359375
z: -0.21731631457805634
visibility: 0.3494150936603546
","x: 266.9103698730469
y: 387.8369445800781
z: -0.1355588436126709
visibility: 0.7944433093070984
","x: 220.72079467773438
y: 390.02203369140625
z: -0.1745000034570694
visibility: 0.3329785466194153
","x: 254.3431396484375
y: 378.230712890625
z: 0.009471248835325241
visibility: 0.999610960483551
","x: 228.91879272460938
y: 379.7602844238281
z: -0.009491431526839733
visibility: 0.9994292855262756
","x: 258.8305358886719
y: 462.16070556640625
z: -0.01924636773765087
visibility: 0.9929900169372559
","x: 231.17909240722656
y: 461.7093200683594
z: -0.020388010889291763
visibility: 0.9919832348823547
","x: 257.93017578125
y: 533.1641845703125
z: 0.12046276032924652
visibility: 0.9942734837532043
","x: 230.85470581054688
y: 535.1058349609375
z: 0.12162663787603378
visibility: 0.9942189455032349
","x: 254.2425994873047
y: 544.2803955078125
z: 0.12633636593818665
visibility: 0.9140848517417908
","x: 233.0296630859375
y: 544.9871215820312
z: 0.12730365991592407
visibility: 0.8637068867683411
","x: 264.86322021484375
y: 561.1708984375
z: -3.7134948797756806e-05
visibility: 0.9895846247673035
","x: 227.77374267578125
y: 560.2466430664062
z: -0.0012560301693156362
visibility: 0.9897133111953735
","x: 269.6407775878906
y: 373.5151672363281
z: 0.0
","x: 266.9901428222656
y: 379.9735107421875
z: 0.0026963751297444105
","x: 266.759033203125
y: 386.46295166015625
z: 0.003692331025376916
","x: 266.4748229980469
y: 391.4383544921875
z: 0.0036016409285366535
","x: 266.8580322265625
y: 395.046630859375
z: 0.003933423198759556
","x: 272.85943603515625
y: 391.40142822265625
z: 0.004886728245764971
","x: 271.670166015625
y: 399.21343994140625
z: 0.004205553792417049
","x: 269.0184020996094
y: 400.71124267578125
z: 0.003777863457798958
","x: 267.0176696777344
y: 399.93359375
z: 0.0038337071891874075
","x: 273.5726013183594
y: 391.72491455078125
z: 0.0025866227224469185
","x: 272.0330810546875
y: 400.1518249511719
z: 0.0018198007019236684
","x: 268.9563293457031
y: 401.324462890625
z: 0.0012757034273818135
","x: 266.8934631347656
y: 400.1524658203125
z: 0.0012197337346151471
","x: 273.42718505859375
y: 391.7061767578125
z: 0.00010562599345576018
","x: 271.77557373046875
y: 399.70733642578125
z: -0.00037614128086715937
","x: 268.7725830078125
y: 401.06182861328125
z: -0.00011567399633349851
","x: 266.6980285644531
y: 400.00848388671875
z: 0.00022541280486620963
","x: 272.3521728515625
y: 391.2614440917969
z: -0.0024139436427503824
","x: 270.9566345214844
y: 398.35015869140625
z: -0.0026264903135597706
","x: 268.7008361816406
y: 400.33721923828125
z: -0.002111736685037613
","x: 266.8510437011719
y: 400.01934814453125
z: -0.0015171252889558673
",3.545924663543701,,,,,,,,,,,,,,,,,,,,,
2,"x: 243.12548828125
y: 238.8616943359375
z: -0.2983158230781555
visibility: 0.999901533126831
","x: 244.98390197753906
y: 233.292236328125
z: -0.2814600169658661
visibility: 0.9997331500053406
","x: 246.25222778320312
y: 233.6859893798828
z: -0.2814902663230896
visibility: 0.9997404217720032
","x: 247.57180786132812
y: 234.15402221679688
z: -0.2815536558628082
visibility: 0.99978107213974
","x: 241.1087646484375
y: 232.8491973876953
z: -0.2845490276813507
visibility: 0.9996498823165894
","x: 239.4945831298828
y: 233.02520751953125
z: -0.28455156087875366
visibility: 0.9995850920677185
","x: 237.9162139892578
y: 233.3741912841797
z: -0.2845781743526459
visibility: 0.9995256662368774
","x: 249.46701049804688
y: 238.72274780273438
z: -0.1738576740026474
visibility: 0.9995269775390625
","x: 234.77969360351562
y: 238.76564025878906
z: -0.1884666085243225
visibility: 0.9988277554512024
","x: 245.2073211669922
y: 246.5325927734375
z: -0.2574138343334198
visibility: 0.9998557567596436
","x: 239.99075317382812
y: 245.9783172607422
z: -0.2617896795272827
visibility: 0.9997727274894714
","x: 262.65374755859375
y: 281.1697998046875
z: -0.09803202748298645
visibility: 0.9999028444290161
","x: 222.9231719970703
y: 281.519287109375
z: -0.1137714758515358
visibility: 0.9991734623908997
","x: 266.16357421875
y: 331.9617919921875
z: -0.05048736184835434
visibility: 0.9498392343521118
","x: 216.58319091796875
y: 331.5372009277344
z: -0.08573968708515167
visibility: 0.7331105470657349
","x: 269.30560302734375
y: 377.685791015625
z: -0.12197653204202652
visibility: 0.894525408744812
","x: 220.12318420410156
y: 378.711669921875
z: -0.15987779200077057
visibility: 0.39406618475914
","x: 269.98626708984375
y: 391.615966796875
z: -0.14527595043182373
visibility: 0.8153131604194641
","x: 217.01084899902344
y: 394.51171875
z: -0.18612101674079895
visibility: 0.336891233921051
","x: 268.1319274902344
y: 392.29718017578125
z: -0.176378071308136
visibility: 0.8272963762283325
","x: 218.93470764160156
y: 395.89007568359375
z: -0.21731631457805634
visibility: 0.3494150936603546
","x: 266.9103698730469
y: 387.8369445800781
z: -0.1355588436126709
visibility: 0.7944433093070984
","x: 220.72079467773438
y: 390.02203369140625
z: -0.1745000034570694
visibility: 0.3329785466194153
","x: 254.3431396484375
y: 378.230712890625
z: 0.009471248835325241
visibility: 0.999610960483551
","x: 228.91879272460938
y: 379.7602844238281
z: -0.009491431526839733
visibility: 0.9994292855262756
","x: 258.8305358886719
y: 462.16070556640625
z: -0.01924636773765087
visibility: 0.9929900169372559
","x: 231.17909240722656
y: 461.7093200683594
z: -0.020388010889291763
visibility: 0.9919832348823547
","x: 257.93017578125
y: 533.1641845703125
z: 0.12046276032924652
visibility: 0.9942734837532043
","x: 230.85470581054688
y: 535.1058349609375
z: 0.12162663787603378
visibility: 0.9942189455032349
","x: 254.2425994873047
y: 544.2803955078125
z: 0.12633636593818665
visibility: 0.9140848517417908
","x: 233.0296630859375
y: 544.9871215820312
z: 0.12730365991592407
visibility: 0.8637068867683411
","x: 264.86322021484375
y: 561.1708984375
z: -3.7134948797756806e-05
visibility: 0.9895846247673035
","x: 227.77374267578125
y: 560.2466430664062
z: -0.0012560301693156362
visibility: 0.9897133111953735
","x: 269.6407775878906
y: 373.5151672363281
z: 0.0
","x: 266.9901428222656
y: 379.9735107421875
z: 0.0026963751297444105
","x: 266.759033203125
y: 386.46295166015625
z: 0.003692331025376916
","x: 266.4748229980469
y: 391.4383544921875
z: 0.0036016409285366535
","x: 266.8580322265625
y: 395.046630859375
z: 0.003933423198759556
","x: 272.85943603515625
y: 391.40142822265625
z: 0.004886728245764971
","x: 271.670166015625
y: 399.21343994140625
z: 0.004205553792417049
","x: 269.0184020996094
y: 400.71124267578125
z: 0.003777863457798958
","x: 267.0176696777344
y: 399.93359375
z: 0.0038337071891874075
","x: 273.5726013183594
y: 391.72491455078125
z: 0.0025866227224469185
","x: 272.0330810546875
y: 400.1518249511719
z: 0.0018198007019236684
","x: 268.9563293457031
y: 401.324462890625
z: 0.0012757034273818135
","x: 266.8934631347656
y: 400.1524658203125
z: 0.0012197337346151471
","x: 273.42718505859375
y: 391.7061767578125
z: 0.00010562599345576018
","x: 271.77557373046875
y: 399.70733642578125
z: -0.00037614128086715937
","x: 268.7725830078125
y: 401.06182861328125
z: -0.00011567399633349851
","x: 266.6980285644531
y: 400.00848388671875
z: 0.00022541280486620963
","x: 272.3521728515625
y: 391.2614440917969
z: -0.0024139436427503824
","x: 270.9566345214844
y: 398.35015869140625
z: -0.0026264903135597706
","x: 268.7008361816406
y: 400.33721923828125
z: -0.002111736685037613
","x: 266.8510437011719
y: 400.01934814453125
z: -0.0015171252889558673
",3.545924663543701,,,,,,,,,,,,,,,,,,,,,
3,"x: 243.2469482421875
y: 240.09779357910156
z: -0.3276977837085724
visibility: 0.9999104142189026
","x: 245.16397094726562
y: 233.6624755859375
z: -0.3088873028755188
visibility: 0.9997578859329224
","x: 246.39378356933594
y: 233.9822235107422
z: -0.3089267909526825
visibility: 0.9997643828392029
","x: 247.71783447265625
y: 234.3630828857422
z: -0.30896347761154175
visibility: 0.9998008012771606
","x: 241.11090087890625
y: 233.43910217285156
z: -0.31152600049972534
visibility: 0.9996817111968994
","x: 239.49295043945312
y: 233.62759399414062
z: -0.3115609884262085
visibility: 0.9996228218078613
","x: 237.90975952148438
y: 233.97134399414062
z: -0.3115471601486206
visibility: 0.9995681643486023
","x: 249.8096466064453
y: 238.89390563964844
z: -0.1823793202638626
visibility: 0.9995719194412231
","x: 234.7700958251953
y: 239.10768127441406
z: -0.1954047977924347
visibility: 0.9989344477653503
","x: 245.6680908203125
y: 248.16896057128906
z: -0.2788761556148529
visibility: 0.9998682141304016
","x: 240.05882263183594
y: 247.54782104492188
z: -0.2828561067581177
visibility: 0.9997919201850891
","x: 262.8031311035156
y: 281.1643371582031
z: -0.09617026150226593
visibility: 0.9999104142189026
","x: 222.98800659179688
y: 280.9188232421875
z: -0.11134592443704605
visibility: 0.9991925358772278
","x: 267.568359375
y: 327.4822998046875
z: -0.07397730648517609
visibility: 0.9532991647720337
","x: 215.8798828125
y: 328.6282043457031
z: -0.17479702830314636
visibility: 0.7449064254760742
","x: 270.8362121582031
y: 372.64300537109375
z: -0.19282107055187225
visibility: 0.9033421277999878
","x: 206.74000549316406
y: 333.26202392578125
z: -0.41215237975120544
visibility: 0.44508472084999084
","x: 271.1423645019531
y: 386.8170166015625
z: -0.22350458800792694
visibility: 0.8301466107368469
","x: 201.97711181640625
y: 333.2914733886719
z: -0.46005168557167053
visibility: 0.39269590377807617
","x: 269.7210998535156
y: 386.87115478515625
z: -0.2540266215801239
visibility: 0.841196596622467
","x: 202.52810668945312
y: 326.8985595703125
z: -0.48781776428222656
visibility: 0.40514665842056274
","x: 268.6404724121094
y: 382.73114013671875
z: -0.20712199807167053
visibility: 0.810661792755127
","x: 205.5384063720703
y: 327.79296875
z: -0.4302281439304352
visibility: 0.3883623480796814
","x: 253.3036651611328
y: 378.132080078125
z: 0.008848629891872406
visibility: 0.9996251463890076
","x: 227.9853515625
y: 379.4236755371094
z: -0.008898024447262287
visibility: 0.9994474053382874
","x: 258.8415832519531
y: 462.567138671875
z: -0.008435745723545551
visibility: 0.9935122728347778
","x: 230.6634063720703
y: 459.1386413574219
z: -0.024690527468919754
visibility: 0.9923732280731201
","x: 258.7490234375
y: 532.0775756835938
z: 0.14707425236701965
visibility: 0.9945805072784424
","x: 230.8575897216797
y: 534.4207153320312
z: 0.10805018246173859
visibility: 0.9944742321968079
","x: 255.34544372558594
y: 540.044921875
z: 0.15422207117080688
visibility: 0.9151085615158081
","x: 232.9875946044922
y: 543.6004028320312
z: 0.11315973103046417
visibility: 0.8672178983688354
","x: 264.5273132324219
y: 561.1024780273438
z: 0.022383157163858414
visibility: 0.9901503920555115
","x: 227.78622436523438
y: 560.2910766601562
z: -0.020860321819782257
visibility: 0.9902151226997375
",,,,,,,,,,,,,,,,,,,,,,4.098278045654297,,,,,,,,,,,,,,,,,,,,,
4,"x: 243.2469482421875
y: 240.09779357910156
z: -0.3276977837085724
visibility: 0.9999104142189026
","x: 245.16397094726562
y: 233.6624755859375
z: -0.3088873028755188
visibility: 0.9997578859329224
","x: 246.39378356933594
y: 233.9822235107422
z: -0.3089267909526825
visibility: 0.9997643828392029
","x: 247.71783447265625
y: 234.3630828857422
z: -0.30896347761154175
visibility: 0.9998008012771606
","x: 241.11090087890625
y: 233.43910217285156
z: -0.31152600049972534
visibility: 0.9996817111968994
","x: 239.49295043945312
y: 233.62759399414062
z: -0.3115609884262085
visibility: 0.9996228218078613
","x: 237.90975952148438
y: 233.97134399414062
z: -0.3115471601486206
visibility: 0.9995681643486023
","x: 249.8096466064453
y: 238.89390563964844
z: -0.1823793202638626
visibility: 0.9995719194412231
","x: 234.7700958251953
y: 239.10768127441406
z: -0.1954047977924347
visibility: 0.9989344477653503
","x: 245.6680908203125
y: 248.16896057128906
z: -0.2788761556148529
visibility: 0.9998682141304016
","x: 240.05882263183594
y: 247.54782104492188
z: -0.2828561067581177
visibility: 0.9997919201850891
","x: 262.8031311035156
y: 281.1643371582031
z: -0.09617026150226593
visibility: 0.9999104142189026
","x: 222.98800659179688
y: 280.9188232421875
z: -0.11134592443704605
visibility: 0.9991925358772278
","x: 267.568359375
y: 327.4822998046875
z: -0.07397730648517609
visibility: 0.9532991647720337
","x: 215.8798828125
y: 328.6282043457031
z: -0.17479702830314636
visibility: 0.7449064254760742
","x: 270.8362121582031
y: 372.64300537109375
z: -0.19282107055187225
visibility: 0.9033421277999878
","x: 206.74000549316406
y: 333.26202392578125
z: -0.41215237975120544
visibility: 0.44508472084999084
","x: 271.1423645019531
y: 386.8170166015625
z: -0.22350458800792694
visibility: 0.8301466107368469
","x: 201.97711181640625
y: 333.2914733886719
z: -0.46005168557167053
visibility: 0.39269590377807617
","x: 269.7210998535156
y: 386.87115478515625
z: -0.2540266215801239
visibility: 0.841196596622467
","x: 202.52810668945312
y: 326.8985595703125
z: -0.48781776428222656
visibility: 0.40514665842056274
","x: 268.6404724121094
y: 382.73114013671875
z: -0.20712199807167053
visibility: 0.810661792755127
","x: 205.5384063720703
y: 327.79296875
z: -0.4302281439304352
visibility: 0.3883623480796814
","x: 253.3036651611328
y: 378.132080078125
z: 0.008848629891872406
visibility: 0.9996251463890076
","x: 227.9853515625
y: 379.4236755371094
z: -0.008898024447262287
visibility: 0.9994474053382874
","x: 258.8415832519531
y: 462.567138671875
z: -0.008435745723545551
visibility: 0.9935122728347778
","x: 230.6634063720703
y: 459.1386413574219
z: -0.024690527468919754
visibility: 0.9923732280731201
","x: 258.7490234375
y: 532.0775756835938
z: 0.14707425236701965
visibility: 0.9945805072784424
","x: 230.8575897216797
y: 534.4207153320312
z: 0.10805018246173859
visibility: 0.9944742321968079
","x: 255.34544372558594
y: 540.044921875
z: 0.15422207117080688
visibility: 0.9151085615158081
","x: 232.9875946044922
y: 543.6004028320312
z: 0.11315973103046417
visibility: 0.8672178983688354
","x: 264.5273132324219
y: 561.1024780273438
z: 0.022383157163858414
visibility: 0.9901503920555115
","x: 227.78622436523438
y: 560.2910766601562
z: -0.020860321819782257
visibility: 0.9902151226997375
",,,,,,,,,,,,,,,,,,,,,,4.098278045654297,,,,,,,,,,,,,,,,,,,,,
5,"x: 243.8105926513672
y: 241.19004821777344
z: -0.35602328181266785
visibility: 0.9999188184738159
","x: 245.9219207763672
y: 234.4641876220703
z: -0.3380773663520813
visibility: 0.9997808933258057
","x: 247.2452850341797
y: 234.78961181640625
z: -0.3381093144416809
visibility: 0.9997866749763489
","x: 248.67453002929688
y: 235.17433166503906
z: -0.338133841753006
visibility: 0.9998193979263306
","x: 241.59902954101562
y: 234.32366943359375
z: -0.34058740735054016
visibility: 0.9997118711471558
","x: 239.9095916748047
y: 234.58737182617188
z: -0.34064021706581116
visibility: 0.9996586441993713
","x: 238.27542114257812
y: 234.94961547851562
z: -0.34060919284820557
visibility: 0.9996089339256287
","x: 251.08163452148438
y: 239.7502899169922
z: -0.21474964916706085
visibility: 0.9996134042739868
","x: 234.96864318847656
y: 239.93399047851562
z: -0.22632333636283875
visibility: 0.9990361928939819
","x: 246.49563598632812
y: 249.9287567138672
z: -0.3087557256221771
visibility: 0.9998805522918701
","x: 240.54879760742188
y: 249.09368896484375
z: -0.3124174475669861
visibility: 0.9998112916946411
","x: 263.69256591796875
y: 281.3982849121094
z: -0.12931369245052338
visibility: 0.99991774559021
","x: 223.1574249267578
y: 281.52423095703125
z: -0.12868788838386536
visibility: 0.9992460608482361
","x: 271.7649841308594
y: 325.4251403808594
z: -0.12898263335227966
visibility: 0.9573430418968201
","x: 214.42982482910156
y: 328.65203857421875
z: -0.19151613116264343
visibility: 0.7641178965568542
","x: 273.842529296875
y: 370.9576110839844
z: -0.2632661461830139
visibility: 0.9117555618286133
","x: 203.92987060546875
y: 334.4217224121094
z: -0.4254764914512634
visibility: 0.49640771746635437
","x: 272.6554260253906
y: 385.7948303222656
z: -0.2969888150691986
visibility: 0.8441622257232666
","x: 197.52166748046875
y: 336.0525207519531
z: -0.4735427498817444
visibility: 0.4480571448802948
","x: 270.4067687988281
y: 384.4309997558594
z: -0.3272065222263336
visibility: 0.8543110489845276
","x: 198.48263549804688
y: 332.09478759765625
z: -0.5004594326019287
visibility: 0.4598907232284546
","x: 269.8141784667969
y: 380.0365905761719
z: -0.2774180471897125
visibility: 0.8261107802391052
","x: 201.2187957763672
y: 331.7330627441406
z: -0.4428707957267761
visibility: 0.44358396530151367
","x: 253.44602966308594
y: 378.3727722167969
z: 0.004192623309791088
visibility: 0.999636173248291
","x: 227.99459838867188
y: 379.5411682128906
z: -0.004283062182366848
visibility: 0.9994657635688782
","x: 259.40533447265625
y: 464.6263122558594
z: -0.009856645949184895
visibility: 0.9940215349197388
","x: 230.5866241455078
y: 459.22552490234375
z: -0.00727896997705102
visibility: 0.9928172826766968
","x: 263.9163818359375
y: 532.0526123046875
z: 0.14229968190193176
visibility: 0.9948468804359436
","x: 231.0504913330078
y: 533.334228515625
z: 0.13166114687919617
visibility: 0.9947177171707153
","x: 262.3830261230469
y: 539.2966918945312
z: 0.14942696690559387
visibility: 0.9151791930198669
","x: 233.0424041748047
y: 541.536376953125
z: 0.1374891996383667
visibility: 0.8723049759864807
","x: 267.2684631347656
y: 560.2315063476562
z: 0.018051421269774437
visibility: 0.9905957579612732
","x: 227.6366424560547
y: 560.3412475585938
z: 0.007718384265899658
visibility: 0.9905842542648315
",,,,,,,,,,,,,,,,,,,,,,4.242939710617065,,,,,,,,,,,,,,,,,,,,,
6,"x: 243.8105926513672
y: 241.19004821777344
z: -0.35602328181266785
visibility: 0.9999188184738159
","x: 245.9219207763672
y: 234.4641876220703
z: -0.3380773663520813
visibility: 0.9997808933258057
","x: 247.2452850341797
y: 234.78961181640625
z: -0.3381093144416809
visibility: 0.9997866749763489
","x: 248.67453002929688
y: 235.17433166503906
z: -0.338133841753006
visibility: 0.9998193979263306
","x: 241.59902954101562
y: 234.32366943359375
z: -0.34058740735054016
visibility: 0.9997118711471558
","x: 239.9095916748047
y: 234.58737182617188
z: -0.34064021706581116
visibility: 0.9996586441993713
","x: 238.27542114257812
y: 234.94961547851562
z: -0.34060919284820557
visibility: 0.9996089339256287
","x: 251.08163452148438
y: 239.7502899169922
z: -0.21474964916706085
visibility: 0.9996134042739868
","x: 234.96864318847656
y: 239.93399047851562
z: -0.22632333636283875
visibility: 0.9990361928939819
","x: 246.49563598632812
y: 249.9287567138672
z: -0.3087557256221771
visibility: 0.9998805522918701
","x: 240.54879760742188
y: 249.09368896484375
z: -0.3124174475669861
visibility: 0.9998112916946411
","x: 263.69256591796875
y: 281.3982849121094
z: -0.12931369245052338
visibility: 0.99991774559021
","x: 223.1574249267578
y: 281.52423095703125
z: -0.12868788838386536
visibility: 0.9992460608482361
","x: 271.7649841308594
y: 325.4251403808594
z: -0.12898263335227966
visibility: 0.9573430418968201
","x: 214.42982482910156
y: 328.65203857421875
z: -0.19151613116264343
visibility: 0.7641178965568542
","x: 273.842529296875
y: 370.9576110839844
z: -0.2632661461830139
visibility: 0.9117555618286133
","x: 203.92987060546875
y: 334.4217224121094
z: -0.4254764914512634
visibility: 0.49640771746635437
","x: 272.6554260253906
y: 385.7948303222656
z: -0.2969888150691986
visibility: 0.8441622257232666
","x: 197.52166748046875
y: 336.0525207519531
z: -0.4735427498817444
visibility: 0.4480571448802948
","x: 270.4067687988281
y: 384.4309997558594
z: -0.3272065222263336
visibility: 0.8543110489845276
","x: 198.48263549804688
y: 332.09478759765625
z: -0.5004594326019287
visibility: 0.4598907232284546
","x: 269.8141784667969
y: 380.0365905761719
z: -0.2774180471897125
visibility: 0.8261107802391052
","x: 201.2187957763672
y: 331.7330627441406
z: -0.4428707957267761
visibility: 0.44358396530151367
","x: 253.44602966308594
y: 378.3727722167969
z: 0.004192623309791088
visibility: 0.999636173248291
","x: 227.99459838867188
y: 379.5411682128906
z: -0.004283062182366848
visibility: 0.9994657635688782
","x: 259.40533447265625
y: 464.6263122558594
z: -0.009856645949184895
visibility: 0.9940215349197388
","x: 230.5866241455078
y: 459.22552490234375
z: -0.00727896997705102
visibility: 0.9928172826766968
","x: 263.9163818359375
y: 532.0526123046875
z: 0.14229968190193176
visibility: 0.9948468804359436
","x: 231.0504913330078
y: 533.334228515625
z: 0.13166114687919617
visibility: 0.9947177171707153
","x: 262.3830261230469
y: 539.2966918945312
z: 0.14942696690559387
visibility: 0.9151791930198669
","x: 233.0424041748047
y: 541.536376953125
z: 0.1374891996383667
visibility: 0.8723049759864807
","x: 267.2684631347656
y: 560.2315063476562
z: 0.018051421269774437
visibility: 0.9905957579612732
","x: 227.6366424560547
y: 560.3412475585938
z: 0.007718384265899658
visibility: 0.9905842542648315
",,,,,,,,,,,,,,,,,,,,,,4.242939710617065,,,,,,,,,,,,,,,,,,,,,
7,"x: 246.0513153076172
y: 242.63714599609375
z: -0.3136408030986786
visibility: 0.9999253749847412
","x: 248.15809631347656
y: 236.16604614257812
z: -0.3001120984554291
visibility: 0.9997981190681458
","x: 249.52456665039062
y: 236.4903564453125
z: -0.3001527190208435
visibility: 0.9998037219047546
","x: 250.904052734375
y: 236.85107421875
z: -0.30016154050827026
visibility: 0.9998331069946289
","x: 243.9185791015625
y: 236.0145263671875
z: -0.29995089769363403
visibility: 0.9997334480285645
","x: 242.28868103027344
y: 236.24462890625
z: -0.2999899983406067
visibility: 0.9996848702430725
","x: 240.59326171875
y: 236.5543975830078
z: -0.2999195456504822
visibility: 0.9996386170387268
","x: 253.5103759765625
y: 240.8329620361328
z: -0.1883259117603302
visibility: 0.9996481537818909
","x: 237.9824981689453
y: 240.8145294189453
z: -0.18889349699020386
visibility: 0.9991127252578735
","x: 248.47171020507812
y: 251.0938262939453
z: -0.269525408744812
visibility: 0.9998904466629028
","x: 243.46360778808594
y: 250.44122314453125
z: -0.26988133788108826
visibility: 0.9998251795768738
","x: 265.5594177246094
y: 281.105712890625
z: -0.10837528854608536
visibility: 0.9999244213104248
","x: 226.32949829101562
y: 281.78778076171875
z: -0.08050842583179474
visibility: 0.9992732405662537
","x: 279.01025390625
y: 321.8238525390625
z: -0.07232516258955002
visibility: 0.9612765312194824
","x: 215.48826599121094
y: 324.9505310058594
z: -0.06745342910289764
visibility: 0.7774702310562134
","x: 278.4004821777344
y: 367.620361328125
z: -0.19019034504890442
visibility: 0.919795036315918
","x: 206.341064453125
y: 341.24029541015625
z: -0.24391527473926544
visibility: 0.5385959148406982
","x: 276.80438232421875
y: 382.65313720703125
z: -0.22146721184253693
visibility: 0.8573171496391296
","x: 201.02493286132812
y: 347.5748291015625
z: -0.28366735577583313
visibility: 0.4918830692768097
","x: 274.6911315917969
y: 381.04656982421875
z: -0.2691795229911804
visibility: 0.8666663765907288
","x: 201.14547729492188
y: 345.3804931640625
z: -0.3198865056037903
visibility: 0.5038523077964783
","x: 274.5665588378906
y: 375.6100158691406
z: -0.20730023086071014
visibility: 0.8406556248664856
","x: 204.4871063232422
y: 343.1685791015625
z: -0.2641086280345917
visibility: 0.48821425437927246
","x: 257.4819030761719
y: 378.8665771484375
z: -0.0018943275790661573
visibility: 0.9996095895767212
","x: 231.669921875
y: 379.67156982421875
z: 0.0018409605836495757
visibility: 0.9994477033615112
","x: 261.0509948730469
y: 465.1485900878906
z: -0.00770085584372282
visibility: 0.9944231510162354
","x: 231.6490478515625
y: 463.3834533691406
z: -0.0019740411080420017
visibility: 0.9931918978691101
","x: 266.0323181152344
y: 532.0675048828125
z: 0.14083388447761536
visibility: 0.9950137138366699
","x: 231.30123901367188
y: 533.6358032226562
z: 0.13237960636615753
visibility: 0.9949542880058289
","x: 265.0885925292969
y: 539.3916625976562
z: 0.14710351824760437
visibility: 0.9135407209396362
","x: 233.1719512939453
y: 541.6864624023438
z: 0.13734886050224304
visibility: 0.8784238696098328
","x: 268.7750244140625
y: 560.2294311523438
z: 0.017442848533391953
visibility: 0.9908015727996826
","x: 227.2340087890625
y: 560.46240234375
z: 0.010863206349313259
visibility: 0.990930438041687
","x: 278.7247314453125
y: 367.0747375488281
z: 0.0
","x: 275.2662353515625
y: 371.94244384765625
z: 0.00037729457835666835
","x: 273.2461853027344
y: 378.1706237792969
z: 0.0005153383826836944
","x: 271.8968811035156
y: 383.53155517578125
z: 0.00019303124281577766
","x: 271.7618713378906
y: 387.5970764160156
z: 0.0005119410343468189
","x: 277.3756408691406
y: 384.86846923828125
z: 0.002374437637627125
","x: 275.6968994140625
y: 392.687255859375
z: 0.0016599443042650819
","x: 273.3669128417969
y: 392.6142883300781
z: 0.001580782700330019
","x: 272.05548095703125
y: 390.3448791503906
z: 0.0019292860524728894
","x: 278.0167236328125
y: 385.3374938964844
z: 0.001444404711946845
","x: 275.8943176269531
y: 392.65509033203125
z: 0.0008950590272434056
","x: 273.4671325683594
y: 392.2626953125
z: 0.0008652787073515356
","x: 272.31597900390625
y: 390.2283935546875
z: 0.001152260578237474
","x: 278.17681884765625
y: 385.1826477050781
z: 0.0002188000944443047
","x: 276.0726623535156
y: 391.73199462890625
z: -0.0002775767643470317
","x: 273.7018127441406
y: 391.59320068359375
z: 0.0001490849390393123
","x: 272.4352722167969
y: 389.8001708984375
z: 0.0006668276619166136
","x: 277.8797912597656
y: 384.4990539550781
z: -0.001187798916362226
","x: 276.2430725097656
y: 390.29840087890625
z: -0.0014821029035374522
","x: 274.29998779296875
y: 391.36181640625
z: -0.0009865104220807552
","x: 272.9200134277344
y: 390.5723876953125
z: -0.00031763484003022313
",4.364914655685425,,,,,,,,,,,,,,,,,,,,,
8,"x: 246.0513153076172
y: 242.63714599609375
z: -0.3136408030986786
visibility: 0.9999253749847412
","x: 248.15809631347656
y: 236.16604614257812
z: -0.3001120984554291
visibility: 0.9997981190681458
","x: 249.52456665039062
y: 236.4903564453125
z: -0.3001527190208435
visibility: 0.9998037219047546
","x: 250.904052734375
y: 236.85107421875
z: -0.30016154050827026
visibility: 0.9998331069946289
","x: 243.9185791015625
y: 236.0145263671875
z: -0.29995089769363403
visibility: 0.9997334480285645
","x: 242.28868103027344
y: 236.24462890625
z: -0.2999899983406067
visibility: 0.9996848702430725
","x: 240.59326171875
y: 236.5543975830078
z: -0.2999195456504822
visibility: 0.9996386170387268
","x: 253.5103759765625
y: 240.8329620361328
z: -0.1883259117603302
visibility: 0.9996481537818909
","x: 237.9824981689453
y: 240.8145294189453
z: -0.18889349699020386
visibility: 0.9991127252578735
","x: 248.47171020507812
y: 251.0938262939453
z: -0.269525408744812
visibility: 0.9998904466629028
","x: 243.46360778808594
y: 250.44122314453125
z: -0.26988133788108826
visibility: 0.9998251795768738
","x: 265.5594177246094
y: 281.105712890625
z: -0.10837528854608536
visibility: 0.9999244213104248
","x: 226.32949829101562
y: 281.78778076171875
z: -0.08050842583179474
visibility: 0.9992732405662537
","x: 279.01025390625
y: 321.8238525390625
z: -0.07232516258955002
visibility: 0.9612765312194824
","x: 215.48826599121094
y: 324.9505310058594
z: -0.06745342910289764
visibility: 0.7774702310562134
","x: 278.4004821777344
y: 367.620361328125
z: -0.19019034504890442
visibility: 0.919795036315918
","x: 206.341064453125
y: 341.24029541015625
z: -0.24391527473926544
visibility: 0.5385959148406982
","x: 276.80438232421875
y: 382.65313720703125
z: -0.22146721184253693
visibility: 0.8573171496391296
","x: 201.02493286132812
y: 347.5748291015625
z: -0.28366735577583313
visibility: 0.4918830692768097
","x: 274.6911315917969
y: 381.04656982421875
z: -0.2691795229911804
visibility: 0.8666663765907288
","x: 201.14547729492188
y: 345.3804931640625
z: -0.3198865056037903
visibility: 0.5038523077964783
","x: 274.5665588378906
y: 375.6100158691406
z: -0.20730023086071014
visibility: 0.8406556248664856
","x: 204.4871063232422
y: 343.1685791015625
z: -0.2641086280345917
visibility: 0.48821425437927246
","x: 257.4819030761719
y: 378.8665771484375
z: -0.0018943275790661573
visibility: 0.9996095895767212
","x: 231.669921875
y: 379.67156982421875
z: 0.0018409605836495757
visibility: 0.9994477033615112
","x: 261.0509948730469
y: 465.1485900878906
z: -0.00770085584372282
visibility: 0.9944231510162354
","x: 231.6490478515625
y: 463.3834533691406
z: -0.0019740411080420017
visibility: 0.9931918978691101
","x: 266.0323181152344
y: 532.0675048828125
z: 0.14083388447761536
visibility: 0.9950137138366699
","x: 231.30123901367188
y: 533.6358032226562
z: 0.13237960636615753
visibility: 0.9949542880058289
","x: 265.0885925292969
y: 539.3916625976562
z: 0.14710351824760437
visibility: 0.9135407209396362
","x: 233.1719512939453
y: 541.6864624023438
z: 0.13734886050224304
visibility: 0.8784238696098328
","x: 268.7750244140625
y: 560.2294311523438
z: 0.017442848533391953
visibility: 0.9908015727996826
","x: 227.2340087890625
y: 560.46240234375
z: 0.010863206349313259
visibility: 0.990930438041687
","x: 278.7247314453125
y: 367.0747375488281
z: 0.0
","x: 275.2662353515625
y: 371.94244384765625
z: 0.00037729457835666835
","x: 273.2461853027344
y: 378.1706237792969
z: 0.0005153383826836944
","x: 271.8968811035156
y: 383.53155517578125
z: 0.00019303124281577766
","x: 271.7618713378906
y: 387.5970764160156
z: 0.0005119410343468189
","x: 277.3756408691406
y: 384.86846923828125
z: 0.002374437637627125
","x: 275.6968994140625
y: 392.687255859375
z: 0.0016599443042650819
","x: 273.3669128417969
y: 392.6142883300781
z: 0.001580782700330019
","x: 272.05548095703125
y: 390.3448791503906
z: 0.0019292860524728894
","x: 278.0167236328125
y: 385.3374938964844
z: 0.001444404711946845
","x: 275.8943176269531
y: 392.65509033203125
z: 0.0008950590272434056
","x: 273.4671325683594
y: 392.2626953125
z: 0.0008652787073515356
","x: 272.31597900390625
y: 390.2283935546875
z: 0.001152260578237474
","x: 278.17681884765625
y: 385.1826477050781
z: 0.0002188000944443047
","x: 276.0726623535156
y: 391.73199462890625
z: -0.0002775767643470317
","x: 273.7018127441406
y: 391.59320068359375
z: 0.0001490849390393123
","x: 272.4352722167969
y: 389.8001708984375
z: 0.0006668276619166136
","x: 277.8797912597656
y: 384.4990539550781
z: -0.001187798916362226
","x: 276.2430725097656
y: 390.29840087890625
z: -0.0014821029035374522
","x: 274.29998779296875
y: 391.36181640625
z: -0.0009865104220807552
","x: 272.9200134277344
y: 390.5723876953125
z: -0.00031763484003022313
",4.364914655685425,,,,,,,,,,,,,,,,,,,,,
9,"x: 246.0513153076172
y: 242.63714599609375
z: -0.3136408030986786
visibility: 0.9999253749847412
","x: 248.15809631347656
y: 236.16604614257812
z: -0.3001120984554291
visibility: 0.9997981190681458
","x: 249.52456665039062
y: 236.4903564453125
z: -0.3001527190208435
visibility: 0.9998037219047546
","x: 250.904052734375
y: 236.85107421875
z: -0.30016154050827026
visibility: 0.9998331069946289
","x: 243.9185791015625
y: 236.0145263671875
z: -0.29995089769363403
visibility: 0.9997334480285645
","x: 242.28868103027344
y: 236.24462890625
z: -0.2999899983406067
visibility: 0.9996848702430725
","x: 240.59326171875
y: 236.5543975830078
z: -0.2999195456504822
visibility: 0.9996386170387268
","x: 253.5103759765625
y: 240.8329620361328
z: -0.1883259117603302
visibility: 0.9996481537818909
","x: 237.9824981689453
y: 240.8145294189453
z: -0.18889349699020386
visibility: 0.9991127252578735
","x: 248.47171020507812
y: 251.0938262939453
z: -0.269525408744812
visibility: 0.9998904466629028
","x: 243.46360778808594
y: 250.44122314453125
z: -0.26988133788108826
visibility: 0.9998251795768738
","x: 265.5594177246094
y: 281.105712890625
z: -0.10837528854608536
visibility: 0.9999244213104248
","x: 226.32949829101562
y: 281.78778076171875
z: -0.08050842583179474
visibility: 0.9992732405662537
","x: 279.01025390625
y: 321.8238525390625
z: -0.07232516258955002
visibility: 0.9612765312194824
","x: 215.48826599121094
y: 324.9505310058594
z: -0.06745342910289764
visibility: 0.7774702310562134
","x: 278.4004821777344
y: 367.620361328125
z: -0.19019034504890442
visibility: 0.919795036315918
","x: 206.341064453125
y: 341.24029541015625
z: -0.24391527473926544
visibility: 0.5385959148406982
","x: 276.80438232421875
y: 382.65313720703125
z: -0.22146721184253693
visibility: 0.8573171496391296
","x: 201.02493286132812
y: 347.5748291015625
z: -0.28366735577583313
visibility: 0.4918830692768097
","x: 274.6911315917969
y: 381.04656982421875
z: -0.2691795229911804
visibility: 0.8666663765907288
","x: 201.14547729492188
y: 345.3804931640625
z: -0.3198865056037903
visibility: 0.5038523077964783
","x: 274.5665588378906
y: 375.6100158691406
z: -0.20730023086071014
visibility: 0.8406556248664856
","x: 204.4871063232422
y: 343.1685791015625
z: -0.2641086280345917
visibility: 0.48821425437927246
","x: 257.4819030761719
y: 378.8665771484375
z: -0.0018943275790661573
visibility: 0.9996095895767212
","x: 231.669921875
y: 379.67156982421875
z: 0.0018409605836495757
visibility: 0.9994477033615112
","x: 261.0509948730469
y: 465.1485900878906
z: -0.00770085584372282
visibility: 0.9944231510162354
","x: 231.6490478515625
y: 463.3834533691406
z: -0.0019740411080420017
visibility: 0.9931918978691101
","x: 266.0323181152344
y: 532.0675048828125
z: 0.14083388447761536
visibility: 0.9950137138366699
","x: 231.30123901367188
y: 533.6358032226562
z: 0.13237960636615753
visibility: 0.9949542880058289
","x: 265.0885925292969
y: 539.3916625976562
z: 0.14710351824760437
visibility: 0.9135407209396362
","x: 233.1719512939453
y: 541.6864624023438
z: 0.13734886050224304
visibility: 0.8784238696098328
","x: 268.7750244140625
y: 560.2294311523438
z: 0.017442848533391953
visibility: 0.9908015727996826
","x: 227.2340087890625
y: 560.46240234375
z: 0.010863206349313259
visibility: 0.990930438041687
","x: 278.7247314453125
y: 367.0747375488281
z: 0.0
","x: 275.2662353515625
y: 371.94244384765625
z: 0.00037729457835666835
","x: 273.2461853027344
y: 378.1706237792969
z: 0.0005153383826836944
","x: 271.8968811035156
y: 383.53155517578125
z: 0.00019303124281577766
","x: 271.7618713378906
y: 387.5970764160156
z: 0.0005119410343468189
","x: 277.3756408691406
y: 384.86846923828125
z: 0.002374437637627125
","x: 275.6968994140625
y: 392.687255859375
z: 0.0016599443042650819
","x: 273.3669128417969
y: 392.6142883300781
z: 0.001580782700330019
","x: 272.05548095703125
y: 390.3448791503906
z: 0.0019292860524728894
","x: 278.0167236328125
y: 385.3374938964844
z: 0.001444404711946845
","x: 275.8943176269531
y: 392.65509033203125
z: 0.0008950590272434056
","x: 273.4671325683594
y: 392.2626953125
z: 0.0008652787073515356
","x: 272.31597900390625
y: 390.2283935546875
z: 0.001152260578237474
","x: 278.17681884765625
y: 385.1826477050781
z: 0.0002188000944443047
","x: 276.0726623535156
y: 391.73199462890625
z: -0.0002775767643470317
","x: 273.7018127441406
y: 391.59320068359375
z: 0.0001490849390393123
","x: 272.4352722167969
y: 389.8001708984375
z: 0.0006668276619166136
","x: 277.8797912597656
y: 384.4990539550781
z: -0.001187798916362226
","x: 276.2430725097656
y: 390.29840087890625
z: -0.0014821029035374522
","x: 274.29998779296875
y: 391.36181640625
z: -0.0009865104220807552
","x: 272.9200134277344
y: 390.5723876953125
z: -0.00031763484003022313
",4.364914655685425,,,,,,,,,,,,,,,,,,,,,
10,"x: 251.0653839111328
y: 241.80377197265625
z: -0.35412317514419556
visibility: 0.999931275844574
","x: 252.3319549560547
y: 235.88345336914062
z: -0.3404010534286499
visibility: 0.999812126159668
","x: 253.4541015625
y: 236.16189575195312
z: -0.34038668870925903
visibility: 0.9998185038566589
","x: 254.55819702148438
y: 236.45382690429688
z: -0.34040236473083496
visibility: 0.999845027923584
","x: 248.62684631347656
y: 235.8753662109375
z: -0.3401961028575897
visibility: 0.9997522830963135
","x: 247.1282958984375
y: 236.1649932861328
z: -0.3402290940284729
visibility: 0.9997093081474304
","x: 245.53814697265625
y: 236.5155029296875
z: -0.34018415212631226
visibility: 0.9996660947799683
","x: 255.9519805908203
y: 240.75408935546875
z: -0.23427002131938934
visibility: 0.9996775388717651
","x: 242.48362731933594
y: 240.83575439453125
z: -0.23299041390419006
visibility: 0.9991791844367981
","x: 252.98643493652344
y: 249.93247985839844
z: -0.31295374035835266
visibility: 0.9998995065689087
","x: 248.6442413330078
y: 249.97987365722656
z: -0.3126923739910126
visibility: 0.9998379349708557
","x: 268.521240234375
y: 279.0726318359375
z: -0.15387675166130066
visibility: 0.9999310374259949
","x: 230.80604553222656
y: 281.7908935546875
z: -0.11056909710168839
visibility: 0.9993177056312561
","x: 288.041259765625
y: 316.3812255859375
z: -0.09349248558282852
visibility: 0.9650805592536926
","x: 221.77764892578125
y: 324.4473876953125
z: -0.03565583750605583
visibility: 0.7948142290115356
","x: 288.9593811035156
y: 363.6378173828125
z: -0.17321889102458954
visibility: 0.927555501461029
","x: 213.0867462158203
y: 350.294189453125
z: -0.10436073690652847
visibility: 0.5768062472343445
","x: 289.0203552246094
y: 379.3002014160156
z: -0.20146147906780243
visibility: 0.8703916072845459
","x: 211.67967224121094
y: 361.99786376953125
z: -0.12521865963935852
visibility: 0.5282098650932312
","x: 285.0917053222656
y: 379.197265625
z: -0.2373460829257965
visibility: 0.8789381980895996
","x: 211.99459838867188
y: 365.22930908203125
z: -0.1593640148639679
visibility: 0.5402214527130127
","x: 283.9369812011719
y: 374.0457458496094
z: -0.18796351552009583
visibility: 0.8551238179206848
","x: 213.8592529296875
y: 359.2401123046875
z: -0.11948897689580917
visibility: 0.5242877006530762
","x: 263.8067626953125
y: 378.8927917480469
z: -0.004753449000418186
visibility: 0.9995880126953125
","x: 239.1977996826172
y: 379.75262451171875
z: 0.004669454414397478
visibility: 0.9994450807571411
","x: 263.5416259765625
y: 464.43048095703125
z: -0.0023775016888976097
visibility: 0.9947654604911804
","x: 234.61087036132812
y: 464.434814453125
z: 0.0027188127860426903
visibility: 0.99361652135849
","x: 267.0513610839844
y: 532.203369140625
z: 0.14640673995018005
visibility: 0.995241105556488
","x: 231.605712890625
y: 533.656494140625
z: 0.1395774632692337
visibility: 0.9952290654182434
","x: 265.94329833984375
y: 539.4354248046875
z: 0.15279604494571686
visibility: 0.9133305549621582
","x: 233.36549377441406
y: 541.6795654296875
z: 0.14424970746040344
visibility: 0.8831615447998047
","x: 269.3154296875
y: 560.254638671875
z: 0.021928943693637848
visibility: 0.9911782145500183
","x: 227.2189178466797
y: 561.4020385742188
z: 0.018941815942525864
visibility: 0.9913788437843323
",,,,,,,,,,,,,,,,,,,,,,4.5509421825408936,,,,,,,,,,,,,,,,,,,,,
11,"x: 251.0653839111328
y: 241.80377197265625
z: -0.35412317514419556
visibility: 0.999931275844574
","x: 252.3319549560547
y: 235.88345336914062
z: -0.3404010534286499
visibility: 0.999812126159668
","x: 253.4541015625
y: 236.16189575195312
z: -0.34038668870925903
visibility: 0.9998185038566589
","x: 254.55819702148438
y: 236.45382690429688
z: -0.34040236473083496
visibility: 0.999845027923584
","x: 248.62684631347656
y: 235.8753662109375
z: -0.3401961028575897
visibility: 0.9997522830963135
","x: 247.1282958984375
y: 236.1649932861328
z: -0.3402290940284729
visibility: 0.9997093081474304
","x: 245.53814697265625
y: 236.5155029296875
z: -0.34018415212631226
visibility: 0.9996660947799683
","x: 255.9519805908203
y: 240.75408935546875
z: -0.23427002131938934
visibility: 0.9996775388717651
","x: 242.48362731933594
y: 240.83575439453125
z: -0.23299041390419006
visibility: 0.9991791844367981
","x: 252.98643493652344
y: 249.93247985839844
z: -0.31295374035835266
visibility: 0.9998995065689087
","x: 248.6442413330078
y: 249.97987365722656
z: -0.3126923739910126
visibility: 0.9998379349708557
","x: 268.521240234375
y: 279.0726318359375
z: -0.15387675166130066
visibility: 0.9999310374259949
","x: 230.80604553222656
y: 281.7908935546875
z: -0.11056909710168839
visibility: 0.9993177056312561
","x: 288.041259765625
y: 316.3812255859375
z: -0.09349248558282852
visibility: 0.9650805592536926
","x: 221.77764892578125
y: 324.4473876953125
z: -0.03565583750605583
visibility: 0.7948142290115356
","x: 288.9593811035156
y: 363.6378173828125
z: -0.17321889102458954
visibility: 0.927555501461029
","x: 213.0867462158203
y: 350.294189453125
z: -0.10436073690652847
visibility: 0.5768062472343445
","x: 289.0203552246094
y: 379.3002014160156
z: -0.20146147906780243
visibility: 0.8703916072845459
","x: 211.67967224121094
y: 361.99786376953125
z: -0.12521865963935852
visibility: 0.5282098650932312
","x: 285.0917053222656
y: 379.197265625
z: -0.2373460829257965
visibility: 0.8789381980895996
","x: 211.99459838867188
y: 365.22930908203125
z: -0.1593640148639679
visibility: 0.5402214527130127
","x: 283.9369812011719
y: 374.0457458496094
z: -0.18796351552009583
visibility: 0.8551238179206848
","x: 213.8592529296875
y: 359.2401123046875
z: -0.11948897689580917
visibility: 0.5242877006530762
","x: 263.8067626953125
y: 378.8927917480469
z: -0.004753449000418186
visibility: 0.9995880126953125
","x: 239.1977996826172
y: 379.75262451171875
z: 0.004669454414397478
visibility: 0.9994450807571411
","x: 263.5416259765625
y: 464.43048095703125
z: -0.0023775016888976097
visibility: 0.9947654604911804
","x: 234.61087036132812
y: 464.434814453125
z: 0.0027188127860426903
visibility: 0.99361652135849
","x: 267.0513610839844
y: 532.203369140625
z: 0.14640673995018005
visibility: 0.995241105556488
","x: 231.605712890625
y: 533.656494140625
z: 0.1395774632692337
visibility: 0.9952290654182434
","x: 265.94329833984375
y: 539.4354248046875
z: 0.15279604494571686
visibility: 0.9133305549621582
","x: 233.36549377441406
y: 541.6795654296875
z: 0.14424970746040344
visibility: 0.8831615447998047
","x: 269.3154296875
y: 560.254638671875
z: 0.021928943693637848
visibility: 0.9911782145500183
","x: 227.2189178466797
y: 561.4020385742188
z: 0.018941815942525864
visibility: 0.9913788437843323
",,,,,,,,,,,,,,,,,,,,,,4.5509421825408936,,,,,,,,,,,,,,,,,,,,,
12,"x: 255.16273498535156
y: 241.7129364013672
z: -0.33898457884788513
visibility: 0.9999346137046814
","x: 256.4779968261719
y: 235.80116271972656
z: -0.32680779695510864
visibility: 0.9998155832290649
","x: 257.70147705078125
y: 236.1034393310547
z: -0.3267279267311096
visibility: 0.9998239278793335
","x: 258.8726501464844
y: 236.43829345703125
z: -0.3266236186027527
visibility: 0.9998452663421631
","x: 252.4219970703125
y: 235.746826171875
z: -0.32463085651397705
visibility: 0.9997608661651611
","x: 250.87953186035156
y: 236.03933715820312
z: -0.3247169554233551
visibility: 0.9997258186340332
","x: 249.1655731201172
y: 236.42251586914062
z: -0.324637770652771
visibility: 0.9996871948242188
","x: 260.3349304199219
y: 240.7272186279297
z: -0.2200557440519333
visibility: 0.9996933341026306
","x: 245.87925720214844
y: 241.08201599121094
z: -0.21059691905975342
visibility: 0.999243974685669
","x: 257.629638671875
y: 249.90599060058594
z: -0.2982962727546692
visibility: 0.9999054670333862
","x: 252.72108459472656
y: 249.77285766601562
z: -0.29456403851509094
visibility: 0.9998459815979004
","x: 274.00836181640625
y: 278.77496337890625
z: -0.12530860304832458
visibility: 0.9999359846115112
","x: 234.21221923828125
y: 281.7547607421875
z: -0.08333228528499603
visibility: 0.9993635416030884
","x: 291.06463623046875
y: 315.15191650390625
z: -0.03445183485746384
visibility: 0.9683347940444946
","x: 227.58668518066406
y: 320.22698974609375
z: 0.03153197467327118
visibility: 0.8106329441070557
","x: 292.7613220214844
y: 348.12506103515625
z: -0.10380250215530396
visibility: 0.9338188767433167
","x: 225.95069885253906
y: 358.5479736328125
z: -0.005353657063096762
visibility: 0.6139959692955017
","x: 292.17742919921875
y: 363.2890625
z: -0.12223301082849503
visibility: 0.8796114921569824
","x: 225.5707550048828
y: 371.6345520019531
z: -0.01933935657143593
visibility: 0.5651469230651855
","x: 287.9833068847656
y: 362.10333251953125
z: -0.15823635458946228
visibility: 0.887692391872406
","x: 228.49832153320312
y: 371.409912109375
z: -0.05132428556680679
visibility: 0.5765359401702881
","x: 286.79425048828125
y: 357.587158203125
z: -0.1185230165719986
visibility: 0.865187406539917
","x: 229.45327758789062
y: 366.45037841796875
z: -0.017885444685816765
visibility: 0.560965895652771
","x: 268.44793701171875
y: 380.9554748535156
z: -0.008953103795647621
visibility: 0.9995588660240173
","x: 242.61572265625
y: 380.16180419921875
z: 0.00887929555028677
visibility: 0.9994598627090454
","x: 267.1753234863281
y: 464.82061767578125
z: -0.03656391799449921
visibility: 0.9950687289237976
","x: 234.32199096679688
y: 464.51654052734375
z: -0.03612755984067917
visibility: 0.9940356016159058
","x: 267.4080810546875
y: 533.6423950195312
z: 0.12312762439250946
visibility: 0.9953920841217041
","x: 231.3775177001953
y: 531.2362060546875
z: 0.12926635146141052
visibility: 0.9955133199691772
","x: 265.7882385253906
y: 540.7750244140625
z: 0.12989655137062073
visibility: 0.9122713804244995
","x: 233.5982208251953
y: 540.157958984375
z: 0.13658657670021057
visibility: 0.891490638256073
","x: 269.382568359375
y: 560.4691162109375
z: 0.0024913169909268618
visibility: 0.9913918972015381
","x: 223.7443084716797
y: 559.9495849609375
z: 0.015514755621552467
visibility: 0.9918866157531738
",,,,,,,,,,,,,,,,,,,,,,4.701305150985718,,,,,,,,,,,,,,,,,,,,,
13,"x: 255.16273498535156
y: 241.7129364013672
z: -0.33898457884788513
visibility: 0.9999346137046814
","x: 256.4779968261719
y: 235.80116271972656
z: -0.32680779695510864
visibility: 0.9998155832290649
","x: 257.70147705078125
y: 236.1034393310547
z: -0.3267279267311096
visibility: 0.9998239278793335
","x: 258.8726501464844
y: 236.43829345703125
z: -0.3266236186027527
visibility: 0.9998452663421631
","x: 252.4219970703125
y: 235.746826171875
z: -0.32463085651397705
visibility: 0.9997608661651611
","x: 250.87953186035156
y: 236.03933715820312
z: -0.3247169554233551
visibility: 0.9997258186340332
","x: 249.1655731201172
y: 236.42251586914062
z: -0.324637770652771
visibility: 0.9996871948242188
","x: 260.3349304199219
y: 240.7272186279297
z: -0.2200557440519333
visibility: 0.9996933341026306
","x: 245.87925720214844
y: 241.08201599121094
z: -0.21059691905975342
visibility: 0.999243974685669
","x: 257.629638671875
y: 249.90599060058594
z: -0.2982962727546692
visibility: 0.9999054670333862
","x: 252.72108459472656
y: 249.77285766601562
z: -0.29456403851509094
visibility: 0.9998459815979004
","x: 274.00836181640625
y: 278.77496337890625
z: -0.12530860304832458
visibility: 0.9999359846115112
","x: 234.21221923828125
y: 281.7547607421875
z: -0.08333228528499603
visibility: 0.9993635416030884
","x: 291.06463623046875
y: 315.15191650390625
z: -0.03445183485746384
visibility: 0.9683347940444946
","x: 227.58668518066406
y: 320.22698974609375
z: 0.03153197467327118
visibility: 0.8106329441070557
","x: 292.7613220214844
y: 348.12506103515625
z: -0.10380250215530396
visibility: 0.9338188767433167
","x: 225.95069885253906
y: 358.5479736328125
z: -0.005353657063096762
visibility: 0.6139959692955017
","x: 292.17742919921875
y: 363.2890625
z: -0.12223301082849503
visibility: 0.8796114921569824
","x: 225.5707550048828
y: 371.6345520019531
z: -0.01933935657143593
visibility: 0.5651469230651855
","x: 287.9833068847656
y: 362.10333251953125
z: -0.15823635458946228
visibility: 0.887692391872406
","x: 228.49832153320312
y: 371.409912109375
z: -0.05132428556680679
visibility: 0.5765359401702881
","x: 286.79425048828125
y: 357.587158203125
z: -0.1185230165719986
visibility: 0.865187406539917
","x: 229.45327758789062
y: 366.45037841796875
z: -0.017885444685816765
visibility: 0.560965895652771
","x: 268.44793701171875
y: 380.9554748535156
z: -0.008953103795647621
visibility: 0.9995588660240173
","x: 242.61572265625
y: 380.16180419921875
z: 0.00887929555028677
visibility: 0.9994598627090454
","x: 267.1753234863281
y: 464.82061767578125
z: -0.03656391799449921
visibility: 0.9950687289237976
","x: 234.32199096679688
y: 464.51654052734375
z: -0.03612755984067917
visibility: 0.9940356016159058
","x: 267.4080810546875
y: 533.6423950195312
z: 0.12312762439250946
visibility: 0.9953920841217041
","x: 231.3775177001953
y: 531.2362060546875
z: 0.12926635146141052
visibility: 0.9955133199691772
","x: 265.7882385253906
y: 540.7750244140625
z: 0.12989655137062073
visibility: 0.9122713804244995
","x: 233.5982208251953
y: 540.157958984375
z: 0.13658657670021057
visibility: 0.891490638256073
","x: 269.382568359375
y: 560.4691162109375
z: 0.0024913169909268618
visibility: 0.9913918972015381
","x: 223.7443084716797
y: 559.9495849609375
z: 0.015514755621552467
visibility: 0.9918866157531738
",,,,,,,,,,,,,,,,,,,,,,4.701305150985718,,,,,,,,,,,,,,,,,,,,,
14,"x: 256.93096923828125
y: 241.74069213867188
z: -0.2843364179134369
visibility: 0.9998811483383179
","x: 258.09820556640625
y: 235.97891235351562
z: -0.2686907649040222
visibility: 0.9996956586837769
","x: 259.4004211425781
y: 236.25302124023438
z: -0.2687431573867798
visibility: 0.9997006058692932
","x: 260.63531494140625
y: 236.56185913085938
z: -0.2687909007072449
visibility: 0.9997304081916809
","x: 253.8957061767578
y: 236.149169921875
z: -0.26712602376937866
visibility: 0.9996469020843506
","x: 252.25453186035156
y: 236.61001586914062
z: -0.2671366035938263
visibility: 0.9995871186256409
","x: 250.42945861816406
y: 237.23513793945312
z: -0.267172634601593
visibility: 0.9995640516281128
","x: 261.87908935546875
y: 240.7657470703125
z: -0.163889080286026
visibility: 0.9995356202125549
","x: 247.2927703857422
y: 242.15829467773438
z: -0.15295974910259247
visibility: 0.9990681409835815
","x: 259.3332824707031
y: 249.78355407714844
z: -0.24417372047901154
visibility: 0.9998555183410645
","x: 254.41465759277344
y: 249.79339599609375
z: -0.24099676311016083
visibility: 0.9997785091400146
","x: 275.72003173828125
y: 280.15362548828125
z: -0.10628277063369751
visibility: 0.9999024271965027
","x: 236.4325714111328
y: 281.8820495605469
z: -0.050474293529987335
visibility: 0.9993644952774048
","x: 286.5002136230469
y: 319.0362243652344
z: -0.15099674463272095
visibility: 0.9622960090637207
","x: 229.58621215820312
y: 321.3878173828125
z: 0.014813904650509357
visibility: 0.8104824423789978
","x: 291.29168701171875
y: 335.7789611816406
z: -0.34854060411453247
visibility: 0.9192052483558655
","x: 229.87246704101562
y: 365.9736633300781
z: -0.06523377448320389
visibility: 0.6171556711196899
","x: 286.96142578125
y: 341.83636474609375
z: -0.39152711629867554
visibility: 0.8657394051551819
","x: 229.56932067871094
y: 379.6434020996094
z: -0.08932369947433472
visibility: 0.5628132820129395
","x: 287.51226806640625
y: 334.62725830078125
z: -0.4102226197719574
visibility: 0.8736225366592407
","x: 231.4051513671875
y: 378.2686767578125
z: -0.12120015919208527
visibility: 0.5749467611312866
","x: 285.53851318359375
y: 334.01898193359375
z: -0.3603990375995636
visibility: 0.8447858095169067
","x: 233.0650177001953
y: 373.0895690917969
z: -0.07992926985025406
visibility: 0.558671236038208
","x: 268.7384338378906
y: 382.6019287109375
z: -0.01620819792151451
visibility: 0.9994167685508728
","x: 243.03314208984375
y: 380.96978759765625
z: 0.01625533401966095
visibility: 0.9993898272514343
","x: 267.0357971191406
y: 465.1968994140625
z: -0.029967108741402626
visibility: 0.9950798153877258
","x: 234.80670166015625
y: 466.7454833984375
z: 0.006995215080678463
visibility: 0.9942527413368225
","x: 267.2544860839844
y: 533.6310424804688
z: 0.12458296120166779
visibility: 0.9954279661178589
","x: 231.4263916015625
y: 532.2130737304688
z: 0.153984934091568
visibility: 0.995661735534668
","x: 265.39892578125
y: 540.8414306640625
z: 0.13108143210411072
visibility: 0.9042521715164185
","x: 234.78594970703125
y: 543.576416015625
z: 0.15956276655197144
visibility: 0.8975879549980164
","x: 269.0635986328125
y: 560.4871826171875
z: 0.0016564226243644953
visibility: 0.9911896586418152
","x: 220.4875946044922
y: 560.068359375
z: 0.03959844261407852
visibility: 0.9921268224716187
",,,,,,,,,,,,,,,,,,,,,,4.835209131240845,,,,,,,,,,,,,,,,,,,,,
15,"x: 256.93096923828125
y: 241.74069213867188
z: -0.2843364179134369
visibility: 0.9998811483383179
","x: 258.09820556640625
y: 235.97891235351562
z: -0.2686907649040222
visibility: 0.9996956586837769
","x: 259.4004211425781
y: 236.25302124023438
z: -0.2687431573867798
visibility: 0.9997006058692932
","x: 260.63531494140625
y: 236.56185913085938
z: -0.2687909007072449
visibility: 0.9997304081916809
","x: 253.8957061767578
y: 236.149169921875
z: -0.26712602376937866
visibility: 0.9996469020843506
","x: 252.25453186035156
y: 236.61001586914062
z: -0.2671366035938263
visibility: 0.9995871186256409
","x: 250.42945861816406
y: 237.23513793945312
z: -0.267172634601593
visibility: 0.9995640516281128
","x: 261.87908935546875
y: 240.7657470703125
z: -0.163889080286026
visibility: 0.9995356202125549
","x: 247.2927703857422
y: 242.15829467773438
z: -0.15295974910259247
visibility: 0.9990681409835815
","x: 259.3332824707031
y: 249.78355407714844
z: -0.24417372047901154
visibility: 0.9998555183410645
","x: 254.41465759277344
y: 249.79339599609375
z: -0.24099676311016083
visibility: 0.9997785091400146
","x: 275.72003173828125
y: 280.15362548828125
z: -0.10628277063369751
visibility: 0.9999024271965027
","x: 236.4325714111328
y: 281.8820495605469
z: -0.050474293529987335
visibility: 0.9993644952774048
","x: 286.5002136230469
y: 319.0362243652344
z: -0.15099674463272095
visibility: 0.9622960090637207
","x: 229.58621215820312
y: 321.3878173828125
z: 0.014813904650509357
visibility: 0.8104824423789978
","x: 291.29168701171875
y: 335.7789611816406
z: -0.34854060411453247
visibility: 0.9192052483558655
","x: 229.87246704101562
y: 365.9736633300781
z: -0.06523377448320389
visibility: 0.6171556711196899
","x: 286.96142578125
y: 341.83636474609375
z: -0.39152711629867554
visibility: 0.8657394051551819
","x: 229.56932067871094
y: 379.6434020996094
z: -0.08932369947433472
visibility: 0.5628132820129395
","x: 287.51226806640625
y: 334.62725830078125
z: -0.4102226197719574
visibility: 0.8736225366592407
","x: 231.4051513671875
y: 378.2686767578125
z: -0.12120015919208527
visibility: 0.5749467611312866
","x: 285.53851318359375
y: 334.01898193359375
z: -0.3603990375995636
visibility: 0.8447858095169067
","x: 233.0650177001953
y: 373.0895690917969
z: -0.07992926985025406
visibility: 0.558671236038208
","x: 268.7384338378906
y: 382.6019287109375
z: -0.01620819792151451
visibility: 0.9994167685508728
","x: 243.03314208984375
y: 380.96978759765625
z: 0.01625533401966095
visibility: 0.9993898272514343
","x: 267.0357971191406
y: 465.1968994140625
z: -0.029967108741402626
visibility: 0.9950798153877258
","x: 234.80670166015625
y: 466.7454833984375
z: 0.006995215080678463
visibility: 0.9942527413368225
","x: 267.2544860839844
y: 533.6310424804688
z: 0.12458296120166779
visibility: 0.9954279661178589
","x: 231.4263916015625
y: 532.2130737304688
z: 0.153984934091568
visibility: 0.995661735534668
","x: 265.39892578125
y: 540.8414306640625
z: 0.13108143210411072
visibility: 0.9042521715164185
","x: 234.78594970703125
y: 543.576416015625
z: 0.15956276655197144
visibility: 0.8975879549980164
","x: 269.0635986328125
y: 560.4871826171875
z: 0.0016564226243644953
visibility: 0.9911896586418152
","x: 220.4875946044922
y: 560.068359375
z: 0.03959844261407852
visibility: 0.9921268224716187
",,,,,,,,,,,,,,,,,,,,,,4.835209131240845,,,,,,,,,,,,,,,,,,,,,
16,"x: 255.70492553710938
y: 243.328369140625
z: -0.31782016158103943
visibility: 0.9998722672462463
","x: 257.553466796875
y: 237.48741149902344
z: -0.3043679893016815
visibility: 0.9996767640113831
","x: 259.03173828125
y: 237.7831268310547
z: -0.3044061064720154
visibility: 0.9996759295463562
","x: 260.4543151855469
y: 238.0983123779297
z: -0.30445975065231323
visibility: 0.9997056722640991
","x: 253.2103729248047
y: 237.36473083496094
z: -0.30143651366233826
visibility: 0.9996347427368164
","x: 251.5421142578125
y: 237.66249084472656
z: -0.3014787435531616
visibility: 0.9995729923248291
","x: 249.81739807128906
y: 238.0666961669922
z: -0.3015511631965637
visibility: 0.9995595812797546
","x: 263.2988586425781
y: 241.740966796875
z: -0.19995075464248657
visibility: 0.9994995594024658
","x: 247.35606384277344
y: 242.59860229492188
z: -0.18024078011512756
visibility: 0.9990634322166443
","x: 258.2545166015625
y: 251.52670288085938
z: -0.2770286500453949
visibility: 0.999836802482605
","x: 253.07313537597656
y: 250.88270568847656
z: -0.27209919691085815
visibility: 0.9997619390487671
","x: 274.796630859375
y: 281.6930847167969
z: -0.13438844680786133
visibility: 0.9998286962509155
","x: 237.2754364013672
y: 281.9320068359375
z: -0.06098078936338425
visibility: 0.9993709921836853
","x: 283.4873046875
y: 333.1518249511719
z: -0.18140283226966858
visibility: 0.9536621570587158
","x: 230.1229248046875
y: 321.8216247558594
z: -0.04624994471669197
visibility: 0.7993056178092957
","x: 272.5791931152344
y: 345.68359375
z: -0.35115721821784973
visibility: 0.8880288004875183
","x: 229.9105224609375
y: 367.8095703125
z: -0.16413205862045288
visibility: 0.6004638075828552
","x: 269.05499267578125
y: 352.9457092285156
z: -0.39169302582740784
visibility: 0.8325434923171997
","x: 228.00914001464844
y: 381.8395690917969
z: -0.19716888666152954
visibility: 0.5433129072189331
","x: 269.2444152832031
y: 347.5060729980469
z: -0.410189151763916
visibility: 0.8404974341392517
","x: 230.0661163330078
y: 380.4461364746094
z: -0.22671647369861603
visibility: 0.5559278726577759
","x: 269.1469421386719
y: 345.2337341308594
z: -0.3623819053173065
visibility: 0.8065803647041321
","x: 231.72958374023438
y: 375.3623962402344
z: -0.1790725290775299
visibility: 0.5404274463653564
","x: 267.7896423339844
y: 383.0235290527344
z: -0.017310958355665207
visibility: 0.9993115663528442
","x: 242.62452697753906
y: 381.2919921875
z: 0.01730572059750557
visibility: 0.99936443567276
","x: 266.4845275878906
y: 466.5551452636719
z: -0.026695379987359047
visibility: 0.9951943755149841
","x: 234.43588256835938
y: 467.7587585449219
z: 0.01052802987396717
visibility: 0.9945071339607239
","x: 267.45068359375
y: 533.624267578125
z: 0.1246362179517746
visibility: 0.995578408241272
","x: 231.42620849609375
y: 532.899658203125
z: 0.1612282693386078
visibility: 0.9958890676498413
","x: 266.1547546386719
y: 540.8936767578125
z: 0.13132211565971375
visibility: 0.899334192276001
","x: 235.3110809326172
y: 545.3723754882812
z: 0.16725271940231323
visibility: 0.9043102264404297
","x: 268.8624572753906
y: 560.494140625
z: -0.0006894325488246977
visibility: 0.9913245439529419
","x: 219.37754821777344
y: 560.4114379882812
z: 0.04471876844763756
visibility: 0.9924834966659546
",,,,,,,,,,,,,,,,,,,,,,4.946057081222534,,,,,,,,,,,,,,,,,,,,,
17,"x: 255.70492553710938
y: 243.328369140625
z: -0.31782016158103943
visibility: 0.9998722672462463
","x: 257.553466796875
y: 237.48741149902344
z: -0.3043679893016815
visibility: 0.9996767640113831
","x: 259.03173828125
y: 237.7831268310547
z: -0.3044061064720154
visibility: 0.9996759295463562
","x: 260.4543151855469
y: 238.0983123779297
z: -0.30445975065231323
visibility: 0.9997056722640991
","x: 253.2103729248047
y: 237.36473083496094
z: -0.30143651366233826
visibility: 0.9996347427368164
","x: 251.5421142578125
y: 237.66249084472656
z: -0.3014787435531616
visibility: 0.9995729923248291
","x: 249.81739807128906
y: 238.0666961669922
z: -0.3015511631965637
visibility: 0.9995595812797546
","x: 263.2988586425781
y: 241.740966796875
z: -0.19995075464248657
visibility: 0.9994995594024658
","x: 247.35606384277344
y: 242.59860229492188
z: -0.18024078011512756
visibility: 0.9990634322166443
","x: 258.2545166015625
y: 251.52670288085938
z: -0.2770286500453949
visibility: 0.999836802482605
","x: 253.07313537597656
y: 250.88270568847656
z: -0.27209919691085815
visibility: 0.9997619390487671
","x: 274.796630859375
y: 281.6930847167969
z: -0.13438844680786133
visibility: 0.9998286962509155
","x: 237.2754364013672
y: 281.9320068359375
z: -0.06098078936338425
visibility: 0.9993709921836853
","x: 283.4873046875
y: 333.1518249511719
z: -0.18140283226966858
visibility: 0.9536621570587158
","x: 230.1229248046875
y: 321.8216247558594
z: -0.04624994471669197
visibility: 0.7993056178092957
","x: 272.5791931152344
y: 345.68359375
z: -0.35115721821784973
visibility: 0.8880288004875183
","x: 229.9105224609375
y: 367.8095703125
z: -0.16413205862045288
visibility: 0.6004638075828552
","x: 269.05499267578125
y: 352.9457092285156
z: -0.39169302582740784
visibility: 0.8325434923171997
","x: 228.00914001464844
y: 381.8395690917969
z: -0.19716888666152954
visibility: 0.5433129072189331
","x: 269.2444152832031
y: 347.5060729980469
z: -0.410189151763916
visibility: 0.8404974341392517
","x: 230.0661163330078
y: 380.4461364746094
z: -0.22671647369861603
visibility: 0.5559278726577759
","x: 269.1469421386719
y: 345.2337341308594
z: -0.3623819053173065
visibility: 0.8065803647041321
","x: 231.72958374023438
y: 375.3623962402344
z: -0.1790725290775299
visibility: 0.5404274463653564
","x: 267.7896423339844
y: 383.0235290527344
z: -0.017310958355665207
visibility: 0.9993115663528442
","x: 242.62452697753906
y: 381.2919921875
z: 0.01730572059750557
visibility: 0.99936443567276
","x: 266.4845275878906
y: 466.5551452636719
z: -0.026695379987359047
visibility: 0.9951943755149841
","x: 234.43588256835938
y: 467.7587585449219
z: 0.01052802987396717
visibility: 0.9945071339607239
","x: 267.45068359375
y: 533.624267578125
z: 0.1246362179517746
visibility: 0.995578408241272
","x: 231.42620849609375
y: 532.899658203125
z: 0.1612282693386078
visibility: 0.9958890676498413
","x: 266.1547546386719
y: 540.8936767578125
z: 0.13132211565971375
visibility: 0.899334192276001
","x: 235.3110809326172
y: 545.3723754882812
z: 0.16725271940231323
visibility: 0.9043102264404297
","x: 268.8624572753906
y: 560.494140625
z: -0.0006894325488246977
visibility: 0.9913245439529419
","x: 219.37754821777344
y: 560.4114379882812
z: 0.04471876844763756
visibility: 0.9924834966659546
",,,,,,,,,,,,,,,,,,,,,,4.946057081222534,,,,,,,,,,,,,,,,,,,,,
18,"x: 255.6832733154297
y: 241.3485870361328
z: -0.3177294135093689
visibility: 0.9998281598091125
","x: 257.443359375
y: 235.8551788330078
z: -0.3045837879180908
visibility: 0.99956876039505
","x: 258.817626953125
y: 236.17637634277344
z: -0.30462101101875305
visibility: 0.9995710849761963
","x: 260.2214050292969
y: 236.56375122070312
z: -0.304670512676239
visibility: 0.9996035695075989
","x: 253.25425720214844
y: 236.220947265625
z: -0.30184441804885864
visibility: 0.999523937702179
","x: 251.6613311767578
y: 236.7563018798828
z: -0.30189135670661926
visibility: 0.9994622468948364
","x: 250.15394592285156
y: 237.30722045898438
z: -0.3019666075706482
visibility: 0.9994699358940125
","x: 262.9441833496094
y: 241.4588623046875
z: -0.20207014679908752
visibility: 0.9993433356285095
","x: 247.99778747558594
y: 242.14193725585938
z: -0.18311920762062073
visibility: 0.9988710284233093
","x: 258.41265869140625
y: 250.12457275390625
z: -0.2772899270057678
visibility: 0.9997873902320862
","x: 252.8428192138672
y: 249.70864868164062
z: -0.27251631021499634
visibility: 0.9996973276138306
","x: 274.8565673828125
y: 280.56005859375
z: -0.1352681964635849
visibility: 0.9997652769088745
","x: 238.24485778808594
y: 281.7465515136719
z: -0.07616959512233734
visibility: 0.9993563890457153
","x: 282.8505859375
y: 331.7982177734375
z: -0.15899065136909485
visibility: 0.9429855346679688
","x: 230.7034149169922
y: 324.0533142089844
z: -0.047558240592479706
visibility: 0.7924315333366394
","x: 267.12994384765625
y: 348.478759765625
z: -0.3071169853210449
visibility: 0.8496315479278564
","x: 229.85523986816406
y: 363.5308837890625
z: -0.15900148451328278
visibility: 0.5892603993415833
","x: 263.7864074707031
y: 356.9259338378906
z: -0.34386101365089417
visibility: 0.7949169874191284
","x: 228.0548858642578
y: 379.3896484375
z: -0.19488587975502014
visibility: 0.5308812856674194
","x: 263.2767639160156
y: 352.0567321777344
z: -0.36618268489837646
visibility: 0.802801787853241
","x: 228.98744201660156
y: 377.3382873535156
z: -0.22278746962547302
visibility: 0.544100284576416
","x: 263.5330505371094
y: 348.7350769042969
z: -0.31893235445022583
visibility: 0.7657546997070312
","x: 230.6272430419922
y: 371.74822998046875
z: -0.17384585738182068
visibility: 0.5283235907554626
","x: 267.0531921386719
y: 382.67218017578125
z: -0.016694344580173492
visibility: 0.9992361068725586
","x: 242.42262268066406
y: 380.9156494140625
z: 0.016668934375047684
visibility: 0.999330997467041
","x: 266.3070983886719
y: 466.563720703125
z: -0.030862733721733093
visibility: 0.9952283501625061
","x: 234.3416748046875
y: 467.6058654785156
z: 0.0041994620114564896
visibility: 0.9946810603141785
","x: 267.66839599609375
y: 533.6927490234375
z: 0.12545163929462433
visibility: 0.9956426620483398
","x: 231.08993530273438
y: 532.3255004882812
z: 0.15770062804222107
visibility: 0.9959763884544373
","x: 266.73626708984375
y: 540.933837890625
z: 0.13188017904758453
visibility: 0.8912546634674072
","x: 235.08412170410156
y: 542.7533569335938
z: 0.164757639169693
visibility: 0.9076018333435059
","x: 268.7297668457031
y: 560.5015258789062
z: -0.0042758239433169365
visibility: 0.9913080930709839
","x: 220.51516723632812
y: 560.4430541992188
z: 0.04047480970621109
visibility: 0.9926111102104187
",,,,,,,,,,,,,,,,,,,,,,5.074106216430664,,,,,,,,,,,,,,,,,,,,,
19,"x: 255.6832733154297
y: 241.3485870361328
z: -0.3177294135093689
visibility: 0.9998281598091125
","x: 257.443359375
y: 235.8551788330078
z: -0.3045837879180908
visibility: 0.99956876039505
","x: 258.817626953125
y: 236.17637634277344
z: -0.30462101101875305
visibility: 0.9995710849761963
","x: 260.2214050292969
y: 236.56375122070312
z: -0.304670512676239
visibility: 0.9996035695075989
","x: 253.25425720214844
y: 236.220947265625
z: -0.30184441804885864
visibility: 0.999523937702179
","x: 251.6613311767578
y: 236.7563018798828
z: -0.30189135670661926
visibility: 0.9994622468948364
","x: 250.15394592285156
y: 237.30722045898438
z: -0.3019666075706482
visibility: 0.9994699358940125
","x: 262.9441833496094
y: 241.4588623046875
z: -0.20207014679908752
visibility: 0.9993433356285095
","x: 247.99778747558594
y: 242.14193725585938
z: -0.18311920762062073
visibility: 0.9988710284233093
","x: 258.41265869140625
y: 250.12457275390625
z: -0.2772899270057678
visibility: 0.9997873902320862
","x: 252.8428192138672
y: 249.70864868164062
z: -0.27251631021499634
visibility: 0.9996973276138306
","x: 274.8565673828125
y: 280.56005859375
z: -0.1352681964635849
visibility: 0.9997652769088745
","x: 238.24485778808594
y: 281.7465515136719
z: -0.07616959512233734
visibility: 0.9993563890457153
","x: 282.8505859375
y: 331.7982177734375
z: -0.15899065136909485
visibility: 0.9429855346679688
","x: 230.7034149169922
y: 324.0533142089844
z: -0.047558240592479706
visibility: 0.7924315333366394
","x: 267.12994384765625
y: 348.478759765625
z: -0.3071169853210449
visibility: 0.8496315479278564
","x: 229.85523986816406
y: 363.5308837890625
z: -0.15900148451328278
visibility: 0.5892603993415833
","x: 263.7864074707031
y: 356.9259338378906
z: -0.34386101365089417
visibility: 0.7949169874191284
","x: 228.0548858642578
y: 379.3896484375
z: -0.19488587975502014
visibility: 0.5308812856674194
","x: 263.2767639160156
y: 352.0567321777344
z: -0.36618268489837646
visibility: 0.802801787853241
","x: 228.98744201660156
y: 377.3382873535156
z: -0.22278746962547302
visibility: 0.544100284576416
","x: 263.5330505371094
y: 348.7350769042969
z: -0.31893235445022583
visibility: 0.7657546997070312
","x: 230.6272430419922
y: 371.74822998046875
z: -0.17384585738182068
visibility: 0.5283235907554626
","x: 267.0531921386719
y: 382.67218017578125
z: -0.016694344580173492
visibility: 0.9992361068725586
","x: 242.42262268066406
y: 380.9156494140625
z: 0.016668934375047684
visibility: 0.999330997467041
","x: 266.3070983886719
y: 466.563720703125
z: -0.030862733721733093
visibility: 0.9952283501625061
","x: 234.3416748046875
y: 467.6058654785156
z: 0.0041994620114564896
visibility: 0.9946810603141785
","x: 267.66839599609375
y: 533.6927490234375
z: 0.12545163929462433
visibility: 0.9956426620483398
","x: 231.08993530273438
y: 532.3255004882812
z: 0.15770062804222107
visibility: 0.9959763884544373
","x: 266.73626708984375
y: 540.933837890625
z: 0.13188017904758453
visibility: 0.8912546634674072
","x: 235.08412170410156
y: 542.7533569335938
z: 0.164757639169693
visibility: 0.9076018333435059
","x: 268.7297668457031
y: 560.5015258789062
z: -0.0042758239433169365
visibility: 0.9913080930709839
","x: 220.51516723632812
y: 560.4430541992188
z: 0.04047480970621109
visibility: 0.9926111102104187
",,,,,,,,,,,,,,,,,,,,,,5.074106216430664,,,,,,,,,,,,,,,,,,,,,
20,"x: 257.0658874511719
y: 237.56390380859375
z: -0.31100234389305115
visibility: 0.9998220205307007
","x: 258.8331298828125
y: 232.0295867919922
z: -0.2982320189476013
visibility: 0.9995622634887695
","x: 260.2828369140625
y: 232.52001953125
z: -0.2982662618160248
visibility: 0.9995567202568054
","x: 261.6312561035156
y: 233.104736328125
z: -0.2983143925666809
visibility: 0.9995886087417603
","x: 254.6578826904297
y: 231.87730407714844
z: -0.29634037613868713
visibility: 0.9995248317718506
","x: 252.96461486816406
y: 232.2479248046875
z: -0.29639533162117004
visibility: 0.99946528673172
","x: 251.2502899169922
y: 232.77342224121094
z: -0.2964572310447693
visibility: 0.9994821548461914
","x: 264.2403869628906
y: 238.95590209960938
z: -0.1986318975687027
visibility: 0.9993130564689636
","x: 248.49600219726562
y: 238.17333984375
z: -0.18354900181293488
visibility: 0.9989046454429626
","x: 259.2835998535156
y: 246.4247283935547
z: -0.2708006203174591
visibility: 0.9997749924659729
","x: 254.0278778076172
y: 245.64430236816406
z: -0.26763513684272766
visibility: 0.9996913075447083
","x: 275.69610595703125
y: 276.9813232421875
z: -0.11859574168920517
visibility: 0.9997104406356812
","x: 239.15794372558594
y: 279.4762268066406
z: -0.08042837679386139
visibility: 0.9993717670440674
","x: 283.0804138183594
y: 329.804931640625
z: -0.13206514716148376
visibility: 0.934765100479126
","x: 232.43670654296875
y: 324.6277160644531
z: -0.014461261220276356
visibility: 0.7931301593780518
","x: 268.1216735839844
y: 338.4599609375
z: -0.2601444721221924
visibility: 0.8176713585853577
","x: 231.52557373046875
y: 359.6585388183594
z: -0.07458169758319855
visibility: 0.5881697535514832
","x: 267.4135437011719
y: 345.03802490234375
z: -0.29271966218948364
visibility: 0.7602414488792419
","x: 231.07211303710938
y: 375.07763671875
z: -0.09713298082351685
visibility: 0.5254713892936707
","x: 265.6884460449219
y: 339.6094055175781
z: -0.31586575508117676
visibility: 0.7680048942565918
","x: 231.79629516601562
y: 373.62811279296875
z: -0.12667377293109894
visibility: 0.5389971733093262
","x: 264.7939453125
y: 337.0797424316406
z: -0.271729052066803
visibility: 0.7290335297584534
","x: 234.0238037109375
y: 366.80950927734375
z: -0.08730196952819824
visibility: 0.5233108997344971
","x: 268.5525817871094
y: 380.8543395996094
z: -0.014764755964279175
visibility: 0.9990254640579224
","x: 243.43731689453125
y: 379.7312927246094
z: 0.0147617282345891
visibility: 0.9992043972015381
","x: 266.78118896484375
y: 463.5234375
z: -0.019746487960219383
visibility: 0.9948428869247437
","x: 234.71461486816406
y: 463.9061279296875
z: 0.006639889441430569
visibility: 0.9946011304855347
","x: 268.5410461425781
y: 533.6766357421875
z: 0.11569111049175262
visibility: 0.9953284859657288
","x: 230.5487060546875
y: 532.2078857421875
z: 0.13731969892978668
visibility: 0.9958380460739136
","x: 267.8486328125
y: 540.9654541015625
z: 0.11965268850326538
visibility: 0.876740574836731
","x: 233.89007568359375
y: 542.439697265625
z: 0.1410529911518097
visibility: 0.908099889755249
","x: 268.889892578125
y: 560.65478515625
z: -0.015234033577144146
visibility: 0.9904035925865173
","x: 220.91465759277344
y: 560.0505981445312
z: 0.01757427304983139
visibility: 0.9923283457756042
",,,,,,,,,,,,,,,,,,,,,,5.196625709533691,,,,,,,,,,,,,,,,,,,,,
21,"x: 257.0658874511719
y: 237.56390380859375
z: -0.31100234389305115
visibility: 0.9998220205307007
","x: 258.8331298828125
y: 232.0295867919922
z: -0.2982320189476013
visibility: 0.9995622634887695
","x: 260.2828369140625
y: 232.52001953125
z: -0.2982662618160248
visibility: 0.9995567202568054
","x: 261.6312561035156
y: 233.104736328125
z: -0.2983143925666809
visibility: 0.9995886087417603
","x: 254.6578826904297
y: 231.87730407714844
z: -0.29634037613868713
visibility: 0.9995248317718506
","x: 252.96461486816406
y: 232.2479248046875
z: -0.29639533162117004
visibility: 0.99946528673172
","x: 251.2502899169922
y: 232.77342224121094
z: -0.2964572310447693
visibility: 0.9994821548461914
","x: 264.2403869628906
y: 238.95590209960938
z: -0.1986318975687027
visibility: 0.9993130564689636
","x: 248.49600219726562
y: 238.17333984375
z: -0.18354900181293488
visibility: 0.9989046454429626
","x: 259.2835998535156
y: 246.4247283935547
z: -0.2708006203174591
visibility: 0.9997749924659729
","x: 254.0278778076172
y: 245.64430236816406
z: -0.26763513684272766
visibility: 0.9996913075447083
","x: 275.69610595703125
y: 276.9813232421875
z: -0.11859574168920517
visibility: 0.9997104406356812
","x: 239.15794372558594
y: 279.4762268066406
z: -0.08042837679386139
visibility: 0.9993717670440674
","x: 283.0804138183594
y: 329.804931640625
z: -0.13206514716148376
visibility: 0.934765100479126
","x: 232.43670654296875
y: 324.6277160644531
z: -0.014461261220276356
visibility: 0.7931301593780518
","x: 268.1216735839844
y: 338.4599609375
z: -0.2601444721221924
visibility: 0.8176713585853577
","x: 231.52557373046875
y: 359.6585388183594
z: -0.07458169758319855
visibility: 0.5881697535514832
","x: 267.4135437011719
y: 345.03802490234375
z: -0.29271966218948364
visibility: 0.7602414488792419
","x: 231.07211303710938
y: 375.07763671875
z: -0.09713298082351685
visibility: 0.5254713892936707
","x: 265.6884460449219
y: 339.6094055175781
z: -0.31586575508117676
visibility: 0.7680048942565918
","x: 231.79629516601562
y: 373.62811279296875
z: -0.12667377293109894
visibility: 0.5389971733093262
","x: 264.7939453125
y: 337.0797424316406
z: -0.271729052066803
visibility: 0.7290335297584534
","x: 234.0238037109375
y: 366.80950927734375
z: -0.08730196952819824
visibility: 0.5233108997344971
","x: 268.5525817871094
y: 380.8543395996094
z: -0.014764755964279175
visibility: 0.9990254640579224
","x: 243.43731689453125
y: 379.7312927246094
z: 0.0147617282345891
visibility: 0.9992043972015381
","x: 266.78118896484375
y: 463.5234375
z: -0.019746487960219383
visibility: 0.9948428869247437
","x: 234.71461486816406
y: 463.9061279296875
z: 0.006639889441430569
visibility: 0.9946011304855347
","x: 268.5410461425781
y: 533.6766357421875
z: 0.11569111049175262
visibility: 0.9953284859657288
","x: 230.5487060546875
y: 532.2078857421875
z: 0.13731969892978668
visibility: 0.9958380460739136
","x: 267.8486328125
y: 540.9654541015625
z: 0.11965268850326538
visibility: 0.876740574836731
","x: 233.89007568359375
y: 542.439697265625
z: 0.1410529911518097
visibility: 0.908099889755249
","x: 268.889892578125
y: 560.65478515625
z: -0.015234033577144146
visibility: 0.9904035925865173
","x: 220.91465759277344
y: 560.0505981445312
z: 0.01757427304983139
visibility: 0.9923283457756042
",,,,,,,,,,,,,,,,,,,,,,5.196625709533691,,,,,,,,,,,,,,,,,,,,,
22,"x: 257.61907958984375
y: 238.35874938964844
z: -0.293945848941803
visibility: 0.9997621774673462
","x: 259.3450622558594
y: 232.35357666015625
z: -0.28014543652534485
visibility: 0.9994243383407593
","x: 260.6893615722656
y: 232.86004638671875
z: -0.2802070081233978
visibility: 0.9994097948074341
","x: 262.0556945800781
y: 233.45989990234375
z: -0.2802637219429016
visibility: 0.9994475245475769
","x: 255.1396484375
y: 232.0115966796875
z: -0.27969568967819214
visibility: 0.9994064569473267
","x: 253.44297790527344
y: 232.2716064453125
z: -0.2797279953956604
visibility: 0.9993337392807007
","x: 251.8864288330078
y: 232.89048767089844
z: -0.2797863483428955
visibility: 0.9993675947189331
","x: 264.4159240722656
y: 239.04786682128906
z: -0.18015502393245697
visibility: 0.999069094657898
","x: 248.8488006591797
y: 238.33392333984375
z: -0.17380984127521515
visibility: 0.9986624717712402
","x: 259.8701171875
y: 247.0020751953125
z: -0.2544023394584656
visibility: 0.9996722936630249
","x: 254.44424438476562
y: 245.94784545898438
z: -0.2531091272830963
visibility: 0.9995765089988708
","x: 275.7756652832031
y: 277.73486328125
z: -0.11315170675516129
visibility: 0.9996221661567688
","x: 238.82591247558594
y: 280.85833740234375
z: -0.07465193420648575
visibility: 0.9993195533752441
","x: 282.5012512207031
y: 330.3346252441406
z: -0.126569002866745
visibility: 0.9249803423881531
","x: 233.84425354003906
y: 332.60748291015625
z: -0.02081475406885147
visibility: 0.7752912640571594
","x: 268.85577392578125
y: 342.8528137207031
z: -0.26811686158180237
visibility: 0.7862729430198669
","x: 235.2948760986328
y: 368.386474609375
z: -0.10306127369403839
visibility: 0.5687541961669922
","x: 268.9917907714844
y: 350.607177734375
z: -0.3034628927707672
visibility: 0.7297537326812744
","x: 234.58839416503906
y: 382.0882568359375
z: -0.12916377186775208
visibility: 0.506701648235321
","x: 266.4548645019531
y: 345.1429748535156
z: -0.3244496285915375
visibility: 0.7376156449317932
","x: 234.97909545898438
y: 383.7251281738281
z: -0.15970274806022644
visibility: 0.5202468633651733
","x: 264.8711853027344
y: 342.2185974121094
z: -0.2794801592826843
visibility: 0.6970417499542236
","x: 236.52774047851562
y: 377.4697570800781
z: -0.11706904321908951
visibility: 0.505010724067688
","x: 269.1575012207031
y: 381.9962158203125
z: -0.016991551965475082
visibility: 0.9987819790840149
","x: 243.95433044433594
y: 382.3254699707031
z: 0.017041919752955437
visibility: 0.9990677833557129
","x: 266.92034912109375
y: 464.1503601074219
z: -0.006029228679835796
visibility: 0.9943275451660156
","x: 236.53041076660156
y: 464.5355529785156
z: 0.025544917210936546
visibility: 0.9941098690032959
","x: 268.56622314453125
y: 534.1171875
z: 0.1135653704404831
visibility: 0.9948490858078003
","x: 231.05532836914062
y: 533.3966674804688
z: 0.14321386814117432
visibility: 0.995579719543457
","x: 267.6937255859375
y: 542.1863403320312
z: 0.11627854406833649
visibility: 0.8636085987091064
","x: 234.5570068359375
y: 545.6170654296875
z: 0.14593817293643951
visibility: 0.9089052677154541
","x: 268.8077087402344
y: 560.7457885742188
z: -0.013920004479587078
visibility: 0.9891507625579834
","x: 219.9869842529297
y: 560.0291748046875
z: 0.02766023576259613
visibility: 0.9918070435523987
",,,,,,,,,,,,,,,,,,,,,,5.339617490768433,,,,,,,,,,,,,,,,,,,,,
23,"x: 257.61907958984375
y: 238.35874938964844
z: -0.293945848941803
visibility: 0.9997621774673462
","x: 259.3450622558594
y: 232.35357666015625
z: -0.28014543652534485
visibility: 0.9994243383407593
","x: 260.6893615722656
y: 232.86004638671875
z: -0.2802070081233978
visibility: 0.9994097948074341
","x: 262.0556945800781
y: 233.45989990234375
z: -0.2802637219429016
visibility: 0.9994475245475769
","x: 255.1396484375
y: 232.0115966796875
z: -0.27969568967819214
visibility: 0.9994064569473267
","x: 253.44297790527344
y: 232.2716064453125
z: -0.2797279953956604
visibility: 0.9993337392807007
","x: 251.8864288330078
y: 232.89048767089844
z: -0.2797863483428955
visibility: 0.9993675947189331
","x: 264.4159240722656
y: 239.04786682128906
z: -0.18015502393245697
visibility: 0.999069094657898
","x: 248.8488006591797
y: 238.33392333984375
z: -0.17380984127521515
visibility: 0.9986624717712402
","x: 259.8701171875
y: 247.0020751953125
z: -0.2544023394584656
visibility: 0.9996722936630249
","x: 254.44424438476562
y: 245.94784545898438
z: -0.2531091272830963
visibility: 0.9995765089988708
","x: 275.7756652832031
y: 277.73486328125
z: -0.11315170675516129
visibility: 0.9996221661567688
","x: 238.82591247558594
y: 280.85833740234375
z: -0.07465193420648575
visibility: 0.9993195533752441
","x: 282.5012512207031
y: 330.3346252441406
z: -0.126569002866745
visibility: 0.9249803423881531
","x: 233.84425354003906
y: 332.60748291015625
z: -0.02081475406885147
visibility: 0.7752912640571594
","x: 268.85577392578125
y: 342.8528137207031
z: -0.26811686158180237
visibility: 0.7862729430198669
","x: 235.2948760986328
y: 368.386474609375
z: -0.10306127369403839
visibility: 0.5687541961669922
","x: 268.9917907714844
y: 350.607177734375
z: -0.3034628927707672
visibility: 0.7297537326812744
","x: 234.58839416503906
y: 382.0882568359375
z: -0.12916377186775208
visibility: 0.506701648235321
","x: 266.4548645019531
y: 345.1429748535156
z: -0.3244496285915375
visibility: 0.7376156449317932
","x: 234.97909545898438
y: 383.7251281738281
z: -0.15970274806022644
visibility: 0.5202468633651733
","x: 264.8711853027344
y: 342.2185974121094
z: -0.2794801592826843
visibility: 0.6970417499542236
","x: 236.52774047851562
y: 377.4697570800781
z: -0.11706904321908951
visibility: 0.505010724067688
","x: 269.1575012207031
y: 381.9962158203125
z: -0.016991551965475082
visibility: 0.9987819790840149
","x: 243.95433044433594
y: 382.3254699707031
z: 0.017041919752955437
visibility: 0.9990677833557129
","x: 266.92034912109375
y: 464.1503601074219
z: -0.006029228679835796
visibility: 0.9943275451660156
","x: 236.53041076660156
y: 464.5355529785156
z: 0.025544917210936546
visibility: 0.9941098690032959
","x: 268.56622314453125
y: 534.1171875
z: 0.1135653704404831
visibility: 0.9948490858078003
","x: 231.05532836914062
y: 533.3966674804688
z: 0.14321386814117432
visibility: 0.995579719543457
","x: 267.6937255859375
y: 542.1863403320312
z: 0.11627854406833649
visibility: 0.8636085987091064
","x: 234.5570068359375
y: 545.6170654296875
z: 0.14593817293643951
visibility: 0.9089052677154541
","x: 268.8077087402344
y: 560.7457885742188
z: -0.013920004479587078
visibility: 0.9891507625579834
","x: 219.9869842529297
y: 560.0291748046875
z: 0.02766023576259613
visibility: 0.9918070435523987
",,,,,,,,,,,,,,,,,,,,,,5.339617490768433,,,,,,,,,,,,,,,,,,,,,
24,"x: 257.5602111816406
y: 240.78497314453125
z: -0.31290897727012634
visibility: 0.9997768402099609
","x: 259.2399597167969
y: 234.7030487060547
z: -0.29599958658218384
visibility: 0.9994499087333679
","x: 260.4139709472656
y: 234.9097900390625
z: -0.2960597574710846
visibility: 0.9994419813156128
","x: 261.6482849121094
y: 235.1590576171875
z: -0.29610979557037354
visibility: 0.9994713068008423
","x: 255.2261962890625
y: 234.70166015625
z: -0.2929168939590454
visibility: 0.9994213581085205
","x: 253.59140014648438
y: 234.8628387451172
z: -0.29289236664772034
visibility: 0.9993512630462646
","x: 252.08067321777344
y: 235.2018585205078
z: -0.2929432988166809
visibility: 0.9993758201599121
","x: 263.7579345703125
y: 239.82835388183594
z: -0.18070131540298462
visibility: 0.9991136789321899
","x: 248.63943481445312
y: 239.69122314453125
z: -0.17454847693443298
visibility: 0.9987344145774841
","x: 259.8037109375
y: 249.145263671875
z: -0.268180787563324
visibility: 0.9996942281723022
","x: 254.4105682373047
y: 248.57168579101562
z: -0.2629205584526062
visibility: 0.9996036291122437
","x: 275.1274719238281
y: 278.12908935546875
z: -0.1174834743142128
visibility: 0.9996539354324341
","x: 237.60787963867188
y: 281.1626892089844
z: -0.06599343568086624
visibility: 0.9993698000907898
","x: 281.9730529785156
y: 330.16607666015625
z: -0.20464639365673065
visibility: 0.9250635504722595
","x: 231.69534301757812
y: 330.3305358886719
z: -0.006105237640440464
visibility: 0.7919005155563354
","x: 277.5464172363281
y: 327.9516906738281
z: -0.4693455696105957
visibility: 0.8025776147842407
","x: 233.4716796875
y: 365.5474548339844
z: -0.09745116531848907
visibility: 0.6036295294761658
","x: 280.904296875
y: 329.4559326171875
z: -0.5242757201194763
visibility: 0.7506908178329468
","x: 233.19500732421875
y: 380.3988342285156
z: -0.12519699335098267
visibility: 0.541657030582428
","x: 279.7579650878906
y: 323.9428405761719
z: -0.5482290983200073
visibility: 0.7582747936248779
","x: 234.97769165039062
y: 378.5014343261719
z: -0.15429291129112244
visibility: 0.5546274781227112
","x: 276.0102844238281
y: 322.6065368652344
z: -0.4855210781097412
visibility: 0.7183858752250671
","x: 236.3728790283203
y: 373.5772705078125
z: -0.11083410680294037
visibility: 0.5385198593139648
","x: 271.1293029785156
y: 382.0260925292969
z: -0.017113298177719116
visibility: 0.9988687634468079
","x: 244.96401977539062
y: 382.6112060546875
z: 0.01717299036681652
visibility: 0.9991311430931091
","x: 268.63714599609375
y: 465.50982666015625
z: -0.04856514185667038
visibility: 0.9943409562110901
","x: 235.75570678710938
y: 464.5323486328125
z: -0.018023166805505753
visibility: 0.9943952560424805
","x: 268.9775390625
y: 534.1096801757812
z: 0.16277018189430237
visibility: 0.9947096109390259
","x: 230.98590087890625
y: 531.265625
z: 0.19724860787391663
visibility: 0.9955431222915649
","x: 267.7886047363281
y: 541.716552734375
z: 0.17660656571388245
visibility: 0.8593497276306152
","x: 234.53330993652344
y: 540.8995971679688
z: 0.2116173803806305
visibility: 0.9123363494873047
","x: 268.749267578125
y: 560.6559448242188
z: 0.03905270993709564
visibility: 0.9890550971031189
","x: 220.4407196044922
y: 560.0458984375
z: 0.09385667741298676
visibility: 0.9918000102043152
",,,,,,,,,,,,,,,,,,,,,,5.46555757522583,,,,,,,,,,,,,,,,,,,,,
25,"x: 257.5602111816406
y: 240.78497314453125
z: -0.31290897727012634
visibility: 0.9997768402099609
","x: 259.2399597167969
y: 234.7030487060547
z: -0.29599958658218384
visibility: 0.9994499087333679
","x: 260.4139709472656
y: 234.9097900390625
z: -0.2960597574710846
visibility: 0.9994419813156128
","x: 261.6482849121094
y: 235.1590576171875
z: -0.29610979557037354
visibility: 0.9994713068008423
","x: 255.2261962890625
y: 234.70166015625
z: -0.2929168939590454
visibility: 0.9994213581085205
","x: 253.59140014648438
y: 234.8628387451172
z: -0.29289236664772034
visibility: 0.9993512630462646
","x: 252.08067321777344
y: 235.2018585205078
z: -0.2929432988166809
visibility: 0.9993758201599121
","x: 263.7579345703125
y: 239.82835388183594
z: -0.18070131540298462
visibility: 0.9991136789321899
","x: 248.63943481445312
y: 239.69122314453125
z: -0.17454847693443298
visibility: 0.9987344145774841
","x: 259.8037109375
y: 249.145263671875
z: -0.268180787563324
visibility: 0.9996942281723022
","x: 254.4105682373047
y: 248.57168579101562
z: -0.2629205584526062
visibility: 0.9996036291122437
","x: 275.1274719238281
y: 278.12908935546875
z: -0.1174834743142128
visibility: 0.9996539354324341
","x: 237.60787963867188
y: 281.1626892089844
z: -0.06599343568086624
visibility: 0.9993698000907898
","x: 281.9730529785156
y: 330.16607666015625
z: -0.20464639365673065
visibility: 0.9250635504722595
","x: 231.69534301757812
y: 330.3305358886719
z: -0.006105237640440464
visibility: 0.7919005155563354
","x: 277.5464172363281
y: 327.9516906738281
z: -0.4693455696105957
visibility: 0.8025776147842407
","x: 233.4716796875
y: 365.5474548339844
z: -0.09745116531848907
visibility: 0.6036295294761658
","x: 280.904296875
y: 329.4559326171875
z: -0.5242757201194763
visibility: 0.7506908178329468
","x: 233.19500732421875
y: 380.3988342285156
z: -0.12519699335098267
visibility: 0.541657030582428
","x: 279.7579650878906
y: 323.9428405761719
z: -0.5482290983200073
visibility: 0.7582747936248779
","x: 234.97769165039062
y: 378.5014343261719
z: -0.15429291129112244
visibility: 0.5546274781227112
","x: 276.0102844238281
y: 322.6065368652344
z: -0.4855210781097412
visibility: 0.7183858752250671
","x: 236.3728790283203
y: 373.5772705078125
z: -0.11083410680294037
visibility: 0.5385198593139648
","x: 271.1293029785156
y: 382.0260925292969
z: -0.017113298177719116
visibility: 0.9988687634468079
","x: 244.96401977539062
y: 382.6112060546875
z: 0.01717299036681652
visibility: 0.9991311430931091
","x: 268.63714599609375
y: 465.50982666015625
z: -0.04856514185667038
visibility: 0.9943409562110901
","x: 235.75570678710938
y: 464.5323486328125
z: -0.018023166805505753
visibility: 0.9943952560424805
","x: 268.9775390625
y: 534.1096801757812
z: 0.16277018189430237
visibility: 0.9947096109390259
","x: 230.98590087890625
y: 531.265625
z: 0.19724860787391663
visibility: 0.9955431222915649
","x: 267.7886047363281
y: 541.716552734375
z: 0.17660656571388245
visibility: 0.8593497276306152
","x: 234.53330993652344
y: 540.8995971679688
z: 0.2116173803806305
visibility: 0.9123363494873047
","x: 268.749267578125
y: 560.6559448242188
z: 0.03905270993709564
visibility: 0.9890550971031189
","x: 220.4407196044922
y: 560.0458984375
z: 0.09385667741298676
visibility: 0.9918000102043152
",,,,,,,,,,,,,,,,,,,,,,5.46555757522583,,,,,,,,,,,,,,,,,,,,,
26,"x: 255.67880249023438
y: 241.74990844726562
z: -0.2954142689704895
visibility: 0.9997975826263428
","x: 257.627197265625
y: 235.8184051513672
z: -0.28136587142944336
visibility: 0.9994989633560181
","x: 258.85986328125
y: 235.93121337890625
z: -0.281350314617157
visibility: 0.9994921088218689
","x: 260.0076599121094
y: 236.08242797851562
z: -0.28137317299842834
visibility: 0.9995185732841492
","x: 253.5716552734375
y: 235.8302001953125
z: -0.2833855152130127
visibility: 0.9994729161262512
","x: 252.04527282714844
y: 235.9185791015625
z: -0.2833971083164215
visibility: 0.9994101524353027
","x: 250.7860565185547
y: 236.13226318359375
z: -0.2833830416202545
visibility: 0.999431848526001
","x: 261.4337158203125
y: 240.3941192626953
z: -0.17873713374137878
visibility: 0.9991923570632935
","x: 248.01852416992188
y: 240.4498291015625
z: -0.1857660710811615
visibility: 0.9988512992858887
","x: 258.0379638671875
y: 249.7017822265625
z: -0.25629764795303345
visibility: 0.999722421169281
","x: 252.259765625
y: 249.38250732421875
z: -0.25876930356025696
visibility: 0.9996404051780701
","x: 273.9342956542969
y: 279.9796142578125
z: -0.0995912030339241
visibility: 0.9996870160102844
","x: 234.5709991455078
y: 282.00421142578125
z: -0.09616809338331223
visibility: 0.9994236826896667
","x: 286.71014404296875
y: 321.8457336425781
z: -0.023269856348633766
visibility: 0.931982696056366
","x: 220.8209228515625
y: 317.63189697265625
z: -0.01824403926730156
visibility: 0.8107537627220154
","x: 304.4086608886719
y: 333.67669677734375
z: -0.09594792872667313
visibility: 0.8213447332382202
","x: 229.62757873535156
y: 357.47393798828125
z: -0.03422622010111809
visibility: 0.6322325468063354
","x: 310.8200378417969
y: 342.3857421875
z: -0.1133715882897377
visibility: 0.7729526162147522
","x: 231.68479919433594
y: 372.2342529296875
z: -0.043442729860544205
visibility: 0.5642409324645996
","x: 311.5604553222656
y: 347.98468017578125
z: -0.14888250827789307
visibility: 0.7802216410636902
","x: 232.38372802734375
y: 370.2554626464844
z: -0.06762947142124176
visibility: 0.5768631100654602
","x: 309.1376953125
y: 344.74853515625
z: -0.1119270920753479
visibility: 0.7436743974685669
","x: 235.18894958496094
y: 365.0494079589844
z: -0.04318835586309433
visibility: 0.5613772869110107
","x: 269.75946044921875
y: 382.14404296875
z: -0.0053551942110061646
visibility: 0.9989109039306641
","x: 243.9338836669922
y: 384.8414611816406
z: 0.005364876706153154
visibility: 0.9991265535354614
","x: 268.64129638671875
y: 463.8870544433594
z: -0.013366726227104664
visibility: 0.9942138195037842
","x: 234.24191284179688
y: 465.93560791015625
z: -0.015099838376045227
visibility: 0.9942182302474976
","x: 269.476806640625
y: 533.3446044921875
z: 0.15185734629631042
visibility: 0.9944154024124146
","x: 223.44471740722656
y: 531.7490234375
z: 0.13347254693508148
visibility: 0.9948673844337463
","x: 267.9492492675781
y: 540.7560424804688
z: 0.16403380036354065
visibility: 0.8553503155708313
","x: 223.1761474609375
y: 540.3197631835938
z: 0.14048734307289124
visibility: 0.901109516620636
","x: 269.3224792480469
y: 560.45458984375
z: 0.024939680472016335
visibility: 0.9885796904563904
","x: 220.6572723388672
