uscmakers/ReverseChoreography/data/10_idontwannabeyouanymore_billie_eilish.csv
,NOSE,LEFT_EYE_INNER,LEFT_EYE,LEFT_EYE_OUTER,RIGHT_EYE_INNER,RIGHT_EYE,RIGHT_EYE_OUTER,LEFT_EAR,RIGHT_EAR,MOUTH_LEFT,MOUTH_RIGHT,LEFT_SHOULDER,RIGHT_SHOULDER,LEFT_ELBOW,RIGHT_ELBOW,LEFT_WRIST,RIGHT_WRIST,LEFT_PINKY,RIGHT_PINKY,LEFT_INDEX,RIGHT_INDEX,LEFT_THUMB,RIGHT_THUMB,LEFT_HIP,RIGHT_HIP,LEFT_KNEE,RIGHT_KNEE,LEFT_ANKLE,RIGHT_ANKLE,LEFT_HEEL,RIGHT_HEEL,LEFT_FOOT_INDEX,RIGHT_FOOT_INDEX,WRIST2,THUMB_CPC2,THUMB_MCP2,THUMB_IP2,THUMB_TIP2,INDEX_FINGER_MCP2,INDEX_FINGER_PIP2,INDEX_FINGER_DIP2,INDEX_FINGER_TIP2,MIDDLE_FINGER_MCP2,MIDDLE_FINGER_PIP2,MIDDLE_FINGER_DIP2,MIDDLE_FINGER_TIP2,RING_FINGER_PIP2,RING_FINGER_DIP2,RING_FINGER_TIP2,RING_FINGER_MCP2,PINKY_MCP2,PINKY_PIP2,PINKY_DIP2,PINKY_TIP2,TIMESTAMP,WRIST,THUMB_CPC,THUMB_MCP,THUMB_IP,THUMB_TIP,INDEX_FINGER_MCP,INDEX_FINGER_PIP,INDEX_FINGER_DIP,INDEX_FINGER_TIP,MIDDLE_FINGER_MCP,MIDDLE_FINGER_PIP,MIDDLE_FINGER_DIP,MIDDLE_FINGER_TIP,RING_FINGER_PIP,RING_FINGER_DIP,RING_FINGER_TIP,RING_FINGER_MCP,PINKY_MCP,PINKY_PIP,PINKY_DIP,PINKY_TIP
0,"x: 296.6690979003906
y: 273.0813903808594
z: -0.24310526251792908
visibility: 0.999944806098938
","x: 298.0928039550781
y: 269.0545959472656
z: -0.23313184082508087
visibility: 0.9997966885566711
","x: 299.1300048828125
y: 269.3194580078125
z: -0.233130544424057
visibility: 0.9998058676719666
","x: 300.12017822265625
y: 269.50787353515625
z: -0.23311558365821838
visibility: 0.999786913394928
","x: 295.2270812988281
y: 268.23004150390625
z: -0.23187990486621857
visibility: 0.9997572302818298
","x: 294.0264892578125
y: 268.0360107421875
z: -0.2319171130657196
visibility: 0.9997758269309998
","x: 292.78375244140625
y: 267.9082946777344
z: -0.23194853961467743
visibility: 0.999769389629364
","x: 301.43109130859375
y: 272.85186767578125
z: -0.15970370173454285
visibility: 0.9995439648628235
","x: 289.6636962890625
y: 271.09783935546875
z: -0.15473666787147522
visibility: 0.9992885589599609
","x: 298.09930419921875
y: 279.6969299316406
z: -0.21416039764881134
visibility: 0.9998847246170044
","x: 294.3025207519531
y: 279.0438232421875
z: -0.21298737823963165
visibility: 0.9998736381530762
","x: 307.95318603515625
y: 304.74908447265625
z: -0.1308465301990509
visibility: 0.9999662637710571
","x: 280.9512023925781
y: 304.4312438964844
z: -0.07176823914051056
visibility: 0.9998462200164795
","x: 300.7897644042969
y: 346.2240905761719
z: -0.12033786624670029
visibility: 0.9863120913505554
","x: 277.971435546875
y: 344.2904357910156
z: -0.045949772000312805
visibility: 0.9258518815040588
","x: 285.8856506347656
y: 381.8067626953125
z: -0.17955036461353302
visibility: 0.9838942885398865
","x: 278.94195556640625
y: 383.7962341308594
z: -0.1199900358915329
visibility: 0.899187445640564
","x: 283.46826171875
y: 394.46051025390625
z: -0.2068735808134079
visibility: 0.9673279523849487
","x: 278.7352294921875
y: 399.3728942871094
z: -0.14406746625900269
visibility: 0.8406534194946289
","x: 280.5622253417969
y: 391.8813781738281
z: -0.22173567116260529
visibility: 0.9676361680030823
","x: 280.4765625
y: 399.6604919433594
z: -0.16563467681407928
visibility: 0.8464580774307251
","x: 281.2460632324219
y: 387.64642333984375
z: -0.1857611984014511
visibility: 0.9496899843215942
","x: 280.90655517578125
y: 393.49786376953125
z: -0.12986353039741516
visibility: 0.8312437534332275
","x: 308.3971862792969
y: 383.6162109375
z: -0.020713629201054573
visibility: 0.999872088432312
","x: 288.3072509765625
y: 385.079833984375
z: 0.020608041435480118
visibility: 0.999869704246521
","x: 312.58514404296875
y: 450.96246337890625
z: -0.027612876147031784
visibility: 0.9973811507225037
","x: 278.4668273925781
y: 449.9716796875
z: 0.006495981477200985
visibility: 0.9909225106239319
","x: 326.9624328613281
y: 494.5655822753906
z: 0.12091632187366486
visibility: 0.9954679012298584
","x: 266.7039794921875
y: 499.7117919921875
z: 0.1274232715368271
visibility: 0.994530975818634
","x: 329.78662109375
y: 500.21844482421875
z: 0.13010625541210175
visibility: 0.7904656529426575
","x: 266.7403869628906
y: 507.2607727050781
z: 0.13443224132061005
visibility: 0.8957592248916626
","x: 325.8084716796875
y: 517.9769287109375
z: 0.036392807960510254
visibility: 0.9889018535614014
","x: 260.4090270996094
y: 515.3894653320312
z: 0.04427553340792656
visibility: 0.9893555045127869
","x: 284.20556640625
y: 383.59033203125
z: 0.0
","x: 284.4570007324219
y: 389.3677978515625
z: 0.00029187698964960873
","x: 283.81024169921875
y: 395.75848388671875
z: -0.00039202877087518573
","x: 283.053955078125
y: 400.33184814453125
z: -0.001219925587065518
","x: 283.0275573730469
y: 403.67877197265625
z: -0.0020353193394839764
","x: 282.7901611328125
y: 397.0120849609375
z: -0.0027920815628021955
","x: 281.84442138671875
y: 403.1954650878906
z: -0.0043968865647912025
","x: 280.8605041503906
y: 406.7529296875
z: -0.004590481519699097
","x: 280.1930847167969
y: 409.02069091796875
z: -0.004453244619071484
","x: 281.1667175292969
y: 395.2471618652344
z: -0.0039578950963914394
","x: 279.2668151855469
y: 401.760498046875
z: -0.005581586621701717
","x: 277.64971923828125
y: 405.0787048339844
z: -0.005306844133883715
","x: 276.4855041503906
y: 407.253173828125
z: -0.00496610626578331
","x: 279.554931640625
y: 392.8602600097656
z: -0.005028854589909315
","x: 277.3327941894531
y: 399.00341796875
z: -0.00664744945243001
","x: 275.7932434082031
y: 402.4099426269531
z: -0.006353164091706276
","x: 274.71966552734375
y: 404.74578857421875
z: -0.0060079507529735565
","x: 278.0352478027344
y: 390.00848388671875
z: -0.006056217942386866
","x: 275.9828796386719
y: 394.882568359375
z: -0.007315143942832947
","x: 274.78662109375
y: 397.9989013671875
z: -0.007338750641793013
","x: 273.85498046875
y: 400.4662780761719
z: -0.007219445891678333
",3.7584445476531982,,,,,,,,,,,,,,,,,,,,,
1,"x: 296.6690979003906
y: 273.0813903808594
z: -0.24310526251792908
visibility: 0.999944806098938
","x: 298.0928039550781
y: 269.0545959472656
z: -0.23313184082508087
visibility: 0.9997966885566711
","x: 299.1300048828125
y: 269.3194580078125
z: -0.233130544424057
visibility: 0.9998058676719666
","x: 300.12017822265625
y: 269.50787353515625
z: -0.23311558365821838
visibility: 0.999786913394928
","x: 295.2270812988281
y: 268.23004150390625
z: -0.23187990486621857
visibility: 0.9997572302818298
","x: 294.0264892578125
y: 268.0360107421875
z: -0.2319171130657196
visibility: 0.9997758269309998
","x: 292.78375244140625
y: 267.9082946777344
z: -0.23194853961467743
visibility: 0.999769389629364
","x: 301.43109130859375
y: 272.85186767578125
z: -0.15970370173454285
visibility: 0.9995439648628235
","x: 289.6636962890625
y: 271.09783935546875
z: -0.15473666787147522
visibility: 0.9992885589599609
","x: 298.09930419921875
y: 279.6969299316406
z: -0.21416039764881134
visibility: 0.9998847246170044
","x: 294.3025207519531
y: 279.0438232421875
z: -0.21298737823963165
visibility: 0.9998736381530762
","x: 307.95318603515625
y: 304.74908447265625
z: -0.1308465301990509
visibility: 0.9999662637710571
","x: 280.9512023925781
y: 304.4312438964844
z: -0.07176823914051056
visibility: 0.9998462200164795
","x: 300.7897644042969
y: 346.2240905761719
z: -0.12033786624670029
visibility: 0.9863120913505554
","x: 277.971435546875
y: 344.2904357910156
z: -0.045949772000312805
visibility: 0.9258518815040588
","x: 285.8856506347656
y: 381.8067626953125
z: -0.17955036461353302
visibility: 0.9838942885398865
","x: 278.94195556640625
y: 383.7962341308594
z: -0.1199900358915329
visibility: 0.899187445640564
","x: 283.46826171875
y: 394.46051025390625
z: -0.2068735808134079
visibility: 0.9673279523849487
","x: 278.7352294921875
y: 399.3728942871094
z: -0.14406746625900269
visibility: 0.8406534194946289
","x: 280.5622253417969
y: 391.8813781738281
z: -0.22173567116260529
visibility: 0.9676361680030823
","x: 280.4765625
y: 399.6604919433594
z: -0.16563467681407928
visibility: 0.8464580774307251
","x: 281.2460632324219
y: 387.64642333984375
z: -0.1857611984014511
visibility: 0.9496899843215942
","x: 280.90655517578125
y: 393.49786376953125
z: -0.12986353039741516
visibility: 0.8312437534332275
","x: 308.3971862792969
y: 383.6162109375
z: -0.020713629201054573
visibility: 0.999872088432312
","x: 288.3072509765625
y: 385.079833984375
z: 0.020608041435480118
visibility: 0.999869704246521
","x: 312.58514404296875
y: 450.96246337890625
z: -0.027612876147031784
visibility: 0.9973811507225037
","x: 278.4668273925781
y: 449.9716796875
z: 0.006495981477200985
visibility: 0.9909225106239319
","x: 326.9624328613281
y: 494.5655822753906
z: 0.12091632187366486
visibility: 0.9954679012298584
","x: 266.7039794921875
y: 499.7117919921875
z: 0.1274232715368271
visibility: 0.994530975818634
","x: 329.78662109375
y: 500.21844482421875
z: 0.13010625541210175
visibility: 0.7904656529426575
","x: 266.7403869628906
y: 507.2607727050781
z: 0.13443224132061005
visibility: 0.8957592248916626
","x: 325.8084716796875
y: 517.9769287109375
z: 0.036392807960510254
visibility: 0.9889018535614014
","x: 260.4090270996094
y: 515.3894653320312
z: 0.04427553340792656
visibility: 0.9893555045127869
","x: 284.20556640625
y: 383.59033203125
z: 0.0
","x: 284.4570007324219
y: 389.3677978515625
z: 0.00029187698964960873
","x: 283.81024169921875
y: 395.75848388671875
z: -0.00039202877087518573
","x: 283.053955078125
y: 400.33184814453125
z: -0.001219925587065518
","x: 283.0275573730469
y: 403.67877197265625
z: -0.0020353193394839764
","x: 282.7901611328125
y: 397.0120849609375
z: -0.0027920815628021955
","x: 281.84442138671875
y: 403.1954650878906
z: -0.0043968865647912025
","x: 280.8605041503906
y: 406.7529296875
z: -0.004590481519699097
","x: 280.1930847167969
y: 409.02069091796875
z: -0.004453244619071484
","x: 281.1667175292969
y: 395.2471618652344
z: -0.0039578950963914394
","x: 279.2668151855469
y: 401.760498046875
z: -0.005581586621701717
","x: 277.64971923828125
y: 405.0787048339844
z: -0.005306844133883715
","x: 276.4855041503906
y: 407.253173828125
z: -0.00496610626578331
","x: 279.554931640625
y: 392.8602600097656
z: -0.005028854589909315
","x: 277.3327941894531
y: 399.00341796875
z: -0.00664744945243001
","x: 275.7932434082031
y: 402.4099426269531
z: -0.006353164091706276
","x: 274.71966552734375
y: 404.74578857421875
z: -0.0060079507529735565
","x: 278.0352478027344
y: 390.00848388671875
z: -0.006056217942386866
","x: 275.9828796386719
y: 394.882568359375
z: -0.007315143942832947
","x: 274.78662109375
y: 397.9989013671875
z: -0.007338750641793013
","x: 273.85498046875
y: 400.4662780761719
z: -0.007219445891678333
",3.7584445476531982,,,,,,,,,,,,,,,,,,,,,
2,"x: 296.6690979003906
y: 273.0813903808594
z: -0.24310526251792908
visibility: 0.999944806098938
","x: 298.0928039550781
y: 269.0545959472656
z: -0.23313184082508087
visibility: 0.9997966885566711
","x: 299.1300048828125
y: 269.3194580078125
z: -0.233130544424057
visibility: 0.9998058676719666
","x: 300.12017822265625
y: 269.50787353515625
z: -0.23311558365821838
visibility: 0.999786913394928
","x: 295.2270812988281
y: 268.23004150390625
z: -0.23187990486621857
visibility: 0.9997572302818298
","x: 294.0264892578125
y: 268.0360107421875
z: -0.2319171130657196
visibility: 0.9997758269309998
","x: 292.78375244140625
y: 267.9082946777344
z: -0.23194853961467743
visibility: 0.999769389629364
","x: 301.43109130859375
y: 272.85186767578125
z: -0.15970370173454285
visibility: 0.9995439648628235
","x: 289.6636962890625
y: 271.09783935546875
z: -0.15473666787147522
visibility: 0.9992885589599609
","x: 298.09930419921875
y: 279.6969299316406
z: -0.21416039764881134
visibility: 0.9998847246170044
","x: 294.3025207519531
y: 279.0438232421875
z: -0.21298737823963165
visibility: 0.9998736381530762
","x: 307.95318603515625
y: 304.74908447265625
z: -0.1308465301990509
visibility: 0.9999662637710571
","x: 280.9512023925781
y: 304.4312438964844
z: -0.07176823914051056
visibility: 0.9998462200164795
","x: 300.7897644042969
y: 346.2240905761719
z: -0.12033786624670029
visibility: 0.9863120913505554
","x: 277.971435546875
y: 344.2904357910156
z: -0.045949772000312805
visibility: 0.9258518815040588
","x: 285.8856506347656
y: 381.8067626953125
z: -0.17955036461353302
visibility: 0.9838942885398865
","x: 278.94195556640625
y: 383.7962341308594
z: -0.1199900358915329
visibility: 0.899187445640564
","x: 283.46826171875
y: 394.46051025390625
z: -0.2068735808134079
visibility: 0.9673279523849487
","x: 278.7352294921875
y: 399.3728942871094
z: -0.14406746625900269
visibility: 0.8406534194946289
","x: 280.5622253417969
y: 391.8813781738281
z: -0.22173567116260529
visibility: 0.9676361680030823
","x: 280.4765625
y: 399.6604919433594
z: -0.16563467681407928
visibility: 0.8464580774307251
","x: 281.2460632324219
y: 387.64642333984375
z: -0.1857611984014511
visibility: 0.9496899843215942
","x: 280.90655517578125
y: 393.49786376953125
z: -0.12986353039741516
visibility: 0.8312437534332275
","x: 308.3971862792969
y: 383.6162109375
z: -0.020713629201054573
visibility: 0.999872088432312
","x: 288.3072509765625
y: 385.079833984375
z: 0.020608041435480118
visibility: 0.999869704246521
","x: 312.58514404296875
y: 450.96246337890625
z: -0.027612876147031784
visibility: 0.9973811507225037
","x: 278.4668273925781
y: 449.9716796875
z: 0.006495981477200985
visibility: 0.9909225106239319
","x: 326.9624328613281
y: 494.5655822753906
z: 0.12091632187366486
visibility: 0.9954679012298584
","x: 266.7039794921875
y: 499.7117919921875
z: 0.1274232715368271
visibility: 0.994530975818634
","x: 329.78662109375
y: 500.21844482421875
z: 0.13010625541210175
visibility: 0.7904656529426575
","x: 266.7403869628906
y: 507.2607727050781
z: 0.13443224132061005
visibility: 0.8957592248916626
","x: 325.8084716796875
y: 517.9769287109375
z: 0.036392807960510254
visibility: 0.9889018535614014
","x: 260.4090270996094
y: 515.3894653320312
z: 0.04427553340792656
visibility: 0.9893555045127869
","x: 284.20556640625
y: 383.59033203125
z: 0.0
","x: 284.4570007324219
y: 389.3677978515625
z: 0.00029187698964960873
","x: 283.81024169921875
y: 395.75848388671875
z: -0.00039202877087518573
","x: 283.053955078125
y: 400.33184814453125
z: -0.001219925587065518
","x: 283.0275573730469
y: 403.67877197265625
z: -0.0020353193394839764
","x: 282.7901611328125
y: 397.0120849609375
z: -0.0027920815628021955
","x: 281.84442138671875
y: 403.1954650878906
z: -0.0043968865647912025
","x: 280.8605041503906
y: 406.7529296875
z: -0.004590481519699097
","x: 280.1930847167969
y: 409.02069091796875
z: -0.004453244619071484
","x: 281.1667175292969
y: 395.2471618652344
z: -0.0039578950963914394
","x: 279.2668151855469
y: 401.760498046875
z: -0.005581586621701717
","x: 277.64971923828125
y: 405.0787048339844
z: -0.005306844133883715
","x: 276.4855041503906
y: 407.253173828125
z: -0.00496610626578331
","x: 279.554931640625
y: 392.8602600097656
z: -0.005028854589909315
","x: 277.3327941894531
y: 399.00341796875
z: -0.00664744945243001
","x: 275.7932434082031
y: 402.4099426269531
z: -0.006353164091706276
","x: 274.71966552734375
y: 404.74578857421875
z: -0.0060079507529735565
","x: 278.0352478027344
y: 390.00848388671875
z: -0.006056217942386866
","x: 275.9828796386719
y: 394.882568359375
z: -0.007315143942832947
","x: 274.78662109375
y: 397.9989013671875
z: -0.007338750641793013
","x: 273.85498046875
y: 400.4662780761719
z: -0.007219445891678333
",3.7584445476531982,,,,,,,,,,,,,,,,,,,,,
3,"x: 299.145751953125
y: 255.5897674560547
z: -0.24293763935565948
visibility: 0.9999488592147827
","x: 300.5389709472656
y: 250.3597869873047
z: -0.2312963455915451
visibility: 0.9998116493225098
","x: 301.4407043457031
y: 250.53079223632812
z: -0.2313031703233719
visibility: 0.9998205304145813
","x: 302.322265625
y: 250.78102111816406
z: -0.23131456971168518
visibility: 0.9998024702072144
","x: 297.47528076171875
y: 250.5271759033203
z: -0.23196986317634583
visibility: 0.9997748732566833
","x: 296.2174072265625
y: 250.75765991210938
z: -0.23200981318950653
visibility: 0.9997929930686951
","x: 294.9427490234375
y: 250.94937133789062
z: -0.232039213180542
visibility: 0.9997867941856384
","x: 303.2958679199219
y: 254.84188842773438
z: -0.14414602518081665
visibility: 0.9995802044868469
","x: 292.655029296875
y: 254.9885711669922
z: -0.15473532676696777
visibility: 0.9993522763252258
","x: 300.5062255859375
y: 262.8378601074219
z: -0.21043625473976135
visibility: 0.9998929500579834
","x: 296.6716613769531
y: 262.280517578125
z: -0.2128525674343109
visibility: 0.9998831152915955
","x: 313.5861511230469
y: 288.7112121582031
z: -0.07696043699979782
visibility: 0.9999665021896362
","x: 281.6408386230469
y: 289.3160705566406
z: -0.08375422656536102
visibility: 0.9998460412025452
","x: 328.4022216796875
y: 309.1697998046875
z: -0.08104036748409271
visibility: 0.9867411255836487
","x: 267.353759765625
y: 315.00604248046875
z: -0.08848193287849426
visibility: 0.9324758052825928
","x: 347.05291748046875
y: 292.83917236328125
z: -0.18435196578502655
visibility: 0.9842467904090881
","x: 247.248291015625
y: 322.349853515625
z: -0.19520413875579834
visibility: 0.9082219004631042
","x: 353.2478942871094
y: 288.42633056640625
z: -0.20687682926654816
visibility: 0.9674212336540222
","x: 241.45114135742188
y: 323.5394287109375
z: -0.2176450788974762
visibility: 0.8538985252380371
","x: 353.49444580078125
y: 285.6162109375
z: -0.22710338234901428
visibility: 0.9682255387306213
","x: 240.8126220703125
y: 321.06494140625
z: -0.24199390411376953
visibility: 0.859588086605072
","x: 350.8919372558594
y: 287.3236389160156
z: -0.1969219148159027
visibility: 0.9517135620117188
","x: 242.60888671875
y: 321.4471130371094
z: -0.20832347869873047
visibility: 0.8455295562744141
","x: 308.518310546875
y: 371.404296875
z: -0.003714206162840128
visibility: 0.9998664259910583
","x: 288.1407775878906
y: 373.93353271484375
z: 0.0035942126996815205
visibility: 0.9998315572738647
","x: 316.0407409667969
y: 435.1990966796875
z: -0.022382507100701332
visibility: 0.9975453615188599
","x: 278.2093505859375
y: 439.49761962890625
z: -0.001593743683770299
visibility: 0.9915949702262878
","x: 328.2694396972656
y: 494.55377197265625
z: 0.10162607580423355
visibility: 0.9958345890045166
","x: 265.0541687011719
y: 493.0517883300781
z: 0.12999166548252106
visibility: 0.9947994947433472
","x: 330.0744323730469
y: 500.9994201660156
z: 0.10717087984085083
visibility: 0.8003231287002563
","x: 263.4931640625
y: 497.85296630859375
z: 0.13846370577812195
visibility: 0.8958460092544556
","x: 325.91094970703125
y: 517.9691162109375
z: -0.007400644011795521
visibility: 0.9897428750991821
","x: 262.7904052734375
y: 515.612548828125
z: 0.04283495992422104
visibility: 0.9899194836616516
",,,,,,,,,,,,,,,,,,,,,,4.293143272399902,,,,,,,,,,,,,,,,,,,,,
4,"x: 299.145751953125
y: 255.5897674560547
z: -0.24293763935565948
visibility: 0.9999488592147827
","x: 300.5389709472656
y: 250.3597869873047
z: -0.2312963455915451
visibility: 0.9998116493225098
","x: 301.4407043457031
y: 250.53079223632812
z: -0.2313031703233719
visibility: 0.9998205304145813
","x: 302.322265625
y: 250.78102111816406
z: -0.23131456971168518
visibility: 0.9998024702072144
","x: 297.47528076171875
y: 250.5271759033203
z: -0.23196986317634583
visibility: 0.9997748732566833
","x: 296.2174072265625
y: 250.75765991210938
z: -0.23200981318950653
visibility: 0.9997929930686951
","x: 294.9427490234375
y: 250.94937133789062
z: -0.232039213180542
visibility: 0.9997867941856384
","x: 303.2958679199219
y: 254.84188842773438
z: -0.14414602518081665
visibility: 0.9995802044868469
","x: 292.655029296875
y: 254.9885711669922
z: -0.15473532676696777
visibility: 0.9993522763252258
","x: 300.5062255859375
y: 262.8378601074219
z: -0.21043625473976135
visibility: 0.9998929500579834
","x: 296.6716613769531
y: 262.280517578125
z: -0.2128525674343109
visibility: 0.9998831152915955
","x: 313.5861511230469
y: 288.7112121582031
z: -0.07696043699979782
visibility: 0.9999665021896362
","x: 281.6408386230469
y: 289.3160705566406
z: -0.08375422656536102
visibility: 0.9998460412025452
","x: 328.4022216796875
y: 309.1697998046875
z: -0.08104036748409271
visibility: 0.9867411255836487
","x: 267.353759765625
y: 315.00604248046875
z: -0.08848193287849426
visibility: 0.9324758052825928
","x: 347.05291748046875
y: 292.83917236328125
z: -0.18435196578502655
visibility: 0.9842467904090881
","x: 247.248291015625
y: 322.349853515625
z: -0.19520413875579834
visibility: 0.9082219004631042
","x: 353.2478942871094
y: 288.42633056640625
z: -0.20687682926654816
visibility: 0.9674212336540222
","x: 241.45114135742188
y: 323.5394287109375
z: -0.2176450788974762
visibility: 0.8538985252380371
","x: 353.49444580078125
y: 285.6162109375
z: -0.22710338234901428
visibility: 0.9682255387306213
","x: 240.8126220703125
y: 321.06494140625
z: -0.24199390411376953
visibility: 0.859588086605072
","x: 350.8919372558594
y: 287.3236389160156
z: -0.1969219148159027
visibility: 0.9517135620117188
","x: 242.60888671875
y: 321.4471130371094
z: -0.20832347869873047
visibility: 0.8455295562744141
","x: 308.518310546875
y: 371.404296875
z: -0.003714206162840128
visibility: 0.9998664259910583
","x: 288.1407775878906
y: 373.93353271484375
z: 0.0035942126996815205
visibility: 0.9998315572738647
","x: 316.0407409667969
y: 435.1990966796875
z: -0.022382507100701332
visibility: 0.9975453615188599
","x: 278.2093505859375
y: 439.49761962890625
z: -0.001593743683770299
visibility: 0.9915949702262878
","x: 328.2694396972656
y: 494.55377197265625
z: 0.10162607580423355
visibility: 0.9958345890045166
","x: 265.0541687011719
y: 493.0517883300781
z: 0.12999166548252106
visibility: 0.9947994947433472
","x: 330.0744323730469
y: 500.9994201660156
z: 0.10717087984085083
visibility: 0.8003231287002563
","x: 263.4931640625
y: 497.85296630859375
z: 0.13846370577812195
visibility: 0.8958460092544556
","x: 325.91094970703125
y: 517.9691162109375
z: -0.007400644011795521
visibility: 0.9897428750991821
","x: 262.7904052734375
y: 515.612548828125
z: 0.04283495992422104
visibility: 0.9899194836616516
",,,,,,,,,,,,,,,,,,,,,,4.293143272399902,,,,,,,,,,,,,,,,,,,,,
5,"x: 297.7972412109375
y: 260.12640380859375
z: -0.15907028317451477
visibility: 0.9999521970748901
","x: 299.7227783203125
y: 255.42935180664062
z: -0.14483390748500824
visibility: 0.9998272657394409
","x: 300.5824279785156
y: 255.6507110595703
z: -0.1448337584733963
visibility: 0.9998348951339722
","x: 301.4586181640625
y: 255.90684509277344
z: -0.14484333992004395
visibility: 0.9998185038566589
","x: 296.7684631347656
y: 255.09524536132812
z: -0.14598098397254944
visibility: 0.9997938275337219
","x: 295.6514587402344
y: 255.07272338867188
z: -0.14598985016345978
visibility: 0.9998101592063904
","x: 294.549072265625
y: 255.05062866210938
z: -0.1459852010011673
visibility: 0.9998048543930054
","x: 302.9015808105469
y: 259.5299987792969
z: -0.058640044182538986
visibility: 0.9996165633201599
","x: 292.3707275390625
y: 258.3267517089844
z: -0.0649249404668808
visibility: 0.9994118213653564
","x: 299.314208984375
y: 266.87548828125
z: -0.1269114464521408
visibility: 0.9999014139175415
","x: 295.6649169921875
y: 266.137451171875
z: -0.12903742492198944
visibility: 0.9998928308486938
","x: 312.71124267578125
y: 292.92681884765625
z: -0.014234252274036407
visibility: 0.9999631643295288
","x: 281.67315673828125
y: 289.3441467285156
z: -0.015276792459189892
visibility: 0.9998462796211243
","x: 324.8185119628906
y: 311.83172607421875
z: -0.09391145408153534
visibility: 0.9870161414146423
","x: 267.90093994140625
y: 312.846435546875
z: -0.10490907728672028
visibility: 0.9375665783882141
","x: 330.11199951171875
y: 292.05682373046875
z: -0.24435611069202423
visibility: 0.9842878580093384
","x: 261.9638671875
y: 296.3413391113281
z: -0.2781084179878235
visibility: 0.9153873324394226
","x: 332.423583984375
y: 283.8570861816406
z: -0.2744506001472473
visibility: 0.9664422273635864
","x: 259.4563293457031
y: 290.8026123046875
z: -0.31236788630485535
visibility: 0.8631106019020081
","x: 330.86029052734375
y: 281.69903564453125
z: -0.27466219663619995
visibility: 0.9671382308006287
","x: 259.23016357421875
y: 288.0984191894531
z: -0.3100263476371765
visibility: 0.868094801902771
","x: 329.6280212402344
y: 285.6554260253906
z: -0.24878013134002686
visibility: 0.9505311250686646
","x: 260.0108642578125
y: 289.89019775390625
z: -0.28185898065567017
visibility: 0.853864848613739
","x: 308.368408203125
y: 372.55291748046875
z: -0.005396167282015085
visibility: 0.9998582005500793
","x: 287.9327697753906
y: 375.4075927734375
z: 0.005318774376064539
visibility: 0.999820351600647
","x: 315.7149963378906
y: 437.0909423828125
z: -0.012426285073161125
visibility: 0.9976327419281006
","x: 276.439697265625
y: 440.5631103515625
z: -0.0006393572548404336
visibility: 0.9921838045120239
","x: 328.2683410644531
y: 493.6770324707031
z: 0.1030929833650589
visibility: 0.9960516691207886
","x: 262.80975341796875
y: 494.05169677734375
z: 0.11237122863531113
visibility: 0.9950630068778992
","x: 329.8170166015625
y: 500.69140625
z: 0.10880690813064575
visibility: 0.8057340979576111
","x: 261.38836669921875
y: 499.6485900878906
z: 0.1184261217713356
visibility: 0.8981163501739502
","x: 326.78399658203125
y: 515.7837524414062
z: 0.0045872945338487625
visibility: 0.9902889728546143
","x: 261.96478271484375
y: 513.2822265625
z: 0.02508557215332985
visibility: 0.9903823137283325
",,,,,,,,,,,,,,,,,,,,,,4.425925016403198,,,,,,,,,,,,,,,,,,,,,
6,"x: 297.7972412109375
y: 260.12640380859375
z: -0.15907028317451477
visibility: 0.9999521970748901
","x: 299.7227783203125
y: 255.42935180664062
z: -0.14483390748500824
visibility: 0.9998272657394409
","x: 300.5824279785156
y: 255.6507110595703
z: -0.1448337584733963
visibility: 0.9998348951339722
","x: 301.4586181640625
y: 255.90684509277344
z: -0.14484333992004395
visibility: 0.9998185038566589
","x: 296.7684631347656
y: 255.09524536132812
z: -0.14598098397254944
visibility: 0.9997938275337219
","x: 295.6514587402344
y: 255.07272338867188
z: -0.14598985016345978
visibility: 0.9998101592063904
","x: 294.549072265625
y: 255.05062866210938
z: -0.1459852010011673
visibility: 0.9998048543930054
","x: 302.9015808105469
y: 259.5299987792969
z: -0.058640044182538986
visibility: 0.9996165633201599
","x: 292.3707275390625
y: 258.3267517089844
z: -0.0649249404668808
visibility: 0.9994118213653564
","x: 299.314208984375
y: 266.87548828125
z: -0.1269114464521408
visibility: 0.9999014139175415
","x: 295.6649169921875
y: 266.137451171875
z: -0.12903742492198944
visibility: 0.9998928308486938
","x: 312.71124267578125
y: 292.92681884765625
z: -0.014234252274036407
visibility: 0.9999631643295288
","x: 281.67315673828125
y: 289.3441467285156
z: -0.015276792459189892
visibility: 0.9998462796211243
","x: 324.8185119628906
y: 311.83172607421875
z: -0.09391145408153534
visibility: 0.9870161414146423
","x: 267.90093994140625
y: 312.846435546875
z: -0.10490907728672028
visibility: 0.9375665783882141
","x: 330.11199951171875
y: 292.05682373046875
z: -0.24435611069202423
visibility: 0.9842878580093384
","x: 261.9638671875
y: 296.3413391113281
z: -0.2781084179878235
visibility: 0.9153873324394226
","x: 332.423583984375
y: 283.8570861816406
z: -0.2744506001472473
visibility: 0.9664422273635864
","x: 259.4563293457031
y: 290.8026123046875
z: -0.31236788630485535
visibility: 0.8631106019020081
","x: 330.86029052734375
y: 281.69903564453125
z: -0.27466219663619995
visibility: 0.9671382308006287
","x: 259.23016357421875
y: 288.0984191894531
z: -0.3100263476371765
visibility: 0.868094801902771
","x: 329.6280212402344
y: 285.6554260253906
z: -0.24878013134002686
visibility: 0.9505311250686646
","x: 260.0108642578125
y: 289.89019775390625
z: -0.28185898065567017
visibility: 0.853864848613739
","x: 308.368408203125
y: 372.55291748046875
z: -0.005396167282015085
visibility: 0.9998582005500793
","x: 287.9327697753906
y: 375.4075927734375
z: 0.005318774376064539
visibility: 0.999820351600647
","x: 315.7149963378906
y: 437.0909423828125
z: -0.012426285073161125
visibility: 0.9976327419281006
","x: 276.439697265625
y: 440.5631103515625
z: -0.0006393572548404336
visibility: 0.9921838045120239
","x: 328.2683410644531
y: 493.6770324707031
z: 0.1030929833650589
visibility: 0.9960516691207886
","x: 262.80975341796875
y: 494.05169677734375
z: 0.11237122863531113
visibility: 0.9950630068778992
","x: 329.8170166015625
y: 500.69140625
z: 0.10880690813064575
visibility: 0.8057340979576111
","x: 261.38836669921875
y: 499.6485900878906
z: 0.1184261217713356
visibility: 0.8981163501739502
","x: 326.78399658203125
y: 515.7837524414062
z: 0.0045872945338487625
visibility: 0.9902889728546143
","x: 261.96478271484375
y: 513.2822265625
z: 0.02508557215332985
visibility: 0.9903823137283325
",,,,,,,,,,,,,,,,,,,,,,4.425925016403198,,,,,,,,,,,,,,,,,,,,,
7,"x: 297.01190185546875
y: 261.6515808105469
z: -0.1798858642578125
visibility: 0.99995356798172
","x: 298.6586608886719
y: 256.46978759765625
z: -0.16437169909477234
visibility: 0.9998387694358826
","x: 299.55145263671875
y: 256.6286926269531
z: -0.16434895992279053
visibility: 0.9998438358306885
","x: 300.4527587890625
y: 256.84674072265625
z: -0.16434472799301147
visibility: 0.9998289346694946
","x: 295.38592529296875
y: 256.51513671875
z: -0.16807624697685242
visibility: 0.999809741973877
","x: 294.21209716796875
y: 256.63751220703125
z: -0.16809344291687012
visibility: 0.9998247623443604
","x: 293.11956787109375
y: 256.7459411621094
z: -0.16807988286018372
visibility: 0.9998210668563843
","x: 301.6476745605469
y: 260.1993103027344
z: -0.0726449191570282
visibility: 0.9996404647827148
","x: 290.95953369140625
y: 260.0517883300781
z: -0.09015372395515442
visibility: 0.9994663000106812
","x: 298.97259521484375
y: 268.09405517578125
z: -0.14562325179576874
visibility: 0.9999073147773743
","x: 294.82427978515625
y: 267.83642578125
z: -0.15089163184165955
visibility: 0.999901533126831
","x: 312.17828369140625
y: 293.75665283203125
z: -0.027419209480285645
visibility: 0.9999560713768005
","x: 279.970458984375
y: 291.5389099121094
z: -0.041602324694395065
visibility: 0.9998534917831421
","x: 324.3663330078125
y: 308.98291015625
z: -0.12624484300613403
visibility: 0.9871081113815308
","x: 262.0101318359375
y: 317.873779296875
z: -0.15427948534488678
visibility: 0.9436647891998291
","x: 321.0362854003906
y: 296.5794677734375
z: -0.2998813986778259
visibility: 0.9830464124679565
","x: 264.63299560546875
y: 296.5252380371094
z: -0.3076744079589844
visibility: 0.9233810901641846
","x: 320.2000732421875
y: 292.88720703125
z: -0.33555489778518677
visibility: 0.9618337154388428
","x: 273.90496826171875
y: 292.62677001953125
z: -0.3431893587112427
visibility: 0.8748832941055298
","x: 317.8662414550781
y: 289.7337951660156
z: -0.3294282853603363
visibility: 0.962023913860321
","x: 274.8194885253906
y: 289.2813415527344
z: -0.3330379128456116
visibility: 0.8791885375976562
","x: 317.8456115722656
y: 293.3935852050781
z: -0.30204492807388306
visibility: 0.9438315629959106
","x: 273.1060791015625
y: 290.93096923828125
z: -0.3065355122089386
visibility: 0.8652234673500061
","x: 308.3036193847656
y: 372.77349853515625
z: -0.0007316285045817494
visibility: 0.9998571872711182
","x: 287.5097351074219
y: 375.8189697265625
z: 0.0006409744964912534
visibility: 0.9998193979263306
","x: 316.7831115722656
y: 436.81622314453125
z: -0.011437738314270973
visibility: 0.9977065920829773
","x: 275.94000244140625
y: 439.7532653808594
z: -0.004170111380517483
visibility: 0.9927771091461182
","x: 328.3285217285156
y: 492.1639404296875
z: 0.1205044761300087
visibility: 0.9962273836135864
","x: 262.2742614746094
y: 493.903564453125
z: 0.11631275713443756
visibility: 0.9953399300575256
","x: 328.8658142089844
y: 499.78900146484375
z: 0.128358855843544
visibility: 0.8149988055229187
","x: 260.9244384765625
y: 499.1004943847656
z: 0.12309940904378891
visibility: 0.8999027013778687
","x: 331.24407958984375
y: 513.693115234375
z: 0.024723336100578308
visibility: 0.9907521605491638
","x: 261.6973571777344
y: 512.638916015625
z: 0.02850264683365822
visibility: 0.9908084869384766
",,,,,,,,,,,,,,,,,,,,,,4.557219505310059,,,,,,,,,,,,,,,,,,,,,
8,"x: 297.01190185546875
y: 261.6515808105469
z: -0.1798858642578125
visibility: 0.99995356798172
","x: 298.6586608886719
y: 256.46978759765625
z: -0.16437169909477234
visibility: 0.9998387694358826
","x: 299.55145263671875
y: 256.6286926269531
z: -0.16434895992279053
visibility: 0.9998438358306885
","x: 300.4527587890625
y: 256.84674072265625
z: -0.16434472799301147
visibility: 0.9998289346694946
","x: 295.38592529296875
y: 256.51513671875
z: -0.16807624697685242
visibility: 0.999809741973877
","x: 294.21209716796875
y: 256.63751220703125
z: -0.16809344291687012
visibility: 0.9998247623443604
","x: 293.11956787109375
y: 256.7459411621094
z: -0.16807988286018372
visibility: 0.9998210668563843
","x: 301.6476745605469
y: 260.1993103027344
z: -0.0726449191570282
visibility: 0.9996404647827148
","x: 290.95953369140625
y: 260.0517883300781
z: -0.09015372395515442
visibility: 0.9994663000106812
","x: 298.97259521484375
y: 268.09405517578125
z: -0.14562325179576874
visibility: 0.9999073147773743
","x: 294.82427978515625
y: 267.83642578125
z: -0.15089163184165955
visibility: 0.999901533126831
","x: 312.17828369140625
y: 293.75665283203125
z: -0.027419209480285645
visibility: 0.9999560713768005
","x: 279.970458984375
y: 291.5389099121094
z: -0.041602324694395065
visibility: 0.9998534917831421
","x: 324.3663330078125
y: 308.98291015625
z: -0.12624484300613403
visibility: 0.9871081113815308
","x: 262.0101318359375
y: 317.873779296875
z: -0.15427948534488678
visibility: 0.9436647891998291
","x: 321.0362854003906
y: 296.5794677734375
z: -0.2998813986778259
visibility: 0.9830464124679565
","x: 264.63299560546875
y: 296.5252380371094
z: -0.3076744079589844
visibility: 0.9233810901641846
","x: 320.2000732421875
y: 292.88720703125
z: -0.33555489778518677
visibility: 0.9618337154388428
","x: 273.90496826171875
y: 292.62677001953125
z: -0.3431893587112427
visibility: 0.8748832941055298
","x: 317.8662414550781
y: 289.7337951660156
z: -0.3294282853603363
visibility: 0.962023913860321
","x: 274.8194885253906
y: 289.2813415527344
z: -0.3330379128456116
visibility: 0.8791885375976562
","x: 317.8456115722656
y: 293.3935852050781
z: -0.30204492807388306
visibility: 0.9438315629959106
","x: 273.1060791015625
y: 290.93096923828125
z: -0.3065355122089386
visibility: 0.8652234673500061
","x: 308.3036193847656
y: 372.77349853515625
z: -0.0007316285045817494
visibility: 0.9998571872711182
","x: 287.5097351074219
y: 375.8189697265625
z: 0.0006409744964912534
visibility: 0.9998193979263306
","x: 316.7831115722656
y: 436.81622314453125
z: -0.011437738314270973
visibility: 0.9977065920829773
","x: 275.94000244140625
y: 439.7532653808594
z: -0.004170111380517483
visibility: 0.9927771091461182
","x: 328.3285217285156
y: 492.1639404296875
z: 0.1205044761300087
visibility: 0.9962273836135864
","x: 262.2742614746094
y: 493.903564453125
z: 0.11631275713443756
visibility: 0.9953399300575256
","x: 328.8658142089844
y: 499.78900146484375
z: 0.128358855843544
visibility: 0.8149988055229187
","x: 260.9244384765625
y: 499.1004943847656
z: 0.12309940904378891
visibility: 0.8999027013778687
","x: 331.24407958984375
y: 513.693115234375
z: 0.024723336100578308
visibility: 0.9907521605491638
","x: 261.6973571777344
y: 512.638916015625
z: 0.02850264683365822
visibility: 0.9908084869384766
",,,,,,,,,,,,,,,,,,,,,,4.557219505310059,,,,,,,,,,,,,,,,,,,,,
9,"x: 297.89495849609375
y: 261.6993103027344
z: -0.20554283261299133
visibility: 0.9999548196792603
","x: 299.6598205566406
y: 256.6084899902344
z: -0.17078867554664612
visibility: 0.9998503923416138
","x: 300.7704162597656
y: 256.76507568359375
z: -0.17037664353847504
visibility: 0.9998526573181152
","x: 301.923583984375
y: 257.0443420410156
z: -0.17049846053123474
visibility: 0.999839723110199
","x: 296.109619140625
y: 256.8970947265625
z: -0.1813066452741623
visibility: 0.999825119972229
","x: 294.8470458984375
y: 257.1546630859375
z: -0.18138593435287476
visibility: 0.9998387098312378
","x: 293.6153564453125
y: 257.4068908691406
z: -0.18123754858970642
visibility: 0.9998363852500916
","x: 303.6778564453125
y: 261.1957092285156
z: -0.10317452996969223
visibility: 0.9996641874313354
","x: 291.4488525390625
y: 261.2384033203125
z: -0.10484601557254791
visibility: 0.9995168447494507
","x: 300.08770751953125
y: 268.6584167480469
z: -0.17083154618740082
visibility: 0.9999135732650757
","x: 295.96234130859375
y: 268.42913818359375
z: -0.17721691727638245
visibility: 0.9999096989631653
","x: 314.0891418457031
y: 294.94757080078125
z: -0.06344851851463318
visibility: 0.9999309182167053
","x: 281.1699523925781
y: 293.1728515625
z: -0.09922421723604202
visibility: 0.9998576045036316
","x: 333.10467529296875
y: 309.62738037109375
z: -0.21204087138175964
visibility: 0.9875900745391846
","x: 261.69268798828125
y: 313.5855407714844
z: -0.24052433669567108
visibility: 0.949142336845398
","x: 324.10308837890625
y: 295.18328857421875
z: -0.36743322014808655
visibility: 0.9792758226394653
","x: 275.2851867675781
y: 292.4918518066406
z: -0.3758227229118347
visibility: 0.9299535155296326
","x: 319.69500732421875
y: 292.884033203125
z: -0.40006527304649353
visibility: 0.9487230181694031
","x: 283.1112060546875
y: 292.1875
z: -0.40971463918685913
visibility: 0.8830971121788025
","x: 317.29376220703125
y: 292.2060852050781
z: -0.3843746483325958
visibility: 0.9469229578971863
","x: 285.1333923339844
y: 290.880615234375
z: -0.39258313179016113
visibility: 0.8862324357032776
","x: 318.0980529785156
y: 295.04327392578125
z: -0.36535605788230896
visibility: 0.9252912998199463
","x: 283.2214050292969
y: 291.87701416015625
z: -0.37207964062690735
visibility: 0.8710536360740662
","x: 309.4816589355469
y: 373.8292236328125
z: 0.009521903470158577
visibility: 0.9998596906661987
","x: 287.52569580078125
y: 376.4753723144531
z: -0.009722517803311348
visibility: 0.9998197555541992
","x: 322.0812072753906
y: 437.3616027832031
z: -0.05196332186460495
visibility: 0.9977685213088989
","x: 276.0857849121094
y: 440.9959716796875
z: -0.04683247581124306
visibility: 0.9933663606643677
","x: 328.7032470703125
y: 492.2549743652344
z: 0.09927752614021301
visibility: 0.9964249730110168
","x: 262.1697998046875
y: 494.3773193359375
z: 0.08310551196336746
visibility: 0.995643138885498
","x: 327.964599609375
y: 500.96734619140625
z: 0.10895870625972748
visibility: 0.8280857801437378
","x: 260.61749267578125
y: 499.97357177734375
z: 0.09123929589986801
visibility: 0.8998996615409851
","x: 335.6372985839844
y: 513.3992919921875
z: 0.011236673220992088
visibility: 0.9910586476325989
","x: 261.6227111816406
y: 512.6795043945312
z: -0.005118148401379585
visibility: 0.9911962151527405
",,,,,,,,,,,,,,,,,,,,,,4.668920040130615,"x: 276.11224365234375
y: 291.38311767578125
z: 0.0
","x: 280.9267578125
y: 289.7706298828125
z: 0.0014470100868493319
","x: 285.90789794921875
y: 290.4429626464844
z: 0.0001350485981674865
","x: 289.4949951171875
y: 292.19097900390625
z: -0.0019227523589506745
","x: 292.38946533203125
y: 293.4285583496094
z: -0.0041032154113054276
","x: 286.8670349121094
y: 287.9378662109375
z: -0.004079420585185289
","x: 291.8426208496094
y: 291.2604675292969
z: -0.00781372468918562
","x: 294.7030944824219
y: 294.2402038574219
z: -0.009911983273923397
","x: 296.91021728515625
y: 296.6280517578125
z: -0.011269890703260899
","x: 285.5551452636719
y: 289.2679138183594
z: -0.007329775020480156
","x: 290.5775146484375
y: 293.4539794921875
z: -0.011306391097605228
","x: 293.7071533203125
y: 296.70172119140625
z: -0.012962433509528637
","x: 296.1920471191406
y: 298.93170166015625
z: -0.01427738182246685
","x: 283.7276306152344
y: 291.0671081542969
z: -0.010332553647458553
","x: 288.10980224609375
y: 294.8949279785156
z: -0.013929641805589199
","x: 290.97900390625
y: 297.4325256347656
z: -0.014950625598430634
","x: 293.3760681152344
y: 299.0752868652344
z: -0.015830930322408676
","x: 281.55853271484375
y: 293.33538818359375
z: -0.013186343014240265
","x: 283.9678039550781
y: 296.84490966796875
z: -0.015945157036185265
","x: 285.54779052734375
y: 299.0450439453125
z: -0.01650836691260338
","x: 287.0317687988281
y: 300.6916809082031
z: -0.017031138762831688
"
10,"x: 297.89495849609375
y: 261.6993103027344
z: -0.20554283261299133
visibility: 0.9999548196792603
","x: 299.6598205566406
y: 256.6084899902344
z: -0.17078867554664612
visibility: 0.9998503923416138
","x: 300.7704162597656
y: 256.76507568359375
z: -0.17037664353847504
visibility: 0.9998526573181152
","x: 301.923583984375
y: 257.0443420410156
z: -0.17049846053123474
visibility: 0.999839723110199
","x: 296.109619140625
y: 256.8970947265625
z: -0.1813066452741623
visibility: 0.999825119972229
","x: 294.8470458984375
y: 257.1546630859375
z: -0.18138593435287476
visibility: 0.9998387098312378
","x: 293.6153564453125
y: 257.4068908691406
z: -0.18123754858970642
visibility: 0.9998363852500916
","x: 303.6778564453125
y: 261.1957092285156
z: -0.10317452996969223
visibility: 0.9996641874313354
","x: 291.4488525390625
y: 261.2384033203125
z: -0.10484601557254791
visibility: 0.9995168447494507
","x: 300.08770751953125
y: 268.6584167480469
z: -0.17083154618740082
visibility: 0.9999135732650757
","x: 295.96234130859375
y: 268.42913818359375
z: -0.17721691727638245
visibility: 0.9999096989631653
","x: 314.0891418457031
y: 294.94757080078125
z: -0.06344851851463318
visibility: 0.9999309182167053
","x: 281.1699523925781
y: 293.1728515625
z: -0.09922421723604202
visibility: 0.9998576045036316
","x: 333.10467529296875
y: 309.62738037109375
z: -0.21204087138175964
visibility: 0.9875900745391846
","x: 261.69268798828125
y: 313.5855407714844
z: -0.24052433669567108
visibility: 0.949142336845398
","x: 324.10308837890625
y: 295.18328857421875
z: -0.36743322014808655
visibility: 0.9792758226394653
","x: 275.2851867675781
y: 292.4918518066406
z: -0.3758227229118347
visibility: 0.9299535155296326
","x: 319.69500732421875
y: 292.884033203125
z: -0.40006527304649353
visibility: 0.9487230181694031
","x: 283.1112060546875
y: 292.1875
z: -0.40971463918685913
visibility: 0.8830971121788025
","x: 317.29376220703125
y: 292.2060852050781
z: -0.3843746483325958
visibility: 0.9469229578971863
","x: 285.1333923339844
y: 290.880615234375
z: -0.39258313179016113
visibility: 0.8862324357032776
","x: 318.0980529785156
y: 295.04327392578125
z: -0.36535605788230896
visibility: 0.9252912998199463
","x: 283.2214050292969
y: 291.87701416015625
z: -0.37207964062690735
visibility: 0.8710536360740662
","x: 309.4816589355469
y: 373.8292236328125
z: 0.009521903470158577
visibility: 0.9998596906661987
","x: 287.52569580078125
y: 376.4753723144531
z: -0.009722517803311348
visibility: 0.9998197555541992
","x: 322.0812072753906
y: 437.3616027832031
z: -0.05196332186460495
visibility: 0.9977685213088989
","x: 276.0857849121094
y: 440.9959716796875
z: -0.04683247581124306
visibility: 0.9933663606643677
","x: 328.7032470703125
y: 492.2549743652344
z: 0.09927752614021301
visibility: 0.9964249730110168
","x: 262.1697998046875
y: 494.3773193359375
z: 0.08310551196336746
visibility: 0.995643138885498
","x: 327.964599609375
y: 500.96734619140625
z: 0.10895870625972748
visibility: 0.8280857801437378
","x: 260.61749267578125
y: 499.97357177734375
z: 0.09123929589986801
visibility: 0.8998996615409851
","x: 335.6372985839844
y: 513.3992919921875
z: 0.011236673220992088
visibility: 0.9910586476325989
","x: 261.6227111816406
y: 512.6795043945312
z: -0.005118148401379585
visibility: 0.9911962151527405
",,,,,,,,,,,,,,,,,,,,,,4.668920040130615,"x: 276.11224365234375
y: 291.38311767578125
z: 0.0
","x: 280.9267578125
y: 289.7706298828125
z: 0.0014470100868493319
","x: 285.90789794921875
y: 290.4429626464844
z: 0.0001350485981674865
","x: 289.4949951171875
y: 292.19097900390625
z: -0.0019227523589506745
","x: 292.38946533203125
y: 293.4285583496094
z: -0.0041032154113054276
","x: 286.8670349121094
y: 287.9378662109375
z: -0.004079420585185289
","x: 291.8426208496094
y: 291.2604675292969
z: -0.00781372468918562
","x: 294.7030944824219
y: 294.2402038574219
z: -0.009911983273923397
","x: 296.91021728515625
y: 296.6280517578125
z: -0.011269890703260899
","x: 285.5551452636719
y: 289.2679138183594
z: -0.007329775020480156
","x: 290.5775146484375
y: 293.4539794921875
z: -0.011306391097605228
","x: 293.7071533203125
y: 296.70172119140625
z: -0.012962433509528637
","x: 296.1920471191406
y: 298.93170166015625
z: -0.01427738182246685
","x: 283.7276306152344
y: 291.0671081542969
z: -0.010332553647458553
","x: 288.10980224609375
y: 294.8949279785156
z: -0.013929641805589199
","x: 290.97900390625
y: 297.4325256347656
z: -0.014950625598430634
","x: 293.3760681152344
y: 299.0752868652344
z: -0.015830930322408676
","x: 281.55853271484375
y: 293.33538818359375
z: -0.013186343014240265
","x: 283.9678039550781
y: 296.84490966796875
z: -0.015945157036185265
","x: 285.54779052734375
y: 299.0450439453125
z: -0.01650836691260338
","x: 287.0317687988281
y: 300.6916809082031
z: -0.017031138762831688
"
11,"x: 297.89495849609375
y: 261.6993103027344
z: -0.20554283261299133
visibility: 0.9999548196792603
","x: 299.6598205566406
y: 256.6084899902344
z: -0.17078867554664612
visibility: 0.9998503923416138
","x: 300.7704162597656
y: 256.76507568359375
z: -0.17037664353847504
visibility: 0.9998526573181152
","x: 301.923583984375
y: 257.0443420410156
z: -0.17049846053123474
visibility: 0.999839723110199
","x: 296.109619140625
y: 256.8970947265625
z: -0.1813066452741623
visibility: 0.999825119972229
","x: 294.8470458984375
y: 257.1546630859375
z: -0.18138593435287476
visibility: 0.9998387098312378
","x: 293.6153564453125
y: 257.4068908691406
z: -0.18123754858970642
visibility: 0.9998363852500916
","x: 303.6778564453125
y: 261.1957092285156
z: -0.10317452996969223
visibility: 0.9996641874313354
","x: 291.4488525390625
y: 261.2384033203125
z: -0.10484601557254791
visibility: 0.9995168447494507
","x: 300.08770751953125
y: 268.6584167480469
z: -0.17083154618740082
visibility: 0.9999135732650757
","x: 295.96234130859375
y: 268.42913818359375
z: -0.17721691727638245
visibility: 0.9999096989631653
","x: 314.0891418457031
y: 294.94757080078125
z: -0.06344851851463318
visibility: 0.9999309182167053
","x: 281.1699523925781
y: 293.1728515625
z: -0.09922421723604202
visibility: 0.9998576045036316
","x: 333.10467529296875
y: 309.62738037109375
z: -0.21204087138175964
visibility: 0.9875900745391846
","x: 261.69268798828125
y: 313.5855407714844
z: -0.24052433669567108
visibility: 0.949142336845398
","x: 324.10308837890625
y: 295.18328857421875
z: -0.36743322014808655
visibility: 0.9792758226394653
","x: 275.2851867675781
y: 292.4918518066406
z: -0.3758227229118347
visibility: 0.9299535155296326
","x: 319.69500732421875
y: 292.884033203125
z: -0.40006527304649353
visibility: 0.9487230181694031
","x: 283.1112060546875
y: 292.1875
z: -0.40971463918685913
visibility: 0.8830971121788025
","x: 317.29376220703125
y: 292.2060852050781
z: -0.3843746483325958
visibility: 0.9469229578971863
","x: 285.1333923339844
y: 290.880615234375
z: -0.39258313179016113
visibility: 0.8862324357032776
","x: 318.0980529785156
y: 295.04327392578125
z: -0.36535605788230896
visibility: 0.9252912998199463
","x: 283.2214050292969
y: 291.87701416015625
z: -0.37207964062690735
visibility: 0.8710536360740662
","x: 309.4816589355469
y: 373.8292236328125
z: 0.009521903470158577
visibility: 0.9998596906661987
","x: 287.52569580078125
y: 376.4753723144531
z: -0.009722517803311348
visibility: 0.9998197555541992
","x: 322.0812072753906
y: 437.3616027832031
z: -0.05196332186460495
visibility: 0.9977685213088989
","x: 276.0857849121094
y: 440.9959716796875
z: -0.04683247581124306
visibility: 0.9933663606643677
","x: 328.7032470703125
y: 492.2549743652344
z: 0.09927752614021301
visibility: 0.9964249730110168
","x: 262.1697998046875
y: 494.3773193359375
z: 0.08310551196336746
visibility: 0.995643138885498
","x: 327.964599609375
y: 500.96734619140625
z: 0.10895870625972748
visibility: 0.8280857801437378
","x: 260.61749267578125
y: 499.97357177734375
z: 0.09123929589986801
visibility: 0.8998996615409851
","x: 335.6372985839844
y: 513.3992919921875
z: 0.011236673220992088
visibility: 0.9910586476325989
","x: 261.6227111816406
y: 512.6795043945312
z: -0.005118148401379585
visibility: 0.9911962151527405
",,,,,,,,,,,,,,,,,,,,,,4.668920040130615,"x: 276.11224365234375
y: 291.38311767578125
z: 0.0
","x: 280.9267578125
y: 289.7706298828125
z: 0.0014470100868493319
","x: 285.90789794921875
y: 290.4429626464844
z: 0.0001350485981674865
","x: 289.4949951171875
y: 292.19097900390625
z: -0.0019227523589506745
","x: 292.38946533203125
y: 293.4285583496094
z: -0.0041032154113054276
","x: 286.8670349121094
y: 287.9378662109375
z: -0.004079420585185289
","x: 291.8426208496094
y: 291.2604675292969
z: -0.00781372468918562
","x: 294.7030944824219
y: 294.2402038574219
z: -0.009911983273923397
","x: 296.91021728515625
y: 296.6280517578125
z: -0.011269890703260899
","x: 285.5551452636719
y: 289.2679138183594
z: -0.007329775020480156
","x: 290.5775146484375
y: 293.4539794921875
z: -0.011306391097605228
","x: 293.7071533203125
y: 296.70172119140625
z: -0.012962433509528637
","x: 296.1920471191406
y: 298.93170166015625
z: -0.01427738182246685
","x: 283.7276306152344
y: 291.0671081542969
z: -0.010332553647458553
","x: 288.10980224609375
y: 294.8949279785156
z: -0.013929641805589199
","x: 290.97900390625
y: 297.4325256347656
z: -0.014950625598430634
","x: 293.3760681152344
y: 299.0752868652344
z: -0.015830930322408676
","x: 281.55853271484375
y: 293.33538818359375
z: -0.013186343014240265
","x: 283.9678039550781
y: 296.84490966796875
z: -0.015945157036185265
","x: 285.54779052734375
y: 299.0450439453125
z: -0.01650836691260338
","x: 287.0317687988281
y: 300.6916809082031
z: -0.017031138762831688
"
12,"x: 302.2235412597656
y: 262.5340576171875
z: -0.21055826544761658
visibility: 0.9999566078186035
","x: 303.2399597167969
y: 257.4731140136719
z: -0.18945065140724182
visibility: 0.9998622536659241
","x: 304.19842529296875
y: 257.6429443359375
z: -0.1893298625946045
visibility: 0.9998626708984375
","x: 305.141357421875
y: 257.88427734375
z: -0.18936683237552643
visibility: 0.9998518824577332
","x: 299.91558837890625
y: 257.6474304199219
z: -0.19384150207042694
visibility: 0.9998393058776855
","x: 298.6037902832031
y: 257.9000549316406
z: -0.19388613104820251
visibility: 0.9998514652252197
","x: 297.230224609375
y: 258.13421630859375
z: -0.19384369254112244
visibility: 0.9998501539230347
","x: 306.3725280761719
y: 261.83978271484375
z: -0.0977107509970665
visibility: 0.9996946454048157
","x: 294.34259033203125
y: 261.8643798828125
z: -0.11158362776041031
visibility: 0.9995626211166382
","x: 303.77716064453125
y: 269.341064453125
z: -0.17546701431274414
visibility: 0.9999210238456726
","x: 300.0244445800781
y: 269.20819091796875
z: -0.18042334914207458
visibility: 0.9999176859855652
","x: 315.7624816894531
y: 294.55303955078125
z: -0.0602627769112587
visibility: 0.9999251365661621
","x: 284.41448974609375
y: 293.2512512207031
z: -0.09697063267230988
visibility: 0.9998460412025452
","x: 333.9048767089844
y: 300.76690673828125
z: -0.20316150784492493
visibility: 0.9873815178871155
","x: 265.4232177734375
y: 303.5596008300781
z: -0.27319759130477905
visibility: 0.9535597562789917
","x: 328.9127197265625
y: 296.39471435546875
z: -0.3701622784137726
visibility: 0.9732822775840759
","x: 287.16058349609375
y: 300.97564697265625
z: -0.4474474787712097
visibility: 0.9326938986778259
","x: 327.5753479003906
y: 295.05035400390625
z: -0.409930557012558
visibility: 0.9362810254096985
","x: 291.9427185058594
y: 304.9630432128906
z: -0.4896973669528961
visibility: 0.8843228816986084
","x: 323.9898376464844
y: 295.36004638671875
z: -0.4020457863807678
visibility: 0.9333181977272034
","x: 294.6787109375
y: 300.60498046875
z: -0.4773770272731781
visibility: 0.8859219551086426
","x: 324.04119873046875
y: 297.1505126953125
z: -0.3723375201225281
visibility: 0.9088026285171509
","x: 293.1091003417969
y: 301.7705078125
z: -0.44755250215530396
visibility: 0.8674998879432678
","x: 311.25079345703125
y: 375.21746826171875
z: 0.006442313082516193
visibility: 0.9998679757118225
","x: 288.76251220703125
y: 378.3045959472656
z: -0.006556573323905468
visibility: 0.9998263716697693
","x: 326.77294921875
y: 438.0205078125
z: -0.10416288673877716
visibility: 0.9979292750358582
","x: 275.8421630859375
y: 441.3506774902344
z: -0.06079448387026787
visibility: 0.9939568042755127
","x: 330.9781799316406
y: 491.9608154296875
z: 0.09035620093345642
visibility: 0.9966436624526978
","x: 262.47711181640625
y: 494.5230712890625
z: 0.09788262099027634
visibility: 0.9959874153137207
","x: 328.6130676269531
y: 500.0784912109375
z: 0.10363312065601349
visibility: 0.8407455086708069
","x: 261.3096923828125
y: 500.3189392089844
z: 0.10697239637374878
visibility: 0.905716061592102
","x: 336.5091857910156
y: 513.736083984375
z: -0.000503227929584682
visibility: 0.991482675075531
","x: 260.39056396484375
y: 512.8646240234375
z: 0.006742847617715597
visibility: 0.9917352199554443
",,,,,,,,,,,,,,,,,,,,,,4.795464754104614,,,,,,,,,,,,,,,,,,,,,
13,"x: 302.2235412597656
y: 262.5340576171875
z: -0.21055826544761658
visibility: 0.9999566078186035
","x: 303.2399597167969
y: 257.4731140136719
z: -0.18945065140724182
visibility: 0.9998622536659241
","x: 304.19842529296875
y: 257.6429443359375
z: -0.1893298625946045
visibility: 0.9998626708984375
","x: 305.141357421875
y: 257.88427734375
z: -0.18936683237552643
visibility: 0.9998518824577332
","x: 299.91558837890625
y: 257.6474304199219
z: -0.19384150207042694
visibility: 0.9998393058776855
","x: 298.6037902832031
y: 257.9000549316406
z: -0.19388613104820251
visibility: 0.9998514652252197
","x: 297.230224609375
y: 258.13421630859375
z: -0.19384369254112244
visibility: 0.9998501539230347
","x: 306.3725280761719
y: 261.83978271484375
z: -0.0977107509970665
visibility: 0.9996946454048157
","x: 294.34259033203125
y: 261.8643798828125
z: -0.11158362776041031
visibility: 0.9995626211166382
","x: 303.77716064453125
y: 269.341064453125
z: -0.17546701431274414
visibility: 0.9999210238456726
","x: 300.0244445800781
y: 269.20819091796875
z: -0.18042334914207458
visibility: 0.9999176859855652
","x: 315.7624816894531
y: 294.55303955078125
z: -0.0602627769112587
visibility: 0.9999251365661621
","x: 284.41448974609375
y: 293.2512512207031
z: -0.09697063267230988
visibility: 0.9998460412025452
","x: 333.9048767089844
y: 300.76690673828125
z: -0.20316150784492493
visibility: 0.9873815178871155
","x: 265.4232177734375
y: 303.5596008300781
z: -0.27319759130477905
visibility: 0.9535597562789917
","x: 328.9127197265625
y: 296.39471435546875
z: -0.3701622784137726
visibility: 0.9732822775840759
","x: 287.16058349609375
y: 300.97564697265625
z: -0.4474474787712097
visibility: 0.9326938986778259
","x: 327.5753479003906
y: 295.05035400390625
z: -0.409930557012558
visibility: 0.9362810254096985
","x: 291.9427185058594
y: 304.9630432128906
z: -0.4896973669528961
visibility: 0.8843228816986084
","x: 323.9898376464844
y: 295.36004638671875
z: -0.4020457863807678
visibility: 0.9333181977272034
","x: 294.6787109375
y: 300.60498046875
z: -0.4773770272731781
visibility: 0.8859219551086426
","x: 324.04119873046875
y: 297.1505126953125
z: -0.3723375201225281
visibility: 0.9088026285171509
","x: 293.1091003417969
y: 301.7705078125
z: -0.44755250215530396
visibility: 0.8674998879432678
","x: 311.25079345703125
y: 375.21746826171875
z: 0.006442313082516193
visibility: 0.9998679757118225
","x: 288.76251220703125
y: 378.3045959472656
z: -0.006556573323905468
visibility: 0.9998263716697693
","x: 326.77294921875
y: 438.0205078125
z: -0.10416288673877716
visibility: 0.9979292750358582
","x: 275.8421630859375
y: 441.3506774902344
z: -0.06079448387026787
visibility: 0.9939568042755127
","x: 330.9781799316406
y: 491.9608154296875
z: 0.09035620093345642
visibility: 0.9966436624526978
","x: 262.47711181640625
y: 494.5230712890625
z: 0.09788262099027634
visibility: 0.9959874153137207
","x: 328.6130676269531
y: 500.0784912109375
z: 0.10363312065601349
visibility: 0.8407455086708069
","x: 261.3096923828125
y: 500.3189392089844
z: 0.10697239637374878
visibility: 0.905716061592102
","x: 336.5091857910156
y: 513.736083984375
z: -0.000503227929584682
visibility: 0.991482675075531
","x: 260.39056396484375
y: 512.8646240234375
z: 0.006742847617715597
visibility: 0.9917352199554443
",,,,,,,,,,,,,,,,,,,,,,4.795464754104614,,,,,,,,,,,,,,,,,,,,,
14,"x: 315.6063232421875
y: 287.19622802734375
z: -0.28391972184181213
visibility: 0.9999582171440125
","x: 316.15179443359375
y: 282.3031005859375
z: -0.27149760723114014
visibility: 0.9998569488525391
","x: 316.9394836425781
y: 282.44488525390625
z: -0.27145394682884216
visibility: 0.9998579621315002
","x: 317.7891845703125
y: 282.568603515625
z: -0.271501749753952
visibility: 0.9998452067375183
","x: 313.4317932128906
y: 281.8563537597656
z: -0.27564042806625366
visibility: 0.9998358488082886
","x: 312.2840270996094
y: 281.7188415527344
z: -0.2757270336151123
visibility: 0.9998486638069153
","x: 311.0323791503906
y: 281.53778076171875
z: -0.2757491171360016
visibility: 0.9998457431793213
","x: 317.961181640625
y: 285.9661865234375
z: -0.1867089718580246
visibility: 0.999705970287323
","x: 307.48345947265625
y: 284.7646789550781
z: -0.20373551547527313
visibility: 0.9995822906494141
","x: 316.5874938964844
y: 293.6124267578125
z: -0.250867635011673
visibility: 0.9999116659164429
","x: 313.4006042480469
y: 292.94549560546875
z: -0.25588375329971313
visibility: 0.999905526638031
","x: 326.44677734375
y: 311.91400146484375
z: -0.13101956248283386
visibility: 0.999901533126831
","x: 294.860595703125
y: 304.43536376953125
z: -0.14826224744319916
visibility: 0.9998210072517395
","x: 342.50360107421875
y: 307.1676025390625
z: -0.17828592658042908
visibility: 0.9880993366241455
","x: 274.96234130859375
y: 305.73370361328125
z: -0.17592407763004303
visibility: 0.9580145478248596
","x: 364.2542724609375
y: 305.80108642578125
z: -0.3018115162849426
visibility: 0.9743047952651978
","x: 258.6825866699219
y: 307.2657470703125
z: -0.2271285504102707
visibility: 0.9387086629867554
","x: 370.96319580078125
y: 307.8595275878906
z: -0.3298012912273407
visibility: 0.9374988079071045
","x: 250.7759246826172
y: 310.8136291503906
z: -0.24229586124420166
visibility: 0.8933661580085754
","x: 371.6265563964844
y: 307.8791198730469
z: -0.3447948098182678
visibility: 0.935680091381073
","x: 250.921875
y: 311.6640625
z: -0.2718186676502228
visibility: 0.8952107429504395
","x: 368.9950256347656
y: 307.7972106933594
z: -0.3138565123081207
visibility: 0.9136635065078735
","x: 253.63340759277344
y: 311.5039367675781
z: -0.24400365352630615
visibility: 0.878485918045044
","x: 314.7185363769531
y: 393.9993896484375
z: 0.0022694524377584457
visibility: 0.9998514652252197
","x: 292.09686279296875
y: 391.7785339355469
z: -0.0023880652152001858
visibility: 0.9998202323913574
","x: 332.5180969238281
y: 441.2218017578125
z: -0.16648666560649872
visibility: 0.9980477690696716
","x: 274.1762390136719
y: 441.95989990234375
z: -0.1085478663444519
visibility: 0.9945239424705505
","x: 334.0240478515625
y: 492.55560302734375
z: 0.030667895451188087
visibility: 0.9968134760856628
","x: 264.8182067871094
y: 494.5986328125
z: 0.06075600907206535
visibility: 0.996324896812439
","x: 330.8446350097656
y: 500.3335266113281
z: 0.04495449364185333
visibility: 0.8533576130867004
","x: 267.1407470703125
y: 500.7306213378906
z: 0.07200131565332413
visibility: 0.9137158393859863
","x: 338.01287841796875
y: 513.8901977539062
z: -0.050755031406879425
visibility: 0.9919048547744751
","x: 259.63818359375
y: 513.9337768554688
z: -0.0164322629570961
visibility: 0.9923518896102905
",,,,,,,,,,,,,,,,,,,,,,4.92046594619751,,,,,,,,,,,,,,,,,,,,,
15,"x: 315.6063232421875
y: 287.19622802734375
z: -0.28391972184181213
visibility: 0.9999582171440125
","x: 316.15179443359375
y: 282.3031005859375
z: -0.27149760723114014
visibility: 0.9998569488525391
","x: 316.9394836425781
y: 282.44488525390625
z: -0.27145394682884216
visibility: 0.9998579621315002
","x: 317.7891845703125
y: 282.568603515625
z: -0.271501749753952
visibility: 0.9998452067375183
","x: 313.4317932128906
y: 281.8563537597656
z: -0.27564042806625366
visibility: 0.9998358488082886
","x: 312.2840270996094
y: 281.7188415527344
z: -0.2757270336151123
visibility: 0.9998486638069153
","x: 311.0323791503906
y: 281.53778076171875
z: -0.2757491171360016
visibility: 0.9998457431793213
","x: 317.961181640625
y: 285.9661865234375
z: -0.1867089718580246
visibility: 0.999705970287323
","x: 307.48345947265625
y: 284.7646789550781
z: -0.20373551547527313
visibility: 0.9995822906494141
","x: 316.5874938964844
y: 293.6124267578125
z: -0.250867635011673
visibility: 0.9999116659164429
","x: 313.4006042480469
y: 292.94549560546875
z: -0.25588375329971313
visibility: 0.999905526638031
","x: 326.44677734375
y: 311.91400146484375
z: -0.13101956248283386
visibility: 0.999901533126831
","x: 294.860595703125
y: 304.43536376953125
z: -0.14826224744319916
visibility: 0.9998210072517395
","x: 342.50360107421875
y: 307.1676025390625
z: -0.17828592658042908
visibility: 0.9880993366241455
","x: 274.96234130859375
y: 305.73370361328125
z: -0.17592407763004303
visibility: 0.9580145478248596
","x: 364.2542724609375
y: 305.80108642578125
z: -0.3018115162849426
visibility: 0.9743047952651978
","x: 258.6825866699219
y: 307.2657470703125
z: -0.2271285504102707
visibility: 0.9387086629867554
","x: 370.96319580078125
y: 307.8595275878906
z: -0.3298012912273407
visibility: 0.9374988079071045
","x: 250.7759246826172
y: 310.8136291503906
z: -0.24229586124420166
visibility: 0.8933661580085754
","x: 371.6265563964844
y: 307.8791198730469
z: -0.3447948098182678
visibility: 0.935680091381073
","x: 250.921875
y: 311.6640625
z: -0.2718186676502228
visibility: 0.8952107429504395
","x: 368.9950256347656
y: 307.7972106933594
z: -0.3138565123081207
visibility: 0.9136635065078735
","x: 253.63340759277344
y: 311.5039367675781
z: -0.24400365352630615
visibility: 0.878485918045044
","x: 314.7185363769531
y: 393.9993896484375
z: 0.0022694524377584457
visibility: 0.9998514652252197
","x: 292.09686279296875
y: 391.7785339355469
z: -0.0023880652152001858
visibility: 0.9998202323913574
","x: 332.5180969238281
y: 441.2218017578125
z: -0.16648666560649872
visibility: 0.9980477690696716
","x: 274.1762390136719
y: 441.95989990234375
z: -0.1085478663444519
visibility: 0.9945239424705505
","x: 334.0240478515625
y: 492.55560302734375
z: 0.030667895451188087
visibility: 0.9968134760856628
","x: 264.8182067871094
y: 494.5986328125
z: 0.06075600907206535
visibility: 0.996324896812439
","x: 330.8446350097656
y: 500.3335266113281
z: 0.04495449364185333
visibility: 0.8533576130867004
","x: 267.1407470703125
y: 500.7306213378906
z: 0.07200131565332413
visibility: 0.9137158393859863
","x: 338.01287841796875
y: 513.8901977539062
z: -0.050755031406879425
visibility: 0.9919048547744751
","x: 259.63818359375
y: 513.9337768554688
z: -0.0164322629570961
visibility: 0.9923518896102905
",,,,,,,,,,,,,,,,,,,,,,4.92046594619751,,,,,,,,,,,,,,,,,,,,,
16,"x: 313.60675048828125
y: 307.0032958984375
z: -0.4022945463657379
visibility: 0.9999622702598572
","x: 315.8316345214844
y: 302.4298095703125
z: -0.39353910088539124
visibility: 0.9998706579208374
","x: 316.9673767089844
y: 302.7252502441406
z: -0.3934846520423889
visibility: 0.9998716115951538
","x: 318.0188293457031
y: 303.02874755859375
z: -0.39353781938552856
visibility: 0.9998599886894226
","x: 312.177734375
y: 301.570068359375
z: -0.3942020535469055
visibility: 0.999851644039154
","x: 310.875732421875
y: 301.17333984375
z: -0.3943144679069519
visibility: 0.9998632669448853
","x: 309.6119079589844
y: 300.7386474609375
z: -0.39430007338523865
visibility: 0.9998605847358704
","x: 319.5029602050781
y: 305.0723571777344
z: -0.30815744400024414
visibility: 0.9997345805168152
","x: 307.7113037109375
y: 302.1842041015625
z: -0.31095966696739197
visibility: 0.9996232390403748
","x: 315.1469421386719
y: 313.40692138671875
z: -0.36795926094055176
visibility: 0.9999198913574219
","x: 310.8747253417969
y: 312.0562438964844
z: -0.3687194883823395
visibility: 0.9999144077301025
","x: 327.13079833984375
y: 331.1209716796875
z: -0.22398367524147034
visibility: 0.9999107122421265
","x: 294.6002502441406
y: 322.4020080566406
z: -0.24391703307628632
visibility: 0.9998376965522766
","x: 346.6479797363281
y: 336.7826843261719
z: -0.22718994319438934
visibility: 0.9892420172691345
","x: 273.4425964355469
y: 329.3813781738281
z: -0.26343920826911926
visibility: 0.9621890187263489
","x: 370.6585998535156
y: 341.5897216796875
z: -0.3020523190498352
visibility: 0.9767196774482727
","x: 246.32220458984375
y: 338.44903564453125
z: -0.3359566330909729
visibility: 0.9447190761566162
","x: 376.7958984375
y: 346.7138671875
z: -0.3235761821269989
visibility: 0.9429388046264648
","x: 238.11854553222656
y: 345.3565979003906
z: -0.3555974066257477
visibility: 0.9033949375152588
","x: 377.84088134765625
y: 347.30694580078125
z: -0.34650710225105286
visibility: 0.941474437713623
","x: 238.04885864257812
y: 346.1363525390625
z: -0.3839194178581238
visibility: 0.9051591753959656
","x: 375.3873291015625
y: 346.4759521484375
z: -0.3158504366874695
visibility: 0.9216413497924805
","x: 240.46365356445312
y: 344.47698974609375
z: -0.35077857971191406
visibility: 0.8900476694107056
","x: 313.83306884765625
y: 404.21282958984375
z: 0.005435789469629526
visibility: 0.9998586177825928
","x: 292.2530822753906
y: 401.99969482421875
z: -0.005588261876255274
visibility: 0.9998235702514648
","x: 330.7523193359375
y: 446.3999938964844
z: -0.13719883561134338
visibility: 0.9981743693351746
","x: 274.4342041015625
y: 454.8874206542969
z: -0.06660633534193039
visibility: 0.9949822425842285
","x: 334.4040222167969
y: 492.9024658203125
z: 0.052789442241191864
visibility: 0.9969947934150696
","x: 261.0400085449219
y: 495.5576171875
z: 0.11468770354986191
visibility: 0.9964877963066101
","x: 332.20135498046875
y: 500.1935119628906
z: 0.06681108474731445
visibility: 0.8655273914337158
","x: 261.10955810546875
y: 500.8525085449219
z: 0.1300838738679886
visibility: 0.9162517189979553
","x: 337.8232421875
y: 513.8112182617188
z: -0.02903762459754944
visibility: 0.9924132227897644
","x: 258.14447021484375
y: 514.318603515625
z: 0.04002651199698448
visibility: 0.9926198124885559
",,,,,,,,,,,,,,,,,,,,,,5.043747663497925,,,,,,,,,,,,,,,,,,,,,
17,"x: 313.60675048828125
y: 307.0032958984375
z: -0.4022945463657379
visibility: 0.9999622702598572
","x: 315.8316345214844
y: 302.4298095703125
z: -0.39353910088539124
visibility: 0.9998706579208374
","x: 316.9673767089844
y: 302.7252502441406
z: -0.3934846520423889
visibility: 0.9998716115951538
","x: 318.0188293457031
y: 303.02874755859375
z: -0.39353781938552856
visibility: 0.9998599886894226
","x: 312.177734375
y: 301.570068359375
z: -0.3942020535469055
visibility: 0.999851644039154
","x: 310.875732421875
y: 301.17333984375
z: -0.3943144679069519
visibility: 0.9998632669448853
","x: 309.6119079589844
y: 300.7386474609375
z: -0.39430007338523865
visibility: 0.9998605847358704
","x: 319.5029602050781
y: 305.0723571777344
z: -0.30815744400024414
visibility: 0.9997345805168152
","x: 307.7113037109375
y: 302.1842041015625
z: -0.31095966696739197
visibility: 0.9996232390403748
","x: 315.1469421386719
y: 313.40692138671875
z: -0.36795926094055176
visibility: 0.9999198913574219
","x: 310.8747253417969
y: 312.0562438964844
z: -0.3687194883823395
visibility: 0.9999144077301025
","x: 327.13079833984375
y: 331.1209716796875
z: -0.22398367524147034
visibility: 0.9999107122421265
","x: 294.6002502441406
y: 322.4020080566406
z: -0.24391703307628632
visibility: 0.9998376965522766
","x: 346.6479797363281
y: 336.7826843261719
z: -0.22718994319438934
visibility: 0.9892420172691345
","x: 273.4425964355469
y: 329.3813781738281
z: -0.26343920826911926
visibility: 0.9621890187263489
","x: 370.6585998535156
y: 341.5897216796875
z: -0.3020523190498352
visibility: 0.9767196774482727
","x: 246.32220458984375
y: 338.44903564453125
z: -0.3359566330909729
visibility: 0.9447190761566162
","x: 376.7958984375
y: 346.7138671875
z: -0.3235761821269989
visibility: 0.9429388046264648
","x: 238.11854553222656
y: 345.3565979003906
z: -0.3555974066257477
visibility: 0.9033949375152588
","x: 377.84088134765625
y: 347.30694580078125
z: -0.34650710225105286
visibility: 0.941474437713623
","x: 238.04885864257812
y: 346.1363525390625
z: -0.3839194178581238
visibility: 0.9051591753959656
","x: 375.3873291015625
y: 346.4759521484375
z: -0.3158504366874695
visibility: 0.9216413497924805
","x: 240.46365356445312
y: 344.47698974609375
z: -0.35077857971191406
visibility: 0.8900476694107056
","x: 313.83306884765625
y: 404.21282958984375
z: 0.005435789469629526
visibility: 0.9998586177825928
","x: 292.2530822753906
y: 401.99969482421875
z: -0.005588261876255274
visibility: 0.9998235702514648
","x: 330.7523193359375
y: 446.3999938964844
z: -0.13719883561134338
visibility: 0.9981743693351746
","x: 274.4342041015625
y: 454.8874206542969
z: -0.06660633534193039
visibility: 0.9949822425842285
","x: 334.4040222167969
y: 492.9024658203125
z: 0.052789442241191864
visibility: 0.9969947934150696
","x: 261.0400085449219
y: 495.5576171875
z: 0.11468770354986191
visibility: 0.9964877963066101
","x: 332.20135498046875
y: 500.1935119628906
z: 0.06681108474731445
visibility: 0.8655273914337158
","x: 261.10955810546875
y: 500.8525085449219
z: 0.1300838738679886
visibility: 0.9162517189979553
","x: 337.8232421875
y: 513.8112182617188
z: -0.02903762459754944
visibility: 0.9924132227897644
","x: 258.14447021484375
y: 514.318603515625
z: 0.04002651199698448
visibility: 0.9926198124885559
",,,,,,,,,,,,,,,,,,,,,,5.043747663497925,,,,,,,,,,,,,,,,,,,,,
18,"x: 309.8236389160156
y: 310.1703186035156
z: -0.38430991768836975
visibility: 0.9999659061431885
","x: 311.7796325683594
y: 305.1597900390625
z: -0.37754589319229126
visibility: 0.9998829364776611
","x: 312.873779296875
y: 305.4302978515625
z: -0.3775191009044647
visibility: 0.9998838305473328
","x: 313.87548828125
y: 305.67486572265625
z: -0.3775700330734253
visibility: 0.9998732805252075
","x: 308.3562927246094
y: 304.7216491699219
z: -0.37539833784103394
visibility: 0.9998659491539001
","x: 307.09893798828125
y: 304.6827392578125
z: -0.3754873275756836
visibility: 0.9998763799667358
","x: 305.8545837402344
y: 304.6664123535156
z: -0.37547820806503296
visibility: 0.9998739957809448
","x: 315.560546875
y: 309.30999755859375
z: -0.3031121492385864
visibility: 0.9997602105140686
","x: 303.6229248046875
y: 307.93780517578125
z: -0.2929846942424774
visibility: 0.999660074710846
","x: 311.5133972167969
y: 317.4447326660156
z: -0.3546126186847687
visibility: 0.9999274015426636
","x: 307.2560119628906
y: 316.4849853515625
z: -0.3517121374607086
visibility: 0.9999225735664368
","x: 324.5660705566406
y: 343.14459228515625
z: -0.22792181372642517
visibility: 0.9999194145202637
","x: 291.5966491699219
y: 332.9566955566406
z: -0.21179445087909698
visibility: 0.9998536109924316
","x: 342.4644775390625
y: 363.3648986816406
z: -0.21634161472320557
visibility: 0.9902530908584595
","x: 270.0445861816406
y: 352.9236145019531
z: -0.1995062530040741
visibility: 0.9656877517700195
","x: 362.959716796875
y: 383.3592529296875
z: -0.28956153988838196
visibility: 0.9786563515663147
","x: 249.53887939453125
y: 377.9142761230469
z: -0.2745903730392456
visibility: 0.9493159651756287
","x: 368.0069274902344
y: 391.4163513183594
z: -0.3143860697746277
visibility: 0.9469227194786072
","x: 243.12429809570312
y: 386.8994445800781
z: -0.28660809993743896
visibility: 0.9096729755401611
","x: 367.5450439453125
y: 392.57940673828125
z: -0.33386388421058655
visibility: 0.9459609985351562
","x: 243.70713806152344
y: 388.42401123046875
z: -0.3416905999183655
visibility: 0.9117525219917297
","x: 365.7214660644531
y: 390.3753662109375
z: -0.3013715147972107
visibility: 0.9279191493988037
","x: 246.10316467285156
y: 386.72711181640625
z: -0.29981857538223267
visibility: 0.8980203866958618
","x: 313.4825744628906
y: 409.0242004394531
z: 0.0002617636346258223
visibility: 0.999855101108551
","x: 291.28521728515625
y: 406.1395263671875
z: -0.0004325425252318382
visibility: 0.9998367428779602
","x: 328.02569580078125
y: 453.678466796875
z: 0.012165621854364872
visibility: 0.9980553388595581
","x: 270.96612548828125
y: 455.73284912109375
z: -0.06304357945919037
visibility: 0.9953550696372986
","x: 335.9475402832031
y: 493.761962890625
z: 0.22498933970928192
visibility: 0.9969521760940552
","x: 259.97930908203125
y: 496.47528076171875
z: 0.11254771798849106
visibility: 0.9965834617614746
","x: 335.6614685058594
y: 500.19757080078125
z: 0.24128472805023193
visibility: 0.8699053525924683
","x: 260.0273742675781
y: 501.5037536621094
z: 0.12518510222434998
visibility: 0.9189324975013733
","x: 338.09515380859375
y: 514.4838256835938
z: 0.1500229686498642
visibility: 0.9922292232513428
","x: 255.729736328125
y: 514.6932373046875
z: 0.03334619104862213
visibility: 0.9927914142608643
",,,,,,,,,,,,,,,,,,,,,,5.201082706451416,,,,,,,,,,,,,,,,,,,,,
19,"x: 309.8236389160156
y: 310.1703186035156
z: -0.38430991768836975
visibility: 0.9999659061431885
","x: 311.7796325683594
y: 305.1597900390625
z: -0.37754589319229126
visibility: 0.9998829364776611
","x: 312.873779296875
y: 305.4302978515625
z: -0.3775191009044647
visibility: 0.9998838305473328
","x: 313.87548828125
y: 305.67486572265625
z: -0.3775700330734253
visibility: 0.9998732805252075
","x: 308.3562927246094
y: 304.7216491699219
z: -0.37539833784103394
visibility: 0.9998659491539001
","x: 307.09893798828125
y: 304.6827392578125
z: -0.3754873275756836
visibility: 0.9998763799667358
","x: 305.8545837402344
y: 304.6664123535156
z: -0.37547820806503296
visibility: 0.9998739957809448
","x: 315.560546875
y: 309.30999755859375
z: -0.3031121492385864
visibility: 0.9997602105140686
","x: 303.6229248046875
y: 307.93780517578125
z: -0.2929846942424774
visibility: 0.999660074710846
","x: 311.5133972167969
y: 317.4447326660156
z: -0.3546126186847687
visibility: 0.9999274015426636
","x: 307.2560119628906
y: 316.4849853515625
z: -0.3517121374607086
visibility: 0.9999225735664368
","x: 324.5660705566406
y: 343.14459228515625
z: -0.22792181372642517
visibility: 0.9999194145202637
","x: 291.5966491699219
y: 332.9566955566406
z: -0.21179445087909698
visibility: 0.9998536109924316
","x: 342.4644775390625
y: 363.3648986816406
z: -0.21634161472320557
visibility: 0.9902530908584595
","x: 270.0445861816406
y: 352.9236145019531
z: -0.1995062530040741
visibility: 0.9656877517700195
","x: 362.959716796875
y: 383.3592529296875
z: -0.28956153988838196
visibility: 0.9786563515663147
","x: 249.53887939453125
y: 377.9142761230469
z: -0.2745903730392456
visibility: 0.9493159651756287
","x: 368.0069274902344
y: 391.4163513183594
z: -0.3143860697746277
visibility: 0.9469227194786072
","x: 243.12429809570312
y: 386.8994445800781
z: -0.28660809993743896
visibility: 0.9096729755401611
","x: 367.5450439453125
y: 392.57940673828125
z: -0.33386388421058655
visibility: 0.9459609985351562
","x: 243.70713806152344
y: 388.42401123046875
z: -0.3416905999183655
visibility: 0.9117525219917297
","x: 365.7214660644531
y: 390.3753662109375
z: -0.3013715147972107
visibility: 0.9279191493988037
","x: 246.10316467285156
y: 386.72711181640625
z: -0.29981857538223267
visibility: 0.8980203866958618
","x: 313.4825744628906
y: 409.0242004394531
z: 0.0002617636346258223
visibility: 0.999855101108551
","x: 291.28521728515625
y: 406.1395263671875
z: -0.0004325425252318382
visibility: 0.9998367428779602
","x: 328.02569580078125
y: 453.678466796875
z: 0.012165621854364872
visibility: 0.9980553388595581
","x: 270.96612548828125
y: 455.73284912109375
z: -0.06304357945919037
visibility: 0.9953550696372986
","x: 335.9475402832031
y: 493.761962890625
z: 0.22498933970928192
visibility: 0.9969521760940552
","x: 259.97930908203125
y: 496.47528076171875
z: 0.11254771798849106
visibility: 0.9965834617614746
","x: 335.6614685058594
y: 500.19757080078125
z: 0.24128472805023193
visibility: 0.8699053525924683
","x: 260.0273742675781
y: 501.5037536621094
z: 0.12518510222434998
visibility: 0.9189324975013733
","x: 338.09515380859375
y: 514.4838256835938
z: 0.1500229686498642
visibility: 0.9922292232513428
","x: 255.729736328125
y: 514.6932373046875
z: 0.03334619104862213
visibility: 0.9927914142608643
",,,,,,,,,,,,,,,,,,,,,,5.201082706451416,,,,,,,,,,,,,,,,,,,,,
20,"x: 294.6585693359375
y: 307.1286315917969
z: -0.26450860500335693
visibility: 0.9999690055847168
","x: 296.64373779296875
y: 303.8896484375
z: -0.2515603303909302
visibility: 0.9998930096626282
","x: 297.68572998046875
y: 304.34014892578125
z: -0.2515919804573059
visibility: 0.9998943209648132
","x: 298.7280578613281
y: 304.79498291015625
z: -0.25168055295944214
visibility: 0.9998850226402283
","x: 293.6885986328125
y: 303.3512268066406
z: -0.2484235018491745
visibility: 0.9998769760131836
","x: 292.6625061035156
y: 303.39306640625
z: -0.24844929575920105
visibility: 0.9998860955238342
","x: 291.65155029296875
y: 303.34332275390625
z: -0.24844923615455627
visibility: 0.999883234500885
","x: 300.28857421875
y: 308.2806091308594
z: -0.18269941210746765
visibility: 0.9997823238372803
","x: 289.9408874511719
y: 306.40167236328125
z: -0.16644951701164246
visibility: 0.9996881484985352
","x: 296.43292236328125
y: 313.95843505859375
z: -0.23923155665397644
visibility: 0.9999341368675232
","x: 292.47625732421875
y: 312.65594482421875
z: -0.2347714900970459
visibility: 0.9999291300773621
","x: 310.886474609375
y: 346.4636535644531
z: -0.14926965534687042
visibility: 0.9999269843101501
","x: 280.1815490722656
y: 338.4906311035156
z: -0.09837116301059723
visibility: 0.9998617768287659
","x: 319.17041015625
y: 391.13104248046875
z: -0.13568925857543945
visibility: 0.9908230900764465
","x: 275.42095947265625
y: 379.02105712890625
z: -0.04927356541156769
visibility: 0.9231671690940857
","x: 326.22320556640625
y: 435.4700927734375
z: -0.1964702308177948
visibility: 0.9791393876075745
","x: 270.6386413574219
y: 405.6148986816406
z: -0.08218039572238922
visibility: 0.8911382555961609
","x: 328.3274841308594
y: 447.9117126464844
z: -0.21601001918315887
visibility: 0.9479364156723022
","x: 268.31475830078125
y: 415.10931396484375
z: -0.09842143952846527
visibility: 0.8500187993049622
","x: 326.7153625488281
y: 449.46356201171875
z: -0.2356744110584259
visibility: 0.9473572969436646
","x: 268.60272216796875
y: 415.92236328125
z: -0.11947007477283478
visibility: 0.8524298667907715
","x: 325.288330078125
y: 445.3370666503906
z: -0.2053948938846588
visibility: 0.929195761680603
","x: 270.434814453125
y: 412.7373962402344
z: -0.09208466112613678
visibility: 0.8359540700912476
","x: 304.3476257324219
y: 415.6390686035156
z: -0.007614164613187313
visibility: 0.9998613595962524
","x: 283.59259033203125
y: 412.8428649902344
z: 0.00761341443285346
visibility: 0.9998517632484436
","x: 318.7124938964844
y: 464.29559326171875
z: -0.0370328463613987
visibility: 0.998092770576477
","x: 262.4288635253906
y: 452.39129638671875
z: -0.2035984992980957
visibility: 0.9957764148712158
","x: 334.985107421875
y: 497.4618225097656
z: 0.16005824506282806
visibility: 0.9970149993896484
","x: 258.9774475097656
y: 496.2501525878906
z: -0.029714206233620644
visibility: 0.9968321323394775
","x: 335.6833801269531
y: 502.5955810546875
z: 0.1749362349510193
visibility: 0.8742571473121643
","x: 260.65985107421875
y: 502.3058776855469
z: -0.017528720200061798
visibility: 0.924606442451477
","x: 338.06915283203125
y: 515.8928833007812
z: 0.08279375731945038
visibility: 0.9919840097427368
","x: 251.68814086914062
y: 514.7026977539062
z: -0.11203588545322418
visibility: 0.9932207465171814
",,,,,,,,,,,,,,,,,,,,,,5.327466249465942,,,,,,,,,,,,,,,,,,,,,
21,"x: 294.6585693359375
y: 307.1286315917969
z: -0.26450860500335693
visibility: 0.9999690055847168
","x: 296.64373779296875
y: 303.8896484375
z: -0.2515603303909302
visibility: 0.9998930096626282
","x: 297.68572998046875
y: 304.34014892578125
z: -0.2515919804573059
visibility: 0.9998943209648132
","x: 298.7280578613281
y: 304.79498291015625
z: -0.25168055295944214
visibility: 0.9998850226402283
","x: 293.6885986328125
y: 303.3512268066406
z: -0.2484235018491745
visibility: 0.9998769760131836
","x: 292.6625061035156
y: 303.39306640625
z: -0.24844929575920105
visibility: 0.9998860955238342
","x: 291.65155029296875
y: 303.34332275390625
z: -0.24844923615455627
visibility: 0.999883234500885
","x: 300.28857421875
y: 308.2806091308594
z: -0.18269941210746765
visibility: 0.9997823238372803
","x: 289.9408874511719
y: 306.40167236328125
z: -0.16644951701164246
visibility: 0.9996881484985352
","x: 296.43292236328125
y: 313.95843505859375
z: -0.23923155665397644
visibility: 0.9999341368675232
","x: 292.47625732421875
y: 312.65594482421875
z: -0.2347714900970459
visibility: 0.9999291300773621
","x: 310.886474609375
y: 346.4636535644531
z: -0.14926965534687042
visibility: 0.9999269843101501
","x: 280.1815490722656
y: 338.4906311035156
z: -0.09837116301059723
visibility: 0.9998617768287659
","x: 319.17041015625
y: 391.13104248046875
z: -0.13568925857543945
visibility: 0.9908230900764465
","x: 275.42095947265625
y: 379.02105712890625
z: -0.04927356541156769
visibility: 0.9231671690940857
","x: 326.22320556640625
y: 435.4700927734375
z: -0.1964702308177948
visibility: 0.9791393876075745
","x: 270.6386413574219
y: 405.6148986816406
z: -0.08218039572238922
visibility: 0.8911382555961609
","x: 328.3274841308594
y: 447.9117126464844
z: -0.21601001918315887
visibility: 0.9479364156723022
","x: 268.31475830078125
y: 415.10931396484375
z: -0.09842143952846527
visibility: 0.8500187993049622
","x: 326.7153625488281
y: 449.46356201171875
z: -0.2356744110584259
visibility: 0.9473572969436646
","x: 268.60272216796875
y: 415.92236328125
z: -0.11947007477283478
visibility: 0.8524298667907715
","x: 325.288330078125
y: 445.3370666503906
z: -0.2053948938846588
visibility: 0.929195761680603
","x: 270.434814453125
y: 412.7373962402344
z: -0.09208466112613678
visibility: 0.8359540700912476
","x: 304.3476257324219
y: 415.6390686035156
z: -0.007614164613187313
visibility: 0.9998613595962524
","x: 283.59259033203125
y: 412.8428649902344
z: 0.00761341443285346
visibility: 0.9998517632484436
","x: 318.7124938964844
y: 464.29559326171875
z: -0.0370328463613987
visibility: 0.998092770576477
","x: 262.4288635253906
y: 452.39129638671875
z: -0.2035984992980957
visibility: 0.9957764148712158
","x: 334.985107421875
y: 497.4618225097656
z: 0.16005824506282806
visibility: 0.9970149993896484
","x: 258.9774475097656
y: 496.2501525878906
z: -0.029714206233620644
visibility: 0.9968321323394775
","x: 335.6833801269531
y: 502.5955810546875
z: 0.1749362349510193
visibility: 0.8742571473121643
","x: 260.65985107421875
y: 502.3058776855469
z: -0.017528720200061798
visibility: 0.924606442451477
","x: 338.06915283203125
y: 515.8928833007812
z: 0.08279375731945038
visibility: 0.9919840097427368
","x: 251.68814086914062
y: 514.7026977539062
z: -0.11203588545322418
visibility: 0.9932207465171814
",,,,,,,,,,,,,,,,,,,,,,5.327466249465942,,,,,,,,,,,,,,,,,,,,,
22,"x: 282.1818542480469
y: 298.60601806640625
z: -0.3240814507007599
visibility: 0.9999657869338989
","x: 284.1611022949219
y: 294.5456237792969
z: -0.31411081552505493
visibility: 0.9998804926872253
","x: 285.1683654785156
y: 294.8758239746094
z: -0.31412336230278015
visibility: 0.9998815059661865
","x: 286.25555419921875
y: 295.2177734375
z: -0.31420522928237915
visibility: 0.9998803734779358
","x: 281.16693115234375
y: 294.0902404785156
z: -0.3071691393852234
visibility: 0.9998642206192017
","x: 280.0509338378906
y: 294.080322265625
z: -0.3071959316730499
visibility: 0.9998607039451599
","x: 278.9302062988281
y: 294.028076171875
z: -0.30721938610076904
visibility: 0.9998600482940674
","x: 288.6697082519531
y: 298.9401550292969
z: -0.23969081044197083
visibility: 0.9997824430465698
","x: 277.310302734375
y: 297.28680419921875
z: -0.20630335807800293
visibility: 0.9996405243873596
","x: 283.9223327636719
y: 305.3236083984375
z: -0.2948146462440491
visibility: 0.9999322891235352
","x: 280.0841369628906
y: 304.3592529296875
z: -0.2857944071292877
visibility: 0.9999200701713562
","x: 296.1710510253906
y: 333.007568359375
z: -0.21898870170116425
visibility: 0.999928891658783
","x: 272.9940185546875
y: 329.2423095703125
z: -0.11433710902929306
visibility: 0.9998548626899719
","x: 291.34112548828125
y: 377.1589660644531
z: -0.26962095499038696
visibility: 0.990705668926239
","x: 277.7340393066406
y: 363.33148193359375
z: -0.11362888664007187
visibility: 0.8626461625099182
","x: 266.96380615234375
y: 392.0655822753906
z: -0.3141454756259918
visibility: 0.9749672412872314
","x: 286.0400695800781
y: 381.39508056640625
z: -0.18701519072055817
visibility: 0.8165817260742188
","x: 261.19244384765625
y: 397.7574462890625
z: -0.34318333864212036
visibility: 0.9397172331809998
","x: 287.7369689941406
y: 389.9145812988281
z: -0.2093493491411209
visibility: 0.7805531620979309
","x: 259.9242248535156
y: 393.9579772949219
z: -0.34147101640701294
visibility: 0.9384229183197021
","x: 287.14044189453125
y: 387.5740051269531
z: -0.22274541854858398
visibility: 0.7817349433898926
","x: 262.43572998046875
y: 391.98199462890625
z: -0.31332141160964966
visibility: 0.912091076374054
","x: 286.5491027832031
y: 384.5049743652344
z: -0.19509677588939667
visibility: 0.7639824151992798
","x: 296.3271789550781
y: 406.41522216796875
z: -0.020375123247504234
visibility: 0.9998551607131958
","x: 277.7677307128906
y: 404.9706726074219
z: 0.02025858871638775
visibility: 0.9998607635498047
","x: 308.0542297363281
y: 466.9106750488281
z: -0.06365581601858139
visibility: 0.9980507493019104
","x: 256.9251708984375
y: 449.39471435546875
z: -0.12577155232429504
visibility: 0.9960648417472839
","x: 332.71063232421875
y: 497.0526123046875
z: 0.14259393513202667
visibility: 0.9966731667518616
","x: 257.877197265625
y: 496.3279724121094
z: 0.03500429913401604
visibility: 0.996802568435669
","x: 334.87725830078125
y: 498.9027099609375
z: 0.1584543138742447
visibility: 0.8709782361984253
","x: 260.6399841308594
y: 503.5982971191406
z: 0.07214727252721786
visibility: 0.9273113012313843
","x: 337.2270202636719
y: 515.8867797851562
z: 0.06464109569787979
visibility: 0.9910320043563843
","x: 249.21987915039062
y: 514.7064819335938
z: -0.002625672845169902
visibility: 0.9929760694503784
",,,,,,,,,,,,,,,,,,,,,,5.436730861663818,,,,,,,,,,,,,,,,,,,,,
23,"x: 282.1818542480469
y: 298.60601806640625
z: -0.3240814507007599
visibility: 0.9999657869338989
","x: 284.1611022949219
y: 294.5456237792969
z: -0.31411081552505493
visibility: 0.9998804926872253
","x: 285.1683654785156
y: 294.8758239746094
z: -0.31412336230278015
visibility: 0.9998815059661865
","x: 286.25555419921875
y: 295.2177734375
z: -0.31420522928237915
visibility: 0.9998803734779358
","x: 281.16693115234375
y: 294.0902404785156
z: -0.3071691393852234
visibility: 0.9998642206192017
","x: 280.0509338378906
y: 294.080322265625
z: -0.3071959316730499
visibility: 0.9998607039451599
","x: 278.9302062988281
y: 294.028076171875
z: -0.30721938610076904
visibility: 0.9998600482940674
","x: 288.6697082519531
y: 298.9401550292969
z: -0.23969081044197083
visibility: 0.9997824430465698
","x: 277.310302734375
y: 297.28680419921875
z: -0.20630335807800293
visibility: 0.9996405243873596
","x: 283.9223327636719
y: 305.3236083984375
z: -0.2948146462440491
visibility: 0.9999322891235352
","x: 280.0841369628906
y: 304.3592529296875
z: -0.2857944071292877
visibility: 0.9999200701713562
","x: 296.1710510253906
y: 333.007568359375
z: -0.21898870170116425
visibility: 0.999928891658783
","x: 272.9940185546875
y: 329.2423095703125
z: -0.11433710902929306
visibility: 0.9998548626899719
","x: 291.34112548828125
y: 377.1589660644531
z: -0.26962095499038696
visibility: 0.990705668926239
","x: 277.7340393066406
y: 363.33148193359375
z: -0.11362888664007187
visibility: 0.8626461625099182
","x: 266.96380615234375
y: 392.0655822753906
z: -0.3141454756259918
visibility: 0.9749672412872314
","x: 286.0400695800781
y: 381.39508056640625
z: -0.18701519072055817
visibility: 0.8165817260742188
","x: 261.19244384765625
y: 397.7574462890625
z: -0.34318333864212036
visibility: 0.9397172331809998
","x: 287.7369689941406
y: 389.9145812988281
z: -0.2093493491411209
visibility: 0.7805531620979309
","x: 259.9242248535156
y: 393.9579772949219
z: -0.34147101640701294
visibility: 0.9384229183197021
","x: 287.14044189453125
y: 387.5740051269531
z: -0.22274541854858398
visibility: 0.7817349433898926
","x: 262.43572998046875
y: 391.98199462890625
z: -0.31332141160964966
visibility: 0.912091076374054
","x: 286.5491027832031
y: 384.5049743652344
z: -0.19509677588939667
visibility: 0.7639824151992798
","x: 296.3271789550781
y: 406.41522216796875
z: -0.020375123247504234
visibility: 0.9998551607131958
","x: 277.7677307128906
y: 404.9706726074219
z: 0.02025858871638775
visibility: 0.9998607635498047
","x: 308.0542297363281
y: 466.9106750488281
z: -0.06365581601858139
visibility: 0.9980507493019104
","x: 256.9251708984375
y: 449.39471435546875
z: -0.12577155232429504
visibility: 0.9960648417472839
","x: 332.71063232421875
y: 497.0526123046875
z: 0.14259393513202667
visibility: 0.9966731667518616
","x: 257.877197265625
y: 496.3279724121094
z: 0.03500429913401604
visibility: 0.996802568435669
","x: 334.87725830078125
y: 498.9027099609375
z: 0.1584543138742447
visibility: 0.8709782361984253
","x: 260.6399841308594
y: 503.5982971191406
z: 0.07214727252721786
visibility: 0.9273113012313843
","x: 337.2270202636719
y: 515.8867797851562
z: 0.06464109569787979
visibility: 0.9910320043563843
","x: 249.21987915039062
y: 514.7064819335938
z: -0.002625672845169902
visibility: 0.9929760694503784
",,,,,,,,,,,,,,,,,,,,,,5.436730861663818,,,,,,,,,,,,,,,,,,,,,
24,"x: 275.73553466796875
y: 281.4373779296875
z: -0.16918963193893433
visibility: 0.9999662637710571
","x: 277.773193359375
y: 277.3252258300781
z: -0.157944455742836
visibility: 0.9998854994773865
","x: 278.87396240234375
y: 277.47625732421875
z: -0.15798842906951904
visibility: 0.9998847246170044
","x: 279.99273681640625
y: 277.6602783203125
z: -0.1580510437488556
visibility: 0.9998844861984253
","x: 274.43353271484375
y: 277.26947021484375
z: -0.15063722431659698
visibility: 0.9998709559440613
","x: 273.30841064453125
y: 277.41839599609375
z: -0.15061147511005402
visibility: 0.9998620748519897
","x: 272.21563720703125
y: 277.4971923828125
z: -0.15060555934906006
visibility: 0.9998612999916077
","x: 281.5533142089844
y: 281.00885009765625
z: -0.08983753621578217
visibility: 0.9997915625572205
","x: 271.063232421875
y: 280.6206970214844
z: -0.05530766770243645
visibility: 0.999657928943634
","x: 277.3166198730469
y: 287.7801208496094
z: -0.14265312254428864
visibility: 0.9999315142631531
","x: 273.4366455078125
y: 286.7636413574219
z: -0.13311058282852173
visibility: 0.9999209642410278
","x: 287.2979431152344
y: 311.8861083984375
z: -0.09885053336620331
visibility: 0.9999294281005859
","x: 268.2215270996094
y: 314.55145263671875
z: 0.028225252404808998
visibility: 0.9998548626899719
","x: 269.8963317871094
y: 361.7038269042969
z: -0.20256289839744568
visibility: 0.9893382787704468
","x: 276.4083251953125
y: 358.9512634277344
z: 0.07356660813093185
visibility: 0.7889972925186157
","x: 254.6544189453125
y: 317.01409912109375
z: -0.25601863861083984
visibility: 0.9752008318901062
","x: 277.4628601074219
y: 387.4601745605469
z: 0.04273974150419235
visibility: 0.7460836172103882
","x: 250.00997924804688
y: 308.4010009765625
z: -0.28605565428733826
visibility: 0.9422822594642639
","x: 277.01495361328125
y: 398.2071228027344
z: 0.03264055773615837
visibility: 0.7147623300552368
","x: 251.84091186523438
y: 303.3257751464844
z: -0.27605822682380676
visibility: 0.9409667253494263
","x: 277.3221130371094
y: 396.71368408203125
z: 0.014954921789467335
visibility: 0.7158763408660889
","x: 253.6160125732422
y: 306.86883544921875
z: -0.25303855538368225
visibility: 0.9138866066932678
","x: 277.7266540527344
y: 392.378662109375
z: 0.03430544584989548
visibility: 0.6996119618415833
","x: 288.57965087890625
y: 395.73675537109375
z: -0.028340350836515427
visibility: 0.99986332654953
","x: 270.30523681640625
y: 393.3447570800781
z: 0.028229031711816788
visibility: 0.9998701810836792
","x: 299.67156982421875
y: 461.26812744140625
z: -0.07947801053524017
visibility: 0.9979238510131836
","x: 254.97007751464844
y: 447.3609924316406
z: -0.08032442629337311
visibility: 0.9960019588470459
","x: 325.86151123046875
y: 494.48406982421875
z: 0.09469917416572571
visibility: 0.9963493347167969
","x: 257.2221374511719
y: 495.4986877441406
z: 0.07645265012979507
visibility: 0.996684193611145
","x: 328.0875549316406
y: 495.96026611328125
z: 0.10937710106372833
visibility: 0.8670238852500916
","x: 260.5694274902344
y: 503.3763122558594
z: 0.09665770828723907
visibility: 0.9299079179763794
","x: 335.3483581542969
y: 515.184814453125
z: 0.032115913927555084
visibility: 0.9902825951576233
","x: 249.1862030029297
y: 514.7523193359375
z: 0.02493690699338913
visibility: 0.9926083087921143
",,,,,,,,,,,,,,,,,,,,,,5.5794517993927,,,,,,,,,,,,,,,,,,,,,
25,"x: 275.73553466796875
y: 281.4373779296875
z: -0.16918963193893433
visibility: 0.9999662637710571
","x: 277.773193359375
y: 277.3252258300781
z: -0.157944455742836
visibility: 0.9998854994773865
","x: 278.87396240234375
y: 277.47625732421875
z: -0.15798842906951904
visibility: 0.9998847246170044
","x: 279.99273681640625
y: 277.6602783203125
z: -0.1580510437488556
visibility: 0.9998844861984253
","x: 274.43353271484375
y: 277.26947021484375
z: -0.15063722431659698
visibility: 0.9998709559440613
","x: 273.30841064453125
y: 277.41839599609375
z: -0.15061147511005402
visibility: 0.9998620748519897
","x: 272.21563720703125
y: 277.4971923828125
z: -0.15060555934906006
visibility: 0.9998612999916077
","x: 281.5533142089844
y: 281.00885009765625
z: -0.08983753621578217
visibility: 0.9997915625572205
","x: 271.063232421875
y: 280.6206970214844
z: -0.05530766770243645
visibility: 0.999657928943634
","x: 277.3166198730469
y: 287.7801208496094
z: -0.14265312254428864
visibility: 0.9999315142631531
","x: 273.4366455078125
y: 286.7636413574219
z: -0.13311058282852173
visibility: 0.9999209642410278
","x: 287.2979431152344
y: 311.8861083984375
z: -0.09885053336620331
visibility: 0.9999294281005859
","x: 268.2215270996094
y: 314.55145263671875
z: 0.028225252404808998
visibility: 0.9998548626899719
","x: 269.8963317871094
y: 361.7038269042969
z: -0.20256289839744568
visibility: 0.9893382787704468
","x: 276.4083251953125
y: 358.9512634277344
z: 0.07356660813093185
visibility: 0.7889972925186157
","x: 254.6544189453125
y: 317.01409912109375
z: -0.25601863861083984
visibility: 0.9752008318901062
","x: 277.4628601074219
y: 387.4601745605469
z: 0.04273974150419235
visibility: 0.7460836172103882
","x: 250.00997924804688
y: 308.4010009765625
z: -0.28605565428733826
visibility: 0.9422822594642639
","x: 277.01495361328125
y: 398.2071228027344
z: 0.03264055773615837
visibility: 0.7147623300552368
","x: 251.84091186523438
y: 303.3257751464844
z: -0.27605822682380676
visibility: 0.9409667253494263
","x: 277.3221130371094
y: 396.71368408203125
z: 0.014954921789467335
visibility: 0.7158763408660889
","x: 253.6160125732422
y: 306.86883544921875
z: -0.25303855538368225
visibility: 0.9138866066932678
","x: 277.7266540527344
y: 392.378662109375
z: 0.03430544584989548
visibility: 0.6996119618415833
","x: 288.57965087890625
y: 395.73675537109375
z: -0.028340350836515427
visibility: 0.99986332654953
","x: 270.30523681640625
y: 393.3447570800781
z: 0.028229031711816788
visibility: 0.9998701810836792
","x: 299.67156982421875
y: 461.26812744140625
z: -0.07947801053524017
visibility: 0.9979238510131836
","x: 254.97007751464844
y: 447.3609924316406
z: -0.08032442629337311
visibility: 0.9960019588470459
","x: 325.86151123046875
y: 494.48406982421875
z: 0.09469917416572571
visibility: 0.9963493347167969
","x: 257.2221374511719
y: 495.4986877441406
z: 0.07645265012979507
visibility: 0.996684193611145
","x: 328.0875549316406
y: 495.96026611328125
z: 0.10937710106372833
visibility: 0.8670238852500916
","x: 260.5694274902344
y: 503.3763122558594
z: 0.09665770828723907
visibility: 0.9299079179763794
","x: 335.3483581542969
y: 515.184814453125
z: 0.032115913927555084
visibility: 0.9902825951576233
","x: 249.1862030029297
y: 514.7523193359375
z: 0.02493690699338913
visibility: 0.9926083087921143
",,,,,,,,,,,,,,,,,,,,,,5.5794517993927,,,,,,,,,,,,,,,,,,,,,
26,"x: 264.5270690917969
y: 254.06414794921875
z: -0.07275151461362839
visibility: 0.9999250173568726
","x: 266.7703857421875
y: 250.2702178955078
z: -0.07767781615257263
visibility: 0.9997707009315491
","x: 267.7160339355469
y: 250.50885009765625
z: -0.07776036113500595
visibility: 0.9997947812080383
","x: 268.93804931640625
y: 250.76751708984375
z: -0.07781259715557098
visibility: 0.9997978210449219
","x: 264.9237365722656
y: 250.19448852539062
z: -0.06081283837556839
visibility: 0.9997053742408752
","x: 264.66729736328125
y: 250.4261474609375
z: -0.06075925752520561
visibility: 0.9996476769447327
","x: 264.357421875
y: 250.70919799804688
z: -0.06082094833254814
visibility: 0.9996277689933777
","x: 273.2867736816406
y: 255.52227783203125
z: -0.0667533427476883
visibility: 0.9997380375862122
","x: 266.89111328125
y: 254.74337768554688
z: 0.008750093169510365
visibility: 0.999522864818573
","x: 266.1463317871094
y: 261.375732421875
z: -0.06610561907291412
visibility: 0.9999091029167175
","x: 264.2530212402344
y: 261.4153747558594
z: -0.044564880430698395
visibility: 0.999897837638855
","x: 277.3218078613281
y: 284.6201171875
z: -0.10077102482318878
visibility: 0.9999344348907471
","x: 263.44366455078125
y: 284.79620361328125
z: 0.10165701061487198
visibility: 0.9998471736907959
","x: 255.90139770507812
y: 296.70941162109375
z: -0.15843018889427185
visibility: 0.988760232925415
","x: 262.9098815917969
y: 338.96929931640625
z: 0.1595742106437683
visibility: 0.7126795649528503
","x: 254.22186279296875
y: 257.93170166015625
z: -0.1617322564125061
visibility: 0.9744873642921448
","x: 264.3583068847656
y: 374.012451171875
z: 0.11206860840320587
visibility: 0.6762980818748474
","x: 253.4593048095703
y: 251.2943115234375
z: -0.1849747896194458
visibility: 0.9432327151298523
","x: 264.02325439453125
y: 385.4414367675781
z: 0.1085144504904747
visibility: 0.6494380235671997
","x: 257.2673645019531
y: 249.57464599609375
z: -0.18366283178329468
visibility: 0.9416956901550293
","x: 265.3186340332031
y: 384.59619140625
z: 0.08465100079774857
visibility: 0.650651216506958
","x: 257.6086730957031
y: 252.11700439453125
z: -0.16140149533748627
visibility: 0.9136197566986084
","x: 265.99420166015625
y: 379.9717712402344
z: 0.10022225230932236
visibility: 0.6364685893058777
","x: 280.30230712890625
y: 372.77825927734375
z: -0.05286063998937607
visibility: 0.9998759031295776
","x: 263.2491149902344
y: 372.71240234375
z: 0.05280212312936783
visibility: 0.9998815059661865
","x: 278.3760986328125
y: 439.97906494140625
z: -0.10276523977518082
visibility: 0.997636079788208
","x: 256.82928466796875
y: 435.3918762207031
z: 0.013447821140289307
visibility: 0.9947595596313477
","x: 289.6351623535156
y: 490.7238464355469
z: 0.061109136790037155
visibility: 0.9962301850318909
","x: 256.7301330566406
y: 492.46319580078125
z: 0.15527664124965668
visibility: 0.9965752959251404
","x: 293.81536865234375
y: 495.71893310546875
z: 0.07431279122829437
visibility: 0.8676365613937378
","x: 260.54998779296875
y: 501.328857421875
z: 0.16644074022769928
visibility: 0.9336037039756775
","x: 281.8344421386719
y: 514.2559814453125
z: 6.698403740301728e-05
visibility: 0.9906207919120789
","x: 250.9365997314453
y: 514.578369140625
