uscmakers/ReverseChoreography/data/10_knife_talk_drake.csv
,NOSE,LEFT_EYE_INNER,LEFT_EYE,LEFT_EYE_OUTER,RIGHT_EYE_INNER,RIGHT_EYE,RIGHT_EYE_OUTER,LEFT_EAR,RIGHT_EAR,MOUTH_LEFT,MOUTH_RIGHT,LEFT_SHOULDER,RIGHT_SHOULDER,LEFT_ELBOW,RIGHT_ELBOW,LEFT_WRIST,RIGHT_WRIST,LEFT_PINKY,RIGHT_PINKY,LEFT_INDEX,RIGHT_INDEX,LEFT_THUMB,RIGHT_THUMB,LEFT_HIP,RIGHT_HIP,LEFT_KNEE,RIGHT_KNEE,LEFT_ANKLE,RIGHT_ANKLE,LEFT_HEEL,RIGHT_HEEL,LEFT_FOOT_INDEX,RIGHT_FOOT_INDEX,WRIST2,THUMB_CPC2,THUMB_MCP2,THUMB_IP2,THUMB_TIP2,INDEX_FINGER_MCP2,INDEX_FINGER_PIP2,INDEX_FINGER_DIP2,INDEX_FINGER_TIP2,MIDDLE_FINGER_MCP2,MIDDLE_FINGER_PIP2,MIDDLE_FINGER_DIP2,MIDDLE_FINGER_TIP2,RING_FINGER_PIP2,RING_FINGER_DIP2,RING_FINGER_TIP2,RING_FINGER_MCP2,PINKY_MCP2,PINKY_PIP2,PINKY_DIP2,PINKY_TIP2,TIMESTAMP,WRIST,THUMB_CPC,THUMB_MCP,THUMB_IP,THUMB_TIP,INDEX_FINGER_MCP,INDEX_FINGER_PIP,INDEX_FINGER_DIP,INDEX_FINGER_TIP,MIDDLE_FINGER_MCP,MIDDLE_FINGER_PIP,MIDDLE_FINGER_DIP,MIDDLE_FINGER_TIP,RING_FINGER_PIP,RING_FINGER_DIP,RING_FINGER_TIP,RING_FINGER_MCP,PINKY_MCP,PINKY_PIP,PINKY_DIP,PINKY_TIP
0,"x: 228.88169860839844
y: 250.74810791015625
z: -0.3787030577659607
visibility: 0.9998028874397278
","x: 230.68020629882812
y: 246.69253540039062
z: -0.3632306456565857
visibility: 0.9993481040000916
","x: 231.77757263183594
y: 247.15789794921875
z: -0.3632718324661255
visibility: 0.999438464641571
","x: 232.76416015625
y: 247.6719970703125
z: -0.36331620812416077
visibility: 0.9994070529937744
","x: 227.03970336914062
y: 245.97171020507812
z: -0.3629060685634613
visibility: 0.9992291927337646
","x: 225.65611267089844
y: 246.00181579589844
z: -0.3629540503025055
visibility: 0.9991449117660522
","x: 224.3041534423828
y: 246.07139587402344
z: -0.362964391708374
visibility: 0.9989726543426514
","x: 234.4735565185547
y: 252.04373168945312
z: -0.25931793451309204
visibility: 0.9984295964241028
","x: 221.62953186035156
y: 250.7023468017578
z: -0.25991225242614746
visibility: 0.9973684549331665
","x: 231.22943115234375
y: 258.396240234375
z: -0.3393004536628723
visibility: 0.9994275569915771
","x: 225.91458129882812
y: 257.88458251953125
z: -0.33946964144706726
visibility: 0.9992363452911377
","x: 244.18699645996094
y: 289.8104248046875
z: -0.1951540857553482
visibility: 0.9998793601989746
","x: 209.44447326660156
y: 291.53240966796875
z: -0.15603689849376678
visibility: 0.9996840953826904
","x: 251.08334350585938
y: 332.63995361328125
z: -0.17162953317165375
visibility: 0.9874886870384216
","x: 202.15370178222656
y: 335.27825927734375
z: -0.09271939843893051
visibility: 0.9710645079612732
","x: 252.21070861816406
y: 365.13043212890625
z: -0.25308048725128174
visibility: 0.9583967328071594
","x: 193.50547790527344
y: 371.3724365234375
z: -0.1564704030752182
visibility: 0.9239397644996643
","x: 252.91851806640625
y: 380.2364807128906
z: -0.28118279576301575
visibility: 0.8986372351646423
","x: 189.4982452392578
y: 384.9508972167969
z: -0.175675630569458
visibility: 0.843919575214386
","x: 251.0096435546875
y: 378.7585754394531
z: -0.3056080937385559
visibility: 0.9052549004554749
","x: 190.7830352783203
y: 385.54266357421875
z: -0.2098066806793213
visibility: 0.855974018573761
","x: 250.07460021972656
y: 373.7237243652344
z: -0.2646109461784363
visibility: 0.8801060914993286
","x: 192.4877166748047
y: 381.3113708496094
z: -0.1722438633441925
visibility: 0.848942756652832
","x: 239.3407745361328
y: 375.3240661621094
z: -0.008867868222296238
visibility: 0.9992269277572632
","x: 218.55482482910156
y: 376.88775634765625
z: 0.008888603188097477
visibility: 0.9990087747573853
","x: 237.28164672851562
y: 437.99090576171875
z: -0.020216014236211777
visibility: 0.9732673764228821
","x: 223.75502014160156
y: 440.26995849609375
z: 0.006798555608838797
visibility: 0.9504602551460266
","x: 238.3929901123047
y: 505.0293273925781
z: 0.09172305464744568
visibility: 0.976867139339447
","x: 224.38522338867188
y: 499.73773193359375
z: 0.1657721847295761
visibility: 0.95970219373703
","x: 236.5177459716797
y: 515.2588500976562
z: 0.09592712670564651
visibility: 0.8510949611663818
","x: 225.11361694335938
y: 509.0252380371094
z: 0.17450036108493805
visibility: 0.7643826603889465
","x: 242.4162139892578
y: 520.8492431640625
z: -0.018369825556874275
visibility: 0.9701650738716125
","x: 218.89584350585938
y: 515.6018676757812
z: 0.059283364564180374
visibility: 0.9605384469032288
","x: 251.45187377929688
y: 370.54168701171875
z: 0.0
","x: 248.70420837402344
y: 374.6180419921875
z: -0.0021797369699925184
","x: 248.09506225585938
y: 380.45947265625
z: -0.002158710267394781
","x: 248.2733917236328
y: 385.43353271484375
z: -0.0014515005750581622
","x: 247.9212646484375
y: 389.57452392578125
z: -0.0003057760186493397
","x: 251.63580322265625
y: 387.1976013183594
z: -0.00017013007891364396
","x: 250.67083740234375
y: 394.95721435546875
z: 0.00083147082477808
","x: 249.69537353515625
y: 398.86474609375
z: 0.0018950513331219554
","x: 248.9856414794922
y: 401.8162841796875
z: 0.002847690600901842
","x: 252.89846801757812
y: 387.53125
z: 0.001215977594256401
","x: 251.5740966796875
y: 395.041015625
z: 0.0028955372981727123
","x: 250.36546325683594
y: 398.83892822265625
z: 0.004046300426125526
","x: 249.37820434570312
y: 401.9736022949219
z: 0.0047632609494030476
","x: 253.35247802734375
y: 387.5631408691406
z: 0.0023693277034908533
","x: 252.06138610839844
y: 394.45977783203125
z: 0.003859997494146228
","x: 250.87380981445312
y: 398.2532958984375
z: 0.00424316106364131
","x: 249.8450927734375
y: 401.324951171875
z: 0.004294389858841896
","x: 253.1732940673828
y: 387.1009521484375
z: 0.0032152223866432905
","x: 252.19580078125
y: 393.44439697265625
z: 0.0041715167462825775
","x: 251.138427734375
y: 397.139404296875
z: 0.004427118692547083
","x: 250.1388702392578
y: 399.771240234375
z: 0.004598601255565882
",3.527742385864258,,,,,,,,,,,,,,,,,,,,,
1,"x: 228.88169860839844
y: 250.74810791015625
z: -0.3787030577659607
visibility: 0.9998028874397278
","x: 230.68020629882812
y: 246.69253540039062
z: -0.3632306456565857
visibility: 0.9993481040000916
","x: 231.77757263183594
y: 247.15789794921875
z: -0.3632718324661255
visibility: 0.999438464641571
","x: 232.76416015625
y: 247.6719970703125
z: -0.36331620812416077
visibility: 0.9994070529937744
","x: 227.03970336914062
y: 245.97171020507812
z: -0.3629060685634613
visibility: 0.9992291927337646
","x: 225.65611267089844
y: 246.00181579589844
z: -0.3629540503025055
visibility: 0.9991449117660522
","x: 224.3041534423828
y: 246.07139587402344
z: -0.362964391708374
visibility: 0.9989726543426514
","x: 234.4735565185547
y: 252.04373168945312
z: -0.25931793451309204
visibility: 0.9984295964241028
","x: 221.62953186035156
y: 250.7023468017578
z: -0.25991225242614746
visibility: 0.9973684549331665
","x: 231.22943115234375
y: 258.396240234375
z: -0.3393004536628723
visibility: 0.9994275569915771
","x: 225.91458129882812
y: 257.88458251953125
z: -0.33946964144706726
visibility: 0.9992363452911377
","x: 244.18699645996094
y: 289.8104248046875
z: -0.1951540857553482
visibility: 0.9998793601989746
","x: 209.44447326660156
y: 291.53240966796875
z: -0.15603689849376678
visibility: 0.9996840953826904
","x: 251.08334350585938
y: 332.63995361328125
z: -0.17162953317165375
visibility: 0.9874886870384216
","x: 202.15370178222656
y: 335.27825927734375
z: -0.09271939843893051
visibility: 0.9710645079612732
","x: 252.21070861816406
y: 365.13043212890625
z: -0.25308048725128174
visibility: 0.9583967328071594
","x: 193.50547790527344
y: 371.3724365234375
z: -0.1564704030752182
visibility: 0.9239397644996643
","x: 252.91851806640625
y: 380.2364807128906
z: -0.28118279576301575
visibility: 0.8986372351646423
","x: 189.4982452392578
y: 384.9508972167969
z: -0.175675630569458
visibility: 0.843919575214386
","x: 251.0096435546875
y: 378.7585754394531
z: -0.3056080937385559
visibility: 0.9052549004554749
","x: 190.7830352783203
y: 385.54266357421875
z: -0.2098066806793213
visibility: 0.855974018573761
","x: 250.07460021972656
y: 373.7237243652344
z: -0.2646109461784363
visibility: 0.8801060914993286
","x: 192.4877166748047
y: 381.3113708496094
z: -0.1722438633441925
visibility: 0.848942756652832
","x: 239.3407745361328
y: 375.3240661621094
z: -0.008867868222296238
visibility: 0.9992269277572632
","x: 218.55482482910156
y: 376.88775634765625
z: 0.008888603188097477
visibility: 0.9990087747573853
","x: 237.28164672851562
y: 437.99090576171875
z: -0.020216014236211777
visibility: 0.9732673764228821
","x: 223.75502014160156
y: 440.26995849609375
z: 0.006798555608838797
visibility: 0.9504602551460266
","x: 238.3929901123047
y: 505.0293273925781
z: 0.09172305464744568
visibility: 0.976867139339447
","x: 224.38522338867188
y: 499.73773193359375
z: 0.1657721847295761
visibility: 0.95970219373703
","x: 236.5177459716797
y: 515.2588500976562
z: 0.09592712670564651
visibility: 0.8510949611663818
","x: 225.11361694335938
y: 509.0252380371094
z: 0.17450036108493805
visibility: 0.7643826603889465
","x: 242.4162139892578
y: 520.8492431640625
z: -0.018369825556874275
visibility: 0.9701650738716125
","x: 218.89584350585938
y: 515.6018676757812
z: 0.059283364564180374
visibility: 0.9605384469032288
","x: 251.45187377929688
y: 370.54168701171875
z: 0.0
","x: 248.70420837402344
y: 374.6180419921875
z: -0.0021797369699925184
","x: 248.09506225585938
y: 380.45947265625
z: -0.002158710267394781
","x: 248.2733917236328
y: 385.43353271484375
z: -0.0014515005750581622
","x: 247.9212646484375
y: 389.57452392578125
z: -0.0003057760186493397
","x: 251.63580322265625
y: 387.1976013183594
z: -0.00017013007891364396
","x: 250.67083740234375
y: 394.95721435546875
z: 0.00083147082477808
","x: 249.69537353515625
y: 398.86474609375
z: 0.0018950513331219554
","x: 248.9856414794922
y: 401.8162841796875
z: 0.002847690600901842
","x: 252.89846801757812
y: 387.53125
z: 0.001215977594256401
","x: 251.5740966796875
y: 395.041015625
z: 0.0028955372981727123
","x: 250.36546325683594
y: 398.83892822265625
z: 0.004046300426125526
","x: 249.37820434570312
y: 401.9736022949219
z: 0.0047632609494030476
","x: 253.35247802734375
y: 387.5631408691406
z: 0.0023693277034908533
","x: 252.06138610839844
y: 394.45977783203125
z: 0.003859997494146228
","x: 250.87380981445312
y: 398.2532958984375
z: 0.00424316106364131
","x: 249.8450927734375
y: 401.324951171875
z: 0.004294389858841896
","x: 253.1732940673828
y: 387.1009521484375
z: 0.0032152223866432905
","x: 252.19580078125
y: 393.44439697265625
z: 0.0041715167462825775
","x: 251.138427734375
y: 397.139404296875
z: 0.004427118692547083
","x: 250.1388702392578
y: 399.771240234375
z: 0.004598601255565882
",3.527742385864258,,,,,,,,,,,,,,,,,,,,,
2,"x: 228.88169860839844
y: 250.74810791015625
z: -0.3787030577659607
visibility: 0.9998028874397278
","x: 230.68020629882812
y: 246.69253540039062
z: -0.3632306456565857
visibility: 0.9993481040000916
","x: 231.77757263183594
y: 247.15789794921875
z: -0.3632718324661255
visibility: 0.999438464641571
","x: 232.76416015625
y: 247.6719970703125
z: -0.36331620812416077
visibility: 0.9994070529937744
","x: 227.03970336914062
y: 245.97171020507812
z: -0.3629060685634613
visibility: 0.9992291927337646
","x: 225.65611267089844
y: 246.00181579589844
z: -0.3629540503025055
visibility: 0.9991449117660522
","x: 224.3041534423828
y: 246.07139587402344
z: -0.362964391708374
visibility: 0.9989726543426514
","x: 234.4735565185547
y: 252.04373168945312
z: -0.25931793451309204
visibility: 0.9984295964241028
","x: 221.62953186035156
y: 250.7023468017578
z: -0.25991225242614746
visibility: 0.9973684549331665
","x: 231.22943115234375
y: 258.396240234375
z: -0.3393004536628723
visibility: 0.9994275569915771
","x: 225.91458129882812
y: 257.88458251953125
z: -0.33946964144706726
visibility: 0.9992363452911377
","x: 244.18699645996094
y: 289.8104248046875
z: -0.1951540857553482
visibility: 0.9998793601989746
","x: 209.44447326660156
y: 291.53240966796875
z: -0.15603689849376678
visibility: 0.9996840953826904
","x: 251.08334350585938
y: 332.63995361328125
z: -0.17162953317165375
visibility: 0.9874886870384216
","x: 202.15370178222656
y: 335.27825927734375
z: -0.09271939843893051
visibility: 0.9710645079612732
","x: 252.21070861816406
y: 365.13043212890625
z: -0.25308048725128174
visibility: 0.9583967328071594
","x: 193.50547790527344
y: 371.3724365234375
z: -0.1564704030752182
visibility: 0.9239397644996643
","x: 252.91851806640625
y: 380.2364807128906
z: -0.28118279576301575
visibility: 0.8986372351646423
","x: 189.4982452392578
y: 384.9508972167969
z: -0.175675630569458
visibility: 0.843919575214386
","x: 251.0096435546875
y: 378.7585754394531
z: -0.3056080937385559
visibility: 0.9052549004554749
","x: 190.7830352783203
y: 385.54266357421875
z: -0.2098066806793213
visibility: 0.855974018573761
","x: 250.07460021972656
y: 373.7237243652344
z: -0.2646109461784363
visibility: 0.8801060914993286
","x: 192.4877166748047
y: 381.3113708496094
z: -0.1722438633441925
visibility: 0.848942756652832
","x: 239.3407745361328
y: 375.3240661621094
z: -0.008867868222296238
visibility: 0.9992269277572632
","x: 218.55482482910156
y: 376.88775634765625
z: 0.008888603188097477
visibility: 0.9990087747573853
","x: 237.28164672851562
y: 437.99090576171875
z: -0.020216014236211777
visibility: 0.9732673764228821
","x: 223.75502014160156
y: 440.26995849609375
z: 0.006798555608838797
visibility: 0.9504602551460266
","x: 238.3929901123047
y: 505.0293273925781
z: 0.09172305464744568
visibility: 0.976867139339447
","x: 224.38522338867188
y: 499.73773193359375
z: 0.1657721847295761
visibility: 0.95970219373703
","x: 236.5177459716797
y: 515.2588500976562
z: 0.09592712670564651
visibility: 0.8510949611663818
","x: 225.11361694335938
y: 509.0252380371094
z: 0.17450036108493805
visibility: 0.7643826603889465
","x: 242.4162139892578
y: 520.8492431640625
z: -0.018369825556874275
visibility: 0.9701650738716125
","x: 218.89584350585938
y: 515.6018676757812
z: 0.059283364564180374
visibility: 0.9605384469032288
","x: 251.45187377929688
y: 370.54168701171875
z: 0.0
","x: 248.70420837402344
y: 374.6180419921875
z: -0.0021797369699925184
","x: 248.09506225585938
y: 380.45947265625
z: -0.002158710267394781
","x: 248.2733917236328
y: 385.43353271484375
z: -0.0014515005750581622
","x: 247.9212646484375
y: 389.57452392578125
z: -0.0003057760186493397
","x: 251.63580322265625
y: 387.1976013183594
z: -0.00017013007891364396
","x: 250.67083740234375
y: 394.95721435546875
z: 0.00083147082477808
","x: 249.69537353515625
y: 398.86474609375
z: 0.0018950513331219554
","x: 248.9856414794922
y: 401.8162841796875
z: 0.002847690600901842
","x: 252.89846801757812
y: 387.53125
z: 0.001215977594256401
","x: 251.5740966796875
y: 395.041015625
z: 0.0028955372981727123
","x: 250.36546325683594
y: 398.83892822265625
z: 0.004046300426125526
","x: 249.37820434570312
y: 401.9736022949219
z: 0.0047632609494030476
","x: 253.35247802734375
y: 387.5631408691406
z: 0.0023693277034908533
","x: 252.06138610839844
y: 394.45977783203125
z: 0.003859997494146228
","x: 250.87380981445312
y: 398.2532958984375
z: 0.00424316106364131
","x: 249.8450927734375
y: 401.324951171875
z: 0.004294389858841896
","x: 253.1732940673828
y: 387.1009521484375
z: 0.0032152223866432905
","x: 252.19580078125
y: 393.44439697265625
z: 0.0041715167462825775
","x: 251.138427734375
y: 397.139404296875
z: 0.004427118692547083
","x: 250.1388702392578
y: 399.771240234375
z: 0.004598601255565882
",3.527742385864258,,,,,,,,,,,,,,,,,,,,,
3,"x: 242.8116455078125
y: 251.0034942626953
z: -0.2754244804382324
visibility: 0.9998218417167664
","x: 244.45260620117188
y: 246.720947265625
z: -0.2626091539859772
visibility: 0.9994104504585266
","x: 245.702880859375
y: 247.16539001464844
z: -0.2625930905342102
visibility: 0.9994916915893555
","x: 247.02490234375
y: 247.66754150390625
z: -0.2625737190246582
visibility: 0.9994634389877319
","x: 240.92095947265625
y: 246.0336151123047
z: -0.2643023133277893
visibility: 0.9993033409118652
","x: 239.57485961914062
y: 246.04942321777344
z: -0.26433295011520386
visibility: 0.9992275238037109
","x: 238.10366821289062
y: 246.10650634765625
z: -0.26433855295181274
visibility: 0.999072253704071
","x: 248.66592407226562
y: 252.03244018554688
z: -0.1771099716424942
visibility: 0.9985771775245667
","x: 235.6186065673828
y: 250.70648193359375
z: -0.18704158067703247
visibility: 0.997623860836029
","x: 244.68463134765625
y: 258.66400146484375
z: -0.24317426979541779
visibility: 0.9994827508926392
","x: 240.22813415527344
y: 258.1593017578125
z: -0.24612025916576385
visibility: 0.9993108510971069
","x: 257.6606750488281
y: 292.4057312011719
z: -0.1135592833161354
visibility: 0.999884307384491
","x: 223.025390625
y: 289.8813781738281
z: -0.1192668080329895
visibility: 0.9997100830078125
","x: 262.2434387207031
y: 339.41595458984375
z: -0.058471135795116425
visibility: 0.987333357334137
","x: 215.55538940429688
y: 335.2734680175781
z: -0.07641907781362534
visibility: 0.9709614515304565
","x: 265.1159362792969
y: 376.8243713378906
z: -0.11479867994785309
visibility: 0.9596402645111084
","x: 218.2392578125
y: 371.3870849609375
z: -0.13441237807273865
visibility: 0.924240231513977
","x: 266.9627380371094
y: 390.845703125
z: -0.13254821300506592
visibility: 0.9026280641555786
","x: 218.51803588867188
y: 384.98980712890625
z: -0.15404963493347168
visibility: 0.8468257784843445
","x: 264.4296569824219
y: 390.944580078125
z: -0.16010227799415588
visibility: 0.9091020822525024
","x: 220.7590789794922
y: 384.977783203125
z: -0.1800498217344284
visibility: 0.8584043383598328
","x: 263.1240234375
y: 386.2759094238281
z: -0.12646140158176422
visibility: 0.8851575255393982
","x: 221.4073944091797
y: 380.76007080078125
z: -0.14581096172332764
visibility: 0.8502358198165894
","x: 248.5178985595703
y: 376.1007995605469
z: 0.000775180640630424
visibility: 0.9992738366127014
","x: 228.5767822265625
y: 376.4616394042969
z: -0.0008761631324887276
visibility: 0.999082624912262
","x: 246.86135864257812
y: 439.8590393066406
z: 0.02174372971057892
visibility: 0.9753851890563965
","x: 227.26654052734375
y: 441.46746826171875
z: 0.008204769343137741
visibility: 0.9550392031669617
","x: 250.8671417236328
y: 505.02728271484375
z: 0.12318108230829239
visibility: 0.9787740707397461
","x: 224.45460510253906
y: 500.01458740234375
z: 0.13083593547344208
visibility: 0.9632591009140015
","x: 249.46707153320312
y: 514.5352783203125
z: 0.1266542673110962
visibility: 0.8587902188301086
","x: 225.76190185546875
y: 508.99462890625
z: 0.13604693114757538
visibility: 0.7779883742332458
","x: 254.50015258789062
y: 522.102783203125
z: 0.02730594016611576
visibility: 0.9723249077796936
","x: 218.89918518066406
y: 516.4368286132812
z: 0.03780090808868408
visibility: 0.9636273980140686
",,,,,,,,,,,,,,,,,,,,,,4.169519662857056,,,,,,,,,,,,,,,,,,,,,
4,"x: 242.8116455078125
y: 251.0034942626953
z: -0.2754244804382324
visibility: 0.9998218417167664
","x: 244.45260620117188
y: 246.720947265625
z: -0.2626091539859772
visibility: 0.9994104504585266
","x: 245.702880859375
y: 247.16539001464844
z: -0.2625930905342102
visibility: 0.9994916915893555
","x: 247.02490234375
y: 247.66754150390625
z: -0.2625737190246582
visibility: 0.9994634389877319
","x: 240.92095947265625
y: 246.0336151123047
z: -0.2643023133277893
visibility: 0.9993033409118652
","x: 239.57485961914062
y: 246.04942321777344
z: -0.26433295011520386
visibility: 0.9992275238037109
","x: 238.10366821289062
y: 246.10650634765625
z: -0.26433855295181274
visibility: 0.999072253704071
","x: 248.66592407226562
y: 252.03244018554688
z: -0.1771099716424942
visibility: 0.9985771775245667
","x: 235.6186065673828
y: 250.70648193359375
z: -0.18704158067703247
visibility: 0.997623860836029
","x: 244.68463134765625
y: 258.66400146484375
z: -0.24317426979541779
visibility: 0.9994827508926392
","x: 240.22813415527344
y: 258.1593017578125
z: -0.24612025916576385
visibility: 0.9993108510971069
","x: 257.6606750488281
y: 292.4057312011719
z: -0.1135592833161354
visibility: 0.999884307384491
","x: 223.025390625
y: 289.8813781738281
z: -0.1192668080329895
visibility: 0.9997100830078125
","x: 262.2434387207031
y: 339.41595458984375
z: -0.058471135795116425
visibility: 0.987333357334137
","x: 215.55538940429688
y: 335.2734680175781
z: -0.07641907781362534
visibility: 0.9709614515304565
","x: 265.1159362792969
y: 376.8243713378906
z: -0.11479867994785309
visibility: 0.9596402645111084
","x: 218.2392578125
y: 371.3870849609375
z: -0.13441237807273865
visibility: 0.924240231513977
","x: 266.9627380371094
y: 390.845703125
z: -0.13254821300506592
visibility: 0.9026280641555786
","x: 218.51803588867188
y: 384.98980712890625
z: -0.15404963493347168
visibility: 0.8468257784843445
","x: 264.4296569824219
y: 390.944580078125
z: -0.16010227799415588
visibility: 0.9091020822525024
","x: 220.7590789794922
y: 384.977783203125
z: -0.1800498217344284
visibility: 0.8584043383598328
","x: 263.1240234375
y: 386.2759094238281
z: -0.12646140158176422
visibility: 0.8851575255393982
","x: 221.4073944091797
y: 380.76007080078125
z: -0.14581096172332764
visibility: 0.8502358198165894
","x: 248.5178985595703
y: 376.1007995605469
z: 0.000775180640630424
visibility: 0.9992738366127014
","x: 228.5767822265625
y: 376.4616394042969
z: -0.0008761631324887276
visibility: 0.999082624912262
","x: 246.86135864257812
y: 439.8590393066406
z: 0.02174372971057892
visibility: 0.9753851890563965
","x: 227.26654052734375
y: 441.46746826171875
z: 0.008204769343137741
visibility: 0.9550392031669617
","x: 250.8671417236328
y: 505.02728271484375
z: 0.12318108230829239
visibility: 0.9787740707397461
","x: 224.45460510253906
y: 500.01458740234375
z: 0.13083593547344208
visibility: 0.9632591009140015
","x: 249.46707153320312
y: 514.5352783203125
z: 0.1266542673110962
visibility: 0.8587902188301086
","x: 225.76190185546875
y: 508.99462890625
z: 0.13604693114757538
visibility: 0.7779883742332458
","x: 254.50015258789062
y: 522.102783203125
z: 0.02730594016611576
visibility: 0.9723249077796936
","x: 218.89918518066406
y: 516.4368286132812
z: 0.03780090808868408
visibility: 0.9636273980140686
",,,,,,,,,,,,,,,,,,,,,,4.169519662857056,,,,,,,,,,,,,,,,,,,,,
5,"x: 248.8685760498047
y: 251.35107421875
z: -0.28354793787002563
visibility: 0.9998392462730408
","x: 250.65919494628906
y: 246.9101104736328
z: -0.2706213891506195
visibility: 0.9994678497314453
","x: 251.85824584960938
y: 247.30833435058594
z: -0.27060601115226746
visibility: 0.9995411038398743
","x: 252.92527770996094
y: 247.79339599609375
z: -0.2705988883972168
visibility: 0.9995156526565552
","x: 246.6182861328125
y: 246.36843872070312
z: -0.271891325712204
visibility: 0.9993712902069092
","x: 245.04556274414062
y: 246.46994018554688
z: -0.2719220519065857
visibility: 0.9993030428886414
","x: 243.55221557617188
y: 246.63665771484375
z: -0.2719004452228546
visibility: 0.9991628527641296
","x: 254.66282653808594
y: 252.2547149658203
z: -0.18440347909927368
visibility: 0.9987159967422485
","x: 241.5426025390625
y: 251.1766815185547
z: -0.19171221554279327
visibility: 0.9978566765785217
","x: 251.11387634277344
y: 259.14117431640625
z: -0.25104445219039917
visibility: 0.9995336532592773
","x: 245.96661376953125
y: 258.73468017578125
z: -0.25318413972854614
visibility: 0.9993786811828613
","x: 264.5952453613281
y: 293.26123046875
z: -0.11964672803878784
visibility: 0.999894380569458
","x: 228.87379455566406
y: 289.9547119140625
z: -0.11954513937234879
visibility: 0.999735414981842
","x: 271.1120910644531
y: 340.21337890625
z: -0.06399679183959961
visibility: 0.9882636070251465
","x: 220.98773193359375
y: 335.38458251953125
z: -0.07180867344141006
visibility: 0.9711712002754211
","x: 275.8638916015625
y: 378.5797119140625
z: -0.11727682501077652
visibility: 0.9628385305404663
","x: 218.77655029296875
y: 373.9230651855469
z: -0.12698225677013397
visibility: 0.9223239421844482
","x: 277.83380126953125
y: 392.8270263671875
z: -0.13338109850883484
visibility: 0.9099085330963135
","x: 217.04937744140625
y: 387.4341125488281
z: -0.1452506184577942
visibility: 0.8442537784576416
","x: 275.7102355957031
y: 392.96820068359375
z: -0.16154958307743073
visibility: 0.9159982204437256
","x: 219.0326690673828
y: 387.97430419921875
z: -0.17296206951141357
visibility: 0.8556912541389465
","x: 274.0453186035156
y: 388.5943298339844
z: -0.12889686226844788
visibility: 0.8937898874282837
","x: 220.47354125976562
y: 384.01495361328125
z: -0.13942956924438477
visibility: 0.846788227558136
","x: 255.02011108398438
y: 377.7357177734375
z: 0.0036201842594891787
visibility: 0.9993246793746948
","x: 233.8004150390625
y: 376.69305419921875
z: -0.0037093940190970898
visibility: 0.9991551637649536
","x: 252.06381225585938
y: 442.279296875
z: 0.028814464807510376
visibility: 0.9773600697517395
","x: 230.1447296142578
y: 441.4573974609375
z: 0.00016376444546040148
visibility: 0.9592235088348389
","x: 252.3845977783203
y: 505.029541015625
z: 0.13496622443199158
visibility: 0.9804811477661133
","x: 224.8637237548828
y: 499.0799255371094
z: 0.12177852541208267
visibility: 0.9665088653564453
","x: 250.05311584472656
y: 514.330078125
z: 0.1387261301279068
visibility: 0.865298330783844
","x: 226.7287139892578
y: 507.0732421875
z: 0.12700492143630981
visibility: 0.7902348041534424
","x: 257.687255859375
y: 523.3148193359375
z: 0.03672764077782631
visibility: 0.9742554426193237
","x: 218.9815216064453
y: 516.684326171875
z: 0.024277463555336
visibility: 0.9665328860282898
",,,,,,,,,,,,,,,,,,,,,,4.315107822418213,,,,,,,,,,,,,,,,,,,,,
6,"x: 248.8685760498047
y: 251.35107421875
z: -0.28354793787002563
visibility: 0.9998392462730408
","x: 250.65919494628906
y: 246.9101104736328
z: -0.2706213891506195
visibility: 0.9994678497314453
","x: 251.85824584960938
y: 247.30833435058594
z: -0.27060601115226746
visibility: 0.9995411038398743
","x: 252.92527770996094
y: 247.79339599609375
z: -0.2705988883972168
visibility: 0.9995156526565552
","x: 246.6182861328125
y: 246.36843872070312
z: -0.271891325712204
visibility: 0.9993712902069092
","x: 245.04556274414062
y: 246.46994018554688
z: -0.2719220519065857
visibility: 0.9993030428886414
","x: 243.55221557617188
y: 246.63665771484375
z: -0.2719004452228546
visibility: 0.9991628527641296
","x: 254.66282653808594
y: 252.2547149658203
z: -0.18440347909927368
visibility: 0.9987159967422485
","x: 241.5426025390625
y: 251.1766815185547
z: -0.19171221554279327
visibility: 0.9978566765785217
","x: 251.11387634277344
y: 259.14117431640625
z: -0.25104445219039917
visibility: 0.9995336532592773
","x: 245.96661376953125
y: 258.73468017578125
z: -0.25318413972854614
visibility: 0.9993786811828613
","x: 264.5952453613281
y: 293.26123046875
z: -0.11964672803878784
visibility: 0.999894380569458
","x: 228.87379455566406
y: 289.9547119140625
z: -0.11954513937234879
visibility: 0.999735414981842
","x: 271.1120910644531
y: 340.21337890625
z: -0.06399679183959961
visibility: 0.9882636070251465
","x: 220.98773193359375
y: 335.38458251953125
z: -0.07180867344141006
visibility: 0.9711712002754211
","x: 275.8638916015625
y: 378.5797119140625
z: -0.11727682501077652
visibility: 0.9628385305404663
","x: 218.77655029296875
y: 373.9230651855469
z: -0.12698225677013397
visibility: 0.9223239421844482
","x: 277.83380126953125
y: 392.8270263671875
z: -0.13338109850883484
visibility: 0.9099085330963135
","x: 217.04937744140625
y: 387.4341125488281
z: -0.1452506184577942
visibility: 0.8442537784576416
","x: 275.7102355957031
y: 392.96820068359375
z: -0.16154958307743073
visibility: 0.9159982204437256
","x: 219.0326690673828
y: 387.97430419921875
z: -0.17296206951141357
visibility: 0.8556912541389465
","x: 274.0453186035156
y: 388.5943298339844
z: -0.12889686226844788
visibility: 0.8937898874282837
","x: 220.47354125976562
y: 384.01495361328125
z: -0.13942956924438477
visibility: 0.846788227558136
","x: 255.02011108398438
y: 377.7357177734375
z: 0.0036201842594891787
visibility: 0.9993246793746948
","x: 233.8004150390625
y: 376.69305419921875
z: -0.0037093940190970898
visibility: 0.9991551637649536
","x: 252.06381225585938
y: 442.279296875
z: 0.028814464807510376
visibility: 0.9773600697517395
","x: 230.1447296142578
y: 441.4573974609375
z: 0.00016376444546040148
visibility: 0.9592235088348389
","x: 252.3845977783203
y: 505.029541015625
z: 0.13496622443199158
visibility: 0.9804811477661133
","x: 224.8637237548828
y: 499.0799255371094
z: 0.12177852541208267
visibility: 0.9665088653564453
","x: 250.05311584472656
y: 514.330078125
z: 0.1387261301279068
visibility: 0.865298330783844
","x: 226.7287139892578
y: 507.0732421875
z: 0.12700492143630981
visibility: 0.7902348041534424
","x: 257.687255859375
y: 523.3148193359375
z: 0.03672764077782631
visibility: 0.9742554426193237
","x: 218.9815216064453
y: 516.684326171875
z: 0.024277463555336
visibility: 0.9665328860282898
",,,,,,,,,,,,,,,,,,,,,,4.315107822418213,,,,,,,,,,,,,,,,,,,,,
7,"x: 252.70260620117188
y: 251.47950744628906
z: -0.26732268929481506
visibility: 0.9998546838760376
","x: 254.87191772460938
y: 247.21009826660156
z: -0.255398690700531
visibility: 0.9995184540748596
","x: 256.2381286621094
y: 247.60317993164062
z: -0.2554077208042145
visibility: 0.9995846152305603
","x: 257.6100769042969
y: 248.0836181640625
z: -0.255415678024292
visibility: 0.9995617270469666
","x: 250.6061553955078
y: 246.64010620117188
z: -0.25586122274398804
visibility: 0.9994313716888428
","x: 249.17529296875
y: 246.6796112060547
z: -0.2558807134628296
visibility: 0.9993698596954346
","x: 247.82965087890625
y: 246.76577758789062
z: -0.25586000084877014
visibility: 0.999242901802063
","x: 259.34576416015625
y: 252.31076049804688
z: -0.173252671957016
visibility: 0.9988388419151306
","x: 246.14862060546875
y: 251.18898010253906
z: -0.1766238510608673
visibility: 0.9980635046958923
","x: 255.01759338378906
y: 259.2500915527344
z: -0.23595145344734192
visibility: 0.9995790719985962
","x: 249.8133087158203
y: 258.77362060546875
z: -0.2369549721479416
visibility: 0.9994392991065979
","x: 269.447998046875
y: 292.78436279296875
z: -0.11390717327594757
visibility: 0.9999036192893982
","x: 233.5770721435547
y: 289.3005676269531
z: -0.10462920367717743
visibility: 0.9997583627700806
","x: 277.03350830078125
y: 339.1394348144531
z: -0.07102307677268982
visibility: 0.9891624450683594
","x: 225.88894653320312
y: 334.4093322753906
z: -0.054951537400484085
visibility: 0.9716948866844177
","x: 282.6661376953125
y: 377.2524719238281
z: -0.1358095109462738
visibility: 0.9658808708190918
","x: 221.46365356445312
y: 373.63592529296875
z: -0.11198786646127701
visibility: 0.9246928691864014
","x: 285.0877685546875
y: 389.8600769042969
z: -0.15444085001945496
visibility: 0.9168938994407654
","x: 220.61476135253906
y: 387.3067626953125
z: -0.1294434368610382
visibility: 0.8493763208389282
","x: 283.569580078125
y: 391.57452392578125
z: -0.18135131895542145
visibility: 0.9226133823394775
","x: 222.50148010253906
y: 387.8128662109375
z: -0.1561475545167923
visibility: 0.8603451251983643
","x: 282.1752014160156
y: 387.8335876464844
z: -0.14725534617900848
visibility: 0.902140736579895
","x: 223.76071166992188
y: 383.7637939453125
z: -0.12395763397216797
visibility: 0.8508449792861938
","x: 259.1158752441406
y: 378.00604248046875
z: 0.0025595768820494413
visibility: 0.999356746673584
","x: 238.30892944335938
y: 375.7218017578125
z: -0.0026302088517695665
visibility: 0.9992018342018127
","x: 253.9974365234375
y: 442.3696594238281
z: 0.017514171078801155
visibility: 0.9786270260810852
","x: 237.93849182128906
y: 441.02252197265625
z: -0.005809829570353031
visibility: 0.9625948071479797
","x: 252.7229461669922
y: 505.3349609375
z: 0.12027430534362793
visibility: 0.9816660284996033
","x: 234.46737670898438
y: 499.0938720703125
z: 0.10930542647838593
visibility: 0.9689698219299316
","x: 250.1017608642578
y: 514.5718994140625
z: 0.12462009489536285
visibility: 0.8710030913352966
","x: 236.3284149169922
y: 507.42926025390625
z: 0.11426414549350739
visibility: 0.7969400882720947
","x: 258.2300720214844
y: 523.5506591796875
z: 0.02009749785065651
visibility: 0.9755812883377075
","x: 232.8074951171875
y: 518.745361328125
z: 0.015967044979333878
visibility: 0.9685912728309631
",,,,,,,,,,,,,,,,,,,,,,4.531126499176025,,,,,,,,,,,,,,,,,,,,,
8,"x: 252.70260620117188
y: 251.47950744628906
z: -0.26732268929481506
visibility: 0.9998546838760376
","x: 254.87191772460938
y: 247.21009826660156
z: -0.255398690700531
visibility: 0.9995184540748596
","x: 256.2381286621094
y: 247.60317993164062
z: -0.2554077208042145
visibility: 0.9995846152305603
","x: 257.6100769042969
y: 248.0836181640625
z: -0.255415678024292
visibility: 0.9995617270469666
","x: 250.6061553955078
y: 246.64010620117188
z: -0.25586122274398804
visibility: 0.9994313716888428
","x: 249.17529296875
y: 246.6796112060547
z: -0.2558807134628296
visibility: 0.9993698596954346
","x: 247.82965087890625
y: 246.76577758789062
z: -0.25586000084877014
visibility: 0.999242901802063
","x: 259.34576416015625
y: 252.31076049804688
z: -0.173252671957016
visibility: 0.9988388419151306
","x: 246.14862060546875
y: 251.18898010253906
z: -0.1766238510608673
visibility: 0.9980635046958923
","x: 255.01759338378906
y: 259.2500915527344
z: -0.23595145344734192
visibility: 0.9995790719985962
","x: 249.8133087158203
y: 258.77362060546875
z: -0.2369549721479416
visibility: 0.9994392991065979
","x: 269.447998046875
y: 292.78436279296875
z: -0.11390717327594757
visibility: 0.9999036192893982
","x: 233.5770721435547
y: 289.3005676269531
z: -0.10462920367717743
visibility: 0.9997583627700806
","x: 277.03350830078125
y: 339.1394348144531
z: -0.07102307677268982
visibility: 0.9891624450683594
","x: 225.88894653320312
y: 334.4093322753906
z: -0.054951537400484085
visibility: 0.9716948866844177
","x: 282.6661376953125
y: 377.2524719238281
z: -0.1358095109462738
visibility: 0.9658808708190918
","x: 221.46365356445312
y: 373.63592529296875
z: -0.11198786646127701
visibility: 0.9246928691864014
","x: 285.0877685546875
y: 389.8600769042969
z: -0.15444085001945496
visibility: 0.9168938994407654
","x: 220.61476135253906
y: 387.3067626953125
z: -0.1294434368610382
visibility: 0.8493763208389282
","x: 283.569580078125
y: 391.57452392578125
z: -0.18135131895542145
visibility: 0.9226133823394775
","x: 222.50148010253906
y: 387.8128662109375
z: -0.1561475545167923
visibility: 0.8603451251983643
","x: 282.1752014160156
y: 387.8335876464844
z: -0.14725534617900848
visibility: 0.902140736579895
","x: 223.76071166992188
y: 383.7637939453125
z: -0.12395763397216797
visibility: 0.8508449792861938
","x: 259.1158752441406
y: 378.00604248046875
z: 0.0025595768820494413
visibility: 0.999356746673584
","x: 238.30892944335938
y: 375.7218017578125
z: -0.0026302088517695665
visibility: 0.9992018342018127
","x: 253.9974365234375
y: 442.3696594238281
z: 0.017514171078801155
visibility: 0.9786270260810852
","x: 237.93849182128906
y: 441.02252197265625
z: -0.005809829570353031
visibility: 0.9625948071479797
","x: 252.7229461669922
y: 505.3349609375
z: 0.12027430534362793
visibility: 0.9816660284996033
","x: 234.46737670898438
y: 499.0938720703125
z: 0.10930542647838593
visibility: 0.9689698219299316
","x: 250.1017608642578
y: 514.5718994140625
z: 0.12462009489536285
visibility: 0.8710030913352966
","x: 236.3284149169922
y: 507.42926025390625
z: 0.11426414549350739
visibility: 0.7969400882720947
","x: 258.2300720214844
y: 523.5506591796875
z: 0.02009749785065651
visibility: 0.9755812883377075
","x: 232.8074951171875
y: 518.745361328125
z: 0.015967044979333878
visibility: 0.9685912728309631
",,,,,,,,,,,,,,,,,,,,,,4.531126499176025,,,,,,,,,,,,,,,,,,,,,
9,"x: 254.65013122558594
y: 252.84268188476562
z: -0.30571672320365906
visibility: 0.999868631362915
","x: 256.6767272949219
y: 247.75404357910156
z: -0.29341840744018555
visibility: 0.9995643496513367
","x: 258.02850341796875
y: 248.0140380859375
z: -0.2934345602989197
visibility: 0.9996241331100464
","x: 259.2913513183594
y: 248.38507080078125
z: -0.2934533953666687
visibility: 0.9996035695075989
","x: 252.9562225341797
y: 247.3563232421875
z: -0.29353609681129456
visibility: 0.9994856715202332
","x: 251.56951904296875
y: 247.38868713378906
z: -0.2935674786567688
visibility: 0.9994300603866577
","x: 249.99180603027344
y: 247.45870971679688
z: -0.2935602068901062
visibility: 0.9993150234222412
","x: 261.2590637207031
y: 252.51004028320312
z: -0.20197713375091553
visibility: 0.9989504218101501
","x: 247.3858184814453
y: 251.7112579345703
z: -0.2054123431444168
visibility: 0.9982504844665527
","x: 256.4113464355469
y: 260.3486022949219
z: -0.27138641476631165
visibility: 0.9996201395988464
","x: 251.96087646484375
y: 259.8625793457031
z: -0.2719894051551819
visibility: 0.9994940757751465
","x: 270.9907531738281
y: 292.8058166503906
z: -0.13867723941802979
visibility: 0.9999123811721802
","x: 235.2606201171875
y: 289.0135498046875
z: -0.12047918140888214
visibility: 0.9997797012329102
","x: 278.201416015625
y: 338.77923583984375
z: -0.09762859344482422
visibility: 0.9899963140487671
","x: 228.39236450195312
y: 334.1809387207031
z: -0.06663288176059723
visibility: 0.9727680683135986
","x: 281.8116149902344
y: 375.59613037109375
z: -0.16888338327407837
visibility: 0.9688131213188171
","x: 224.3173370361328
y: 373.5598449707031
z: -0.12607958912849426
visibility: 0.9287096858024597
","x: 284.3255920410156
y: 389.71258544921875
z: -0.19034750759601593
visibility: 0.9237496852874756
","x: 223.33370971679688
y: 387.1781921386719
z: -0.14435748755931854
visibility: 0.8573541641235352
","x: 282.2297668457031
y: 390.8379821777344
z: -0.21778857707977295
visibility: 0.929059624671936
","x: 225.02325439453125
y: 387.685791015625
z: -0.1734471619129181
visibility: 0.867697536945343
","x: 280.69171142578125
y: 386.9528503417969
z: -0.18049001693725586
visibility: 0.9101885557174683
","x: 226.00875854492188
y: 383.742919921875
z: -0.1391584724187851
visibility: 0.8578294515609741
","x: 260.3620910644531
y: 378.430908203125
z: 0.003297376213595271
visibility: 0.999374270439148
","x: 239.77920532226562
y: 375.4452819824219
z: -0.0033527319319546223
visibility: 0.9992315173149109
","x: 254.6523895263672
y: 443.5823974609375
z: 0.024888141080737114
visibility: 0.9784818887710571
","x: 242.13375854492188
y: 441.5238952636719
z: -0.00792282447218895
visibility: 0.9650951623916626
","x: 251.98170471191406
y: 505.9400634765625
z: 0.12435393035411835
visibility: 0.982090175151825
","x: 239.2472381591797
y: 502.39849853515625
z: 0.10760048776865005
visibility: 0.9705209732055664
","x: 249.44647216796875
y: 515.2882690429688
z: 0.1280180662870407
visibility: 0.8754796385765076
","x: 240.0615692138672
y: 510.6748962402344
z: 0.11263124644756317
visibility: 0.8000872135162354
","x: 257.4420471191406
y: 523.5791015625
z: 0.029173750430345535
visibility: 0.976189136505127
","x: 237.63412475585938
y: 522.5286254882812
z: 0.011309703812003136
visibility: 0.9697075486183167
",,,,,,,,,,,,,,,,,,,,,,4.679755449295044,,,,,,,,,,,,,,,,,,,,,
10,"x: 254.65013122558594
y: 252.84268188476562
z: -0.30571672320365906
visibility: 0.999868631362915
","x: 256.6767272949219
y: 247.75404357910156
z: -0.29341840744018555
visibility: 0.9995643496513367
","x: 258.02850341796875
y: 248.0140380859375
z: -0.2934345602989197
visibility: 0.9996241331100464
","x: 259.2913513183594
y: 248.38507080078125
z: -0.2934533953666687
visibility: 0.9996035695075989
","x: 252.9562225341797
y: 247.3563232421875
z: -0.29353609681129456
visibility: 0.9994856715202332
","x: 251.56951904296875
y: 247.38868713378906
z: -0.2935674786567688
visibility: 0.9994300603866577
","x: 249.99180603027344
y: 247.45870971679688
z: -0.2935602068901062
visibility: 0.9993150234222412
","x: 261.2590637207031
y: 252.51004028320312
z: -0.20197713375091553
visibility: 0.9989504218101501
","x: 247.3858184814453
y: 251.7112579345703
z: -0.2054123431444168
visibility: 0.9982504844665527
","x: 256.4113464355469
y: 260.3486022949219
z: -0.27138641476631165
visibility: 0.9996201395988464
","x: 251.96087646484375
y: 259.8625793457031
z: -0.2719894051551819
visibility: 0.9994940757751465
","x: 270.9907531738281
y: 292.8058166503906
z: -0.13867723941802979
visibility: 0.9999123811721802
","x: 235.2606201171875
y: 289.0135498046875
z: -0.12047918140888214
visibility: 0.9997797012329102
","x: 278.201416015625
y: 338.77923583984375
z: -0.09762859344482422
visibility: 0.9899963140487671
","x: 228.39236450195312
y: 334.1809387207031
z: -0.06663288176059723
visibility: 0.9727680683135986
","x: 281.8116149902344
y: 375.59613037109375
z: -0.16888338327407837
visibility: 0.9688131213188171
","x: 224.3173370361328
y: 373.5598449707031
z: -0.12607958912849426
visibility: 0.9287096858024597
","x: 284.3255920410156
y: 389.71258544921875
z: -0.19034750759601593
visibility: 0.9237496852874756
","x: 223.33370971679688
y: 387.1781921386719
z: -0.14435748755931854
visibility: 0.8573541641235352
","x: 282.2297668457031
y: 390.8379821777344
z: -0.21778857707977295
visibility: 0.929059624671936
","x: 225.02325439453125
y: 387.685791015625
z: -0.1734471619129181
visibility: 0.867697536945343
","x: 280.69171142578125
y: 386.9528503417969
z: -0.18049001693725586
visibility: 0.9101885557174683
","x: 226.00875854492188
y: 383.742919921875
z: -0.1391584724187851
visibility: 0.8578294515609741
","x: 260.3620910644531
y: 378.430908203125
z: 0.003297376213595271
visibility: 0.999374270439148
","x: 239.77920532226562
y: 375.4452819824219
z: -0.0033527319319546223
visibility: 0.9992315173149109
","x: 254.6523895263672
y: 443.5823974609375
z: 0.024888141080737114
visibility: 0.9784818887710571
","x: 242.13375854492188
y: 441.5238952636719
z: -0.00792282447218895
visibility: 0.9650951623916626
","x: 251.98170471191406
y: 505.9400634765625
z: 0.12435393035411835
visibility: 0.982090175151825
","x: 239.2472381591797
y: 502.39849853515625
z: 0.10760048776865005
visibility: 0.9705209732055664
","x: 249.44647216796875
y: 515.2882690429688
z: 0.1280180662870407
visibility: 0.8754796385765076
","x: 240.0615692138672
y: 510.6748962402344
z: 0.11263124644756317
visibility: 0.8000872135162354
","x: 257.4420471191406
y: 523.5791015625
z: 0.029173750430345535
visibility: 0.976189136505127
","x: 237.63412475585938
y: 522.5286254882812
z: 0.011309703812003136
visibility: 0.9697075486183167
",,,,,,,,,,,,,,,,,,,,,,4.679755449295044,,,,,,,,,,,,,,,,,,,,,
11,"x: 255.52639770507812
y: 252.53268432617188
z: -0.2588614523410797
visibility: 0.999880850315094
","x: 257.1721496582031
y: 247.51025390625
z: -0.24493131041526794
visibility: 0.9996050000190735
","x: 258.4526062011719
y: 247.80517578125
z: -0.24494528770446777
visibility: 0.9996587038040161
","x: 259.6634521484375
y: 248.15060424804688
z: -0.2449508011341095
visibility: 0.9996402859687805
","x: 253.61398315429688
y: 246.95706176757812
z: -0.24801746010780334
visibility: 0.9995340704917908
","x: 252.19747924804688
y: 246.91842651367188
z: -0.24804072082042694
visibility: 0.9994837045669556
","x: 250.6761932373047
y: 246.90309143066406
z: -0.24803969264030457
visibility: 0.9993796944618225
","x: 261.36773681640625
y: 252.2384796142578
z: -0.14982421696186066
visibility: 0.9990482926368713
","x: 247.71177673339844
y: 251.12667846679688
z: -0.16511687636375427
visibility: 0.9984185695648193
","x: 257.19061279296875
y: 260.2112121582031
z: -0.22233033180236816
visibility: 0.9996566772460938
","x: 252.79177856445312
y: 259.687744140625
z: -0.22675208747386932
visibility: 0.9995430707931519
","x: 270.9240417480469
y: 291.76995849609375
z: -0.07766510546207428
visibility: 0.9999191761016846
","x: 235.4461212158203
y: 288.47509765625
z: -0.09063567966222763
visibility: 0.9997934699058533
","x: 277.3321838378906
y: 330.99468994140625
z: -0.024181794375181198
visibility: 0.9904500842094421
","x: 227.4964599609375
y: 329.1076965332031
z: -0.04307454079389572
visibility: 0.9736743569374084
","x: 278.480224609375
y: 361.664794921875
z: -0.10576027631759644
visibility: 0.9708512425422668
","x: 229.309814453125
y: 358.803466796875
z: -0.10544399917125702
visibility: 0.9299809336662292
","x: 278.5206604003906
y: 374.65570068359375
z: -0.12981991469860077
visibility: 0.9284722805023193
","x: 229.47042846679688
y: 371.49151611328125
z: -0.12539270520210266
visibility: 0.8602860569953918
","x: 276.1210632324219
y: 373.1380615234375
z: -0.15583954751491547
visibility: 0.9335570335388184
","x: 231.7946319580078
y: 369.53045654296875
z: -0.15054942667484283
visibility: 0.8701489567756653
","x: 275.2591857910156
y: 369.00750732421875
z: -0.11704208701848984
visibility: 0.9156150817871094
","x: 232.47891235351562
y: 365.6591491699219
z: -0.11585346609354019
visibility: 0.8589632511138916
","x: 261.1776123046875
y: 378.39599609375
z: 0.005397110246121883
visibility: 0.999371349811554
","x: 240.75099182128906
y: 375.4307556152344
z: -0.005415016785264015
visibility: 0.9992354512214661
","x: 255.56802368164062
y: 443.27960205078125
z: 0.021603938192129135
visibility: 0.9790377616882324
","x: 242.76751708984375
y: 441.6601257324219
z: -0.007925856858491898
visibility: 0.9670750498771667
","x: 253.13111877441406
y: 506.09326171875
z: 0.10652992874383926
visibility: 0.9828177690505981
","x: 239.8369903564453
y: 503.7220764160156
z: 0.10049091279506683
visibility: 0.9720005989074707
","x: 250.1359405517578
y: 515.3377685546875
z: 0.1090908795595169
visibility: 0.8809322118759155
","x: 240.60621643066406
y: 512.0067749023438
z: 0.10425840318202972
visibility: 0.8032029271125793
","x: 257.1983337402344
y: 524.0802001953125
z: 0.009454830549657345
visibility: 0.9771783947944641
","x: 237.1940460205078
y: 524.4837646484375
z: 0.0006617241888307035
visibility: 0.9707058668136597
",,,,,,,,,,,,,,,,,,,,,,4.7792298793792725,,,,,,,,,,,,,,,,,,,,,
12,"x: 255.52639770507812
y: 252.53268432617188
z: -0.2588614523410797
visibility: 0.999880850315094
","x: 257.1721496582031
y: 247.51025390625
z: -0.24493131041526794
visibility: 0.9996050000190735
","x: 258.4526062011719
y: 247.80517578125
z: -0.24494528770446777
visibility: 0.9996587038040161
","x: 259.6634521484375
y: 248.15060424804688
z: -0.2449508011341095
visibility: 0.9996402859687805
","x: 253.61398315429688
y: 246.95706176757812
z: -0.24801746010780334
visibility: 0.9995340704917908
","x: 252.19747924804688
y: 246.91842651367188
z: -0.24804072082042694
visibility: 0.9994837045669556
","x: 250.6761932373047
y: 246.90309143066406
z: -0.24803969264030457
visibility: 0.9993796944618225
","x: 261.36773681640625
y: 252.2384796142578
z: -0.14982421696186066
visibility: 0.9990482926368713
","x: 247.71177673339844
y: 251.12667846679688
z: -0.16511687636375427
visibility: 0.9984185695648193
","x: 257.19061279296875
y: 260.2112121582031
z: -0.22233033180236816
visibility: 0.9996566772460938
","x: 252.79177856445312
y: 259.687744140625
z: -0.22675208747386932
visibility: 0.9995430707931519
","x: 270.9240417480469
y: 291.76995849609375
z: -0.07766510546207428
visibility: 0.9999191761016846
","x: 235.4461212158203
y: 288.47509765625
z: -0.09063567966222763
visibility: 0.9997934699058533
","x: 277.3321838378906
y: 330.99468994140625
z: -0.024181794375181198
visibility: 0.9904500842094421
","x: 227.4964599609375
y: 329.1076965332031
z: -0.04307454079389572
visibility: 0.9736743569374084
","x: 278.480224609375
y: 361.664794921875
z: -0.10576027631759644
visibility: 0.9708512425422668
","x: 229.309814453125
y: 358.803466796875
z: -0.10544399917125702
visibility: 0.9299809336662292
","x: 278.5206604003906
y: 374.65570068359375
z: -0.12981991469860077
visibility: 0.9284722805023193
","x: 229.47042846679688
y: 371.49151611328125
z: -0.12539270520210266
visibility: 0.8602860569953918
","x: 276.1210632324219
y: 373.1380615234375
z: -0.15583954751491547
visibility: 0.9335570335388184
","x: 231.7946319580078
y: 369.53045654296875
z: -0.15054942667484283
visibility: 0.8701489567756653
","x: 275.2591857910156
y: 369.00750732421875
z: -0.11704208701848984
visibility: 0.9156150817871094
","x: 232.47891235351562
y: 365.6591491699219
z: -0.11585346609354019
visibility: 0.8589632511138916
","x: 261.1776123046875
y: 378.39599609375
z: 0.005397110246121883
visibility: 0.999371349811554
","x: 240.75099182128906
y: 375.4307556152344
z: -0.005415016785264015
visibility: 0.9992354512214661
","x: 255.56802368164062
y: 443.27960205078125
z: 0.021603938192129135
visibility: 0.9790377616882324
","x: 242.76751708984375
y: 441.6601257324219
z: -0.007925856858491898
visibility: 0.9670750498771667
","x: 253.13111877441406
y: 506.09326171875
z: 0.10652992874383926
visibility: 0.9828177690505981
","x: 239.8369903564453
y: 503.7220764160156
z: 0.10049091279506683
visibility: 0.9720005989074707
","x: 250.1359405517578
y: 515.3377685546875
z: 0.1090908795595169
visibility: 0.8809322118759155
","x: 240.60621643066406
y: 512.0067749023438
z: 0.10425840318202972
visibility: 0.8032029271125793
","x: 257.1983337402344
y: 524.0802001953125
z: 0.009454830549657345
visibility: 0.9771783947944641
","x: 237.1940460205078
y: 524.4837646484375
z: 0.0006617241888307035
visibility: 0.9707058668136597
",,,,,,,,,,,,,,,,,,,,,,4.7792298793792725,,,,,,,,,,,,,,,,,,,,,
13,"x: 255.64315795898438
y: 249.3710479736328
z: -0.2750151455402374
visibility: 0.9998923540115356
","x: 257.2645263671875
y: 244.12757873535156
z: -0.2593705356121063
visibility: 0.9996436834335327
","x: 258.58306884765625
y: 244.41937255859375
z: -0.25938302278518677
visibility: 0.9996919631958008
","x: 259.8247985839844
y: 244.7443389892578
z: -0.25938719511032104
visibility: 0.9996753334999084
","x: 253.5940399169922
y: 243.74525451660156
z: -0.26135554909706116
visibility: 0.9995797872543335
","x: 252.0560302734375
y: 243.80995178222656
z: -0.26139241456985474
visibility: 0.9995343685150146
","x: 250.4156951904297
y: 243.9859619140625
z: -0.26139554381370544
visibility: 0.9994406700134277
","x: 261.7925720214844
y: 249.315185546875
z: -0.15501675009727478
visibility: 0.9991410970687866
","x: 247.73423767089844
y: 248.8002166748047
z: -0.16502489149570465
visibility: 0.9985752701759338
","x: 257.5456237792969
y: 257.469970703125
z: -0.23526568710803986
visibility: 0.9996904730796814
","x: 253.0955047607422
y: 257.3271789550781
z: -0.2382320910692215
visibility: 0.9995883107185364
","x: 272.23193359375
y: 287.34912109375
z: -0.07768089324235916
visibility: 0.9999258518218994
","x: 235.93130493164062
y: 283.0739440917969
z: -0.09143434464931488
visibility: 0.9998087286949158
","x: 280.1921691894531
y: 323.73150634765625
z: -0.07443572580814362
visibility: 0.9908865094184875
","x: 224.69961547851562
y: 322.92852783203125
z: -0.09765288233757019
visibility: 0.975330650806427
","x: 274.8955078125
y: 344.6539001464844
z: -0.2852260172367096
visibility: 0.9730815291404724
","x: 234.120849609375
y: 343.31182861328125
z: -0.23531290888786316
visibility: 0.9342204928398132
","x: 275.19384765625
y: 354.6069641113281
z: -0.3276941180229187
visibility: 0.9339841604232788
","x: 236.35971069335938
y: 352.92315673828125
z: -0.26895871758461
visibility: 0.8687748312950134
","x: 272.80572509765625
y: 348.9033508300781
z: -0.3422210216522217
visibility: 0.9386587738990784
","x: 238.8679962158203
y: 349.52398681640625
z: -0.28256213665008545
visibility: 0.8776500225067139
","x: 271.369873046875
y: 346.0574951171875
z: -0.2939518988132477
visibility: 0.9215437769889832
","x: 238.6467742919922
y: 346.00103759765625
z: -0.24176087975502014
visibility: 0.864986777305603
","x: 260.9016418457031
y: 372.53961181640625
z: 0.008105136454105377
visibility: 0.9993961453437805
","x: 240.6590118408203
y: 369.46588134765625
z: -0.008154491893947124
visibility: 0.9992651343345642
","x: 256.2178039550781
y: 441.3125915527344
z: 0.02047109417617321
visibility: 0.9793869256973267
","x: 242.7474365234375
y: 439.63134765625
z: -0.017922434955835342
visibility: 0.9689961671829224
","x: 254.2196044921875
y: 505.8619384765625
z: 0.10324758291244507
visibility: 0.9834457635879517
","x: 239.88551330566406
y: 503.5355224609375
z: 0.09258793294429779
visibility: 0.9733206629753113
","x: 251.2338104248047
y: 514.49169921875
z: 0.10592969506978989
visibility: 0.8847534656524658
","x: 240.50030517578125
y: 511.82135009765625
z: 0.09719224274158478
visibility: 0.8040139675140381
","x: 257.14013671875
y: 524.4129028320312
z: 0.0010123720858246088
visibility: 0.9777406454086304
","x: 238.84291076660156
y: 523.45166015625
z: -0.010468379594385624
visibility: 0.971413254737854
","x: 274.779296875
y: 341.89227294921875
z: 0.0
","x: 272.3941650390625
y: 339.1219787597656
z: -0.00483678886666894
","x: 269.391845703125
y: 339.80828857421875
z: -0.00757121667265892
","x: 267.11090087890625
y: 342.95367431640625
z: -0.009265583008527756
","x: 265.5810546875
y: 345.7878112792969
z: -0.010640827938914299
","x: 270.6341247558594
y: 346.9405517578125
z: -0.0093650221824646
","x: 267.1518249511719
y: 350.971923828125
z: -0.011816302314400673
","x: 264.7745056152344
y: 351.5301513671875
z: -0.012157648801803589
","x: 263.28253173828125
y: 351.0775451660156
z: -0.012010926380753517
","x: 271.23675537109375
y: 350.52716064453125
z: -0.007836297154426575
","x: 267.6285400390625
y: 354.5746154785156
z: -0.010322028771042824
","x: 265.2838439941406
y: 354.18145751953125
z: -0.010029302909970284
","x: 263.8974304199219
y: 353.03173828125
z: -0.00958127249032259
","x: 271.4598693847656
y: 352.557373046875
z: -0.006350161973387003
","x: 268.2279357910156
y: 356.1001892089844
z: -0.008885816670954227
","x: 265.9206237792969
y: 355.46533203125
z: -0.00891589093953371
","x: 264.45745849609375
y: 353.95465087890625
z: -0.008646239526569843
","x: 271.4347839355469
y: 353.58526611328125
z: -0.005122154485434294
","x: 268.7322082519531
y: 356.6070251464844
z: -0.0074410513043403625
","x: 266.6659240722656
y: 356.3570861816406
z: -0.007919919677078724
","x: 265.2041015625
y: 355.05322265625
z: -0.007862108759582043
",4.925157070159912,,,,,,,,,,,,,,,,,,,,,
14,"x: 255.64315795898438
y: 249.3710479736328
z: -0.2750151455402374
visibility: 0.9998923540115356
","x: 257.2645263671875
y: 244.12757873535156
z: -0.2593705356121063
visibility: 0.9996436834335327
","x: 258.58306884765625
y: 244.41937255859375
z: -0.25938302278518677
visibility: 0.9996919631958008
","x: 259.8247985839844
y: 244.7443389892578
z: -0.25938719511032104
visibility: 0.9996753334999084
","x: 253.5940399169922
y: 243.74525451660156
z: -0.26135554909706116
visibility: 0.9995797872543335
","x: 252.0560302734375
y: 243.80995178222656
z: -0.26139241456985474
visibility: 0.9995343685150146
","x: 250.4156951904297
y: 243.9859619140625
z: -0.26139554381370544
visibility: 0.9994406700134277
","x: 261.7925720214844
y: 249.315185546875
z: -0.15501675009727478
visibility: 0.9991410970687866
","x: 247.73423767089844
y: 248.8002166748047
z: -0.16502489149570465
visibility: 0.9985752701759338
","x: 257.5456237792969
y: 257.469970703125
z: -0.23526568710803986
visibility: 0.9996904730796814
","x: 253.0955047607422
y: 257.3271789550781
z: -0.2382320910692215
visibility: 0.9995883107185364
","x: 272.23193359375
y: 287.34912109375
z: -0.07768089324235916
visibility: 0.9999258518218994
","x: 235.93130493164062
y: 283.0739440917969
z: -0.09143434464931488
visibility: 0.9998087286949158
","x: 280.1921691894531
y: 323.73150634765625
z: -0.07443572580814362
visibility: 0.9908865094184875
","x: 224.69961547851562
y: 322.92852783203125
z: -0.09765288233757019
visibility: 0.975330650806427
","x: 274.8955078125
y: 344.6539001464844
z: -0.2852260172367096
visibility: 0.9730815291404724
","x: 234.120849609375
y: 343.31182861328125
z: -0.23531290888786316
visibility: 0.9342204928398132
","x: 275.19384765625
y: 354.6069641113281
z: -0.3276941180229187
visibility: 0.9339841604232788
","x: 236.35971069335938
y: 352.92315673828125
z: -0.26895871758461
visibility: 0.8687748312950134
","x: 272.80572509765625
y: 348.9033508300781
z: -0.3422210216522217
visibility: 0.9386587738990784
","x: 238.8679962158203
y: 349.52398681640625
z: -0.28256213665008545
visibility: 0.8776500225067139
","x: 271.369873046875
y: 346.0574951171875
z: -0.2939518988132477
visibility: 0.9215437769889832
","x: 238.6467742919922
y: 346.00103759765625
z: -0.24176087975502014
visibility: 0.864986777305603
","x: 260.9016418457031
y: 372.53961181640625
z: 0.008105136454105377
visibility: 0.9993961453437805
","x: 240.6590118408203
y: 369.46588134765625
z: -0.008154491893947124
visibility: 0.9992651343345642
","x: 256.2178039550781
y: 441.3125915527344
z: 0.02047109417617321
visibility: 0.9793869256973267
","x: 242.7474365234375
y: 439.63134765625
z: -0.017922434955835342
visibility: 0.9689961671829224
","x: 254.2196044921875
y: 505.8619384765625
z: 0.10324758291244507
visibility: 0.9834457635879517
","x: 239.88551330566406
y: 503.5355224609375
z: 0.09258793294429779
visibility: 0.9733206629753113
","x: 251.2338104248047
y: 514.49169921875
z: 0.10592969506978989
visibility: 0.8847534656524658
","x: 240.50030517578125
y: 511.82135009765625
z: 0.09719224274158478
visibility: 0.8040139675140381
","x: 257.14013671875
y: 524.4129028320312
z: 0.0010123720858246088
visibility: 0.9777406454086304
","x: 238.84291076660156
y: 523.45166015625
z: -0.010468379594385624
visibility: 0.971413254737854
","x: 274.779296875
y: 341.89227294921875
z: 0.0
","x: 272.3941650390625
y: 339.1219787597656
z: -0.00483678886666894
","x: 269.391845703125
y: 339.80828857421875
z: -0.00757121667265892
","x: 267.11090087890625
y: 342.95367431640625
z: -0.009265583008527756
","x: 265.5810546875
y: 345.7878112792969
z: -0.010640827938914299
","x: 270.6341247558594
y: 346.9405517578125
z: -0.0093650221824646
","x: 267.1518249511719
y: 350.971923828125
z: -0.011816302314400673
","x: 264.7745056152344
y: 351.5301513671875
z: -0.012157648801803589
","x: 263.28253173828125
y: 351.0775451660156
z: -0.012010926380753517
","x: 271.23675537109375
y: 350.52716064453125
z: -0.007836297154426575
","x: 267.6285400390625
y: 354.5746154785156
z: -0.010322028771042824
","x: 265.2838439941406
y: 354.18145751953125
z: -0.010029302909970284
","x: 263.8974304199219
y: 353.03173828125
z: -0.00958127249032259
","x: 271.4598693847656
y: 352.557373046875
z: -0.006350161973387003
","x: 268.2279357910156
y: 356.1001892089844
z: -0.008885816670954227
","x: 265.9206237792969
y: 355.46533203125
z: -0.00891589093953371
","x: 264.45745849609375
y: 353.95465087890625
z: -0.008646239526569843
","x: 271.4347839355469
y: 353.58526611328125
z: -0.005122154485434294
","x: 268.7322082519531
y: 356.6070251464844
z: -0.0074410513043403625
","x: 266.6659240722656
y: 356.3570861816406
z: -0.007919919677078724
","x: 265.2041015625
y: 355.05322265625
z: -0.007862108759582043
",4.925157070159912,,,,,,,,,,,,,,,,,,,,,
15,"x: 255.64315795898438
y: 249.3710479736328
z: -0.2750151455402374
visibility: 0.9998923540115356
","x: 257.2645263671875
y: 244.12757873535156
z: -0.2593705356121063
visibility: 0.9996436834335327
","x: 258.58306884765625
y: 244.41937255859375
z: -0.25938302278518677
visibility: 0.9996919631958008
","x: 259.8247985839844
y: 244.7443389892578
z: -0.25938719511032104
visibility: 0.9996753334999084
","x: 253.5940399169922
y: 243.74525451660156
z: -0.26135554909706116
visibility: 0.9995797872543335
","x: 252.0560302734375
y: 243.80995178222656
z: -0.26139241456985474
visibility: 0.9995343685150146
","x: 250.4156951904297
y: 243.9859619140625
z: -0.26139554381370544
visibility: 0.9994406700134277
","x: 261.7925720214844
y: 249.315185546875
z: -0.15501675009727478
visibility: 0.9991410970687866
","x: 247.73423767089844
y: 248.8002166748047
z: -0.16502489149570465
visibility: 0.9985752701759338
","x: 257.5456237792969
y: 257.469970703125
z: -0.23526568710803986
visibility: 0.9996904730796814
","x: 253.0955047607422
y: 257.3271789550781
z: -0.2382320910692215
visibility: 0.9995883107185364
","x: 272.23193359375
y: 287.34912109375
z: -0.07768089324235916
visibility: 0.9999258518218994
","x: 235.93130493164062
y: 283.0739440917969
z: -0.09143434464931488
visibility: 0.9998087286949158
","x: 280.1921691894531
y: 323.73150634765625
z: -0.07443572580814362
visibility: 0.9908865094184875
","x: 224.69961547851562
y: 322.92852783203125
z: -0.09765288233757019
visibility: 0.975330650806427
","x: 274.8955078125
y: 344.6539001464844
z: -0.2852260172367096
visibility: 0.9730815291404724
","x: 234.120849609375
y: 343.31182861328125
z: -0.23531290888786316
visibility: 0.9342204928398132
","x: 275.19384765625
y: 354.6069641113281
z: -0.3276941180229187
visibility: 0.9339841604232788
","x: 236.35971069335938
y: 352.92315673828125
z: -0.26895871758461
visibility: 0.8687748312950134
","x: 272.80572509765625
y: 348.9033508300781
z: -0.3422210216522217
visibility: 0.9386587738990784
","x: 238.8679962158203
y: 349.52398681640625
z: -0.28256213665008545
visibility: 0.8776500225067139
","x: 271.369873046875
y: 346.0574951171875
z: -0.2939518988132477
visibility: 0.9215437769889832
","x: 238.6467742919922
y: 346.00103759765625
z: -0.24176087975502014
visibility: 0.864986777305603
","x: 260.9016418457031
y: 372.53961181640625
z: 0.008105136454105377
visibility: 0.9993961453437805
","x: 240.6590118408203
y: 369.46588134765625
z: -0.008154491893947124
visibility: 0.9992651343345642
","x: 256.2178039550781
y: 441.3125915527344
z: 0.02047109417617321
visibility: 0.9793869256973267
","x: 242.7474365234375
y: 439.63134765625
z: -0.017922434955835342
visibility: 0.9689961671829224
","x: 254.2196044921875
y: 505.8619384765625
z: 0.10324758291244507
visibility: 0.9834457635879517
","x: 239.88551330566406
y: 503.5355224609375
z: 0.09258793294429779
visibility: 0.9733206629753113
","x: 251.2338104248047
y: 514.49169921875
z: 0.10592969506978989
visibility: 0.8847534656524658
","x: 240.50030517578125
y: 511.82135009765625
z: 0.09719224274158478
visibility: 0.8040139675140381
","x: 257.14013671875
y: 524.4129028320312
z: 0.0010123720858246088
visibility: 0.9777406454086304
","x: 238.84291076660156
y: 523.45166015625
z: -0.010468379594385624
visibility: 0.971413254737854
","x: 274.779296875
y: 341.89227294921875
z: 0.0
","x: 272.3941650390625
y: 339.1219787597656
z: -0.00483678886666894
","x: 269.391845703125
y: 339.80828857421875
z: -0.00757121667265892
","x: 267.11090087890625
y: 342.95367431640625
z: -0.009265583008527756
","x: 265.5810546875
y: 345.7878112792969
z: -0.010640827938914299
","x: 270.6341247558594
y: 346.9405517578125
z: -0.0093650221824646
","x: 267.1518249511719
y: 350.971923828125
z: -0.011816302314400673
","x: 264.7745056152344
y: 351.5301513671875
z: -0.012157648801803589
","x: 263.28253173828125
y: 351.0775451660156
z: -0.012010926380753517
","x: 271.23675537109375
y: 350.52716064453125
z: -0.007836297154426575
","x: 267.6285400390625
y: 354.5746154785156
z: -0.010322028771042824
","x: 265.2838439941406
y: 354.18145751953125
z: -0.010029302909970284
","x: 263.8974304199219
y: 353.03173828125
z: -0.00958127249032259
","x: 271.4598693847656
y: 352.557373046875
z: -0.006350161973387003
","x: 268.2279357910156
y: 356.1001892089844
z: -0.008885816670954227
","x: 265.9206237792969
y: 355.46533203125
z: -0.00891589093953371
","x: 264.45745849609375
y: 353.95465087890625
z: -0.008646239526569843
","x: 271.4347839355469
y: 353.58526611328125
z: -0.005122154485434294
","x: 268.7322082519531
y: 356.6070251464844
z: -0.0074410513043403625
","x: 266.6659240722656
y: 356.3570861816406
z: -0.007919919677078724
","x: 265.2041015625
y: 355.05322265625
z: -0.007862108759582043
",4.925157070159912,,,,,,,,,,,,,,,,,,,,,
16,"x: 254.18145751953125
y: 249.6934356689453
z: -0.2551218867301941
visibility: 0.999902606010437
","x: 256.07147216796875
y: 244.4346923828125
z: -0.23853155970573425
visibility: 0.9996783137321472
","x: 257.3638610839844
y: 244.68148803710938
z: -0.23854807019233704
visibility: 0.9997216463088989
","x: 258.4411315917969
y: 244.9913330078125
z: -0.23854880034923553
visibility: 0.9997065663337708
","x: 252.0430145263672
y: 244.32122802734375
z: -0.24093833565711975
visibility: 0.9996208548545837
","x: 250.5113983154297
y: 244.63706970214844
z: -0.2409706860780716
visibility: 0.9995798468589783
","x: 249.00901794433594
y: 245.0570831298828
z: -0.24096879363059998
visibility: 0.9994954466819763
","x: 260.33917236328125
y: 249.75328063964844
z: -0.13317424058914185
visibility: 0.9992242455482483
","x: 246.7144775390625
y: 249.90347290039062
z: -0.1450907588005066
visibility: 0.9987161159515381
","x: 256.5451354980469
y: 257.96160888671875
z: -0.2152216136455536
visibility: 0.9997207522392273
","x: 251.41087341308594
y: 257.7554626464844
z: -0.21871575713157654
visibility: 0.9996289610862732
","x: 270.5985107421875
y: 287.6373596191406
z: -0.061103176325559616
visibility: 0.9999303817749023
","x: 234.72366333007812
y: 283.73870849609375
z: -0.0837736651301384
visibility: 0.9998222589492798
","x: 277.5001220703125
y: 325.5902404785156
z: -0.08907175809144974
visibility: 0.9911264181137085
","x: 227.52072143554688
y: 323.24114990234375
z: -0.11220463365316391
visibility: 0.9764134287834167
","x: 273.51007080078125
y: 349.3833923339844
z: -0.27106210589408875
visibility: 0.9747593998908997
","x: 240.4685821533203
y: 348.58599853515625
z: -0.25282052159309387
visibility: 0.9379081130027771
","x: 268.85809326171875
y: 357.6698303222656
z: -0.3131116032600403
visibility: 0.9382023215293884
","x: 244.245361328125
y: 355.5741882324219
z: -0.28939181566238403
visibility: 0.8766831755638123
","x: 266.2251281738281
y: 352.960693359375
z: -0.32643985748291016
visibility: 0.9425223469734192
","x: 246.63198852539062
y: 351.7378234863281
z: -0.30077874660491943
visibility: 0.8846435546875
","x: 266.5655212402344
y: 350.3979797363281
z: -0.2793397009372711
visibility: 0.9259422421455383
","x: 245.97836303710938
y: 348.8770751953125
z: -0.2587268650531769
visibility: 0.8705253005027771
","x: 261.4712829589844
y: 373.161865234375
z: 0.01154316309839487
visibility: 0.9994098544120789
","x: 241.6308135986328
y: 371.48309326171875
z: -0.011562081053853035
visibility: 0.9993000030517578
","x: 256.06610107421875
y: 441.85125732421875
z: 0.018962552770972252
visibility: 0.9790628552436829
","x: 242.88015747070312
y: 442.01861572265625
z: -0.016399208456277847
visibility: 0.9708554148674011
","x: 253.9401092529297
y: 505.9432373046875
z: 0.11950638145208359
visibility: 0.9834851026535034
","x: 239.51182556152344
y: 506.75579833984375
z: 0.09151594340801239
visibility: 0.9748216867446899
","x: 250.84771728515625
y: 514.591796875
z: 0.1234583705663681
visibility: 0.8894661068916321
","x: 240.11166381835938
y: 515.0633544921875
z: 0.0956404060125351
visibility: 0.8086277842521667
","x: 257.5567932128906
y: 524.644287109375
z: 0.023782866075634956
visibility: 0.9781399965286255
","x: 238.20657348632812
y: 527.4779052734375
z: -0.011118689551949501
visibility: 0.9723583459854126
",,,,,,,,,,,,,,,,,,,,,,5.047145843505859,,,,,,,,,,,,,,,,,,,,,
17,"x: 254.18145751953125
y: 249.6934356689453
z: -0.2551218867301941
visibility: 0.999902606010437
","x: 256.07147216796875
y: 244.4346923828125
z: -0.23853155970573425
visibility: 0.9996783137321472
","x: 257.3638610839844
y: 244.68148803710938
z: -0.23854807019233704
visibility: 0.9997216463088989
","x: 258.4411315917969
y: 244.9913330078125
z: -0.23854880034923553
visibility: 0.9997065663337708
","x: 252.0430145263672
y: 244.32122802734375
z: -0.24093833565711975
visibility: 0.9996208548545837
","x: 250.5113983154297
y: 244.63706970214844
z: -0.2409706860780716
visibility: 0.9995798468589783
","x: 249.00901794433594
y: 245.0570831298828
z: -0.24096879363059998
visibility: 0.9994954466819763
","x: 260.33917236328125
y: 249.75328063964844
z: -0.13317424058914185
visibility: 0.9992242455482483
","x: 246.7144775390625
y: 249.90347290039062
z: -0.1450907588005066
visibility: 0.9987161159515381
","x: 256.5451354980469
y: 257.96160888671875
z: -0.2152216136455536
visibility: 0.9997207522392273
","x: 251.41087341308594
y: 257.7554626464844
z: -0.21871575713157654
visibility: 0.9996289610862732
","x: 270.5985107421875
y: 287.6373596191406
z: -0.061103176325559616
visibility: 0.9999303817749023
","x: 234.72366333007812
y: 283.73870849609375
z: -0.0837736651301384
visibility: 0.9998222589492798
","x: 277.5001220703125
y: 325.5902404785156
z: -0.08907175809144974
visibility: 0.9911264181137085
","x: 227.52072143554688
y: 323.24114990234375
z: -0.11220463365316391
visibility: 0.9764134287834167
","x: 273.51007080078125
y: 349.3833923339844
z: -0.27106210589408875
visibility: 0.9747593998908997
","x: 240.4685821533203
y: 348.58599853515625
z: -0.25282052159309387
visibility: 0.9379081130027771
","x: 268.85809326171875
y: 357.6698303222656
z: -0.3131116032600403
visibility: 0.9382023215293884
","x: 244.245361328125
y: 355.5741882324219
z: -0.28939181566238403
visibility: 0.8766831755638123
","x: 266.2251281738281
y: 352.960693359375
z: -0.32643985748291016
visibility: 0.9425223469734192
","x: 246.63198852539062
y: 351.7378234863281
z: -0.30077874660491943
visibility: 0.8846435546875
","x: 266.5655212402344
y: 350.3979797363281
z: -0.2793397009372711
visibility: 0.9259422421455383
","x: 245.97836303710938
y: 348.8770751953125
z: -0.2587268650531769
visibility: 0.8705253005027771
","x: 261.4712829589844
y: 373.161865234375
z: 0.01154316309839487
visibility: 0.9994098544120789
","x: 241.6308135986328
y: 371.48309326171875
z: -0.011562081053853035
visibility: 0.9993000030517578
","x: 256.06610107421875
y: 441.85125732421875
z: 0.018962552770972252
visibility: 0.9790628552436829
","x: 242.88015747070312
y: 442.01861572265625
z: -0.016399208456277847
visibility: 0.9708554148674011
","x: 253.9401092529297
y: 505.9432373046875
z: 0.11950638145208359
visibility: 0.9834851026535034
","x: 239.51182556152344
y: 506.75579833984375
z: 0.09151594340801239
visibility: 0.9748216867446899
","x: 250.84771728515625
y: 514.591796875
z: 0.1234583705663681
visibility: 0.8894661068916321
","x: 240.11166381835938
y: 515.0633544921875
z: 0.0956404060125351
visibility: 0.8086277842521667
","x: 257.5567932128906
y: 524.644287109375
z: 0.023782866075634956
visibility: 0.9781399965286255
","x: 238.20657348632812
y: 527.4779052734375
z: -0.011118689551949501
visibility: 0.9723583459854126
",,,,,,,,,,,,,,,,,,,,,,5.047145843505859,,,,,,,,,,,,,,,,,,,,,
18,"x: 254.62924194335938
y: 251.11761474609375
z: -0.18081191182136536
visibility: 0.999910295009613
","x: 256.15557861328125
y: 245.96307373046875
z: -0.16129170358181
visibility: 0.9997067451477051
","x: 257.3232116699219
y: 246.31719970703125
z: -0.16132718324661255
visibility: 0.9997445940971375
","x: 258.34735107421875
y: 246.6825714111328
z: -0.16133882105350494
visibility: 0.9997304677963257
","x: 252.18128967285156
y: 245.63790893554688
z: -0.16570375859737396
visibility: 0.9996548295021057
","x: 250.6510772705078
y: 245.958984375
z: -0.1656968742609024
visibility: 0.9996173977851868
","x: 249.1352996826172
y: 246.42442321777344
z: -0.16569235920906067
visibility: 0.9995415210723877
","x: 259.899169921875
y: 250.91119384765625
z: -0.051427196711301804
visibility: 0.9992936849594116
","x: 246.3266143798828
y: 251.0482940673828
z: -0.07104218751192093
visibility: 0.9988384246826172
","x: 256.6800537109375
y: 259.1153259277344
z: -0.139571875333786
visibility: 0.9997463822364807
","x: 251.50437927246094
y: 258.8888854980469
z: -0.14531105756759644
visibility: 0.9996646046638489
","x: 268.6185607910156
y: 287.88836669921875
z: 0.01125967688858509
visibility: 0.9999285340309143
","x: 234.78439331054688
y: 284.4531555175781
z: -0.03219271078705788
visibility: 0.9998250007629395
","x: 274.7590637207031
y: 325.6811828613281
z: -0.0369424894452095
visibility: 0.9834055304527283
","x: 229.41261291503906
y: 324.51788330078125
z: -0.09954444319009781
visibility: 0.977640688419342
","x: 272.67938232421875
y: 343.95135498046875
z: -0.2362457513809204
visibility: 0.9702455401420593
","x: 246.4258575439453
y: 344.1446228027344
z: -0.24077478051185608
visibility: 0.9414516091346741
","x: 268.59832763671875
y: 352.1769714355469
z: -0.2700994908809662
visibility: 0.9348481297492981
","x: 249.400634765625
y: 349.94287109375
z: -0.27745699882507324
visibility: 0.8843225836753845
","x: 266.2127990722656
y: 347.24676513671875
z: -0.287727415561676
visibility: 0.9390553832054138
","x: 251.229736328125
y: 345.36181640625
z: -0.2849077582359314
visibility: 0.8914297819137573
","x: 266.53314208984375
y: 344.3393249511719
z: -0.24631670117378235
visibility: 0.9210813641548157
","x: 250.75692749023438
y: 343.40496826171875
z: -0.24541577696800232
visibility: 0.8761035203933716
","x: 260.7083435058594
y: 373.84637451171875
z: 0.015140908770263195
visibility: 0.9994406700134277
","x: 240.84970092773438
y: 373.4838562011719
z: -0.015118664130568504
visibility: 0.9993306398391724
","x: 265.30999755859375
y: 443.3883361816406
z: -0.08407338708639145
visibility: 0.980505108833313
","x: 241.6586456298828
y: 443.8839111328125
z: -0.04965116083621979
visibility: 0.9729748964309692
","x: 258.4378356933594
y: 498.1770324707031
z: 0.10954950749874115
visibility: 0.983180582523346
","x: 238.91290283203125
y: 509.3980712890625
z: 0.08408761024475098
visibility: 0.9764318466186523
","x: 254.1752471923828
y: 504.85955810546875
z: 0.11993320286273956
visibility: 0.8919581174850464
","x: 239.43531799316406
y: 516.8782348632812
z: 0.09146974980831146
visibility: 0.8144934773445129
","x: 261.93951416015625
y: 522.2359619140625
z: 0.02520056441426277
visibility: 0.9780552387237549
","x: 238.9966278076172
y: 529.406982421875
z: -0.018688304349780083
visibility: 0.9733288884162903
",,,,,,,,,,,,,,,,,,,,,,5.174597501754761,,,,,,,,,,,,,,,,,,,,,
19,"x: 254.62924194335938
y: 251.11761474609375
z: -0.18081191182136536
visibility: 0.999910295009613
","x: 256.15557861328125
y: 245.96307373046875
z: -0.16129170358181
visibility: 0.9997067451477051
","x: 257.3232116699219
y: 246.31719970703125
z: -0.16132718324661255
visibility: 0.9997445940971375
","x: 258.34735107421875
y: 246.6825714111328
z: -0.16133882105350494
visibility: 0.9997304677963257
","x: 252.18128967285156
y: 245.63790893554688
z: -0.16570375859737396
visibility: 0.9996548295021057
","x: 250.6510772705078
y: 245.958984375
z: -0.1656968742609024
visibility: 0.9996173977851868
","x: 249.1352996826172
y: 246.42442321777344
z: -0.16569235920906067
visibility: 0.9995415210723877
","x: 259.899169921875
y: 250.91119384765625
z: -0.051427196711301804
visibility: 0.9992936849594116
","x: 246.3266143798828
y: 251.0482940673828
z: -0.07104218751192093
visibility: 0.9988384246826172
","x: 256.6800537109375
y: 259.1153259277344
z: -0.139571875333786
visibility: 0.9997463822364807
","x: 251.50437927246094
y: 258.8888854980469
z: -0.14531105756759644
visibility: 0.9996646046638489
","x: 268.6185607910156
y: 287.88836669921875
z: 0.01125967688858509
visibility: 0.9999285340309143
","x: 234.78439331054688
y: 284.4531555175781
z: -0.03219271078705788
visibility: 0.9998250007629395
","x: 274.7590637207031
y: 325.6811828613281
z: -0.0369424894452095
visibility: 0.9834055304527283
","x: 229.41261291503906
y: 324.51788330078125
z: -0.09954444319009781
visibility: 0.977640688419342
","x: 272.67938232421875
y: 343.95135498046875
z: -0.2362457513809204
visibility: 0.9702455401420593
","x: 246.4258575439453
y: 344.1446228027344
z: -0.24077478051185608
visibility: 0.9414516091346741
","x: 268.59832763671875
y: 352.1769714355469
z: -0.2700994908809662
visibility: 0.9348481297492981
","x: 249.400634765625
y: 349.94287109375
z: -0.27745699882507324
visibility: 0.8843225836753845
","x: 266.2127990722656
y: 347.24676513671875
z: -0.287727415561676
visibility: 0.9390553832054138
","x: 251.229736328125
y: 345.36181640625
z: -0.2849077582359314
visibility: 0.8914297819137573
","x: 266.53314208984375
y: 344.3393249511719
z: -0.24631670117378235
visibility: 0.9210813641548157
","x: 250.75692749023438
y: 343.40496826171875
z: -0.24541577696800232
visibility: 0.8761035203933716
","x: 260.7083435058594
y: 373.84637451171875
z: 0.015140908770263195
visibility: 0.9994406700134277
","x: 240.84970092773438
y: 373.4838562011719
z: -0.015118664130568504
visibility: 0.9993306398391724
","x: 265.30999755859375
y: 443.3883361816406
z: -0.08407338708639145
visibility: 0.980505108833313
","x: 241.6586456298828
y: 443.8839111328125
z: -0.04965116083621979
visibility: 0.9729748964309692
","x: 258.4378356933594
y: 498.1770324707031
z: 0.10954950749874115
visibility: 0.983180582523346
","x: 238.91290283203125
y: 509.3980712890625
z: 0.08408761024475098
visibility: 0.9764318466186523
","x: 254.1752471923828
y: 504.85955810546875
z: 0.11993320286273956
visibility: 0.8919581174850464
","x: 239.43531799316406
y: 516.8782348632812
z: 0.09146974980831146
visibility: 0.8144934773445129
","x: 261.93951416015625
y: 522.2359619140625
z: 0.02520056441426277
visibility: 0.9780552387237549
","x: 238.9966278076172
y: 529.406982421875
z: -0.018688304349780083
visibility: 0.9733288884162903
",,,,,,,,,,,,,,,,,,,,,,5.174597501754761,,,,,,,,,,,,,,,,,,,,,
20,"x: 255.98043823242188
y: 252.87173461914062
z: -0.22244663536548615
visibility: 0.999919056892395
","x: 257.593017578125
y: 247.06585693359375
z: -0.20431098341941833
visibility: 0.9997357130050659
","x: 258.8337707519531
y: 247.36627197265625
z: -0.20434539020061493
visibility: 0.9997697472572327
","x: 259.9516906738281
y: 247.67633056640625
z: -0.204366534948349
visibility: 0.9997568726539612
","x: 254.13812255859375
y: 246.56289672851562
z: -0.2090061604976654
visibility: 0.9996889233589172
","x: 252.69261169433594
y: 246.6413116455078
z: -0.20900841057300568
visibility: 0.9996551871299744
","x: 251.24346923828125
y: 246.9132843017578
z: -0.2089921534061432
visibility: 0.9995867609977722
","x: 261.6597900390625
y: 251.58709716796875
z: -0.09104423969984055
visibility: 0.9993633031845093
","x: 248.0010223388672
y: 251.17709350585938
z: -0.11352396011352539
visibility: 0.9989540576934814
","x: 257.6752014160156
y: 260.814697265625
z: -0.17948231101036072
visibility: 0.9997714757919312
","x: 253.1356964111328
y: 260.1191101074219
z: -0.1860395222902298
visibility: 0.9996979236602783
","x: 269.30413818359375
y: 288.338134765625
z: -0.009951583109796047
visibility: 0.9999344348907471
","x: 235.29652404785156
y: 284.3143005371094
z: -0.06048654392361641
visibility: 0.9998401999473572
","x: 274.74908447265625
y: 325.884765625
z: -0.05088498070836067
visibility: 0.9744201898574829
","x: 227.94570922851562
y: 326.13006591796875
z: -0.12615573406219482
visibility: 0.9781826138496399
","x: 276.9319763183594
y: 339.72540283203125
z: -0.2623952031135559
visibility: 0.9693359136581421
","x: 237.5634002685547
y: 337.78558349609375
z: -0.30108267068862915
visibility: 0.9447198510169983
","x: 278.76025390625
y: 344.88592529296875
z: -0.3068515956401825
visibility: 0.936447024345398
","x: 239.30955505371094
y: 341.80224609375
z: -0.3403177857398987
visibility: 0.8916690349578857
","x: 277.6661071777344
y: 340.4728698730469
z: -0.325482577085495
visibility: 0.9407187700271606
","x: 240.831787109375
y: 336.7745666503906
z: -0.35166969895362854
visibility: 0.8981611132621765
","x: 275.7989196777344
y: 338.716796875
z: -0.27533185482025146
visibility: 0.9225635528564453
","x: 240.95816040039062
y: 335.4272155761719
z: -0.30839648842811584
visibility: 0.882554292678833
","x: 263.61138916015625
y: 374.02764892578125
z: 0.02312524989247322
visibility: 0.9994837045669556
","x: 242.42454528808594
y: 374.04833984375
z: -0.023172777146100998
visibility: 0.9993768334388733
","x: 274.3380126953125
y: 443.21295166015625
z: -0.04304097592830658
visibility: 0.9821288585662842
","x: 243.7681427001953
y: 445.3306884765625
z: -0.037480488419532776
visibility: 0.9753401875495911
","x: 278.12872314453125
y: 498.8296203613281
z: 0.1276785284280777
visibility: 0.9844075441360474
","x: 238.19491577148438
y: 508.16363525390625
z: 0.10368244349956512
visibility: 0.9782194495201111
","x: 274.3536682128906
y: 505.9342956542969
z: 0.13699772953987122
visibility: 0.8979474902153015
","x: 238.39866638183594
y: 516.57666015625
z: 0.117558553814888
visibility: 0.8191776871681213
","x: 287.5596008300781
y: 524.0858764648438
z: 0.0358702577650547
visibility: 0.9793347716331482
","x: 239.1607208251953
y: 529.8856811523438
z: 0.008229860104620457
visibility: 0.9747821688652039
",,,,,,,,,,,,,,,,,,,,,,5.296778202056885,,,,,,,,,,,,,,,,,,,,,
21,"x: 255.98043823242188
y: 252.87173461914062
z: -0.22244663536548615
visibility: 0.999919056892395
","x: 257.593017578125
y: 247.06585693359375
z: -0.20431098341941833
visibility: 0.9997357130050659
","x: 258.8337707519531
y: 247.36627197265625
z: -0.20434539020061493
visibility: 0.9997697472572327
","x: 259.9516906738281
y: 247.67633056640625
z: -0.204366534948349
visibility: 0.9997568726539612
","x: 254.13812255859375
y: 246.56289672851562
z: -0.2090061604976654
visibility: 0.9996889233589172
","x: 252.69261169433594
y: 246.6413116455078
z: -0.20900841057300568
visibility: 0.9996551871299744
","x: 251.24346923828125
y: 246.9132843017578
z: -0.2089921534061432
visibility: 0.9995867609977722
","x: 261.6597900390625
y: 251.58709716796875
z: -0.09104423969984055
visibility: 0.9993633031845093
","x: 248.0010223388672
y: 251.17709350585938
z: -0.11352396011352539
visibility: 0.9989540576934814
","x: 257.6752014160156
y: 260.814697265625
z: -0.17948231101036072
visibility: 0.9997714757919312
","x: 253.1356964111328
y: 260.1191101074219
z: -0.1860395222902298
visibility: 0.9996979236602783
","x: 269.30413818359375
y: 288.338134765625
z: -0.009951583109796047
visibility: 0.9999344348907471
","x: 235.29652404785156
y: 284.3143005371094
z: -0.06048654392361641
visibility: 0.9998401999473572
","x: 274.74908447265625
y: 325.884765625
z: -0.05088498070836067
visibility: 0.9744201898574829
","x: 227.94570922851562
y: 326.13006591796875
z: -0.12615573406219482
visibility: 0.9781826138496399
","x: 276.9319763183594
y: 339.72540283203125
z: -0.2623952031135559
visibility: 0.9693359136581421
","x: 237.5634002685547
y: 337.78558349609375
z: -0.30108267068862915
visibility: 0.9447198510169983
","x: 278.76025390625
y: 344.88592529296875
z: -0.3068515956401825
visibility: 0.936447024345398
","x: 239.30955505371094
y: 341.80224609375
z: -0.3403177857398987
visibility: 0.8916690349578857
","x: 277.6661071777344
y: 340.4728698730469
z: -0.325482577085495
visibility: 0.9407187700271606
","x: 240.831787109375
y: 336.7745666503906
z: -0.35166969895362854
visibility: 0.8981611132621765
","x: 275.7989196777344
y: 338.716796875
z: -0.27533185482025146
visibility: 0.9225635528564453
","x: 240.95816040039062
y: 335.4272155761719
z: -0.30839648842811584
visibility: 0.882554292678833
","x: 263.61138916015625
y: 374.02764892578125
z: 0.02312524989247322
visibility: 0.9994837045669556
","x: 242.42454528808594
y: 374.04833984375
z: -0.023172777146100998
visibility: 0.9993768334388733
","x: 274.3380126953125
y: 443.21295166015625
z: -0.04304097592830658
visibility: 0.9821288585662842
","x: 243.7681427001953
y: 445.3306884765625
z: -0.037480488419532776
visibility: 0.9753401875495911
","x: 278.12872314453125
y: 498.8296203613281
z: 0.1276785284280777
visibility: 0.9844075441360474
","x: 238.19491577148438
y: 508.16363525390625
z: 0.10368244349956512
visibility: 0.9782194495201111
","x: 274.3536682128906
y: 505.9342956542969
z: 0.13699772953987122
visibility: 0.8979474902153015
","x: 238.39866638183594
y: 516.57666015625
z: 0.117558553814888
visibility: 0.8191776871681213
","x: 287.5596008300781
y: 524.0858764648438
z: 0.0358702577650547
visibility: 0.9793347716331482
","x: 239.1607208251953
y: 529.8856811523438
z: 0.008229860104620457
visibility: 0.9747821688652039
",,,,,,,,,,,,,,,,,,,,,,5.296778202056885,,,,,,,,,,,,,,,,,,,,,
22,"x: 256.3561706542969
y: 261.0324401855469
z: -0.23494689166545868
visibility: 0.9999270439147949
","x: 258.48431396484375
y: 255.7559814453125
z: -0.21679654717445374
visibility: 0.9997619986534119
","x: 259.79718017578125
y: 256.12115478515625
z: -0.21682913601398468
visibility: 0.9997926354408264
","x: 261.1275634765625
y: 256.5870056152344
z: -0.216863751411438
visibility: 0.9997810125350952
","x: 254.70399475097656
y: 254.99261474609375
z: -0.22130541503429413
visibility: 0.9997197985649109
","x: 253.21328735351562
y: 254.88229370117188
z: -0.2213170826435089
visibility: 0.9996894001960754
","x: 251.70550537109375
y: 254.9180450439453
z: -0.221286803483963
visibility: 0.9996277689933777
","x: 262.66455078125
y: 259.79058837890625
z: -0.10554492473602295
visibility: 0.9994266033172607
","x: 248.9930877685547
y: 258.330810546875
z: -0.1274762749671936
visibility: 0.9990583062171936
","x: 258.02288818359375
y: 269.20709228515625
z: -0.1929115355014801
visibility: 0.9997942447662354
","x: 253.4847412109375
y: 267.6785888671875
z: -0.19946300983428955
visibility: 0.9997280240058899
","x: 270.4456481933594
y: 295.949951171875
z: -0.02532827854156494
visibility: 0.9999406337738037
","x: 237.1112060546875
y: 292.2262268066406
z: -0.07261332124471664
visibility: 0.9998539686203003
","x: 276.44903564453125
y: 335.6401062011719
z: -0.06811077147722244
visibility: 0.9744115471839905
","x: 226.15158081054688
y: 330.64837646484375
z: -0.16281118988990784
visibility: 0.9790946841239929
","x: 288.51263427734375
y: 330.8753967285156
z: -0.2687602937221527
visibility: 0.971638023853302
","x: 232.40261840820312
y: 326.79119873046875
z: -0.35651248693466187
visibility: 0.9483194351196289
","x: 291.9696350097656
y: 332.4919128417969
z: -0.30674073100090027
visibility: 0.9411819577217102
","x: 232.90933227539062
y: 324.21405029296875
z: -0.39595547318458557
visibility: 0.8982546329498291
","x: 290.035400390625
y: 326.2835998535156
z: -0.31892240047454834
visibility: 0.9451537728309631
","x: 232.79864501953125
y: 321.4300842285156
z: -0.40018048882484436
visibility: 0.9040703773498535
","x: 288.46368408203125
y: 325.66583251953125
z: -0.27859002351760864
visibility: 0.9278671741485596
","x: 234.07696533203125
y: 321.02978515625
z: -0.3626222610473633
visibility: 0.8883800506591797
","x: 265.3172607421875
y: 380.9074401855469
z: 0.024097025394439697
visibility: 0.9995260238647461
","x: 244.32949829101562
y: 381.1285400390625
z: -0.024191444739699364
visibility: 0.9994202852249146
","x: 278.22808837890625
y: 446.0666198730469
z: -0.0357704795897007
visibility: 0.9836930632591248
","x: 244.79873657226562
y: 447.8222351074219
z: -0.0777197927236557
visibility: 0.9775225520133972
","x: 288.08465576171875
y: 501.745849609375
z: 0.14949092268943787
visibility: 0.9856022596359253
","x: 237.5428466796875
y: 507.8872985839844
z: 0.09691507369279861
visibility: 0.979720950126648
","x: 285.90423583984375
y: 508.6186218261719
z: 0.16010096669197083
visibility: 0.9000738859176636
","x: 238.12034606933594
y: 513.1669921875
z: 0.11106465011835098
visibility: 0.8206900954246521
","x: 292.5733337402344
y: 525.2899169921875
z: 0.05759172886610031
visibility: 0.9805904626846313
","x: 239.7843475341797
y: 530.22998046875
z: 0.00480677979066968
visibility: 0.9762464165687561
",,,,,,,,,,,,,,,,,,,,,,5.425226926803589,,,,,,,,,,,,,,,,,,,,,
23,"x: 256.3561706542969
y: 261.0324401855469
z: -0.23494689166545868
visibility: 0.9999270439147949
","x: 258.48431396484375
y: 255.7559814453125
z: -0.21679654717445374
visibility: 0.9997619986534119
","x: 259.79718017578125
y: 256.12115478515625
z: -0.21682913601398468
visibility: 0.9997926354408264
","x: 261.1275634765625
y: 256.5870056152344
z: -0.216863751411438
visibility: 0.9997810125350952
","x: 254.70399475097656
y: 254.99261474609375
z: -0.22130541503429413
visibility: 0.9997197985649109
","x: 253.21328735351562
y: 254.88229370117188
z: -0.2213170826435089
visibility: 0.9996894001960754
","x: 251.70550537109375
y: 254.9180450439453
z: -0.221286803483963
visibility: 0.9996277689933777
","x: 262.66455078125
y: 259.79058837890625
z: -0.10554492473602295
visibility: 0.9994266033172607
","x: 248.9930877685547
y: 258.330810546875
z: -0.1274762749671936
visibility: 0.9990583062171936
","x: 258.02288818359375
y: 269.20709228515625
z: -0.1929115355014801
visibility: 0.9997942447662354
","x: 253.4847412109375
y: 267.6785888671875
z: -0.19946300983428955
visibility: 0.9997280240058899
","x: 270.4456481933594
y: 295.949951171875
z: -0.02532827854156494
visibility: 0.9999406337738037
","x: 237.1112060546875
y: 292.2262268066406
z: -0.07261332124471664
visibility: 0.9998539686203003
","x: 276.44903564453125
y: 335.6401062011719
z: -0.06811077147722244
visibility: 0.9744115471839905
","x: 226.15158081054688
y: 330.64837646484375
z: -0.16281118988990784
visibility: 0.9790946841239929
","x: 288.51263427734375
y: 330.8753967285156
z: -0.2687602937221527
visibility: 0.971638023853302
","x: 232.40261840820312
y: 326.79119873046875
z: -0.35651248693466187
visibility: 0.9483194351196289
","x: 291.9696350097656
y: 332.4919128417969
z: -0.30674073100090027
visibility: 0.9411819577217102
","x: 232.90933227539062
y: 324.21405029296875
z: -0.39595547318458557
visibility: 0.8982546329498291
","x: 290.035400390625
y: 326.2835998535156
z: -0.31892240047454834
visibility: 0.9451537728309631
","x: 232.79864501953125
y: 321.4300842285156
z: -0.40018048882484436
visibility: 0.9040703773498535
","x: 288.46368408203125
y: 325.66583251953125
z: -0.27859002351760864
visibility: 0.9278671741485596
","x: 234.07696533203125
y: 321.02978515625
z: -0.3626222610473633
visibility: 0.8883800506591797
","x: 265.3172607421875
y: 380.9074401855469
z: 0.024097025394439697
visibility: 0.9995260238647461
","x: 244.32949829101562
y: 381.1285400390625
z: -0.024191444739699364
visibility: 0.9994202852249146
","x: 278.22808837890625
y: 446.0666198730469
z: -0.0357704795897007
visibility: 0.9836930632591248
","x: 244.79873657226562
y: 447.8222351074219
z: -0.0777197927236557
visibility: 0.9775225520133972
","x: 288.08465576171875
y: 501.745849609375
z: 0.14949092268943787
visibility: 0.9856022596359253
","x: 237.5428466796875
y: 507.8872985839844
z: 0.09691507369279861
visibility: 0.979720950126648
","x: 285.90423583984375
y: 508.6186218261719
z: 0.16010096669197083
visibility: 0.9000738859176636
","x: 238.12034606933594
y: 513.1669921875
z: 0.11106465011835098
visibility: 0.8206900954246521
","x: 292.5733337402344
y: 525.2899169921875
z: 0.05759172886610031
visibility: 0.9805904626846313
","x: 239.7843475341797
y: 530.22998046875
z: 0.00480677979066968
visibility: 0.9762464165687561
",,,,,,,,,,,,,,,,,,,,,,5.425226926803589,,,,,,,,,,,,,,,,,,,,,
24,"x: 255.64511108398438
y: 259.28814697265625
z: -0.24842330813407898
visibility: 0.9999336004257202
","x: 257.54998779296875
y: 254.1795196533203
z: -0.2323846071958542
visibility: 0.9997844696044922
","x: 258.7593688964844
y: 254.53179931640625
z: -0.23241832852363586
visibility: 0.999811589717865
","x: 259.9981994628906
y: 254.98272705078125
z: -0.23244404792785645
visibility: 0.9998008608818054
","x: 254.0127410888672
y: 253.67745971679688
z: -0.23443198204040527
visibility: 0.9997467398643494
","x: 252.6098175048828
y: 253.78958129882812
z: -0.23443663120269775
visibility: 0.9997193217277527
","x: 251.1027374267578
y: 254.06166076660156
z: -0.23440468311309814
visibility: 0.9996640086174011
","x: 261.77435302734375
y: 258.37091064453125
z: -0.1235666275024414
visibility: 0.9994789361953735
","x: 248.42416381835938
y: 257.62969970703125
z: -0.13722734153270721
visibility: 0.9991517066955566
","x: 257.3046569824219
y: 267.7663269042969
z: -0.20898671448230743
visibility: 0.9998141527175903
","x: 252.70277404785156
y: 266.64532470703125
z: -0.21141096949577332
visibility: 0.9997550249099731
","x: 269.2143859863281
y: 292.713623046875
z: -0.046307049691677094
visibility: 0.9999420046806335
","x: 235.56495666503906
y: 286.5277404785156
z: -0.1034284383058548
visibility: 0.9998663663864136
","x: 283.0907287597656
y: 320.8616638183594
z: -0.14506122469902039
visibility: 0.976366400718689
","x: 215.9897003173828
y: 311.69720458984375
z: -0.22171179950237274
visibility: 0.981098473072052
","x: 281.65069580078125
y: 309.49755859375
z: -0.3466219902038574
visibility: 0.9733715653419495
","x: 231.593994140625
y: 304.35528564453125
z: -0.38074004650115967
visibility: 0.9530720710754395
","x: 283.5848693847656
y: 309.6350402832031
z: -0.38684552907943726
visibility: 0.9434507489204407
","x: 236.7344512939453
y: 307.134765625
z: -0.41826605796813965
visibility: 0.9067248702049255
","x: 283.9426574707031
y: 305.6856689453125
z: -0.3806155323982239
visibility: 0.9468092322349548
","x: 239.01136779785156
y: 304.208740234375
z: -0.40863266587257385
visibility: 0.9117510318756104
","x: 281.9270324707031
y: 305.4253234863281
z: -0.3486040234565735
visibility: 0.9291498064994812
","x: 237.93948364257812
y: 302.89483642578125
z: -0.3788711726665497
visibility: 0.8963513374328613
","x: 263.3551330566406
y: 380.66851806640625
z: 0.024566540494561195
visibility: 0.9995620846748352
","x: 242.2530517578125
y: 380.2169494628906
z: -0.02474549226462841
visibility: 0.9994645118713379
","x: 275.8117370605469
y: 445.715576171875
z: -0.006777849048376083
visibility: 0.9850634932518005
","x: 244.00689697265625
y: 447.054931640625
z: -0.04989005997776985
visibility: 0.9794206023216248
","x: 284.1217041015625
y: 502.67755126953125
z: 0.16251909732818604
visibility: 0.9867558479309082
","x: 237.50877380371094
y: 507.2662353515625
z: 0.11964776366949081
visibility: 0.9813767671585083
","x: 280.8871154785156
y: 510.51806640625
z: 0.17299747467041016
visibility: 0.905382513999939
","x: 237.65570068359375
y: 513.0552978515625
z: 0.13226813077926636
visibility: 0.826770544052124
","x: 290.9209899902344
y: 527.0369873046875
z: 0.06607277691364288
visibility: 0.9818770885467529
","x: 240.24610900878906
y: 530.1983032226562
z: 0.018336903303861618
visibility: 0.9778419733047485
",,,,,,,,,,,,,,,,,,,,,,5.549501180648804,,,,,,,,,,,,,,,,,,,,,
25,"x: 255.64511108398438
y: 259.28814697265625
z: -0.24842330813407898
visibility: 0.9999336004257202
","x: 257.54998779296875
y: 254.1795196533203
z: -0.2323846071958542
visibility: 0.9997844696044922
","x: 258.7593688964844
y: 254.53179931640625
z: -0.23241832852363586
visibility: 0.999811589717865
","x: 259.9981994628906
y: 254.98272705078125
z: -0.23244404792785645
visibility: 0.9998008608818054
","x: 254.0127410888672
y: 253.67745971679688
z: -0.23443198204040527
visibility: 0.9997467398643494
","x: 252.6098175048828
y: 253.78958129882812
z: -0.23443663120269775
visibility: 0.9997193217277527
","x: 251.1027374267578
y: 254.06166076660156
z: -0.23440468311309814
visibility: 0.9996640086174011
","x: 261.77435302734375
y: 258.37091064453125
z: -0.1235666275024414
visibility: 0.9994789361953735
","x: 248.42416381835938
y: 257.62969970703125
z: -0.13722734153270721
visibility: 0.9991517066955566
","x: 257.3046569824219
y: 267.7663269042969
z: -0.20898671448230743
visibility: 0.9998141527175903
","x: 252.70277404785156
y: 266.64532470703125
z: -0.21141096949577332
visibility: 0.9997550249099731
","x: 269.2143859863281
y: 292.713623046875
z: -0.046307049691677094
visibility: 0.9999420046806335
","x: 235.56495666503906
y: 286.5277404785156
z: -0.1034284383058548
visibility: 0.9998663663864136
","x: 283.0907287597656
y: 320.8616638183594
z: -0.14506122469902039
visibility: 0.976366400718689
","x: 215.9897003173828
y: 311.69720458984375
z: -0.22171179950237274
visibility: 0.981098473072052
","x: 281.65069580078125
y: 309.49755859375
z: -0.3466219902038574
visibility: 0.9733715653419495
","x: 231.593994140625
y: 304.35528564453125
z: -0.38074004650115967
visibility: 0.9530720710754395
","x: 283.5848693847656
y: 309.6350402832031
z: -0.38684552907943726
visibility: 0.9434507489204407
","x: 236.7344512939453
y: 307.134765625
z: -0.41826605796813965
visibility: 0.9067248702049255
","x: 283.9426574707031
y: 305.6856689453125
z: -0.3806155323982239
visibility: 0.9468092322349548
","x: 239.01136779785156
y: 304.208740234375
z: -0.40863266587257385
visibility: 0.9117510318756104
","x: 281.9270324707031
y: 305.4253234863281
z: -0.3486040234565735
visibility: 0.9291498064994812
","x: 237.93948364257812
y: 302.89483642578125
z: -0.3788711726665497
visibility: 0.8963513374328613
","x: 263.3551330566406
y: 380.66851806640625
z: 0.024566540494561195
visibility: 0.9995620846748352
","x: 242.2530517578125
y: 380.2169494628906
z: -0.02474549226462841
visibility: 0.9994645118713379
","x: 275.8117370605469
y: 445.715576171875
z: -0.006777849048376083
visibility: 0.9850634932518005
","x: 244.00689697265625
y: 447.054931640625
z: -0.04989005997776985
visibility: 0.9794206023216248
","x: 284.1217041015625
y: 502.67755126953125
z: 0.16251909732818604
visibility: 0.9867558479309082
","x: 237.50877380371094
y: 507.2662353515625
z: 0.11964776366949081
visibility: 0.9813767671585083
","x: 280.8871154785156
y: 510.51806640625
z: 0.17299747467041016
visibility: 0.905382513999939
","x: 237.65570068359375
y: 513.0552978515625
z: 0.13226813077926636
visibility: 0.826770544052124
","x: 290.9209899902344
y: 527.0369873046875
z: 0.06607277691364288
visibility: 0.9818770885467529
","x: 240.24610900878906
y: 530.1983032226562
z: 0.018336903303861618
visibility: 0.9778419733047485
",,,,,,,,,,,,,,,,,,,,,,5.549501180648804,,,,,,,,,,,,,,,,,,,,,
26,"x: 254.50390625
y: 249.16053771972656
z: -0.19803716242313385
visibility: 0.9999390840530396
","x: 256.3811340332031
y: 245.34361267089844
z: -0.17938342690467834
visibility: 0.9998040795326233
","x: 257.6086120605469
y: 245.83375549316406
z: -0.17940019071102142
visibility: 0.9998276829719543
","x: 258.8147888183594
y: 246.3995361328125
z: -0.17940929532051086
visibility: 0.9998180270195007
","x: 252.7498016357422
y: 244.45211791992188
z: -0.18459634482860565
visibility: 0.9997701644897461
","x: 251.32618713378906
y: 244.32440185546875
z: -0.18460538983345032
visibility: 0.9997451305389404
","x: 249.83168029785156
y: 244.26841735839844
z: -0.18462684750556946
visibility: 0.9996955394744873
","x: 260.61248779296875
y: 250.9097442626953
z: -0.06907082349061966
visibility: 0.9995248317718506
","x: 247.20225524902344
y: 248.40374755859375
z: -0.09453319013118744
visibility: 0.9992345571517944
","x: 256.390380859375
y: 257.2093811035156
z: -0.1565367430448532
visibility: 0.9998319745063782
","x: 251.59950256347656
y: 256.3146667480469
z: -0.1640814244747162
visibility: 0.9997791051864624
","x: 268.5116271972656
y: 282.3904113769531
z: 0.009623254649341106
visibility: 0.9999452829360962
","x: 235.9319305419922
y: 274.7683410644531
z: -0.066880002617836
visibility: 0.9998770952224731
","x: 281.39068603515625
y: 311.48291015625
z: -0.07312832027673721
visibility: 0.9782477021217346
","x: 217.28973388671875
y: 301.13555908203125
z: -0.15806642174720764
visibility: 0.982733428478241
","x: 274.533447265625
y: 313.3197937011719
z: -0.2975351810455322
visibility: 0.9755983948707581
","x: 237.26202392578125
y: 319.2015380859375
z: -0.2987977862358093
visibility: 0.9566630125045776
","x: 270.1296691894531
y: 321.1866760253906
z: -0.3207302987575531
visibility: 0.9478792548179626
","x: 240.7938995361328
y: 329.330810546875
z: -0.32589954137802124
visibility: 0.9131710529327393
","x: 266.77886962890625
y: 317.5335998535156
z: -0.3390630781650543
visibility: 0.9508580565452576
","x: 244.1475067138672
y: 327.6770324707031
z: -0.3717428743839264
visibility: 0.917506217956543
","x: 267.048828125
y: 315.1250305175781
z: -0.33590567111968994
visibility: 0.9341689944267273
","x: 243.68417358398438
y: 324.549560546875
z: -0.3256151080131531
visibility: 0.9018515348434448
","x: 261.1286315917969
y: 374.30352783203125
z: 0.034257154911756516
visibility: 0.9995800852775574
","x: 241.5116729736328
y: 373.33551025390625
z: -0.034392427653074265
visibility: 0.9994986057281494
","x: 271.03216552734375
y: 440.6805725097656
z: 0.02543415129184723
visibility: 0.9839377403259277
","x: 242.9756317138672
y: 442.6087951660156
z: -0.08504444360733032
visibility: 0.9809507727622986
","x: 266.47137451171875
y: 498.2370300292969
z: 0.18498370051383972
visibility: 0.9855908155441284
","x: 237.216064453125
y: 506.8871765136719
z: 0.013686860911548138
visibility: 0.9826074242591858
","x: 262.82952880859375
y: 504.59918212890625
z: 0.19573093950748444
visibility: 0.9052228331565857
","x: 237.3778076171875
y: 513.2528076171875
z: 0.018391769379377365
