uscmakers/ReverseChoreography/data/10_kilby_girl_the_backseat_lovers.csv
,NOSE,LEFT_EYE_INNER,LEFT_EYE,LEFT_EYE_OUTER,RIGHT_EYE_INNER,RIGHT_EYE,RIGHT_EYE_OUTER,LEFT_EAR,RIGHT_EAR,MOUTH_LEFT,MOUTH_RIGHT,LEFT_SHOULDER,RIGHT_SHOULDER,LEFT_ELBOW,RIGHT_ELBOW,LEFT_WRIST,RIGHT_WRIST,LEFT_PINKY,RIGHT_PINKY,LEFT_INDEX,RIGHT_INDEX,LEFT_THUMB,RIGHT_THUMB,LEFT_HIP,RIGHT_HIP,LEFT_KNEE,RIGHT_KNEE,LEFT_ANKLE,RIGHT_ANKLE,LEFT_HEEL,RIGHT_HEEL,LEFT_FOOT_INDEX,RIGHT_FOOT_INDEX,WRIST2,THUMB_CPC2,THUMB_MCP2,THUMB_IP2,THUMB_TIP2,INDEX_FINGER_MCP2,INDEX_FINGER_PIP2,INDEX_FINGER_DIP2,INDEX_FINGER_TIP2,MIDDLE_FINGER_MCP2,MIDDLE_FINGER_PIP2,MIDDLE_FINGER_DIP2,MIDDLE_FINGER_TIP2,RING_FINGER_PIP2,RING_FINGER_DIP2,RING_FINGER_TIP2,RING_FINGER_MCP2,PINKY_MCP2,PINKY_PIP2,PINKY_DIP2,PINKY_TIP2,TIMESTAMP,WRIST,THUMB_CPC,THUMB_MCP,THUMB_IP,THUMB_TIP,INDEX_FINGER_MCP,INDEX_FINGER_PIP,INDEX_FINGER_DIP,INDEX_FINGER_TIP,MIDDLE_FINGER_MCP,MIDDLE_FINGER_PIP,MIDDLE_FINGER_DIP,MIDDLE_FINGER_TIP,RING_FINGER_PIP,RING_FINGER_DIP,RING_FINGER_TIP,RING_FINGER_MCP,PINKY_MCP,PINKY_PIP,PINKY_DIP,PINKY_TIP
0,"x: 251.57135009765625
y: 242.45179748535156
z: -0.324754923582077
visibility: 0.9999902248382568
","x: 253.220703125
y: 235.56434631347656
z: -0.31369757652282715
visibility: 0.9999674558639526
","x: 254.76150512695312
y: 235.3229522705078
z: -0.31372007727622986
visibility: 0.9999723434448242
","x: 256.2178039550781
y: 235.0888214111328
z: -0.31375032663345337
visibility: 0.9999734163284302
","x: 248.93063354492188
y: 236.71145629882812
z: -0.3109291195869446
visibility: 0.9999607801437378
","x: 247.4906768798828
y: 237.23426818847656
z: -0.3109392523765564
visibility: 0.9999502897262573
","x: 246.13040161132812
y: 237.7030792236328
z: -0.3109036087989807
visibility: 0.9999357461929321
","x: 258.373046875
y: 238.18931579589844
z: -0.21920421719551086
visibility: 0.9999600648880005
","x: 243.9224853515625
y: 241.62066650390625
z: -0.2053147852420807
visibility: 0.9998519420623779
","x: 254.81715393066406
y: 250.1355743408203
z: -0.2873765230178833
visibility: 0.9999871253967285
","x: 249.234375
y: 250.34014892578125
z: -0.28354594111442566
visibility: 0.9999774694442749
","x: 271.0940246582031
y: 276.0924987792969
z: -0.15328001976013184
visibility: 0.9999954700469971
","x: 233.55230712890625
y: 283.0958251953125
z: -0.10037317126989365
visibility: 0.9999650716781616
","x: 278.4407653808594
y: 327.0289611816406
z: -0.14264827966690063
visibility: 0.9986727237701416
","x: 225.47000122070312
y: 330.22222900390625
z: -0.03140736371278763
visibility: 0.9786633253097534
","x: 264.83697509765625
y: 360.6187744140625
z: -0.26005685329437256
visibility: 0.9983246922492981
","x: 215.2344970703125
y: 371.7498779296875
z: -0.11503050476312637
visibility: 0.9775625467300415
","x: 261.0900573730469
y: 374.4864196777344
z: -0.2960531711578369
visibility: 0.9941574335098267
","x: 211.52203369140625
y: 385.83599853515625
z: -0.14196178317070007
visibility: 0.9577021598815918
","x: 257.3104248046875
y: 368.335693359375
z: -0.32169705629348755
visibility: 0.9942840933799744
","x: 212.7663116455078
y: 386.4119873046875
z: -0.1733780950307846
visibility: 0.960503339767456
","x: 257.5341491699219
y: 363.9834899902344
z: -0.27055636048316956
visibility: 0.9903367757797241
","x: 215.06629943847656
y: 382.5574951171875
z: -0.12965089082717896
visibility: 0.9504952430725098
","x: 263.3781433105469
y: 374.821044921875
z: -0.004450620152056217
visibility: 0.9996578693389893
","x: 238.05303955078125
y: 377.5555725097656
z: 0.0043944488279521465
visibility: 0.9998406171798706
","x: 274.1805114746094
y: 457.6212158203125
z: -0.013126300647854805
visibility: 0.9958513975143433
","x: 240.09744262695312
y: 457.39825439453125
z: -0.04132697731256485
visibility: 0.9967941641807556
","x: 282.30718994140625
y: 526.275634765625
z: 0.08621883392333984
visibility: 0.9956685304641724
","x: 239.5262451171875
y: 532.1851806640625
z: 0.04653850570321083
visibility: 0.9964963793754578
","x: 278.5936584472656
y: 536.837158203125
z: 0.08904358744621277
visibility: 0.9404537081718445
","x: 242.24072265625
y: 541.4371337890625
z: 0.047525618225336075
visibility: 0.9164114594459534
","x: 295.06793212890625
y: 553.15576171875
z: -0.031419869512319565
visibility: 0.9920807480812073
","x: 234.36279296875
y: 556.8553466796875
z: -0.0748603567481041
visibility: 0.9921006560325623
","x: 265.78033447265625
y: 359.036865234375
z: 0.0
","x: 261.38720703125
y: 358.7686767578125
z: -0.00018258490308653563
","x: 257.69512939453125
y: 362.8796081542969
z: -0.0010452185524627566
","x: 255.36245727539062
y: 368.16766357421875
z: -0.0017210383666679263
","x: 253.90179443359375
y: 372.3739929199219
z: -0.0023281092289835215
","x: 257.4076843261719
y: 365.8905334472656
z: -0.005255464930087328
","x: 253.2296905517578
y: 372.50885009765625
z: -0.006911427713930607
","x: 251.27500915527344
y: 376.22283935546875
z: -0.00651337718591094
","x: 250.17779541015625
y: 378.50286865234375
z: -0.005865162238478661
","x: 259.1570739746094
y: 369.2430419921875
z: -0.005853148177266121
","x: 255.165771484375
y: 376.85345458984375
z: -0.007517593912780285
","x: 253.22171020507812
y: 380.134765625
z: -0.0063588847406208515
","x: 252.07638549804688
y: 381.6210632324219
z: -0.0052987984381616116
","x: 261.00579833984375
y: 371.965576171875
z: -0.006144522689282894
","x: 257.599365234375
y: 379.40057373046875
z: -0.007877707481384277
","x: 255.61032104492188
y: 382.2662658691406
z: -0.0069236732088029385
","x: 254.26002502441406
y: 383.65911865234375
z: -0.006040321663022041
","x: 262.78289794921875
y: 373.90643310546875
z: -0.0063619306311011314
","x: 260.4825134277344
y: 380.10791015625
z: -0.007824400439858437
","x: 258.99847412109375
y: 382.4774475097656
z: -0.007460525259375572
","x: 257.7106628417969
y: 383.68267822265625
z: -0.006920734420418739
",3.670954704284668,,,,,,,,,,,,,,,,,,,,,
1,"x: 251.57135009765625
y: 242.45179748535156
z: -0.324754923582077
visibility: 0.9999902248382568
","x: 253.220703125
y: 235.56434631347656
z: -0.31369757652282715
visibility: 0.9999674558639526
","x: 254.76150512695312
y: 235.3229522705078
z: -0.31372007727622986
visibility: 0.9999723434448242
","x: 256.2178039550781
y: 235.0888214111328
z: -0.31375032663345337
visibility: 0.9999734163284302
","x: 248.93063354492188
y: 236.71145629882812
z: -0.3109291195869446
visibility: 0.9999607801437378
","x: 247.4906768798828
y: 237.23426818847656
z: -0.3109392523765564
visibility: 0.9999502897262573
","x: 246.13040161132812
y: 237.7030792236328
z: -0.3109036087989807
visibility: 0.9999357461929321
","x: 258.373046875
y: 238.18931579589844
z: -0.21920421719551086
visibility: 0.9999600648880005
","x: 243.9224853515625
y: 241.62066650390625
z: -0.2053147852420807
visibility: 0.9998519420623779
","x: 254.81715393066406
y: 250.1355743408203
z: -0.2873765230178833
visibility: 0.9999871253967285
","x: 249.234375
y: 250.34014892578125
z: -0.28354594111442566
visibility: 0.9999774694442749
","x: 271.0940246582031
y: 276.0924987792969
z: -0.15328001976013184
visibility: 0.9999954700469971
","x: 233.55230712890625
y: 283.0958251953125
z: -0.10037317126989365
visibility: 0.9999650716781616
","x: 278.4407653808594
y: 327.0289611816406
z: -0.14264827966690063
visibility: 0.9986727237701416
","x: 225.47000122070312
y: 330.22222900390625
z: -0.03140736371278763
visibility: 0.9786633253097534
","x: 264.83697509765625
y: 360.6187744140625
z: -0.26005685329437256
visibility: 0.9983246922492981
","x: 215.2344970703125
y: 371.7498779296875
z: -0.11503050476312637
visibility: 0.9775625467300415
","x: 261.0900573730469
y: 374.4864196777344
z: -0.2960531711578369
visibility: 0.9941574335098267
","x: 211.52203369140625
y: 385.83599853515625
z: -0.14196178317070007
visibility: 0.9577021598815918
","x: 257.3104248046875
y: 368.335693359375
z: -0.32169705629348755
visibility: 0.9942840933799744
","x: 212.7663116455078
y: 386.4119873046875
z: -0.1733780950307846
visibility: 0.960503339767456
","x: 257.5341491699219
y: 363.9834899902344
z: -0.27055636048316956
visibility: 0.9903367757797241
","x: 215.06629943847656
y: 382.5574951171875
z: -0.12965089082717896
visibility: 0.9504952430725098
","x: 263.3781433105469
y: 374.821044921875
z: -0.004450620152056217
visibility: 0.9996578693389893
","x: 238.05303955078125
y: 377.5555725097656
z: 0.0043944488279521465
visibility: 0.9998406171798706
","x: 274.1805114746094
y: 457.6212158203125
z: -0.013126300647854805
visibility: 0.9958513975143433
","x: 240.09744262695312
y: 457.39825439453125
z: -0.04132697731256485
visibility: 0.9967941641807556
","x: 282.30718994140625
y: 526.275634765625
z: 0.08621883392333984
visibility: 0.9956685304641724
","x: 239.5262451171875
y: 532.1851806640625
z: 0.04653850570321083
visibility: 0.9964963793754578
","x: 278.5936584472656
y: 536.837158203125
z: 0.08904358744621277
visibility: 0.9404537081718445
","x: 242.24072265625
y: 541.4371337890625
z: 0.047525618225336075
visibility: 0.9164114594459534
","x: 295.06793212890625
y: 553.15576171875
z: -0.031419869512319565
visibility: 0.9920807480812073
","x: 234.36279296875
y: 556.8553466796875
z: -0.0748603567481041
visibility: 0.9921006560325623
","x: 265.78033447265625
y: 359.036865234375
z: 0.0
","x: 261.38720703125
y: 358.7686767578125
z: -0.00018258490308653563
","x: 257.69512939453125
y: 362.8796081542969
z: -0.0010452185524627566
","x: 255.36245727539062
y: 368.16766357421875
z: -0.0017210383666679263
","x: 253.90179443359375
y: 372.3739929199219
z: -0.0023281092289835215
","x: 257.4076843261719
y: 365.8905334472656
z: -0.005255464930087328
","x: 253.2296905517578
y: 372.50885009765625
z: -0.006911427713930607
","x: 251.27500915527344
y: 376.22283935546875
z: -0.00651337718591094
","x: 250.17779541015625
y: 378.50286865234375
z: -0.005865162238478661
","x: 259.1570739746094
y: 369.2430419921875
z: -0.005853148177266121
","x: 255.165771484375
y: 376.85345458984375
z: -0.007517593912780285
","x: 253.22171020507812
y: 380.134765625
z: -0.0063588847406208515
","x: 252.07638549804688
y: 381.6210632324219
z: -0.0052987984381616116
","x: 261.00579833984375
y: 371.965576171875
z: -0.006144522689282894
","x: 257.599365234375
y: 379.40057373046875
z: -0.007877707481384277
","x: 255.61032104492188
y: 382.2662658691406
z: -0.0069236732088029385
","x: 254.26002502441406
y: 383.65911865234375
z: -0.006040321663022041
","x: 262.78289794921875
y: 373.90643310546875
z: -0.0063619306311011314
","x: 260.4825134277344
y: 380.10791015625
z: -0.007824400439858437
","x: 258.99847412109375
y: 382.4774475097656
z: -0.007460525259375572
","x: 257.7106628417969
y: 383.68267822265625
z: -0.006920734420418739
",3.670954704284668,,,,,,,,,,,,,,,,,,,,,
2,"x: 251.57135009765625
y: 242.45179748535156
z: -0.324754923582077
visibility: 0.9999902248382568
","x: 253.220703125
y: 235.56434631347656
z: -0.31369757652282715
visibility: 0.9999674558639526
","x: 254.76150512695312
y: 235.3229522705078
z: -0.31372007727622986
visibility: 0.9999723434448242
","x: 256.2178039550781
y: 235.0888214111328
z: -0.31375032663345337
visibility: 0.9999734163284302
","x: 248.93063354492188
y: 236.71145629882812
z: -0.3109291195869446
visibility: 0.9999607801437378
","x: 247.4906768798828
y: 237.23426818847656
z: -0.3109392523765564
visibility: 0.9999502897262573
","x: 246.13040161132812
y: 237.7030792236328
z: -0.3109036087989807
visibility: 0.9999357461929321
","x: 258.373046875
y: 238.18931579589844
z: -0.21920421719551086
visibility: 0.9999600648880005
","x: 243.9224853515625
y: 241.62066650390625
z: -0.2053147852420807
visibility: 0.9998519420623779
","x: 254.81715393066406
y: 250.1355743408203
z: -0.2873765230178833
visibility: 0.9999871253967285
","x: 249.234375
y: 250.34014892578125
z: -0.28354594111442566
visibility: 0.9999774694442749
","x: 271.0940246582031
y: 276.0924987792969
z: -0.15328001976013184
visibility: 0.9999954700469971
","x: 233.55230712890625
y: 283.0958251953125
z: -0.10037317126989365
visibility: 0.9999650716781616
","x: 278.4407653808594
y: 327.0289611816406
z: -0.14264827966690063
visibility: 0.9986727237701416
","x: 225.47000122070312
y: 330.22222900390625
z: -0.03140736371278763
visibility: 0.9786633253097534
","x: 264.83697509765625
y: 360.6187744140625
z: -0.26005685329437256
visibility: 0.9983246922492981
","x: 215.2344970703125
y: 371.7498779296875
z: -0.11503050476312637
visibility: 0.9775625467300415
","x: 261.0900573730469
y: 374.4864196777344
z: -0.2960531711578369
visibility: 0.9941574335098267
","x: 211.52203369140625
y: 385.83599853515625
z: -0.14196178317070007
visibility: 0.9577021598815918
","x: 257.3104248046875
y: 368.335693359375
z: -0.32169705629348755
visibility: 0.9942840933799744
","x: 212.7663116455078
y: 386.4119873046875
z: -0.1733780950307846
visibility: 0.960503339767456
","x: 257.5341491699219
y: 363.9834899902344
z: -0.27055636048316956
visibility: 0.9903367757797241
","x: 215.06629943847656
y: 382.5574951171875
z: -0.12965089082717896
visibility: 0.9504952430725098
","x: 263.3781433105469
y: 374.821044921875
z: -0.004450620152056217
visibility: 0.9996578693389893
","x: 238.05303955078125
y: 377.5555725097656
z: 0.0043944488279521465
visibility: 0.9998406171798706
","x: 274.1805114746094
y: 457.6212158203125
z: -0.013126300647854805
visibility: 0.9958513975143433
","x: 240.09744262695312
y: 457.39825439453125
z: -0.04132697731256485
visibility: 0.9967941641807556
","x: 282.30718994140625
y: 526.275634765625
z: 0.08621883392333984
visibility: 0.9956685304641724
","x: 239.5262451171875
y: 532.1851806640625
z: 0.04653850570321083
visibility: 0.9964963793754578
","x: 278.5936584472656
y: 536.837158203125
z: 0.08904358744621277
visibility: 0.9404537081718445
","x: 242.24072265625
y: 541.4371337890625
z: 0.047525618225336075
visibility: 0.9164114594459534
","x: 295.06793212890625
y: 553.15576171875
z: -0.031419869512319565
visibility: 0.9920807480812073
","x: 234.36279296875
y: 556.8553466796875
z: -0.0748603567481041
visibility: 0.9921006560325623
","x: 265.78033447265625
y: 359.036865234375
z: 0.0
","x: 261.38720703125
y: 358.7686767578125
z: -0.00018258490308653563
","x: 257.69512939453125
y: 362.8796081542969
z: -0.0010452185524627566
","x: 255.36245727539062
y: 368.16766357421875
z: -0.0017210383666679263
","x: 253.90179443359375
y: 372.3739929199219
z: -0.0023281092289835215
","x: 257.4076843261719
y: 365.8905334472656
z: -0.005255464930087328
","x: 253.2296905517578
y: 372.50885009765625
z: -0.006911427713930607
","x: 251.27500915527344
y: 376.22283935546875
z: -0.00651337718591094
","x: 250.17779541015625
y: 378.50286865234375
z: -0.005865162238478661
","x: 259.1570739746094
y: 369.2430419921875
z: -0.005853148177266121
","x: 255.165771484375
y: 376.85345458984375
z: -0.007517593912780285
","x: 253.22171020507812
y: 380.134765625
z: -0.0063588847406208515
","x: 252.07638549804688
y: 381.6210632324219
z: -0.0052987984381616116
","x: 261.00579833984375
y: 371.965576171875
z: -0.006144522689282894
","x: 257.599365234375
y: 379.40057373046875
z: -0.007877707481384277
","x: 255.61032104492188
y: 382.2662658691406
z: -0.0069236732088029385
","x: 254.26002502441406
y: 383.65911865234375
z: -0.006040321663022041
","x: 262.78289794921875
y: 373.90643310546875
z: -0.0063619306311011314
","x: 260.4825134277344
y: 380.10791015625
z: -0.007824400439858437
","x: 258.99847412109375
y: 382.4774475097656
z: -0.007460525259375572
","x: 257.7106628417969
y: 383.68267822265625
z: -0.006920734420418739
",3.670954704284668,,,,,,,,,,,,,,,,,,,,,
3,"x: 245.79800415039062
y: 240.56561279296875
z: -0.2833445072174072
visibility: 0.9999894499778748
","x: 247.2474822998047
y: 234.15951538085938
z: -0.2705290913581848
visibility: 0.9999643564224243
","x: 248.56031799316406
y: 234.10357666015625
z: -0.2705678939819336
visibility: 0.9999693036079407
","x: 249.92056274414062
y: 234.03358459472656
z: -0.2706071138381958
visibility: 0.9999702572822571
","x: 243.3376922607422
y: 234.73812866210938
z: -0.27083802223205566
visibility: 0.9999567866325378
","x: 241.81912231445312
y: 235.09024047851562
z: -0.2708550691604614
visibility: 0.9999461770057678
","x: 240.19349670410156
y: 235.5337371826172
z: -0.2708436846733093
visibility: 0.9999305605888367
","x: 251.8623504638672
y: 237.15110778808594
z: -0.17303583025932312
visibility: 0.9999566674232483
","x: 237.10267639160156
y: 239.85159301757812
z: -0.17529886960983276
visibility: 0.999843180179596
","x: 248.21536254882812
y: 248.0
z: -0.24539713561534882
visibility: 0.9999844431877136
","x: 243.45974731445312
y: 248.26620483398438
z: -0.24614551663398743
visibility: 0.9999735355377197
","x: 264.9615478515625
y: 275.92718505859375
z: -0.10050307214260101
visibility: 0.9999929070472717
","x: 226.59957885742188
y: 280.8138732910156
z: -0.09268047660589218
visibility: 0.9999544620513916
","x: 276.3516845703125
y: 322.1237487792969
z: -0.08311234414577484
visibility: 0.9977638125419617
","x: 219.38339233398438
y: 324.9173583984375
z: -0.09690740704536438
visibility: 0.9734724760055542
","x: 289.9678039550781
y: 354.49285888671875
z: -0.20104007422924042
visibility: 0.9976429343223572
","x: 210.018798828125
y: 351.9308166503906
z: -0.2454448640346527
visibility: 0.9729231595993042
","x: 297.86322021484375
y: 362.6233215332031
z: -0.22778551280498505
visibility: 0.9928290247917175
","x: 204.77114868164062
y: 359.9940185546875
z: -0.2759193181991577
visibility: 0.9515348672866821
","x: 299.5107116699219
y: 362.7419738769531
z: -0.2632993161678314
visibility: 0.9932761192321777
","x: 204.45510864257812
y: 360.20941162109375
z: -0.30640262365341187
visibility: 0.9552948474884033
","x: 296.7900085449219
y: 360.39501953125
z: -0.2184140980243683
visibility: 0.9893726110458374
","x: 207.03904724121094
y: 358.1280517578125
z: -0.2624555230140686
visibility: 0.9457427263259888
","x: 260.22637939453125
y: 374.8182373046875
z: -0.002328602597117424
visibility: 0.9995800852775574
","x: 235.98362731933594
y: 377.403076171875
z: 0.0023317798040807247
visibility: 0.9997773766517639
","x: 265.4281005859375
y: 457.89404296875
z: -0.009380022063851357
visibility: 0.9954556822776794
","x: 239.56333923339844
y: 457.8055419921875
z: -0.035873860120773315
visibility: 0.9963933825492859
","x: 268.128662109375
y: 526.4598999023438
z: 0.08615784347057343
visibility: 0.9949948787689209
","x: 239.5725860595703
y: 532.26416015625
z: 0.04695091396570206
visibility: 0.9959069490432739
","x: 265.0377197265625
y: 536.718505859375
z: 0.08823035657405853
visibility: 0.9304760694503784
","x: 242.16741943359375
y: 541.681640625
z: 0.047543954104185104
visibility: 0.9100291132926941
","x: 272.0753479003906
y: 554.146484375
z: -0.03412701189517975
visibility: 0.9911848306655884
","x: 235.39100646972656
y: 556.8421630859375
z: -0.07505260407924652
visibility: 0.9913739562034607
",,,,,,,,,,,,,,,,,,,,,,4.242353200912476,,,,,,,,,,,,,,,,,,,,,
4,"x: 245.79800415039062
y: 240.56561279296875
z: -0.2833445072174072
visibility: 0.9999894499778748
","x: 247.2474822998047
y: 234.15951538085938
z: -0.2705290913581848
visibility: 0.9999643564224243
","x: 248.56031799316406
y: 234.10357666015625
z: -0.2705678939819336
visibility: 0.9999693036079407
","x: 249.92056274414062
y: 234.03358459472656
z: -0.2706071138381958
visibility: 0.9999702572822571
","x: 243.3376922607422
y: 234.73812866210938
z: -0.27083802223205566
visibility: 0.9999567866325378
","x: 241.81912231445312
y: 235.09024047851562
z: -0.2708550691604614
visibility: 0.9999461770057678
","x: 240.19349670410156
y: 235.5337371826172
z: -0.2708436846733093
visibility: 0.9999305605888367
","x: 251.8623504638672
y: 237.15110778808594
z: -0.17303583025932312
visibility: 0.9999566674232483
","x: 237.10267639160156
y: 239.85159301757812
z: -0.17529886960983276
visibility: 0.999843180179596
","x: 248.21536254882812
y: 248.0
z: -0.24539713561534882
visibility: 0.9999844431877136
","x: 243.45974731445312
y: 248.26620483398438
z: -0.24614551663398743
visibility: 0.9999735355377197
","x: 264.9615478515625
y: 275.92718505859375
z: -0.10050307214260101
visibility: 0.9999929070472717
","x: 226.59957885742188
y: 280.8138732910156
z: -0.09268047660589218
visibility: 0.9999544620513916
","x: 276.3516845703125
y: 322.1237487792969
z: -0.08311234414577484
visibility: 0.9977638125419617
","x: 219.38339233398438
y: 324.9173583984375
z: -0.09690740704536438
visibility: 0.9734724760055542
","x: 289.9678039550781
y: 354.49285888671875
z: -0.20104007422924042
visibility: 0.9976429343223572
","x: 210.018798828125
y: 351.9308166503906
z: -0.2454448640346527
visibility: 0.9729231595993042
","x: 297.86322021484375
y: 362.6233215332031
z: -0.22778551280498505
visibility: 0.9928290247917175
","x: 204.77114868164062
y: 359.9940185546875
z: -0.2759193181991577
visibility: 0.9515348672866821
","x: 299.5107116699219
y: 362.7419738769531
z: -0.2632993161678314
visibility: 0.9932761192321777
","x: 204.45510864257812
y: 360.20941162109375
z: -0.30640262365341187
visibility: 0.9552948474884033
","x: 296.7900085449219
y: 360.39501953125
z: -0.2184140980243683
visibility: 0.9893726110458374
","x: 207.03904724121094
y: 358.1280517578125
z: -0.2624555230140686
visibility: 0.9457427263259888
","x: 260.22637939453125
y: 374.8182373046875
z: -0.002328602597117424
visibility: 0.9995800852775574
","x: 235.98362731933594
y: 377.403076171875
z: 0.0023317798040807247
visibility: 0.9997773766517639
","x: 265.4281005859375
y: 457.89404296875
z: -0.009380022063851357
visibility: 0.9954556822776794
","x: 239.56333923339844
y: 457.8055419921875
z: -0.035873860120773315
visibility: 0.9963933825492859
","x: 268.128662109375
y: 526.4598999023438
z: 0.08615784347057343
visibility: 0.9949948787689209
","x: 239.5725860595703
y: 532.26416015625
z: 0.04695091396570206
visibility: 0.9959069490432739
","x: 265.0377197265625
y: 536.718505859375
z: 0.08823035657405853
visibility: 0.9304760694503784
","x: 242.16741943359375
y: 541.681640625
z: 0.047543954104185104
visibility: 0.9100291132926941
","x: 272.0753479003906
y: 554.146484375
z: -0.03412701189517975
visibility: 0.9911848306655884
","x: 235.39100646972656
y: 556.8421630859375
z: -0.07505260407924652
visibility: 0.9913739562034607
",,,,,,,,,,,,,,,,,,,,,,4.242353200912476,,,,,,,,,,,,,,,,,,,,,
5,"x: 246.89901733398438
y: 240.5056915283203
z: -0.16023556888103485
visibility: 0.9999868273735046
","x: 248.39466857910156
y: 234.1674041748047
z: -0.1454641968011856
visibility: 0.99996018409729
","x: 249.81497192382812
y: 234.07528686523438
z: -0.14555124938488007
visibility: 0.9999645948410034
","x: 251.19618225097656
y: 233.95794677734375
z: -0.1456085592508316
visibility: 0.9999656677246094
","x: 244.3388214111328
y: 234.74172973632812
z: -0.14623841643333435
visibility: 0.9999494552612305
","x: 242.86843872070312
y: 235.02981567382812
z: -0.14622798562049866
visibility: 0.9999361634254456
","x: 241.34141540527344
y: 235.34994506835938
z: -0.1461862474679947
visibility: 0.9999207258224487
","x: 253.1214599609375
y: 236.56405639648438
z: -0.04457620531320572
visibility: 0.9999520778656006
","x: 238.52642822265625
y: 238.79347229003906
z: -0.04904096573591232
visibility: 0.9998299479484558
","x: 249.59747314453125
y: 247.7678680419922
z: -0.1213088184595108
visibility: 0.9999783635139465
","x: 244.48843383789062
y: 247.82342529296875
z: -0.1226397305727005
visibility: 0.9999659061431885
","x: 265.8120422363281
y: 274.79510498046875
z: 0.00433368282392621
visibility: 0.9999910593032837
","x: 227.55245971679688
y: 275.83221435546875
z: 0.024134863168001175
visibility: 0.999939501285553
","x: 275.05487060546875
y: 317.4504699707031
z: -0.04057023674249649
visibility: 0.9929099082946777
","x: 218.16455078125
y: 317.938720703125
z: -0.039857249706983566
visibility: 0.9651368856430054
","x: 286.23223876953125
y: 332.737060546875
z: -0.22013309597969055
visibility: 0.9955132603645325
","x: 208.5569305419922
y: 326.83270263671875
z: -0.23101666569709778
visibility: 0.9699221253395081
","x: 292.6949462890625
y: 334.75958251953125
z: -0.25737518072128296
visibility: 0.9900466203689575
","x: 202.78733825683594
y: 329.6096496582031
z: -0.2707635164260864
visibility: 0.9490312337875366
","x: 293.9537658691406
y: 333.1156921386719
z: -0.2871796488761902
visibility: 0.9909794926643372
","x: 201.93817138671875
y: 325.6277770996094
z: -0.2969474792480469
visibility: 0.9534139633178711
","x: 290.525146484375
y: 333.32794189453125
z: -0.2366122305393219
visibility: 0.9865677356719971
","x: 204.78598022460938
y: 324.0420227050781
z: -0.2483253926038742
visibility: 0.9440369606018066
","x: 260.4935302734375
y: 372.1960754394531
z: -0.002678923076018691
visibility: 0.9995787143707275
","x: 236.00509643554688
y: 376.1534118652344
z: 0.002745781559497118
visibility: 0.9997479915618896
","x: 267.10009765625
y: 457.09722900390625
z: -0.04060501977801323
visibility: 0.995570719242096
","x: 239.62277221679688
y: 457.36102294921875
z: -0.029136478900909424
visibility: 0.9963124394416809
","x: 272.20611572265625
y: 528.2959594726562
z: 0.02547581121325493
visibility: 0.9951493740081787
","x: 239.8089599609375
y: 531.4925537109375
z: 0.048443689942359924
visibility: 0.9958930611610413
","x: 269.306884765625
y: 539.839111328125
z: 0.024080704897642136
visibility: 0.9299983382225037
","x: 242.30313110351562
y: 541.0298461914062
z: 0.04832294210791588
visibility: 0.9113112688064575
","x: 277.4792175292969
y: 554.4061889648438
z: -0.10314226150512695
visibility: 0.9913832545280457
","x: 235.52975463867188
y: 556.8509521484375
z: -0.07232259958982468
visibility: 0.9913729429244995
",,,,,,,,,,,,,,,,,,,,,,4.372267484664917,,,,,,,,,,,,,,,,,,,,,
6,"x: 246.89901733398438
y: 240.5056915283203
z: -0.16023556888103485
visibility: 0.9999868273735046
","x: 248.39466857910156
y: 234.1674041748047
z: -0.1454641968011856
visibility: 0.99996018409729
","x: 249.81497192382812
y: 234.07528686523438
z: -0.14555124938488007
visibility: 0.9999645948410034
","x: 251.19618225097656
y: 233.95794677734375
z: -0.1456085592508316
visibility: 0.9999656677246094
","x: 244.3388214111328
y: 234.74172973632812
z: -0.14623841643333435
visibility: 0.9999494552612305
","x: 242.86843872070312
y: 235.02981567382812
z: -0.14622798562049866
visibility: 0.9999361634254456
","x: 241.34141540527344
y: 235.34994506835938
z: -0.1461862474679947
visibility: 0.9999207258224487
","x: 253.1214599609375
y: 236.56405639648438
z: -0.04457620531320572
visibility: 0.9999520778656006
","x: 238.52642822265625
y: 238.79347229003906
z: -0.04904096573591232
visibility: 0.9998299479484558
","x: 249.59747314453125
y: 247.7678680419922
z: -0.1213088184595108
visibility: 0.9999783635139465
","x: 244.48843383789062
y: 247.82342529296875
z: -0.1226397305727005
visibility: 0.9999659061431885
","x: 265.8120422363281
y: 274.79510498046875
z: 0.00433368282392621
visibility: 0.9999910593032837
","x: 227.55245971679688
y: 275.83221435546875
z: 0.024134863168001175
visibility: 0.999939501285553
","x: 275.05487060546875
y: 317.4504699707031
z: -0.04057023674249649
visibility: 0.9929099082946777
","x: 218.16455078125
y: 317.938720703125
z: -0.039857249706983566
visibility: 0.9651368856430054
","x: 286.23223876953125
y: 332.737060546875
z: -0.22013309597969055
visibility: 0.9955132603645325
","x: 208.5569305419922
y: 326.83270263671875
z: -0.23101666569709778
visibility: 0.9699221253395081
","x: 292.6949462890625
y: 334.75958251953125
z: -0.25737518072128296
visibility: 0.9900466203689575
","x: 202.78733825683594
y: 329.6096496582031
z: -0.2707635164260864
visibility: 0.9490312337875366
","x: 293.9537658691406
y: 333.1156921386719
z: -0.2871796488761902
visibility: 0.9909794926643372
","x: 201.93817138671875
y: 325.6277770996094
z: -0.2969474792480469
visibility: 0.9534139633178711
","x: 290.525146484375
y: 333.32794189453125
z: -0.2366122305393219
visibility: 0.9865677356719971
","x: 204.78598022460938
y: 324.0420227050781
z: -0.2483253926038742
visibility: 0.9440369606018066
","x: 260.4935302734375
y: 372.1960754394531
z: -0.002678923076018691
visibility: 0.9995787143707275
","x: 236.00509643554688
y: 376.1534118652344
z: 0.002745781559497118
visibility: 0.9997479915618896
","x: 267.10009765625
y: 457.09722900390625
z: -0.04060501977801323
visibility: 0.995570719242096
","x: 239.62277221679688
y: 457.36102294921875
z: -0.029136478900909424
visibility: 0.9963124394416809
","x: 272.20611572265625
y: 528.2959594726562
z: 0.02547581121325493
visibility: 0.9951493740081787
","x: 239.8089599609375
y: 531.4925537109375
z: 0.048443689942359924
visibility: 0.9958930611610413
","x: 269.306884765625
y: 539.839111328125
z: 0.024080704897642136
visibility: 0.9299983382225037
","x: 242.30313110351562
y: 541.0298461914062
z: 0.04832294210791588
visibility: 0.9113112688064575
","x: 277.4792175292969
y: 554.4061889648438
z: -0.10314226150512695
visibility: 0.9913832545280457
","x: 235.52975463867188
y: 556.8509521484375
z: -0.07232259958982468
visibility: 0.9913729429244995
",,,,,,,,,,,,,,,,,,,,,,4.372267484664917,,,,,,,,,,,,,,,,,,,,,
7,"x: 251.1677703857422
y: 239.93511962890625
z: -0.13962313532829285
visibility: 0.9999836087226868
","x: 252.91929626464844
y: 234.01190185546875
z: -0.12394446134567261
visibility: 0.9999555349349976
","x: 254.17478942871094
y: 234.02508544921875
z: -0.12400810420513153
visibility: 0.999959409236908
","x: 255.45452880859375
y: 233.96620178222656
z: -0.12404868751764297
visibility: 0.99996018409729
","x: 249.07797241210938
y: 234.02386474609375
z: -0.1244310513138771
visibility: 0.9999417662620544
","x: 247.50640869140625
y: 234.058837890625
z: -0.12442078441381454
visibility: 0.9999264478683472
","x: 245.82785034179688
y: 234.08860778808594
z: -0.12440035492181778
visibility: 0.9999116063117981
","x: 257.1969299316406
y: 236.56210327148438
z: -0.023498913273215294
visibility: 0.9999455809593201
","x: 242.15724182128906
y: 236.94378662109375
z: -0.026859913021326065
visibility: 0.9998169541358948
","x: 252.8612060546875
y: 247.30426025390625
z: -0.10150554031133652
visibility: 0.9999740719795227
","x: 248.27001953125
y: 246.67498779296875
z: -0.10265503078699112
visibility: 0.9999609589576721
","x: 268.40936279296875
y: 274.84527587890625
z: 0.028723198920488358
visibility: 0.9999866485595703
","x: 229.8130645751953
y: 274.4075622558594
z: 0.04558883234858513
visibility: 0.9999246597290039
","x: 279.36419677734375
y: 318.1247863769531
z: -0.046657007187604904
visibility: 0.9899026155471802
","x: 220.48294067382812
y: 318.85870361328125
z: -0.030043229460716248
visibility: 0.957293689250946
","x: 286.98724365234375
y: 315.1238708496094
z: -0.220698282122612
visibility: 0.9941269159317017
","x: 213.86451721191406
y: 311.4618225097656
z: -0.24890820682048798
visibility: 0.9696480631828308
","x: 292.73187255859375
y: 314.7828063964844
z: -0.2696229815483093
visibility: 0.9876519441604614
","x: 207.20120239257812
y: 305.7287902832031
z: -0.29010462760925293
visibility: 0.949419379234314
","x: 291.9667663574219
y: 310.4610900878906
z: -0.29365307092666626
visibility: 0.988659679889679
","x: 205.42263793945312
y: 298.77276611328125
z: -0.30465927720069885
visibility: 0.9536001086235046
","x: 288.6570129394531
y: 310.6164245605469
z: -0.2427392452955246
visibility: 0.9832918047904968
","x: 209.12255859375
y: 303.1061706542969
z: -0.26155585050582886
visibility: 0.9439986944198608
","x: 262.28314208984375
y: 374.0879821777344
z: -0.00268040644004941
visibility: 0.9995678663253784
","x: 237.742431640625
y: 376.3711853027344
z: 0.002747311955317855
visibility: 0.999724268913269
","x: 268.2271728515625
y: 459.27606201171875
z: -0.022638441994786263
visibility: 0.9958155155181885
","x: 240.2455291748047
y: 457.473876953125
z: -0.014326942153275013
visibility: 0.9964512586593628
","x: 273.92950439453125
y: 530.141845703125
z: 0.07619699835777283
visibility: 0.9953535795211792
","x: 239.81117248535156
y: 531.3696899414062
z: 0.09756232798099518
visibility: 0.9960604310035706
","x: 270.62969970703125
y: 540.3333740234375
z: 0.07832412421703339
visibility: 0.9300665855407715
","x: 242.3026885986328
y: 541.0191650390625
z: 0.10115150362253189
visibility: 0.9145127534866333
","x: 280.25921630859375
y: 556.7525024414062
z: -0.045655257999897
visibility: 0.991654634475708
","x: 235.50628662109375
y: 556.9508056640625
z: -0.016107400879263878
visibility: 0.991737961769104
",,,,,,,,,,,,,,,,,,,,,,4.493445873260498,,,,,,,,,,,,,,,,,,,,,
8,"x: 251.1677703857422
y: 239.93511962890625
z: -0.13962313532829285
visibility: 0.9999836087226868
","x: 252.91929626464844
y: 234.01190185546875
z: -0.12394446134567261
visibility: 0.9999555349349976
","x: 254.17478942871094
y: 234.02508544921875
z: -0.12400810420513153
visibility: 0.999959409236908
","x: 255.45452880859375
y: 233.96620178222656
z: -0.12404868751764297
visibility: 0.99996018409729
","x: 249.07797241210938
y: 234.02386474609375
z: -0.1244310513138771
visibility: 0.9999417662620544
","x: 247.50640869140625
y: 234.058837890625
z: -0.12442078441381454
visibility: 0.9999264478683472
","x: 245.82785034179688
y: 234.08860778808594
z: -0.12440035492181778
visibility: 0.9999116063117981
","x: 257.1969299316406
y: 236.56210327148438
z: -0.023498913273215294
visibility: 0.9999455809593201
","x: 242.15724182128906
y: 236.94378662109375
z: -0.026859913021326065
visibility: 0.9998169541358948
","x: 252.8612060546875
y: 247.30426025390625
z: -0.10150554031133652
visibility: 0.9999740719795227
","x: 248.27001953125
y: 246.67498779296875
z: -0.10265503078699112
visibility: 0.9999609589576721
","x: 268.40936279296875
y: 274.84527587890625
z: 0.028723198920488358
visibility: 0.9999866485595703
","x: 229.8130645751953
y: 274.4075622558594
z: 0.04558883234858513
visibility: 0.9999246597290039
","x: 279.36419677734375
y: 318.1247863769531
z: -0.046657007187604904
visibility: 0.9899026155471802
","x: 220.48294067382812
y: 318.85870361328125
z: -0.030043229460716248
visibility: 0.957293689250946
","x: 286.98724365234375
y: 315.1238708496094
z: -0.220698282122612
visibility: 0.9941269159317017
","x: 213.86451721191406
y: 311.4618225097656
z: -0.24890820682048798
visibility: 0.9696480631828308
","x: 292.73187255859375
y: 314.7828063964844
z: -0.2696229815483093
visibility: 0.9876519441604614
","x: 207.20120239257812
y: 305.7287902832031
z: -0.29010462760925293
visibility: 0.949419379234314
","x: 291.9667663574219
y: 310.4610900878906
z: -0.29365307092666626
visibility: 0.988659679889679
","x: 205.42263793945312
y: 298.77276611328125
z: -0.30465927720069885
visibility: 0.9536001086235046
","x: 288.6570129394531
y: 310.6164245605469
z: -0.2427392452955246
visibility: 0.9832918047904968
","x: 209.12255859375
y: 303.1061706542969
z: -0.26155585050582886
visibility: 0.9439986944198608
","x: 262.28314208984375
y: 374.0879821777344
z: -0.00268040644004941
visibility: 0.9995678663253784
","x: 237.742431640625
y: 376.3711853027344
z: 0.002747311955317855
visibility: 0.999724268913269
","x: 268.2271728515625
y: 459.27606201171875
z: -0.022638441994786263
visibility: 0.9958155155181885
","x: 240.2455291748047
y: 457.473876953125
z: -0.014326942153275013
visibility: 0.9964512586593628
","x: 273.92950439453125
y: 530.141845703125
z: 0.07619699835777283
visibility: 0.9953535795211792
","x: 239.81117248535156
y: 531.3696899414062
z: 0.09756232798099518
visibility: 0.9960604310035706
","x: 270.62969970703125
y: 540.3333740234375
z: 0.07832412421703339
visibility: 0.9300665855407715
","x: 242.3026885986328
y: 541.0191650390625
z: 0.10115150362253189
visibility: 0.9145127534866333
","x: 280.25921630859375
y: 556.7525024414062
z: -0.045655257999897
visibility: 0.991654634475708
","x: 235.50628662109375
y: 556.9508056640625
z: -0.016107400879263878
visibility: 0.991737961769104
",,,,,,,,,,,,,,,,,,,,,,4.493445873260498,,,,,,,,,,,,,,,,,,,,,
9,"x: 259.5983581542969
y: 238.75755310058594
z: -0.14454922080039978
visibility: 0.9999824166297913
","x: 261.2527160644531
y: 233.37802124023438
z: -0.12918493151664734
visibility: 0.9999549984931946
","x: 262.49005126953125
y: 233.49154663085938
z: -0.12924234569072723
visibility: 0.9999581575393677
","x: 263.70672607421875
y: 233.53697204589844
z: -0.1292760670185089
visibility: 0.9999588131904602
","x: 257.183349609375
y: 233.1289825439453
z: -0.12950804829597473
visibility: 0.9999397397041321
","x: 255.638916015625
y: 233.17364501953125
z: -0.12950187921524048
visibility: 0.9999236464500427
","x: 254.1585693359375
y: 233.28848266601562
z: -0.1294902265071869
visibility: 0.9999099969863892
","x: 265.2327880859375
y: 236.34063720703125
z: -0.0270418468862772
visibility: 0.9999431371688843
","x: 251.05215454101562
y: 236.58631896972656
z: -0.029847988858819008
visibility: 0.9998200535774231
","x: 261.60101318359375
y: 245.7810821533203
z: -0.10554882138967514
visibility: 0.9999725222587585
","x: 256.5882568359375
y: 245.29214477539062
z: -0.1064855232834816
visibility: 0.9999603033065796
","x: 275.7467346191406
y: 274.87017822265625
z: 0.029745256528258324
visibility: 0.9999836087226868
","x: 237.8780059814453
y: 275.173095703125
z: 0.043979302048683167
visibility: 0.9999184012413025
","x: 283.50067138671875
y: 320.08221435546875
z: -0.05328919738531113
visibility: 0.9866748452186584
","x: 228.9946746826172
y: 320.1749267578125
z: -0.027492696419358253
visibility: 0.9521734714508057
","x: 290.62200927734375
y: 310.6079406738281
z: -0.2554064393043518
visibility: 0.9932246804237366
","x: 223.481689453125
y: 313.0421142578125
z: -0.2438514232635498
visibility: 0.9687318801879883
","x: 296.1034240722656
y: 308.70703125
z: -0.2997986674308777
visibility: 0.9862576127052307
","x: 220.56488037109375
y: 308.681640625
z: -0.2833924889564514
visibility: 0.9484540224075317
","x: 295.4952697753906
y: 303.11090087890625
z: -0.3108488917350769
visibility: 0.9873193502426147
","x: 220.42869567871094
y: 303.6021728515625
z: -0.2972422242164612
visibility: 0.9525490999221802
","x: 292.7702941894531
y: 303.19390869140625
z: -0.2676734924316406
visibility: 0.9812386631965637
","x: 221.88250732421875
y: 305.5415954589844
z: -0.25568896532058716
visibility: 0.9426016807556152
","x: 268.65606689453125
y: 375.474365234375
z: -0.0012677614577114582
visibility: 0.9995677471160889
","x: 243.65512084960938
y: 376.5402526855469
z: 0.0013430387480184436
visibility: 0.9997115731239319
","x: 269.7655944824219
y: 461.00408935546875
z: -0.020200025290250778
visibility: 0.9960265159606934
","x: 243.36976623535156
y: 458.3053283691406
z: -0.020629506558179855
visibility: 0.9965807795524597
","x: 274.643798828125
y: 531.40478515625
z: 0.0958571583032608
visibility: 0.995539665222168
","x: 239.82884216308594
y: 531.4191284179688
z: 0.09612692892551422
visibility: 0.9961999654769897
","x: 272.1390686035156
y: 540.9900512695312
z: 0.09972546249628067
visibility: 0.9298056960105896
","x: 242.26312255859375
y: 540.9954223632812
z: 0.1002427190542221
visibility: 0.9161373376846313
","x: 280.6748046875
y: 557.5257568359375
z: -0.024190371856093407
visibility: 0.9918902516365051
","x: 235.50595092773438
y: 557.166259765625
z: -0.020981604233384132
visibility: 0.9920419454574585
",,,,,,,,,,,,,,,,,,,,,,4.634762763977051,,,,,,,,,,,,,,,,,,,,,
10,"x: 259.5983581542969
y: 238.75755310058594
z: -0.14454922080039978
visibility: 0.9999824166297913
","x: 261.2527160644531
y: 233.37802124023438
z: -0.12918493151664734
visibility: 0.9999549984931946
","x: 262.49005126953125
y: 233.49154663085938
z: -0.12924234569072723
visibility: 0.9999581575393677
","x: 263.70672607421875
y: 233.53697204589844
z: -0.1292760670185089
visibility: 0.9999588131904602
","x: 257.183349609375
y: 233.1289825439453
z: -0.12950804829597473
visibility: 0.9999397397041321
","x: 255.638916015625
y: 233.17364501953125
z: -0.12950187921524048
visibility: 0.9999236464500427
","x: 254.1585693359375
y: 233.28848266601562
z: -0.1294902265071869
visibility: 0.9999099969863892
","x: 265.2327880859375
y: 236.34063720703125
z: -0.0270418468862772
visibility: 0.9999431371688843
","x: 251.05215454101562
y: 236.58631896972656
z: -0.029847988858819008
visibility: 0.9998200535774231
","x: 261.60101318359375
y: 245.7810821533203
z: -0.10554882138967514
visibility: 0.9999725222587585
","x: 256.5882568359375
y: 245.29214477539062
z: -0.1064855232834816
visibility: 0.9999603033065796
","x: 275.7467346191406
y: 274.87017822265625
z: 0.029745256528258324
visibility: 0.9999836087226868
","x: 237.8780059814453
y: 275.173095703125
z: 0.043979302048683167
visibility: 0.9999184012413025
","x: 283.50067138671875
y: 320.08221435546875
z: -0.05328919738531113
visibility: 0.9866748452186584
","x: 228.9946746826172
y: 320.1749267578125
z: -0.027492696419358253
visibility: 0.9521734714508057
","x: 290.62200927734375
y: 310.6079406738281
z: -0.2554064393043518
visibility: 0.9932246804237366
","x: 223.481689453125
y: 313.0421142578125
z: -0.2438514232635498
visibility: 0.9687318801879883
","x: 296.1034240722656
y: 308.70703125
z: -0.2997986674308777
visibility: 0.9862576127052307
","x: 220.56488037109375
y: 308.681640625
z: -0.2833924889564514
visibility: 0.9484540224075317
","x: 295.4952697753906
y: 303.11090087890625
z: -0.3108488917350769
visibility: 0.9873193502426147
","x: 220.42869567871094
y: 303.6021728515625
z: -0.2972422242164612
visibility: 0.9525490999221802
","x: 292.7702941894531
y: 303.19390869140625
z: -0.2676734924316406
visibility: 0.9812386631965637
","x: 221.88250732421875
y: 305.5415954589844
z: -0.25568896532058716
visibility: 0.9426016807556152
","x: 268.65606689453125
y: 375.474365234375
z: -0.0012677614577114582
visibility: 0.9995677471160889
","x: 243.65512084960938
y: 376.5402526855469
z: 0.0013430387480184436
visibility: 0.9997115731239319
","x: 269.7655944824219
y: 461.00408935546875
z: -0.020200025290250778
visibility: 0.9960265159606934
","x: 243.36976623535156
y: 458.3053283691406
z: -0.020629506558179855
visibility: 0.9965807795524597
","x: 274.643798828125
y: 531.40478515625
z: 0.0958571583032608
visibility: 0.995539665222168
","x: 239.82884216308594
y: 531.4191284179688
z: 0.09612692892551422
visibility: 0.9961999654769897
","x: 272.1390686035156
y: 540.9900512695312
z: 0.09972546249628067
visibility: 0.9298056960105896
","x: 242.26312255859375
y: 540.9954223632812
z: 0.1002427190542221
visibility: 0.9161373376846313
","x: 280.6748046875
y: 557.5257568359375
z: -0.024190371856093407
visibility: 0.9918902516365051
","x: 235.50595092773438
y: 557.166259765625
z: -0.020981604233384132
visibility: 0.9920419454574585
",,,,,,,,,,,,,,,,,,,,,,4.634762763977051,,,,,,,,,,,,,,,,,,,,,
11,"x: 267.2450256347656
y: 238.75668334960938
z: -0.17170237004756927
visibility: 0.9999810457229614
","x: 269.2835693359375
y: 233.29754638671875
z: -0.15617093443870544
visibility: 0.9999547004699707
","x: 270.6242370605469
y: 233.42359924316406
z: -0.1562240719795227
visibility: 0.999957263469696
","x: 271.8035583496094
y: 233.509521484375
z: -0.1562732309103012
visibility: 0.9999579787254333
","x: 264.9864501953125
y: 233.06430053710938
z: -0.15536858141422272
visibility: 0.9999372363090515
","x: 263.4316101074219
y: 233.0990753173828
z: -0.1553681492805481
visibility: 0.9999198913574219
","x: 261.87353515625
y: 233.18251037597656
z: -0.15535977482795715
visibility: 0.999906599521637
","x: 273.95928955078125
y: 236.357421875
z: -0.05049862712621689
visibility: 0.9999419450759888
","x: 259.4969787597656
y: 236.4856719970703
z: -0.04846474900841713
visibility: 0.9998167157173157
","x: 269.5579528808594
y: 245.7630157470703
z: -0.1315515786409378
visibility: 0.9999719262123108
","x: 264.0133972167969
y: 245.3771209716797
z: -0.13111570477485657
visibility: 0.9999592900276184
","x: 285.1054382324219
y: 275.10064697265625
z: 0.010571744292974472
visibility: 0.9999794363975525
","x: 246.72030639648438
y: 274.7424621582031
z: 0.027852315455675125
visibility: 0.9998956918716431
","x: 291.755615234375
y: 323.596923828125
z: -0.06761669367551804
visibility: 0.9835989475250244
","x: 237.72972106933594
y: 319.30450439453125
z: -0.049441054463386536
visibility: 0.9396684169769287
","x: 298.5679626464844
y: 313.0937805175781
z: -0.2654799222946167
visibility: 0.9918289184570312
","x: 229.62460327148438
y: 309.4040222167969
z: -0.2843063771724701
visibility: 0.9609933495521545
","x: 302.40484619140625
y: 309.9627990722656
z: -0.30614030361175537
visibility: 0.9837830066680908
","x: 225.22645568847656
y: 302.670166015625
z: -0.32599955797195435
visibility: 0.9386876821517944
","x: 302.2591247558594
y: 304.3570861816406
z: -0.316517174243927
visibility: 0.9849556684494019
","x: 225.64788818359375
y: 299.6844482421875
z: -0.3392690122127533
visibility: 0.9431661367416382
","x: 299.7200012207031
y: 304.7073974609375
z: -0.2753351330757141
visibility: 0.9775987863540649
","x: 227.89752197265625
y: 302.2481689453125
z: -0.2968348264694214
visibility: 0.932000994682312
","x: 274.53936767578125
y: 376.9395751953125
z: 0.0008214668487198651
visibility: 0.9995723366737366
","x: 249.14137268066406
y: 376.5845031738281
z: -0.000785115931648761
visibility: 0.999696671962738
","x: 273.6568603515625
y: 463.2320861816406
z: -0.02350449189543724
visibility: 0.9962376952171326
","x: 245.91659545898438
y: 461.5128173828125
z: -0.023726318031549454
visibility: 0.9967015385627747
","x: 275.2886962890625
y: 531.6636352539062
z: 0.13512948155403137
visibility: 0.9957503080368042
","x: 240.3403778076172
y: 531.2955322265625
z: 0.12390518188476562
visibility: 0.996396541595459
","x: 272.328857421875
y: 540.873779296875
z: 0.14412687718868256
visibility: 0.930960476398468
","x: 242.52073669433594
y: 540.6122436523438
z: 0.13137927651405334
visibility: 0.9186738133430481
","x: 281.1282043457031
y: 558.3272094726562
z: 0.01869634911417961
visibility: 0.9922124147415161
","x: 235.72242736816406
y: 557.4297485351562
z: 0.004058758728206158
visibility: 0.9924705624580383
",,,,,,,,,,,,,,,,,,,,,,4.790899038314819,,,,,,,,,,,,,,,,,,,,,
12,"x: 267.2450256347656
y: 238.75668334960938
z: -0.17170237004756927
visibility: 0.9999810457229614
","x: 269.2835693359375
y: 233.29754638671875
z: -0.15617093443870544
visibility: 0.9999547004699707
","x: 270.6242370605469
y: 233.42359924316406
z: -0.1562240719795227
visibility: 0.999957263469696
","x: 271.8035583496094
y: 233.509521484375
z: -0.1562732309103012
visibility: 0.9999579787254333
","x: 264.9864501953125
y: 233.06430053710938
z: -0.15536858141422272
visibility: 0.9999372363090515
","x: 263.4316101074219
y: 233.0990753173828
z: -0.1553681492805481
visibility: 0.9999198913574219
","x: 261.87353515625
y: 233.18251037597656
z: -0.15535977482795715
visibility: 0.999906599521637
","x: 273.95928955078125
y: 236.357421875
z: -0.05049862712621689
visibility: 0.9999419450759888
","x: 259.4969787597656
y: 236.4856719970703
z: -0.04846474900841713
visibility: 0.9998167157173157
","x: 269.5579528808594
y: 245.7630157470703
z: -0.1315515786409378
visibility: 0.9999719262123108
","x: 264.0133972167969
y: 245.3771209716797
z: -0.13111570477485657
visibility: 0.9999592900276184
","x: 285.1054382324219
y: 275.10064697265625
z: 0.010571744292974472
visibility: 0.9999794363975525
","x: 246.72030639648438
y: 274.7424621582031
z: 0.027852315455675125
visibility: 0.9998956918716431
","x: 291.755615234375
y: 323.596923828125
z: -0.06761669367551804
visibility: 0.9835989475250244
","x: 237.72972106933594
y: 319.30450439453125
z: -0.049441054463386536
visibility: 0.9396684169769287
","x: 298.5679626464844
y: 313.0937805175781
z: -0.2654799222946167
visibility: 0.9918289184570312
","x: 229.62460327148438
y: 309.4040222167969
z: -0.2843063771724701
visibility: 0.9609933495521545
","x: 302.40484619140625
y: 309.9627990722656
z: -0.30614030361175537
visibility: 0.9837830066680908
","x: 225.22645568847656
y: 302.670166015625
z: -0.32599955797195435
visibility: 0.9386876821517944
","x: 302.2591247558594
y: 304.3570861816406
z: -0.316517174243927
visibility: 0.9849556684494019
","x: 225.64788818359375
y: 299.6844482421875
z: -0.3392690122127533
visibility: 0.9431661367416382
","x: 299.7200012207031
y: 304.7073974609375
z: -0.2753351330757141
visibility: 0.9775987863540649
","x: 227.89752197265625
y: 302.2481689453125
z: -0.2968348264694214
visibility: 0.932000994682312
","x: 274.53936767578125
y: 376.9395751953125
z: 0.0008214668487198651
visibility: 0.9995723366737366
","x: 249.14137268066406
y: 376.5845031738281
z: -0.000785115931648761
visibility: 0.999696671962738
","x: 273.6568603515625
y: 463.2320861816406
z: -0.02350449189543724
visibility: 0.9962376952171326
","x: 245.91659545898438
y: 461.5128173828125
z: -0.023726318031549454
visibility: 0.9967015385627747
","x: 275.2886962890625
y: 531.6636352539062
z: 0.13512948155403137
visibility: 0.9957503080368042
","x: 240.3403778076172
y: 531.2955322265625
z: 0.12390518188476562
visibility: 0.996396541595459
","x: 272.328857421875
y: 540.873779296875
z: 0.14412687718868256
visibility: 0.930960476398468
","x: 242.52073669433594
y: 540.6122436523438
z: 0.13137927651405334
visibility: 0.9186738133430481
","x: 281.1282043457031
y: 558.3272094726562
z: 0.01869634911417961
visibility: 0.9922124147415161
","x: 235.72242736816406
y: 557.4297485351562
z: 0.004058758728206158
visibility: 0.9924705624580383
",,,,,,,,,,,,,,,,,,,,,,4.790899038314819,,,,,,,,,,,,,,,,,,,,,
13,"x: 271.09320068359375
y: 238.84347534179688
z: -0.1732320487499237
visibility: 0.9999818205833435
","x: 274.01654052734375
y: 233.3135986328125
z: -0.1580924391746521
visibility: 0.9999572038650513
","x: 275.57403564453125
y: 233.46896362304688
z: -0.15814357995986938
visibility: 0.9999592900276184
","x: 276.968505859375
y: 233.64752197265625
z: -0.15818940103054047
visibility: 0.9999598860740662
","x: 269.34454345703125
y: 233.12615966796875
z: -0.15631358325481415
visibility: 0.9999406337738037
","x: 267.89520263671875
y: 233.12542724609375
z: -0.15631356835365295
visibility: 0.9999240040779114
","x: 266.5233459472656
y: 233.15341186523438
z: -0.15629301965236664
visibility: 0.9999119639396667
","x: 279.04718017578125
y: 236.73861694335938
z: -0.056670866906642914
visibility: 0.9999449253082275
","x: 264.59320068359375
y: 236.14468383789062
z: -0.04988369718194008
visibility: 0.9998291730880737
","x: 273.454345703125
y: 245.85910034179688
z: -0.13467898964881897
visibility: 0.9999732971191406
","x: 267.7402038574219
y: 245.55691528320312
z: -0.13278892636299133
visibility: 0.9999616146087646
","x: 289.2005920410156
y: 276.5337219238281
z: 0.002707714680582285
visibility: 0.999978244304657
","x: 250.9741668701172
y: 275.0525207519531
z: 0.03155515342950821
visibility: 0.9998971223831177
","x: 296.09307861328125
y: 327.59161376953125
z: -0.06903745234012604
visibility: 0.9824572205543518
","x: 240.26220703125
y: 320.6833190917969
z: -0.03123815357685089
visibility: 0.9356393218040466
","x: 303.645263671875
y: 314.3429260253906
z: -0.26538342237472534
visibility: 0.9914199709892273
","x: 232.28311157226562
y: 315.76788330078125
z: -0.24321019649505615
visibility: 0.9607534408569336
","x: 307.09326171875
y: 310.0525207519531
z: -0.30533021688461304
visibility: 0.9830759167671204
","x: 227.522705078125
y: 310.83349609375
z: -0.28191280364990234
visibility: 0.9383222460746765
","x: 306.9783020019531
y: 305.4067077636719
z: -0.3183591365814209
visibility: 0.98427414894104
","x: 227.57492065429688
y: 305.552734375
z: -0.2981468141078949
visibility: 0.942781925201416
","x: 305.1466979980469
y: 306.1990966796875
z: -0.27585214376449585
visibility: 0.976590633392334
","x: 229.7974395751953
y: 307.7176513671875
z: -0.2560994327068329
visibility: 0.9315804839134216
","x: 279.90899658203125
y: 376.9905090332031
z: -0.0004634363576769829
visibility: 0.9995816349983215
","x: 255.05633544921875
y: 376.5960388183594
z: 0.0005421991227194667
visibility: 0.9997000098228455
","x: 276.4375915527344
y: 463.16534423828125
z: -0.028698066249489784
visibility: 0.996437668800354
","x: 247.75033569335938
y: 461.49346923828125
z: -0.02528715506196022
visibility: 0.9968529343605042
","x: 275.4646911621094
y: 532.691162109375
z: 0.11786069720983505
visibility: 0.9958911538124084
","x: 241.73687744140625
y: 530.4284057617188
z: 0.10958103835582733
visibility: 0.9965884685516357
","x: 273.1099853515625
y: 543.0159301757812
z: 0.12489426136016846
visibility: 0.9315142035484314
","x: 243.9075927734375
y: 540.3773803710938
z: 0.1151980608701706
visibility: 0.9223514199256897
","x: 280.71630859375
y: 558.4702758789062
z: 0.004030806943774223
visibility: 0.9924241304397583
","x: 235.73631286621094
y: 556.5947265625
z: -0.006807786878198385
visibility: 0.9928383231163025
",,,,,,,,,,,,,,,,,,,,,,4.902275085449219,,,,,,,,,,,,,,,,,,,,,
14,"x: 271.09320068359375
y: 238.84347534179688
z: -0.1732320487499237
visibility: 0.9999818205833435
","x: 274.01654052734375
y: 233.3135986328125
z: -0.1580924391746521
visibility: 0.9999572038650513
","x: 275.57403564453125
y: 233.46896362304688
z: -0.15814357995986938
visibility: 0.9999592900276184
","x: 276.968505859375
y: 233.64752197265625
z: -0.15818940103054047
visibility: 0.9999598860740662
","x: 269.34454345703125
y: 233.12615966796875
z: -0.15631358325481415
visibility: 0.9999406337738037
","x: 267.89520263671875
y: 233.12542724609375
z: -0.15631356835365295
visibility: 0.9999240040779114
","x: 266.5233459472656
y: 233.15341186523438
z: -0.15629301965236664
visibility: 0.9999119639396667
","x: 279.04718017578125
y: 236.73861694335938
z: -0.056670866906642914
visibility: 0.9999449253082275
","x: 264.59320068359375
y: 236.14468383789062
z: -0.04988369718194008
visibility: 0.9998291730880737
","x: 273.454345703125
y: 245.85910034179688
z: -0.13467898964881897
visibility: 0.9999732971191406
","x: 267.7402038574219
y: 245.55691528320312
z: -0.13278892636299133
visibility: 0.9999616146087646
","x: 289.2005920410156
y: 276.5337219238281
z: 0.002707714680582285
visibility: 0.999978244304657
","x: 250.9741668701172
y: 275.0525207519531
z: 0.03155515342950821
visibility: 0.9998971223831177
","x: 296.09307861328125
y: 327.59161376953125
z: -0.06903745234012604
visibility: 0.9824572205543518
","x: 240.26220703125
y: 320.6833190917969
z: -0.03123815357685089
visibility: 0.9356393218040466
","x: 303.645263671875
y: 314.3429260253906
z: -0.26538342237472534
visibility: 0.9914199709892273
","x: 232.28311157226562
y: 315.76788330078125
z: -0.24321019649505615
visibility: 0.9607534408569336
","x: 307.09326171875
y: 310.0525207519531
z: -0.30533021688461304
visibility: 0.9830759167671204
","x: 227.522705078125
y: 310.83349609375
z: -0.28191280364990234
visibility: 0.9383222460746765
","x: 306.9783020019531
y: 305.4067077636719
z: -0.3183591365814209
visibility: 0.98427414894104
","x: 227.57492065429688
y: 305.552734375
z: -0.2981468141078949
visibility: 0.942781925201416
","x: 305.1466979980469
y: 306.1990966796875
z: -0.27585214376449585
visibility: 0.976590633392334
","x: 229.7974395751953
y: 307.7176513671875
z: -0.2560994327068329
visibility: 0.9315804839134216
","x: 279.90899658203125
y: 376.9905090332031
z: -0.0004634363576769829
visibility: 0.9995816349983215
","x: 255.05633544921875
y: 376.5960388183594
z: 0.0005421991227194667
visibility: 0.9997000098228455
","x: 276.4375915527344
y: 463.16534423828125
z: -0.028698066249489784
visibility: 0.996437668800354
","x: 247.75033569335938
y: 461.49346923828125
z: -0.02528715506196022
visibility: 0.9968529343605042
","x: 275.4646911621094
y: 532.691162109375
z: 0.11786069720983505
visibility: 0.9958911538124084
","x: 241.73687744140625
y: 530.4284057617188
z: 0.10958103835582733
visibility: 0.9965884685516357
","x: 273.1099853515625
y: 543.0159301757812
z: 0.12489426136016846
visibility: 0.9315142035484314
","x: 243.9075927734375
y: 540.3773803710938
z: 0.1151980608701706
visibility: 0.9223514199256897
","x: 280.71630859375
y: 558.4702758789062
z: 0.004030806943774223
visibility: 0.9924241304397583
","x: 235.73631286621094
y: 556.5947265625
z: -0.006807786878198385
visibility: 0.9928383231163025
",,,,,,,,,,,,,,,,,,,,,,4.902275085449219,,,,,,,,,,,,,,,,,,,,,
15,"x: 271.85955810546875
y: 238.9107666015625
z: -0.15704837441444397
visibility: 0.9999829530715942
","x: 274.08526611328125
y: 233.28585815429688
z: -0.14141562581062317
visibility: 0.9999603629112244
","x: 275.53704833984375
y: 233.4464874267578
z: -0.14146067202091217
visibility: 0.9999621510505676
","x: 277.04833984375
y: 233.64279174804688
z: -0.14148440957069397
visibility: 0.9999626874923706
","x: 270.09442138671875
y: 233.17689514160156
z: -0.1401478797197342
visibility: 0.9999451041221619
","x: 268.7044677734375
y: 233.21078491210938
z: -0.14015859365463257
visibility: 0.999929666519165
","x: 267.1482238769531
y: 233.26170349121094
z: -0.140141561627388
visibility: 0.9999186992645264
","x: 279.9533996582031
y: 236.8226776123047
z: -0.03725018724799156
visibility: 0.9999487996101379
","x: 265.1236267089844
y: 236.3018798828125
z: -0.03325372561812401
visibility: 0.9998431205749512
","x: 274.0113220214844
y: 245.9849395751953
z: -0.11765334755182266
visibility: 0.9999750256538391
","x: 269.268798828125
y: 245.67933654785156
z: -0.11653389036655426
visibility: 0.9999642372131348
","x: 290.7019958496094
y: 276.5234680175781
z: 0.023543909192085266
visibility: 0.9999768137931824
","x: 252.71981811523438
y: 275.379638671875
z: 0.04561299830675125
visibility: 0.9998986124992371
","x: 298.97686767578125
y: 328.16131591796875
z: -0.07190243899822235
visibility: 0.9830572009086609
","x: 241.9149932861328
y: 321.71783447265625
z: -0.023669123649597168
visibility: 0.9336877465248108
","x: 301.5090637207031
y: 305.1841125488281
z: -0.2866804301738739
visibility: 0.9917194843292236
","x: 232.5629425048828
y: 311.1099548339844
z: -0.24621322751045227
visibility: 0.9618051052093506
","x: 303.4963073730469
y: 298.2709655761719
z: -0.329769492149353
visibility: 0.9834240674972534
","x: 227.67117309570312
y: 303.5332946777344
z: -0.2862572968006134
visibility: 0.9397860765457153
","x: 302.861083984375
y: 292.5417175292969
z: -0.3361901044845581
visibility: 0.9845438599586487
","x: 227.6435546875
y: 297.8002624511719
z: -0.300647109746933
visibility: 0.9440004229545593
","x: 301.5719909667969
y: 295.3594665527344
z: -0.2945759892463684
visibility: 0.9768544435501099
","x: 230.30996704101562
y: 301.1689453125
z: -0.2582889497280121
visibility: 0.9326538443565369
","x: 281.3254089355469
y: 377.44146728515625
z: -0.0004103045503143221
visibility: 0.9995709657669067
","x: 256.4626770019531
y: 375.7766418457031
z: 0.000490496982820332
visibility: 0.9996957182884216
","x: 278.02386474609375
y: 463.4830322265625
z: -0.015394220128655434
visibility: 0.99647057056427
","x: 249.3778076171875
y: 461.356201171875
z: -0.02737884595990181
visibility: 0.9969065189361572
","x: 275.511474609375
y: 533.3592529296875
z: 0.11639595031738281
visibility: 0.995846152305603
","x: 241.2664337158203
y: 533.8341674804688
z: 0.09491472691297531
visibility: 0.9966497421264648
","x: 273.4263000488281
y: 543.5723876953125
z: 0.1218397244811058
visibility: 0.9322330355644226
","x: 242.64141845703125
y: 543.875732421875
z: 0.0976114273071289
visibility: 0.9229567646980286
","x: 281.1105041503906
y: 558.5113525390625
z: 0.0018036507535725832
visibility: 0.9923490881919861
","x: 235.3253173828125
y: 556.5986328125
z: -0.03463376685976982
visibility: 0.9928942918777466
","x: 298.32843017578125
y: 306.0477600097656
z: 0.0
","x: 297.0386047363281
y: 301.67626953125
z: -0.001000413321889937
","x: 297.6168212890625
y: 296.0690002441406
z: -0.002422504359856248
","x: 298.62738037109375
y: 292.5063781738281
z: -0.004504057578742504
","x: 299.6307067871094
y: 289.3285827636719
z: -0.006460698787122965
","x: 301.9802551269531
y: 290.8844299316406
z: -0.0005857037613168359
","x: 303.5516052246094
y: 285.33319091796875
z: -0.0034979786723852158
","x: 304.11517333984375
y: 281.70111083984375
z: -0.0050581712275743484
","x: 304.20025634765625
y: 278.7469482421875
z: -0.006053705234080553
","x: 303.5271911621094
y: 293.19451904296875
z: -0.002668003784492612
","x: 306.9595031738281
y: 287.3287353515625
z: -0.00582617474719882
","x: 307.8828125
y: 282.9797058105469
z: -0.007337110582739115
","x: 308.193603515625
y: 279.51861572265625
z: -0.008213060908019543
","x: 304.2123107910156
y: 296.8113708496094
z: -0.005270767956972122
","x: 305.6595764160156
y: 292.2791748046875
z: -0.008741913363337517
","x: 303.16668701171875
y: 292.4107971191406
z: -0.008541516028344631
","x: 301.1480407714844
y: 293.3656005859375
z: -0.00764001440256834
","x: 304.1680908203125
y: 301.2308349609375
z: -0.008245245553553104
","x: 305.00164794921875
y: 297.9342346191406
z: -0.010909926146268845
","x: 303.37530517578125
y: 297.40838623046875
z: -0.010845808312296867
","x: 301.81671142578125
y: 297.73480224609375
z: -0.01017688401043415
",5.043069839477539,,,,,,,,,,,,,,,,,,,,,
16,"x: 271.85955810546875
y: 238.9107666015625
z: -0.15704837441444397
visibility: 0.9999829530715942
","x: 274.08526611328125
y: 233.28585815429688
z: -0.14141562581062317
visibility: 0.9999603629112244
","x: 275.53704833984375
y: 233.4464874267578
z: -0.14146067202091217
visibility: 0.9999621510505676
","x: 277.04833984375
y: 233.64279174804688
z: -0.14148440957069397
visibility: 0.9999626874923706
","x: 270.09442138671875
y: 233.17689514160156
z: -0.1401478797197342
visibility: 0.9999451041221619
","x: 268.7044677734375
y: 233.21078491210938
z: -0.14015859365463257
visibility: 0.999929666519165
","x: 267.1482238769531
y: 233.26170349121094
z: -0.140141561627388
visibility: 0.9999186992645264
","x: 279.9533996582031
y: 236.8226776123047
z: -0.03725018724799156
visibility: 0.9999487996101379
","x: 265.1236267089844
y: 236.3018798828125
z: -0.03325372561812401
visibility: 0.9998431205749512
","x: 274.0113220214844
y: 245.9849395751953
z: -0.11765334755182266
visibility: 0.9999750256538391
","x: 269.268798828125
y: 245.67933654785156
z: -0.11653389036655426
visibility: 0.9999642372131348
","x: 290.7019958496094
y: 276.5234680175781
z: 0.023543909192085266
visibility: 0.9999768137931824
","x: 252.71981811523438
y: 275.379638671875
z: 0.04561299830675125
visibility: 0.9998986124992371
","x: 298.97686767578125
y: 328.16131591796875
z: -0.07190243899822235
visibility: 0.9830572009086609
","x: 241.9149932861328
y: 321.71783447265625
z: -0.023669123649597168
visibility: 0.9336877465248108
","x: 301.5090637207031
y: 305.1841125488281
z: -0.2866804301738739
visibility: 0.9917194843292236
","x: 232.5629425048828
y: 311.1099548339844
z: -0.24621322751045227
visibility: 0.9618051052093506
","x: 303.4963073730469
y: 298.2709655761719
z: -0.329769492149353
visibility: 0.9834240674972534
","x: 227.67117309570312
y: 303.5332946777344
z: -0.2862572968006134
visibility: 0.9397860765457153
","x: 302.861083984375
y: 292.5417175292969
z: -0.3361901044845581
visibility: 0.9845438599586487
","x: 227.6435546875
y: 297.8002624511719
z: -0.300647109746933
visibility: 0.9440004229545593
","x: 301.5719909667969
y: 295.3594665527344
z: -0.2945759892463684
visibility: 0.9768544435501099
","x: 230.30996704101562
y: 301.1689453125
z: -0.2582889497280121
visibility: 0.9326538443565369
","x: 281.3254089355469
y: 377.44146728515625
z: -0.0004103045503143221
visibility: 0.9995709657669067
","x: 256.4626770019531
y: 375.7766418457031
z: 0.000490496982820332
visibility: 0.9996957182884216
","x: 278.02386474609375
y: 463.4830322265625
z: -0.015394220128655434
visibility: 0.99647057056427
","x: 249.3778076171875
y: 461.356201171875
z: -0.02737884595990181
visibility: 0.9969065189361572
","x: 275.511474609375
y: 533.3592529296875
z: 0.11639595031738281
visibility: 0.995846152305603
","x: 241.2664337158203
y: 533.8341674804688
z: 0.09491472691297531
visibility: 0.9966497421264648
","x: 273.4263000488281
y: 543.5723876953125
z: 0.1218397244811058
visibility: 0.9322330355644226
","x: 242.64141845703125
y: 543.875732421875
z: 0.0976114273071289
visibility: 0.9229567646980286
","x: 281.1105041503906
y: 558.5113525390625
z: 0.0018036507535725832
visibility: 0.9923490881919861
","x: 235.3253173828125
y: 556.5986328125
z: -0.03463376685976982
visibility: 0.9928942918777466
","x: 298.32843017578125
y: 306.0477600097656
z: 0.0
","x: 297.0386047363281
y: 301.67626953125
z: -0.001000413321889937
","x: 297.6168212890625
y: 296.0690002441406
z: -0.002422504359856248
","x: 298.62738037109375
y: 292.5063781738281
z: -0.004504057578742504
","x: 299.6307067871094
y: 289.3285827636719
z: -0.006460698787122965
","x: 301.9802551269531
y: 290.8844299316406
z: -0.0005857037613168359
","x: 303.5516052246094
y: 285.33319091796875
z: -0.0034979786723852158
","x: 304.11517333984375
y: 281.70111083984375
z: -0.0050581712275743484
","x: 304.20025634765625
y: 278.7469482421875
z: -0.006053705234080553
","x: 303.5271911621094
y: 293.19451904296875
z: -0.002668003784492612
","x: 306.9595031738281
y: 287.3287353515625
z: -0.00582617474719882
","x: 307.8828125
y: 282.9797058105469
z: -0.007337110582739115
","x: 308.193603515625
y: 279.51861572265625
z: -0.008213060908019543
","x: 304.2123107910156
y: 296.8113708496094
z: -0.005270767956972122
","x: 305.6595764160156
y: 292.2791748046875
z: -0.008741913363337517
","x: 303.16668701171875
y: 292.4107971191406
z: -0.008541516028344631
","x: 301.1480407714844
y: 293.3656005859375
z: -0.00764001440256834
","x: 304.1680908203125
y: 301.2308349609375
z: -0.008245245553553104
","x: 305.00164794921875
y: 297.9342346191406
z: -0.010909926146268845
","x: 303.37530517578125
y: 297.40838623046875
z: -0.010845808312296867
","x: 301.81671142578125
y: 297.73480224609375
z: -0.01017688401043415
",5.043069839477539,,,,,,,,,,,,,,,,,,,,,
17,"x: 271.85955810546875
y: 238.9107666015625
z: -0.15704837441444397
visibility: 0.9999829530715942
","x: 274.08526611328125
y: 233.28585815429688
z: -0.14141562581062317
visibility: 0.9999603629112244
","x: 275.53704833984375
y: 233.4464874267578
z: -0.14146067202091217
visibility: 0.9999621510505676
","x: 277.04833984375
y: 233.64279174804688
z: -0.14148440957069397
visibility: 0.9999626874923706
","x: 270.09442138671875
y: 233.17689514160156
z: -0.1401478797197342
visibility: 0.9999451041221619
","x: 268.7044677734375
y: 233.21078491210938
z: -0.14015859365463257
visibility: 0.999929666519165
","x: 267.1482238769531
y: 233.26170349121094
z: -0.140141561627388
visibility: 0.9999186992645264
","x: 279.9533996582031
y: 236.8226776123047
z: -0.03725018724799156
visibility: 0.9999487996101379
","x: 265.1236267089844
y: 236.3018798828125
z: -0.03325372561812401
visibility: 0.9998431205749512
","x: 274.0113220214844
y: 245.9849395751953
z: -0.11765334755182266
visibility: 0.9999750256538391
","x: 269.268798828125
y: 245.67933654785156
z: -0.11653389036655426
visibility: 0.9999642372131348
","x: 290.7019958496094
y: 276.5234680175781
z: 0.023543909192085266
visibility: 0.9999768137931824
","x: 252.71981811523438
y: 275.379638671875
z: 0.04561299830675125
visibility: 0.9998986124992371
","x: 298.97686767578125
y: 328.16131591796875
z: -0.07190243899822235
visibility: 0.9830572009086609
","x: 241.9149932861328
y: 321.71783447265625
z: -0.023669123649597168
visibility: 0.9336877465248108
","x: 301.5090637207031
y: 305.1841125488281
z: -0.2866804301738739
visibility: 0.9917194843292236
","x: 232.5629425048828
y: 311.1099548339844
z: -0.24621322751045227
visibility: 0.9618051052093506
","x: 303.4963073730469
y: 298.2709655761719
z: -0.329769492149353
visibility: 0.9834240674972534
","x: 227.67117309570312
y: 303.5332946777344
z: -0.2862572968006134
visibility: 0.9397860765457153
","x: 302.861083984375
y: 292.5417175292969
z: -0.3361901044845581
visibility: 0.9845438599586487
","x: 227.6435546875
y: 297.8002624511719
z: -0.300647109746933
visibility: 0.9440004229545593
","x: 301.5719909667969
y: 295.3594665527344
z: -0.2945759892463684
visibility: 0.9768544435501099
","x: 230.30996704101562
y: 301.1689453125
z: -0.2582889497280121
visibility: 0.9326538443565369
","x: 281.3254089355469
y: 377.44146728515625
z: -0.0004103045503143221
visibility: 0.9995709657669067
","x: 256.4626770019531
y: 375.7766418457031
z: 0.000490496982820332
visibility: 0.9996957182884216
","x: 278.02386474609375
y: 463.4830322265625
z: -0.015394220128655434
visibility: 0.99647057056427
","x: 249.3778076171875
y: 461.356201171875
z: -0.02737884595990181
visibility: 0.9969065189361572
","x: 275.511474609375
y: 533.3592529296875
z: 0.11639595031738281
visibility: 0.995846152305603
","x: 241.2664337158203
y: 533.8341674804688
z: 0.09491472691297531
visibility: 0.9966497421264648
","x: 273.4263000488281
y: 543.5723876953125
z: 0.1218397244811058
visibility: 0.9322330355644226
","x: 242.64141845703125
y: 543.875732421875
z: 0.0976114273071289
visibility: 0.9229567646980286
","x: 281.1105041503906
y: 558.5113525390625
z: 0.0018036507535725832
visibility: 0.9923490881919861
","x: 235.3253173828125
y: 556.5986328125
z: -0.03463376685976982
visibility: 0.9928942918777466
","x: 298.32843017578125
y: 306.0477600097656
z: 0.0
","x: 297.0386047363281
y: 301.67626953125
z: -0.001000413321889937
","x: 297.6168212890625
y: 296.0690002441406
z: -0.002422504359856248
","x: 298.62738037109375
y: 292.5063781738281
z: -0.004504057578742504
","x: 299.6307067871094
y: 289.3285827636719
z: -0.006460698787122965
","x: 301.9802551269531
y: 290.8844299316406
z: -0.0005857037613168359
","x: 303.5516052246094
y: 285.33319091796875
z: -0.0034979786723852158
","x: 304.11517333984375
y: 281.70111083984375
z: -0.0050581712275743484
","x: 304.20025634765625
y: 278.7469482421875
z: -0.006053705234080553
","x: 303.5271911621094
y: 293.19451904296875
z: -0.002668003784492612
","x: 306.9595031738281
y: 287.3287353515625
z: -0.00582617474719882
","x: 307.8828125
y: 282.9797058105469
z: -0.007337110582739115
","x: 308.193603515625
y: 279.51861572265625
z: -0.008213060908019543
","x: 304.2123107910156
y: 296.8113708496094
z: -0.005270767956972122
","x: 305.6595764160156
y: 292.2791748046875
z: -0.008741913363337517
","x: 303.16668701171875
y: 292.4107971191406
z: -0.008541516028344631
","x: 301.1480407714844
y: 293.3656005859375
z: -0.00764001440256834
","x: 304.1680908203125
y: 301.2308349609375
z: -0.008245245553553104
","x: 305.00164794921875
y: 297.9342346191406
z: -0.010909926146268845
","x: 303.37530517578125
y: 297.40838623046875
z: -0.010845808312296867
","x: 301.81671142578125
y: 297.73480224609375
z: -0.01017688401043415
",5.043069839477539,,,,,,,,,,,,,,,,,,,,,
18,"x: 271.1235046386719
y: 238.5942840576172
z: -0.11628705263137817
visibility: 0.9999838471412659
","x: 273.3025207519531
y: 232.743408203125
z: -0.09859122335910797
visibility: 0.9999632239341736
","x: 274.5195617675781
y: 232.96278381347656
z: -0.09862957894802094
visibility: 0.9999645948410034
","x: 275.93414306640625
y: 233.22259521484375
z: -0.09867428988218307
visibility: 0.9999651908874512
","x: 269.3038024902344
y: 232.466064453125
z: -0.09904424846172333
visibility: 0.9999491572380066
","x: 267.74285888671875
y: 232.4618377685547
z: -0.09906011074781418
visibility: 0.9999348521232605
","x: 266.181640625
y: 232.42735290527344
z: -0.09902147203683853
visibility: 0.9999251365661621
","x: 278.7402038574219
y: 236.82928466796875
z: 0.0061286562122404575
visibility: 0.9999520182609558
","x: 263.68359375
y: 235.8131103515625
z: 0.0014913261402398348
visibility: 0.9998564720153809
","x: 273.4106140136719
y: 245.98654174804688
z: -0.0773380920290947
visibility: 0.9999763369560242
","x: 268.045166015625
y: 245.3255615234375
z: -0.07875226438045502
visibility: 0.9999665021896362
","x: 289.78570556640625
y: 276.5146179199219
z: 0.05794302746653557
visibility: 0.9999732375144958
","x: 252.17153930664062
y: 275.52923583984375
z: 0.07097472995519638
visibility: 0.9998984336853027
","x: 298.59814453125
y: 328.57440185546875
z: -0.050660036504268646
visibility: 0.9829568862915039
","x: 240.87518310546875
y: 322.74884033203125
z: 0.0004494607856031507
visibility: 0.929427444934845
","x: 297.11859130859375
y: 292.11370849609375
z: -0.24990598857402802
visibility: 0.9915540814399719
","x: 231.3954620361328
y: 308.5162658691406
z: -0.21530897915363312
visibility: 0.9610936045646667
","x: 297.8188781738281
y: 280.18902587890625
z: -0.2924216091632843
visibility: 0.982776403427124
","x: 226.17286682128906
y: 300.3860778808594
z: -0.25736135244369507
visibility: 0.9388427734375
","x: 297.21368408203125
y: 275.2487487792969
z: -0.28773200511932373
visibility: 0.9837324619293213
","x: 225.99452209472656
y: 294.07391357421875
z: -0.2659241557121277
visibility: 0.9428226947784424
","x: 296.0876159667969
y: 279.2461853027344
z: -0.25334057211875916
visibility: 0.9755362868309021
","x: 228.48728942871094
y: 297.5931396484375
z: -0.22579345107078552
visibility: 0.9309846758842468
","x: 281.4333190917969
y: 377.3900146484375
z: 0.0016780653968453407
visibility: 0.9995807409286499
","x: 256.1245422363281
y: 375.1939392089844
z: -0.001596519723534584
visibility: 0.9997007846832275
","x: 278.52374267578125
y: 463.60125732421875
z: -0.00054755131714046
visibility: 0.996501624584198
","x: 248.80491638183594
y: 461.4796447753906
z: -0.02753010019659996
visibility: 0.9969053864479065
","x: 275.57293701171875
y: 533.1138916015625
z: 0.1350460797548294
visibility: 0.9957055449485779
","x: 238.69369506835938
y: 534.309326171875
z: 0.09124335646629333
visibility: 0.9966438412666321
","x: 273.6203918457031
y: 543.2273559570312
z: 0.14163854718208313
visibility: 0.9308285117149353
","x: 238.47500610351562
y: 544.5625
z: 0.0948580801486969
visibility: 0.9211568832397461
","x: 281.083984375
y: 558.5078735351562
z: 0.025788098573684692
visibility: 0.9920249581336975
","x: 233.15475463867188
y: 557.0894775390625
z: -0.03171352297067642
visibility: 0.992725133895874
",,,,,,,,,,,,,,,,,,,,,,5.155827522277832,,,,,,,,,,,,,,,,,,,,,
19,"x: 271.1235046386719
y: 238.5942840576172
z: -0.11628705263137817
visibility: 0.9999838471412659
","x: 273.3025207519531
y: 232.743408203125
z: -0.09859122335910797
visibility: 0.9999632239341736
","x: 274.5195617675781
y: 232.96278381347656
z: -0.09862957894802094
visibility: 0.9999645948410034
","x: 275.93414306640625
y: 233.22259521484375
z: -0.09867428988218307
visibility: 0.9999651908874512
","x: 269.3038024902344
y: 232.466064453125
z: -0.09904424846172333
visibility: 0.9999491572380066
","x: 267.74285888671875
y: 232.4618377685547
z: -0.09906011074781418
visibility: 0.9999348521232605
","x: 266.181640625
y: 232.42735290527344
z: -0.09902147203683853
visibility: 0.9999251365661621
","x: 278.7402038574219
y: 236.82928466796875
z: 0.0061286562122404575
visibility: 0.9999520182609558
","x: 263.68359375
y: 235.8131103515625
z: 0.0014913261402398348
visibility: 0.9998564720153809
","x: 273.4106140136719
y: 245.98654174804688
z: -0.0773380920290947
visibility: 0.9999763369560242
","x: 268.045166015625
y: 245.3255615234375
z: -0.07875226438045502
visibility: 0.9999665021896362
","x: 289.78570556640625
y: 276.5146179199219
z: 0.05794302746653557
visibility: 0.9999732375144958
","x: 252.17153930664062
y: 275.52923583984375
z: 0.07097472995519638
visibility: 0.9998984336853027
","x: 298.59814453125
y: 328.57440185546875
z: -0.050660036504268646
visibility: 0.9829568862915039
","x: 240.87518310546875
y: 322.74884033203125
z: 0.0004494607856031507
visibility: 0.929427444934845
","x: 297.11859130859375
y: 292.11370849609375
z: -0.24990598857402802
visibility: 0.9915540814399719
","x: 231.3954620361328
y: 308.5162658691406
z: -0.21530897915363312
visibility: 0.9610936045646667
","x: 297.8188781738281
y: 280.18902587890625
z: -0.2924216091632843
visibility: 0.982776403427124
","x: 226.17286682128906
y: 300.3860778808594
z: -0.25736135244369507
visibility: 0.9388427734375
","x: 297.21368408203125
y: 275.2487487792969
z: -0.28773200511932373
visibility: 0.9837324619293213
","x: 225.99452209472656
y: 294.07391357421875
z: -0.2659241557121277
visibility: 0.9428226947784424
","x: 296.0876159667969
y: 279.2461853027344
z: -0.25334057211875916
visibility: 0.9755362868309021
","x: 228.48728942871094
y: 297.5931396484375
z: -0.22579345107078552
visibility: 0.9309846758842468
","x: 281.4333190917969
y: 377.3900146484375
z: 0.0016780653968453407
visibility: 0.9995807409286499
","x: 256.1245422363281
y: 375.1939392089844
z: -0.001596519723534584
visibility: 0.9997007846832275
","x: 278.52374267578125
y: 463.60125732421875
z: -0.00054755131714046
visibility: 0.996501624584198
","x: 248.80491638183594
y: 461.4796447753906
z: -0.02753010019659996
visibility: 0.9969053864479065
","x: 275.57293701171875
y: 533.1138916015625
z: 0.1350460797548294
visibility: 0.9957055449485779
","x: 238.69369506835938
y: 534.309326171875
z: 0.09124335646629333
visibility: 0.9966438412666321
","x: 273.6203918457031
y: 543.2273559570312
z: 0.14163854718208313
visibility: 0.9308285117149353
","x: 238.47500610351562
y: 544.5625
z: 0.0948580801486969
visibility: 0.9211568832397461
","x: 281.083984375
y: 558.5078735351562
z: 0.025788098573684692
visibility: 0.9920249581336975
","x: 233.15475463867188
y: 557.0894775390625
z: -0.03171352297067642
visibility: 0.992725133895874
",,,,,,,,,,,,,,,,,,,,,,5.155827522277832,,,,,,,,,,,,,,,,,,,,,
20,"x: 269.8612976074219
y: 235.69232177734375
z: -0.1040978878736496
visibility: 0.9999815225601196
","x: 272.1227111816406
y: 230.35372924804688
z: -0.08486156165599823
visibility: 0.9999610185623169
","x: 273.4557189941406
y: 230.61949157714844
z: -0.08490057289600372
visibility: 0.9999610781669617
","x: 274.7373962402344
y: 230.89987182617188
z: -0.08494986593723297
visibility: 0.9999625086784363
","x: 267.607666015625
y: 229.990234375
z: -0.08588343858718872
visibility: 0.9999481439590454
","x: 265.98211669921875
y: 229.967041015625
z: -0.08588804304599762
visibility: 0.9999338984489441
","x: 264.419677734375
y: 229.88262939453125
z: -0.08588331192731857
visibility: 0.9999262094497681
","x: 276.7970275878906
y: 235.4621124267578
z: 0.01880873367190361
visibility: 0.9999464154243469
","x: 261.7110900878906
y: 234.15818786621094
z: 0.012731939554214478
visibility: 0.9998602867126465
","x: 272.5402526855469
y: 243.50694274902344
z: -0.0660996064543724
visibility: 0.9999702572822571
","x: 266.6362609863281
y: 242.53305053710938
z: -0.0680524930357933
visibility: 0.9999614953994751
","x: 287.35614013671875
y: 274.7044982910156
z: 0.05137405917048454
visibility: 0.9999475479125977
","x: 249.4484405517578
y: 275.66522216796875
z: 0.06461574137210846
visibility: 0.9998489618301392
","x: 298.6937255859375
y: 315.08526611328125
z: -0.06443508714437485
visibility: 0.9817203879356384
","x: 239.74978637695312
y: 325.1534423828125
z: -0.00957067683339119
visibility: 0.9113569855690002
","x: 292.5808410644531
y: 265.7449035644531
z: -0.2504312992095947
visibility: 0.9890815019607544
","x: 234.69387817382812
y: 312.00604248046875
z: -0.21316686272621155
visibility: 0.944703221321106
","x: 290.03411865234375
y: 253.93463134765625
z: -0.2927909791469574
visibility: 0.9767062664031982
","x: 232.05418395996094
y: 307.5527648925781
z: -0.2538885474205017
visibility: 0.9177680611610413
","x: 289.5085754394531
y: 250.7479248046875
z: -0.2878917157649994
visibility: 0.9772006869316101
","x: 232.20370483398438
y: 302.09619140625
z: -0.2577153444290161
visibility: 0.9217557907104492
","x: 289.421630859375
y: 256.1319274902344
z: -0.25634676218032837
visibility: 0.9665191769599915
","x: 234.31991577148438
y: 303.7695007324219
z: -0.22154729068279266
visibility: 0.9070165753364563
","x: 279.07293701171875
y: 377.41900634765625
z: 0.0015733424806967378
visibility: 0.9995861053466797
","x: 253.831787109375
y: 375.254150390625
z: -0.0015052432427182794
visibility: 0.9996981620788574
","x: 277.7008361816406
y: 463.4035949707031
z: -0.004386025480926037
visibility: 0.9964100122451782
","x: 247.93035888671875
y: 461.41131591796875
z: -0.02373109571635723
visibility: 0.996711790561676
","x: 275.86370849609375
y: 532.8309936523438
z: 0.12324853241443634
visibility: 0.9955184459686279
","x: 237.00901794433594
y: 535.5591430664062
z: 0.10014915466308594
visibility: 0.9966142773628235
","x: 273.8726501464844
y: 543.1676635742188
z: 0.1295088231563568
visibility: 0.9285851120948792
","x: 236.35791015625
y: 546.0686645507812
z: 0.10510636866092682
visibility: 0.9187806844711304
","x: 281.2965087890625
y: 558.40673828125
z: 0.01338435523211956
visibility: 0.9917330145835876
","x: 231.07249450683594
y: 557.7864990234375
z: -0.013663495890796185
visibility: 0.9925242066383362
",,,,,,,,,,,,,,,,,,,,,,5.280432939529419,,,,,,,,,,,,,,,,,,,,,
21,"x: 269.8612976074219
y: 235.69232177734375
z: -0.1040978878736496
visibility: 0.9999815225601196
","x: 272.1227111816406
y: 230.35372924804688
z: -0.08486156165599823
visibility: 0.9999610185623169
","x: 273.4557189941406
y: 230.61949157714844
z: -0.08490057289600372
visibility: 0.9999610781669617
","x: 274.7373962402344
y: 230.89987182617188
z: -0.08494986593723297
visibility: 0.9999625086784363
","x: 267.607666015625
y: 229.990234375
z: -0.08588343858718872
visibility: 0.9999481439590454
","x: 265.98211669921875
y: 229.967041015625
z: -0.08588804304599762
visibility: 0.9999338984489441
","x: 264.419677734375
y: 229.88262939453125
z: -0.08588331192731857
visibility: 0.9999262094497681
","x: 276.7970275878906
y: 235.4621124267578
z: 0.01880873367190361
visibility: 0.9999464154243469
","x: 261.7110900878906
y: 234.15818786621094
z: 0.012731939554214478
visibility: 0.9998602867126465
","x: 272.5402526855469
y: 243.50694274902344
z: -0.0660996064543724
visibility: 0.9999702572822571
","x: 266.6362609863281
y: 242.53305053710938
z: -0.0680524930357933
visibility: 0.9999614953994751
","x: 287.35614013671875
y: 274.7044982910156
z: 0.05137405917048454
visibility: 0.9999475479125977
","x: 249.4484405517578
y: 275.66522216796875
z: 0.06461574137210846
visibility: 0.9998489618301392
","x: 298.6937255859375
y: 315.08526611328125
z: -0.06443508714437485
visibility: 0.9817203879356384
","x: 239.74978637695312
y: 325.1534423828125
z: -0.00957067683339119
visibility: 0.9113569855690002
","x: 292.5808410644531
y: 265.7449035644531
z: -0.2504312992095947
visibility: 0.9890815019607544
","x: 234.69387817382812
y: 312.00604248046875
z: -0.21316686272621155
visibility: 0.944703221321106
","x: 290.03411865234375
y: 253.93463134765625
z: -0.2927909791469574
visibility: 0.9767062664031982
","x: 232.05418395996094
y: 307.5527648925781
z: -0.2538885474205017
visibility: 0.9177680611610413
","x: 289.5085754394531
y: 250.7479248046875
z: -0.2878917157649994
visibility: 0.9772006869316101
","x: 232.20370483398438
y: 302.09619140625
z: -0.2577153444290161
visibility: 0.9217557907104492
","x: 289.421630859375
y: 256.1319274902344
z: -0.25634676218032837
visibility: 0.9665191769599915
","x: 234.31991577148438
y: 303.7695007324219
z: -0.22154729068279266
visibility: 0.9070165753364563
","x: 279.07293701171875
y: 377.41900634765625
z: 0.0015733424806967378
visibility: 0.9995861053466797
","x: 253.831787109375
y: 375.254150390625
z: -0.0015052432427182794
visibility: 0.9996981620788574
","x: 277.7008361816406
y: 463.4035949707031
z: -0.004386025480926037
visibility: 0.9964100122451782
","x: 247.93035888671875
y: 461.41131591796875
z: -0.02373109571635723
visibility: 0.996711790561676
","x: 275.86370849609375
y: 532.8309936523438
z: 0.12324853241443634
visibility: 0.9955184459686279
","x: 237.00901794433594
y: 535.5591430664062
z: 0.10014915466308594
visibility: 0.9966142773628235
","x: 273.8726501464844
y: 543.1676635742188
z: 0.1295088231563568
visibility: 0.9285851120948792
","x: 236.35791015625
y: 546.0686645507812
z: 0.10510636866092682
visibility: 0.9187806844711304
","x: 281.2965087890625
y: 558.40673828125
z: 0.01338435523211956
visibility: 0.9917330145835876
","x: 231.07249450683594
y: 557.7864990234375
z: -0.013663495890796185
visibility: 0.9925242066383362
",,,,,,,,,,,,,,,,,,,,,,5.280432939529419,,,,,,,,,,,,,,,,,,,,,
22,"x: 268.1260681152344
y: 235.9512939453125
z: -0.07845532894134521
visibility: 0.9999818801879883
","x: 270.28106689453125
y: 231.65052795410156
z: -0.05692416429519653
visibility: 0.9999622106552124
","x: 271.756103515625
y: 232.0368194580078
z: -0.056945718824863434
visibility: 0.9999618530273438
","x: 273.1884460449219
y: 232.29788208007812
z: -0.05698329210281372
visibility: 0.9999632835388184
","x: 265.64935302734375
y: 230.65879821777344
z: -0.06160886213183403
visibility: 0.9999508261680603
","x: 264.0404052734375
y: 230.4364013671875
z: -0.061610978096723557
visibility: 0.9999375343322754
","x: 262.5023193359375
y: 230.00486755371094
z: -0.061600279062986374
visibility: 0.9999309182167053
","x: 276.080078125
y: 236.2641143798828
z: 0.05150679871439934
visibility: 0.9999476671218872
","x: 259.885009765625
y: 234.342529296875
z: 0.02871289849281311
visibility: 0.9998719096183777
","x: 272.00872802734375
y: 243.80197143554688
z: -0.03877345845103264
visibility: 0.9999693632125854
","x: 264.9120178222656
y: 242.92950439453125
z: -0.045655108988285065
visibility: 0.9999626874923706
","x: 282.9867248535156
y: 273.818359375
z: 0.07054491341114044
visibility: 0.9999393224716187
","x: 248.89199829101562
y: 275.993896484375
z: 0.07031825184822083
visibility: 0.9998412728309631
","x: 295.912353515625
y: 294.5981750488281
z: -0.06928815692663193
visibility: 0.981677770614624
","x: 239.1500701904297
y: 325.1470642089844
z: 0.0010626460425555706
visibility: 0.8924257159233093
","x: 283.95361328125
y: 245.69837951660156
z: -0.2450644075870514
visibility: 0.9869198799133301
","x: 241.33621215820312
y: 339.2489318847656
z: -0.1333322674036026
visibility: 0.9143858551979065
","x: 280.822509765625
y: 231.51080322265625
z: -0.2870883047580719
visibility: 0.9708350300788879
","x: 240.88217163085938
y: 347.0822448730469
z: -0.1641705334186554
visibility: 0.8828028440475464
","x: 279.6884765625
y: 227.8864288330078
z: -0.2772558927536011
visibility: 0.9707949161529541
","x: 241.55368041992188
y: 343.47216796875
z: -0.17565028369426727
visibility: 0.887276828289032
","x: 279.8709716796875
y: 234.357177734375
z: -0.2477017641067505
visibility: 0.9585171937942505
","x: 242.46591186523438
y: 340.25762939453125
z: -0.1418624222278595
visibility: 0.8697873950004578
","x: 278.0521240234375
y: 377.5272216796875
z: 0.0013526437105610967
visibility: 0.9996153116226196
","x: 252.33218383789062
y: 377.0295715332031
z: -0.001290178275667131
visibility: 0.999717116355896
","x: 276.4210510253906
y: 463.4154968261719
z: -0.004810011945664883
visibility: 0.9963586330413818
","x: 247.5529327392578
y: 463.1966552734375
z: -0.024513479322195053
visibility: 0.9965870976448059
","x: 276.1488037109375
y: 532.6725463867188
z: 0.11826695501804352
visibility: 0.9953432083129883
","x: 236.26490783691406
y: 536.58349609375
z: 0.1000462993979454
visibility: 0.9965981245040894
","x: 274.0059509277344
y: 542.9393920898438
z: 0.1237136721611023
visibility: 0.92728191614151
","x: 235.79052734375
y: 546.921875
z: 0.10495491325855255
visibility: 0.9177674651145935
","x: 281.3969421386719
y: 558.3333740234375
z: 0.0060961609706282616
visibility: 0.99149090051651
","x: 230.6795654296875
y: 559.1199340820312
z: -0.012829167768359184
visibility: 0.99233078956604
",,,,,,,,,,,,,,,,,,,,,,5.405420780181885,,,,,,,,,,,,,,,,,,,,,
23,"x: 268.1260681152344
y: 235.9512939453125
z: -0.07845532894134521
visibility: 0.9999818801879883
","x: 270.28106689453125
y: 231.65052795410156
z: -0.05692416429519653
visibility: 0.9999622106552124
","x: 271.756103515625
y: 232.0368194580078
z: -0.056945718824863434
visibility: 0.9999618530273438
","x: 273.1884460449219
y: 232.29788208007812
z: -0.05698329210281372
visibility: 0.9999632835388184
","x: 265.64935302734375
y: 230.65879821777344
z: -0.06160886213183403
visibility: 0.9999508261680603
","x: 264.0404052734375
y: 230.4364013671875
z: -0.061610978096723557
visibility: 0.9999375343322754
","x: 262.5023193359375
y: 230.00486755371094
z: -0.061600279062986374
visibility: 0.9999309182167053
","x: 276.080078125
y: 236.2641143798828
z: 0.05150679871439934
visibility: 0.9999476671218872
","x: 259.885009765625
y: 234.342529296875
z: 0.02871289849281311
visibility: 0.9998719096183777
","x: 272.00872802734375
y: 243.80197143554688
z: -0.03877345845103264
visibility: 0.9999693632125854
","x: 264.9120178222656
y: 242.92950439453125
z: -0.045655108988285065
visibility: 0.9999626874923706
","x: 282.9867248535156
y: 273.818359375
z: 0.07054491341114044
visibility: 0.9999393224716187
","x: 248.89199829101562
y: 275.993896484375
z: 0.07031825184822083
visibility: 0.9998412728309631
","x: 295.912353515625
y: 294.5981750488281
z: -0.06928815692663193
visibility: 0.981677770614624
","x: 239.1500701904297
y: 325.1470642089844
z: 0.0010626460425555706
visibility: 0.8924257159233093
","x: 283.95361328125
y: 245.69837951660156
z: -0.2450644075870514
visibility: 0.9869198799133301
","x: 241.33621215820312
y: 339.2489318847656
z: -0.1333322674036026
visibility: 0.9143858551979065
","x: 280.822509765625
y: 231.51080322265625
z: -0.2870883047580719
visibility: 0.9708350300788879
","x: 240.88217163085938
y: 347.0822448730469
z: -0.1641705334186554
visibility: 0.8828028440475464
","x: 279.6884765625
y: 227.8864288330078
z: -0.2772558927536011
visibility: 0.9707949161529541
","x: 241.55368041992188
y: 343.47216796875
z: -0.17565028369426727
visibility: 0.887276828289032
","x: 279.8709716796875
y: 234.357177734375
z: -0.2477017641067505
visibility: 0.9585171937942505
","x: 242.46591186523438
y: 340.25762939453125
z: -0.1418624222278595
visibility: 0.8697873950004578
","x: 278.0521240234375
y: 377.5272216796875
z: 0.0013526437105610967
visibility: 0.9996153116226196
","x: 252.33218383789062
y: 377.0295715332031
z: -0.001290178275667131
visibility: 0.999717116355896
","x: 276.4210510253906
y: 463.4154968261719
z: -0.004810011945664883
visibility: 0.9963586330413818
","x: 247.5529327392578
y: 463.1966552734375
z: -0.024513479322195053
visibility: 0.9965870976448059
","x: 276.1488037109375
y: 532.6725463867188
z: 0.11826695501804352
visibility: 0.9953432083129883
","x: 236.26490783691406
y: 536.58349609375
z: 0.1000462993979454
visibility: 0.9965981245040894
","x: 274.0059509277344
y: 542.9393920898438
z: 0.1237136721611023
visibility: 0.92728191614151
","x: 235.79052734375
y: 546.921875
z: 0.10495491325855255
visibility: 0.9177674651145935
","x: 281.3969421386719
y: 558.3333740234375
z: 0.0060961609706282616
visibility: 0.99149090051651
","x: 230.6795654296875
y: 559.1199340820312
z: -0.012829167768359184
visibility: 0.99233078956604
",,,,,,,,,,,,,,,,,,,,,,5.405420780181885,,,,,,,,,,,,,,,,,,,,,
24,"x: 263.4034423828125
y: 243.41433715820312
z: -0.10977952182292938
visibility: 0.9999765157699585
","x: 264.94366455078125
y: 240.05897521972656
z: -0.09342791140079498
visibility: 0.999954342842102
","x: 266.15869140625
y: 240.5540771484375
z: -0.09345962107181549
visibility: 0.9999509453773499
","x: 267.3464050292969
y: 240.6100311279297
z: -0.09349994361400604
visibility: 0.9999524354934692
","x: 261.191650390625
y: 238.09852600097656
z: -0.09364212304353714
visibility: 0.9999448657035828
","x: 259.9648132324219
y: 237.70074462890625
z: -0.09364466369152069
visibility: 0.9999306201934814
","x: 258.770751953125
y: 237.08670043945312
z: -0.0936393216252327
visibility: 0.9999269843101501
","x: 268.18255615234375
y: 241.75611877441406
z: 0.011881550773978233
visibility: 0.9999389052391052
","x: 256.6648864746094
y: 238.94564819335938
z: 0.009867558255791664
visibility: 0.9998748898506165
","x: 264.81005859375
y: 249.54782104492188
z: -0.06914539635181427
visibility: 0.9999594688415527
","x: 260.5674133300781
y: 248.27989196777344
z: -0.07010766863822937
visibility: 0.9999564290046692
","x: 276.9881286621094
y: 268.0713195800781
z: 0.04592495039105415
visibility: 0.9999174475669861
","x: 243.72413635253906
y: 276.0662536621094
z: 0.06328804045915604
visibility: 0.9998290538787842
","x: 293.2999267578125
y: 285.1644592285156
z: -0.12107626348733902
visibility: 0.9814568758010864
","x: 236.9257049560547
y: 316.02789306640625
z: -0.050914160907268524
visibility: 0.8878284096717834
","x: 275.892578125
y: 244.0223388671875
z: -0.30458030104637146
visibility: 0.9829875230789185
","x: 237.1820526123047
y: 322.3113708496094
z: -0.2411772459745407
visibility: 0.9051012396812439
","x: 272.85198974609375
y: 233.50393676757812
z: -0.3478347957134247
visibility: 0.9604827165603638
","x: 236.4338836669922
y: 326.2276916503906
z: -0.2791058123111725
visibility: 0.8681870698928833
","x: 271.2322998046875
y: 230.6743621826172
z: -0.3315247893333435
visibility: 0.9592351317405701
","x: 237.29293823242188
y: 323.6425476074219
z: -0.2803916931152344
visibility: 0.8720607757568359
","x: 271.8580322265625
y: 235.6899871826172
z: -0.3043937087059021
visibility: 0.9441852569580078
","x: 238.21865844726562
y: 322.4988098144531
z: -0.2470535784959793
visibility: 0.8519653081893921
","x: 272.14703369140625
y: 377.0854187011719
z: -0.00691045168787241
visibility: 0.9996236562728882
","x: 250.38829040527344
y: 377.04510498046875
z: 0.006985505577176809
visibility: 0.9997187256813049
","x: 272.56732177734375
y: 463.3948059082031
z: -0.016312500461935997
visibility: 0.9963334202766418
","x: 246.0321807861328
y: 462.96453857421875
z: -0.016563240438699722
visibility: 0.9965561628341675
","x: 276.3111267089844
y: 532.5599975585938
z: 0.08066809922456741
visibility: 0.9951860904693604
","x: 236.0554962158203
y: 536.9825439453125
z: 0.08963514119386673
visibility: 0.9966170787811279
","x: 274.13421630859375
y: 542.7849731445312
z: 0.08382993191480637
visibility: 0.9274708032608032
","x: 236.35061645507812
y: 547.3360595703125
z: 0.09230746328830719
visibility: 0.9197842478752136
","x: 281.4412536621094
y: 558.2857666015625
z: -0.03269275277853012
visibility: 0.99128258228302
","x: 229.87034606933594
y: 559.4095458984375
z: -0.022114254534244537
visibility: 0.992210328578949
",,,,,,,,,,,,,,,,,,,,,,5.531354665756226,,,,,,,,,,,,,,,,,,,,,
25,"x: 263.4034423828125
y: 243.41433715820312
z: -0.10977952182292938
visibility: 0.9999765157699585
","x: 264.94366455078125
y: 240.05897521972656
z: -0.09342791140079498
visibility: 0.999954342842102
","x: 266.15869140625
y: 240.5540771484375
z: -0.09345962107181549
visibility: 0.9999509453773499
","x: 267.3464050292969
y: 240.6100311279297
z: -0.09349994361400604
visibility: 0.9999524354934692
","x: 261.191650390625
y: 238.09852600097656
z: -0.09364212304353714
visibility: 0.9999448657035828
","x: 259.9648132324219
y: 237.70074462890625
z: -0.09364466369152069
visibility: 0.9999306201934814
","x: 258.770751953125
y: 237.08670043945312
z: -0.0936393216252327
visibility: 0.9999269843101501
","x: 268.18255615234375
y: 241.75611877441406
z: 0.011881550773978233
visibility: 0.9999389052391052
","x: 256.6648864746094
y: 238.94564819335938
z: 0.009867558255791664
visibility: 0.9998748898506165
","x: 264.81005859375
y: 249.54782104492188
z: -0.06914539635181427
visibility: 0.9999594688415527
","x: 260.5674133300781
y: 248.27989196777344
z: -0.07010766863822937
visibility: 0.9999564290046692
","x: 276.9881286621094
y: 268.0713195800781
z: 0.04592495039105415
visibility: 0.9999174475669861
","x: 243.72413635253906
y: 276.0662536621094
z: 0.06328804045915604
visibility: 0.9998290538787842
","x: 293.2999267578125
y: 285.1644592285156
z: -0.12107626348733902
visibility: 0.9814568758010864
","x: 236.9257049560547
y: 316.02789306640625
z: -0.050914160907268524
visibility: 0.8878284096717834
","x: 275.892578125
y: 244.0223388671875
z: -0.30458030104637146
visibility: 0.9829875230789185
","x: 237.1820526123047
y: 322.3113708496094
z: -0.2411772459745407
visibility: 0.9051012396812439
","x: 272.85198974609375
y: 233.50393676757812
z: -0.3478347957134247
visibility: 0.9604827165603638
","x: 236.4338836669922
y: 326.2276916503906
z: -0.2791058123111725
visibility: 0.8681870698928833
","x: 271.2322998046875
y: 230.6743621826172
z: -0.3315247893333435
visibility: 0.9592351317405701
","x: 237.29293823242188
y: 323.6425476074219
z: -0.2803916931152344
visibility: 0.8720607757568359
","x: 271.8580322265625
y: 235.6899871826172
z: -0.3043937087059021
visibility: 0.9441852569580078
","x: 238.21865844726562
y: 322.4988098144531
z: -0.2470535784959793
visibility: 0.8519653081893921
","x: 272.14703369140625
y: 377.0854187011719
z: -0.00691045168787241
visibility: 0.9996236562728882
","x: 250.38829040527344
y: 377.04510498046875
z: 0.006985505577176809
visibility: 0.9997187256813049
","x: 272.56732177734375
y: 463.3948059082031
z: -0.016312500461935997
visibility: 0.9963334202766418
","x: 246.0321807861328
y: 462.96453857421875
z: -0.016563240438699722
visibility: 0.9965561628341675
","x: 276.3111267089844
y: 532.5599975585938
z: 0.08066809922456741
visibility: 0.9951860904693604
","x: 236.0554962158203
y: 536.9825439453125
z: 0.08963514119386673
visibility: 0.9966170787811279
","x: 274.13421630859375
y: 542.7849731445312
z: 0.08382993191480637
visibility: 0.9274708032608032
","x: 236.35061645507812
y: 547.3360595703125
z: 0.09230746328830719
visibility: 0.9197842478752136
","x: 281.4412536621094
y: 558.2857666015625
z: -0.03269275277853012
visibility: 0.99128258228302
","x: 229.87034606933594
y: 559.4095458984375
z: -0.022114254534244537
visibility: 0.992210328578949
",,,,,,,,,,,,,,,,,,,,,,5.531354665756226,,,,,,,,,,,,,,,,,,,,,
26,"x: 259.6511535644531
y: 247.9704132080078
z: -0.12407752126455307
visibility: 0.9999759793281555
","x: 261.0939636230469
y: 243.7567138671875
z: -0.10662391036748886
visibility: 0.9999505877494812
","x: 262.3544921875
y: 244.13282775878906
z: -0.10664957761764526
visibility: 0.9999462962150574
","x: 263.5220031738281
y: 244.09872436523438
z: -0.10669982433319092
visibility: 0.9999472498893738
","x: 256.9814758300781
y: 241.7326202392578
z: -0.11163432896137238
visibility: 0.9999436140060425
","x: 255.6969757080078
y: 241.3134765625
z: -0.11162221431732178
visibility: 0.9999302625656128
","x: 254.53024291992188
y: 240.81407165527344
z: -0.11161627620458603
visibility: 0.9999279975891113
","x: 263.51373291015625
y: 243.765625
z: 0.0021476480178534985
visibility: 0.9999315142631531
","x: 252.9227294921875
y: 241.9027099609375
z: -0.008208142593502998
visibility: 0.9998834133148193
","x: 260.6044006347656
y: 253.43441772460938
z: -0.08185601234436035
visibility: 0.9999579787254333
","x: 256.306884765625
y: 252.35337829589844
z: -0.08894534409046173
visibility: 0.9999575614929199
","x: 272.5008850097656
y: 268.4133605957031
z: 0.05061710625886917
visibility: 0.9999197721481323
","x: 236.97451782226562
y: 278.6395568847656
z: 0.05456339567899704
visibility: 0.9998388290405273
","x: 289.62542724609375
y: 282.8040771484375
z: -0.059686221182346344
visibility: 0.9818094372749329
","x: 232.61050415039062
y: 324.9289245605469
z: 0.03738117963075638
visibility: 0.8872817158699036
","x: 271.47991943359375
y: 240.55154418945312
z: -0.19510194659233093
visibility: 0.9792922735214233
","x: 236.21401977539062
y: 380.8955383300781
z: -0.016395989805459976
visibility: 0.8900918960571289
","x: 267.334716796875
y: 227.98419189453125
z: -0.23062145709991455
visibility: 0.9472951292991638
","x: 233.9485626220703
y: 391.5157775878906
z: -0.033522214740514755
visibility: 0.8451162576675415
","x: 265.90020751953125
y: 226.6673126220703
z: -0.2178834229707718
visibility: 0.9446113109588623
","x: 233.55194091796875
y: 392.51422119140625
z: -0.05667088180780411
visibility: 0.8493152856826782
","x: 266.6613464355469
y: 231.58506774902344
z: -0.1955830305814743
visibility: 0.9272365570068359
","x: 235.41392517089844
y: 389.5686340332031
z: -0.026403406634926796
visibility: 0.8272275924682617
","x: 267.8712158203125
y: 377.5665283203125
z: -0.002599164843559265
visibility: 0.9996485114097595
","x: 245.24407958984375
y: 379.44537353515625
z: 0.002673262497410178
visibility: 0.9997329711914062
","x: 272.46563720703125
y: 463.62908935546875
z: -0.0191606767475605
visibility: 0.9963058829307556
","x: 242.66561889648438
y: 463.11114501953125
z: -0.018483959138393402
visibility: 0.9965152144432068
","x: 276.36431884765625
y: 532.5059814453125
z: 0.08650462329387665
visibility: 0.9949942231178284
","x: 235.40283203125
y: 536.8084716796875
z: 0.08951060473918915
visibility: 0.9965061545372009
","x: 274.19927978515625
y: 542.664306640625
z: 0.09090311825275421
visibility: 0.926948070526123
","x: 236.17845153808594
y: 547.0421142578125
z: 0.09295224398374557
