uscmakers/ReverseChoreography/data/10_lost_in_japan_shawn_mendes.csv
,NOSE,LEFT_EYE_INNER,LEFT_EYE,LEFT_EYE_OUTER,RIGHT_EYE_INNER,RIGHT_EYE,RIGHT_EYE_OUTER,LEFT_EAR,RIGHT_EAR,MOUTH_LEFT,MOUTH_RIGHT,LEFT_SHOULDER,RIGHT_SHOULDER,LEFT_ELBOW,RIGHT_ELBOW,LEFT_WRIST,RIGHT_WRIST,LEFT_PINKY,RIGHT_PINKY,LEFT_INDEX,RIGHT_INDEX,LEFT_THUMB,RIGHT_THUMB,LEFT_HIP,RIGHT_HIP,LEFT_KNEE,RIGHT_KNEE,LEFT_ANKLE,RIGHT_ANKLE,LEFT_HEEL,RIGHT_HEEL,LEFT_FOOT_INDEX,RIGHT_FOOT_INDEX,WRIST2,THUMB_CPC2,THUMB_MCP2,THUMB_IP2,THUMB_TIP2,INDEX_FINGER_MCP2,INDEX_FINGER_PIP2,INDEX_FINGER_DIP2,INDEX_FINGER_TIP2,MIDDLE_FINGER_MCP2,MIDDLE_FINGER_PIP2,MIDDLE_FINGER_DIP2,MIDDLE_FINGER_TIP2,RING_FINGER_PIP2,RING_FINGER_DIP2,RING_FINGER_TIP2,RING_FINGER_MCP2,PINKY_MCP2,PINKY_PIP2,PINKY_DIP2,PINKY_TIP2,TIMESTAMP,WRIST,THUMB_CPC,THUMB_MCP,THUMB_IP,THUMB_TIP,INDEX_FINGER_MCP,INDEX_FINGER_PIP,INDEX_FINGER_DIP,INDEX_FINGER_TIP,MIDDLE_FINGER_MCP,MIDDLE_FINGER_PIP,MIDDLE_FINGER_DIP,MIDDLE_FINGER_TIP,RING_FINGER_PIP,RING_FINGER_DIP,RING_FINGER_TIP,RING_FINGER_MCP,PINKY_MCP,PINKY_PIP,PINKY_DIP,PINKY_TIP
0,"x: 314.14019775390625
y: 242.28355407714844
z: -0.3406444489955902
visibility: 0.9999756813049316
","x: 314.9552307128906
y: 236.531494140625
z: -0.3281155824661255
visibility: 0.9998884201049805
","x: 316.0141296386719
y: 236.2763214111328
z: -0.328098863363266
visibility: 0.9999037981033325
","x: 317.0467529296875
y: 236.02215576171875
z: -0.3281104266643524
visibility: 0.9998995065689087
","x: 311.65679931640625
y: 237.92076110839844
z: -0.327017217874527
visibility: 0.999896764755249
","x: 310.3197326660156
y: 238.75885009765625
z: -0.327069491147995
visibility: 0.9998997449874878
","x: 308.90667724609375
y: 239.76025390625
z: -0.32708296179771423
visibility: 0.9998804330825806
","x: 318.6433410644531
y: 240.29071044921875
z: -0.23872509598731995
visibility: 0.9998093247413635
","x: 306.3016357421875
y: 245.47000122070312
z: -0.2335924208164215
visibility: 0.999737560749054
","x: 316.79791259765625
y: 249.60818481445312
z: -0.306776225566864
visibility: 0.9999563694000244
","x: 311.99285888671875
y: 251.30714416503906
z: -0.3054158091545105
visibility: 0.9999440908432007
","x: 333.00146484375
y: 283.01934814453125
z: -0.16944554448127747
visibility: 0.9999520778656006
","x: 297.9910888671875
y: 284.95501708984375
z: -0.1480143964290619
visibility: 0.9999454021453857
","x: 339.66815185546875
y: 330.12060546875
z: -0.12359211593866348
visibility: 0.993759274482727
","x: 290.49517822265625
y: 331.4341735839844
z: -0.0953364372253418
visibility: 0.9821767807006836
","x: 342.8442687988281
y: 374.334716796875
z: -0.1804518848657608
visibility: 0.982812225818634
","x: 283.676513671875
y: 371.9371337890625
z: -0.15282319486141205
visibility: 0.9568821787834167
","x: 344.3306884765625
y: 387.37176513671875
z: -0.19945703446865082
visibility: 0.9549983143806458
","x: 280.8974304199219
y: 385.2113037109375
z: -0.17342130839824677
visibility: 0.9086258411407471
","x: 343.1231689453125
y: 389.1729736328125
z: -0.2310071885585785
visibility: 0.9584503769874573
","x: 282.700439453125
y: 386.86456298828125
z: -0.20414797961711884
visibility: 0.9140965938568115
","x: 341.7581787109375
y: 384.3717956542969
z: -0.19367092847824097
visibility: 0.9488651156425476
","x: 284.3298034667969
y: 382.1341247558594
z: -0.16704227030277252
visibility: 0.9017543792724609
","x: 327.88983154296875
y: 369.765869140625
z: -0.0022291489876806736
visibility: 0.9994246959686279
","x: 305.529296875
y: 371.4825134277344
z: 0.0021695352625101805
visibility: 0.9997308850288391
","x: 327.4908447265625
y: 444.15814208984375
z: 0.007704569958150387
visibility: 0.9963052272796631
","x: 304.5434265136719
y: 444.8466491699219
z: -0.0043485513888299465
visibility: 0.9974226951599121
","x: 329.201416015625
y: 506.037353515625
z: 0.13317535817623138
visibility: 0.9958450198173523
","x: 301.862060546875
y: 506.9681091308594
z: 0.11288628727197647
visibility: 0.9968036413192749
","x: 327.1808166503906
y: 513.3894653320312
z: 0.1383461356163025
visibility: 0.9101040959358215
","x: 303.7562561035156
y: 514.9713745117188
z: 0.11664746701717377
visibility: 0.9141061902046204
","x: 333.60174560546875
y: 528.8433837890625
z: 0.023450259119272232
visibility: 0.9928273558616638
","x: 295.9101257324219
y: 531.9560546875
z: 0.0014565782621502876
visibility: 0.9941213726997375
","x: 342.2884826660156
y: 372.4659729003906
z: 0.0
","x: 340.4521484375
y: 378.2275695800781
z: 0.0007280013523995876
","x: 340.1977233886719
y: 384.24298095703125
z: 0.0007392083643935621
","x: 339.5712585449219
y: 388.9041748046875
z: 0.00013468811812344939
","x: 338.7444763183594
y: 392.6212158203125
z: -0.00023063203843776137
","x: 344.446044921875
y: 390.156005859375
z: 0.002759988885372877
","x: 344.04107666015625
y: 397.2942810058594
z: 0.0018432543147355318
","x: 343.3312683105469
y: 401.49932861328125
z: 0.0011186356423422694
","x: 342.7253112792969
y: 404.54718017578125
z: 0.0008251997642219067
","x: 344.6694641113281
y: 390.05328369140625
z: 0.00125826895236969
","x: 344.475341796875
y: 397.78472900390625
z: 0.00047883272054605186
","x: 343.7448425292969
y: 401.9813537597656
z: 4.055703175254166e-05
","x: 343.2422180175781
y: 405.12774658203125
z: -0.00017640460282564163
","x: 344.299560546875
y: 389.5438232421875
z: -0.000580211344640702
","x: 344.18280029296875
y: 396.9764404296875
z: -0.0015579441096633673
","x: 343.542724609375
y: 401.1636962890625
z: -0.0016635134816169739
","x: 343.0733947753906
y: 404.34552001953125
z: -0.0016190301394090056
","x: 343.31201171875
y: 388.74810791015625
z: -0.002600722713395953
","x: 343.1436767578125
y: 394.763427734375
z: -0.003299833508208394
","x: 342.7680969238281
y: 398.3636169433594
z: -0.003265955252572894
","x: 342.37908935546875
y: 401.29156494140625
z: -0.0031578494235873222
",3.5714573860168457,,,,,,,,,,,,,,,,,,,,,
1,"x: 314.14019775390625
y: 242.28355407714844
z: -0.3406444489955902
visibility: 0.9999756813049316
","x: 314.9552307128906
y: 236.531494140625
z: -0.3281155824661255
visibility: 0.9998884201049805
","x: 316.0141296386719
y: 236.2763214111328
z: -0.328098863363266
visibility: 0.9999037981033325
","x: 317.0467529296875
y: 236.02215576171875
z: -0.3281104266643524
visibility: 0.9998995065689087
","x: 311.65679931640625
y: 237.92076110839844
z: -0.327017217874527
visibility: 0.999896764755249
","x: 310.3197326660156
y: 238.75885009765625
z: -0.327069491147995
visibility: 0.9998997449874878
","x: 308.90667724609375
y: 239.76025390625
z: -0.32708296179771423
visibility: 0.9998804330825806
","x: 318.6433410644531
y: 240.29071044921875
z: -0.23872509598731995
visibility: 0.9998093247413635
","x: 306.3016357421875
y: 245.47000122070312
z: -0.2335924208164215
visibility: 0.999737560749054
","x: 316.79791259765625
y: 249.60818481445312
z: -0.306776225566864
visibility: 0.9999563694000244
","x: 311.99285888671875
y: 251.30714416503906
z: -0.3054158091545105
visibility: 0.9999440908432007
","x: 333.00146484375
y: 283.01934814453125
z: -0.16944554448127747
visibility: 0.9999520778656006
","x: 297.9910888671875
y: 284.95501708984375
z: -0.1480143964290619
visibility: 0.9999454021453857
","x: 339.66815185546875
y: 330.12060546875
z: -0.12359211593866348
visibility: 0.993759274482727
","x: 290.49517822265625
y: 331.4341735839844
z: -0.0953364372253418
visibility: 0.9821767807006836
","x: 342.8442687988281
y: 374.334716796875
z: -0.1804518848657608
visibility: 0.982812225818634
","x: 283.676513671875
y: 371.9371337890625
z: -0.15282319486141205
visibility: 0.9568821787834167
","x: 344.3306884765625
y: 387.37176513671875
z: -0.19945703446865082
visibility: 0.9549983143806458
","x: 280.8974304199219
y: 385.2113037109375
z: -0.17342130839824677
visibility: 0.9086258411407471
","x: 343.1231689453125
y: 389.1729736328125
z: -0.2310071885585785
visibility: 0.9584503769874573
","x: 282.700439453125
y: 386.86456298828125
z: -0.20414797961711884
visibility: 0.9140965938568115
","x: 341.7581787109375
y: 384.3717956542969
z: -0.19367092847824097
visibility: 0.9488651156425476
","x: 284.3298034667969
y: 382.1341247558594
z: -0.16704227030277252
visibility: 0.9017543792724609
","x: 327.88983154296875
y: 369.765869140625
z: -0.0022291489876806736
visibility: 0.9994246959686279
","x: 305.529296875
y: 371.4825134277344
z: 0.0021695352625101805
visibility: 0.9997308850288391
","x: 327.4908447265625
y: 444.15814208984375
z: 0.007704569958150387
visibility: 0.9963052272796631
","x: 304.5434265136719
y: 444.8466491699219
z: -0.0043485513888299465
visibility: 0.9974226951599121
","x: 329.201416015625
y: 506.037353515625
z: 0.13317535817623138
visibility: 0.9958450198173523
","x: 301.862060546875
y: 506.9681091308594
z: 0.11288628727197647
visibility: 0.9968036413192749
","x: 327.1808166503906
y: 513.3894653320312
z: 0.1383461356163025
visibility: 0.9101040959358215
","x: 303.7562561035156
y: 514.9713745117188
z: 0.11664746701717377
visibility: 0.9141061902046204
","x: 333.60174560546875
y: 528.8433837890625
z: 0.023450259119272232
visibility: 0.9928273558616638
","x: 295.9101257324219
y: 531.9560546875
z: 0.0014565782621502876
visibility: 0.9941213726997375
","x: 342.2884826660156
y: 372.4659729003906
z: 0.0
","x: 340.4521484375
y: 378.2275695800781
z: 0.0007280013523995876
","x: 340.1977233886719
y: 384.24298095703125
z: 0.0007392083643935621
","x: 339.5712585449219
y: 388.9041748046875
z: 0.00013468811812344939
","x: 338.7444763183594
y: 392.6212158203125
z: -0.00023063203843776137
","x: 344.446044921875
y: 390.156005859375
z: 0.002759988885372877
","x: 344.04107666015625
y: 397.2942810058594
z: 0.0018432543147355318
","x: 343.3312683105469
y: 401.49932861328125
z: 0.0011186356423422694
","x: 342.7253112792969
y: 404.54718017578125
z: 0.0008251997642219067
","x: 344.6694641113281
y: 390.05328369140625
z: 0.00125826895236969
","x: 344.475341796875
y: 397.78472900390625
z: 0.00047883272054605186
","x: 343.7448425292969
y: 401.9813537597656
z: 4.055703175254166e-05
","x: 343.2422180175781
y: 405.12774658203125
z: -0.00017640460282564163
","x: 344.299560546875
y: 389.5438232421875
z: -0.000580211344640702
","x: 344.18280029296875
y: 396.9764404296875
z: -0.0015579441096633673
","x: 343.542724609375
y: 401.1636962890625
z: -0.0016635134816169739
","x: 343.0733947753906
y: 404.34552001953125
z: -0.0016190301394090056
","x: 343.31201171875
y: 388.74810791015625
z: -0.002600722713395953
","x: 343.1436767578125
y: 394.763427734375
z: -0.003299833508208394
","x: 342.7680969238281
y: 398.3636169433594
z: -0.003265955252572894
","x: 342.37908935546875
y: 401.29156494140625
z: -0.0031578494235873222
",3.5714573860168457,,,,,,,,,,,,,,,,,,,,,
2,"x: 314.14019775390625
y: 242.28355407714844
z: -0.3406444489955902
visibility: 0.9999756813049316
","x: 314.9552307128906
y: 236.531494140625
z: -0.3281155824661255
visibility: 0.9998884201049805
","x: 316.0141296386719
y: 236.2763214111328
z: -0.328098863363266
visibility: 0.9999037981033325
","x: 317.0467529296875
y: 236.02215576171875
z: -0.3281104266643524
visibility: 0.9998995065689087
","x: 311.65679931640625
y: 237.92076110839844
z: -0.327017217874527
visibility: 0.999896764755249
","x: 310.3197326660156
y: 238.75885009765625
z: -0.327069491147995
visibility: 0.9998997449874878
","x: 308.90667724609375
y: 239.76025390625
z: -0.32708296179771423
visibility: 0.9998804330825806
","x: 318.6433410644531
y: 240.29071044921875
z: -0.23872509598731995
visibility: 0.9998093247413635
","x: 306.3016357421875
y: 245.47000122070312
z: -0.2335924208164215
visibility: 0.999737560749054
","x: 316.79791259765625
y: 249.60818481445312
z: -0.306776225566864
visibility: 0.9999563694000244
","x: 311.99285888671875
y: 251.30714416503906
z: -0.3054158091545105
visibility: 0.9999440908432007
","x: 333.00146484375
y: 283.01934814453125
z: -0.16944554448127747
visibility: 0.9999520778656006
","x: 297.9910888671875
y: 284.95501708984375
z: -0.1480143964290619
visibility: 0.9999454021453857
","x: 339.66815185546875
y: 330.12060546875
z: -0.12359211593866348
visibility: 0.993759274482727
","x: 290.49517822265625
y: 331.4341735839844
z: -0.0953364372253418
visibility: 0.9821767807006836
","x: 342.8442687988281
y: 374.334716796875
z: -0.1804518848657608
visibility: 0.982812225818634
","x: 283.676513671875
y: 371.9371337890625
z: -0.15282319486141205
visibility: 0.9568821787834167
","x: 344.3306884765625
y: 387.37176513671875
z: -0.19945703446865082
visibility: 0.9549983143806458
","x: 280.8974304199219
y: 385.2113037109375
z: -0.17342130839824677
visibility: 0.9086258411407471
","x: 343.1231689453125
y: 389.1729736328125
z: -0.2310071885585785
visibility: 0.9584503769874573
","x: 282.700439453125
y: 386.86456298828125
z: -0.20414797961711884
visibility: 0.9140965938568115
","x: 341.7581787109375
y: 384.3717956542969
z: -0.19367092847824097
visibility: 0.9488651156425476
","x: 284.3298034667969
y: 382.1341247558594
z: -0.16704227030277252
visibility: 0.9017543792724609
","x: 327.88983154296875
y: 369.765869140625
z: -0.0022291489876806736
visibility: 0.9994246959686279
","x: 305.529296875
y: 371.4825134277344
z: 0.0021695352625101805
visibility: 0.9997308850288391
","x: 327.4908447265625
y: 444.15814208984375
z: 0.007704569958150387
visibility: 0.9963052272796631
","x: 304.5434265136719
y: 444.8466491699219
z: -0.0043485513888299465
visibility: 0.9974226951599121
","x: 329.201416015625
y: 506.037353515625
z: 0.13317535817623138
visibility: 0.9958450198173523
","x: 301.862060546875
y: 506.9681091308594
z: 0.11288628727197647
visibility: 0.9968036413192749
","x: 327.1808166503906
y: 513.3894653320312
z: 0.1383461356163025
visibility: 0.9101040959358215
","x: 303.7562561035156
y: 514.9713745117188
z: 0.11664746701717377
visibility: 0.9141061902046204
","x: 333.60174560546875
y: 528.8433837890625
z: 0.023450259119272232
visibility: 0.9928273558616638
","x: 295.9101257324219
y: 531.9560546875
z: 0.0014565782621502876
visibility: 0.9941213726997375
","x: 342.2884826660156
y: 372.4659729003906
z: 0.0
","x: 340.4521484375
y: 378.2275695800781
z: 0.0007280013523995876
","x: 340.1977233886719
y: 384.24298095703125
z: 0.0007392083643935621
","x: 339.5712585449219
y: 388.9041748046875
z: 0.00013468811812344939
","x: 338.7444763183594
y: 392.6212158203125
z: -0.00023063203843776137
","x: 344.446044921875
y: 390.156005859375
z: 0.002759988885372877
","x: 344.04107666015625
y: 397.2942810058594
z: 0.0018432543147355318
","x: 343.3312683105469
y: 401.49932861328125
z: 0.0011186356423422694
","x: 342.7253112792969
y: 404.54718017578125
z: 0.0008251997642219067
","x: 344.6694641113281
y: 390.05328369140625
z: 0.00125826895236969
","x: 344.475341796875
y: 397.78472900390625
z: 0.00047883272054605186
","x: 343.7448425292969
y: 401.9813537597656
z: 4.055703175254166e-05
","x: 343.2422180175781
y: 405.12774658203125
z: -0.00017640460282564163
","x: 344.299560546875
y: 389.5438232421875
z: -0.000580211344640702
","x: 344.18280029296875
y: 396.9764404296875
z: -0.0015579441096633673
","x: 343.542724609375
y: 401.1636962890625
z: -0.0016635134816169739
","x: 343.0733947753906
y: 404.34552001953125
z: -0.0016190301394090056
","x: 343.31201171875
y: 388.74810791015625
z: -0.002600722713395953
","x: 343.1436767578125
y: 394.763427734375
z: -0.003299833508208394
","x: 342.7680969238281
y: 398.3636169433594
z: -0.003265955252572894
","x: 342.37908935546875
y: 401.29156494140625
z: -0.0031578494235873222
",3.5714573860168457,,,,,,,,,,,,,,,,,,,,,
3,"x: 312.3153991699219
y: 247.0890655517578
z: -0.32203418016433716
visibility: 0.9999734163284302
","x: 313.52557373046875
y: 241.87989807128906
z: -0.31009000539779663
visibility: 0.9998748302459717
","x: 314.6274719238281
y: 241.7156982421875
z: -0.3100756108760834
visibility: 0.9998921155929565
","x: 315.7506103515625
y: 241.4932861328125
z: -0.3100742995738983
visibility: 0.9998862147331238
","x: 310.3560791015625
y: 242.66165161132812
z: -0.3093344569206238
visibility: 0.9998795986175537
","x: 309.1857604980469
y: 243.08566284179688
z: -0.3093830943107605
visibility: 0.9998858571052551
","x: 307.89617919921875
y: 243.44003295898438
z: -0.3094012141227722
visibility: 0.9998623132705688
","x: 317.666748046875
y: 245.4363250732422
z: -0.22414007782936096
visibility: 0.9997614622116089
","x: 305.8641357421875
y: 248.16270446777344
z: -0.22066369652748108
visibility: 0.9996773600578308
","x: 314.6802673339844
y: 254.31890869140625
z: -0.28939083218574524
visibility: 0.9999501705169678
","x: 310.4309997558594
y: 254.93954467773438
z: -0.2884244918823242
visibility: 0.9999331831932068
","x: 330.3395080566406
y: 283.87860107421875
z: -0.15143799781799316
visibility: 0.9999544024467468
","x: 297.5730285644531
y: 288.84820556640625
z: -0.1457097828388214
visibility: 0.999938428401947
","x: 339.6333312988281
y: 324.2390441894531
z: -0.10796171426773071
visibility: 0.9939289093017578
","x: 290.6845703125
y: 333.0903625488281
z: -0.09655864536762238
visibility: 0.982088029384613
","x: 343.25653076171875
y: 363.9912414550781
z: -0.18060533702373505
visibility: 0.9833168387413025
","x: 286.80181884765625
y: 372.1261291503906
z: -0.1587410867214203
visibility: 0.9572882652282715
","x: 345.2220764160156
y: 373.9925842285156
z: -0.2006446123123169
visibility: 0.9561070799827576
","x: 286.14422607421875
y: 385.85760498046875
z: -0.18191298842430115
visibility: 0.9091858863830566
","x: 343.4431457519531
y: 374.7947998046875
z: -0.2308993637561798
visibility: 0.9595565795898438
","x: 288.69891357421875
y: 386.8356628417969
z: -0.2098969668149948
visibility: 0.9145487546920776
","x: 341.92230224609375
y: 371.3258056640625
z: -0.19365331530570984
visibility: 0.9500706791877747
","x: 289.6845703125
y: 382.1324462890625
z: -0.17141538858413696
visibility: 0.9016116857528687
","x: 323.0968933105469
y: 373.3153076171875
z: -0.0013276783283799887
visibility: 0.9994722604751587
","x: 301.88330078125
y: 372.608642578125
z: 0.0012316424399614334
visibility: 0.9997380375862122
","x: 325.2375183105469
y: 443.90863037109375
z: -0.01619788259267807
visibility: 0.9963569641113281
","x: 296.21392822265625
y: 441.970703125
z: 0.008817539550364017
visibility: 0.997359037399292
","x: 329.21282958984375
y: 505.7278137207031
z: 0.1136435866355896
visibility: 0.9959426522254944
","x: 288.6860046386719
y: 496.40399169921875
z: 0.2018437385559082
visibility: 0.9964592456817627
","x: 327.34423828125
y: 513.3916015625
z: 0.12006685882806778
visibility: 0.9104869961738586
","x: 289.98480224609375
y: 502.25048828125
z: 0.21529129147529602
visibility: 0.9093599915504456
","x: 333.18853759765625
y: 528.8427124023438
z: 0.006288405507802963
visibility: 0.9928441643714905
","x: 284.7964782714844
y: 520.3526000976562
z: 0.11829451471567154
visibility: 0.9936980605125427
",,,,,,,,,,,,,,,,,,,,,,4.122342109680176,,,,,,,,,,,,,,,,,,,,,
4,"x: 312.3153991699219
y: 247.0890655517578
z: -0.32203418016433716
visibility: 0.9999734163284302
","x: 313.52557373046875
y: 241.87989807128906
z: -0.31009000539779663
visibility: 0.9998748302459717
","x: 314.6274719238281
y: 241.7156982421875
z: -0.3100756108760834
visibility: 0.9998921155929565
","x: 315.7506103515625
y: 241.4932861328125
z: -0.3100742995738983
visibility: 0.9998862147331238
","x: 310.3560791015625
y: 242.66165161132812
z: -0.3093344569206238
visibility: 0.9998795986175537
","x: 309.1857604980469
y: 243.08566284179688
z: -0.3093830943107605
visibility: 0.9998858571052551
","x: 307.89617919921875
y: 243.44003295898438
z: -0.3094012141227722
visibility: 0.9998623132705688
","x: 317.666748046875
y: 245.4363250732422
z: -0.22414007782936096
visibility: 0.9997614622116089
","x: 305.8641357421875
y: 248.16270446777344
z: -0.22066369652748108
visibility: 0.9996773600578308
","x: 314.6802673339844
y: 254.31890869140625
z: -0.28939083218574524
visibility: 0.9999501705169678
","x: 310.4309997558594
y: 254.93954467773438
z: -0.2884244918823242
visibility: 0.9999331831932068
","x: 330.3395080566406
y: 283.87860107421875
z: -0.15143799781799316
visibility: 0.9999544024467468
","x: 297.5730285644531
y: 288.84820556640625
z: -0.1457097828388214
visibility: 0.999938428401947
","x: 339.6333312988281
y: 324.2390441894531
z: -0.10796171426773071
visibility: 0.9939289093017578
","x: 290.6845703125
y: 333.0903625488281
z: -0.09655864536762238
visibility: 0.982088029384613
","x: 343.25653076171875
y: 363.9912414550781
z: -0.18060533702373505
visibility: 0.9833168387413025
","x: 286.80181884765625
y: 372.1261291503906
z: -0.1587410867214203
visibility: 0.9572882652282715
","x: 345.2220764160156
y: 373.9925842285156
z: -0.2006446123123169
visibility: 0.9561070799827576
","x: 286.14422607421875
y: 385.85760498046875
z: -0.18191298842430115
visibility: 0.9091858863830566
","x: 343.4431457519531
y: 374.7947998046875
z: -0.2308993637561798
visibility: 0.9595565795898438
","x: 288.69891357421875
y: 386.8356628417969
z: -0.2098969668149948
visibility: 0.9145487546920776
","x: 341.92230224609375
y: 371.3258056640625
z: -0.19365331530570984
visibility: 0.9500706791877747
","x: 289.6845703125
y: 382.1324462890625
z: -0.17141538858413696
visibility: 0.9016116857528687
","x: 323.0968933105469
y: 373.3153076171875
z: -0.0013276783283799887
visibility: 0.9994722604751587
","x: 301.88330078125
y: 372.608642578125
z: 0.0012316424399614334
visibility: 0.9997380375862122
","x: 325.2375183105469
y: 443.90863037109375
z: -0.01619788259267807
visibility: 0.9963569641113281
","x: 296.21392822265625
y: 441.970703125
z: 0.008817539550364017
visibility: 0.997359037399292
","x: 329.21282958984375
y: 505.7278137207031
z: 0.1136435866355896
visibility: 0.9959426522254944
","x: 288.6860046386719
y: 496.40399169921875
z: 0.2018437385559082
visibility: 0.9964592456817627
","x: 327.34423828125
y: 513.3916015625
z: 0.12006685882806778
visibility: 0.9104869961738586
","x: 289.98480224609375
y: 502.25048828125
z: 0.21529129147529602
visibility: 0.9093599915504456
","x: 333.18853759765625
y: 528.8427124023438
z: 0.006288405507802963
visibility: 0.9928441643714905
","x: 284.7964782714844
y: 520.3526000976562
z: 0.11829451471567154
visibility: 0.9936980605125427
",,,,,,,,,,,,,,,,,,,,,,4.122342109680176,,,,,,,,,,,,,,,,,,,,,
5,"x: 310.25927734375
y: 250.63128662109375
z: -0.27077728509902954
visibility: 0.9999739527702332
","x: 311.29278564453125
y: 244.70095825195312
z: -0.25882577896118164
visibility: 0.9998783469200134
","x: 312.3619689941406
y: 244.44058227539062
z: -0.258845716714859
visibility: 0.9998948574066162
","x: 313.4384765625
y: 244.129150390625
z: -0.2588537335395813
visibility: 0.9998894333839417
","x: 307.9980163574219
y: 245.57803344726562
z: -0.2599603533744812
visibility: 0.999882161617279
","x: 306.7693176269531
y: 245.9720458984375
z: -0.25999170541763306
visibility: 0.9998874664306641
","x: 305.4393310546875
y: 246.30712890625
z: -0.2600032687187195
visibility: 0.999864399433136
","x: 315.0897216796875
y: 247.2254180908203
z: -0.1752094179391861
visibility: 0.9997673630714417
","x: 302.8459167480469
y: 250.17474365234375
z: -0.1801382303237915
visibility: 0.9996803998947144
","x: 312.5764465332031
y: 256.935302734375
z: -0.23848393559455872
visibility: 0.9999501705169678
","x: 308.17694091796875
y: 257.71282958984375
z: -0.24001769721508026
visibility: 0.9999327659606934
","x: 325.7418212890625
y: 284.69525146484375
z: -0.11692211776971817
visibility: 0.9999568462371826
","x: 292.8797607421875
y: 289.59674072265625
z: -0.1013578325510025
visibility: 0.9999336004257202
","x: 335.9275817871094
y: 323.9422912597656
z: -0.08140763640403748
visibility: 0.9940704107284546
","x: 285.83245849609375
y: 335.1983947753906
z: -0.05232786387205124
visibility: 0.9815199971199036
","x: 339.82940673828125
y: 364.12713623046875
z: -0.16012200713157654
visibility: 0.9839357733726501
","x: 278.79119873046875
y: 374.6317138671875
z: -0.11246238648891449
visibility: 0.9585065245628357
","x: 342.1070251464844
y: 374.7552795410156
z: -0.1809210181236267
visibility: 0.9577465653419495
","x: 275.45703125
y: 388.26239013671875
z: -0.13183900713920593
visibility: 0.9118502736091614
","x: 339.1565856933594
y: 375.97662353515625
z: -0.20884528756141663
visibility: 0.9611183404922485
","x: 277.68817138671875
y: 389.3207092285156
z: -0.1619863510131836
visibility: 0.9172934293746948
","x: 337.5309753417969
y: 372.92413330078125
z: -0.17232270538806915
visibility: 0.9519633054733276
","x: 279.25897216796875
y: 385.0400390625
z: -0.12596219778060913
visibility: 0.904867947101593
","x: 318.23577880859375
y: 375.1192626953125
z: -0.004096160642802715
visibility: 0.999502956867218
","x: 297.66015625
y: 375.8695983886719
z: 0.004007165785878897
visibility: 0.9997314810752869
","x: 322.1448974609375
y: 444.3649597167969
z: -0.016442473977804184
visibility: 0.9963313341140747
","x: 292.83404541015625
y: 442.16729736328125
z: 0.03866096958518028
visibility: 0.9969256520271301
","x: 329.1651611328125
y: 504.78204345703125
z: 0.06074325367808342
visibility: 0.9959016442298889
","x: 288.3525695800781
y: 496.29779052734375
z: 0.1753387451171875
visibility: 0.9959847927093506
","x: 327.4444580078125
y: 512.53369140625
z: 0.06129375100135803
visibility: 0.9087325930595398
","x: 290.0101318359375
y: 502.94244384765625
z: 0.18253198266029358
visibility: 0.9065053462982178
","x: 332.8186340332031
y: 528.0031127929688
z: -0.046862054616212845
visibility: 0.9925278425216675
","x: 283.5057067871094
y: 517.04541015625
z: 0.08876240998506546
visibility: 0.99295973777771
",,,,,,,,,,,,,,,,,,,,,,4.244985342025757,,,,,,,,,,,,,,,,,,,,,
6,"x: 310.25927734375
y: 250.63128662109375
z: -0.27077728509902954
visibility: 0.9999739527702332
","x: 311.29278564453125
y: 244.70095825195312
z: -0.25882577896118164
visibility: 0.9998783469200134
","x: 312.3619689941406
y: 244.44058227539062
z: -0.258845716714859
visibility: 0.9998948574066162
","x: 313.4384765625
y: 244.129150390625
z: -0.2588537335395813
visibility: 0.9998894333839417
","x: 307.9980163574219
y: 245.57803344726562
z: -0.2599603533744812
visibility: 0.999882161617279
","x: 306.7693176269531
y: 245.9720458984375
z: -0.25999170541763306
visibility: 0.9998874664306641
","x: 305.4393310546875
y: 246.30712890625
z: -0.2600032687187195
visibility: 0.999864399433136
","x: 315.0897216796875
y: 247.2254180908203
z: -0.1752094179391861
visibility: 0.9997673630714417
","x: 302.8459167480469
y: 250.17474365234375
z: -0.1801382303237915
visibility: 0.9996803998947144
","x: 312.5764465332031
y: 256.935302734375
z: -0.23848393559455872
visibility: 0.9999501705169678
","x: 308.17694091796875
y: 257.71282958984375
z: -0.24001769721508026
visibility: 0.9999327659606934
","x: 325.7418212890625
y: 284.69525146484375
z: -0.11692211776971817
visibility: 0.9999568462371826
","x: 292.8797607421875
y: 289.59674072265625
z: -0.1013578325510025
visibility: 0.9999336004257202
","x: 335.9275817871094
y: 323.9422912597656
z: -0.08140763640403748
visibility: 0.9940704107284546
","x: 285.83245849609375
y: 335.1983947753906
z: -0.05232786387205124
visibility: 0.9815199971199036
","x: 339.82940673828125
y: 364.12713623046875
z: -0.16012200713157654
visibility: 0.9839357733726501
","x: 278.79119873046875
y: 374.6317138671875
z: -0.11246238648891449
visibility: 0.9585065245628357
","x: 342.1070251464844
y: 374.7552795410156
z: -0.1809210181236267
visibility: 0.9577465653419495
","x: 275.45703125
y: 388.26239013671875
z: -0.13183900713920593
visibility: 0.9118502736091614
","x: 339.1565856933594
y: 375.97662353515625
z: -0.20884528756141663
visibility: 0.9611183404922485
","x: 277.68817138671875
y: 389.3207092285156
z: -0.1619863510131836
visibility: 0.9172934293746948
","x: 337.5309753417969
y: 372.92413330078125
z: -0.17232270538806915
visibility: 0.9519633054733276
","x: 279.25897216796875
y: 385.0400390625
z: -0.12596219778060913
visibility: 0.904867947101593
","x: 318.23577880859375
y: 375.1192626953125
z: -0.004096160642802715
visibility: 0.999502956867218
","x: 297.66015625
y: 375.8695983886719
z: 0.004007165785878897
visibility: 0.9997314810752869
","x: 322.1448974609375
y: 444.3649597167969
z: -0.016442473977804184
visibility: 0.9963313341140747
","x: 292.83404541015625
y: 442.16729736328125
z: 0.03866096958518028
visibility: 0.9969256520271301
","x: 329.1651611328125
y: 504.78204345703125
z: 0.06074325367808342
visibility: 0.9959016442298889
","x: 288.3525695800781
y: 496.29779052734375
z: 0.1753387451171875
visibility: 0.9959847927093506
","x: 327.4444580078125
y: 512.53369140625
z: 0.06129375100135803
visibility: 0.9087325930595398
","x: 290.0101318359375
y: 502.94244384765625
z: 0.18253198266029358
visibility: 0.9065053462982178
","x: 332.8186340332031
y: 528.0031127929688
z: -0.046862054616212845
visibility: 0.9925278425216675
","x: 283.5057067871094
y: 517.04541015625
z: 0.08876240998506546
visibility: 0.99295973777771
",,,,,,,,,,,,,,,,,,,,,,4.244985342025757,,,,,,,,,,,,,,,,,,,,,
7,"x: 302.6870422363281
y: 252.19290161132812
z: -0.29564279317855835
visibility: 0.9999744296073914
","x: 303.9740295410156
y: 246.88925170898438
z: -0.285266637802124
visibility: 0.9998794794082642
","x: 304.9755554199219
y: 246.84339904785156
z: -0.28527238965034485
visibility: 0.9998960494995117
","x: 306.0109558105469
y: 246.7405548095703
z: -0.2852815091609955
visibility: 0.9998900890350342
","x: 300.8847961425781
y: 247.2887420654297
z: -0.2839541733264923
visibility: 0.9998825192451477
","x: 299.7242431640625
y: 247.52743530273438
z: -0.28399568796157837
visibility: 0.999886691570282
","x: 298.4622497558594
y: 247.69406127929688
z: -0.2840152382850647
visibility: 0.9998621344566345
","x: 307.7173767089844
y: 250.17984008789062
z: -0.20240092277526855
visibility: 0.9997673630714417
","x: 296.74945068359375
y: 251.25546264648438
z: -0.19911205768585205
visibility: 0.999679684638977
","x: 304.6181640625
y: 259.16998291015625
z: -0.26453715562820435
visibility: 0.9999494552612305
","x: 300.5524597167969
y: 259.0929870605469
z: -0.26301220059394836
visibility: 0.9999322891235352
","x: 319.6480712890625
y: 285.95831298828125
z: -0.1375468522310257
visibility: 0.9999585151672363
","x: 286.4391784667969
y: 289.3192443847656
z: -0.11871631443500519
visibility: 0.9999358057975769
","x: 326.35772705078125
y: 324.8324279785156
z: -0.09455583989620209
visibility: 0.9942228198051453
","x: 275.5867004394531
y: 333.72265625
z: -0.06941623240709305
visibility: 0.9821093082427979
","x: 333.4591979980469
y: 365.7162170410156
z: -0.16521576046943665
visibility: 0.9845815896987915
","x: 266.87432861328125
y: 369.8948974609375
z: -0.12579044699668884
visibility: 0.9611930847167969
","x: 338.0929260253906
y: 376.93853759765625
z: -0.18623216450214386
visibility: 0.9592585563659668
","x: 263.354248046875
y: 383.66632080078125
z: -0.14316467940807343
visibility: 0.9170605540275574
","x: 336.4087219238281
y: 378.15179443359375
z: -0.21536490321159363
visibility: 0.9626098871231079
","x: 264.0472106933594
y: 384.2646484375
z: -0.17289523780345917
visibility: 0.9222932457923889
","x: 334.3249206542969
y: 374.9059753417969
z: -0.17824921011924744
visibility: 0.953905463218689
","x: 265.6545104980469
y: 380.7392883300781
z: -0.1392005980014801
visibility: 0.9107033014297485
","x: 310.7850036621094
y: 374.6094970703125
z: -0.004040991887450218
visibility: 0.9995319247245789
","x: 289.9425354003906
y: 375.7618713378906
z: 0.003940442577004433
visibility: 0.9997380375862122
","x: 317.4847106933594
y: 444.0463562011719
z: -0.018657831475138664
visibility: 0.9961208701133728
","x: 289.8287353515625
y: 441.99359130859375
z: 0.02371043711900711
visibility: 0.9967159628868103
","x: 326.8329162597656
y: 503.5500793457031
z: 0.06382624059915543
visibility: 0.9958255290985107
","x: 288.1322021484375
y: 494.5405578613281
z: 0.1590845286846161
visibility: 0.9957269430160522
","x: 325.8036193847656
y: 512.3096313476562
z: 0.0655059665441513
visibility: 0.9110161066055298
","x: 290.2831115722656
y: 501.4621276855469
z: 0.16622215509414673
visibility: 0.9065821766853333
","x: 332.02862548828125
y: 523.224853515625
z: -0.03823903948068619
visibility: 0.992205798625946
","x: 284.4946594238281
y: 515.4500122070312
z: 0.07339562475681305
visibility: 0.9924157857894897
","x: 332.9814453125
y: 367.544189453125
z: 0.0
","x: 332.3416442871094
y: 371.4862365722656
z: -0.004313723649829626
","x: 332.8369445800781
y: 376.0803527832031
z: -0.00653631379827857
","x: 334.12744140625
y: 381.3571472167969
z: -0.007951159961521626
","x: 335.4821472167969
y: 385.59698486328125
z: -0.008841576054692268
","x: 337.9305725097656
y: 376.89288330078125
z: -0.006538425572216511
","x: 338.66119384765625
y: 385.73876953125
z: -0.008406839333474636
","x: 336.95263671875
y: 389.38983154296875
z: -0.008550962433218956
","x: 335.0799560546875
y: 390.2533264160156
z: -0.008207311853766441
","x: 339.1251220703125
y: 377.7707214355469
z: -0.005079759284853935
","x: 339.4647216796875
y: 386.5936584472656
z: -0.006796997040510178
","x: 337.5130615234375
y: 389.68841552734375
z: -0.006456765346229076
","x: 335.7590637207031
y: 390.5037841796875
z: -0.005904154386371374
","x: 339.3828125
y: 378.81756591796875
z: -0.003790998598560691
","x: 339.8151550292969
y: 386.66790771484375
z: -0.00540038850158453
","x: 338.2000732421875
y: 389.60028076171875
z: -0.005093993153423071
","x: 336.527099609375
y: 390.3914794921875
z: -0.004628408700227737
","x: 338.94281005859375
y: 379.8084716796875
z: -0.002838520798832178
","x: 339.6651916503906
y: 386.24859619140625
z: -0.004378394223749638
","x: 338.6340637207031
y: 389.3936462402344
z: -0.0044221216812729836
","x: 337.2348327636719
y: 390.6824951171875
z: -0.0040123360231518745
",4.368003845214844,,,,,,,,,,,,,,,,,,,,,
8,"x: 302.6870422363281
y: 252.19290161132812
z: -0.29564279317855835
visibility: 0.9999744296073914
","x: 303.9740295410156
y: 246.88925170898438
z: -0.285266637802124
visibility: 0.9998794794082642
","x: 304.9755554199219
y: 246.84339904785156
z: -0.28527238965034485
visibility: 0.9998960494995117
","x: 306.0109558105469
y: 246.7405548095703
z: -0.2852815091609955
visibility: 0.9998900890350342
","x: 300.8847961425781
y: 247.2887420654297
z: -0.2839541733264923
visibility: 0.9998825192451477
","x: 299.7242431640625
y: 247.52743530273438
z: -0.28399568796157837
visibility: 0.999886691570282
","x: 298.4622497558594
y: 247.69406127929688
z: -0.2840152382850647
visibility: 0.9998621344566345
","x: 307.7173767089844
y: 250.17984008789062
z: -0.20240092277526855
visibility: 0.9997673630714417
","x: 296.74945068359375
y: 251.25546264648438
z: -0.19911205768585205
visibility: 0.999679684638977
","x: 304.6181640625
y: 259.16998291015625
z: -0.26453715562820435
visibility: 0.9999494552612305
","x: 300.5524597167969
y: 259.0929870605469
z: -0.26301220059394836
visibility: 0.9999322891235352
","x: 319.6480712890625
y: 285.95831298828125
z: -0.1375468522310257
visibility: 0.9999585151672363
","x: 286.4391784667969
y: 289.3192443847656
z: -0.11871631443500519
visibility: 0.9999358057975769
","x: 326.35772705078125
y: 324.8324279785156
z: -0.09455583989620209
visibility: 0.9942228198051453
","x: 275.5867004394531
y: 333.72265625
z: -0.06941623240709305
visibility: 0.9821093082427979
","x: 333.4591979980469
y: 365.7162170410156
z: -0.16521576046943665
visibility: 0.9845815896987915
","x: 266.87432861328125
y: 369.8948974609375
z: -0.12579044699668884
visibility: 0.9611930847167969
","x: 338.0929260253906
y: 376.93853759765625
z: -0.18623216450214386
visibility: 0.9592585563659668
","x: 263.354248046875
y: 383.66632080078125
z: -0.14316467940807343
visibility: 0.9170605540275574
","x: 336.4087219238281
y: 378.15179443359375
z: -0.21536490321159363
visibility: 0.9626098871231079
","x: 264.0472106933594
y: 384.2646484375
z: -0.17289523780345917
visibility: 0.9222932457923889
","x: 334.3249206542969
y: 374.9059753417969
z: -0.17824921011924744
visibility: 0.953905463218689
","x: 265.6545104980469
y: 380.7392883300781
z: -0.1392005980014801
visibility: 0.9107033014297485
","x: 310.7850036621094
y: 374.6094970703125
z: -0.004040991887450218
visibility: 0.9995319247245789
","x: 289.9425354003906
y: 375.7618713378906
z: 0.003940442577004433
visibility: 0.9997380375862122
","x: 317.4847106933594
y: 444.0463562011719
z: -0.018657831475138664
visibility: 0.9961208701133728
","x: 289.8287353515625
y: 441.99359130859375
z: 0.02371043711900711
visibility: 0.9967159628868103
","x: 326.8329162597656
y: 503.5500793457031
z: 0.06382624059915543
visibility: 0.9958255290985107
","x: 288.1322021484375
y: 494.5405578613281
z: 0.1590845286846161
visibility: 0.9957269430160522
","x: 325.8036193847656
y: 512.3096313476562
z: 0.0655059665441513
visibility: 0.9110161066055298
","x: 290.2831115722656
y: 501.4621276855469
z: 0.16622215509414673
visibility: 0.9065821766853333
","x: 332.02862548828125
y: 523.224853515625
z: -0.03823903948068619
visibility: 0.992205798625946
","x: 284.4946594238281
y: 515.4500122070312
z: 0.07339562475681305
visibility: 0.9924157857894897
","x: 332.9814453125
y: 367.544189453125
z: 0.0
","x: 332.3416442871094
y: 371.4862365722656
z: -0.004313723649829626
","x: 332.8369445800781
y: 376.0803527832031
z: -0.00653631379827857
","x: 334.12744140625
y: 381.3571472167969
z: -0.007951159961521626
","x: 335.4821472167969
y: 385.59698486328125
z: -0.008841576054692268
","x: 337.9305725097656
y: 376.89288330078125
z: -0.006538425572216511
","x: 338.66119384765625
y: 385.73876953125
z: -0.008406839333474636
","x: 336.95263671875
y: 389.38983154296875
z: -0.008550962433218956
","x: 335.0799560546875
y: 390.2533264160156
z: -0.008207311853766441
","x: 339.1251220703125
y: 377.7707214355469
z: -0.005079759284853935
","x: 339.4647216796875
y: 386.5936584472656
z: -0.006796997040510178
","x: 337.5130615234375
y: 389.68841552734375
z: -0.006456765346229076
","x: 335.7590637207031
y: 390.5037841796875
z: -0.005904154386371374
","x: 339.3828125
y: 378.81756591796875
z: -0.003790998598560691
","x: 339.8151550292969
y: 386.66790771484375
z: -0.00540038850158453
","x: 338.2000732421875
y: 389.60028076171875
z: -0.005093993153423071
","x: 336.527099609375
y: 390.3914794921875
z: -0.004628408700227737
","x: 338.94281005859375
y: 379.8084716796875
z: -0.002838520798832178
","x: 339.6651916503906
y: 386.24859619140625
z: -0.004378394223749638
","x: 338.6340637207031
y: 389.3936462402344
z: -0.0044221216812729836
","x: 337.2348327636719
y: 390.6824951171875
z: -0.0040123360231518745
",4.368003845214844,,,,,,,,,,,,,,,,,,,,,
9,"x: 302.6870422363281
y: 252.19290161132812
z: -0.29564279317855835
visibility: 0.9999744296073914
","x: 303.9740295410156
y: 246.88925170898438
z: -0.285266637802124
visibility: 0.9998794794082642
","x: 304.9755554199219
y: 246.84339904785156
z: -0.28527238965034485
visibility: 0.9998960494995117
","x: 306.0109558105469
y: 246.7405548095703
z: -0.2852815091609955
visibility: 0.9998900890350342
","x: 300.8847961425781
y: 247.2887420654297
z: -0.2839541733264923
visibility: 0.9998825192451477
","x: 299.7242431640625
y: 247.52743530273438
z: -0.28399568796157837
visibility: 0.999886691570282
","x: 298.4622497558594
y: 247.69406127929688
z: -0.2840152382850647
visibility: 0.9998621344566345
","x: 307.7173767089844
y: 250.17984008789062
z: -0.20240092277526855
visibility: 0.9997673630714417
","x: 296.74945068359375
y: 251.25546264648438
z: -0.19911205768585205
visibility: 0.999679684638977
","x: 304.6181640625
y: 259.16998291015625
z: -0.26453715562820435
visibility: 0.9999494552612305
","x: 300.5524597167969
y: 259.0929870605469
z: -0.26301220059394836
visibility: 0.9999322891235352
","x: 319.6480712890625
y: 285.95831298828125
z: -0.1375468522310257
visibility: 0.9999585151672363
","x: 286.4391784667969
y: 289.3192443847656
z: -0.11871631443500519
visibility: 0.9999358057975769
","x: 326.35772705078125
y: 324.8324279785156
z: -0.09455583989620209
visibility: 0.9942228198051453
","x: 275.5867004394531
y: 333.72265625
z: -0.06941623240709305
visibility: 0.9821093082427979
","x: 333.4591979980469
y: 365.7162170410156
z: -0.16521576046943665
visibility: 0.9845815896987915
","x: 266.87432861328125
y: 369.8948974609375
z: -0.12579044699668884
visibility: 0.9611930847167969
","x: 338.0929260253906
y: 376.93853759765625
z: -0.18623216450214386
visibility: 0.9592585563659668
","x: 263.354248046875
y: 383.66632080078125
z: -0.14316467940807343
visibility: 0.9170605540275574
","x: 336.4087219238281
y: 378.15179443359375
z: -0.21536490321159363
visibility: 0.9626098871231079
","x: 264.0472106933594
y: 384.2646484375
z: -0.17289523780345917
visibility: 0.9222932457923889
","x: 334.3249206542969
y: 374.9059753417969
z: -0.17824921011924744
visibility: 0.953905463218689
","x: 265.6545104980469
y: 380.7392883300781
z: -0.1392005980014801
visibility: 0.9107033014297485
","x: 310.7850036621094
y: 374.6094970703125
z: -0.004040991887450218
visibility: 0.9995319247245789
","x: 289.9425354003906
y: 375.7618713378906
z: 0.003940442577004433
visibility: 0.9997380375862122
","x: 317.4847106933594
y: 444.0463562011719
z: -0.018657831475138664
visibility: 0.9961208701133728
","x: 289.8287353515625
y: 441.99359130859375
z: 0.02371043711900711
visibility: 0.9967159628868103
","x: 326.8329162597656
y: 503.5500793457031
z: 0.06382624059915543
visibility: 0.9958255290985107
","x: 288.1322021484375
y: 494.5405578613281
z: 0.1590845286846161
visibility: 0.9957269430160522
","x: 325.8036193847656
y: 512.3096313476562
z: 0.0655059665441513
visibility: 0.9110161066055298
","x: 290.2831115722656
y: 501.4621276855469
z: 0.16622215509414673
visibility: 0.9065821766853333
","x: 332.02862548828125
y: 523.224853515625
z: -0.03823903948068619
visibility: 0.992205798625946
","x: 284.4946594238281
y: 515.4500122070312
z: 0.07339562475681305
visibility: 0.9924157857894897
","x: 332.9814453125
y: 367.544189453125
z: 0.0
","x: 332.3416442871094
y: 371.4862365722656
z: -0.004313723649829626
","x: 332.8369445800781
y: 376.0803527832031
z: -0.00653631379827857
","x: 334.12744140625
y: 381.3571472167969
z: -0.007951159961521626
","x: 335.4821472167969
y: 385.59698486328125
z: -0.008841576054692268
","x: 337.9305725097656
y: 376.89288330078125
z: -0.006538425572216511
","x: 338.66119384765625
y: 385.73876953125
z: -0.008406839333474636
","x: 336.95263671875
y: 389.38983154296875
z: -0.008550962433218956
","x: 335.0799560546875
y: 390.2533264160156
z: -0.008207311853766441
","x: 339.1251220703125
y: 377.7707214355469
z: -0.005079759284853935
","x: 339.4647216796875
y: 386.5936584472656
z: -0.006796997040510178
","x: 337.5130615234375
y: 389.68841552734375
z: -0.006456765346229076
","x: 335.7590637207031
y: 390.5037841796875
z: -0.005904154386371374
","x: 339.3828125
y: 378.81756591796875
z: -0.003790998598560691
","x: 339.8151550292969
y: 386.66790771484375
z: -0.00540038850158453
","x: 338.2000732421875
y: 389.60028076171875
z: -0.005093993153423071
","x: 336.527099609375
y: 390.3914794921875
z: -0.004628408700227737
","x: 338.94281005859375
y: 379.8084716796875
z: -0.002838520798832178
","x: 339.6651916503906
y: 386.24859619140625
z: -0.004378394223749638
","x: 338.6340637207031
y: 389.3936462402344
z: -0.0044221216812729836
","x: 337.2348327636719
y: 390.6824951171875
z: -0.0040123360231518745
",4.368003845214844,,,,,,,,,,,,,,,,,,,,,
10,"x: 298.02801513671875
y: 250.8377685546875
z: -0.30200326442718506
visibility: 0.9999716281890869
","x: 299.57293701171875
y: 245.43515014648438
z: -0.2913345694541931
visibility: 0.9998670220375061
","x: 300.6321716308594
y: 245.400634765625
z: -0.29133340716362
visibility: 0.999885082244873
","x: 301.7145080566406
y: 245.36141967773438
z: -0.29133039712905884
visibility: 0.9998748898506165
","x: 296.34228515625
y: 246.14312744140625
z: -0.2891749143600464
visibility: 0.9998730421066284
","x: 295.02764892578125
y: 246.67115783691406
z: -0.2892231345176697
visibility: 0.9998788833618164
","x: 293.6369323730469
y: 247.29962158203125
z: -0.2892477512359619
visibility: 0.9998559951782227
","x: 303.5235290527344
y: 249.090576171875
z: -0.20650751888751984
visibility: 0.9997498989105225
","x: 291.7218017578125
y: 250.5111846923828
z: -0.1967785656452179
visibility: 0.9996738433837891
","x: 299.6705322265625
y: 257.87103271484375
z: -0.2693314552307129
visibility: 0.9999451041221619
","x: 295.6649169921875
y: 258.6637268066406
z: -0.2665117383003235
visibility: 0.9999275803565979
","x: 315.7916564941406
y: 284.82318115234375
z: -0.13693127036094666
visibility: 0.9999571442604065
","x: 281.67218017578125
y: 286.267822265625
z: -0.10677295923233032
visibility: 0.9999362230300903
","x: 323.7173156738281
y: 315.95758056640625
z: -0.08543269336223602
visibility: 0.9942769408226013
","x: 271.279541015625
y: 324.2527770996094
z: -0.043325960636138916
visibility: 0.9826822876930237
","x: 323.3650817871094
y: 350.88372802734375
z: -0.14785493910312653
visibility: 0.9846283197402954
","x: 265.158935546875
y: 359.9914855957031
z: -0.10356836020946503
visibility: 0.9635281562805176
","x: 323.67462158203125
y: 362.2359924316406
z: -0.16458439826965332
visibility: 0.9589511156082153
","x: 261.61962890625
y: 372.3943786621094
z: -0.1212928295135498
visibility: 0.9214266538619995
","x: 321.71533203125
y: 362.2879638671875
z: -0.19180145859718323
visibility: 0.9622587561607361
","x: 263.0566711425781
y: 372.2837829589844
z: -0.1483057737350464
visibility: 0.9263632893562317
","x: 320.8838195800781
y: 358.43927001953125
z: -0.15887479484081268
visibility: 0.9531751275062561
","x: 265.0808410644531
y: 368.4755859375
z: -0.11555840820074081
visibility: 0.9152993559837341
","x: 308.9795227050781
y: 371.9221496582031
z: -0.006313627120107412
visibility: 0.9994639754295349
","x: 288.1167297363281
y: 372.19036865234375
z: 0.006220238283276558
visibility: 0.9997133612632751
","x: 308.8177185058594
y: 438.4088134765625
z: 0.007400506641715765
visibility: 0.9958536624908447
","x: 286.73150634765625
y: 438.0732727050781
z: 0.002666346961632371
visibility: 0.9965177178382874
","x: 310.3533935546875
y: 492.9053955078125
z: 0.12767842411994934
visibility: 0.9955490827560425
","x: 286.56207275390625
y: 495.3779602050781
z: 0.11591943353414536
visibility: 0.9956559538841248
","x: 308.9131164550781
y: 499.56927490234375
z: 0.13287068903446198
visibility: 0.9082151651382446
","x: 288.5417175292969
y: 503.16180419921875
z: 0.12026860564947128
visibility: 0.908982515335083
","x: 311.2413330078125
y: 518.6142578125
z: 0.02953689731657505
visibility: 0.9919149875640869
","x: 283.10125732421875
y: 516.1033935546875
z: 0.01821042224764824
visibility: 0.992465615272522
","x: 323.3530578613281
y: 351.04718017578125
z: 0.0
","x: 321.50048828125
y: 354.33197021484375
z: -0.003906832076609135
","x: 320.3618469238281
y: 359.2303161621094
z: -0.005016636569052935
","x: 320.2226257324219
y: 364.3304748535156
z: -0.005168180912733078
","x: 320.6105041503906
y: 368.4562683105469
z: -0.004933693911880255
","x: 323.43243408203125
y: 363.0284118652344
z: -0.0036056553944945335
","x: 322.76171875
y: 370.225341796875
z: -0.003948136232793331
","x: 321.18878173828125
y: 373.1021728515625
z: -0.0038901721127331257
","x: 319.801025390625
y: 374.09674072265625
z: -0.0036124135367572308
","x: 324.1238098144531
y: 363.52020263671875
z: -0.0014760664198547602
","x: 323.0231018066406
y: 370.3780822753906
z: -0.001458632992580533
","x: 321.39422607421875
y: 372.8640441894531
z: -0.0015318171354010701
","x: 320.0350646972656
y: 374.3328552246094
z: -0.001596082584001124
","x: 324.18023681640625
y: 364.0369873046875
z: 0.0004651320050470531
","x: 323.0880126953125
y: 369.92889404296875
z: 0.0005971769569441676
","x: 321.68084716796875
y: 372.37518310546875
z: 7.182909757830203e-05
","x: 320.4139709472656
y: 373.46466064453125
z: -0.00043239278602413833
","x: 323.8321838378906
y: 364.1050720214844
z: 0.002099180594086647
","x: 323.02862548828125
y: 369.0872497558594
z: 0.0021026558242738247
","x: 321.84100341796875
y: 371.5989990234375
z: 0.00173062807880342
","x: 320.6878356933594
y: 372.4664611816406
z: 0.0014811786822974682
",4.510679721832275,,,,,,,,,,,,,,,,,,,,,
11,"x: 298.02801513671875
y: 250.8377685546875
z: -0.30200326442718506
visibility: 0.9999716281890869
","x: 299.57293701171875
y: 245.43515014648438
z: -0.2913345694541931
visibility: 0.9998670220375061
","x: 300.6321716308594
y: 245.400634765625
z: -0.29133340716362
visibility: 0.999885082244873
","x: 301.7145080566406
y: 245.36141967773438
z: -0.29133039712905884
visibility: 0.9998748898506165
","x: 296.34228515625
y: 246.14312744140625
z: -0.2891749143600464
visibility: 0.9998730421066284
","x: 295.02764892578125
y: 246.67115783691406
z: -0.2892231345176697
visibility: 0.9998788833618164
","x: 293.6369323730469
y: 247.29962158203125
z: -0.2892477512359619
visibility: 0.9998559951782227
","x: 303.5235290527344
y: 249.090576171875
z: -0.20650751888751984
visibility: 0.9997498989105225
","x: 291.7218017578125
y: 250.5111846923828
z: -0.1967785656452179
visibility: 0.9996738433837891
","x: 299.6705322265625
y: 257.87103271484375
z: -0.2693314552307129
visibility: 0.9999451041221619
","x: 295.6649169921875
y: 258.6637268066406
z: -0.2665117383003235
visibility: 0.9999275803565979
","x: 315.7916564941406
y: 284.82318115234375
z: -0.13693127036094666
visibility: 0.9999571442604065
","x: 281.67218017578125
y: 286.267822265625
z: -0.10677295923233032
visibility: 0.9999362230300903
","x: 323.7173156738281
y: 315.95758056640625
z: -0.08543269336223602
visibility: 0.9942769408226013
","x: 271.279541015625
y: 324.2527770996094
z: -0.043325960636138916
visibility: 0.9826822876930237
","x: 323.3650817871094
y: 350.88372802734375
z: -0.14785493910312653
visibility: 0.9846283197402954
","x: 265.158935546875
y: 359.9914855957031
z: -0.10356836020946503
visibility: 0.9635281562805176
","x: 323.67462158203125
y: 362.2359924316406
z: -0.16458439826965332
visibility: 0.9589511156082153
","x: 261.61962890625
y: 372.3943786621094
z: -0.1212928295135498
visibility: 0.9214266538619995
","x: 321.71533203125
y: 362.2879638671875
z: -0.19180145859718323
visibility: 0.9622587561607361
","x: 263.0566711425781
y: 372.2837829589844
z: -0.1483057737350464
visibility: 0.9263632893562317
","x: 320.8838195800781
y: 358.43927001953125
z: -0.15887479484081268
visibility: 0.9531751275062561
","x: 265.0808410644531
y: 368.4755859375
z: -0.11555840820074081
visibility: 0.9152993559837341
","x: 308.9795227050781
y: 371.9221496582031
z: -0.006313627120107412
visibility: 0.9994639754295349
","x: 288.1167297363281
y: 372.19036865234375
z: 0.006220238283276558
visibility: 0.9997133612632751
","x: 308.8177185058594
y: 438.4088134765625
z: 0.007400506641715765
visibility: 0.9958536624908447
","x: 286.73150634765625
y: 438.0732727050781
z: 0.002666346961632371
visibility: 0.9965177178382874
","x: 310.3533935546875
y: 492.9053955078125
z: 0.12767842411994934
visibility: 0.9955490827560425
","x: 286.56207275390625
y: 495.3779602050781
z: 0.11591943353414536
visibility: 0.9956559538841248
","x: 308.9131164550781
y: 499.56927490234375
z: 0.13287068903446198
visibility: 0.9082151651382446
","x: 288.5417175292969
y: 503.16180419921875
z: 0.12026860564947128
visibility: 0.908982515335083
","x: 311.2413330078125
y: 518.6142578125
z: 0.02953689731657505
visibility: 0.9919149875640869
","x: 283.10125732421875
y: 516.1033935546875
z: 0.01821042224764824
visibility: 0.992465615272522
","x: 323.3530578613281
y: 351.04718017578125
z: 0.0
","x: 321.50048828125
y: 354.33197021484375
z: -0.003906832076609135
","x: 320.3618469238281
y: 359.2303161621094
z: -0.005016636569052935
","x: 320.2226257324219
y: 364.3304748535156
z: -0.005168180912733078
","x: 320.6105041503906
y: 368.4562683105469
z: -0.004933693911880255
","x: 323.43243408203125
y: 363.0284118652344
z: -0.0036056553944945335
","x: 322.76171875
y: 370.225341796875
z: -0.003948136232793331
","x: 321.18878173828125
y: 373.1021728515625
z: -0.0038901721127331257
","x: 319.801025390625
y: 374.09674072265625
z: -0.0036124135367572308
","x: 324.1238098144531
y: 363.52020263671875
z: -0.0014760664198547602
","x: 323.0231018066406
y: 370.3780822753906
z: -0.001458632992580533
","x: 321.39422607421875
y: 372.8640441894531
z: -0.0015318171354010701
","x: 320.0350646972656
y: 374.3328552246094
z: -0.001596082584001124
","x: 324.18023681640625
y: 364.0369873046875
z: 0.0004651320050470531
","x: 323.0880126953125
y: 369.92889404296875
z: 0.0005971769569441676
","x: 321.68084716796875
y: 372.37518310546875
z: 7.182909757830203e-05
","x: 320.4139709472656
y: 373.46466064453125
z: -0.00043239278602413833
","x: 323.8321838378906
y: 364.1050720214844
z: 0.002099180594086647
","x: 323.02862548828125
y: 369.0872497558594
z: 0.0021026558242738247
","x: 321.84100341796875
y: 371.5989990234375
z: 0.00173062807880342
","x: 320.6878356933594
y: 372.4664611816406
z: 0.0014811786822974682
",4.510679721832275,,,,,,,,,,,,,,,,,,,,,
12,"x: 298.02801513671875
y: 250.8377685546875
z: -0.30200326442718506
visibility: 0.9999716281890869
","x: 299.57293701171875
y: 245.43515014648438
z: -0.2913345694541931
visibility: 0.9998670220375061
","x: 300.6321716308594
y: 245.400634765625
z: -0.29133340716362
visibility: 0.999885082244873
","x: 301.7145080566406
y: 245.36141967773438
z: -0.29133039712905884
visibility: 0.9998748898506165
","x: 296.34228515625
y: 246.14312744140625
z: -0.2891749143600464
visibility: 0.9998730421066284
","x: 295.02764892578125
y: 246.67115783691406
z: -0.2892231345176697
visibility: 0.9998788833618164
","x: 293.6369323730469
y: 247.29962158203125
z: -0.2892477512359619
visibility: 0.9998559951782227
","x: 303.5235290527344
y: 249.090576171875
z: -0.20650751888751984
visibility: 0.9997498989105225
","x: 291.7218017578125
y: 250.5111846923828
z: -0.1967785656452179
visibility: 0.9996738433837891
","x: 299.6705322265625
y: 257.87103271484375
z: -0.2693314552307129
visibility: 0.9999451041221619
","x: 295.6649169921875
y: 258.6637268066406
z: -0.2665117383003235
visibility: 0.9999275803565979
","x: 315.7916564941406
y: 284.82318115234375
z: -0.13693127036094666
visibility: 0.9999571442604065
","x: 281.67218017578125
y: 286.267822265625
z: -0.10677295923233032
visibility: 0.9999362230300903
","x: 323.7173156738281
y: 315.95758056640625
z: -0.08543269336223602
visibility: 0.9942769408226013
","x: 271.279541015625
y: 324.2527770996094
z: -0.043325960636138916
visibility: 0.9826822876930237
","x: 323.3650817871094
y: 350.88372802734375
z: -0.14785493910312653
visibility: 0.9846283197402954
","x: 265.158935546875
y: 359.9914855957031
z: -0.10356836020946503
visibility: 0.9635281562805176
","x: 323.67462158203125
y: 362.2359924316406
z: -0.16458439826965332
visibility: 0.9589511156082153
","x: 261.61962890625
y: 372.3943786621094
z: -0.1212928295135498
visibility: 0.9214266538619995
","x: 321.71533203125
y: 362.2879638671875
z: -0.19180145859718323
visibility: 0.9622587561607361
","x: 263.0566711425781
y: 372.2837829589844
z: -0.1483057737350464
visibility: 0.9263632893562317
","x: 320.8838195800781
y: 358.43927001953125
z: -0.15887479484081268
visibility: 0.9531751275062561
","x: 265.0808410644531
y: 368.4755859375
z: -0.11555840820074081
visibility: 0.9152993559837341
","x: 308.9795227050781
y: 371.9221496582031
z: -0.006313627120107412
visibility: 0.9994639754295349
","x: 288.1167297363281
y: 372.19036865234375
z: 0.006220238283276558
visibility: 0.9997133612632751
","x: 308.8177185058594
y: 438.4088134765625
z: 0.007400506641715765
visibility: 0.9958536624908447
","x: 286.73150634765625
y: 438.0732727050781
z: 0.002666346961632371
visibility: 0.9965177178382874
","x: 310.3533935546875
y: 492.9053955078125
z: 0.12767842411994934
visibility: 0.9955490827560425
","x: 286.56207275390625
y: 495.3779602050781
z: 0.11591943353414536
visibility: 0.9956559538841248
","x: 308.9131164550781
y: 499.56927490234375
z: 0.13287068903446198
visibility: 0.9082151651382446
","x: 288.5417175292969
y: 503.16180419921875
z: 0.12026860564947128
visibility: 0.908982515335083
","x: 311.2413330078125
y: 518.6142578125
z: 0.02953689731657505
visibility: 0.9919149875640869
","x: 283.10125732421875
y: 516.1033935546875
z: 0.01821042224764824
visibility: 0.992465615272522
","x: 323.3530578613281
y: 351.04718017578125
z: 0.0
","x: 321.50048828125
y: 354.33197021484375
z: -0.003906832076609135
","x: 320.3618469238281
y: 359.2303161621094
z: -0.005016636569052935
","x: 320.2226257324219
y: 364.3304748535156
z: -0.005168180912733078
","x: 320.6105041503906
y: 368.4562683105469
z: -0.004933693911880255
","x: 323.43243408203125
y: 363.0284118652344
z: -0.0036056553944945335
","x: 322.76171875
y: 370.225341796875
z: -0.003948136232793331
","x: 321.18878173828125
y: 373.1021728515625
z: -0.0038901721127331257
","x: 319.801025390625
y: 374.09674072265625
z: -0.0036124135367572308
","x: 324.1238098144531
y: 363.52020263671875
z: -0.0014760664198547602
","x: 323.0231018066406
y: 370.3780822753906
z: -0.001458632992580533
","x: 321.39422607421875
y: 372.8640441894531
z: -0.0015318171354010701
","x: 320.0350646972656
y: 374.3328552246094
z: -0.001596082584001124
","x: 324.18023681640625
y: 364.0369873046875
z: 0.0004651320050470531
","x: 323.0880126953125
y: 369.92889404296875
z: 0.0005971769569441676
","x: 321.68084716796875
y: 372.37518310546875
z: 7.182909757830203e-05
","x: 320.4139709472656
y: 373.46466064453125
z: -0.00043239278602413833
","x: 323.8321838378906
y: 364.1050720214844
z: 0.002099180594086647
","x: 323.02862548828125
y: 369.0872497558594
z: 0.0021026558242738247
","x: 321.84100341796875
y: 371.5989990234375
z: 0.00173062807880342
","x: 320.6878356933594
y: 372.4664611816406
z: 0.0014811786822974682
",4.510679721832275,,,,,,,,,,,,,,,,,,,,,
13,"x: 298.0713806152344
y: 252.25318908691406
z: -0.22783657908439636
visibility: 0.9999686479568481
","x: 299.54986572265625
y: 246.71011352539062
z: -0.21402926743030548
visibility: 0.9998672604560852
","x: 300.725341796875
y: 246.8047332763672
z: -0.21405944228172302
visibility: 0.9998828172683716
","x: 301.9163818359375
y: 246.9026336669922
z: -0.21408668160438538
visibility: 0.9998748302459717
","x: 296.09429931640625
y: 247.0108642578125
z: -0.21224971115589142
visibility: 0.9998670220375061
","x: 294.87237548828125
y: 247.42205810546875
z: -0.21226027607917786
visibility: 0.999869704246521
","x: 293.5823669433594
y: 247.90957641601562
z: -0.2122713029384613
visibility: 0.9998496770858765
","x: 303.5742492675781
y: 250.92562866210938
z: -0.12397050857543945
visibility: 0.9997518658638
","x: 291.0946350097656
y: 252.01780700683594
z: -0.1169949322938919
visibility: 0.9996523261070251
","x: 300.4057312011719
y: 259.6142883300781
z: -0.19362950325012207
visibility: 0.9999459981918335
","x: 295.6848449707031
y: 259.51446533203125
z: -0.19170424342155457
visibility: 0.9999274611473083
","x: 315.31427001953125
y: 284.98358154296875
z: -0.07041174173355103
visibility: 0.9999573826789856
","x: 280.8883972167969
y: 286.2835388183594
z: -0.03742467239499092
visibility: 0.9998756051063538
","x: 323.97100830078125
y: 318.95794677734375
z: -0.09299823641777039
visibility: 0.9942999482154846
","x: 274.37017822265625
y: 325.2605895996094
z: -0.04118425399065018
visibility: 0.9774465560913086
","x: 308.6926574707031
y: 339.7684020996094
z: -0.2342887669801712
visibility: 0.9853660464286804
","x: 281.3897705078125
y: 340.9659423828125
z: -0.17372176051139832
visibility: 0.9558253288269043
","x: 304.7159118652344
y: 344.19293212890625
z: -0.2706863284111023
visibility: 0.9609473347663879
","x: 284.3349609375
y: 346.87158203125
z: -0.20654001832008362
visibility: 0.9119890332221985
","x: 303.4621887207031
y: 337.29376220703125
z: -0.27856868505477905
visibility: 0.9639529585838318
","x: 285.6606140136719
y: 340.4085998535156
z: -0.21461646258831024
visibility: 0.9163345694541931
","x: 304.511474609375
y: 335.7652282714844
z: -0.2387765645980835
visibility: 0.9543851017951965
","x: 285.65911865234375
y: 338.0810852050781
z: -0.17915746569633484
visibility: 0.9009628891944885
","x: 308.0784606933594
y: 371.18975830078125
z: -0.00618330342695117
visibility: 0.9994403123855591
","x: 287.7801513671875
y: 369.91229248046875
z: 0.00606869300827384
visibility: 0.999601423740387
","x: 300.339599609375
y: 438.3252258300781
z: -0.025076348334550858
visibility: 0.9950080513954163
","x: 285.7613525390625
y: 434.67919921875
z: -0.009209505282342434
visibility: 0.9955942630767822
","x: 297.7220458984375
y: 490.1455078125
z: 0.15602852404117584
visibility: 0.9942782521247864
","x: 281.978515625
y: 492.03546142578125
z: 0.13550257682800293
visibility: 0.9946998953819275
","x: 295.8620910644531
y: 496.27984619140625
z: 0.1694251000881195
visibility: 0.9036109447479248
","x: 282.4578552246094
y: 498.1775207519531
z: 0.14633575081825256
visibility: 0.8995455503463745
","x: 296.63873291015625
y: 517.2693481445312
z: 0.06968201696872711
visibility: 0.9901400208473206
","x: 282.72735595703125
y: 515.171875
z: 0.04218921810388565
visibility: 0.990770161151886
","x: 308.1994323730469
y: 338.2308349609375
z: 0.0
","x: 306.7919006347656
y: 332.14959716796875
z: -0.0009554328862577677
","x: 304.3515319824219
y: 327.3120422363281
z: -0.0023083307314664125
","x: 302.182373046875
y: 324.7287292480469
z: -0.0034565692767500877
","x: 300.5477294921875
y: 324.1335754394531
z: -0.004496671725064516
","x: 302.07373046875
y: 332.4618225097656
z: -0.005007158499211073
","x: 297.32379150390625
y: 331.8390197753906
z: -0.006522784475237131
","x: 295.169921875
y: 331.77362060546875
z: -0.006402924191206694
","x: 293.9106750488281
y: 332.0623779296875
z: -0.006025278475135565
","x: 301.9329833984375
y: 336.94830322265625
z: -0.005522092804312706
","x: 297.005126953125
y: 336.3033752441406
z: -0.006924441084265709
","x: 295.1203918457031
y: 335.9900207519531
z: -0.006099057383835316
","x: 294.3778076171875
y: 336.1772155761719
z: -0.00534092728048563
","x: 301.9687805175781
y: 340.94281005859375
z: -0.005844544619321823
","x: 297.3865966796875
y: 340.418212890625
z: -0.007045079953968525
","x: 295.4806213378906
y: 340.01763916015625
z: -0.006137784570455551
","x: 294.7173767089844
y: 339.8599853515625
z: -0.0054819113574922085
","x: 302.1431884765625
y: 344.3771057128906
z: -0.006250821985304356
","x: 298.2438049316406
y: 344.6173095703125
z: -0.007272380869835615
","x: 296.6255798339844
y: 344.3682556152344
z: -0.0069101592525839806
","x: 295.88629150390625
y: 344.02191162109375
z: -0.0065312436781823635
",4.651170969009399,,,,,,,,,,,,,,,,,,,,,
14,"x: 298.0713806152344
y: 252.25318908691406
z: -0.22783657908439636
visibility: 0.9999686479568481
","x: 299.54986572265625
y: 246.71011352539062
z: -0.21402926743030548
visibility: 0.9998672604560852
","x: 300.725341796875
y: 246.8047332763672
z: -0.21405944228172302
visibility: 0.9998828172683716
","x: 301.9163818359375
y: 246.9026336669922
z: -0.21408668160438538
visibility: 0.9998748302459717
","x: 296.09429931640625
y: 247.0108642578125
z: -0.21224971115589142
visibility: 0.9998670220375061
","x: 294.87237548828125
y: 247.42205810546875
z: -0.21226027607917786
visibility: 0.999869704246521
","x: 293.5823669433594
y: 247.90957641601562
z: -0.2122713029384613
visibility: 0.9998496770858765
","x: 303.5742492675781
y: 250.92562866210938
z: -0.12397050857543945
visibility: 0.9997518658638
","x: 291.0946350097656
y: 252.01780700683594
z: -0.1169949322938919
visibility: 0.9996523261070251
","x: 300.4057312011719
y: 259.6142883300781
z: -0.19362950325012207
visibility: 0.9999459981918335
","x: 295.6848449707031
y: 259.51446533203125
z: -0.19170424342155457
visibility: 0.9999274611473083
","x: 315.31427001953125
y: 284.98358154296875
z: -0.07041174173355103
visibility: 0.9999573826789856
","x: 280.8883972167969
y: 286.2835388183594
z: -0.03742467239499092
visibility: 0.9998756051063538
","x: 323.97100830078125
y: 318.95794677734375
z: -0.09299823641777039
visibility: 0.9942999482154846
","x: 274.37017822265625
y: 325.2605895996094
z: -0.04118425399065018
visibility: 0.9774465560913086
","x: 308.6926574707031
y: 339.7684020996094
z: -0.2342887669801712
visibility: 0.9853660464286804
","x: 281.3897705078125
y: 340.9659423828125
z: -0.17372176051139832
visibility: 0.9558253288269043
","x: 304.7159118652344
y: 344.19293212890625
z: -0.2706863284111023
visibility: 0.9609473347663879
","x: 284.3349609375
y: 346.87158203125
z: -0.20654001832008362
visibility: 0.9119890332221985
","x: 303.4621887207031
y: 337.29376220703125
z: -0.27856868505477905
visibility: 0.9639529585838318
","x: 285.6606140136719
y: 340.4085998535156
z: -0.21461646258831024
visibility: 0.9163345694541931
","x: 304.511474609375
y: 335.7652282714844
z: -0.2387765645980835
visibility: 0.9543851017951965
","x: 285.65911865234375
y: 338.0810852050781
z: -0.17915746569633484
visibility: 0.9009628891944885
","x: 308.0784606933594
y: 371.18975830078125
z: -0.00618330342695117
visibility: 0.9994403123855591
","x: 287.7801513671875
y: 369.91229248046875
z: 0.00606869300827384
visibility: 0.999601423740387
","x: 300.339599609375
y: 438.3252258300781
z: -0.025076348334550858
visibility: 0.9950080513954163
","x: 285.7613525390625
y: 434.67919921875
z: -0.009209505282342434
visibility: 0.9955942630767822
","x: 297.7220458984375
y: 490.1455078125
z: 0.15602852404117584
visibility: 0.9942782521247864
","x: 281.978515625
y: 492.03546142578125
z: 0.13550257682800293
visibility: 0.9946998953819275
","x: 295.8620910644531
y: 496.27984619140625
z: 0.1694251000881195
visibility: 0.9036109447479248
","x: 282.4578552246094
y: 498.1775207519531
z: 0.14633575081825256
visibility: 0.8995455503463745
","x: 296.63873291015625
y: 517.2693481445312
z: 0.06968201696872711
visibility: 0.9901400208473206
","x: 282.72735595703125
y: 515.171875
z: 0.04218921810388565
visibility: 0.990770161151886
","x: 308.1994323730469
y: 338.2308349609375
z: 0.0
","x: 306.7919006347656
y: 332.14959716796875
z: -0.0009554328862577677
","x: 304.3515319824219
y: 327.3120422363281
z: -0.0023083307314664125
","x: 302.182373046875
y: 324.7287292480469
z: -0.0034565692767500877
","x: 300.5477294921875
y: 324.1335754394531
z: -0.004496671725064516
","x: 302.07373046875
y: 332.4618225097656
z: -0.005007158499211073
","x: 297.32379150390625
y: 331.8390197753906
z: -0.006522784475237131
","x: 295.169921875
y: 331.77362060546875
z: -0.006402924191206694
","x: 293.9106750488281
y: 332.0623779296875
z: -0.006025278475135565
","x: 301.9329833984375
y: 336.94830322265625
z: -0.005522092804312706
","x: 297.005126953125
y: 336.3033752441406
z: -0.006924441084265709
","x: 295.1203918457031
y: 335.9900207519531
z: -0.006099057383835316
","x: 294.3778076171875
y: 336.1772155761719
z: -0.00534092728048563
","x: 301.9687805175781
y: 340.94281005859375
z: -0.005844544619321823
","x: 297.3865966796875
y: 340.418212890625
z: -0.007045079953968525
","x: 295.4806213378906
y: 340.01763916015625
z: -0.006137784570455551
","x: 294.7173767089844
y: 339.8599853515625
z: -0.0054819113574922085
","x: 302.1431884765625
y: 344.3771057128906
z: -0.006250821985304356
","x: 298.2438049316406
y: 344.6173095703125
z: -0.007272380869835615
","x: 296.6255798339844
y: 344.3682556152344
z: -0.0069101592525839806
","x: 295.88629150390625
y: 344.02191162109375
z: -0.0065312436781823635
",4.651170969009399,,,,,,,,,,,,,,,,,,,,,
15,"x: 298.0713806152344
y: 252.25318908691406
z: -0.22783657908439636
visibility: 0.9999686479568481
","x: 299.54986572265625
y: 246.71011352539062
z: -0.21402926743030548
visibility: 0.9998672604560852
","x: 300.725341796875
y: 246.8047332763672
z: -0.21405944228172302
visibility: 0.9998828172683716
","x: 301.9163818359375
y: 246.9026336669922
z: -0.21408668160438538
visibility: 0.9998748302459717
","x: 296.09429931640625
y: 247.0108642578125
z: -0.21224971115589142
visibility: 0.9998670220375061
","x: 294.87237548828125
y: 247.42205810546875
z: -0.21226027607917786
visibility: 0.999869704246521
","x: 293.5823669433594
y: 247.90957641601562
z: -0.2122713029384613
visibility: 0.9998496770858765
","x: 303.5742492675781
y: 250.92562866210938
z: -0.12397050857543945
visibility: 0.9997518658638
","x: 291.0946350097656
y: 252.01780700683594
z: -0.1169949322938919
visibility: 0.9996523261070251
","x: 300.4057312011719
y: 259.6142883300781
z: -0.19362950325012207
visibility: 0.9999459981918335
","x: 295.6848449707031
y: 259.51446533203125
z: -0.19170424342155457
visibility: 0.9999274611473083
","x: 315.31427001953125
y: 284.98358154296875
z: -0.07041174173355103
visibility: 0.9999573826789856
","x: 280.8883972167969
y: 286.2835388183594
z: -0.03742467239499092
visibility: 0.9998756051063538
","x: 323.97100830078125
y: 318.95794677734375
z: -0.09299823641777039
visibility: 0.9942999482154846
","x: 274.37017822265625
y: 325.2605895996094
z: -0.04118425399065018
visibility: 0.9774465560913086
","x: 308.6926574707031
y: 339.7684020996094
z: -0.2342887669801712
visibility: 0.9853660464286804
","x: 281.3897705078125
y: 340.9659423828125
z: -0.17372176051139832
visibility: 0.9558253288269043
","x: 304.7159118652344
y: 344.19293212890625
z: -0.2706863284111023
visibility: 0.9609473347663879
","x: 284.3349609375
y: 346.87158203125
z: -0.20654001832008362
visibility: 0.9119890332221985
","x: 303.4621887207031
y: 337.29376220703125
z: -0.27856868505477905
visibility: 0.9639529585838318
","x: 285.6606140136719
y: 340.4085998535156
z: -0.21461646258831024
visibility: 0.9163345694541931
","x: 304.511474609375
y: 335.7652282714844
z: -0.2387765645980835
visibility: 0.9543851017951965
","x: 285.65911865234375
y: 338.0810852050781
z: -0.17915746569633484
visibility: 0.9009628891944885
","x: 308.0784606933594
y: 371.18975830078125
z: -0.00618330342695117
visibility: 0.9994403123855591
","x: 287.7801513671875
y: 369.91229248046875
z: 0.00606869300827384
visibility: 0.999601423740387
","x: 300.339599609375
y: 438.3252258300781
z: -0.025076348334550858
visibility: 0.9950080513954163
","x: 285.7613525390625
y: 434.67919921875
z: -0.009209505282342434
visibility: 0.9955942630767822
","x: 297.7220458984375
y: 490.1455078125
z: 0.15602852404117584
visibility: 0.9942782521247864
","x: 281.978515625
y: 492.03546142578125
z: 0.13550257682800293
visibility: 0.9946998953819275
","x: 295.8620910644531
y: 496.27984619140625
z: 0.1694251000881195
visibility: 0.9036109447479248
","x: 282.4578552246094
y: 498.1775207519531
z: 0.14633575081825256
visibility: 0.8995455503463745
","x: 296.63873291015625
y: 517.2693481445312
z: 0.06968201696872711
visibility: 0.9901400208473206
","x: 282.72735595703125
y: 515.171875
z: 0.04218921810388565
visibility: 0.990770161151886
","x: 308.1994323730469
y: 338.2308349609375
z: 0.0
","x: 306.7919006347656
y: 332.14959716796875
z: -0.0009554328862577677
","x: 304.3515319824219
y: 327.3120422363281
z: -0.0023083307314664125
","x: 302.182373046875
y: 324.7287292480469
z: -0.0034565692767500877
","x: 300.5477294921875
y: 324.1335754394531
z: -0.004496671725064516
","x: 302.07373046875
y: 332.4618225097656
z: -0.005007158499211073
","x: 297.32379150390625
y: 331.8390197753906
z: -0.006522784475237131
","x: 295.169921875
y: 331.77362060546875
z: -0.006402924191206694
","x: 293.9106750488281
y: 332.0623779296875
z: -0.006025278475135565
","x: 301.9329833984375
y: 336.94830322265625
z: -0.005522092804312706
","x: 297.005126953125
y: 336.3033752441406
z: -0.006924441084265709
","x: 295.1203918457031
y: 335.9900207519531
z: -0.006099057383835316
","x: 294.3778076171875
y: 336.1772155761719
z: -0.00534092728048563
","x: 301.9687805175781
y: 340.94281005859375
z: -0.005844544619321823
","x: 297.3865966796875
y: 340.418212890625
z: -0.007045079953968525
","x: 295.4806213378906
y: 340.01763916015625
z: -0.006137784570455551
","x: 294.7173767089844
y: 339.8599853515625
z: -0.0054819113574922085
","x: 302.1431884765625
y: 344.3771057128906
z: -0.006250821985304356
","x: 298.2438049316406
y: 344.6173095703125
z: -0.007272380869835615
","x: 296.6255798339844
y: 344.3682556152344
z: -0.0069101592525839806
","x: 295.88629150390625
y: 344.02191162109375
z: -0.0065312436781823635
",4.651170969009399,,,,,,,,,,,,,,,,,,,,,
16,"x: 296.80548095703125
y: 261.7406005859375
z: -0.2077394723892212
visibility: 0.999896764755249
","x: 297.9795227050781
y: 256.45733642578125
z: -0.1947009563446045
visibility: 0.9997273683547974
","x: 299.1399841308594
y: 256.38177490234375
z: -0.19470636546611786
visibility: 0.9997407793998718
","x: 300.3501892089844
y: 256.2630310058594
z: -0.19473788142204285
visibility: 0.9997215867042542
","x: 294.5609130859375
y: 256.8102722167969
z: -0.19214889407157898
visibility: 0.9997023940086365
","x: 293.42901611328125
y: 257.05267333984375
z: -0.19219373166561127
visibility: 0.9997031688690186
","x: 292.16949462890625
y: 257.28045654296875
z: -0.19222712516784668
visibility: 0.9996907114982605
","x: 301.6385192871094
y: 258.5510559082031
z: -0.11159293353557587
visibility: 0.9995948076248169
","x: 290.3070068359375
y: 260.4706726074219
z: -0.09884852916002274
visibility: 0.9991451501846313
","x: 299.3404235839844
y: 268.51934814453125
z: -0.17584019899368286
visibility: 0.9998985528945923
","x: 294.50927734375
y: 269.12042236328125
z: -0.17229147255420685
visibility: 0.9998338222503662
","x: 314.3970947265625
y: 291.0408935546875
z: -0.06721166521310806
visibility: 0.9999359846115112
","x: 280.91302490234375
y: 295.62969970703125
z: -0.03915823996067047
visibility: 0.9997397065162659
","x: 321.1658935546875
y: 335.3785705566406
z: -0.12463535368442535
visibility: 0.9925094246864319
","x: 274.3908996582031
y: 340.359130859375
z: -0.10858426243066788
visibility: 0.9753877520561218
","x: 300.3251647949219
y: 332.271240234375
z: -0.2586631178855896
visibility: 0.981976330280304
","x: 284.8208312988281
y: 328.2116394042969
z: -0.2717371881008148
visibility: 0.9534227848052979
","x: 294.85455322265625
y: 327.2646789550781
z: -0.28888651728630066
visibility: 0.9546494483947754
","x: 287.82720947265625
y: 323.4280700683594
z: -0.3048551678657532
visibility: 0.9081873297691345
","x: 293.96673583984375
y: 319.7832946777344
z: -0.2857828736305237
visibility: 0.9569051265716553
","x: 288.2013244628906
y: 318.0885925292969
z: -0.29878002405166626
visibility: 0.9109389781951904
","x: 295.7124328613281
y: 321.6996765136719
z: -0.25833576917648315
visibility: 0.9430016875267029
","x: 288.02996826171875
y: 319.5422058105469
z: -0.2722873091697693
visibility: 0.890727698802948
","x: 309.4614562988281
y: 374.065185546875
z: -0.0061758412048220634
visibility: 0.9994217157363892
","x: 287.8384094238281
y: 373.4609680175781
z: 0.0060964045114815235
visibility: 0.9994661808013916
","x: 306.5585632324219
y: 438.8876647949219
z: -0.17800632119178772
visibility: 0.9948225021362305
","x: 284.0287780761719
y: 436.60418701171875
z: -0.038140930235385895
visibility: 0.993697464466095
","x: 300.4286193847656
y: 484.6661682128906
z: 0.022612402215600014
visibility: 0.9926140308380127
","x: 281.7452392578125
y: 493.3384704589844
z: 0.13799408078193665
visibility: 0.9914631247520447
","x: 298.806396484375
y: 486.56109619140625
z: 0.03923368826508522
visibility: 0.8946821689605713
","x: 282.80908203125
y: 499.985595703125
z: 0.15159760415554047
visibility: 0.8810921907424927
","x: 295.7402648925781
y: 513.6311645507812
z: -0.0569598563015461
visibility: 0.9880560040473938
","x: 282.6663818359375
y: 516.6514892578125
z: 0.05906536057591438
visibility: 0.9852033257484436
",,,,,,,,,,,,,,,,,,,,,,4.776386499404907,,,,,,,,,,,,,,,,,,,,,
17,"x: 296.80548095703125
y: 261.7406005859375
z: -0.2077394723892212
visibility: 0.999896764755249
","x: 297.9795227050781
y: 256.45733642578125
z: -0.1947009563446045
visibility: 0.9997273683547974
","x: 299.1399841308594
y: 256.38177490234375
z: -0.19470636546611786
visibility: 0.9997407793998718
","x: 300.3501892089844
y: 256.2630310058594
z: -0.19473788142204285
visibility: 0.9997215867042542
","x: 294.5609130859375
y: 256.8102722167969
z: -0.19214889407157898
visibility: 0.9997023940086365
","x: 293.42901611328125
y: 257.05267333984375
z: -0.19219373166561127
visibility: 0.9997031688690186
","x: 292.16949462890625
y: 257.28045654296875
z: -0.19222712516784668
visibility: 0.9996907114982605
","x: 301.6385192871094
y: 258.5510559082031
z: -0.11159293353557587
visibility: 0.9995948076248169
","x: 290.3070068359375
y: 260.4706726074219
z: -0.09884852916002274
visibility: 0.9991451501846313
","x: 299.3404235839844
y: 268.51934814453125
z: -0.17584019899368286
visibility: 0.9998985528945923
","x: 294.50927734375
y: 269.12042236328125
z: -0.17229147255420685
visibility: 0.9998338222503662
","x: 314.3970947265625
y: 291.0408935546875
z: -0.06721166521310806
visibility: 0.9999359846115112
","x: 280.91302490234375
y: 295.62969970703125
z: -0.03915823996067047
visibility: 0.9997397065162659
","x: 321.1658935546875
y: 335.3785705566406
z: -0.12463535368442535
visibility: 0.9925094246864319
","x: 274.3908996582031
y: 340.359130859375
z: -0.10858426243066788
visibility: 0.9753877520561218
","x: 300.3251647949219
y: 332.271240234375
z: -0.2586631178855896
visibility: 0.981976330280304
","x: 284.8208312988281
y: 328.2116394042969
z: -0.2717371881008148
visibility: 0.9534227848052979
","x: 294.85455322265625
y: 327.2646789550781
z: -0.28888651728630066
visibility: 0.9546494483947754
","x: 287.82720947265625
y: 323.4280700683594
z: -0.3048551678657532
visibility: 0.9081873297691345
","x: 293.96673583984375
y: 319.7832946777344
z: -0.2857828736305237
visibility: 0.9569051265716553
","x: 288.2013244628906
y: 318.0885925292969
z: -0.29878002405166626
visibility: 0.9109389781951904
","x: 295.7124328613281
y: 321.6996765136719
z: -0.25833576917648315
visibility: 0.9430016875267029
","x: 288.02996826171875
y: 319.5422058105469
z: -0.2722873091697693
visibility: 0.890727698802948
","x: 309.4614562988281
y: 374.065185546875
z: -0.0061758412048220634
visibility: 0.9994217157363892
","x: 287.8384094238281
y: 373.4609680175781
z: 0.0060964045114815235
visibility: 0.9994661808013916
","x: 306.5585632324219
y: 438.8876647949219
z: -0.17800632119178772
visibility: 0.9948225021362305
","x: 284.0287780761719
y: 436.60418701171875
z: -0.038140930235385895
visibility: 0.993697464466095
","x: 300.4286193847656
y: 484.6661682128906
z: 0.022612402215600014
visibility: 0.9926140308380127
","x: 281.7452392578125
y: 493.3384704589844
z: 0.13799408078193665
visibility: 0.9914631247520447
","x: 298.806396484375
y: 486.56109619140625
z: 0.03923368826508522
visibility: 0.8946821689605713
","x: 282.80908203125
y: 499.985595703125
z: 0.15159760415554047
visibility: 0.8810921907424927
","x: 295.7402648925781
y: 513.6311645507812
z: -0.0569598563015461
visibility: 0.9880560040473938
","x: 282.6663818359375
y: 516.6514892578125
z: 0.05906536057591438
visibility: 0.9852033257484436
",,,,,,,,,,,,,,,,,,,,,,4.776386499404907,,,,,,,,,,,,,,,,,,,,,
18,"x: 299.7485046386719
y: 273.60833740234375
z: -0.2516196668148041
visibility: 0.9999067783355713
","x: 300.8829040527344
y: 267.6439208984375
z: -0.23761408030986786
visibility: 0.9997537732124329
","x: 301.93914794921875
y: 267.57061767578125
z: -0.23760981857776642
visibility: 0.9997658133506775
","x: 303.0390930175781
y: 267.5081481933594
z: -0.2376590222120285
visibility: 0.9997484087944031
","x: 297.5445861816406
y: 268.25579833984375
z: -0.23751990497112274
visibility: 0.9997310638427734
","x: 296.3442077636719
y: 268.7352294921875
z: -0.2375624179840088
visibility: 0.9997316598892212
","x: 295.03961181640625
y: 269.175537109375
z: -0.2375657856464386
visibility: 0.9997203946113586
","x: 304.4585876464844
y: 270.2121276855469
z: -0.1410786360502243
visibility: 0.9996346235275269
","x: 292.7854309082031
y: 272.4698486328125
z: -0.1419023871421814
visibility: 0.9992296099662781
","x: 302.0484313964844
y: 280.0299072265625
z: -0.21544620394706726
visibility: 0.9999083876609802
","x: 297.4552307128906
y: 280.63494873046875
z: -0.21545302867889404
visibility: 0.9998500347137451
","x: 316.36346435546875
y: 297.13140869140625
z: -0.08366787433624268
visibility: 0.9999399781227112
","x: 283.44561767578125
y: 303.0817565917969
z: -0.07428567856550217
visibility: 0.9997584819793701
","x: 325.6257019042969
y: 333.40545654296875
z: -0.1849004030227661
visibility: 0.9923515915870667
","x: 278.3866271972656
y: 341.3599853515625
z: -0.1638662964105606
visibility: 0.9748342633247375
","x: 320.54266357421875
y: 323.8047790527344
z: -0.37996476888656616
visibility: 0.9824923276901245
","x: 281.19989013671875
y: 341.0011291503906
z: -0.35445302724838257
visibility: 0.9547222852706909
","x: 311.7137756347656
y: 319.7659606933594
z: -0.4240463674068451
visibility: 0.9565138816833496
","x: 280.4654541015625
y: 347.1960144042969
z: -0.3952079713344574
visibility: 0.9121697545051575
","x: 311.540771484375
y: 314.21484375
z: -0.42588749527931213
visibility: 0.9585270881652832
","x: 280.0693664550781
y: 344.70538330078125
z: -0.40665316581726074
visibility: 0.9148546457290649
","x: 313.80120849609375
y: 315.63360595703125
z: -0.386091411113739
visibility: 0.9443960189819336
","x: 281.18524169921875
y: 343.0691223144531
z: -0.36463862657546997
visibility: 0.8950799107551575
","x: 313.0578308105469
y: 378.7098693847656
z: -0.00597638264298439
visibility: 0.9994556903839111
","x: 291.966064453125
y: 381.42034912109375
z: 0.005900309421122074
visibility: 0.9995060563087463
","x: 329.6681213378906
y: 437.6204833984375
z: -0.18756359815597534
visibility: 0.9952723383903503
","x: 278.5621643066406
y: 437.41339111328125
z: -0.1533167064189911
visibility: 0.9942780137062073
","x: 328.12176513671875
y: 482.1225280761719
z: 0.042399901896715164
visibility: 0.9930785298347473
","x: 284.77838134765625
y: 494.6210021972656
z: 0.045493535697460175
visibility: 0.9922419190406799
","x: 324.9773864746094
y: 486.705078125
z: 0.05948088690638542
visibility: 0.9004268646240234
","x: 283.6621398925781
y: 501.3081359863281
z: 0.059338606894016266
visibility: 0.8916910290718079
","x: 331.7208557128906
y: 511.07525634765625
z: -0.040290165692567825
visibility: 0.9886547923088074
","x: 280.257568359375
y: 517.0842895507812
z: -0.0364033542573452
visibility: 0.9864148497581482
",,,,,,,,,,,,,,,,,,,,,,4.91759467124939,,,,,,,,,,,,,,,,,,,,,
19,"x: 299.7485046386719
y: 273.60833740234375
z: -0.2516196668148041
visibility: 0.9999067783355713
","x: 300.8829040527344
y: 267.6439208984375
z: -0.23761408030986786
visibility: 0.9997537732124329
","x: 301.93914794921875
y: 267.57061767578125
z: -0.23760981857776642
visibility: 0.9997658133506775
","x: 303.0390930175781
y: 267.5081481933594
z: -0.2376590222120285
visibility: 0.9997484087944031
","x: 297.5445861816406
y: 268.25579833984375
z: -0.23751990497112274
visibility: 0.9997310638427734
","x: 296.3442077636719
y: 268.7352294921875
z: -0.2375624179840088
visibility: 0.9997316598892212
","x: 295.03961181640625
y: 269.175537109375
z: -0.2375657856464386
visibility: 0.9997203946113586
","x: 304.4585876464844
y: 270.2121276855469
z: -0.1410786360502243
visibility: 0.9996346235275269
","x: 292.7854309082031
y: 272.4698486328125
z: -0.1419023871421814
visibility: 0.9992296099662781
","x: 302.0484313964844
y: 280.0299072265625
z: -0.21544620394706726
visibility: 0.9999083876609802
","x: 297.4552307128906
y: 280.63494873046875
z: -0.21545302867889404
visibility: 0.9998500347137451
","x: 316.36346435546875
y: 297.13140869140625
z: -0.08366787433624268
visibility: 0.9999399781227112
","x: 283.44561767578125
y: 303.0817565917969
z: -0.07428567856550217
visibility: 0.9997584819793701
","x: 325.6257019042969
y: 333.40545654296875
z: -0.1849004030227661
visibility: 0.9923515915870667
","x: 278.3866271972656
y: 341.3599853515625
z: -0.1638662964105606
visibility: 0.9748342633247375
","x: 320.54266357421875
y: 323.8047790527344
z: -0.37996476888656616
visibility: 0.9824923276901245
","x: 281.19989013671875
y: 341.0011291503906
z: -0.35445302724838257
visibility: 0.9547222852706909
","x: 311.7137756347656
y: 319.7659606933594
z: -0.4240463674068451
visibility: 0.9565138816833496
","x: 280.4654541015625
y: 347.1960144042969
z: -0.3952079713344574
visibility: 0.9121697545051575
","x: 311.540771484375
y: 314.21484375
z: -0.42588749527931213
visibility: 0.9585270881652832
","x: 280.0693664550781
y: 344.70538330078125
z: -0.40665316581726074
visibility: 0.9148546457290649
","x: 313.80120849609375
y: 315.63360595703125
z: -0.386091411113739
visibility: 0.9443960189819336
","x: 281.18524169921875
y: 343.0691223144531
z: -0.36463862657546997
visibility: 0.8950799107551575
","x: 313.0578308105469
y: 378.7098693847656
z: -0.00597638264298439
visibility: 0.9994556903839111
","x: 291.966064453125
y: 381.42034912109375
z: 0.005900309421122074
visibility: 0.9995060563087463
","x: 329.6681213378906
y: 437.6204833984375
z: -0.18756359815597534
visibility: 0.9952723383903503
","x: 278.5621643066406
y: 437.41339111328125
z: -0.1533167064189911
visibility: 0.9942780137062073
","x: 328.12176513671875
y: 482.1225280761719
z: 0.042399901896715164
visibility: 0.9930785298347473
","x: 284.77838134765625
y: 494.6210021972656
z: 0.045493535697460175
visibility: 0.9922419190406799
","x: 324.9773864746094
y: 486.705078125
z: 0.05948088690638542
visibility: 0.9004268646240234
","x: 283.6621398925781
y: 501.3081359863281
z: 0.059338606894016266
visibility: 0.8916910290718079
","x: 331.7208557128906
y: 511.07525634765625
z: -0.040290165692567825
visibility: 0.9886547923088074
","x: 280.257568359375
y: 517.0842895507812
z: -0.0364033542573452
visibility: 0.9864148497581482
",,,,,,,,,,,,,,,,,,,,,,4.91759467124939,,,,,,,,,,,,,,,,,,,,,
20,"x: 304.6383056640625
y: 280.877685546875
z: -0.26366713643074036
visibility: 0.9999147653579712
","x: 306.43548583984375
y: 275.5071716308594
z: -0.2519576847553253
visibility: 0.9997700452804565
","x: 307.7623596191406
y: 275.3967590332031
z: -0.25192683935165405
visibility: 0.999779999256134
","x: 308.99029541015625
y: 275.3299560546875
z: -0.2520020306110382
visibility: 0.999763011932373
","x: 302.4859313964844
y: 276.3335876464844
z: -0.2504865527153015
visibility: 0.9997522830963135
","x: 301.2729797363281
y: 276.74822998046875
z: -0.2505829930305481
visibility: 0.9997528791427612
","x: 299.9403991699219
y: 277.061279296875
z: -0.2506069242954254
visibility: 0.9997437596321106
","x: 310.7516784667969
y: 278.3002014160156
z: -0.17350761592388153
visibility: 0.9996581077575684
","x: 297.6031188964844
y: 279.8999938964844
z: -0.15849831700325012
visibility: 0.9993037581443787
","x: 307.067138671875
y: 286.66729736328125
z: -0.23463964462280273
visibility: 0.9999127388000488
","x: 302.0982360839844
y: 287.01251220703125
z: -0.22982314229011536
visibility: 0.9998620748519897
","x: 319.3411865234375
y: 307.0211181640625
z: -0.13211649656295776
visibility: 0.9999216794967651
","x: 289.3139953613281
y: 311.1603088378906
z: -0.088365837931633
visibility: 0.9997757077217102
","x: 341.52239990234375
y: 313.0779724121094
z: -0.24153999984264374
visibility: 0.9917734861373901
","x: 278.491943359375
y: 345.1759338378906
z: -0.14774461090564728
visibility: 0.9760786294937134
","x: 342.0407409667969
y: 293.8294677734375
z: -0.3939756155014038
visibility: 0.970636248588562
","x: 265.70166015625
y: 369.1556396484375
z: -0.16904720664024353
visibility: 0.9562413692474365
","x: 342.9136047363281
y: 289.784912109375
z: -0.42524489760398865
visibility: 0.9327275156974792
","x: 258.89666748046875
y: 376.2226867675781
z: -0.18271949887275696
visibility: 0.912297785282135
","x: 340.0979919433594
y: 289.291015625
z: -0.4260520935058594
visibility: 0.9342909455299377
","x: 259.3270568847656
y: 376.1797790527344
z: -0.20813994109630585
visibility: 0.9154272079467773
","x: 339.6812744140625
y: 292.1817321777344
z: -0.3996412754058838
visibility: 0.9188089370727539
","x: 261.49041748046875
y: 375.1084899902344
z: -0.18183015286922455
visibility: 0.8978567719459534
","x: 321.5993347167969
y: 388.8558349609375
z: -0.01536371000111103
visibility: 0.999489426612854
","x: 299.35906982421875
y: 391.0430908203125
z: 0.015233146026730537
visibility: 0.999541699886322
","x: 339.9714050292969
y: 446.6080017089844
z: -0.1300952285528183
visibility: 0.9955006241798401
","x: 277.8338928222656
y: 439.4239807128906
z: -0.11602922528982162
visibility: 0.9947172999382019
","x: 351.2579040527344
y: 490.03662109375
z: 0.039868928492069244
visibility: 0.9935440421104431
","x: 286.0420227050781
y: 495.2663879394531
z: 0.06842639297246933
visibility: 0.9928288459777832
","x: 350.4961853027344
y: 496.19500732421875
z: 0.05080143362283707
visibility: 0.9032299518585205
","x: 287.39013671875
y: 501.7492980957031
z: 0.08148407191038132
visibility: 0.9010940790176392
","x: 355.7480163574219
y: 511.3525390625
z: -0.05620748922228813
visibility: 0.989044725894928
","x: 278.5857849121094
y: 516.467041015625
z: -0.006069612689316273
visibility: 0.9871535897254944
",,,,,,,,,,,,,,,,,,,,,,5.04407000541687,,,,,,,,,,,,,,,,,,,,,
21,"x: 304.6383056640625
y: 280.877685546875
z: -0.26366713643074036
visibility: 0.9999147653579712
","x: 306.43548583984375
y: 275.5071716308594
z: -0.2519576847553253
visibility: 0.9997700452804565
","x: 307.7623596191406
y: 275.3967590332031
z: -0.25192683935165405
visibility: 0.999779999256134
","x: 308.99029541015625
y: 275.3299560546875
z: -0.2520020306110382
visibility: 0.999763011932373
","x: 302.4859313964844
y: 276.3335876464844
z: -0.2504865527153015
visibility: 0.9997522830963135
","x: 301.2729797363281
y: 276.74822998046875
z: -0.2505829930305481
visibility: 0.9997528791427612
","x: 299.9403991699219
y: 277.061279296875
z: -0.2506069242954254
visibility: 0.9997437596321106
","x: 310.7516784667969
y: 278.3002014160156
z: -0.17350761592388153
visibility: 0.9996581077575684
","x: 297.6031188964844
y: 279.8999938964844
z: -0.15849831700325012
visibility: 0.9993037581443787
","x: 307.067138671875
y: 286.66729736328125
z: -0.23463964462280273
visibility: 0.9999127388000488
","x: 302.0982360839844
y: 287.01251220703125
z: -0.22982314229011536
visibility: 0.9998620748519897
","x: 319.3411865234375
y: 307.0211181640625
z: -0.13211649656295776
visibility: 0.9999216794967651
","x: 289.3139953613281
y: 311.1603088378906
z: -0.088365837931633
visibility: 0.9997757077217102
","x: 341.52239990234375
y: 313.0779724121094
z: -0.24153999984264374
visibility: 0.9917734861373901
","x: 278.491943359375
y: 345.1759338378906
z: -0.14774461090564728
visibility: 0.9760786294937134
","x: 342.0407409667969
y: 293.8294677734375
z: -0.3939756155014038
visibility: 0.970636248588562
","x: 265.70166015625
y: 369.1556396484375
z: -0.16904720664024353
visibility: 0.9562413692474365
","x: 342.9136047363281
y: 289.784912109375
z: -0.42524489760398865
visibility: 0.9327275156974792
","x: 258.89666748046875
y: 376.2226867675781
z: -0.18271949887275696
visibility: 0.912297785282135
","x: 340.0979919433594
y: 289.291015625
z: -0.4260520935058594
visibility: 0.9342909455299377
","x: 259.3270568847656
y: 376.1797790527344
z: -0.20813994109630585
visibility: 0.9154272079467773
","x: 339.6812744140625
y: 292.1817321777344
z: -0.3996412754058838
visibility: 0.9188089370727539
","x: 261.49041748046875
y: 375.1084899902344
z: -0.18183015286922455
visibility: 0.8978567719459534
","x: 321.5993347167969
y: 388.8558349609375
z: -0.01536371000111103
visibility: 0.999489426612854
","x: 299.35906982421875
y: 391.0430908203125
z: 0.015233146026730537
visibility: 0.999541699886322
","x: 339.9714050292969
y: 446.6080017089844
z: -0.1300952285528183
visibility: 0.9955006241798401
","x: 277.8338928222656
y: 439.4239807128906
z: -0.11602922528982162
visibility: 0.9947172999382019
","x: 351.2579040527344
y: 490.03662109375
z: 0.039868928492069244
visibility: 0.9935440421104431
","x: 286.0420227050781
y: 495.2663879394531
z: 0.06842639297246933
visibility: 0.9928288459777832
","x: 350.4961853027344
y: 496.19500732421875
z: 0.05080143362283707
visibility: 0.9032299518585205
","x: 287.39013671875
y: 501.7492980957031
z: 0.08148407191038132
visibility: 0.9010940790176392
","x: 355.7480163574219
y: 511.3525390625
z: -0.05620748922228813
visibility: 0.989044725894928
","x: 278.5857849121094
y: 516.467041015625
z: -0.006069612689316273
visibility: 0.9871535897254944
",,,,,,,,,,,,,,,,,,,,,,5.04407000541687,,,,,,,,,,,,,,,,,,,,,
22,"x: 315.82427978515625
y: 285.14129638671875
z: -0.26446637511253357
visibility: 0.9999228119850159
","x: 316.9474792480469
y: 279.94915771484375
z: -0.2515980303287506
visibility: 0.9997900128364563
","x: 318.0154113769531
y: 279.6561279296875
z: -0.251580148935318
visibility: 0.9997988939285278
","x: 319.05865478515625
y: 279.3115539550781
z: -0.2516098618507385
visibility: 0.9997825026512146
","x: 313.802001953125
y: 280.7915954589844
z: -0.2512403130531311
visibility: 0.9997746348381042
","x: 312.50341796875
y: 281.1704406738281
z: -0.25132256746292114
visibility: 0.9997753500938416
","x: 311.1611633300781
y: 281.51190185546875
z: -0.2513485848903656
visibility: 0.9997671246528625
","x: 320.44122314453125
y: 281.1707763671875
z: -0.16720496118068695
visibility: 0.9996879696846008
","x: 308.9021911621094
y: 284.7847900390625
z: -0.1614716351032257
visibility: 0.9993723034858704
","x: 317.8526306152344
y: 290.6146240234375
z: -0.2326010912656784
visibility: 0.9999189376831055
","x: 313.6913146972656
y: 291.8774719238281
z: -0.2308720350265503
visibility: 0.9998741745948792
","x: 333.48077392578125
y: 305.79437255859375
z: -0.11336158215999603
visibility: 0.9999159574508667
","x: 301.1438903808594
y: 317.0525817871094
z: -0.08994371443986893
visibility: 0.9997868537902832
","x: 354.67913818359375
y: 298.97021484375
z: -0.17999830842018127
visibility: 0.9923135638237
","x: 281.0723571777344
y: 342.40338134765625
z: -0.11634532362222672
visibility: 0.9781368970870972
","x: 362.5430908203125
y: 274.85760498046875
z: -0.29854655265808105
visibility: 0.9727579355239868
","x: 262.13134765625
y: 364.2898254394531
z: -0.17317946255207062
visibility: 0.959731936454773
","x: 365.5274353027344
y: 266.4516906738281
z: -0.32443198561668396
visibility: 0.9362488985061646
","x: 255.62631225585938
y: 368.00714111328125
z: -0.1879187524318695
visibility: 0.9175244569778442
","x: 365.0840759277344
y: 264.86962890625
z: -0.33466866612434387
visibility: 0.9379153847694397
","x: 254.94984436035156
y: 369.2559509277344
z: -0.21328189969062805
visibility: 0.9208346009254456
","x: 363.5234375
y: 268.4234313964844
z: -0.306745707988739
visibility: 0.9237715005874634
","x: 257.4024963378906
y: 371.06219482421875
z: -0.1862601786851883
visibility: 0.9052014350891113
","x: 334.2197265625
y: 393.74261474609375
z: -0.012914158403873444
visibility: 0.9995154738426208
","x: 312.79888916015625
y: 396.7843322753906
z: 0.012804357334971428
visibility: 0.9995708465576172
","x: 347.8548889160156
y: 452.86187744140625
z: -0.1346493661403656
visibility: 0.9958105683326721
","x: 278.1887512207031
y: 441.2527770996094
z: -0.12470950186252594
visibility: 0.995186984539032
","x: 351.80328369140625
y: 494.75103759765625
z: 0.047170378267765045
visibility: 0.9939723014831543
","x: 286.1501770019531
y: 495.5705261230469
z: 0.056585341691970825
visibility: 0.9934507608413696
","x: 349.3865966796875
y: 501.2640380859375
z: 0.05883455276489258
visibility: 0.9092805981636047
","x: 289.9037170410156
y: 503.84051513671875
z: 0.06953772902488708
visibility: 0.9100401401519775
","x: 357.5284729003906
y: 511.5833740234375
z: -0.04259379580616951
visibility: 0.989592969417572
","x: 278.57861328125
y: 516.5052490234375
z: -0.015509074553847313
visibility: 0.9881554245948792
",,,,,,,,,,,,,,,,,,,,,,5.170009613037109,,,,,,,,,,,,,,,,,,,,,
23,"x: 315.82427978515625
y: 285.14129638671875
z: -0.26446637511253357
visibility: 0.9999228119850159
","x: 316.9474792480469
y: 279.94915771484375
z: -0.2515980303287506
visibility: 0.9997900128364563
","x: 318.0154113769531
y: 279.6561279296875
z: -0.251580148935318
visibility: 0.9997988939285278
","x: 319.05865478515625
y: 279.3115539550781
z: -0.2516098618507385
visibility: 0.9997825026512146
","x: 313.802001953125
y: 280.7915954589844
z: -0.2512403130531311
visibility: 0.9997746348381042
","x: 312.50341796875
y: 281.1704406738281
z: -0.25132256746292114
visibility: 0.9997753500938416
","x: 311.1611633300781
y: 281.51190185546875
z: -0.2513485848903656
visibility: 0.9997671246528625
","x: 320.44122314453125
y: 281.1707763671875
z: -0.16720496118068695
visibility: 0.9996879696846008
","x: 308.9021911621094
y: 284.7847900390625
z: -0.1614716351032257
visibility: 0.9993723034858704
","x: 317.8526306152344
y: 290.6146240234375
z: -0.2326010912656784
visibility: 0.9999189376831055
","x: 313.6913146972656
y: 291.8774719238281
z: -0.2308720350265503
visibility: 0.9998741745948792
","x: 333.48077392578125
y: 305.79437255859375
z: -0.11336158215999603
visibility: 0.9999159574508667
","x: 301.1438903808594
y: 317.0525817871094
z: -0.08994371443986893
visibility: 0.9997868537902832
","x: 354.67913818359375
y: 298.97021484375
z: -0.17999830842018127
visibility: 0.9923135638237
","x: 281.0723571777344
y: 342.40338134765625
z: -0.11634532362222672
visibility: 0.9781368970870972
","x: 362.5430908203125
y: 274.85760498046875
z: -0.29854655265808105
visibility: 0.9727579355239868
","x: 262.13134765625
y: 364.2898254394531
z: -0.17317946255207062
visibility: 0.959731936454773
","x: 365.5274353027344
y: 266.4516906738281
z: -0.32443198561668396
visibility: 0.9362488985061646
","x: 255.62631225585938
y: 368.00714111328125
z: -0.1879187524318695
visibility: 0.9175244569778442
","x: 365.0840759277344
y: 264.86962890625
z: -0.33466866612434387
visibility: 0.9379153847694397
","x: 254.94984436035156
y: 369.2559509277344
z: -0.21328189969062805
visibility: 0.9208346009254456
","x: 363.5234375
y: 268.4234313964844
z: -0.306745707988739
visibility: 0.9237715005874634
","x: 257.4024963378906
y: 371.06219482421875
z: -0.1862601786851883
visibility: 0.9052014350891113
","x: 334.2197265625
y: 393.74261474609375
z: -0.012914158403873444
visibility: 0.9995154738426208
","x: 312.79888916015625
y: 396.7843322753906
z: 0.012804357334971428
visibility: 0.9995708465576172
","x: 347.8548889160156
y: 452.86187744140625
z: -0.1346493661403656
visibility: 0.9958105683326721
","x: 278.1887512207031
y: 441.2527770996094
z: -0.12470950186252594
visibility: 0.995186984539032
","x: 351.80328369140625
y: 494.75103759765625
z: 0.047170378267765045
visibility: 0.9939723014831543
","x: 286.1501770019531
y: 495.5705261230469
z: 0.056585341691970825
visibility: 0.9934507608413696
","x: 349.3865966796875
y: 501.2640380859375
z: 0.05883455276489258
visibility: 0.9092805981636047
","x: 289.9037170410156
y: 503.84051513671875
z: 0.06953772902488708
visibility: 0.9100401401519775
","x: 357.5284729003906
y: 511.5833740234375
z: -0.04259379580616951
visibility: 0.989592969417572
","x: 278.57861328125
y: 516.5052490234375
z: -0.015509074553847313
visibility: 0.9881554245948792
",,,,,,,,,,,,,,,,,,,,,,5.170009613037109,,,,,,,,,,,,,,,,,,,,,
24,"x: 323.62261962890625
y: 280.287109375
z: -0.36617058515548706
visibility: 0.9999304413795471
","x: 324.6888122558594
y: 274.67498779296875
z: -0.3544778525829315
visibility: 0.9998106360435486
","x: 325.83599853515625
y: 274.3362731933594
z: -0.3544579744338989
visibility: 0.9998186230659485
","x: 326.9623718261719
y: 273.9972839355469
z: -0.35448071360588074
visibility: 0.9998037815093994
","x: 321.5449523925781
y: 275.58428955078125
z: -0.35234588384628296
visibility: 0.9997968077659607
","x: 320.2823181152344
y: 275.9798583984375
z: -0.35241132974624634
visibility: 0.9997974634170532
","x: 319.00201416015625
y: 276.3828125
z: -0.35240963101387024
visibility: 0.9997900724411011
","x: 329.10345458984375
y: 275.69110107421875
z: -0.26025742292404175
visibility: 0.999718189239502
","x: 317.12921142578125
y: 279.199951171875
z: -0.24942941963672638
visibility: 0.9994348287582397
","x: 325.6572265625
y: 285.9847412109375
z: -0.32982030510902405
visibility: 0.9999269247055054
","x: 321.7754211425781
y: 287.1652526855469
z: -0.32663801312446594
visibility: 0.999886691570282
","x: 342.67645263671875
y: 302.78466796875
z: -0.18625164031982422
visibility: 0.9999240040779114
","x: 309.7355651855469
y: 311.74114990234375
z: -0.16514894366264343
visibility: 0.9998079538345337
","x: 361.64154052734375
y: 307.2537536621094
z: -0.2816047966480255
visibility: 0.9923444390296936
","x: 293.4535827636719
y: 341.3169860839844
z: -0.15388157963752747
