uscmakers/ReverseChoreography/data/10_levitating_dua_lipa.csv
,NOSE,LEFT_EYE_INNER,LEFT_EYE,LEFT_EYE_OUTER,RIGHT_EYE_INNER,RIGHT_EYE,RIGHT_EYE_OUTER,LEFT_EAR,RIGHT_EAR,MOUTH_LEFT,MOUTH_RIGHT,LEFT_SHOULDER,RIGHT_SHOULDER,LEFT_ELBOW,RIGHT_ELBOW,LEFT_WRIST,RIGHT_WRIST,LEFT_PINKY,RIGHT_PINKY,LEFT_INDEX,RIGHT_INDEX,LEFT_THUMB,RIGHT_THUMB,LEFT_HIP,RIGHT_HIP,LEFT_KNEE,RIGHT_KNEE,LEFT_ANKLE,RIGHT_ANKLE,LEFT_HEEL,RIGHT_HEEL,LEFT_FOOT_INDEX,RIGHT_FOOT_INDEX,TIMESTAMP,WRIST2,THUMB_CPC2,THUMB_MCP2,THUMB_IP2,THUMB_TIP2,INDEX_FINGER_MCP2,INDEX_FINGER_PIP2,INDEX_FINGER_DIP2,INDEX_FINGER_TIP2,MIDDLE_FINGER_MCP2,MIDDLE_FINGER_PIP2,MIDDLE_FINGER_DIP2,MIDDLE_FINGER_TIP2,RING_FINGER_PIP2,RING_FINGER_DIP2,RING_FINGER_TIP2,RING_FINGER_MCP2,PINKY_MCP2,PINKY_PIP2,PINKY_DIP2,PINKY_TIP2,WRIST,THUMB_CPC,THUMB_MCP,THUMB_IP,THUMB_TIP,INDEX_FINGER_MCP,INDEX_FINGER_PIP,INDEX_FINGER_DIP,INDEX_FINGER_TIP,MIDDLE_FINGER_MCP,MIDDLE_FINGER_PIP,MIDDLE_FINGER_DIP,MIDDLE_FINGER_TIP,RING_FINGER_PIP,RING_FINGER_DIP,RING_FINGER_TIP,RING_FINGER_MCP,PINKY_MCP,PINKY_PIP,PINKY_DIP,PINKY_TIP
0,"x: 255.61007690429688
y: 253.2972869873047
z: -0.2679102420806885
visibility: 0.9999873638153076
","x: 257.524169921875
y: 249.24729919433594
z: -0.2534283995628357
visibility: 0.9999446868896484
","x: 258.60443115234375
y: 249.8946990966797
z: -0.2534354627132416
visibility: 0.9999414682388306
","x: 259.86846923828125
y: 250.4752197265625
z: -0.25342392921447754
visibility: 0.9999415874481201
","x: 254.18048095703125
y: 247.791748046875
z: -0.2573210299015045
visibility: 0.9999514818191528
","x: 252.89039611816406
y: 247.5998077392578
z: -0.2573383152484894
visibility: 0.999950647354126
","x: 251.42129516601562
y: 247.5645294189453
z: -0.2573356628417969
visibility: 0.9999488592147827
","x: 261.20892333984375
y: 253.7446746826172
z: -0.1563531905412674
visibility: 0.9997954964637756
","x: 248.71945190429688
y: 251.24407958984375
z: -0.17755886912345886
visibility: 0.9998534917831421
","x: 257.1640930175781
y: 261.51568603515625
z: -0.23089174926280975
visibility: 0.9999538660049438
","x: 252.40399169921875
y: 259.771484375
z: -0.23694641888141632
visibility: 0.99996018409729
","x: 269.76788330078125
y: 288.09759521484375
z: -0.08799563348293304
visibility: 0.9999480247497559
","x: 235.79490661621094
y: 290.04595947265625
z: -0.09811478853225708
visibility: 0.9999082088470459
","x: 279.6221008300781
y: 323.98638916015625
z: -0.03587412089109421
visibility: 0.9924497604370117
","x: 230.35848999023438
y: 339.0028381347656
z: -0.05140266567468643
visibility: 0.9878635406494141
","x: 281.3542175292969
y: 358.22308349609375
z: -0.12197868525981903
visibility: 0.9881004095077515
","x: 229.89581298828125
y: 378.20050048828125
z: -0.1180635541677475
visibility: 0.9691934585571289
","x: 282.38189697265625
y: 370.7847900390625
z: -0.14688587188720703
visibility: 0.9672776460647583
","x: 228.72088623046875
y: 392.40789794921875
z: -0.13919836282730103
visibility: 0.9332994818687439
","x: 279.9840087890625
y: 369.22320556640625
z: -0.17366351187229156
visibility: 0.9710113406181335
","x: 230.40049743652344
y: 392.728759765625
z: -0.16519838571548462
visibility: 0.938007652759552
","x: 278.9233093261719
y: 364.37689208984375
z: -0.13418084383010864
visibility: 0.9631721377372742
","x: 231.55117797851562
y: 388.23876953125
z: -0.12914521992206573
visibility: 0.9269702434539795
","x: 263.9202575683594
y: 376.220703125
z: 0.0036728722043335438
visibility: 0.9990440011024475
","x: 244.5780029296875
y: 376.3856506347656
z: -0.003700216067954898
visibility: 0.9992656111717224
","x: 257.7822570800781
y: 443.52850341796875
z: 0.022344697266817093
visibility: 0.9768058061599731
","x: 245.41717529296875
y: 441.95867919921875
z: -0.012028057128190994
visibility: 0.9823436737060547
","x: 256.2378234863281
y: 504.2045593261719
z: 0.13461576402187347
visibility: 0.9785338044166565
","x: 241.2411346435547
y: 508.051025390625
z: 0.09765902161598206
visibility: 0.9797428250312805
","x: 253.64273071289062
y: 512.9688110351562
z: 0.1401781290769577
visibility: 0.90028315782547
","x: 241.9362030029297
y: 515.9300537109375
z: 0.10233156383037567
visibility: 0.7713033556938171
","x: 258.33013916015625
y: 522.2559814453125
z: 0.046005114912986755
visibility: 0.9763230681419373
","x: 241.61387634277344
y: 529.2977294921875
z: -0.0027898030821233988
visibility: 0.9716213941574097
",3.783029794692993,,,,,,,,,,,,,,,,,,,,,,,,,,,,,,,,,,,,,,,,,,
1,"x: 255.61007690429688
y: 253.2972869873047
z: -0.2679102420806885
visibility: 0.9999873638153076
","x: 257.524169921875
y: 249.24729919433594
z: -0.2534283995628357
visibility: 0.9999446868896484
","x: 258.60443115234375
y: 249.8946990966797
z: -0.2534354627132416
visibility: 0.9999414682388306
","x: 259.86846923828125
y: 250.4752197265625
z: -0.25342392921447754
visibility: 0.9999415874481201
","x: 254.18048095703125
y: 247.791748046875
z: -0.2573210299015045
visibility: 0.9999514818191528
","x: 252.89039611816406
y: 247.5998077392578
z: -0.2573383152484894
visibility: 0.999950647354126
","x: 251.42129516601562
y: 247.5645294189453
z: -0.2573356628417969
visibility: 0.9999488592147827
","x: 261.20892333984375
y: 253.7446746826172
z: -0.1563531905412674
visibility: 0.9997954964637756
","x: 248.71945190429688
y: 251.24407958984375
z: -0.17755886912345886
visibility: 0.9998534917831421
","x: 257.1640930175781
y: 261.51568603515625
z: -0.23089174926280975
visibility: 0.9999538660049438
","x: 252.40399169921875
y: 259.771484375
z: -0.23694641888141632
visibility: 0.99996018409729
","x: 269.76788330078125
y: 288.09759521484375
z: -0.08799563348293304
visibility: 0.9999480247497559
","x: 235.79490661621094
y: 290.04595947265625
z: -0.09811478853225708
visibility: 0.9999082088470459
","x: 279.6221008300781
y: 323.98638916015625
z: -0.03587412089109421
visibility: 0.9924497604370117
","x: 230.35848999023438
y: 339.0028381347656
z: -0.05140266567468643
visibility: 0.9878635406494141
","x: 281.3542175292969
y: 358.22308349609375
z: -0.12197868525981903
visibility: 0.9881004095077515
","x: 229.89581298828125
y: 378.20050048828125
z: -0.1180635541677475
visibility: 0.9691934585571289
","x: 282.38189697265625
y: 370.7847900390625
z: -0.14688587188720703
visibility: 0.9672776460647583
","x: 228.72088623046875
y: 392.40789794921875
z: -0.13919836282730103
visibility: 0.9332994818687439
","x: 279.9840087890625
y: 369.22320556640625
z: -0.17366351187229156
visibility: 0.9710113406181335
","x: 230.40049743652344
y: 392.728759765625
z: -0.16519838571548462
visibility: 0.938007652759552
","x: 278.9233093261719
y: 364.37689208984375
z: -0.13418084383010864
visibility: 0.9631721377372742
","x: 231.55117797851562
y: 388.23876953125
z: -0.12914521992206573
visibility: 0.9269702434539795
","x: 263.9202575683594
y: 376.220703125
z: 0.0036728722043335438
visibility: 0.9990440011024475
","x: 244.5780029296875
y: 376.3856506347656
z: -0.003700216067954898
visibility: 0.9992656111717224
","x: 257.7822570800781
y: 443.52850341796875
z: 0.022344697266817093
visibility: 0.9768058061599731
","x: 245.41717529296875
y: 441.95867919921875
z: -0.012028057128190994
visibility: 0.9823436737060547
","x: 256.2378234863281
y: 504.2045593261719
z: 0.13461576402187347
visibility: 0.9785338044166565
","x: 241.2411346435547
y: 508.051025390625
z: 0.09765902161598206
visibility: 0.9797428250312805
","x: 253.64273071289062
y: 512.9688110351562
z: 0.1401781290769577
visibility: 0.90028315782547
","x: 241.9362030029297
y: 515.9300537109375
z: 0.10233156383037567
visibility: 0.7713033556938171
","x: 258.33013916015625
y: 522.2559814453125
z: 0.046005114912986755
visibility: 0.9763230681419373
","x: 241.61387634277344
y: 529.2977294921875
z: -0.0027898030821233988
visibility: 0.9716213941574097
",3.783029794692993,,,,,,,,,,,,,,,,,,,,,,,,,,,,,,,,,,,,,,,,,,
2,"x: 255.72935485839844
y: 252.0225372314453
z: -0.28027668595314026
visibility: 0.9999874234199524
","x: 257.6094970703125
y: 247.78598022460938
z: -0.2657293677330017
visibility: 0.9999467730522156
","x: 258.70220947265625
y: 248.2533416748047
z: -0.265739381313324
visibility: 0.9999441504478455
","x: 259.9404602050781
y: 248.7273406982422
z: -0.2657431662082672
visibility: 0.9999443888664246
","x: 254.23818969726562
y: 246.87156677246094
z: -0.2697170078754425
visibility: 0.9999518990516663
","x: 252.90733337402344
y: 246.71762084960938
z: -0.26974472403526306
visibility: 0.9999507069587708
","x: 251.427978515625
y: 246.68386840820312
z: -0.2697599232196808
visibility: 0.9999477863311768
","x: 261.302734375
y: 252.73817443847656
z: -0.1665281355381012
visibility: 0.9998063445091248
","x: 248.6612091064453
y: 250.58409118652344
z: -0.18823783099651337
visibility: 0.9998547434806824
","x: 257.2850646972656
y: 259.9974365234375
z: -0.2422146052122116
visibility: 0.9999558925628662
","x: 252.7238311767578
y: 258.9174499511719
z: -0.24854376912117004
visibility: 0.9999613761901855
","x: 269.7655029296875
y: 288.4913330078125
z: -0.0894094854593277
visibility: 0.9999505281448364
","x: 235.904296875
y: 287.7688903808594
z: -0.11404304206371307
visibility: 0.999908447265625
","x: 277.8709716796875
y: 329.73974609375
z: -0.03731184080243111
visibility: 0.9924414157867432
","x: 228.57310485839844
y: 331.3143310546875
z: -0.06967607885599136
visibility: 0.9856791496276855
","x: 281.2841491699219
y: 368.8319396972656
z: -0.11294455826282501
visibility: 0.9883890151977539
","x: 226.9903106689453
y: 367.39935302734375
z: -0.12937326729297638
visibility: 0.9613338708877563
","x: 282.9104309082031
y: 383.2410888671875
z: -0.13297852873802185
visibility: 0.9682261347770691
","x: 226.05247497558594
y: 379.8243408203125
z: -0.14794231951236725
visibility: 0.922354519367218
","x: 280.9951477050781
y: 383.52178955078125
z: -0.16142255067825317
visibility: 0.9718614816665649
","x: 227.44139099121094
y: 380.4444885253906
z: -0.17626875638961792
visibility: 0.9279971122741699
","x: 279.7928466796875
y: 379.74993896484375
z: -0.12499324232339859
visibility: 0.9641686677932739
","x: 228.90673828125
y: 376.7421875
z: -0.14137277007102966
visibility: 0.9156689047813416
","x: 262.46929931640625
y: 376.3043212890625
z: 0.01954265683889389
visibility: 0.9990469813346863
","x: 243.5440673828125
y: 375.9034729003906
z: -0.019600506871938705
visibility: 0.9992712736129761
","x: 257.0990295410156
y: 443.572998046875
z: 0.04784458875656128
visibility: 0.975337028503418
","x: 244.3564453125
y: 442.4773864746094
z: -0.0562111958861351
visibility: 0.983003556728363
","x: 255.4379119873047
y: 504.39752197265625
z: 0.16147805750370026
visibility: 0.9785583019256592
","x: 240.67076110839844
y: 509.1256103515625
z: 0.025514552369713783
visibility: 0.9803534746170044
","x: 252.7166748046875
y: 512.9669189453125
z: 0.16650982201099396
visibility: 0.9001882672309875
","x: 240.7985382080078
y: 517.6115112304688
z: 0.026786144822835922
visibility: 0.7723211646080017
","x: 259.0013732910156
y: 522.5550537109375
z: 0.07275619357824326
visibility: 0.9761584401130676
","x: 241.68743896484375
y: 530.36962890625
z: -0.08606478571891785
visibility: 0.9723761677742004
",4.381429195404053,,,,,,,,,,,,,,,,,,,,,,,,,,,,,,,,,,,,,,,,,,
3,"x: 255.72935485839844
y: 252.0225372314453
z: -0.28027668595314026
visibility: 0.9999874234199524
","x: 257.6094970703125
y: 247.78598022460938
z: -0.2657293677330017
visibility: 0.9999467730522156
","x: 258.70220947265625
y: 248.2533416748047
z: -0.265739381313324
visibility: 0.9999441504478455
","x: 259.9404602050781
y: 248.7273406982422
z: -0.2657431662082672
visibility: 0.9999443888664246
","x: 254.23818969726562
y: 246.87156677246094
z: -0.2697170078754425
visibility: 0.9999518990516663
","x: 252.90733337402344
y: 246.71762084960938
z: -0.26974472403526306
visibility: 0.9999507069587708
","x: 251.427978515625
y: 246.68386840820312
z: -0.2697599232196808
visibility: 0.9999477863311768
","x: 261.302734375
y: 252.73817443847656
z: -0.1665281355381012
visibility: 0.9998063445091248
","x: 248.6612091064453
y: 250.58409118652344
z: -0.18823783099651337
visibility: 0.9998547434806824
","x: 257.2850646972656
y: 259.9974365234375
z: -0.2422146052122116
visibility: 0.9999558925628662
","x: 252.7238311767578
y: 258.9174499511719
z: -0.24854376912117004
visibility: 0.9999613761901855
","x: 269.7655029296875
y: 288.4913330078125
z: -0.0894094854593277
visibility: 0.9999505281448364
","x: 235.904296875
y: 287.7688903808594
z: -0.11404304206371307
visibility: 0.999908447265625
","x: 277.8709716796875
y: 329.73974609375
z: -0.03731184080243111
visibility: 0.9924414157867432
","x: 228.57310485839844
y: 331.3143310546875
z: -0.06967607885599136
visibility: 0.9856791496276855
","x: 281.2841491699219
y: 368.8319396972656
z: -0.11294455826282501
visibility: 0.9883890151977539
","x: 226.9903106689453
y: 367.39935302734375
z: -0.12937326729297638
visibility: 0.9613338708877563
","x: 282.9104309082031
y: 383.2410888671875
z: -0.13297852873802185
visibility: 0.9682261347770691
","x: 226.05247497558594
y: 379.8243408203125
z: -0.14794231951236725
visibility: 0.922354519367218
","x: 280.9951477050781
y: 383.52178955078125
z: -0.16142255067825317
visibility: 0.9718614816665649
","x: 227.44139099121094
y: 380.4444885253906
z: -0.17626875638961792
visibility: 0.9279971122741699
","x: 279.7928466796875
y: 379.74993896484375
z: -0.12499324232339859
visibility: 0.9641686677932739
","x: 228.90673828125
y: 376.7421875
z: -0.14137277007102966
visibility: 0.9156689047813416
","x: 262.46929931640625
y: 376.3043212890625
z: 0.01954265683889389
visibility: 0.9990469813346863
","x: 243.5440673828125
y: 375.9034729003906
z: -0.019600506871938705
visibility: 0.9992712736129761
","x: 257.0990295410156
y: 443.572998046875
z: 0.04784458875656128
visibility: 0.975337028503418
","x: 244.3564453125
y: 442.4773864746094
z: -0.0562111958861351
visibility: 0.983003556728363
","x: 255.4379119873047
y: 504.39752197265625
z: 0.16147805750370026
visibility: 0.9785583019256592
","x: 240.67076110839844
y: 509.1256103515625
z: 0.025514552369713783
visibility: 0.9803534746170044
","x: 252.7166748046875
y: 512.9669189453125
z: 0.16650982201099396
visibility: 0.9001882672309875
","x: 240.7985382080078
y: 517.6115112304688
z: 0.026786144822835922
visibility: 0.7723211646080017
","x: 259.0013732910156
y: 522.5550537109375
z: 0.07275619357824326
visibility: 0.9761584401130676
","x: 241.68743896484375
y: 530.36962890625
z: -0.08606478571891785
visibility: 0.9723761677742004
",4.381429195404053,,,,,,,,,,,,,,,,,,,,,,,,,,,,,,,,,,,,,,,,,,
4,"x: 257.40814208984375
y: 251.85293579101562
z: -0.28732699155807495
visibility: 0.999987781047821
","x: 259.2663879394531
y: 247.55191040039062
z: -0.2723660171031952
visibility: 0.9999494552612305
","x: 260.480712890625
y: 248.037353515625
z: -0.2723780870437622
visibility: 0.9999472498893738
","x: 261.7007751464844
y: 248.53543090820312
z: -0.27237775921821594
visibility: 0.9999475479125977
","x: 255.75982666015625
y: 246.66851806640625
z: -0.2758730351924896
visibility: 0.9999533295631409
","x: 254.3703155517578
y: 246.5266571044922
z: -0.2759033441543579
visibility: 0.9999518990516663
","x: 252.83511352539062
y: 246.47840881347656
z: -0.2759210765361786
visibility: 0.9999485015869141
","x: 263.1614074707031
y: 252.7212371826172
z: -0.1736692190170288
visibility: 0.999817967414856
","x: 249.7342071533203
y: 250.51185607910156
z: -0.19331276416778564
visibility: 0.9998593330383301
","x: 259.0517272949219
y: 259.92437744140625
z: -0.24985554814338684
visibility: 0.9999584555625916
","x: 254.45852661132812
y: 258.8179931640625
z: -0.2555898427963257
visibility: 0.9999634623527527
","x: 270.4627380371094
y: 291.0196228027344
z: -0.09835080057382584
visibility: 0.9999525547027588
","x: 236.55856323242188
y: 287.093505859375
z: -0.11915513128042221
visibility: 0.9999123811721802
","x: 277.2796630859375
y: 335.53631591796875
z: -0.0513174943625927
visibility: 0.9924116134643555
","x: 228.46328735351562
y: 330.6534118652344
z: -0.07226327061653137
visibility: 0.9847491383552551
","x: 280.3504333496094
y: 376.7385559082031
z: -0.12414385378360748
visibility: 0.9884857535362244
","x: 225.6562042236328
y: 366.3779296875
z: -0.13482454419136047
visibility: 0.9584481120109558
","x: 282.146240234375
y: 390.964599609375
z: -0.14387774467468262
visibility: 0.968731164932251
","x: 224.848388671875
y: 378.3075256347656
z: -0.15399250388145447
visibility: 0.9185164570808411
","x: 279.8392333984375
y: 391.860595703125
z: -0.17170390486717224
visibility: 0.9722627401351929
","x: 226.47923278808594
y: 378.9493103027344
z: -0.18305668234825134
visibility: 0.9246044158935547
","x: 278.4718933105469
y: 387.12725830078125
z: -0.1356441229581833
visibility: 0.9645484685897827
","x: 227.89768981933594
y: 375.5643005371094
z: -0.14718815684318542
visibility: 0.9116379618644714
","x: 261.5305480957031
y: 376.77471923828125
z: 0.020793166011571884
visibility: 0.9990778565406799
","x: 242.75582885742188
y: 375.3528137207031
z: -0.020867440849542618
visibility: 0.999305009841919
","x: 256.1551208496094
y: 443.62054443359375
z: 0.05712346360087395
visibility: 0.9743028879165649
","x: 244.0263214111328
y: 442.7267150878906
z: -0.059898942708969116
visibility: 0.9837095737457275
","x: 255.1336669921875
y: 504.52264404296875
z: 0.1785329282283783
visibility: 0.9788899421691895
","x: 240.3156280517578
y: 510.256591796875
z: 0.027039337903261185
visibility: 0.981050431728363
","x: 252.42636108398438
y: 513.1805419921875
z: 0.18446283042430878
visibility: 0.9006595611572266
","x: 240.30702209472656
y: 519.7660522460938
z: 0.02881551906466484
visibility: 0.775147557258606
","x: 259.3215637207031
y: 522.5897216796875
z: 0.09069380164146423
visibility: 0.9764417409896851
","x: 242.32943725585938
y: 530.3688354492188
z: -0.08483903855085373
visibility: 0.9733654260635376
",4.525493144989014,,,,,,,,,,,,,,,,,,,,,,,,,,,,,,,,,,,,,,,,,,
5,"x: 257.40814208984375
y: 251.85293579101562
z: -0.28732699155807495
visibility: 0.999987781047821
","x: 259.2663879394531
y: 247.55191040039062
z: -0.2723660171031952
visibility: 0.9999494552612305
","x: 260.480712890625
y: 248.037353515625
z: -0.2723780870437622
visibility: 0.9999472498893738
","x: 261.7007751464844
y: 248.53543090820312
z: -0.27237775921821594
visibility: 0.9999475479125977
","x: 255.75982666015625
y: 246.66851806640625
z: -0.2758730351924896
visibility: 0.9999533295631409
","x: 254.3703155517578
y: 246.5266571044922
z: -0.2759033441543579
visibility: 0.9999518990516663
","x: 252.83511352539062
y: 246.47840881347656
z: -0.2759210765361786
visibility: 0.9999485015869141
","x: 263.1614074707031
y: 252.7212371826172
z: -0.1736692190170288
visibility: 0.999817967414856
","x: 249.7342071533203
y: 250.51185607910156
z: -0.19331276416778564
visibility: 0.9998593330383301
","x: 259.0517272949219
y: 259.92437744140625
z: -0.24985554814338684
visibility: 0.9999584555625916
","x: 254.45852661132812
y: 258.8179931640625
z: -0.2555898427963257
visibility: 0.9999634623527527
","x: 270.4627380371094
y: 291.0196228027344
z: -0.09835080057382584
visibility: 0.9999525547027588
","x: 236.55856323242188
y: 287.093505859375
z: -0.11915513128042221
visibility: 0.9999123811721802
","x: 277.2796630859375
y: 335.53631591796875
z: -0.0513174943625927
visibility: 0.9924116134643555
","x: 228.46328735351562
y: 330.6534118652344
z: -0.07226327061653137
visibility: 0.9847491383552551
","x: 280.3504333496094
y: 376.7385559082031
z: -0.12414385378360748
visibility: 0.9884857535362244
","x: 225.6562042236328
y: 366.3779296875
z: -0.13482454419136047
visibility: 0.9584481120109558
","x: 282.146240234375
y: 390.964599609375
z: -0.14387774467468262
visibility: 0.968731164932251
","x: 224.848388671875
y: 378.3075256347656
z: -0.15399250388145447
visibility: 0.9185164570808411
","x: 279.8392333984375
y: 391.860595703125
z: -0.17170390486717224
visibility: 0.9722627401351929
","x: 226.47923278808594
y: 378.9493103027344
z: -0.18305668234825134
visibility: 0.9246044158935547
","x: 278.4718933105469
y: 387.12725830078125
z: -0.1356441229581833
visibility: 0.9645484685897827
","x: 227.89768981933594
y: 375.5643005371094
z: -0.14718815684318542
visibility: 0.9116379618644714
","x: 261.5305480957031
y: 376.77471923828125
z: 0.020793166011571884
visibility: 0.9990778565406799
","x: 242.75582885742188
y: 375.3528137207031
z: -0.020867440849542618
visibility: 0.999305009841919
","x: 256.1551208496094
y: 443.62054443359375
z: 0.05712346360087395
visibility: 0.9743028879165649
","x: 244.0263214111328
y: 442.7267150878906
z: -0.059898942708969116
visibility: 0.9837095737457275
","x: 255.1336669921875
y: 504.52264404296875
z: 0.1785329282283783
visibility: 0.9788899421691895
","x: 240.3156280517578
y: 510.256591796875
z: 0.027039337903261185
visibility: 0.981050431728363
","x: 252.42636108398438
y: 513.1805419921875
z: 0.18446283042430878
visibility: 0.9006595611572266
","x: 240.30702209472656
y: 519.7660522460938
z: 0.02881551906466484
visibility: 0.775147557258606
","x: 259.3215637207031
y: 522.5897216796875
z: 0.09069380164146423
visibility: 0.9764417409896851
","x: 242.32943725585938
y: 530.3688354492188
z: -0.08483903855085373
visibility: 0.9733654260635376
",4.525493144989014,,,,,,,,,,,,,,,,,,,,,,,,,,,,,,,,,,,,,,,,,,
6,"x: 258.0114440917969
y: 252.0852508544922
z: -0.283019095659256
visibility: 0.999987781047821
","x: 259.9627990722656
y: 247.6590576171875
z: -0.26821598410606384
visibility: 0.9999505877494812
","x: 261.1916198730469
y: 248.13941955566406
z: -0.26821908354759216
visibility: 0.9999486207962036
","x: 262.4400634765625
y: 248.62704467773438
z: -0.2682129144668579
visibility: 0.999949038028717
","x: 256.4962463378906
y: 246.72793579101562
z: -0.2710186541080475
visibility: 0.9999538660049438
","x: 255.16943359375
y: 246.56288146972656
z: -0.27105996012687683
visibility: 0.9999524354934692
","x: 253.677001953125
y: 246.48329162597656
z: -0.27109161019325256
visibility: 0.9999489784240723
","x: 263.93121337890625
y: 253.1360626220703
z: -0.17019301652908325
visibility: 0.9998238682746887
","x: 250.62950134277344
y: 250.5937042236328
z: -0.19154968857765198
visibility: 0.9998624920845032
","x: 259.5672912597656
y: 260.25250244140625
z: -0.24877579510211945
visibility: 0.99996018409729
","x: 254.9873504638672
y: 259.0697021484375
z: -0.25541409850120544
visibility: 0.9999651312828064
","x: 271.2490234375
y: 291.32879638671875
z: -0.09777852147817612
visibility: 0.9999507665634155
","x: 237.2490692138672
y: 287.20196533203125
z: -0.11573443561792374
visibility: 0.9999129772186279
","x: 277.429443359375
y: 336.0354309082031
z: -0.049413736909627914
visibility: 0.9922037720680237
","x: 228.55860900878906
y: 331.5202331542969
z: -0.07357101142406464
visibility: 0.9839085936546326
","x: 279.4193420410156
y: 379.160888671875
z: -0.11359365284442902
visibility: 0.9877487421035767
","x: 225.94651794433594
y: 367.6255798339844
z: -0.13367055356502533
visibility: 0.9536270499229431
","x: 280.751708984375
y: 393.20379638671875
z: -0.13199998438358307
visibility: 0.9673241972923279
","x: 225.2440643310547
y: 380.400146484375
z: -0.15268436074256897
visibility: 0.9116545915603638
","x: 277.8708190917969
y: 393.5124206542969
z: -0.15773193538188934
visibility: 0.9708890318870544
","x: 226.7640380859375
y: 380.9683837890625
z: -0.1794748306274414
visibility: 0.9181363582611084
","x: 276.4920349121094
y: 388.69097900390625
z: -0.12394440174102783
visibility: 0.9627768993377686
","x: 228.09909057617188
y: 377.05804443359375
z: -0.14486370980739594
visibility: 0.9040380716323853
","x: 261.71038818359375
y: 377.33154296875
z: 0.0176809374243021
visibility: 0.9990844130516052
","x: 242.7666015625
y: 375.3954772949219
z: -0.017742879688739777
visibility: 0.999322772026062
","x: 256.2431945800781
y: 443.6621398925781
z: 0.05032607167959213
visibility: 0.9750367403030396
","x: 243.59481811523438
y: 443.2729797363281
z: -0.04790141433477402
visibility: 0.9846560955047607
","x: 255.16748046875
y: 504.75225830078125
z: 0.1648811250925064
visibility: 0.9798902273178101
","x: 239.96466064453125
y: 510.2180480957031
z: 0.03849266842007637
visibility: 0.9819775819778442
","x: 252.5001220703125
y: 513.5650024414062
z: 0.17032673954963684
visibility: 0.9028210043907166
","x: 240.22518920898438
y: 519.8314208984375
z: 0.04031742364168167
visibility: 0.7783301472663879
","x: 259.2992248535156
y: 522.701171875
z: 0.07689259201288223
visibility: 0.9772641658782959
","x: 242.3127899169922
y: 529.2867431640625
z: -0.06891019642353058
visibility: 0.9743680953979492
",4.6681296825408936,"x: 278.2178955078125
y: 378.30316162109375
z: 0.0
","x: 275.0774230957031
y: 383.16448974609375
z: -0.0016358745051547885
","x: 273.7625732421875
y: 389.63140869140625
z: -0.0017780171474441886
","x: 273.4209289550781
y: 396.37017822265625
z: -0.0014124015579000115
","x: 272.9437255859375
y: 401.4218444824219
z: -0.0006805358571000397
","x: 276.8912353515625
y: 394.8710632324219
z: -0.002315557561814785
","x: 275.52984619140625
y: 403.76922607421875
z: -0.0020639682188630104
","x: 273.4960632324219
y: 406.1302490234375
z: -0.0008505607256665826
","x: 272.08953857421875
y: 406.913818359375
z: 0.0002876678481698036
","x: 279.0028076171875
y: 395.636962890625
z: -0.001434082048945129
","x: 277.7782897949219
y: 404.6515197753906
z: -0.0005778117338195443
","x: 275.5964050292969
y: 406.4520568847656
z: 0.0009140782640315592
","x: 274.2193603515625
y: 406.5463562011719
z: 0.0019958398770540953
","x: 280.2623291015625
y: 395.53363037109375
z: -0.0005808299756608903
","x: 279.3537902832031
y: 403.85406494140625
z: 0.00011642764729913324
","x: 277.4923400878906
y: 405.1068115234375
z: 0.0011030194582417607
","x: 276.2184143066406
y: 404.65631103515625
z: 0.0017408047569915652
","x: 280.7894287109375
y: 394.73699951171875
z: 6.869205390103161e-05
","x: 280.10272216796875
y: 401.67681884765625
z: 0.0001802756160032004
","x: 278.61346435546875
y: 403.58868408203125
z: 0.0006678380304947495
","x: 277.38531494140625
y: 403.7384033203125
z: 0.0013012331910431385
",,,,,,,,,,,,,,,,,,,,,
7,"x: 258.0114440917969
y: 252.0852508544922
z: -0.283019095659256
visibility: 0.999987781047821
","x: 259.9627990722656
y: 247.6590576171875
z: -0.26821598410606384
visibility: 0.9999505877494812
","x: 261.1916198730469
y: 248.13941955566406
z: -0.26821908354759216
visibility: 0.9999486207962036
","x: 262.4400634765625
y: 248.62704467773438
z: -0.2682129144668579
visibility: 0.999949038028717
","x: 256.4962463378906
y: 246.72793579101562
z: -0.2710186541080475
visibility: 0.9999538660049438
","x: 255.16943359375
y: 246.56288146972656
z: -0.27105996012687683
visibility: 0.9999524354934692
","x: 253.677001953125
y: 246.48329162597656
z: -0.27109161019325256
visibility: 0.9999489784240723
","x: 263.93121337890625
y: 253.1360626220703
z: -0.17019301652908325
visibility: 0.9998238682746887
","x: 250.62950134277344
y: 250.5937042236328
z: -0.19154968857765198
visibility: 0.9998624920845032
","x: 259.5672912597656
y: 260.25250244140625
z: -0.24877579510211945
visibility: 0.99996018409729
","x: 254.9873504638672
y: 259.0697021484375
z: -0.25541409850120544
visibility: 0.9999651312828064
","x: 271.2490234375
y: 291.32879638671875
z: -0.09777852147817612
visibility: 0.9999507665634155
","x: 237.2490692138672
y: 287.20196533203125
z: -0.11573443561792374
visibility: 0.9999129772186279
","x: 277.429443359375
y: 336.0354309082031
z: -0.049413736909627914
visibility: 0.9922037720680237
","x: 228.55860900878906
y: 331.5202331542969
z: -0.07357101142406464
visibility: 0.9839085936546326
","x: 279.4193420410156
y: 379.160888671875
z: -0.11359365284442902
visibility: 0.9877487421035767
","x: 225.94651794433594
y: 367.6255798339844
z: -0.13367055356502533
visibility: 0.9536270499229431
","x: 280.751708984375
y: 393.20379638671875
z: -0.13199998438358307
visibility: 0.9673241972923279
","x: 225.2440643310547
y: 380.400146484375
z: -0.15268436074256897
visibility: 0.9116545915603638
","x: 277.8708190917969
y: 393.5124206542969
z: -0.15773193538188934
visibility: 0.9708890318870544
","x: 226.7640380859375
y: 380.9683837890625
z: -0.1794748306274414
visibility: 0.9181363582611084
","x: 276.4920349121094
y: 388.69097900390625
z: -0.12394440174102783
visibility: 0.9627768993377686
","x: 228.09909057617188
y: 377.05804443359375
z: -0.14486370980739594
visibility: 0.9040380716323853
","x: 261.71038818359375
y: 377.33154296875
z: 0.0176809374243021
visibility: 0.9990844130516052
","x: 242.7666015625
y: 375.3954772949219
z: -0.017742879688739777
visibility: 0.999322772026062
","x: 256.2431945800781
y: 443.6621398925781
z: 0.05032607167959213
visibility: 0.9750367403030396
","x: 243.59481811523438
y: 443.2729797363281
z: -0.04790141433477402
visibility: 0.9846560955047607
","x: 255.16748046875
y: 504.75225830078125
z: 0.1648811250925064
visibility: 0.9798902273178101
","x: 239.96466064453125
y: 510.2180480957031
z: 0.03849266842007637
visibility: 0.9819775819778442
","x: 252.5001220703125
y: 513.5650024414062
z: 0.17032673954963684
visibility: 0.9028210043907166
","x: 240.22518920898438
y: 519.8314208984375
z: 0.04031742364168167
visibility: 0.7783301472663879
","x: 259.2992248535156
y: 522.701171875
z: 0.07689259201288223
visibility: 0.9772641658782959
","x: 242.3127899169922
y: 529.2867431640625
z: -0.06891019642353058
visibility: 0.9743680953979492
",4.6681296825408936,"x: 278.2178955078125
y: 378.30316162109375
z: 0.0
","x: 275.0774230957031
y: 383.16448974609375
z: -0.0016358745051547885
","x: 273.7625732421875
y: 389.63140869140625
z: -0.0017780171474441886
","x: 273.4209289550781
y: 396.37017822265625
z: -0.0014124015579000115
","x: 272.9437255859375
y: 401.4218444824219
z: -0.0006805358571000397
","x: 276.8912353515625
y: 394.8710632324219
z: -0.002315557561814785
","x: 275.52984619140625
y: 403.76922607421875
z: -0.0020639682188630104
","x: 273.4960632324219
y: 406.1302490234375
z: -0.0008505607256665826
","x: 272.08953857421875
y: 406.913818359375
z: 0.0002876678481698036
","x: 279.0028076171875
y: 395.636962890625
z: -0.001434082048945129
","x: 277.7782897949219
y: 404.6515197753906
z: -0.0005778117338195443
","x: 275.5964050292969
y: 406.4520568847656
z: 0.0009140782640315592
","x: 274.2193603515625
y: 406.5463562011719
z: 0.0019958398770540953
","x: 280.2623291015625
y: 395.53363037109375
z: -0.0005808299756608903
","x: 279.3537902832031
y: 403.85406494140625
z: 0.00011642764729913324
","x: 277.4923400878906
y: 405.1068115234375
z: 0.0011030194582417607
","x: 276.2184143066406
y: 404.65631103515625
z: 0.0017408047569915652
","x: 280.7894287109375
y: 394.73699951171875
z: 6.869205390103161e-05
","x: 280.10272216796875
y: 401.67681884765625
z: 0.0001802756160032004
","x: 278.61346435546875
y: 403.58868408203125
z: 0.0006678380304947495
","x: 277.38531494140625
y: 403.7384033203125
z: 0.0013012331910431385
",,,,,,,,,,,,,,,,,,,,,
8,"x: 258.0114440917969
y: 252.0852508544922
z: -0.283019095659256
visibility: 0.999987781047821
","x: 259.9627990722656
y: 247.6590576171875
z: -0.26821598410606384
visibility: 0.9999505877494812
","x: 261.1916198730469
y: 248.13941955566406
z: -0.26821908354759216
visibility: 0.9999486207962036
","x: 262.4400634765625
y: 248.62704467773438
z: -0.2682129144668579
visibility: 0.999949038028717
","x: 256.4962463378906
y: 246.72793579101562
z: -0.2710186541080475
visibility: 0.9999538660049438
","x: 255.16943359375
y: 246.56288146972656
z: -0.27105996012687683
visibility: 0.9999524354934692
","x: 253.677001953125
y: 246.48329162597656
z: -0.27109161019325256
visibility: 0.9999489784240723
","x: 263.93121337890625
y: 253.1360626220703
z: -0.17019301652908325
visibility: 0.9998238682746887
","x: 250.62950134277344
y: 250.5937042236328
z: -0.19154968857765198
visibility: 0.9998624920845032
","x: 259.5672912597656
y: 260.25250244140625
z: -0.24877579510211945
visibility: 0.99996018409729
","x: 254.9873504638672
y: 259.0697021484375
z: -0.25541409850120544
visibility: 0.9999651312828064
","x: 271.2490234375
y: 291.32879638671875
z: -0.09777852147817612
visibility: 0.9999507665634155
","x: 237.2490692138672
y: 287.20196533203125
z: -0.11573443561792374
visibility: 0.9999129772186279
","x: 277.429443359375
y: 336.0354309082031
z: -0.049413736909627914
visibility: 0.9922037720680237
","x: 228.55860900878906
y: 331.5202331542969
z: -0.07357101142406464
visibility: 0.9839085936546326
","x: 279.4193420410156
y: 379.160888671875
z: -0.11359365284442902
visibility: 0.9877487421035767
","x: 225.94651794433594
y: 367.6255798339844
z: -0.13367055356502533
visibility: 0.9536270499229431
","x: 280.751708984375
y: 393.20379638671875
z: -0.13199998438358307
visibility: 0.9673241972923279
","x: 225.2440643310547
y: 380.400146484375
z: -0.15268436074256897
visibility: 0.9116545915603638
","x: 277.8708190917969
y: 393.5124206542969
z: -0.15773193538188934
visibility: 0.9708890318870544
","x: 226.7640380859375
y: 380.9683837890625
z: -0.1794748306274414
visibility: 0.9181363582611084
","x: 276.4920349121094
y: 388.69097900390625
z: -0.12394440174102783
visibility: 0.9627768993377686
","x: 228.09909057617188
y: 377.05804443359375
z: -0.14486370980739594
visibility: 0.9040380716323853
","x: 261.71038818359375
y: 377.33154296875
z: 0.0176809374243021
visibility: 0.9990844130516052
","x: 242.7666015625
y: 375.3954772949219
z: -0.017742879688739777
visibility: 0.999322772026062
","x: 256.2431945800781
y: 443.6621398925781
z: 0.05032607167959213
visibility: 0.9750367403030396
","x: 243.59481811523438
y: 443.2729797363281
z: -0.04790141433477402
visibility: 0.9846560955047607
","x: 255.16748046875
y: 504.75225830078125
z: 0.1648811250925064
visibility: 0.9798902273178101
","x: 239.96466064453125
y: 510.2180480957031
z: 0.03849266842007637
visibility: 0.9819775819778442
","x: 252.5001220703125
y: 513.5650024414062
z: 0.17032673954963684
visibility: 0.9028210043907166
","x: 240.22518920898438
y: 519.8314208984375
z: 0.04031742364168167
visibility: 0.7783301472663879
","x: 259.2992248535156
y: 522.701171875
z: 0.07689259201288223
visibility: 0.9772641658782959
","x: 242.3127899169922
y: 529.2867431640625
z: -0.06891019642353058
visibility: 0.9743680953979492
",4.6681296825408936,"x: 278.2178955078125
y: 378.30316162109375
z: 0.0
","x: 275.0774230957031
y: 383.16448974609375
z: -0.0016358745051547885
","x: 273.7625732421875
y: 389.63140869140625
z: -0.0017780171474441886
","x: 273.4209289550781
y: 396.37017822265625
z: -0.0014124015579000115
","x: 272.9437255859375
y: 401.4218444824219
z: -0.0006805358571000397
","x: 276.8912353515625
y: 394.8710632324219
z: -0.002315557561814785
","x: 275.52984619140625
y: 403.76922607421875
z: -0.0020639682188630104
","x: 273.4960632324219
y: 406.1302490234375
z: -0.0008505607256665826
","x: 272.08953857421875
y: 406.913818359375
z: 0.0002876678481698036
","x: 279.0028076171875
y: 395.636962890625
z: -0.001434082048945129
","x: 277.7782897949219
y: 404.6515197753906
z: -0.0005778117338195443
","x: 275.5964050292969
y: 406.4520568847656
z: 0.0009140782640315592
","x: 274.2193603515625
y: 406.5463562011719
z: 0.0019958398770540953
","x: 280.2623291015625
y: 395.53363037109375
z: -0.0005808299756608903
","x: 279.3537902832031
y: 403.85406494140625
z: 0.00011642764729913324
","x: 277.4923400878906
y: 405.1068115234375
z: 0.0011030194582417607
","x: 276.2184143066406
y: 404.65631103515625
z: 0.0017408047569915652
","x: 280.7894287109375
y: 394.73699951171875
z: 6.869205390103161e-05
","x: 280.10272216796875
y: 401.67681884765625
z: 0.0001802756160032004
","x: 278.61346435546875
y: 403.58868408203125
z: 0.0006678380304947495
","x: 277.38531494140625
y: 403.7384033203125
z: 0.0013012331910431385
",,,,,,,,,,,,,,,,,,,,,
9,"x: 257.89544677734375
y: 252.93966674804688
z: -0.30261293053627014
visibility: 0.9999887347221375
","x: 259.8044128417969
y: 248.16351318359375
z: -0.2892470061779022
visibility: 0.9999545812606812
","x: 260.9933166503906
y: 248.578857421875
z: -0.28924447298049927
visibility: 0.9999528527259827
","x: 262.2696838378906
y: 248.967041015625
z: -0.2892422676086426
visibility: 0.9999532103538513
","x: 256.345703125
y: 247.24557495117188
z: -0.2911118268966675
visibility: 0.9999573230743408
","x: 255.05979919433594
y: 247.0046844482422
z: -0.2911442816257477
visibility: 0.9999560117721558
","x: 253.55157470703125
y: 246.86614990234375
z: -0.2911388874053955
visibility: 0.9999526739120483
","x: 263.72393798828125
y: 253.45196533203125
z: -0.19600191712379456
visibility: 0.9998392462730408
","x: 250.52015686035156
y: 250.89273071289062
z: -0.2081744372844696
visibility: 0.9998731017112732
","x: 259.4273376464844
y: 261.0057678222656
z: -0.267348051071167
visibility: 0.999963641166687
","x: 254.82896423339844
y: 260.016357421875
z: -0.2710142135620117
visibility: 0.9999679923057556
","x: 271.44000244140625
y: 291.384765625
z: -0.12939730286598206
visibility: 0.9999545216560364
","x: 237.29177856445312
y: 287.836669921875
z: -0.12453489005565643
visibility: 0.9999179244041443
","x: 277.91302490234375
y: 334.93170166015625
z: -0.0783097892999649
visibility: 0.9926087856292725
","x: 228.62860107421875
y: 332.69085693359375
z: -0.07347758859395981
visibility: 0.9839730858802795
","x: 279.5381164550781
y: 377.9422607421875
z: -0.14238834381103516
visibility: 0.9882046580314636
","x: 225.2482452392578
y: 367.74676513671875
z: -0.1367097944021225
visibility: 0.9545130133628845
","x: 280.79461669921875
y: 391.49456787109375
z: -0.16234061121940613
visibility: 0.9683413505554199
","x: 223.9071807861328
y: 380.4963684082031
z: -0.1559443324804306
visibility: 0.9128819108009338
","x: 277.82940673828125
y: 391.54193115234375
z: -0.18899203836917877
visibility: 0.9717642664909363
","x: 225.47438049316406
y: 381.72039794921875
z: -0.18460465967655182
visibility: 0.9193193316459656
","x: 276.53497314453125
y: 387.19439697265625
z: -0.15327088534832
visibility: 0.9638213515281677
","x: 226.8267364501953
y: 378.7463684082031
z: -0.14910194277763367
visibility: 0.9054427742958069
","x: 261.7809143066406
y: 377.27313232421875
z: 0.006352809723466635
visibility: 0.9991524815559387
","x: 242.71139526367188
y: 375.2534484863281
z: -0.006445895880460739
visibility: 0.9993598461151123
","x: 256.7779846191406
y: 443.00054931640625
z: 0.020064247772097588
visibility: 0.9764932990074158
","x: 241.40521240234375
y: 442.4754638671875
z: -0.008364357985556126
visibility: 0.9852001070976257
","x: 255.19558715820312
y: 504.5791015625
z: 0.14530274271965027
visibility: 0.9810803532600403
","x: 238.03662109375
y: 500.4713134765625
z: 0.12714765965938568
visibility: 0.9826982617378235
","x: 252.53350830078125
y: 513.27734375
z: 0.1516592800617218
visibility: 0.9052937030792236
","x: 238.93536376953125
y: 508.4666442871094
z: 0.1342235505580902
visibility: 0.7836872339248657
","x: 259.2763977050781
y: 522.6883544921875
z: 0.052512168884277344
visibility: 0.9784125089645386
","x: 236.47132873535156
y: 523.2230224609375
z: 0.03212924674153328
visibility: 0.9754576683044434
",4.823459148406982,,,,,,,,,,,,,,,,,,,,,,,,,,,,,,,,,,,,,,,,,,
10,"x: 257.89544677734375
y: 252.93966674804688
z: -0.30261293053627014
visibility: 0.9999887347221375
","x: 259.8044128417969
y: 248.16351318359375
z: -0.2892470061779022
visibility: 0.9999545812606812
","x: 260.9933166503906
y: 248.578857421875
z: -0.28924447298049927
visibility: 0.9999528527259827
","x: 262.2696838378906
y: 248.967041015625
z: -0.2892422676086426
visibility: 0.9999532103538513
","x: 256.345703125
y: 247.24557495117188
z: -0.2911118268966675
visibility: 0.9999573230743408
","x: 255.05979919433594
y: 247.0046844482422
z: -0.2911442816257477
visibility: 0.9999560117721558
","x: 253.55157470703125
y: 246.86614990234375
z: -0.2911388874053955
visibility: 0.9999526739120483
","x: 263.72393798828125
y: 253.45196533203125
z: -0.19600191712379456
visibility: 0.9998392462730408
","x: 250.52015686035156
y: 250.89273071289062
z: -0.2081744372844696
visibility: 0.9998731017112732
","x: 259.4273376464844
y: 261.0057678222656
z: -0.267348051071167
visibility: 0.999963641166687
","x: 254.82896423339844
y: 260.016357421875
z: -0.2710142135620117
visibility: 0.9999679923057556
","x: 271.44000244140625
y: 291.384765625
z: -0.12939730286598206
visibility: 0.9999545216560364
","x: 237.29177856445312
y: 287.836669921875
z: -0.12453489005565643
visibility: 0.9999179244041443
","x: 277.91302490234375
y: 334.93170166015625
z: -0.0783097892999649
visibility: 0.9926087856292725
","x: 228.62860107421875
y: 332.69085693359375
z: -0.07347758859395981
visibility: 0.9839730858802795
","x: 279.5381164550781
y: 377.9422607421875
z: -0.14238834381103516
visibility: 0.9882046580314636
","x: 225.2482452392578
y: 367.74676513671875
z: -0.1367097944021225
visibility: 0.9545130133628845
","x: 280.79461669921875
y: 391.49456787109375
z: -0.16234061121940613
visibility: 0.9683413505554199
","x: 223.9071807861328
y: 380.4963684082031
z: -0.1559443324804306
visibility: 0.9128819108009338
","x: 277.82940673828125
y: 391.54193115234375
z: -0.18899203836917877
visibility: 0.9717642664909363
","x: 225.47438049316406
y: 381.72039794921875
z: -0.18460465967655182
visibility: 0.9193193316459656
","x: 276.53497314453125
y: 387.19439697265625
z: -0.15327088534832
visibility: 0.9638213515281677
","x: 226.8267364501953
y: 378.7463684082031
z: -0.14910194277763367
visibility: 0.9054427742958069
","x: 261.7809143066406
y: 377.27313232421875
z: 0.006352809723466635
visibility: 0.9991524815559387
","x: 242.71139526367188
y: 375.2534484863281
z: -0.006445895880460739
visibility: 0.9993598461151123
","x: 256.7779846191406
y: 443.00054931640625
z: 0.020064247772097588
visibility: 0.9764932990074158
","x: 241.40521240234375
y: 442.4754638671875
z: -0.008364357985556126
visibility: 0.9852001070976257
","x: 255.19558715820312
y: 504.5791015625
z: 0.14530274271965027
visibility: 0.9810803532600403
","x: 238.03662109375
y: 500.4713134765625
z: 0.12714765965938568
visibility: 0.9826982617378235
","x: 252.53350830078125
y: 513.27734375
z: 0.1516592800617218
visibility: 0.9052937030792236
","x: 238.93536376953125
y: 508.4666442871094
z: 0.1342235505580902
visibility: 0.7836872339248657
","x: 259.2763977050781
y: 522.6883544921875
z: 0.052512168884277344
visibility: 0.9784125089645386
","x: 236.47132873535156
y: 523.2230224609375
z: 0.03212924674153328
visibility: 0.9754576683044434
",4.823459148406982,,,,,,,,,,,,,,,,,,,,,,,,,,,,,,,,,,,,,,,,,,
11,"x: 256.6194763183594
y: 252.9932861328125
z: -0.31918030977249146
visibility: 0.9999895095825195
","x: 258.278564453125
y: 248.18946838378906
z: -0.30404001474380493
visibility: 0.9999578595161438
","x: 259.3422546386719
y: 248.60226440429688
z: -0.30403855443000793
visibility: 0.9999563694000244
","x: 260.51861572265625
y: 249.00430297851562
z: -0.3040412366390228
visibility: 0.9999567270278931
","x: 254.62368774414062
y: 247.4879150390625
z: -0.30694398283958435
visibility: 0.9999598860740662
","x: 253.1715545654297
y: 247.43585205078125
z: -0.3069849908351898
visibility: 0.9999584555625916
","x: 251.68618774414062
y: 247.50341796875
z: -0.30699285864830017
visibility: 0.9999549984931946
","x: 262.3620300292969
y: 253.4537353515625
z: -0.20303669571876526
visibility: 0.9998512268066406
","x: 249.0858154296875
y: 251.9928741455078
z: -0.2181701362133026
visibility: 0.9998796582221985
","x: 258.7155456542969
y: 260.9920654296875
z: -0.2809087336063385
visibility: 0.9999668002128601
","x: 253.72232055664062
y: 260.1450500488281
z: -0.28533875942230225
visibility: 0.9999703168869019
","x: 271.3497314453125
y: 291.54718017578125
z: -0.1293720155954361
visibility: 0.9999586343765259
","x: 236.9563751220703
y: 288.6755676269531
z: -0.1443042904138565
visibility: 0.9999210238456726
","x: 277.9560852050781
y: 334.27972412109375
z: -0.08695638924837112
visibility: 0.9929699897766113
","x: 228.2606964111328
y: 334.0901184082031
z: -0.10186398029327393
visibility: 0.9846668243408203
","x: 279.6033630371094
y: 375.572265625
z: -0.17319104075431824
visibility: 0.9887827038764954
","x: 224.70150756835938
y: 371.312255859375
z: -0.17228974401950836
visibility: 0.9554505348205566
","x: 280.8608093261719
y: 389.23345947265625
z: -0.19695302844047546
visibility: 0.9698560237884521
","x: 223.2565155029297
y: 383.7998962402344
z: -0.19566026329994202
visibility: 0.9138351678848267
","x: 277.9911193847656
y: 389.006591796875
z: -0.22502534091472626
visibility: 0.9731618165969849
","x: 225.0999755859375
y: 385.7466125488281
z: -0.2259475737810135
visibility: 0.9202601313591003
","x: 276.7169494628906
y: 385.0615234375
z: -0.18541190028190613
visibility: 0.9654536843299866
","x: 226.57814025878906
y: 382.5877685546875
z: -0.18549443781375885
visibility: 0.9062469601631165
","x: 261.6519470214844
y: 377.22265625
z: 0.0067161740735173225
visibility: 0.999234676361084
","x: 241.98202514648438
y: 375.3233337402344
z: -0.006799379829317331
visibility: 0.9994128346443176
","x: 256.79083251953125
y: 442.9098205566406
z: -0.038798727095127106
visibility: 0.97822505235672
","x: 240.02694702148438
y: 442.4322509765625
z: 0.004813129082322121
visibility: 0.9855140447616577
","x: 255.22021484375
y: 504.57159423828125
z: 0.09304173290729523
visibility: 0.9821962118148804
","x: 237.9422149658203
y: 484.33697509765625
z: 0.2818092107772827
visibility: 0.9748313426971436
","x: 252.84498596191406
y: 513.3148803710938
z: 0.1010870561003685
visibility: 0.90632164478302
","x: 238.51516723632812
y: 486.0357666015625
z: 0.3054829239845276
visibility: 0.7587276697158813
","x: 258.69287109375
y: 522.5239868164062
z: -0.003650651080533862
visibility: 0.9795421957969666
","x: 237.54306030273438
y: 510.0901794433594
z: 0.2324921190738678
visibility: 0.9698101282119751
",4.948238372802734,,,,,,,,,,,,,,,,,,,,,,,,,,,,,,,,,,,,,,,,,,
12,"x: 256.6194763183594
y: 252.9932861328125
z: -0.31918030977249146
visibility: 0.9999895095825195
","x: 258.278564453125
y: 248.18946838378906
z: -0.30404001474380493
visibility: 0.9999578595161438
","x: 259.3422546386719
y: 248.60226440429688
z: -0.30403855443000793
visibility: 0.9999563694000244
","x: 260.51861572265625
y: 249.00430297851562
z: -0.3040412366390228
visibility: 0.9999567270278931
","x: 254.62368774414062
y: 247.4879150390625
z: -0.30694398283958435
visibility: 0.9999598860740662
","x: 253.1715545654297
y: 247.43585205078125
z: -0.3069849908351898
visibility: 0.9999584555625916
","x: 251.68618774414062
y: 247.50341796875
z: -0.30699285864830017
visibility: 0.9999549984931946
","x: 262.3620300292969
y: 253.4537353515625
z: -0.20303669571876526
visibility: 0.9998512268066406
","x: 249.0858154296875
y: 251.9928741455078
z: -0.2181701362133026
visibility: 0.9998796582221985
","x: 258.7155456542969
y: 260.9920654296875
z: -0.2809087336063385
visibility: 0.9999668002128601
","x: 253.72232055664062
y: 260.1450500488281
z: -0.28533875942230225
visibility: 0.9999703168869019
","x: 271.3497314453125
y: 291.54718017578125
z: -0.1293720155954361
visibility: 0.9999586343765259
","x: 236.9563751220703
y: 288.6755676269531
z: -0.1443042904138565
visibility: 0.9999210238456726
","x: 277.9560852050781
y: 334.27972412109375
z: -0.08695638924837112
visibility: 0.9929699897766113
","x: 228.2606964111328
y: 334.0901184082031
z: -0.10186398029327393
visibility: 0.9846668243408203
","x: 279.6033630371094
y: 375.572265625
z: -0.17319104075431824
visibility: 0.9887827038764954
","x: 224.70150756835938
y: 371.312255859375
z: -0.17228974401950836
visibility: 0.9554505348205566
","x: 280.8608093261719
y: 389.23345947265625
z: -0.19695302844047546
visibility: 0.9698560237884521
","x: 223.2565155029297
y: 383.7998962402344
z: -0.19566026329994202
visibility: 0.9138351678848267
","x: 277.9911193847656
y: 389.006591796875
z: -0.22502534091472626
visibility: 0.9731618165969849
","x: 225.0999755859375
y: 385.7466125488281
z: -0.2259475737810135
visibility: 0.9202601313591003
","x: 276.7169494628906
y: 385.0615234375
z: -0.18541190028190613
visibility: 0.9654536843299866
","x: 226.57814025878906
y: 382.5877685546875
z: -0.18549443781375885
visibility: 0.9062469601631165
","x: 261.6519470214844
y: 377.22265625
z: 0.0067161740735173225
visibility: 0.999234676361084
","x: 241.98202514648438
y: 375.3233337402344
z: -0.006799379829317331
visibility: 0.9994128346443176
","x: 256.79083251953125
y: 442.9098205566406
z: -0.038798727095127106
visibility: 0.97822505235672
","x: 240.02694702148438
y: 442.4322509765625
z: 0.004813129082322121
visibility: 0.9855140447616577
","x: 255.22021484375
y: 504.57159423828125
z: 0.09304173290729523
visibility: 0.9821962118148804
","x: 237.9422149658203
y: 484.33697509765625
z: 0.2818092107772827
visibility: 0.9748313426971436
","x: 252.84498596191406
y: 513.3148803710938
z: 0.1010870561003685
visibility: 0.90632164478302
","x: 238.51516723632812
y: 486.0357666015625
z: 0.3054829239845276
visibility: 0.7587276697158813
","x: 258.69287109375
y: 522.5239868164062
z: -0.003650651080533862
visibility: 0.9795421957969666
","x: 237.54306030273438
y: 510.0901794433594
z: 0.2324921190738678
visibility: 0.9698101282119751
",4.948238372802734,,,,,,,,,,,,,,,,,,,,,,,,,,,,,,,,,,,,,,,,,,
13,"x: 253.44163513183594
y: 254.12005615234375
z: -0.3450995087623596
visibility: 0.9999901652336121
","x: 255.19140625
y: 249.25656127929688
z: -0.33134233951568604
visibility: 0.9999606609344482
","x: 256.4241027832031
y: 249.49560546875
z: -0.33134832978248596
visibility: 0.999959409236908
","x: 257.5772705078125
y: 249.78567504882812
z: -0.3313720226287842
visibility: 0.9999597668647766
","x: 251.26036071777344
y: 249.03656005859375
z: -0.33347761631011963
visibility: 0.9999618530273438
","x: 249.87242126464844
y: 249.1535186767578
z: -0.3335133194923401
visibility: 0.9999602437019348
","x: 248.5434112548828
y: 249.39048767089844
z: -0.33350834250450134
visibility: 0.9999564290046692
","x: 259.12835693359375
y: 254.093017578125
z: -0.23265404999256134
visibility: 0.9998626708984375
","x: 246.43521118164062
y: 253.89566040039062
z: -0.24407124519348145
visibility: 0.9998841881752014
","x: 256.1321105957031
y: 261.5552062988281
z: -0.30709344148635864
visibility: 0.999969482421875
","x: 250.72279357910156
y: 261.3654479980469
z: -0.31050628423690796
visibility: 0.9999721646308899
","x: 268.7331848144531
y: 291.4999694824219
z: -0.15909340977668762
visibility: 0.999962329864502
","x: 234.39317321777344
y: 289.987548828125
z: -0.16053296625614166
visibility: 0.9999215602874756
","x: 276.0502014160156
y: 334.055419921875
z: -0.11780726909637451
visibility: 0.9933662414550781
","x: 226.32725524902344
y: 335.4380798339844
z: -0.11786670982837677
visibility: 0.9847981929779053
","x: 279.2151794433594
y: 374.5934753417969
z: -0.19793865084648132
visibility: 0.9892187118530273
","x: 223.58746337890625
y: 372.18218994140625
z: -0.18667355179786682
visibility: 0.9547972679138184
","x: 280.6662292480469
y: 388.25
z: -0.2214173823595047
visibility: 0.9708820581436157
","x: 222.21621704101562
y: 384.8284606933594
z: -0.20926770567893982
visibility: 0.9118945598602295
","x: 277.95379638671875
y: 388.41357421875
z: -0.2501908540725708
visibility: 0.974111795425415
","x: 224.04617309570312
y: 386.61492919921875
z: -0.23858268558979034
visibility: 0.9184682369232178
","x: 276.6259460449219
y: 384.8900146484375
z: -0.210261270403862
visibility: 0.9666010737419128
","x: 225.4892120361328
y: 383.48199462890625
z: -0.19951209425926208
visibility: 0.9038186073303223
","x: 259.9797058105469
y: 377.1122741699219
z: 0.002901972271502018
visibility: 0.9993053078651428
","x: 239.38558959960938
y: 375.53045654296875
z: -0.0029602693393826485
visibility: 0.999447226524353
","x: 256.2063293457031
y: 441.7239685058594
z: -0.03617626801133156
visibility: 0.9796543121337891
","x: 240.0538787841797
y: 441.7236328125
z: 0.02933027222752571
visibility: 0.9855534434318542
","x: 255.23709106445312
y: 503.9953918457031
z: 0.0861603394150734
visibility: 0.9832257032394409
","x: 239.1141357421875
y: 486.3148498535156
z: 0.2538631558418274
visibility: 0.9733641743659973
","x: 253.16714477539062
y: 512.4306640625
z: 0.09249672293663025
visibility: 0.9071951508522034
","x: 240.6077880859375
y: 491.21844482421875
z: 0.270844042301178
visibility: 0.7545285224914551
","x: 258.03759765625
y: 521.8282470703125
z: -0.017388781532645226
visibility: 0.9805238246917725
","x: 238.29794311523438
y: 507.9681091308594
z: 0.18189090490341187
visibility: 0.9688431620597839
",5.074481964111328,,,,,,,,,,,,,,,,,,,,,,,,,,,,,,,,,,,,,,,,,,
14,"x: 253.44163513183594
y: 254.12005615234375
z: -0.3450995087623596
visibility: 0.9999901652336121
","x: 255.19140625
y: 249.25656127929688
z: -0.33134233951568604
visibility: 0.9999606609344482
","x: 256.4241027832031
y: 249.49560546875
z: -0.33134832978248596
visibility: 0.999959409236908
","x: 257.5772705078125
y: 249.78567504882812
z: -0.3313720226287842
visibility: 0.9999597668647766
","x: 251.26036071777344
y: 249.03656005859375
z: -0.33347761631011963
visibility: 0.9999618530273438
","x: 249.87242126464844
y: 249.1535186767578
z: -0.3335133194923401
visibility: 0.9999602437019348
","x: 248.5434112548828
y: 249.39048767089844
z: -0.33350834250450134
visibility: 0.9999564290046692
","x: 259.12835693359375
y: 254.093017578125
z: -0.23265404999256134
visibility: 0.9998626708984375
","x: 246.43521118164062
y: 253.89566040039062
z: -0.24407124519348145
visibility: 0.9998841881752014
","x: 256.1321105957031
y: 261.5552062988281
z: -0.30709344148635864
visibility: 0.999969482421875
","x: 250.72279357910156
y: 261.3654479980469
z: -0.31050628423690796
visibility: 0.9999721646308899
","x: 268.7331848144531
y: 291.4999694824219
z: -0.15909340977668762
visibility: 0.999962329864502
","x: 234.39317321777344
y: 289.987548828125
z: -0.16053296625614166
visibility: 0.9999215602874756
","x: 276.0502014160156
y: 334.055419921875
z: -0.11780726909637451
visibility: 0.9933662414550781
","x: 226.32725524902344
y: 335.4380798339844
z: -0.11786670982837677
visibility: 0.9847981929779053
","x: 279.2151794433594
y: 374.5934753417969
z: -0.19793865084648132
visibility: 0.9892187118530273
","x: 223.58746337890625
y: 372.18218994140625
z: -0.18667355179786682
visibility: 0.9547972679138184
","x: 280.6662292480469
y: 388.25
z: -0.2214173823595047
visibility: 0.9708820581436157
","x: 222.21621704101562
y: 384.8284606933594
z: -0.20926770567893982
visibility: 0.9118945598602295
","x: 277.95379638671875
y: 388.41357421875
z: -0.2501908540725708
visibility: 0.974111795425415
","x: 224.04617309570312
y: 386.61492919921875
z: -0.23858268558979034
visibility: 0.9184682369232178
","x: 276.6259460449219
y: 384.8900146484375
z: -0.210261270403862
visibility: 0.9666010737419128
","x: 225.4892120361328
y: 383.48199462890625
z: -0.19951209425926208
visibility: 0.9038186073303223
","x: 259.9797058105469
y: 377.1122741699219
z: 0.002901972271502018
visibility: 0.9993053078651428
","x: 239.38558959960938
y: 375.53045654296875
z: -0.0029602693393826485
visibility: 0.999447226524353
","x: 256.2063293457031
y: 441.7239685058594
z: -0.03617626801133156
visibility: 0.9796543121337891
","x: 240.0538787841797
y: 441.7236328125
z: 0.02933027222752571
visibility: 0.9855534434318542
","x: 255.23709106445312
y: 503.9953918457031
z: 0.0861603394150734
visibility: 0.9832257032394409
","x: 239.1141357421875
y: 486.3148498535156
z: 0.2538631558418274
visibility: 0.9733641743659973
","x: 253.16714477539062
y: 512.4306640625
z: 0.09249672293663025
visibility: 0.9071951508522034
","x: 240.6077880859375
y: 491.21844482421875
z: 0.270844042301178
visibility: 0.7545285224914551
","x: 258.03759765625
y: 521.8282470703125
z: -0.017388781532645226
visibility: 0.9805238246917725
","x: 238.29794311523438
y: 507.9681091308594
z: 0.18189090490341187
visibility: 0.9688431620597839
",5.074481964111328,,,,,,,,,,,,,,,,,,,,,,,,,,,,,,,,,,,,,,,,,,
15,"x: 250.6826934814453
y: 258.4517822265625
z: -0.376083105802536
visibility: 0.9999897480010986
","x: 252.3008575439453
y: 253.23696899414062
z: -0.3614959418773651
visibility: 0.99996018409729
","x: 253.6033935546875
y: 253.51239013671875
z: -0.36149337887763977
visibility: 0.9999591112136841
","x: 254.85037231445312
y: 253.89764404296875
z: -0.36154669523239136
visibility: 0.9999593496322632
","x: 248.42030334472656
y: 252.8865203857422
z: -0.3637442886829376
visibility: 0.9999606609344482
","x: 247.2061767578125
y: 252.85360717773438
z: -0.36380088329315186
visibility: 0.9999589323997498
","x: 246.1110076904297
y: 252.94981384277344
z: -0.36381465196609497
visibility: 0.9999547600746155
","x: 256.2325744628906
y: 257.9234924316406
z: -0.26015207171440125
visibility: 0.9998634457588196
","x: 243.49407958984375
y: 257.5347595214844
z: -0.2720634341239929
visibility: 0.9998831748962402
","x: 252.99172973632812
y: 265.58685302734375
z: -0.337125301361084
visibility: 0.999970018863678
","x: 247.8297576904297
y: 265.3812561035156
z: -0.34079062938690186
visibility: 0.9999719858169556
","x: 264.66729736328125
y: 295.2762451171875
z: -0.17826339602470398
visibility: 0.9999621510505676
","x: 231.55441284179688
y: 292.55438232421875
z: -0.19132587313652039
visibility: 0.9999141097068787
","x: 271.86395263671875
y: 338.4817199707031
z: -0.13371483981609344
visibility: 0.992874026298523
","x: 225.05752563476562
y: 337.0303649902344
z: -0.1747424304485321
visibility: 0.9840080738067627
","x: 274.6139831542969
y: 375.3040771484375
z: -0.2037256509065628
visibility: 0.986057698726654
","x: 230.21743774414062
y: 369.47979736328125
z: -0.2525407373905182
visibility: 0.9492294192314148
","x: 277.7974853515625
y: 389.6561279296875
z: -0.22704771161079407
visibility: 0.9646091461181641
","x: 231.97439575195312
y: 383.22930908203125
z: -0.2788459360599518
visibility: 0.9019666910171509
","x: 275.981201171875
y: 390.5216979980469
z: -0.25430700182914734
visibility: 0.9682356715202332
","x: 234.8777618408203
y: 381.89532470703125
z: -0.30010977387428284
visibility: 0.9082123637199402
","x: 274.2001037597656
y: 386.72442626953125
z: -0.2155735194683075
visibility: 0.9594563245773315
","x: 235.04803466796875
y: 377.7908935546875
z: -0.2618108093738556
visibility: 0.8907168507575989
","x: 257.3387145996094
y: 377.4624938964844
z: -0.00029478580108843744
visibility: 0.9993592500686646
","x: 237.67372131347656
y: 377.0416259765625
z: 0.00023336443700827658
visibility: 0.9994635581970215
","x: 255.25039672851562
y: 441.6281433105469
z: -0.027220511808991432
visibility: 0.9807851314544678
","x: 239.72073364257812
y: 442.60369873046875
z: 0.039997804909944534
visibility: 0.9853460192680359
","x: 255.27728271484375
y: 502.48187255859375
z: 0.10781760513782501
visibility: 0.9840822219848633
","x: 241.7227325439453
y: 489.4491882324219
z: 0.2483500987291336
visibility: 0.9732156991958618
","x: 253.56854248046875
y: 510.0010681152344
z: 0.11445482075214386
visibility: 0.9056766629219055
","x: 243.4818115234375
y: 495.50738525390625
z: 0.2637433111667633
visibility: 0.7606079578399658
","x: 257.6268005371094
y: 521.264404296875
z: 0.008050316944718361
visibility: 0.9809944033622742
","x: 238.78570556640625
y: 509.406494140625
z: 0.17092713713645935
visibility: 0.9685701131820679
",5.214850664138794,,,,,,,,,,,,,,,,,,,,,,,,,,,,,,,,,,,,,,,,,,
16,"x: 250.6826934814453
y: 258.4517822265625
z: -0.376083105802536
visibility: 0.9999897480010986
","x: 252.3008575439453
y: 253.23696899414062
z: -0.3614959418773651
visibility: 0.99996018409729
","x: 253.6033935546875
y: 253.51239013671875
z: -0.36149337887763977
visibility: 0.9999591112136841
","x: 254.85037231445312
y: 253.89764404296875
z: -0.36154669523239136
visibility: 0.9999593496322632
","x: 248.42030334472656
y: 252.8865203857422
z: -0.3637442886829376
visibility: 0.9999606609344482
","x: 247.2061767578125
y: 252.85360717773438
z: -0.36380088329315186
visibility: 0.9999589323997498
","x: 246.1110076904297
y: 252.94981384277344
z: -0.36381465196609497
visibility: 0.9999547600746155
","x: 256.2325744628906
y: 257.9234924316406
z: -0.26015207171440125
visibility: 0.9998634457588196
","x: 243.49407958984375
y: 257.5347595214844
z: -0.2720634341239929
visibility: 0.9998831748962402
","x: 252.99172973632812
y: 265.58685302734375
z: -0.337125301361084
visibility: 0.999970018863678
","x: 247.8297576904297
y: 265.3812561035156
z: -0.34079062938690186
visibility: 0.9999719858169556
","x: 264.66729736328125
y: 295.2762451171875
z: -0.17826339602470398
visibility: 0.9999621510505676
","x: 231.55441284179688
y: 292.55438232421875
z: -0.19132587313652039
visibility: 0.9999141097068787
","x: 271.86395263671875
y: 338.4817199707031
z: -0.13371483981609344
visibility: 0.992874026298523
","x: 225.05752563476562
y: 337.0303649902344
z: -0.1747424304485321
visibility: 0.9840080738067627
","x: 274.6139831542969
y: 375.3040771484375
z: -0.2037256509065628
visibility: 0.986057698726654
","x: 230.21743774414062
y: 369.47979736328125
z: -0.2525407373905182
visibility: 0.9492294192314148
","x: 277.7974853515625
y: 389.6561279296875
z: -0.22704771161079407
visibility: 0.9646091461181641
","x: 231.97439575195312
y: 383.22930908203125
z: -0.2788459360599518
visibility: 0.9019666910171509
","x: 275.981201171875
y: 390.5216979980469
z: -0.25430700182914734
visibility: 0.9682356715202332
","x: 234.8777618408203
y: 381.89532470703125
z: -0.30010977387428284
visibility: 0.9082123637199402
","x: 274.2001037597656
y: 386.72442626953125
z: -0.2155735194683075
visibility: 0.9594563245773315
","x: 235.04803466796875
y: 377.7908935546875
z: -0.2618108093738556
visibility: 0.8907168507575989
","x: 257.3387145996094
y: 377.4624938964844
z: -0.00029478580108843744
visibility: 0.9993592500686646
","x: 237.67372131347656
y: 377.0416259765625
z: 0.00023336443700827658
visibility: 0.9994635581970215
","x: 255.25039672851562
y: 441.6281433105469
z: -0.027220511808991432
visibility: 0.9807851314544678
","x: 239.72073364257812
y: 442.60369873046875
z: 0.039997804909944534
visibility: 0.9853460192680359
","x: 255.27728271484375
y: 502.48187255859375
z: 0.10781760513782501
visibility: 0.9840822219848633
","x: 241.7227325439453
y: 489.4491882324219
z: 0.2483500987291336
visibility: 0.9732156991958618
","x: 253.56854248046875
y: 510.0010681152344
z: 0.11445482075214386
visibility: 0.9056766629219055
","x: 243.4818115234375
y: 495.50738525390625
z: 0.2637433111667633
visibility: 0.7606079578399658
","x: 257.6268005371094
y: 521.264404296875
z: 0.008050316944718361
visibility: 0.9809944033622742
","x: 238.78570556640625
y: 509.406494140625
z: 0.17092713713645935
visibility: 0.9685701131820679
",5.214850664138794,,,,,,,,,,,,,,,,,,,,,,,,,,,,,,,,,,,,,,,,,,
17,"x: 249.24551391601562
y: 261.13824462890625
z: -0.3483966886997223
visibility: 0.9999889135360718
","x: 251.02037048339844
y: 255.724365234375
z: -0.33839085698127747
visibility: 0.9999589323997498
","x: 252.3486328125
y: 255.99366760253906
z: -0.33846962451934814
visibility: 0.9999572038650513
","x: 253.6251983642578
y: 256.3758239746094
z: -0.3384324908256531
visibility: 0.9999568462371826
","x: 247.24462890625
y: 255.2549591064453
z: -0.3428385257720947
visibility: 0.9999600052833557
","x: 245.9512176513672
y: 255.08868408203125
z: -0.34267741441726685
visibility: 0.9999586343765259
","x: 244.910400390625
y: 255.03370666503906
z: -0.3424866199493408
visibility: 0.9999551773071289
","x: 254.92727661132812
y: 259.78277587890625
z: -0.25731316208839417
visibility: 0.9998624920845032
","x: 242.44390869140625
y: 258.83038330078125
z: -0.2443792074918747
visibility: 0.9998860359191895
","x: 251.29080200195312
y: 267.96392822265625
z: -0.31717222929000854
visibility: 0.9999682307243347
","x: 246.48291015625
y: 267.53436279296875
z: -0.3271275758743286
visibility: 0.9999712109565735
","x: 262.96441650390625
y: 295.016845703125
z: -0.1415867954492569
visibility: 0.9999517798423767
","x: 230.3891143798828
y: 292.85467529296875
z: -0.16229325532913208
visibility: 0.9999033212661743
","x: 270.56011962890625
y: 335.946044921875
z: -0.10436388105154037
visibility: 0.9908735156059265
","x: 225.4574432373047
y: 336.7948913574219
z: -0.16252687573432922
visibility: 0.9841410517692566
","x: 268.4951477050781
y: 361.7127990722656
z: -0.1803131401538849
visibility: 0.9772673845291138
","x: 243.0085906982422
y: 355.22723388671875
z: -0.26250940561294556
visibility: 0.9509077668190002
","x: 267.2178039550781
y: 373.5392761230469
z: -0.20563912391662598
visibility: 0.949943482875824
","x: 248.89801025390625
y: 361.173828125
z: -0.2906966805458069
visibility: 0.905174195766449
","x: 265.672607421875
y: 370.7128601074219
z: -0.22838552296161652
visibility: 0.953738808631897
","x: 250.65802001953125
y: 357.7435607910156
z: -0.3013766407966614
visibility: 0.9107001423835754
","x: 265.4551086425781
y: 366.59405517578125
z: -0.19058455526828766
visibility: 0.9417849779129028
","x: 249.2635955810547
y: 355.0379638671875
z: -0.26685798168182373
visibility: 0.8913178443908691
","x: 255.36660766601562
y: 375.2410888671875
z: -0.0038905981928110123
visibility: 0.999380350112915
","x: 236.5069580078125
y: 374.94549560546875
z: 0.0038300573360174894
visibility: 0.9994487166404724
","x: 252.4880828857422
y: 433.296142578125
z: -0.10020767152309418
visibility: 0.9818530678749084
","x: 239.4171905517578
y: 439.40057373046875
z: 0.018188079819083214
visibility: 0.9837059378623962
","x: 253.53289794921875
y: 482.66162109375
z: 0.03484858199954033
visibility: 0.9846549034118652
","x: 242.51828002929688
y: 489.175048828125
z: 0.17356690764427185
visibility: 0.9736713171005249
","x: 252.6536407470703
y: 488.56756591796875
z: 0.042979709804058075
visibility: 0.9076460599899292
","x: 244.54473876953125
y: 495.8438415527344
z: 0.1808941811323166
visibility: 0.7700589299201965
","x: 255.30699157714844
y: 506.0319519042969
z: -0.058779966086149216
visibility: 0.9815511107444763
","x: 239.3572998046875
y: 509.6034240722656
z: 0.08025196194648743
visibility: 0.9686064720153809
",5.341968059539795,,,,,,,,,,,,,,,,,,,,,,,,,,,,,,,,,,,,,,,,,,
18,"x: 249.24551391601562
y: 261.13824462890625
z: -0.3483966886997223
visibility: 0.9999889135360718
","x: 251.02037048339844
y: 255.724365234375
z: -0.33839085698127747
visibility: 0.9999589323997498
","x: 252.3486328125
y: 255.99366760253906
z: -0.33846962451934814
visibility: 0.9999572038650513
","x: 253.6251983642578
y: 256.3758239746094
z: -0.3384324908256531
visibility: 0.9999568462371826
","x: 247.24462890625
y: 255.2549591064453
z: -0.3428385257720947
visibility: 0.9999600052833557
","x: 245.9512176513672
y: 255.08868408203125
z: -0.34267741441726685
visibility: 0.9999586343765259
","x: 244.910400390625
y: 255.03370666503906
z: -0.3424866199493408
visibility: 0.9999551773071289
","x: 254.92727661132812
y: 259.78277587890625
z: -0.25731316208839417
visibility: 0.9998624920845032
","x: 242.44390869140625
y: 258.83038330078125
z: -0.2443792074918747
visibility: 0.9998860359191895
","x: 251.29080200195312
y: 267.96392822265625
z: -0.31717222929000854
visibility: 0.9999682307243347
","x: 246.48291015625
y: 267.53436279296875
z: -0.3271275758743286
visibility: 0.9999712109565735
","x: 262.96441650390625
y: 295.016845703125
z: -0.1415867954492569
visibility: 0.9999517798423767
","x: 230.3891143798828
y: 292.85467529296875
z: -0.16229325532913208
visibility: 0.9999033212661743
","x: 270.56011962890625
y: 335.946044921875
z: -0.10436388105154037
visibility: 0.9908735156059265
","x: 225.4574432373047
y: 336.7948913574219
z: -0.16252687573432922
visibility: 0.9841410517692566
","x: 268.4951477050781
y: 361.7127990722656
z: -0.1803131401538849
visibility: 0.9772673845291138
","x: 243.0085906982422
y: 355.22723388671875
z: -0.26250940561294556
visibility: 0.9509077668190002
","x: 267.2178039550781
y: 373.5392761230469
z: -0.20563912391662598
visibility: 0.949943482875824
","x: 248.89801025390625
y: 361.173828125
z: -0.2906966805458069
visibility: 0.905174195766449
","x: 265.672607421875
y: 370.7128601074219
z: -0.22838552296161652
visibility: 0.953738808631897
","x: 250.65802001953125
y: 357.7435607910156
z: -0.3013766407966614
visibility: 0.9107001423835754
","x: 265.4551086425781
y: 366.59405517578125
z: -0.19058455526828766
visibility: 0.9417849779129028
","x: 249.2635955810547
y: 355.0379638671875
z: -0.26685798168182373
visibility: 0.8913178443908691
","x: 255.36660766601562
y: 375.2410888671875
z: -0.0038905981928110123
visibility: 0.999380350112915
","x: 236.5069580078125
y: 374.94549560546875
z: 0.0038300573360174894
visibility: 0.9994487166404724
","x: 252.4880828857422
y: 433.296142578125
z: -0.10020767152309418
visibility: 0.9818530678749084
","x: 239.4171905517578
y: 439.40057373046875
z: 0.018188079819083214
visibility: 0.9837059378623962
","x: 253.53289794921875
y: 482.66162109375
z: 0.03484858199954033
visibility: 0.9846549034118652
","x: 242.51828002929688
y: 489.175048828125
z: 0.17356690764427185
visibility: 0.9736713171005249
","x: 252.6536407470703
y: 488.56756591796875
z: 0.042979709804058075
visibility: 0.9076460599899292
","x: 244.54473876953125
y: 495.8438415527344
z: 0.1808941811323166
visibility: 0.7700589299201965
","x: 255.30699157714844
y: 506.0319519042969
z: -0.058779966086149216
visibility: 0.9815511107444763
","x: 239.3572998046875
y: 509.6034240722656
z: 0.08025196194648743
visibility: 0.9686064720153809
",5.341968059539795,,,,,,,,,,,,,,,,,,,,,,,,,,,,,,,,,,,,,,,,,,
19,"x: 248.99728393554688
y: 257.2522277832031
z: -0.24865245819091797
visibility: 0.9999874830245972
","x: 250.98452758789062
y: 251.68475341796875
z: -0.23558394610881805
visibility: 0.9999542236328125
","x: 252.24534606933594
y: 251.86521911621094
z: -0.23558533191680908
visibility: 0.9999522566795349
","x: 253.37179565429688
y: 252.04617309570312
z: -0.2356046438217163
visibility: 0.9999514818191528
","x: 247.1765594482422
y: 250.8107147216797
z: -0.23786160349845886
visibility: 0.9999538064002991
","x: 245.8655548095703
y: 250.49237060546875
z: -0.23787684738636017
visibility: 0.9999518990516663
","x: 244.6324005126953
y: 250.18255615234375
z: -0.23790159821510315
visibility: 0.999948263168335
","x: 254.44944763183594
y: 254.68797302246094
z: -0.14297010004520416
visibility: 0.9998626112937927
","x: 242.53277587890625
y: 252.58795166015625
z: -0.15171876549720764
visibility: 0.9998612999916077
","x: 250.86679077148438
y: 264.2629089355469
z: -0.2115606814622879
visibility: 0.9999656081199646
","x: 246.1912841796875
y: 263.91351318359375
z: -0.21514752507209778
visibility: 0.9999669194221497
","x: 262.2232360839844
y: 287.301513671875
z: -0.07188157737255096
visibility: 0.9999491572380066
","x: 230.80813598632812
y: 283.01959228515625
z: -0.09056217968463898
visibility: 0.9998793005943298
","x: 269.6138610839844
y: 326.5787048339844
z: -0.03455546498298645
visibility: 0.9899476766586304
","x: 229.86416625976562
y: 327.640380859375
z: -0.11566833406686783
visibility: 0.9790865182876587
","x: 269.6472473144531
y: 358.2528076171875
z: -0.1059826985001564
visibility: 0.9746919870376587
","x: 246.92210388183594
y: 349.63201904296875
z: -0.2128034085035324
visibility: 0.9477867484092712
","x: 270.6324462890625
y: 371.1447448730469
z: -0.127417653799057
visibility: 0.9461888670921326
","x: 251.5742950439453
y: 357.2581481933594
z: -0.2356979101896286
visibility: 0.9027001261711121
","x: 268.6329040527344
y: 370.9591369628906
z: -0.148415669798851
visibility: 0.9503391981124878
","x: 253.38206481933594
y: 354.7520446777344
z: -0.29481640458106995
visibility: 0.908054769039154
","x: 267.4619445800781
y: 366.320556640625
z: -0.11532105505466461
visibility: 0.9379293918609619
","x: 251.9387664794922
y: 351.37530517578125
z: -0.2306903600692749
visibility: 0.885863721370697
","x: 253.2037353515625
y: 365.84619140625
z: -0.011972070671617985
visibility: 0.9994150996208191
","x: 235.11746215820312
y: 364.9999694824219
z: 0.0119661008939147
visibility: 0.9994513988494873
","x: 248.30137634277344
y: 420.8963317871094
z: -0.1661379635334015
visibility: 0.9823969602584839
","x: 238.99261474609375
y: 432.5419616699219
z: -0.0010152001632377505
visibility: 0.9770205020904541
","x: 250.17144775390625
y: 465.2185363769531
z: -0.005117909051477909
visibility: 0.9830296635627747
","x: 242.3851776123047
y: 487.8799133300781
z: 0.10884813964366913
visibility: 0.973593533039093
","x: 249.7841796875
y: 469.33740234375
z: 0.00762901222333312
visibility: 0.9036414623260498
","x: 244.3577423095703
y: 494.44195556640625
z: 0.11465706676244736
visibility: 0.7814788818359375
","x: 248.72674560546875
y: 491.2893981933594
z: -0.06794372200965881
visibility: 0.98046875
","x: 239.4372100830078
y: 508.3652038574219
z: 0.023133423179388046
visibility: 0.9679513573646545
",5.467809677124023,,,,,,,,,,,,,,,,,,,,,,,,,,,,,,,,,,,,,,,,,,
20,"x: 248.99728393554688
y: 257.2522277832031
z: -0.24865245819091797
visibility: 0.9999874830245972
","x: 250.98452758789062
y: 251.68475341796875
z: -0.23558394610881805
visibility: 0.9999542236328125
","x: 252.24534606933594
y: 251.86521911621094
z: -0.23558533191680908
visibility: 0.9999522566795349
","x: 253.37179565429688
y: 252.04617309570312
z: -0.2356046438217163
visibility: 0.9999514818191528
","x: 247.1765594482422
y: 250.8107147216797
z: -0.23786160349845886
visibility: 0.9999538064002991
","x: 245.8655548095703
y: 250.49237060546875
z: -0.23787684738636017
visibility: 0.9999518990516663
","x: 244.6324005126953
y: 250.18255615234375
z: -0.23790159821510315
visibility: 0.999948263168335
","x: 254.44944763183594
y: 254.68797302246094
z: -0.14297010004520416
visibility: 0.9998626112937927
","x: 242.53277587890625
y: 252.58795166015625
z: -0.15171876549720764
visibility: 0.9998612999916077
","x: 250.86679077148438
y: 264.2629089355469
z: -0.2115606814622879
visibility: 0.9999656081199646
","x: 246.1912841796875
y: 263.91351318359375
z: -0.21514752507209778
visibility: 0.9999669194221497
","x: 262.2232360839844
y: 287.301513671875
z: -0.07188157737255096
visibility: 0.9999491572380066
","x: 230.80813598632812
y: 283.01959228515625
z: -0.09056217968463898
visibility: 0.9998793005943298
","x: 269.6138610839844
y: 326.5787048339844
z: -0.03455546498298645
visibility: 0.9899476766586304
","x: 229.86416625976562
y: 327.640380859375
z: -0.11566833406686783
visibility: 0.9790865182876587
","x: 269.6472473144531
y: 358.2528076171875
z: -0.1059826985001564
visibility: 0.9746919870376587
","x: 246.92210388183594
y: 349.63201904296875
z: -0.2128034085035324
visibility: 0.9477867484092712
","x: 270.6324462890625
y: 371.1447448730469
z: -0.127417653799057
visibility: 0.9461888670921326
","x: 251.5742950439453
y: 357.2581481933594
z: -0.2356979101896286
visibility: 0.9027001261711121
","x: 268.6329040527344
y: 370.9591369628906
z: -0.148415669798851
visibility: 0.9503391981124878
","x: 253.38206481933594
y: 354.7520446777344
z: -0.29481640458106995
visibility: 0.908054769039154
","x: 267.4619445800781
y: 366.320556640625
z: -0.11532105505466461
visibility: 0.9379293918609619
","x: 251.9387664794922
y: 351.37530517578125
z: -0.2306903600692749
visibility: 0.885863721370697
","x: 253.2037353515625
y: 365.84619140625
z: -0.011972070671617985
visibility: 0.9994150996208191
","x: 235.11746215820312
y: 364.9999694824219
z: 0.0119661008939147
visibility: 0.9994513988494873
","x: 248.30137634277344
y: 420.8963317871094
z: -0.1661379635334015
visibility: 0.9823969602584839
","x: 238.99261474609375
y: 432.5419616699219
z: -0.0010152001632377505
visibility: 0.9770205020904541
","x: 250.17144775390625
y: 465.2185363769531
z: -0.005117909051477909
visibility: 0.9830296635627747
","x: 242.3851776123047
y: 487.8799133300781
z: 0.10884813964366913
visibility: 0.973593533039093
","x: 249.7841796875
y: 469.33740234375
z: 0.00762901222333312
visibility: 0.9036414623260498
","x: 244.3577423095703
y: 494.44195556640625
z: 0.11465706676244736
visibility: 0.7814788818359375
","x: 248.72674560546875
y: 491.2893981933594
z: -0.06794372200965881
visibility: 0.98046875
","x: 239.4372100830078
y: 508.3652038574219
z: 0.023133423179388046
visibility: 0.9679513573646545
",5.467809677124023,,,,,,,,,,,,,,,,,,,,,,,,,,,,,,,,,,,,,,,,,,
21,"x: 249.38304138183594
y: 259.0954895019531
z: -0.26458612084388733
visibility: 0.9999861121177673
","x: 251.3042449951172
y: 253.95355224609375
z: -0.24774177372455597
visibility: 0.9999529123306274
","x: 252.3887176513672
y: 254.1295166015625
z: -0.24776628613471985
visibility: 0.9999502301216125
","x: 253.37379455566406
y: 254.35321044921875
z: -0.24780380725860596
visibility: 0.9999502301216125
","x: 247.71786499023438
y: 253.35523986816406
z: -0.25192511081695557
visibility: 0.9999520778656006
","x: 246.37576293945312
y: 253.15869140625
z: -0.2519621253013611
visibility: 0.9999487996101379
","x: 245.09085083007812
y: 252.96124267578125
z: -0.2519930899143219
visibility: 0.9999444484710693
","x: 254.6072998046875
y: 257.47198486328125
z: -0.14555715024471283
visibility: 0.9998608827590942
","x: 242.74795532226562
y: 256.03253173828125
z: -0.16492758691310883
visibility: 0.9998537302017212
","x: 251.12875366210938
y: 266.04046630859375
z: -0.2255905419588089
visibility: 0.9999654293060303
","x: 246.50064086914062
y: 265.48876953125
z: -0.23137609660625458
visibility: 0.9999635815620422
","x: 261.93267822265625
y: 290.9981384277344
z: -0.07177881896495819
visibility: 0.9999499917030334
","x: 231.05926513671875
y: 283.7392272949219
z: -0.11111529916524887
visibility: 0.9998363256454468
","x: 270.07550048828125
y: 326.85498046875
z: -0.04476776346564293
visibility: 0.9889292120933533
","x: 231.55307006835938
y: 328.6741638183594
z: -0.16144901514053345
visibility: 0.9784294962882996
","x: 270.3414001464844
y: 355.72760009765625
z: -0.12791994214057922
visibility: 0.9730269908905029
","x: 250.9151153564453
y: 350.3091735839844
z: -0.2750639021396637
visibility: 0.9477967619895935
","x: 272.07391357421875
y: 366.9131774902344
z: -0.15043896436691284
visibility: 0.9440497159957886
","x: 253.95086669921875
y: 354.4345397949219
z: -0.30665284395217896
visibility: 0.9034105539321899
","x: 271.1005859375
y: 366.588134765625
z: -0.17380952835083008
visibility: 0.9484412670135498
","x: 255.17291259765625
y: 350.5641174316406
z: -0.31958162784576416
visibility: 0.9083154797554016
","x: 269.5780029296875
y: 362.3797302246094
z: -0.13835760951042175
visibility: 0.9352213144302368
","x: 254.34402465820312
y: 348.888671875
z: -0.2810074985027313
visibility: 0.8834959864616394
","x: 252.2096405029297
y: 366.2446594238281
z: -0.008274605497717857
visibility: 0.9994679093360901
","x: 233.9679718017578
y: 367.0657043457031
z: 0.00818677805364132
visibility: 0.9994611144065857
","x: 248.09263610839844
y: 427.0701599121094
z: -0.16311456263065338
visibility: 0.9825612902641296
","x: 238.19203186035156
y: 433.55047607421875
z: 0.02353661134839058
visibility: 0.9711279273033142
","x: 243.75140380859375
y: 473.4054870605469
z: -0.0938388854265213
visibility: 0.9821500778198242
","x: 243.13790893554688
y: 479.4681091308594
z: 0.25639796257019043
visibility: 0.948093831539154
","x: 242.1968994140625
y: 473.30712890625
z: -0.0923091322183609
visibility: 0.8939520120620728
","x: 245.49282836914062
y: 481.589111328125
z: 0.2761830687522888
visibility: 0.7603691220283508
","x: 245.6785888671875
y: 500.4589538574219
z: -0.2034536600112915
visibility: 0.9786620140075684
","x: 240.89178466796875
y: 499.5899658203125
z: 0.20537707209587097
visibility: 0.9492244720458984
",5.5942158699035645,,,,,,,,,,,,,,,,,,,,,,"x: 252.3154754638672
y: 350.5661315917969
z: 0.0
","x: 254.7338409423828
y: 348.54486083984375
z: 0.0018790968460962176
","x: 257.3419494628906
y: 348.4747314453125
z: 0.0019403394544497132
","x: 259.1940612792969
y: 350.378173828125
z: 0.0012572347186505795
","x: 260.1815490722656
y: 352.943603515625
z: 0.0006390649359673262
","x: 258.9805908203125
y: 345.34967041015625
z: 0.00019303502631373703
","x: 261.3867492675781
y: 349.74755859375
z: -0.0009143291390500963
","x: 261.582275390625
y: 353.6695556640625
z: -0.0012485533952713013
","x: 261.12701416015625
y: 356.0457763671875
z: -0.0012615941232070327
","x: 258.9582214355469
y: 347.0049743652344
z: -0.0016050998819991946
","x: 261.23016357421875
y: 351.1957092285156
z: -0.0026928239967674017
","x: 261.1484069824219
y: 355.10369873046875
z: -0.0024935915134847164
","x: 260.5303649902344
y: 357.1156311035156
z: -0.002214493928477168
","x: 258.5213623046875
y: 349.5539855957031
z: -0.003262935671955347
","x: 260.70892333984375
y: 353.4328918457031
z: -0.004249966703355312
","x: 260.3354797363281
y: 356.9474792480469
z: -0.003476085141301155
","x: 259.4791259765625
y: 358.5797119140625
z: -0.002800367772579193
","x: 257.78814697265625
y: 352.52301025390625
z: -0.004880806896835566
","x: 259.3229064941406
y: 355.64984130859375
z: -0.005604702513664961
","x: 259.1455078125
y: 357.9417724609375
z: -0.004897984676063061
","x: 258.5457458496094
y: 359.0643310546875
z: -0.004130195360630751
"
22,"x: 249.38304138183594
y: 259.0954895019531
z: -0.26458612084388733
visibility: 0.9999861121177673
","x: 251.3042449951172
y: 253.95355224609375
z: -0.24774177372455597
visibility: 0.9999529123306274
","x: 252.3887176513672
y: 254.1295166015625
z: -0.24776628613471985
visibility: 0.9999502301216125
","x: 253.37379455566406
y: 254.35321044921875
z: -0.24780380725860596
visibility: 0.9999502301216125
","x: 247.71786499023438
y: 253.35523986816406
z: -0.25192511081695557
visibility: 0.9999520778656006
","x: 246.37576293945312
y: 253.15869140625
z: -0.2519621253013611
visibility: 0.9999487996101379
","x: 245.09085083007812
y: 252.96124267578125
z: -0.2519930899143219
visibility: 0.9999444484710693
","x: 254.6072998046875
y: 257.47198486328125
z: -0.14555715024471283
visibility: 0.9998608827590942
","x: 242.74795532226562
y: 256.03253173828125
z: -0.16492758691310883
visibility: 0.9998537302017212
","x: 251.12875366210938
y: 266.04046630859375
z: -0.2255905419588089
visibility: 0.9999654293060303
","x: 246.50064086914062
y: 265.48876953125
z: -0.23137609660625458
visibility: 0.9999635815620422
","x: 261.93267822265625
y: 290.9981384277344
z: -0.07177881896495819
visibility: 0.9999499917030334
","x: 231.05926513671875
y: 283.7392272949219
z: -0.11111529916524887
visibility: 0.9998363256454468
","x: 270.07550048828125
y: 326.85498046875
z: -0.04476776346564293
visibility: 0.9889292120933533
","x: 231.55307006835938
y: 328.6741638183594
z: -0.16144901514053345
visibility: 0.9784294962882996
","x: 270.3414001464844
y: 355.72760009765625
z: -0.12791994214057922
visibility: 0.9730269908905029
","x: 250.9151153564453
y: 350.3091735839844
z: -0.2750639021396637
visibility: 0.9477967619895935
","x: 272.07391357421875
y: 366.9131774902344
z: -0.15043896436691284
visibility: 0.9440497159957886
","x: 253.95086669921875
y: 354.4345397949219
z: -0.30665284395217896
visibility: 0.9034105539321899
","x: 271.1005859375
y: 366.588134765625
z: -0.17380952835083008
visibility: 0.9484412670135498
","x: 255.17291259765625
y: 350.5641174316406
z: -0.31958162784576416
visibility: 0.9083154797554016
","x: 269.5780029296875
y: 362.3797302246094
z: -0.13835760951042175
visibility: 0.9352213144302368
","x: 254.34402465820312
y: 348.888671875
z: -0.2810074985027313
visibility: 0.8834959864616394
","x: 252.2096405029297
y: 366.2446594238281
z: -0.008274605497717857
visibility: 0.9994679093360901
","x: 233.9679718017578
y: 367.0657043457031
z: 0.00818677805364132
visibility: 0.9994611144065857
","x: 248.09263610839844
y: 427.0701599121094
z: -0.16311456263065338
visibility: 0.9825612902641296
","x: 238.19203186035156
y: 433.55047607421875
z: 0.02353661134839058
visibility: 0.9711279273033142
","x: 243.75140380859375
y: 473.4054870605469
z: -0.0938388854265213
visibility: 0.9821500778198242
","x: 243.13790893554688
y: 479.4681091308594
z: 0.25639796257019043
visibility: 0.948093831539154
","x: 242.1968994140625
y: 473.30712890625
z: -0.0923091322183609
visibility: 0.8939520120620728
","x: 245.49282836914062
y: 481.589111328125
z: 0.2761830687522888
visibility: 0.7603691220283508
","x: 245.6785888671875
y: 500.4589538574219
z: -0.2034536600112915
visibility: 0.9786620140075684
","x: 240.89178466796875
y: 499.5899658203125
z: 0.20537707209587097
visibility: 0.9492244720458984
",5.5942158699035645,,,,,,,,,,,,,,,,,,,,,,"x: 252.3154754638672
y: 350.5661315917969
z: 0.0
","x: 254.7338409423828
y: 348.54486083984375
z: 0.0018790968460962176
","x: 257.3419494628906
y: 348.4747314453125
z: 0.0019403394544497132
","x: 259.1940612792969
y: 350.378173828125
z: 0.0012572347186505795
","x: 260.1815490722656
y: 352.943603515625
z: 0.0006390649359673262
","x: 258.9805908203125
y: 345.34967041015625
z: 0.00019303502631373703
","x: 261.3867492675781
y: 349.74755859375
z: -0.0009143291390500963
","x: 261.582275390625
y: 353.6695556640625
z: -0.0012485533952713013
","x: 261.12701416015625
y: 356.0457763671875
z: -0.0012615941232070327
","x: 258.9582214355469
y: 347.0049743652344
z: -0.0016050998819991946
","x: 261.23016357421875
y: 351.1957092285156
z: -0.0026928239967674017
","x: 261.1484069824219
y: 355.10369873046875
z: -0.0024935915134847164
","x: 260.5303649902344
y: 357.1156311035156
z: -0.002214493928477168
","x: 258.5213623046875
y: 349.5539855957031
z: -0.003262935671955347
","x: 260.70892333984375
y: 353.4328918457031
z: -0.004249966703355312
","x: 260.3354797363281
y: 356.9474792480469
z: -0.003476085141301155
","x: 259.4791259765625
y: 358.5797119140625
z: -0.002800367772579193
","x: 257.78814697265625
y: 352.52301025390625
z: -0.004880806896835566
","x: 259.3229064941406
y: 355.64984130859375
z: -0.005604702513664961
","x: 259.1455078125
y: 357.9417724609375
z: -0.004897984676063061
","x: 258.5457458496094
y: 359.0643310546875
z: -0.004130195360630751
"
23,"x: 249.38304138183594
y: 259.0954895019531
z: -0.26458612084388733
visibility: 0.9999861121177673
","x: 251.3042449951172
y: 253.95355224609375
z: -0.24774177372455597
visibility: 0.9999529123306274
","x: 252.3887176513672
y: 254.1295166015625
z: -0.24776628613471985
visibility: 0.9999502301216125
","x: 253.37379455566406
y: 254.35321044921875
z: -0.24780380725860596
visibility: 0.9999502301216125
","x: 247.71786499023438
y: 253.35523986816406
z: -0.25192511081695557
visibility: 0.9999520778656006
","x: 246.37576293945312
y: 253.15869140625
z: -0.2519621253013611
visibility: 0.9999487996101379
","x: 245.09085083007812
y: 252.96124267578125
z: -0.2519930899143219
visibility: 0.9999444484710693
","x: 254.6072998046875
y: 257.47198486328125
z: -0.14555715024471283
visibility: 0.9998608827590942
","x: 242.74795532226562
y: 256.03253173828125
z: -0.16492758691310883
visibility: 0.9998537302017212
","x: 251.12875366210938
y: 266.04046630859375
z: -0.2255905419588089
visibility: 0.9999654293060303
","x: 246.50064086914062
y: 265.48876953125
z: -0.23137609660625458
visibility: 0.9999635815620422
","x: 261.93267822265625
y: 290.9981384277344
z: -0.07177881896495819
visibility: 0.9999499917030334
","x: 231.05926513671875
y: 283.7392272949219
z: -0.11111529916524887
visibility: 0.9998363256454468
","x: 270.07550048828125
y: 326.85498046875
z: -0.04476776346564293
visibility: 0.9889292120933533
","x: 231.55307006835938
y: 328.6741638183594
z: -0.16144901514053345
visibility: 0.9784294962882996
","x: 270.3414001464844
y: 355.72760009765625
z: -0.12791994214057922
visibility: 0.9730269908905029
","x: 250.9151153564453
y: 350.3091735839844
z: -0.2750639021396637
visibility: 0.9477967619895935
","x: 272.07391357421875
y: 366.9131774902344
z: -0.15043896436691284
visibility: 0.9440497159957886
","x: 253.95086669921875
y: 354.4345397949219
z: -0.30665284395217896
visibility: 0.9034105539321899
","x: 271.1005859375
y: 366.588134765625
z: -0.17380952835083008
visibility: 0.9484412670135498
","x: 255.17291259765625
y: 350.5641174316406
z: -0.31958162784576416
visibility: 0.9083154797554016
","x: 269.5780029296875
y: 362.3797302246094
z: -0.13835760951042175
visibility: 0.9352213144302368
","x: 254.34402465820312
y: 348.888671875
z: -0.2810074985027313
visibility: 0.8834959864616394
","x: 252.2096405029297
y: 366.2446594238281
z: -0.008274605497717857
visibility: 0.9994679093360901
","x: 233.9679718017578
y: 367.0657043457031
z: 0.00818677805364132
visibility: 0.9994611144065857
","x: 248.09263610839844
y: 427.0701599121094
z: -0.16311456263065338
visibility: 0.9825612902641296
","x: 238.19203186035156
y: 433.55047607421875
z: 0.02353661134839058
visibility: 0.9711279273033142
","x: 243.75140380859375
y: 473.4054870605469
z: -0.0938388854265213
visibility: 0.9821500778198242
","x: 243.13790893554688
y: 479.4681091308594
z: 0.25639796257019043
visibility: 0.948093831539154
","x: 242.1968994140625
y: 473.30712890625
z: -0.0923091322183609
visibility: 0.8939520120620728
","x: 245.49282836914062
y: 481.589111328125
z: 0.2761830687522888
visibility: 0.7603691220283508
","x: 245.6785888671875
y: 500.4589538574219
z: -0.2034536600112915
visibility: 0.9786620140075684
","x: 240.89178466796875
y: 499.5899658203125
z: 0.20537707209587097
visibility: 0.9492244720458984
",5.5942158699035645,,,,,,,,,,,,,,,,,,,,,,"x: 252.3154754638672
y: 350.5661315917969
z: 0.0
","x: 254.7338409423828
y: 348.54486083984375
z: 0.0018790968460962176
","x: 257.3419494628906
y: 348.4747314453125
z: 0.0019403394544497132
","x: 259.1940612792969
y: 350.378173828125
z: 0.0012572347186505795
","x: 260.1815490722656
y: 352.943603515625
z: 0.0006390649359673262
","x: 258.9805908203125
y: 345.34967041015625
z: 0.00019303502631373703
","x: 261.3867492675781
y: 349.74755859375
z: -0.0009143291390500963
","x: 261.582275390625
y: 353.6695556640625
z: -0.0012485533952713013
","x: 261.12701416015625
y: 356.0457763671875
z: -0.0012615941232070327
","x: 258.9582214355469
y: 347.0049743652344
z: -0.0016050998819991946
","x: 261.23016357421875
y: 351.1957092285156
z: -0.0026928239967674017
","x: 261.1484069824219
y: 355.10369873046875
z: -0.0024935915134847164
","x: 260.5303649902344
y: 357.1156311035156
z: -0.002214493928477168
","x: 258.5213623046875
y: 349.5539855957031
z: -0.003262935671955347
","x: 260.70892333984375
y: 353.4328918457031
z: -0.004249966703355312
","x: 260.3354797363281
y: 356.9474792480469
z: -0.003476085141301155
","x: 259.4791259765625
y: 358.5797119140625
z: -0.002800367772579193
","x: 257.78814697265625
y: 352.52301025390625
z: -0.004880806896835566
","x: 259.3229064941406
y: 355.64984130859375
z: -0.005604702513664961
","x: 259.1455078125
y: 357.9417724609375
z: -0.004897984676063061
","x: 258.5457458496094
y: 359.0643310546875
z: -0.004130195360630751
"
24,"x: 249.95790100097656
y: 266.8485412597656
z: -0.22837281227111816
visibility: 0.9999859929084778
","x: 251.88027954101562
y: 262.127197265625
z: -0.21025419235229492
visibility: 0.9999545216560364
","x: 253.00357055664062
y: 262.3440856933594
z: -0.21027329564094543
visibility: 0.9999507069587708
","x: 254.074951171875
y: 262.5683288574219
z: -0.21032075583934784
visibility: 0.9999505877494812
","x: 248.3084716796875
y: 261.2864074707031
z: -0.21532347798347473
visibility: 0.9999542832374573
","x: 246.9788055419922
y: 261.0677795410156
z: -0.21535208821296692
visibility: 0.9999504685401917
","x: 245.6689453125
y: 260.9344482421875
z: -0.21539261937141418
visibility: 0.9999465346336365
","x: 255.37615966796875
y: 265.5950622558594
z: -0.10215932130813599
visibility: 0.9998618960380554
","x: 243.2827606201172
y: 263.5710754394531
z: -0.12692005932331085
visibility: 0.9998641610145569
","x: 251.731201171875
y: 274.6298522949219
z: -0.18695595860481262
visibility: 0.9999656677246094
","x: 247.11187744140625
y: 273.7256164550781
z: -0.19417628645896912
visibility: 0.9999645948410034
","x: 261.6726379394531
y: 301.6402587890625
z: -0.011654263362288475
visibility: 0.9999409914016724
","x: 231.87152099609375
y: 289.0414123535156
z: -0.10034747421741486
visibility: 0.9998401999473572
","x: 266.2825622558594
y: 338.7212829589844
z: 0.03064168430864811
visibility: 0.9732534885406494
","x: 229.5330810546875
y: 329.34442138671875
z: -0.1695621907711029
visibility: 0.9797086119651794
","x: 270.6031494140625
y: 358.62200927734375
z: -0.04722481220960617
visibility: 0.9636274576187134
","x: 246.6648712158203
y: 345.6817626953125
z: -0.2940913438796997
visibility: 0.9510889053344727
","x: 276.6216125488281
y: 369.6754455566406
z: -0.0641729012131691
visibility: 0.9331437945365906
","x: 252.16627502441406
y: 351.1908264160156
z: -0.32644978165626526
visibility: 0.9089107513427734
","x: 277.7981872558594
y: 368.2287292480469
z: -0.08828340470790863
visibility: 0.9387458562850952
","x: 254.0517120361328
y: 347.4992370605469
z: -0.33108848333358765
visibility: 0.9132800698280334
","x: 275.89019775390625
y: 365.0181884765625
z: -0.05896447226405144
visibility: 0.9242962598800659
","x: 253.00656127929688
y: 345.92047119140625
z: -0.2970939576625824
visibility: 0.8884949684143066
","x: 251.36231994628906
y: 378.3625793457031
z: 0.012956601567566395
visibility: 0.9995170831680298
","x: 232.97003173828125
y: 376.1258239746094
z: -0.012932119891047478
visibility: 0.9994983673095703
","x: 248.18043518066406
y: 439.3656005859375
z: -0.1215301975607872
visibility: 0.9797746539115906
","x: 238.21533203125
y: 441.642333984375
z: 0.011896036565303802
visibility: 0.9609891772270203
","x: 241.50209045410156
y: 498.49676513671875
z: -0.048932161182165146
visibility: 0.9776964783668518
","x: 243.82968139648438
y: 484.1344909667969
z: 0.23438295722007751
visibility: 0.9061389565467834
","x: 238.37039184570312
y: 507.9486389160156
z: -0.04580584913492203
visibility: 0.8893356919288635
","x: 246.9055938720703
y: 487.05889892578125
z: 0.25472891330718994
visibility: 0.7233119606971741
","x: 247.9434814453125
y: 515.5747680664062
z: -0.14546999335289001
visibility: 0.9742835760116577
","x: 243.83351135253906
y: 503.8043212890625
z: 0.18753886222839355
visibility: 0.9154677987098694
",5.7355287075042725,,,,,,,,,,,,,,,,,,,,,,,,,,,,,,,,,,,,,,,,,,
25,"x: 249.95790100097656
y: 266.8485412597656
z: -0.22837281227111816
visibility: 0.9999859929084778
","x: 251.88027954101562
y: 262.127197265625
z: -0.21025419235229492
visibility: 0.9999545216560364
","x: 253.00357055664062
y: 262.3440856933594
z: -0.21027329564094543
visibility: 0.9999507069587708
","x: 254.074951171875
y: 262.5683288574219
z: -0.21032075583934784
visibility: 0.9999505877494812
","x: 248.3084716796875
y: 261.2864074707031
z: -0.21532347798347473
visibility: 0.9999542832374573
","x: 246.9788055419922
y: 261.0677795410156
z: -0.21535208821296692
visibility: 0.9999504685401917
","x: 245.6689453125
y: 260.9344482421875
z: -0.21539261937141418
visibility: 0.9999465346336365
","x: 255.37615966796875
y: 265.5950622558594
z: -0.10215932130813599
visibility: 0.9998618960380554
","x: 243.2827606201172
y: 263.5710754394531
z: -0.12692005932331085
visibility: 0.9998641610145569
","x: 251.731201171875
y: 274.6298522949219
z: -0.18695595860481262
visibility: 0.9999656677246094
","x: 247.11187744140625
y: 273.7256164550781
z: -0.19417628645896912
visibility: 0.9999645948410034
","x: 261.6726379394531
y: 301.6402587890625
z: -0.011654263362288475
visibility: 0.9999409914016724
","x: 231.87152099609375
y: 289.0414123535156
z: -0.10034747421741486
visibility: 0.9998401999473572
","x: 266.2825622558594
y: 338.7212829589844
z: 0.03064168430864811
visibility: 0.9732534885406494
","x: 229.5330810546875
y: 329.34442138671875
z: -0.1695621907711029
visibility: 0.9797086119651794
","x: 270.6031494140625
y: 358.62200927734375
z: -0.04722481220960617
visibility: 0.9636274576187134
","x: 246.6648712158203
y: 345.6817626953125
z: -0.2940913438796997
visibility: 0.9510889053344727
","x: 276.6216125488281
y: 369.6754455566406
z: -0.0641729012131691
visibility: 0.9331437945365906
","x: 252.16627502441406
y: 351.1908264160156
z: -0.32644978165626526
visibility: 0.9089107513427734
","x: 277.7981872558594
y: 368.2287292480469
z: -0.08828340470790863
visibility: 0.9387458562850952
","x: 254.0517120361328
y: 347.4992370605469
z: -0.33108848333358765
visibility: 0.9132800698280334
","x: 275.89019775390625
y: 365.0181884765625
z: -0.05896447226405144
visibility: 0.9242962598800659
","x: 253.00656127929688
y: 345.92047119140625
z: -0.2970939576625824
visibility: 0.8884949684143066
","x: 251.36231994628906
y: 378.3625793457031
z: 0.012956601567566395
visibility: 0.9995170831680298
","x: 232.97003173828125
y: 376.1258239746094
z: -0.012932119891047478
visibility: 0.9994983673095703
","x: 248.18043518066406
y: 439.3656005859375
z: -0.1215301975607872
visibility: 0.9797746539115906
","x: 238.21533203125
y: 441.642333984375
z: 0.011896036565303802
visibility: 0.9609891772270203
","x: 241.50209045410156
y: 498.49676513671875
z: -0.048932161182165146
visibility: 0.9776964783668518
","x: 243.82968139648438
y: 484.1344909667969
z: 0.23438295722007751
visibility: 0.9061389565467834
","x: 238.37039184570312
y: 507.9486389160156
z: -0.04580584913492203
visibility: 0.8893356919288635
","x: 246.9055938720703
y: 487.05889892578125
z: 0.25472891330718994
visibility: 0.7233119606971741
","x: 247.9434814453125
y: 515.5747680664062
z: -0.14546999335289001
visibility: 0.9742835760116577
","x: 243.83351135253906
y: 503.8043212890625
z: 0.18753886222839355
visibility: 0.9154677987098694
",5.7355287075042725,,,,,,,,,,,,,,,,,,,,,,,,,,,,,,,,,,,,,,,,,,
26,"x: 250.2714385986328
y: 264.8551025390625
z: -0.32835009694099426
visibility: 0.9999872446060181
","x: 252.22669982910156
y: 259.7973327636719
z: -0.3140740394592285
visibility: 0.9999586939811707
","x: 253.35394287109375
y: 259.98626708984375
z: -0.31403619050979614
visibility: 0.9999549984931946
","x: 254.4381561279297
y: 260.18548583984375
z: -0.3140532374382019
visibility: 0.9999548196792603
","x: 248.6435546875
y: 259.2244873046875
z: -0.3181208372116089
visibility: 0.9999585747718811
","x: 247.32069396972656
y: 259.07806396484375
z: -0.31819969415664673
visibility: 0.9999550580978394
","x: 246.00526428222656
y: 258.9833984375
z: -0.3182355761528015
visibility: 0.9999514818191528
","x: 255.50425720214844
y: 263.5144348144531
z: -0.2043796330690384
visibility: 0.9998729228973389
","x: 243.6010284423828
y: 261.99468994140625
z: -0.22672732174396515
visibility: 0.999877393245697
","x: 252.031982421875
y: 272.23583984375
z: -0.28493499755859375
visibility: 0.9999687671661377
","x: 247.42401123046875
y: 271.4557189941406
z: -0.29145219922065735
visibility: 0.9999679327011108
","x: 262.5898742675781
y: 300.1492004394531
z: -0.0813254565000534
visibility: 0.999945342540741
","x: 232.05372619628906
y: 288.80706787109375
z: -0.17261946201324463
visibility: 0.9998549818992615
","x: 268.21136474609375
y: 339.97021484375
z: -0.030366655439138412
visibility: 0.972041666507721
","x: 214.846435546875
y: 315.92266845703125
z: -0.22849586606025696
visibility: 0.9816382527351379
","x: 277.7852783203125
y: 365.21533203125
z: -0.13869020342826843
visibility: 0.9655624032020569
","x: 233.5912628173828
y: 337.739501953125
z: -0.3667216897010803
visibility: 0.9554065465927124
","x: 282.7499084472656
y: 371.4448547363281
z: -0.15711824595928192
visibility: 0.9366359710693359
","x: 237.2046356201172
y: 348.03826904296875
z: -0.4002986550331116
visibility: 0.9163379669189453
","x: 283.417724609375
y: 369.1369934082031
z: -0.18722003698349
visibility: 0.9420391321182251
","x: 241.69287109375
y: 345.2493591308594
z: -0.4062654972076416
visibility: 0.9202257394790649
","x: 281.6861877441406
y: 366.9500427246094
z: -0.1526084840297699
visibility: 0.9280564785003662
","x: 241.23681640625
y: 342.0646667480469
z: -0.3701343238353729
visibility: 0.8969812393188477
","x: 252.4659881591797
y: 379.0736083984375
z: 0.01572132483124733
visibility: 0.9995646476745605
","x: 233.7593994140625
y: 376.6178894042969
z: -0.015760967507958412
visibility: 0.9995456337928772
","x: 249.00048828125
y: 443.3250427246094
z: -0.05504384636878967
visibility: 0.9807977080345154
","x: 236.43016052246094
y: 442.2889709472656
z: 0.05146139860153198
visibility: 0.9632333517074585
","x: 242.18399047851562
y: 505.264404296875
z: 0.03099934197962284
visibility: 0.9786731600761414
","x: 238.6804656982422
y: 462.8139953613281
z: 0.3675737679004669
visibility: 0.8928426504135132
","x: 239.004638671875
y: 514.62744140625
z: 0.03600650280714035
visibility: 0.8933523893356323
","x: 239.6526336669922
y: 459.1694641113281
z: 0.397661417722702
visibility: 0.70579993724823
