uscmakers/ReverseChoreography/data/10_lite_spots_kaytranada.csv
,NOSE,LEFT_EYE_INNER,LEFT_EYE,LEFT_EYE_OUTER,RIGHT_EYE_INNER,RIGHT_EYE,RIGHT_EYE_OUTER,LEFT_EAR,RIGHT_EAR,MOUTH_LEFT,MOUTH_RIGHT,LEFT_SHOULDER,RIGHT_SHOULDER,LEFT_ELBOW,RIGHT_ELBOW,LEFT_WRIST,RIGHT_WRIST,LEFT_PINKY,RIGHT_PINKY,LEFT_INDEX,RIGHT_INDEX,LEFT_THUMB,RIGHT_THUMB,LEFT_HIP,RIGHT_HIP,LEFT_KNEE,RIGHT_KNEE,LEFT_ANKLE,RIGHT_ANKLE,LEFT_HEEL,RIGHT_HEEL,LEFT_FOOT_INDEX,RIGHT_FOOT_INDEX,TIMESTAMP,WRIST2,THUMB_CPC2,THUMB_MCP2,THUMB_IP2,THUMB_TIP2,INDEX_FINGER_MCP2,INDEX_FINGER_PIP2,INDEX_FINGER_DIP2,INDEX_FINGER_TIP2,MIDDLE_FINGER_MCP2,MIDDLE_FINGER_PIP2,MIDDLE_FINGER_DIP2,MIDDLE_FINGER_TIP2,RING_FINGER_PIP2,RING_FINGER_DIP2,RING_FINGER_TIP2,RING_FINGER_MCP2,PINKY_MCP2,PINKY_PIP2,PINKY_DIP2,PINKY_TIP2,WRIST,THUMB_CPC,THUMB_MCP,THUMB_IP,THUMB_TIP,INDEX_FINGER_MCP,INDEX_FINGER_PIP,INDEX_FINGER_DIP,INDEX_FINGER_TIP,MIDDLE_FINGER_MCP,MIDDLE_FINGER_PIP,MIDDLE_FINGER_DIP,MIDDLE_FINGER_TIP,RING_FINGER_PIP,RING_FINGER_DIP,RING_FINGER_TIP,RING_FINGER_MCP,PINKY_MCP,PINKY_PIP,PINKY_DIP,PINKY_TIP
0,"x: 237.4174346923828
y: 248.76168823242188
z: -0.23929378390312195
visibility: 0.9997965693473816
","x: 238.4070281982422
y: 244.59780883789062
z: -0.2280769795179367
visibility: 0.9994176626205444
","x: 239.4297637939453
y: 244.799560546875
z: -0.22804036736488342
visibility: 0.9994608759880066
","x: 240.6388702392578
y: 245.0083770751953
z: -0.22807566821575165
visibility: 0.9993307590484619
","x: 235.22247314453125
y: 244.41891479492188
z: -0.22875967621803284
visibility: 0.9995245933532715
","x: 233.95790100097656
y: 244.51744079589844
z: -0.22881576418876648
visibility: 0.999626874923706
","x: 232.67787170410156
y: 244.59750366210938
z: -0.22879691421985626
visibility: 0.9996963739395142
","x: 242.80117797851562
y: 249.77745056152344
z: -0.14456035196781158
visibility: 0.9987969398498535
","x: 229.69227600097656
y: 249.0326690673828
z: -0.1487220674753189
visibility: 0.9995854496955872
","x: 239.7821502685547
y: 256.4267272949219
z: -0.20703499019145966
visibility: 0.9995924830436707
","x: 235.04661560058594
y: 256.24432373046875
z: -0.20833909511566162
visibility: 0.9996589422225952
","x: 254.0325164794922
y: 286.31341552734375
z: -0.06698961555957794
visibility: 0.9990487694740295
","x: 218.13331604003906
y: 283.2359619140625
z: -0.06798961013555527
visibility: 0.9997792840003967
","x: 259.70269775390625
y: 319.0350341796875
z: 0.0572444312274456
visibility: 0.8273727893829346
","x: 205.32676696777344
y: 314.6663818359375
z: 0.0373927466571331
visibility: 0.9564290642738342
","x: 252.9073944091797
y: 346.35986328125
z: 0.11499838531017303
visibility: 0.3038465976715088
","x: 211.51809692382812
y: 340.474365234375
z: 0.08193127065896988
visibility: 0.674305260181427
","x: 250.1695556640625
y: 357.2975158691406
z: 0.12229393422603607
visibility: 0.17781208455562592
","x: 215.41873168945312
y: 351.55615234375
z: 0.08585088700056076
visibility: 0.5036503672599792
","x: 248.24789428710938
y: 354.49896240234375
z: 0.1014498919248581
visibility: 0.1840711385011673
","x: 217.78819274902344
y: 349.557373046875
z: 0.0728711411356926
visibility: 0.4996832311153412
","x: 248.55628967285156
y: 350.07330322265625
z: 0.10917103290557861
visibility: 0.1750614047050476
","x: 217.09869384765625
y: 345.8246154785156
z: 0.07941270619630814
visibility: 0.48399102687835693
","x: 244.98870849609375
y: 372.5112609863281
z: 0.0013144854456186295
visibility: 0.997945249080658
","x: 224.7077178955078
y: 372.76300048828125
z: -0.0014002328971400857
visibility: 0.9990239143371582
","x: 246.18772888183594
y: 439.0530700683594
z: -0.007009068038314581
visibility: 0.992682158946991
","x: 228.8792724609375
y: 441.0272521972656
z: -0.016681088134646416
visibility: 0.9937317967414856
","x: 249.92628479003906
y: 502.804931640625
z: 0.08964119106531143
visibility: 0.9944050312042236
","x: 229.951171875
y: 502.4220275878906
z: 0.0896100178360939
visibility: 0.9936937689781189
","x: 246.8671112060547
y: 512.8967895507812
z: 0.09317100793123245
visibility: 0.9076875448226929
","x: 231.7378692626953
y: 511.7716064453125
z: 0.09399425238370895
visibility: 0.8901421427726746
","x: 253.5894317626953
y: 522.9634399414062
z: -0.004031294956803322
visibility: 0.9896472096443176
","x: 228.3380584716797
y: 522.7825927734375
z: -0.001738228602334857
visibility: 0.9892388582229614
",4.081071615219116,,,,,,,,,,,,,,,,,,,,,,,,,,,,,,,,,,,,,,,,,,
1,"x: 237.4174346923828
y: 248.76168823242188
z: -0.23929378390312195
visibility: 0.9997965693473816
","x: 238.4070281982422
y: 244.59780883789062
z: -0.2280769795179367
visibility: 0.9994176626205444
","x: 239.4297637939453
y: 244.799560546875
z: -0.22804036736488342
visibility: 0.9994608759880066
","x: 240.6388702392578
y: 245.0083770751953
z: -0.22807566821575165
visibility: 0.9993307590484619
","x: 235.22247314453125
y: 244.41891479492188
z: -0.22875967621803284
visibility: 0.9995245933532715
","x: 233.95790100097656
y: 244.51744079589844
z: -0.22881576418876648
visibility: 0.999626874923706
","x: 232.67787170410156
y: 244.59750366210938
z: -0.22879691421985626
visibility: 0.9996963739395142
","x: 242.80117797851562
y: 249.77745056152344
z: -0.14456035196781158
visibility: 0.9987969398498535
","x: 229.69227600097656
y: 249.0326690673828
z: -0.1487220674753189
visibility: 0.9995854496955872
","x: 239.7821502685547
y: 256.4267272949219
z: -0.20703499019145966
visibility: 0.9995924830436707
","x: 235.04661560058594
y: 256.24432373046875
z: -0.20833909511566162
visibility: 0.9996589422225952
","x: 254.0325164794922
y: 286.31341552734375
z: -0.06698961555957794
visibility: 0.9990487694740295
","x: 218.13331604003906
y: 283.2359619140625
z: -0.06798961013555527
visibility: 0.9997792840003967
","x: 259.70269775390625
y: 319.0350341796875
z: 0.0572444312274456
visibility: 0.8273727893829346
","x: 205.32676696777344
y: 314.6663818359375
z: 0.0373927466571331
visibility: 0.9564290642738342
","x: 252.9073944091797
y: 346.35986328125
z: 0.11499838531017303
visibility: 0.3038465976715088
","x: 211.51809692382812
y: 340.474365234375
z: 0.08193127065896988
visibility: 0.674305260181427
","x: 250.1695556640625
y: 357.2975158691406
z: 0.12229393422603607
visibility: 0.17781208455562592
","x: 215.41873168945312
y: 351.55615234375
z: 0.08585088700056076
visibility: 0.5036503672599792
","x: 248.24789428710938
y: 354.49896240234375
z: 0.1014498919248581
visibility: 0.1840711385011673
","x: 217.78819274902344
y: 349.557373046875
z: 0.0728711411356926
visibility: 0.4996832311153412
","x: 248.55628967285156
y: 350.07330322265625
z: 0.10917103290557861
visibility: 0.1750614047050476
","x: 217.09869384765625
y: 345.8246154785156
z: 0.07941270619630814
visibility: 0.48399102687835693
","x: 244.98870849609375
y: 372.5112609863281
z: 0.0013144854456186295
visibility: 0.997945249080658
","x: 224.7077178955078
y: 372.76300048828125
z: -0.0014002328971400857
visibility: 0.9990239143371582
","x: 246.18772888183594
y: 439.0530700683594
z: -0.007009068038314581
visibility: 0.992682158946991
","x: 228.8792724609375
y: 441.0272521972656
z: -0.016681088134646416
visibility: 0.9937317967414856
","x: 249.92628479003906
y: 502.804931640625
z: 0.08964119106531143
visibility: 0.9944050312042236
","x: 229.951171875
y: 502.4220275878906
z: 0.0896100178360939
visibility: 0.9936937689781189
","x: 246.8671112060547
y: 512.8967895507812
z: 0.09317100793123245
visibility: 0.9076875448226929
","x: 231.7378692626953
y: 511.7716064453125
z: 0.09399425238370895
visibility: 0.8901421427726746
","x: 253.5894317626953
y: 522.9634399414062
z: -0.004031294956803322
visibility: 0.9896472096443176
","x: 228.3380584716797
y: 522.7825927734375
z: -0.001738228602334857
visibility: 0.9892388582229614
",4.081071615219116,,,,,,,,,,,,,,,,,,,,,,,,,,,,,,,,,,,,,,,,,,
2,"x: 245.58920288085938
y: 249.14324951171875
z: -0.2260582000017166
visibility: 0.9998120069503784
","x: 246.81689453125
y: 245.0829315185547
z: -0.21632428467273712
visibility: 0.9994583129882812
","x: 247.89645385742188
y: 245.30392456054688
z: -0.21630032360553741
visibility: 0.9994980692863464
","x: 249.0032958984375
y: 245.54257202148438
z: -0.21632549166679382
visibility: 0.9993788599967957
","x: 243.56790161132812
y: 245.11962890625
z: -0.21563395857810974
visibility: 0.9995557069778442
","x: 242.40354919433594
y: 245.38473510742188
z: -0.21567027270793915
visibility: 0.9996502995491028
","x: 241.22637939453125
y: 245.6495819091797
z: -0.21565881371498108
visibility: 0.999713659286499
","x: 251.0551300048828
y: 250.2458038330078
z: -0.13901978731155396
visibility: 0.9988855719566345
","x: 239.5423126220703
y: 250.0640869140625
z: -0.13692115247249603
visibility: 0.9996016621589661
","x: 247.91868591308594
y: 256.568603515625
z: -0.1961630880832672
visibility: 0.9996253848075867
","x: 243.2957305908203
y: 256.68310546875
z: -0.19561077654361725
visibility: 0.9996823668479919
","x: 261.7364196777344
y: 285.2643127441406
z: -0.0661102682352066
visibility: 0.9991322159767151
","x: 227.35870361328125
y: 282.4503173828125
z: -0.05873608589172363
visibility: 0.9997838735580444
","x: 271.5018615722656
y: 313.8202819824219
z: 0.05609174445271492
visibility: 0.8430430293083191
","x: 216.4952392578125
y: 308.7885437011719
z: 0.039591073989868164
visibility: 0.9575810432434082
","x: 269.4263000488281
y: 343.23980712890625
z: 0.10469058901071548
visibility: 0.36650916934013367
","x: 216.39645385742188
y: 338.9746398925781
z: 0.0634712278842926
visibility: 0.6901574730873108
","x: 268.1685791015625
y: 353.3412170410156
z: 0.10982898622751236
visibility: 0.24113263189792633
","x: 217.83580017089844
y: 350.16644287109375
z: 0.06317905336618423
visibility: 0.5231848955154419
","x: 266.3308410644531
y: 351.32666015625
z: 0.08851960301399231
visibility: 0.2478925883769989
","x: 220.31048583984375
y: 349.0463562011719
z: 0.044094908982515335
visibility: 0.5202307105064392
","x: 266.2793884277344
y: 347.0318908691406
z: 0.09912700951099396
visibility: 0.23623305559158325
","x: 220.29971313476562
y: 345.3540344238281
z: 0.05744171887636185
visibility: 0.5039716362953186
","x: 251.58822631835938
y: 372.7682189941406
z: 0.0005716107552871108
visibility: 0.998007595539093
","x: 231.74697875976562
y: 372.2027587890625
z: -0.0006635180325247347
visibility: 0.9990371465682983
","x: 248.66494750976562
y: 438.9460754394531
z: 0.0019750746432691813
visibility: 0.9928175806999207
","x: 231.8872833251953
y: 440.515380859375
z: -0.03714467212557793
visibility: 0.9938758611679077
","x: 249.90380859375
y: 500.9498596191406
z: 0.11961100995540619
visibility: 0.9943398833274841
","x: 229.80763244628906
y: 501.95013427734375
z: 0.06493182480335236
visibility: 0.9937628507614136
","x: 247.07464599609375
y: 509.49298095703125
z: 0.12539517879486084
visibility: 0.9087780117988586
","x: 231.1785888671875
y: 510.5581970214844
z: 0.06919603049755096
visibility: 0.8895843029022217
","x: 253.2864990234375
y: 520.5906982421875
z: 0.030111020430922508
visibility: 0.989643394947052
","x: 229.0001678466797
y: 521.57373046875
z: -0.0320662185549736
visibility: 0.9894882440567017
",4.714691877365112,,,,,,,,,,,,,,,,,,,,,,,,,,,,,,,,,,,,,,,,,,
3,"x: 245.58920288085938
y: 249.14324951171875
z: -0.2260582000017166
visibility: 0.9998120069503784
","x: 246.81689453125
y: 245.0829315185547
z: -0.21632428467273712
visibility: 0.9994583129882812
","x: 247.89645385742188
y: 245.30392456054688
z: -0.21630032360553741
visibility: 0.9994980692863464
","x: 249.0032958984375
y: 245.54257202148438
z: -0.21632549166679382
visibility: 0.9993788599967957
","x: 243.56790161132812
y: 245.11962890625
z: -0.21563395857810974
visibility: 0.9995557069778442
","x: 242.40354919433594
y: 245.38473510742188
z: -0.21567027270793915
visibility: 0.9996502995491028
","x: 241.22637939453125
y: 245.6495819091797
z: -0.21565881371498108
visibility: 0.999713659286499
","x: 251.0551300048828
y: 250.2458038330078
z: -0.13901978731155396
visibility: 0.9988855719566345
","x: 239.5423126220703
y: 250.0640869140625
z: -0.13692115247249603
visibility: 0.9996016621589661
","x: 247.91868591308594
y: 256.568603515625
z: -0.1961630880832672
visibility: 0.9996253848075867
","x: 243.2957305908203
y: 256.68310546875
z: -0.19561077654361725
visibility: 0.9996823668479919
","x: 261.7364196777344
y: 285.2643127441406
z: -0.0661102682352066
visibility: 0.9991322159767151
","x: 227.35870361328125
y: 282.4503173828125
z: -0.05873608589172363
visibility: 0.9997838735580444
","x: 271.5018615722656
y: 313.8202819824219
z: 0.05609174445271492
visibility: 0.8430430293083191
","x: 216.4952392578125
y: 308.7885437011719
z: 0.039591073989868164
visibility: 0.9575810432434082
","x: 269.4263000488281
y: 343.23980712890625
z: 0.10469058901071548
visibility: 0.36650916934013367
","x: 216.39645385742188
y: 338.9746398925781
z: 0.0634712278842926
visibility: 0.6901574730873108
","x: 268.1685791015625
y: 353.3412170410156
z: 0.10982898622751236
visibility: 0.24113263189792633
","x: 217.83580017089844
y: 350.16644287109375
z: 0.06317905336618423
visibility: 0.5231848955154419
","x: 266.3308410644531
y: 351.32666015625
z: 0.08851960301399231
visibility: 0.2478925883769989
","x: 220.31048583984375
y: 349.0463562011719
z: 0.044094908982515335
visibility: 0.5202307105064392
","x: 266.2793884277344
y: 347.0318908691406
z: 0.09912700951099396
visibility: 0.23623305559158325
","x: 220.29971313476562
y: 345.3540344238281
z: 0.05744171887636185
visibility: 0.5039716362953186
","x: 251.58822631835938
y: 372.7682189941406
z: 0.0005716107552871108
visibility: 0.998007595539093
","x: 231.74697875976562
y: 372.2027587890625
z: -0.0006635180325247347
visibility: 0.9990371465682983
","x: 248.66494750976562
y: 438.9460754394531
z: 0.0019750746432691813
visibility: 0.9928175806999207
","x: 231.8872833251953
y: 440.515380859375
z: -0.03714467212557793
visibility: 0.9938758611679077
","x: 249.90380859375
y: 500.9498596191406
z: 0.11961100995540619
visibility: 0.9943398833274841
","x: 229.80763244628906
y: 501.95013427734375
z: 0.06493182480335236
visibility: 0.9937628507614136
","x: 247.07464599609375
y: 509.49298095703125
z: 0.12539517879486084
visibility: 0.9087780117988586
","x: 231.1785888671875
y: 510.5581970214844
z: 0.06919603049755096
visibility: 0.8895843029022217
","x: 253.2864990234375
y: 520.5906982421875
z: 0.030111020430922508
visibility: 0.989643394947052
","x: 229.0001678466797
y: 521.57373046875
z: -0.0320662185549736
visibility: 0.9894882440567017
",4.714691877365112,,,,,,,,,,,,,,,,,,,,,,,,,,,,,,,,,,,,,,,,,,
4,"x: 251.85739135742188
y: 251.20953369140625
z: -0.262326717376709
visibility: 0.9998244047164917
","x: 253.42083740234375
y: 247.39801025390625
z: -0.25401878356933594
visibility: 0.9994887709617615
","x: 254.5626678466797
y: 247.80953979492188
z: -0.25396090745925903
visibility: 0.9995248913764954
","x: 255.68124389648438
y: 248.27182006835938
z: -0.25398311018943787
visibility: 0.9994106292724609
","x: 249.94190979003906
y: 246.94395446777344
z: -0.2519770860671997
visibility: 0.9995839595794678
","x: 248.69784545898438
y: 247.03651428222656
z: -0.252058207988739
visibility: 0.9996734261512756
","x: 247.53033447265625
y: 247.12347412109375
z: -0.25207531452178955
visibility: 0.9997330904006958
","x: 257.4387512207031
y: 252.1993408203125
z: -0.17528243362903595
visibility: 0.9989493489265442
","x: 245.98532104492188
y: 250.77452087402344
z: -0.16784127056598663
visibility: 0.9996281266212463
","x: 254.00083923339844
y: 258.13714599609375
z: -0.23101182281970978
visibility: 0.9996480941772461
","x: 249.2373809814453
y: 257.80999755859375
z: -0.22901394963264465
visibility: 0.9997031092643738
","x: 267.7989501953125
y: 285.72686767578125
z: -0.09175892919301987
visibility: 0.9991713166236877
","x: 232.0772247314453
y: 279.4372863769531
z: -0.08390939235687256
visibility: 0.9998005628585815
","x: 275.8340148925781
y: 314.2257385253906
z: 0.04096290469169617
visibility: 0.8534505367279053
","x: 217.3769989013672
y: 297.70953369140625
z: 0.01201385073363781
visibility: 0.9607649445533752
","x: 268.3957824707031
y: 343.1814880371094
z: 0.10681947320699692
visibility: 0.3998623788356781
","x: 219.7130889892578
y: 332.5206298828125
z: 0.03125642612576485
visibility: 0.7123526930809021
","x: 266.3545837402344
y: 353.3063049316406
z: 0.11123838275671005
visibility: 0.26268917322158813
","x: 220.42689514160156
y: 343.39984130859375
z: 0.031379636377096176
visibility: 0.5512067079544067
","x: 265.0527648925781
y: 351.3016357421875
z: 0.08963178098201752
visibility: 0.26973241567611694
","x: 222.99514770507812
y: 343.51922607421875
z: 0.01357605867087841
visibility: 0.5486922264099121
","x: 265.2280578613281
y: 347.1859130859375
z: 0.10091136395931244
visibility: 0.2553196847438812
","x: 223.24644470214844
y: 339.8177490234375
z: 0.026214411482214928
visibility: 0.5318638682365417
","x: 255.19827270507812
y: 372.7984619140625
z: 0.0005710494006052613
visibility: 0.997941255569458
","x: 235.07106018066406
y: 371.015380859375
z: -0.0006640731589868665
visibility: 0.9990730285644531
","x: 250.32623291015625
y: 438.6134338378906
z: 0.01048666425049305
visibility: 0.9926403164863586
","x: 234.44473266601562
y: 439.7362060546875
z: -0.0568007156252861
visibility: 0.9939802885055542
","x: 249.89662170410156
y: 500.6887512207031
z: 0.12449600547552109
visibility: 0.9939635396003723
","x: 230.14804077148438
y: 501.83935546875
z: 0.03398063778877258
visibility: 0.9936578273773193
","x: 247.10694885253906
y: 509.1018981933594
z: 0.12980912625789642
visibility: 0.9069202542304993
","x: 231.33953857421875
y: 510.1492004394531
z: 0.03724535554647446
visibility: 0.8866553902626038
","x: 253.08262634277344
y: 519.2171630859375
z: 0.03519630432128906
visibility: 0.9891294836997986
","x: 230.26119995117188
y: 521.1171875
z: -0.06730754673480988
visibility: 0.9894998669624329
",4.857890367507935,,,,,,,,,,,,,,,,,,,,,,,,,,,,,,,,,,,,,,,,,,
5,"x: 251.85739135742188
y: 251.20953369140625
z: -0.262326717376709
visibility: 0.9998244047164917
","x: 253.42083740234375
y: 247.39801025390625
z: -0.25401878356933594
visibility: 0.9994887709617615
","x: 254.5626678466797
y: 247.80953979492188
z: -0.25396090745925903
visibility: 0.9995248913764954
","x: 255.68124389648438
y: 248.27182006835938
z: -0.25398311018943787
visibility: 0.9994106292724609
","x: 249.94190979003906
y: 246.94395446777344
z: -0.2519770860671997
visibility: 0.9995839595794678
","x: 248.69784545898438
y: 247.03651428222656
z: -0.252058207988739
visibility: 0.9996734261512756
","x: 247.53033447265625
y: 247.12347412109375
z: -0.25207531452178955
visibility: 0.9997330904006958
","x: 257.4387512207031
y: 252.1993408203125
z: -0.17528243362903595
visibility: 0.9989493489265442
","x: 245.98532104492188
y: 250.77452087402344
z: -0.16784127056598663
visibility: 0.9996281266212463
","x: 254.00083923339844
y: 258.13714599609375
z: -0.23101182281970978
visibility: 0.9996480941772461
","x: 249.2373809814453
y: 257.80999755859375
z: -0.22901394963264465
visibility: 0.9997031092643738
","x: 267.7989501953125
y: 285.72686767578125
z: -0.09175892919301987
visibility: 0.9991713166236877
","x: 232.0772247314453
y: 279.4372863769531
z: -0.08390939235687256
visibility: 0.9998005628585815
","x: 275.8340148925781
y: 314.2257385253906
z: 0.04096290469169617
visibility: 0.8534505367279053
","x: 217.3769989013672
y: 297.70953369140625
z: 0.01201385073363781
visibility: 0.9607649445533752
","x: 268.3957824707031
y: 343.1814880371094
z: 0.10681947320699692
visibility: 0.3998623788356781
","x: 219.7130889892578
y: 332.5206298828125
z: 0.03125642612576485
visibility: 0.7123526930809021
","x: 266.3545837402344
y: 353.3063049316406
z: 0.11123838275671005
visibility: 0.26268917322158813
","x: 220.42689514160156
y: 343.39984130859375
z: 0.031379636377096176
visibility: 0.5512067079544067
","x: 265.0527648925781
y: 351.3016357421875
z: 0.08963178098201752
visibility: 0.26973241567611694
","x: 222.99514770507812
y: 343.51922607421875
z: 0.01357605867087841
visibility: 0.5486922264099121
","x: 265.2280578613281
y: 347.1859130859375
z: 0.10091136395931244
visibility: 0.2553196847438812
","x: 223.24644470214844
y: 339.8177490234375
z: 0.026214411482214928
visibility: 0.5318638682365417
","x: 255.19827270507812
y: 372.7984619140625
z: 0.0005710494006052613
visibility: 0.997941255569458
","x: 235.07106018066406
y: 371.015380859375
z: -0.0006640731589868665
visibility: 0.9990730285644531
","x: 250.32623291015625
y: 438.6134338378906
z: 0.01048666425049305
visibility: 0.9926403164863586
","x: 234.44473266601562
y: 439.7362060546875
z: -0.0568007156252861
visibility: 0.9939802885055542
","x: 249.89662170410156
y: 500.6887512207031
z: 0.12449600547552109
visibility: 0.9939635396003723
","x: 230.14804077148438
y: 501.83935546875
z: 0.03398063778877258
visibility: 0.9936578273773193
","x: 247.10694885253906
y: 509.1018981933594
z: 0.12980912625789642
visibility: 0.9069202542304993
","x: 231.33953857421875
y: 510.1492004394531
z: 0.03724535554647446
visibility: 0.8866553902626038
","x: 253.08262634277344
y: 519.2171630859375
z: 0.03519630432128906
visibility: 0.9891294836997986
","x: 230.26119995117188
y: 521.1171875
z: -0.06730754673480988
visibility: 0.9894998669624329
",4.857890367507935,,,,,,,,,,,,,,,,,,,,,,,,,,,,,,,,,,,,,,,,,,
6,"x: 254.53436279296875
y: 253.10731506347656
z: -0.2651653587818146
visibility: 0.9998267292976379
","x: 256.16748046875
y: 249.2343292236328
z: -0.2551615834236145
visibility: 0.999488353729248
","x: 257.322021484375
y: 249.65028381347656
z: -0.25510746240615845
visibility: 0.9995207786560059
","x: 258.47735595703125
y: 250.06407165527344
z: -0.255158007144928
visibility: 0.9994123578071594
","x: 252.80760192871094
y: 248.58502197265625
z: -0.254757285118103
visibility: 0.999591052532196
","x: 251.5469207763672
y: 248.61715698242188
z: -0.25483226776123047
visibility: 0.9996770620346069
","x: 250.22715759277344
y: 248.62826538085938
z: -0.25483837723731995
visibility: 0.9997346997261047
","x: 260.2948303222656
y: 253.7019500732422
z: -0.17200589179992676
visibility: 0.9989451766014099
","x: 247.88681030273438
y: 252.33676147460938
z: -0.1712052822113037
visibility: 0.9996244311332703
","x: 256.3629455566406
y: 260.3999938964844
z: -0.2321869432926178
visibility: 0.999637246131897
","x: 251.79605102539062
y: 259.6171875
z: -0.23213894665241241
visibility: 0.9996910691261292
","x: 269.74896240234375
y: 286.4903564453125
z: -0.08734935522079468
visibility: 0.9991456270217896
","x: 234.03842163085938
y: 278.5158386230469
z: -0.0857502669095993
visibility: 0.999803364276886
","x: 276.427978515625
y: 310.65167236328125
z: 0.051648497581481934
visibility: 0.858138918876648
","x: 219.86334228515625
y: 292.6661376953125
z: 0.01612924598157406
visibility: 0.9617761969566345
","x: 269.9872131347656
y: 336.7391357421875
z: 0.15499906241893768
visibility: 0.4174955487251282
","x: 221.83505249023438
y: 327.11138916015625
z: 0.050316739827394485
visibility: 0.7160562872886658
","x: 266.09332275390625
y: 349.85247802734375
z: 0.16949230432510376
visibility: 0.271328330039978
","x: 222.44613647460938
y: 337.571533203125
z: 0.05290734022855759
visibility: 0.5539792776107788
","x: 265.102783203125
y: 348.16448974609375
z: 0.1515570431947708
visibility: 0.2789180278778076
","x: 224.96800231933594
y: 337.92523193359375
z: 0.03666900843381882
visibility: 0.5520994663238525
","x: 265.5408020019531
y: 344.81121826171875
z: 0.15227118134498596
visibility: 0.2629064619541168
","x: 225.26614379882812
y: 334.37890625
z: 0.04594545438885689
visibility: 0.5354638695716858
","x: 256.68505859375
y: 372.78875732421875
z: 0.001273903762921691
visibility: 0.9976621866226196
","x: 236.76083374023438
y: 369.3289489746094
z: -0.0013640623074024916
visibility: 0.9990033507347107
","x: 251.04852294921875
y: 438.4345703125
z: 0.006745577789843082
visibility: 0.9918969869613647
","x: 236.87722778320312
y: 438.23736572265625
z: -0.055653005838394165
visibility: 0.9935302138328552
","x: 249.8833465576172
y: 500.75799560546875
z: 0.09425652772188187
visibility: 0.9934083223342896
","x: 231.6668243408203
y: 501.5992736816406
z: 0.028581634163856506
visibility: 0.9930946230888367
","x: 247.11444091796875
y: 509.2564392089844
z: 0.09706012904644012
visibility: 0.9038810133934021
","x: 232.46803283691406
y: 510.0074768066406
z: 0.031345102936029434
visibility: 0.8775719404220581
","x: 252.80596923828125
y: 518.4672241210938
z: 0.007941209711134434
visibility: 0.9883809089660645
","x: 232.7347412109375
y: 519.9036254882812
z: -0.06856309622526169
visibility: 0.988976001739502
",5.014261484146118,,,,,,,,,,,,,,,,,,,,,,,,,,,,,,,,,,,,,,,,,,
7,"x: 254.53436279296875
y: 253.10731506347656
z: -0.2651653587818146
visibility: 0.9998267292976379
","x: 256.16748046875
y: 249.2343292236328
z: -0.2551615834236145
visibility: 0.999488353729248
","x: 257.322021484375
y: 249.65028381347656
z: -0.25510746240615845
visibility: 0.9995207786560059
","x: 258.47735595703125
y: 250.06407165527344
z: -0.255158007144928
visibility: 0.9994123578071594
","x: 252.80760192871094
y: 248.58502197265625
z: -0.254757285118103
visibility: 0.999591052532196
","x: 251.5469207763672
y: 248.61715698242188
z: -0.25483226776123047
visibility: 0.9996770620346069
","x: 250.22715759277344
y: 248.62826538085938
z: -0.25483837723731995
visibility: 0.9997346997261047
","x: 260.2948303222656
y: 253.7019500732422
z: -0.17200589179992676
visibility: 0.9989451766014099
","x: 247.88681030273438
y: 252.33676147460938
z: -0.1712052822113037
visibility: 0.9996244311332703
","x: 256.3629455566406
y: 260.3999938964844
z: -0.2321869432926178
visibility: 0.999637246131897
","x: 251.79605102539062
y: 259.6171875
z: -0.23213894665241241
visibility: 0.9996910691261292
","x: 269.74896240234375
y: 286.4903564453125
z: -0.08734935522079468
visibility: 0.9991456270217896
","x: 234.03842163085938
y: 278.5158386230469
z: -0.0857502669095993
visibility: 0.999803364276886
","x: 276.427978515625
y: 310.65167236328125
z: 0.051648497581481934
visibility: 0.858138918876648
","x: 219.86334228515625
y: 292.6661376953125
z: 0.01612924598157406
visibility: 0.9617761969566345
","x: 269.9872131347656
y: 336.7391357421875
z: 0.15499906241893768
visibility: 0.4174955487251282
","x: 221.83505249023438
y: 327.11138916015625
z: 0.050316739827394485
visibility: 0.7160562872886658
","x: 266.09332275390625
y: 349.85247802734375
z: 0.16949230432510376
visibility: 0.271328330039978
","x: 222.44613647460938
y: 337.571533203125
z: 0.05290734022855759
visibility: 0.5539792776107788
","x: 265.102783203125
y: 348.16448974609375
z: 0.1515570431947708
visibility: 0.2789180278778076
","x: 224.96800231933594
y: 337.92523193359375
z: 0.03666900843381882
visibility: 0.5520994663238525
","x: 265.5408020019531
y: 344.81121826171875
z: 0.15227118134498596
visibility: 0.2629064619541168
","x: 225.26614379882812
y: 334.37890625
z: 0.04594545438885689
visibility: 0.5354638695716858
","x: 256.68505859375
y: 372.78875732421875
z: 0.001273903762921691
visibility: 0.9976621866226196
","x: 236.76083374023438
y: 369.3289489746094
z: -0.0013640623074024916
visibility: 0.9990033507347107
","x: 251.04852294921875
y: 438.4345703125
z: 0.006745577789843082
visibility: 0.9918969869613647
","x: 236.87722778320312
y: 438.23736572265625
z: -0.055653005838394165
visibility: 0.9935302138328552
","x: 249.8833465576172
y: 500.75799560546875
z: 0.09425652772188187
visibility: 0.9934083223342896
","x: 231.6668243408203
y: 501.5992736816406
z: 0.028581634163856506
visibility: 0.9930946230888367
","x: 247.11444091796875
y: 509.2564392089844
z: 0.09706012904644012
visibility: 0.9038810133934021
","x: 232.46803283691406
y: 510.0074768066406
z: 0.031345102936029434
visibility: 0.8775719404220581
","x: 252.80596923828125
y: 518.4672241210938
z: 0.007941209711134434
visibility: 0.9883809089660645
","x: 232.7347412109375
y: 519.9036254882812
z: -0.06856309622526169
visibility: 0.988976001739502
",5.014261484146118,,,,,,,,,,,,,,,,,,,,,,,,,,,,,,,,,,,,,,,,,,
8,"x: 254.64608764648438
y: 252.92581176757812
z: -0.2932494282722473
visibility: 0.9998376965522766
","x: 256.5460205078125
y: 249.28514099121094
z: -0.28079017996788025
visibility: 0.9995157718658447
","x: 257.69610595703125
y: 249.81590270996094
z: -0.28072473406791687
visibility: 0.9995442032814026
","x: 258.88177490234375
y: 250.3704071044922
z: -0.28075140714645386
visibility: 0.999439001083374
","x: 253.3518829345703
y: 248.43003845214844
z: -0.2806002199649811
visibility: 0.9996175765991211
","x: 252.1963653564453
y: 248.39669799804688
z: -0.28066328167915344
visibility: 0.9996972680091858
","x: 250.94313049316406
y: 248.37002563476562
z: -0.28065142035484314
visibility: 0.9997507333755493
","x: 260.74444580078125
y: 254.4912872314453
z: -0.18791137635707855
visibility: 0.9989815950393677
","x: 248.11778259277344
y: 252.1675262451172
z: -0.18815866112709045
visibility: 0.9996428489685059
","x: 256.30072021484375
y: 260.2880554199219
z: -0.2571682631969452
visibility: 0.9996479153633118
","x: 251.9076385498047
y: 259.4482727050781
z: -0.25740426778793335
visibility: 0.9997034668922424
","x: 269.336669921875
y: 287.7475280761719
z: -0.09870737791061401
visibility: 0.9991375803947449
","x: 234.53192138671875
y: 278.6268310546875
z: -0.09832058846950531
visibility: 0.999812662601471
","x: 275.6298522949219
y: 312.3155517578125
z: 0.03526385501027107
visibility: 0.866778552532196
","x: 219.50607299804688
y: 295.725830078125
z: -0.0025685641448944807
visibility: 0.9639743566513062
","x: 270.5931091308594
y: 341.57470703125
z: 0.10513943433761597
visibility: 0.446523517370224
","x: 220.82644653320312
y: 329.5161437988281
z: 0.013708087615668774
visibility: 0.7313502430915833
","x: 267.90435791015625
y: 357.4642639160156
z: 0.11604664474725723
visibility: 0.29045912623405457
","x: 221.92303466796875
y: 340.24237060546875
z: 0.014976544305682182
visibility: 0.5702775120735168
","x: 266.0634765625
y: 357.7557678222656
z: 0.0942215546965599
visibility: 0.29901736974716187
","x: 224.4518280029297
y: 340.0933532714844
z: -0.002763045020401478
visibility: 0.5689849257469177
","x: 266.3248291015625
y: 351.7768859863281
z: 0.09989023208618164
visibility: 0.28116345405578613
","x: 224.6758575439453
y: 336.49041748046875
z: 0.008849326521158218
visibility: 0.5519176125526428
","x: 257.15155029296875
y: 372.414794921875
z: 0.0012441499857231975
visibility: 0.9975405931472778
","x: 236.9909210205078
y: 369.1651916503906
z: -0.0013412059051916003
visibility: 0.9990118741989136
","x: 251.33563232421875
y: 437.16485595703125
z: 0.004759813658893108
visibility: 0.9914398789405823
","x: 237.88291931152344
y: 437.0489196777344
z: -0.05400663614273071
visibility: 0.9931680560112
","x: 249.87991333007812
y: 500.4896240234375
z: 0.09475520253181458
visibility: 0.9931206703186035
","x: 234.52117919921875
y: 500.8772277832031
z: 0.03554766997694969
visibility: 0.9929407835006714
","x: 247.24417114257812
y: 509.2193908691406
z: 0.09789708256721497
visibility: 0.9026049971580505
","x: 235.4795379638672
y: 510.0166320800781
z: 0.03805067762732506
visibility: 0.8770708441734314
","x: 252.22369384765625
y: 517.8032836914062
z: 0.0049301013350486755
visibility: 0.9883307814598083
","x: 233.6907958984375
y: 518.5238037109375
z: -0.06550301611423492
visibility: 0.9890789985656738
",5.141422271728516,,,,,,,,,,,,,,,,,,,,,,,,,,,,,,,,,,,,,,,,,,
9,"x: 254.64608764648438
y: 252.92581176757812
z: -0.2932494282722473
visibility: 0.9998376965522766
","x: 256.5460205078125
y: 249.28514099121094
z: -0.28079017996788025
visibility: 0.9995157718658447
","x: 257.69610595703125
y: 249.81590270996094
z: -0.28072473406791687
visibility: 0.9995442032814026
","x: 258.88177490234375
y: 250.3704071044922
z: -0.28075140714645386
visibility: 0.999439001083374
","x: 253.3518829345703
y: 248.43003845214844
z: -0.2806002199649811
visibility: 0.9996175765991211
","x: 252.1963653564453
y: 248.39669799804688
z: -0.28066328167915344
visibility: 0.9996972680091858
","x: 250.94313049316406
y: 248.37002563476562
z: -0.28065142035484314
visibility: 0.9997507333755493
","x: 260.74444580078125
y: 254.4912872314453
z: -0.18791137635707855
visibility: 0.9989815950393677
","x: 248.11778259277344
y: 252.1675262451172
z: -0.18815866112709045
visibility: 0.9996428489685059
","x: 256.30072021484375
y: 260.2880554199219
z: -0.2571682631969452
visibility: 0.9996479153633118
","x: 251.9076385498047
y: 259.4482727050781
z: -0.25740426778793335
visibility: 0.9997034668922424
","x: 269.336669921875
y: 287.7475280761719
z: -0.09870737791061401
visibility: 0.9991375803947449
","x: 234.53192138671875
y: 278.6268310546875
z: -0.09832058846950531
visibility: 0.999812662601471
","x: 275.6298522949219
y: 312.3155517578125
z: 0.03526385501027107
visibility: 0.866778552532196
","x: 219.50607299804688
y: 295.725830078125
z: -0.0025685641448944807
visibility: 0.9639743566513062
","x: 270.5931091308594
y: 341.57470703125
z: 0.10513943433761597
visibility: 0.446523517370224
","x: 220.82644653320312
y: 329.5161437988281
z: 0.013708087615668774
visibility: 0.7313502430915833
","x: 267.90435791015625
y: 357.4642639160156
z: 0.11604664474725723
visibility: 0.29045912623405457
","x: 221.92303466796875
y: 340.24237060546875
z: 0.014976544305682182
visibility: 0.5702775120735168
","x: 266.0634765625
y: 357.7557678222656
z: 0.0942215546965599
visibility: 0.29901736974716187
","x: 224.4518280029297
y: 340.0933532714844
z: -0.002763045020401478
visibility: 0.5689849257469177
","x: 266.3248291015625
y: 351.7768859863281
z: 0.09989023208618164
visibility: 0.28116345405578613
","x: 224.6758575439453
y: 336.49041748046875
z: 0.008849326521158218
visibility: 0.5519176125526428
","x: 257.15155029296875
y: 372.414794921875
z: 0.0012441499857231975
visibility: 0.9975405931472778
","x: 236.9909210205078
y: 369.1651916503906
z: -0.0013412059051916003
visibility: 0.9990118741989136
","x: 251.33563232421875
y: 437.16485595703125
z: 0.004759813658893108
visibility: 0.9914398789405823
","x: 237.88291931152344
y: 437.0489196777344
z: -0.05400663614273071
visibility: 0.9931680560112
","x: 249.87991333007812
y: 500.4896240234375
z: 0.09475520253181458
visibility: 0.9931206703186035
","x: 234.52117919921875
y: 500.8772277832031
z: 0.03554766997694969
visibility: 0.9929407835006714
","x: 247.24417114257812
y: 509.2193908691406
z: 0.09789708256721497
visibility: 0.9026049971580505
","x: 235.4795379638672
y: 510.0166320800781
z: 0.03805067762732506
visibility: 0.8770708441734314
","x: 252.22369384765625
y: 517.8032836914062
z: 0.0049301013350486755
visibility: 0.9883307814598083
","x: 233.6907958984375
y: 518.5238037109375
z: -0.06550301611423492
visibility: 0.9890789985656738
",5.141422271728516,,,,,,,,,,,,,,,,,,,,,,,,,,,,,,,,,,,,,,,,,,
10,"x: 253.9849090576172
y: 252.7761993408203
z: -0.36002206802368164
visibility: 0.9998530745506287
","x: 255.67330932617188
y: 249.1632080078125
z: -0.3455672860145569
visibility: 0.9995606541633606
","x: 256.7259521484375
y: 249.64585876464844
z: -0.3455318510532379
visibility: 0.9995869994163513
","x: 257.8447265625
y: 250.15565490722656
z: -0.34554868936538696
visibility: 0.9994909167289734
","x: 252.562744140625
y: 248.27359008789062
z: -0.34631702303886414
visibility: 0.9996526837348938
","x: 251.38449096679688
y: 248.15115356445312
z: -0.34637412428855896
visibility: 0.9997250437736511
","x: 250.13108825683594
y: 248.0180206298828
z: -0.34634098410606384
visibility: 0.9997723698616028
","x: 259.80328369140625
y: 254.198974609375
z: -0.24352213740348816
visibility: 0.9990769624710083
","x: 247.03428649902344
y: 252.03488159179688
z: -0.24906086921691895
visibility: 0.9996739625930786
","x: 255.5522918701172
y: 260.0918884277344
z: -0.3210521638393402
visibility: 0.9996803998947144
","x: 251.07571411132812
y: 259.3270263671875
z: -0.322742223739624
visibility: 0.9997293949127197
","x: 268.58880615234375
y: 288.3806457519531
z: -0.1537189781665802
visibility: 0.9992192983627319
","x: 234.18292236328125
y: 280.2209167480469
z: -0.14453507959842682
visibility: 0.9998233914375305
","x: 277.0558776855469
y: 318.35284423828125
z: -0.044190701097249985
visibility: 0.8796663284301758
","x: 219.86488342285156
y: 305.1752014160156
z: -0.03617708757519722
visibility: 0.9658035039901733
","x: 277.4573974609375
y: 357.4401550292969
z: -0.02405836060643196
visibility: 0.5003399848937988
","x: 215.95298767089844
y: 340.11962890625
z: -0.017999034374952316
visibility: 0.7535848617553711
","x: 279.04351806640625
y: 368.9297790527344
z: -0.021051039919257164
visibility: 0.35531455278396606
","x: 212.12008666992188
y: 349.2967224121094
z: -0.017844172194600105
visibility: 0.6018872857093811
","x: 277.6227111816406
y: 369.7344970703125
z: -0.048532623797655106
visibility: 0.3636193573474884
","x: 213.385498046875
y: 351.0255432128906
z: -0.043059639632701874
visibility: 0.6013185381889343
","x: 276.4261474609375
y: 365.1820068359375
z: -0.03288751095533371
visibility: 0.3464800715446472
","x: 215.40184020996094
y: 348.4897155761719
z: -0.02637946978211403
visibility: 0.5850030779838562
","x: 256.6318664550781
y: 372.9942321777344
z: -0.001675342209637165
visibility: 0.997681200504303
","x: 236.8758544921875
y: 369.71697998046875
z: 0.0015651260036975145
visibility: 0.9990552663803101
","x: 251.30702209472656
y: 436.7087097167969
z: 0.02359282225370407
visibility: 0.9910635948181152
","x: 238.54925537109375
y: 437.2704772949219
z: -0.02341441623866558
visibility: 0.9927499890327454
","x: 249.88832092285156
y: 499.83819580078125
z: 0.14926159381866455
visibility: 0.9928390979766846
","x: 236.84490966796875
y: 500.43414306640625
z: 0.1103748306632042
visibility: 0.9926692247390747
","x: 247.39932250976562
y: 508.6865539550781
z: 0.15513178706169128
visibility: 0.9027940034866333
","x: 237.24761962890625
y: 509.9844970703125
z: 0.11662409454584122
visibility: 0.8777361512184143
","x: 252.22830200195312
y: 517.581298828125
z: 0.05383811518549919
visibility: 0.9882738590240479
","x: 235.33493041992188
y: 518.4697875976562
z: 0.010635772719979286
visibility: 0.9890559911727905
",5.296828985214233,,,,,,,,,,,,,,,,,,,,,,,,,,,,,,,,,,,,,,,,,,
11,"x: 253.9849090576172
y: 252.7761993408203
z: -0.36002206802368164
visibility: 0.9998530745506287
","x: 255.67330932617188
y: 249.1632080078125
z: -0.3455672860145569
visibility: 0.9995606541633606
","x: 256.7259521484375
y: 249.64585876464844
z: -0.3455318510532379
visibility: 0.9995869994163513
","x: 257.8447265625
y: 250.15565490722656
z: -0.34554868936538696
visibility: 0.9994909167289734
","x: 252.562744140625
y: 248.27359008789062
z: -0.34631702303886414
visibility: 0.9996526837348938
","x: 251.38449096679688
y: 248.15115356445312
z: -0.34637412428855896
visibility: 0.9997250437736511
","x: 250.13108825683594
y: 248.0180206298828
z: -0.34634098410606384
visibility: 0.9997723698616028
","x: 259.80328369140625
y: 254.198974609375
z: -0.24352213740348816
visibility: 0.9990769624710083
","x: 247.03428649902344
y: 252.03488159179688
z: -0.24906086921691895
visibility: 0.9996739625930786
","x: 255.5522918701172
y: 260.0918884277344
z: -0.3210521638393402
visibility: 0.9996803998947144
","x: 251.07571411132812
y: 259.3270263671875
z: -0.322742223739624
visibility: 0.9997293949127197
","x: 268.58880615234375
y: 288.3806457519531
z: -0.1537189781665802
visibility: 0.9992192983627319
","x: 234.18292236328125
y: 280.2209167480469
z: -0.14453507959842682
visibility: 0.9998233914375305
","x: 277.0558776855469
y: 318.35284423828125
z: -0.044190701097249985
visibility: 0.8796663284301758
","x: 219.86488342285156
y: 305.1752014160156
z: -0.03617708757519722
visibility: 0.9658035039901733
","x: 277.4573974609375
y: 357.4401550292969
z: -0.02405836060643196
visibility: 0.5003399848937988
","x: 215.95298767089844
y: 340.11962890625
z: -0.017999034374952316
visibility: 0.7535848617553711
","x: 279.04351806640625
y: 368.9297790527344
z: -0.021051039919257164
visibility: 0.35531455278396606
","x: 212.12008666992188
y: 349.2967224121094
z: -0.017844172194600105
visibility: 0.6018872857093811
","x: 277.6227111816406
y: 369.7344970703125
z: -0.048532623797655106
visibility: 0.3636193573474884
","x: 213.385498046875
y: 351.0255432128906
z: -0.043059639632701874
visibility: 0.6013185381889343
","x: 276.4261474609375
y: 365.1820068359375
z: -0.03288751095533371
visibility: 0.3464800715446472
","x: 215.40184020996094
y: 348.4897155761719
z: -0.02637946978211403
visibility: 0.5850030779838562
","x: 256.6318664550781
y: 372.9942321777344
z: -0.001675342209637165
visibility: 0.997681200504303
","x: 236.8758544921875
y: 369.71697998046875
z: 0.0015651260036975145
visibility: 0.9990552663803101
","x: 251.30702209472656
y: 436.7087097167969
z: 0.02359282225370407
visibility: 0.9910635948181152
","x: 238.54925537109375
y: 437.2704772949219
z: -0.02341441623866558
visibility: 0.9927499890327454
","x: 249.88832092285156
y: 499.83819580078125
z: 0.14926159381866455
visibility: 0.9928390979766846
","x: 236.84490966796875
y: 500.43414306640625
z: 0.1103748306632042
visibility: 0.9926692247390747
","x: 247.39932250976562
y: 508.6865539550781
z: 0.15513178706169128
visibility: 0.9027940034866333
","x: 237.24761962890625
y: 509.9844970703125
z: 0.11662409454584122
visibility: 0.8777361512184143
","x: 252.22830200195312
y: 517.581298828125
z: 0.05383811518549919
visibility: 0.9882738590240479
","x: 235.33493041992188
y: 518.4697875976562
z: 0.010635772719979286
visibility: 0.9890559911727905
",5.296828985214233,,,,,,,,,,,,,,,,,,,,,,,,,,,,,,,,,,,,,,,,,,
12,"x: 252.7902069091797
y: 252.60186767578125
z: -0.3001243472099304
visibility: 0.9998658895492554
","x: 254.5735626220703
y: 249.04600524902344
z: -0.28200969099998474
visibility: 0.999599039554596
","x: 255.62135314941406
y: 249.5247802734375
z: -0.2821243703365326
visibility: 0.9996238350868225
","x: 256.68389892578125
y: 250.01885986328125
z: -0.2821463346481323
visibility: 0.9995367527008057
","x: 251.20065307617188
y: 248.22979736328125
z: -0.290421724319458
visibility: 0.9996798038482666
","x: 249.91693115234375
y: 248.1204071044922
z: -0.290323406457901
visibility: 0.9997453093528748
","x: 248.6934814453125
y: 247.9729461669922
z: -0.2901966869831085
visibility: 0.9997861385345459
","x: 258.6587219238281
y: 254.04554748535156
z: -0.17627708613872528
visibility: 0.999161422252655
","x: 245.97731018066406
y: 251.9015655517578
z: -0.209048792719841
visibility: 0.9996944665908813
","x: 254.66583251953125
y: 260.1282653808594
z: -0.25750523805618286
visibility: 0.9997099041938782
","x: 249.84881591796875
y: 259.3218994140625
z: -0.2688767910003662
visibility: 0.999751627445221
","x: 267.9233093261719
y: 288.4464111328125
z: -0.1036028042435646
visibility: 0.9992952942848206
","x: 233.63919067382812
y: 281.6858215332031
z: -0.10308603942394257
visibility: 0.9998056888580322
","x: 276.5822448730469
y: 320.096435546875
z: -0.00684686005115509
visibility: 0.891201376914978
","x: 221.88427734375
y: 309.2966003417969
z: 0.010301042348146439
visibility: 0.959799587726593
","x: 275.6138000488281
y: 355.7171325683594
z: -0.037436868995428085
visibility: 0.5481767058372498
","x: 221.83497619628906
y: 340.1832275390625
z: -0.005581653211265802
visibility: 0.7439422607421875
","x: 275.6556396484375
y: 367.1463623046875
z: -0.04815702885389328
visibility: 0.41249269247055054
","x: 220.53298950195312
y: 350.0413513183594
z: 0.011619120836257935
visibility: 0.5938140153884888
","x: 274.0020751953125
y: 366.408203125
z: -0.07483670860528946
visibility: 0.4207727313041687
","x: 222.9204559326172
y: 350.7900390625
z: -0.0012588659301400185
visibility: 0.5941340327262878
","x: 273.3525695800781
y: 361.94024658203125
z: -0.0477890707552433
visibility: 0.40366247296333313
","x: 224.29763793945312
y: 347.5027160644531
z: -0.011332282796502113
visibility: 0.57846599817276
","x: 256.5096435546875
y: 372.6585693359375
z: -0.0015047411434352398
visibility: 0.9978170990943909
","x: 236.85325622558594
y: 369.7860412597656
z: 0.0014492333866655827
visibility: 0.9990464448928833
","x: 251.3528289794922
y: 436.7535095214844
z: 0.01685132458806038
visibility: 0.9909088015556335
","x: 238.08279418945312
y: 437.20465087890625
z: -0.016922149807214737
visibility: 0.992439329624176
","x: 249.9454345703125
y: 499.7602844238281
z: 0.13121144473552704
visibility: 0.9926168918609619
","x: 236.84173583984375
y: 499.36102294921875
z: 0.10724107176065445
visibility: 0.9923182725906372
","x: 247.5258026123047
y: 508.4336853027344
z: 0.1361483633518219
visibility: 0.9042444229125977
","x: 237.3877716064453
y: 508.5947265625
z: 0.11267322301864624
visibility: 0.8763587474822998
","x: 252.13348388671875
y: 517.8131713867188
z: 0.03466992452740669
visibility: 0.9881334900856018
","x: 236.0087890625
y: 518.3758544921875
z: 0.008212683722376823
visibility: 0.9885774850845337
",5.4216344356536865,,,,,,,,,,,,,,,,,,,,,,,,,,,,,,,,,,,,,,,,,,
13,"x: 252.7902069091797
y: 252.60186767578125
z: -0.3001243472099304
visibility: 0.9998658895492554
","x: 254.5735626220703
y: 249.04600524902344
z: -0.28200969099998474
visibility: 0.999599039554596
","x: 255.62135314941406
y: 249.5247802734375
z: -0.2821243703365326
visibility: 0.9996238350868225
","x: 256.68389892578125
y: 250.01885986328125
z: -0.2821463346481323
visibility: 0.9995367527008057
","x: 251.20065307617188
y: 248.22979736328125
z: -0.290421724319458
visibility: 0.9996798038482666
","x: 249.91693115234375
y: 248.1204071044922
z: -0.290323406457901
visibility: 0.9997453093528748
","x: 248.6934814453125
y: 247.9729461669922
z: -0.2901966869831085
visibility: 0.9997861385345459
","x: 258.6587219238281
y: 254.04554748535156
z: -0.17627708613872528
visibility: 0.999161422252655
","x: 245.97731018066406
y: 251.9015655517578
z: -0.209048792719841
visibility: 0.9996944665908813
","x: 254.66583251953125
y: 260.1282653808594
z: -0.25750523805618286
visibility: 0.9997099041938782
","x: 249.84881591796875
y: 259.3218994140625
z: -0.2688767910003662
visibility: 0.999751627445221
","x: 267.9233093261719
y: 288.4464111328125
z: -0.1036028042435646
visibility: 0.9992952942848206
","x: 233.63919067382812
y: 281.6858215332031
z: -0.10308603942394257
visibility: 0.9998056888580322
","x: 276.5822448730469
y: 320.096435546875
z: -0.00684686005115509
visibility: 0.891201376914978
","x: 221.88427734375
y: 309.2966003417969
z: 0.010301042348146439
visibility: 0.959799587726593
","x: 275.6138000488281
y: 355.7171325683594
z: -0.037436868995428085
visibility: 0.5481767058372498
","x: 221.83497619628906
y: 340.1832275390625
z: -0.005581653211265802
visibility: 0.7439422607421875
","x: 275.6556396484375
y: 367.1463623046875
z: -0.04815702885389328
visibility: 0.41249269247055054
","x: 220.53298950195312
y: 350.0413513183594
z: 0.011619120836257935
visibility: 0.5938140153884888
","x: 274.0020751953125
y: 366.408203125
z: -0.07483670860528946
visibility: 0.4207727313041687
","x: 222.9204559326172
y: 350.7900390625
z: -0.0012588659301400185
visibility: 0.5941340327262878
","x: 273.3525695800781
y: 361.94024658203125
z: -0.0477890707552433
visibility: 0.40366247296333313
","x: 224.29763793945312
y: 347.5027160644531
z: -0.011332282796502113
visibility: 0.57846599817276
","x: 256.5096435546875
y: 372.6585693359375
z: -0.0015047411434352398
visibility: 0.9978170990943909
","x: 236.85325622558594
y: 369.7860412597656
z: 0.0014492333866655827
visibility: 0.9990464448928833
","x: 251.3528289794922
y: 436.7535095214844
z: 0.01685132458806038
visibility: 0.9909088015556335
","x: 238.08279418945312
y: 437.20465087890625
z: -0.016922149807214737
visibility: 0.992439329624176
","x: 249.9454345703125
y: 499.7602844238281
z: 0.13121144473552704
visibility: 0.9926168918609619
","x: 236.84173583984375
y: 499.36102294921875
z: 0.10724107176065445
visibility: 0.9923182725906372
","x: 247.5258026123047
y: 508.4336853027344
z: 0.1361483633518219
visibility: 0.9042444229125977
","x: 237.3877716064453
y: 508.5947265625
z: 0.11267322301864624
visibility: 0.8763587474822998
","x: 252.13348388671875
y: 517.8131713867188
z: 0.03466992452740669
visibility: 0.9881334900856018
","x: 236.0087890625
y: 518.3758544921875
z: 0.008212683722376823
visibility: 0.9885774850845337
",5.4216344356536865,,,,,,,,,,,,,,,,,,,,,,,,,,,,,,,,,,,,,,,,,,
14,"x: 251.9383544921875
y: 249.0625762939453
z: -0.18158435821533203
visibility: 0.9998779296875
","x: 253.57308959960938
y: 245.0936737060547
z: -0.16680331528186798
visibility: 0.999636173248291
","x: 254.6739501953125
y: 245.36978149414062
z: -0.16682805120944977
visibility: 0.9996581077575684
","x: 255.72930908203125
y: 245.64691162109375
z: -0.16683219373226166
visibility: 0.9995797276496887
","x: 250.12338256835938
y: 244.87680053710938
z: -0.1675942987203598
visibility: 0.9997088313102722
","x: 248.8839874267578
y: 245.0335693359375
z: -0.16760312020778656
visibility: 0.9997674822807312
","x: 247.6759490966797
y: 245.169189453125
z: -0.16758689284324646
visibility: 0.9998044967651367
","x: 257.5449523925781
y: 249.56304931640625
z: -0.07465038448572159
visibility: 0.9992395043373108
","x: 245.37606811523438
y: 248.77804565429688
z: -0.07888935506343842
visibility: 0.9997203350067139
","x: 254.15554809570312
y: 256.213134765625
z: -0.14694908261299133
visibility: 0.9997376203536987
","x: 249.3160858154297
y: 256.0399169921875
z: -0.14835454523563385
visibility: 0.9997754096984863
","x: 267.4229736328125
y: 285.81243896484375
z: -0.024414125829935074
visibility: 0.9993640184402466
","x: 233.02151489257812
y: 279.08807373046875
z: -0.01941997930407524
visibility: 0.9998205304145813
","x: 275.2275695800781
y: 319.26068115234375
z: -0.05512769892811775
visibility: 0.901292085647583
","x: 219.77505493164062
y: 307.5269775390625
z: -0.05360961705446243
visibility: 0.9629132747650146
","x: 272.1922302246094
y: 341.9378356933594
z: -0.21640059351921082
visibility: 0.5920706391334534
","x: 222.53506469726562
y: 323.11431884765625
z: -0.2152804136276245
visibility: 0.7678806185722351
","x: 271.17987060546875
y: 350.3381652832031
z: -0.25635915994644165
visibility: 0.46829867362976074
","x: 224.17547607421875
y: 330.58184814453125
z: -0.25205332040786743
visibility: 0.6309249401092529
","x: 269.47088623046875
y: 346.5340881347656
z: -0.27087825536727905
visibility: 0.4759233891963959
","x: 226.49789428710938
y: 326.837158203125
z: -0.2626914381980896
visibility: 0.6312713027000427
","x: 269.1639404296875
y: 343.5318603515625
z: -0.22533245384693146
visibility: 0.4591526389122009
","x: 226.50503540039062
y: 324.1343994140625
z: -0.22257736325263977
visibility: 0.6157801151275635
","x: 255.80978393554688
y: 368.7826843261719
z: -0.0013489208649843931
visibility: 0.997999906539917
","x: 236.126708984375
y: 365.6116943359375
z: 0.0012972760014235973
visibility: 0.9991086721420288
","x: 251.22145080566406
y: 435.4951171875
z: -0.004562536720186472
visibility: 0.9910492897033691
","x: 237.2846221923828
y: 434.6534423828125
z: -0.010181527584791183
visibility: 0.9923644661903381
","x: 250.29310607910156
y: 498.2484436035156
z: 0.1072765588760376
visibility: 0.9926313757896423
","x: 236.7803955078125
y: 495.8781433105469
z: 0.10505886375904083
visibility: 0.9922290444374084
","x: 247.80313110351562
y: 506.4996337890625
z: 0.11224721372127533
visibility: 0.906145453453064
","x: 237.21241760253906
y: 505.5687255859375
z: 0.11022143065929413
visibility: 0.8764498829841614
","x: 252.15428161621094
y: 517.743408203125
z: 0.005456958431750536
visibility: 0.988252580165863
","x: 234.49781799316406
y: 517.1981201171875
z: 0.00776654714718461
visibility: 0.98836749792099
",5.546520471572876,,,,,,,,,,,,,,,,,,,,,,,,,,,,,,,,,,,,,,,,,,
15,"x: 251.9383544921875
y: 249.0625762939453
z: -0.18158435821533203
visibility: 0.9998779296875
","x: 253.57308959960938
y: 245.0936737060547
z: -0.16680331528186798
visibility: 0.999636173248291
","x: 254.6739501953125
y: 245.36978149414062
z: -0.16682805120944977
visibility: 0.9996581077575684
","x: 255.72930908203125
y: 245.64691162109375
z: -0.16683219373226166
visibility: 0.9995797276496887
","x: 250.12338256835938
y: 244.87680053710938
z: -0.1675942987203598
visibility: 0.9997088313102722
","x: 248.8839874267578
y: 245.0335693359375
z: -0.16760312020778656
visibility: 0.9997674822807312
","x: 247.6759490966797
y: 245.169189453125
z: -0.16758689284324646
visibility: 0.9998044967651367
","x: 257.5449523925781
y: 249.56304931640625
z: -0.07465038448572159
visibility: 0.9992395043373108
","x: 245.37606811523438
y: 248.77804565429688
z: -0.07888935506343842
visibility: 0.9997203350067139
","x: 254.15554809570312
y: 256.213134765625
z: -0.14694908261299133
visibility: 0.9997376203536987
","x: 249.3160858154297
y: 256.0399169921875
z: -0.14835454523563385
visibility: 0.9997754096984863
","x: 267.4229736328125
y: 285.81243896484375
z: -0.024414125829935074
visibility: 0.9993640184402466
","x: 233.02151489257812
y: 279.08807373046875
z: -0.01941997930407524
visibility: 0.9998205304145813
","x: 275.2275695800781
y: 319.26068115234375
z: -0.05512769892811775
visibility: 0.901292085647583
","x: 219.77505493164062
y: 307.5269775390625
z: -0.05360961705446243
visibility: 0.9629132747650146
","x: 272.1922302246094
y: 341.9378356933594
z: -0.21640059351921082
visibility: 0.5920706391334534
","x: 222.53506469726562
y: 323.11431884765625
z: -0.2152804136276245
visibility: 0.7678806185722351
","x: 271.17987060546875
y: 350.3381652832031
z: -0.25635915994644165
visibility: 0.46829867362976074
","x: 224.17547607421875
y: 330.58184814453125
z: -0.25205332040786743
visibility: 0.6309249401092529
","x: 269.47088623046875
y: 346.5340881347656
z: -0.27087825536727905
visibility: 0.4759233891963959
","x: 226.49789428710938
y: 326.837158203125
z: -0.2626914381980896
visibility: 0.6312713027000427
","x: 269.1639404296875
y: 343.5318603515625
z: -0.22533245384693146
visibility: 0.4591526389122009
","x: 226.50503540039062
y: 324.1343994140625
z: -0.22257736325263977
visibility: 0.6157801151275635
","x: 255.80978393554688
y: 368.7826843261719
z: -0.0013489208649843931
visibility: 0.997999906539917
","x: 236.126708984375
y: 365.6116943359375
z: 0.0012972760014235973
visibility: 0.9991086721420288
","x: 251.22145080566406
y: 435.4951171875
z: -0.004562536720186472
visibility: 0.9910492897033691
","x: 237.2846221923828
y: 434.6534423828125
z: -0.010181527584791183
visibility: 0.9923644661903381
","x: 250.29310607910156
y: 498.2484436035156
z: 0.1072765588760376
visibility: 0.9926313757896423
","x: 236.7803955078125
y: 495.8781433105469
z: 0.10505886375904083
visibility: 0.9922290444374084
","x: 247.80313110351562
y: 506.4996337890625
z: 0.11224721372127533
visibility: 0.906145453453064
","x: 237.21241760253906
y: 505.5687255859375
z: 0.11022143065929413
visibility: 0.8764498829841614
","x: 252.15428161621094
y: 517.743408203125
z: 0.005456958431750536
visibility: 0.988252580165863
","x: 234.49781799316406
y: 517.1981201171875
z: 0.00776654714718461
visibility: 0.98836749792099
",5.546520471572876,,,,,,,,,,,,,,,,,,,,,,,,,,,,,,,,,,,,,,,,,,
16,"x: 251.2008819580078
y: 249.382080078125
z: -0.18204429745674133
visibility: 0.9998869299888611
","x: 252.79312133789062
y: 245.1065216064453
z: -0.1671474277973175
visibility: 0.9996659159660339
","x: 253.87350463867188
y: 245.41799926757812
z: -0.16716477274894714
visibility: 0.9996850490570068
","x: 254.95095825195312
y: 245.7211456298828
z: -0.16717204451560974
visibility: 0.9996147155761719
","x: 249.3496551513672
y: 245.0654296875
z: -0.16815605759620667
visibility: 0.9997316002845764
","x: 248.12347412109375
y: 245.2836456298828
z: -0.16816894710063934
visibility: 0.9997832775115967
","x: 246.94810485839844
y: 245.46522521972656
z: -0.16818061470985413
visibility: 0.9998173117637634
","x: 256.8473815917969
y: 249.7469482421875
z: -0.07176141440868378
visibility: 0.9992970824241638
","x: 244.57254028320312
y: 248.9722900390625
z: -0.07720125466585159
visibility: 0.9997369050979614
","x: 253.34255981445312
y: 256.23590087890625
z: -0.14596641063690186
visibility: 0.9997597932815552
","x: 248.54811096191406
y: 256.40228271484375
z: -0.1476331353187561
visibility: 0.9997947812080383
","x: 266.9045104980469
y: 285.423828125
z: -0.013936616480350494
visibility: 0.9994230270385742
","x: 232.07916259765625
y: 279.005859375
z: -0.016512619331479073
visibility: 0.9998309016227722
","x: 274.2953186035156
y: 320.31695556640625
z: -0.058755941689014435
visibility: 0.9099370837211609
","x: 218.87704467773438
y: 312.18511962890625
z: -0.03783538565039635
visibility: 0.9656720757484436
","x: 271.5323181152344
y: 335.99346923828125
z: -0.23736877739429474
visibility: 0.6315292716026306
","x: 226.82452392578125
y: 325.9558410644531
z: -0.1647975742816925
visibility: 0.788930356502533
","x: 268.0827941894531
y: 344.3348693847656
z: -0.2794363796710968
visibility: 0.5185803174972534
","x: 229.30856323242188
y: 335.62908935546875
z: -0.19743777811527252
visibility: 0.6632446050643921
","x: 266.5440368652344
y: 339.89019775390625
z: -0.2923676371574402
visibility: 0.5256255865097046
","x: 231.83387756347656
y: 333.3236999511719
z: -0.207849383354187
visibility: 0.6635818481445312
","x: 267.2674865722656
y: 337.11920166015625
z: -0.24597077071666718
visibility: 0.5087924599647522
","x: 231.63436889648438
y: 330.3011779785156
z: -0.17044898867607117
visibility: 0.6474786400794983
","x: 255.276611328125
y: 369.0102844238281
z: 0.001672381185926497
visibility: 0.9980934858322144
","x: 235.63160705566406
y: 365.86065673828125
z: -0.001649082638323307
visibility: 0.99913489818573
","x: 251.10096740722656
y: 435.4920959472656
z: 0.0038063854444772005
visibility: 0.9903098344802856
","x: 237.1530303955078
y: 434.6629333496094
z: -0.015536556951701641
visibility: 0.992236852645874
","x: 250.3996124267578
y: 498.7640075683594
z: 0.0954909548163414
visibility: 0.9923868775367737
","x: 233.68019104003906
y: 498.6846618652344
z: 0.08352099359035492
visibility: 0.9921376705169678
","x: 247.79666137695312
y: 507.3634033203125
z: 0.09806501865386963
visibility: 0.908729076385498
","x: 234.6666717529297
y: 509.0098876953125
z: 0.08585447818040848
visibility: 0.8761084079742432
","x: 252.4473876953125
y: 517.8154907226562
z: -0.005658197682350874
visibility: 0.9881343841552734
","x: 231.6730194091797
y: 517.348388671875
z: -0.020714981481432915
visibility: 0.9879311323165894
",5.671185731887817,,,,,,,,,,,,,,,,,,,,,,,,,,,,,,,,,,,,,,,,,,
17,"x: 251.2008819580078
y: 249.382080078125
z: -0.18204429745674133
visibility: 0.9998869299888611
","x: 252.79312133789062
y: 245.1065216064453
z: -0.1671474277973175
visibility: 0.9996659159660339
","x: 253.87350463867188
y: 245.41799926757812
z: -0.16716477274894714
visibility: 0.9996850490570068
","x: 254.95095825195312
y: 245.7211456298828
z: -0.16717204451560974
visibility: 0.9996147155761719
","x: 249.3496551513672
y: 245.0654296875
z: -0.16815605759620667
visibility: 0.9997316002845764
","x: 248.12347412109375
y: 245.2836456298828
z: -0.16816894710063934
visibility: 0.9997832775115967
","x: 246.94810485839844
y: 245.46522521972656
z: -0.16818061470985413
visibility: 0.9998173117637634
","x: 256.8473815917969
y: 249.7469482421875
z: -0.07176141440868378
visibility: 0.9992970824241638
","x: 244.57254028320312
y: 248.9722900390625
z: -0.07720125466585159
visibility: 0.9997369050979614
","x: 253.34255981445312
y: 256.23590087890625
z: -0.14596641063690186
visibility: 0.9997597932815552
","x: 248.54811096191406
y: 256.40228271484375
z: -0.1476331353187561
visibility: 0.9997947812080383
","x: 266.9045104980469
y: 285.423828125
z: -0.013936616480350494
visibility: 0.9994230270385742
","x: 232.07916259765625
y: 279.005859375
z: -0.016512619331479073
visibility: 0.9998309016227722
","x: 274.2953186035156
y: 320.31695556640625
z: -0.058755941689014435
visibility: 0.9099370837211609
","x: 218.87704467773438
y: 312.18511962890625
z: -0.03783538565039635
visibility: 0.9656720757484436
","x: 271.5323181152344
y: 335.99346923828125
z: -0.23736877739429474
visibility: 0.6315292716026306
","x: 226.82452392578125
y: 325.9558410644531
z: -0.1647975742816925
visibility: 0.788930356502533
","x: 268.0827941894531
y: 344.3348693847656
z: -0.2794363796710968
visibility: 0.5185803174972534
","x: 229.30856323242188
y: 335.62908935546875
z: -0.19743777811527252
visibility: 0.6632446050643921
","x: 266.5440368652344
y: 339.89019775390625
z: -0.2923676371574402
visibility: 0.5256255865097046
","x: 231.83387756347656
y: 333.3236999511719
z: -0.207849383354187
visibility: 0.6635818481445312
","x: 267.2674865722656
y: 337.11920166015625
z: -0.24597077071666718
visibility: 0.5087924599647522
","x: 231.63436889648438
y: 330.3011779785156
z: -0.17044898867607117
visibility: 0.6474786400794983
","x: 255.276611328125
y: 369.0102844238281
z: 0.001672381185926497
visibility: 0.9980934858322144
","x: 235.63160705566406
y: 365.86065673828125
z: -0.001649082638323307
visibility: 0.99913489818573
","x: 251.10096740722656
y: 435.4920959472656
z: 0.0038063854444772005
visibility: 0.9903098344802856
","x: 237.1530303955078
y: 434.6629333496094
z: -0.015536556951701641
visibility: 0.992236852645874
","x: 250.3996124267578
y: 498.7640075683594
z: 0.0954909548163414
visibility: 0.9923868775367737
","x: 233.68019104003906
y: 498.6846618652344
z: 0.08352099359035492
visibility: 0.9921376705169678
","x: 247.79666137695312
y: 507.3634033203125
z: 0.09806501865386963
visibility: 0.908729076385498
","x: 234.6666717529297
y: 509.0098876953125
z: 0.08585447818040848
visibility: 0.8761084079742432
","x: 252.4473876953125
y: 517.8154907226562
z: -0.005658197682350874
visibility: 0.9881343841552734
","x: 231.6730194091797
y: 517.348388671875
z: -0.020714981481432915
visibility: 0.9879311323165894
",5.671185731887817,,,,,,,,,,,,,,,,,,,,,,,,,,,,,,,,,,,,,,,,,,
18,"x: 250.18621826171875
y: 249.4520721435547
z: -0.2083752155303955
visibility: 0.9998925924301147
","x: 251.87684631347656
y: 245.17800903320312
z: -0.17091558873653412
visibility: 0.999688446521759
","x: 253.0226287841797
y: 245.48422241210938
z: -0.1703595370054245
visibility: 0.9997043609619141
","x: 254.15162658691406
y: 245.78634643554688
z: -0.17041893303394318
visibility: 0.9996396899223328
","x: 247.94766235351562
y: 245.0985107421875
z: -0.1909155249595642
visibility: 0.9997487664222717
","x: 246.7088165283203
y: 245.31158447265625
z: -0.19082939624786377
visibility: 0.9997946619987488
","x: 245.5538787841797
y: 245.48165893554688
z: -0.19100941717624664
visibility: 0.9998260140419006
","x: 255.4451446533203
y: 249.89199829101562
z: -0.11284734308719635
visibility: 0.9993389248847961
","x: 242.84323120117188
y: 249.3205108642578
z: -0.09841376543045044
visibility: 0.9997500777244568
","x: 252.5951385498047
y: 256.402587890625
z: -0.16026145219802856
visibility: 0.9997764825820923
","x: 247.1861114501953
y: 256.4862365722656
z: -0.16572794318199158
visibility: 0.9998105764389038
","x: 264.5373229980469
y: 289.75115966796875
z: -0.043859440833330154
visibility: 0.9994570016860962
","x: 230.6267852783203
y: 283.1882019042969
z: -0.06747816503047943
visibility: 0.9998359680175781
","x: 267.27093505859375
y: 335.3081970214844
z: -0.11005380004644394
visibility: 0.9138798713684082
","x: 220.0269317626953
y: 329.9781494140625
z: -0.12132567167282104
visibility: 0.9670959115028381
","x: 260.53375244140625
y: 334.2908020019531
z: -0.2990969717502594
visibility: 0.6604401469230652
","x: 237.42945861816406
y: 330.73260498046875
z: -0.2654784917831421
visibility: 0.8054220080375671
","x: 258.3420104980469
y: 334.64190673828125
z: -0.34115561842918396
visibility: 0.5530474781990051
","x: 240.85928344726562
y: 336.6728515625
z: -0.3013996481895447
visibility: 0.6879922151565552
","x: 257.5568542480469
y: 328.54559326171875
z: -0.34903743863105774
visibility: 0.5598738789558411
","x: 241.94654846191406
y: 331.77490234375
z: -0.30602240562438965
visibility: 0.6877508759498596
","x: 257.8380126953125
y: 328.2481384277344
z: -0.3064136207103729
visibility: 0.5391704440116882
","x: 241.19215393066406
y: 331.12860107421875
z: -0.268897145986557
visibility: 0.6683673858642578
","x: 254.6940155029297
y: 371.131591796875
z: 0.006994318217039108
visibility: 0.998126208782196
","x: 235.18263244628906
y: 369.1947937011719
z: -0.006971864961087704
visibility: 0.9991254210472107
","x: 250.09463500976562
y: 436.74371337890625
z: 0.010304508730769157
visibility: 0.9894998669624329
","x: 235.03060913085938
y: 435.6790771484375
z: -0.007804327644407749
visibility: 0.992153525352478
","x: 250.25315856933594
y: 499.12481689453125
z: 0.1274546980857849
visibility: 0.9919490814208984
","x: 231.8638458251953
y: 500.7696838378906
z: 0.11187975108623505
visibility: 0.9920877814292908
","x: 247.40078735351562
y: 507.937255859375
z: 0.13295713067054749
visibility: 0.9106618762016296
","x: 233.43856811523438
y: 510.535888671875
z: 0.11723516881465912
visibility: 0.8778821229934692
","x: 252.70094299316406
y: 517.9160766601562
z: 0.027601074427366257
visibility: 0.9878610968589783
","x: 229.5198211669922
y: 520.890380859375
z: 0.008228856138885021
visibility: 0.9876510500907898
",5.779167890548706,,,,,,,,,,,,,,,,,,,,,,,,,,,,,,,,,,,,,,,,,,
19,"x: 250.18621826171875
y: 249.4520721435547
z: -0.2083752155303955
visibility: 0.9998925924301147
","x: 251.87684631347656
y: 245.17800903320312
z: -0.17091558873653412
visibility: 0.999688446521759
","x: 253.0226287841797
y: 245.48422241210938
z: -0.1703595370054245
visibility: 0.9997043609619141
","x: 254.15162658691406
y: 245.78634643554688
z: -0.17041893303394318
visibility: 0.9996396899223328
","x: 247.94766235351562
y: 245.0985107421875
z: -0.1909155249595642
visibility: 0.9997487664222717
","x: 246.7088165283203
y: 245.31158447265625
z: -0.19082939624786377
visibility: 0.9997946619987488
","x: 245.5538787841797
y: 245.48165893554688
z: -0.19100941717624664
visibility: 0.9998260140419006
","x: 255.4451446533203
y: 249.89199829101562
z: -0.11284734308719635
visibility: 0.9993389248847961
","x: 242.84323120117188
y: 249.3205108642578
z: -0.09841376543045044
visibility: 0.9997500777244568
","x: 252.5951385498047
y: 256.402587890625
z: -0.16026145219802856
visibility: 0.9997764825820923
","x: 247.1861114501953
y: 256.4862365722656
z: -0.16572794318199158
visibility: 0.9998105764389038
","x: 264.5373229980469
y: 289.75115966796875
z: -0.043859440833330154
visibility: 0.9994570016860962
","x: 230.6267852783203
y: 283.1882019042969
z: -0.06747816503047943
visibility: 0.9998359680175781
","x: 267.27093505859375
y: 335.3081970214844
z: -0.11005380004644394
visibility: 0.9138798713684082
","x: 220.0269317626953
y: 329.9781494140625
z: -0.12132567167282104
visibility: 0.9670959115028381
","x: 260.53375244140625
y: 334.2908020019531
z: -0.2990969717502594
visibility: 0.6604401469230652
","x: 237.42945861816406
y: 330.73260498046875
z: -0.2654784917831421
visibility: 0.8054220080375671
","x: 258.3420104980469
y: 334.64190673828125
z: -0.34115561842918396
visibility: 0.5530474781990051
","x: 240.85928344726562
y: 336.6728515625
z: -0.3013996481895447
visibility: 0.6879922151565552
","x: 257.5568542480469
y: 328.54559326171875
z: -0.34903743863105774
visibility: 0.5598738789558411
","x: 241.94654846191406
y: 331.77490234375
z: -0.30602240562438965
visibility: 0.6877508759498596
","x: 257.8380126953125
y: 328.2481384277344
z: -0.3064136207103729
visibility: 0.5391704440116882
","x: 241.19215393066406
y: 331.12860107421875
z: -0.268897145986557
visibility: 0.6683673858642578
","x: 254.6940155029297
y: 371.131591796875
z: 0.006994318217039108
visibility: 0.998126208782196
","x: 235.18263244628906
y: 369.1947937011719
z: -0.006971864961087704
visibility: 0.9991254210472107
","x: 250.09463500976562
y: 436.74371337890625
z: 0.010304508730769157
visibility: 0.9894998669624329
","x: 235.03060913085938
y: 435.6790771484375
z: -0.007804327644407749
visibility: 0.992153525352478
","x: 250.25315856933594
y: 499.12481689453125
z: 0.1274546980857849
visibility: 0.9919490814208984
","x: 231.8638458251953
y: 500.7696838378906
z: 0.11187975108623505
visibility: 0.9920877814292908
","x: 247.40078735351562
y: 507.937255859375
z: 0.13295713067054749
visibility: 0.9106618762016296
","x: 233.43856811523438
y: 510.535888671875
z: 0.11723516881465912
visibility: 0.8778821229934692
","x: 252.70094299316406
y: 517.9160766601562
z: 0.027601074427366257
visibility: 0.9878610968589783
","x: 229.5198211669922
y: 520.890380859375
z: 0.008228856138885021
visibility: 0.9876510500907898
",5.779167890548706,,,,,,,,,,,,,,,,,,,,,,,,,,,,,,,,,,,,,,,,,,
20,"x: 249.1549835205078
y: 250.9446563720703
z: -0.205170676112175
visibility: 0.9998570084571838
","x: 250.8140411376953
y: 246.09014892578125
z: -0.18698011338710785
visibility: 0.9996098279953003
","x: 251.99203491210938
y: 246.32290649414062
z: -0.18697108328342438
visibility: 0.9996115565299988
","x: 253.15435791015625
y: 246.60565185546875
z: -0.18702256679534912
visibility: 0.9995449185371399
","x: 246.7788543701172
y: 246.14779663085938
z: -0.19138643145561218
visibility: 0.9996466636657715
","x: 245.47914123535156
y: 246.42198181152344
z: -0.19138814508914948
visibility: 0.9996644258499146
","x: 244.26373291015625
y: 246.72731018066406
z: -0.1914428025484085
visibility: 0.9996994733810425
","x: 254.07296752929688
y: 250.81744384765625
z: -0.09129615128040314
visibility: 0.9992460608482361
","x: 241.3040313720703
y: 250.93341064453125
z: -0.10118957608938217
visibility: 0.9994468688964844
","x: 251.48345947265625
y: 257.80157470703125
z: -0.16624632477760315
visibility: 0.9997541308403015
","x: 245.86277770996094
y: 258.00177001953125
z: -0.17004570364952087
visibility: 0.9997768998146057
","x: 262.5121765136719
y: 289.84710693359375
z: -0.0349615141749382
visibility: 0.9994471669197083
","x: 228.943603515625
y: 284.53143310546875
z: -0.055633820593357086
visibility: 0.9997802376747131
","x: 264.193603515625
y: 330.9386901855469
z: -0.09084275364875793
visibility: 0.910844087600708
","x: 225.25112915039062
y: 329.07098388671875
z: -0.10544784367084503
visibility: 0.9642503261566162
","x: 255.91036987304688
y: 336.0882263183594
z: -0.26793089509010315
visibility: 0.6744195222854614
","x: 240.70420837402344
y: 335.6869201660156
z: -0.24785666167736053
visibility: 0.8121603727340698
","x: 253.74732971191406
y: 339.3127746582031
z: -0.3082078993320465
visibility: 0.5718642473220825
","x: 244.11146545410156
y: 338.05853271484375
z: -0.282622754573822
visibility: 0.7030616402626038
","x: 253.38009643554688
y: 333.90081787109375
z: -0.3188094198703766
visibility: 0.5787273049354553
","x: 244.67242431640625
y: 334.1227722167969
z: -0.2887345850467682
visibility: 0.7026989459991455
","x: 253.71852111816406
y: 332.5350341796875
z: -0.27593696117401123
visibility: 0.5547730326652527
","x: 243.8011016845703
y: 331.96527099609375
z: -0.2522509694099426
visibility: 0.6781207919120789
","x: 253.06932067871094
y: 371.4635925292969
z: 0.006291618105024099
visibility: 0.9982340931892395
","x: 233.6935272216797
y: 370.2902526855469
z: -0.0062647620216012
visibility: 0.9991497993469238
","x: 250.02793884277344
y: 436.07659912109375
z: -0.14146819710731506
visibility: 0.9894754886627197
","x: 233.28762817382812
y: 438.90203857421875
z: -0.03996339812874794
visibility: 0.9913563132286072
","x: 248.043701171875
y: 481.2411193847656
z: 0.07386606186628342
visibility: 0.988128125667572
","x: 230.02134704589844
y: 503.60296630859375
z: 0.0999750941991806
visibility: 0.991639256477356
","x: 244.57423400878906
y: 486.1000061035156
z: 0.09278304874897003
visibility: 0.9079568982124329
","x: 231.73046875
y: 512.6935424804688
z: 0.10582635551691055
visibility: 0.8764720559120178
","x: 251.48764038085938
y: 509.11322021484375
z: 0.008937283419072628
visibility: 0.9853814840316772
","x: 229.0966033935547
y: 523.259521484375
z: -0.0006085062050260603
visibility: 0.986278772354126
",5.875718355178833,,,,,,,,,,,,,,,,,,,,,,,,,,,,,,,,,,,,,,,,,,
21,"x: 249.1549835205078
y: 250.9446563720703
z: -0.205170676112175
visibility: 0.9998570084571838
","x: 250.8140411376953
y: 246.09014892578125
z: -0.18698011338710785
visibility: 0.9996098279953003
","x: 251.99203491210938
y: 246.32290649414062
z: -0.18697108328342438
visibility: 0.9996115565299988
","x: 253.15435791015625
y: 246.60565185546875
z: -0.18702256679534912
visibility: 0.9995449185371399
","x: 246.7788543701172
y: 246.14779663085938
z: -0.19138643145561218
visibility: 0.9996466636657715
","x: 245.47914123535156
y: 246.42198181152344
z: -0.19138814508914948
visibility: 0.9996644258499146
","x: 244.26373291015625
y: 246.72731018066406
z: -0.1914428025484085
visibility: 0.9996994733810425
","x: 254.07296752929688
y: 250.81744384765625
z: -0.09129615128040314
visibility: 0.9992460608482361
","x: 241.3040313720703
y: 250.93341064453125
z: -0.10118957608938217
visibility: 0.9994468688964844
","x: 251.48345947265625
y: 257.80157470703125
z: -0.16624632477760315
visibility: 0.9997541308403015
","x: 245.86277770996094
y: 258.00177001953125
z: -0.17004570364952087
visibility: 0.9997768998146057
","x: 262.5121765136719
y: 289.84710693359375
z: -0.0349615141749382
visibility: 0.9994471669197083
","x: 228.943603515625
y: 284.53143310546875
z: -0.055633820593357086
visibility: 0.9997802376747131
","x: 264.193603515625
y: 330.9386901855469
z: -0.09084275364875793
visibility: 0.910844087600708
","x: 225.25112915039062
y: 329.07098388671875
z: -0.10544784367084503
visibility: 0.9642503261566162
","x: 255.91036987304688
y: 336.0882263183594
z: -0.26793089509010315
visibility: 0.6744195222854614
","x: 240.70420837402344
y: 335.6869201660156
z: -0.24785666167736053
visibility: 0.8121603727340698
","x: 253.74732971191406
y: 339.3127746582031
z: -0.3082078993320465
visibility: 0.5718642473220825
","x: 244.11146545410156
y: 338.05853271484375
z: -0.282622754573822
visibility: 0.7030616402626038
","x: 253.38009643554688
y: 333.90081787109375
z: -0.3188094198703766
visibility: 0.5787273049354553
","x: 244.67242431640625
y: 334.1227722167969
z: -0.2887345850467682
visibility: 0.7026989459991455
","x: 253.71852111816406
y: 332.5350341796875
z: -0.27593696117401123
visibility: 0.5547730326652527
","x: 243.8011016845703
y: 331.96527099609375
z: -0.2522509694099426
visibility: 0.6781207919120789
","x: 253.06932067871094
y: 371.4635925292969
z: 0.006291618105024099
visibility: 0.9982340931892395
","x: 233.6935272216797
y: 370.2902526855469
z: -0.0062647620216012
visibility: 0.9991497993469238
","x: 250.02793884277344
y: 436.07659912109375
z: -0.14146819710731506
visibility: 0.9894754886627197
","x: 233.28762817382812
y: 438.90203857421875
z: -0.03996339812874794
visibility: 0.9913563132286072
","x: 248.043701171875
y: 481.2411193847656
z: 0.07386606186628342
visibility: 0.988128125667572
","x: 230.02134704589844
y: 503.60296630859375
z: 0.0999750941991806
visibility: 0.991639256477356
","x: 244.57423400878906
y: 486.1000061035156
z: 0.09278304874897003
visibility: 0.9079568982124329
","x: 231.73046875
y: 512.6935424804688
z: 0.10582635551691055
visibility: 0.8764720559120178
","x: 251.48764038085938
y: 509.11322021484375
z: 0.008937283419072628
visibility: 0.9853814840316772
","x: 229.0966033935547
y: 523.259521484375
z: -0.0006085062050260603
visibility: 0.986278772354126
",5.875718355178833,,,,,,,,,,,,,,,,,,,,,,,,,,,,,,,,,,,,,,,,,,
22,"x: 249.5707550048828
y: 251.97314453125
z: -0.2009090632200241
visibility: 0.9998705983161926
","x: 251.0167999267578
y: 246.89279174804688
z: -0.18284764885902405
visibility: 0.9996475577354431
","x: 252.11923217773438
y: 247.07481384277344
z: -0.18287423253059387
visibility: 0.9996488094329834
","x: 253.16259765625
y: 247.2669677734375
z: -0.18292400240898132
visibility: 0.9995887875556946
","x: 247.2294921875
y: 246.89761352539062
z: -0.1885768175125122
visibility: 0.9996804594993591
","x: 245.89456176757812
y: 247.0758819580078
z: -0.18857534229755402
visibility: 0.9996960163116455
","x: 244.60081481933594
y: 247.3497772216797
z: -0.18858645856380463
visibility: 0.9997274875640869
","x: 254.0543975830078
y: 251.08639526367188
z: -0.08132118731737137
visibility: 0.9993202090263367
","x: 241.5154571533203
y: 251.69207763671875
z: -0.10595603287220001
visibility: 0.9994978904724121
","x: 251.655517578125
y: 258.9383239746094
z: -0.16246908903121948
visibility: 0.9997783303260803
","x: 246.3204345703125
y: 259.12774658203125
z: -0.16983820497989655
visibility: 0.9997987151145935
","x: 262.6249694824219
y: 290.6277160644531
z: -0.018089009448885918
visibility: 0.9994987845420837
","x: 229.21241760253906
y: 287.61065673828125
z: -0.0580560564994812
visibility: 0.9997880458831787
","x: 267.63226318359375
y: 330.9463195800781
z: -0.062191009521484375
visibility: 0.9164877533912659
","x: 227.4871826171875
y: 335.83013916015625
z: -0.1423381268978119
visibility: 0.9641192555427551
","x: 266.44482421875
y: 329.9046630859375
z: -0.23532333970069885
visibility: 0.7042827010154724
","x: 235.4952850341797
y: 335.67633056640625
z: -0.3216041326522827
visibility: 0.8268293738365173
","x: 266.61407470703125
y: 329.3175964355469
z: -0.2703759968280792
visibility: 0.6098862886428833
","x: 237.39520263671875
y: 337.28204345703125
z: -0.3588840365409851
visibility: 0.7265427708625793
","x: 265.2507629394531
y: 322.41162109375
z: -0.27913567423820496
visibility: 0.6161076426506042
","x: 238.49644470214844
y: 331.83306884765625
z: -0.3621898889541626
visibility: 0.7259849309921265
","x: 264.5374755859375
y: 322.2238464355469
z: -0.24232852458953857
visibility: 0.5924612283706665
","x: 238.63238525390625
y: 330.7381896972656
z: -0.326149582862854
visibility: 0.7004194855690002
","x: 254.12962341308594
y: 372.6829833984375
z: 0.010573160834610462
visibility: 0.9983994960784912
","x: 234.4639892578125
y: 373.33233642578125
z: -0.01053545344620943
visibility: 0.9992207288742065
","x: 260.4077453613281
y: 432.0268249511719
z: -0.16127127408981323
visibility: 0.9903483986854553
","x: 233.15875244140625
y: 441.04443359375
z: -0.035848282277584076
visibility: 0.9915700554847717
","x: 252.3391876220703
y: 454.3626708984375
z: 0.11688250303268433
visibility: 0.9856309294700623
","x: 230.06649780273438
y: 504.12957763671875
z: 0.1469365656375885
visibility: 0.9919148683547974
","x: 248.60853576660156
y: 454.39111328125
z: 0.14609166979789734
visibility: 0.9050080180168152
","x: 231.58935546875
y: 512.6521606445312
z: 0.16007013618946075
visibility: 0.8809012174606323
","x: 255.3294219970703
y: 485.318359375
z: 0.07975641638040543
visibility: 0.9834941029548645
","x: 228.80587768554688
y: 523.9107666015625
z: 0.0572291724383831
visibility: 0.9863786697387695
",6.015967130661011,,,,,,,,,,,,,,,,,,,,,,,,,,,,,,,,,,,,,,,,,,
23,"x: 249.5707550048828
y: 251.97314453125
z: -0.2009090632200241
visibility: 0.9998705983161926
","x: 251.0167999267578
y: 246.89279174804688
z: -0.18284764885902405
visibility: 0.9996475577354431
","x: 252.11923217773438
y: 247.07481384277344
z: -0.18287423253059387
visibility: 0.9996488094329834
","x: 253.16259765625
y: 247.2669677734375
z: -0.18292400240898132
visibility: 0.9995887875556946
","x: 247.2294921875
y: 246.89761352539062
z: -0.1885768175125122
visibility: 0.9996804594993591
","x: 245.89456176757812
y: 247.0758819580078
z: -0.18857534229755402
visibility: 0.9996960163116455
","x: 244.60081481933594
y: 247.3497772216797
z: -0.18858645856380463
visibility: 0.9997274875640869
","x: 254.0543975830078
y: 251.08639526367188
z: -0.08132118731737137
visibility: 0.9993202090263367
","x: 241.5154571533203
y: 251.69207763671875
z: -0.10595603287220001
visibility: 0.9994978904724121
","x: 251.655517578125
y: 258.9383239746094
z: -0.16246908903121948
visibility: 0.9997783303260803
","x: 246.3204345703125
y: 259.12774658203125
z: -0.16983820497989655
visibility: 0.9997987151145935
","x: 262.6249694824219
y: 290.6277160644531
z: -0.018089009448885918
visibility: 0.9994987845420837
","x: 229.21241760253906
y: 287.61065673828125
z: -0.0580560564994812
visibility: 0.9997880458831787
","x: 267.63226318359375
y: 330.9463195800781
z: -0.062191009521484375
visibility: 0.9164877533912659
","x: 227.4871826171875
y: 335.83013916015625
z: -0.1423381268978119
visibility: 0.9641192555427551
","x: 266.44482421875
y: 329.9046630859375
z: -0.23532333970069885
visibility: 0.7042827010154724
","x: 235.4952850341797
y: 335.67633056640625
z: -0.3216041326522827
visibility: 0.8268293738365173
","x: 266.61407470703125
y: 329.3175964355469
z: -0.2703759968280792
visibility: 0.6098862886428833
","x: 237.39520263671875
y: 337.28204345703125
z: -0.3588840365409851
visibility: 0.7265427708625793
","x: 265.2507629394531
y: 322.41162109375
z: -0.27913567423820496
visibility: 0.6161076426506042
","x: 238.49644470214844
y: 331.83306884765625
z: -0.3621898889541626
visibility: 0.7259849309921265
","x: 264.5374755859375
y: 322.2238464355469
z: -0.24232852458953857
visibility: 0.5924612283706665
","x: 238.63238525390625
y: 330.7381896972656
z: -0.326149582862854
visibility: 0.7004194855690002
","x: 254.12962341308594
y: 372.6829833984375
z: 0.010573160834610462
visibility: 0.9983994960784912
","x: 234.4639892578125
y: 373.33233642578125
z: -0.01053545344620943
visibility: 0.9992207288742065
","x: 260.4077453613281
y: 432.0268249511719
z: -0.16127127408981323
visibility: 0.9903483986854553
","x: 233.15875244140625
y: 441.04443359375
z: -0.035848282277584076
visibility: 0.9915700554847717
","x: 252.3391876220703
y: 454.3626708984375
z: 0.11688250303268433
visibility: 0.9856309294700623
","x: 230.06649780273438
y: 504.12957763671875
z: 0.1469365656375885
visibility: 0.9919148683547974
","x: 248.60853576660156
y: 454.39111328125
z: 0.14609166979789734
visibility: 0.9050080180168152
","x: 231.58935546875
y: 512.6521606445312
z: 0.16007013618946075
visibility: 0.8809012174606323
","x: 255.3294219970703
y: 485.318359375
z: 0.07975641638040543
visibility: 0.9834941029548645
","x: 228.80587768554688
y: 523.9107666015625
z: 0.0572291724383831
visibility: 0.9863786697387695
",6.015967130661011,,,,,,,,,,,,,,,,,,,,,,,,,,,,,,,,,,,,,,,,,,
24,"x: 251.8783416748047
y: 251.26095581054688
z: -0.20330755412578583
visibility: 0.9998834133148193
","x: 253.13955688476562
y: 246.07168579101562
z: -0.18650995194911957
visibility: 0.999682605266571
","x: 254.2275848388672
y: 246.28048706054688
z: -0.18655601143836975
visibility: 0.9996837377548218
","x: 255.29483032226562
y: 246.5352783203125
z: -0.1865883767604828
visibility: 0.9996296167373657
","x: 249.6917724609375
y: 246.03509521484375
z: -0.1904659867286682
visibility: 0.9997121691703796
","x: 248.34532165527344
y: 246.2228546142578
z: -0.1904645413160324
visibility: 0.9997261166572571
","x: 246.91079711914062
y: 246.48162841796875
z: -0.19045546650886536
visibility: 0.9997543692588806
","x: 256.928466796875
y: 250.86717224121094
z: -0.08203805983066559
visibility: 0.9993875622749329
","x: 243.84487915039062
y: 251.12762451171875
z: -0.10137858241796494
visibility: 0.9995477795600891
","x: 254.05874633789062
y: 258.76580810546875
z: -0.16382405161857605
visibility: 0.9998003244400024
","x: 249.19569396972656
y: 258.9241943359375
z: -0.16955889761447906
visibility: 0.9998186826705933
","x: 265.1300964355469
y: 290.425537109375
z: -0.0009553349809721112
visibility: 0.9995478391647339
","x: 232.6851348876953
y: 286.73297119140625
z: -0.056173063814640045
visibility: 0.9998082518577576
","x: 269.5300598144531
y: 330.0621032714844
z: -0.054521746933460236
visibility: 0.920773983001709
","x: 225.05661010742188
y: 328.8824768066406
z: -0.13622848689556122
visibility: 0.9655771851539612
","x: 276.7585144042969
y: 323.6373596191406
z: -0.24992021918296814
visibility: 0.7328185439109802
","x: 232.44395446777344
y: 327.8697509765625
z: -0.32446029782295227
visibility: 0.8419631719589233
","x: 279.3021545410156
y: 322.9964599609375
z: -0.28841859102249146
visibility: 0.6470026969909668
","x: 229.91954040527344
y: 330.1346130371094
z: -0.3633404076099396
visibility: 0.7499366402626038
","x: 278.8120422363281
y: 316.3074035644531
z: -0.30106860399246216
visibility: 0.6527724862098694
","x: 230.94520568847656
y: 325.4095153808594
z: -0.3709130585193634
visibility: 0.749417781829834
","x: 277.5663146972656
y: 316.0904235839844
z: -0.25984495878219604
visibility: 0.6304357647895813
","x: 232.88099670410156
y: 324.38037109375
z: -0.331244558095932
visibility: 0.7246646285057068
","x: 256.94952392578125
y: 372.8719787597656
z: 0.02627253532409668
visibility: 0.998544454574585
","x: 236.73062133789062
y: 373.668212890625
z: -0.02631661295890808
visibility: 0.9992904663085938
","x: 264.9286193847656
y: 434.7195739746094
z: 0.04280104860663414
visibility: 0.9902843832969666
","x: 235.88031005859375
y: 440.8017272949219
z: -0.06010965257883072
visibility: 0.9921496510505676
","x: 269.491943359375
y: 482.5747375488281
z: 0.17610272765159607
visibility: 0.9864113330841064
","x: 230.21539306640625
y: 504.1004943847656
z: 0.044991202652454376
visibility: 0.9924682378768921
","x: 266.5731201171875
y: 494.4412841796875
z: 0.18387416005134583
visibility: 0.9107276201248169
","x: 231.2665557861328
y: 512.5645141601562
z: 0.049663182348012924
visibility: 0.8869413733482361
","x: 279.4166259765625
y: 497.73968505859375
z: 0.09405843913555145
visibility: 0.9841431379318237
","x: 228.4425811767578
y: 523.72265625
z: -0.059887368232011795
visibility: 0.987226128578186
",6.123965740203857,,,,,,,,,,,,,,,,,,,,,,,,,,,,,,,,,,,,,,,,,,
25,"x: 251.8783416748047
y: 251.26095581054688
z: -0.20330755412578583
visibility: 0.9998834133148193
","x: 253.13955688476562
y: 246.07168579101562
z: -0.18650995194911957
visibility: 0.999682605266571
","x: 254.2275848388672
y: 246.28048706054688
z: -0.18655601143836975
visibility: 0.9996837377548218
","x: 255.29483032226562
y: 246.5352783203125
z: -0.1865883767604828
visibility: 0.9996296167373657
","x: 249.6917724609375
y: 246.03509521484375
z: -0.1904659867286682
visibility: 0.9997121691703796
","x: 248.34532165527344
y: 246.2228546142578
z: -0.1904645413160324
visibility: 0.9997261166572571
","x: 246.91079711914062
y: 246.48162841796875
z: -0.19045546650886536
visibility: 0.9997543692588806
","x: 256.928466796875
y: 250.86717224121094
z: -0.08203805983066559
visibility: 0.9993875622749329
","x: 243.84487915039062
y: 251.12762451171875
z: -0.10137858241796494
visibility: 0.9995477795600891
","x: 254.05874633789062
y: 258.76580810546875
z: -0.16382405161857605
visibility: 0.9998003244400024
","x: 249.19569396972656
y: 258.9241943359375
z: -0.16955889761447906
visibility: 0.9998186826705933
","x: 265.1300964355469
y: 290.425537109375
z: -0.0009553349809721112
visibility: 0.9995478391647339
","x: 232.6851348876953
y: 286.73297119140625
z: -0.056173063814640045
visibility: 0.9998082518577576
","x: 269.5300598144531
y: 330.0621032714844
z: -0.054521746933460236
visibility: 0.920773983001709
","x: 225.05661010742188
y: 328.8824768066406
z: -0.13622848689556122
visibility: 0.9655771851539612
","x: 276.7585144042969
y: 323.6373596191406
z: -0.24992021918296814
visibility: 0.7328185439109802
","x: 232.44395446777344
y: 327.8697509765625
z: -0.32446029782295227
visibility: 0.8419631719589233
","x: 279.3021545410156
y: 322.9964599609375
z: -0.28841859102249146
visibility: 0.6470026969909668
","x: 229.91954040527344
y: 330.1346130371094
z: -0.3633404076099396
visibility: 0.7499366402626038
","x: 278.8120422363281
y: 316.3074035644531
z: -0.30106860399246216
visibility: 0.6527724862098694
","x: 230.94520568847656
y: 325.4095153808594
z: -0.3709130585193634
visibility: 0.749417781829834
","x: 277.5663146972656
y: 316.0904235839844
z: -0.25984495878219604
visibility: 0.6304357647895813
","x: 232.88099670410156
y: 324.38037109375
z: -0.331244558095932
visibility: 0.7246646285057068
","x: 256.94952392578125
y: 372.8719787597656
z: 0.02627253532409668
visibility: 0.998544454574585
","x: 236.73062133789062
y: 373.668212890625
z: -0.02631661295890808
visibility: 0.9992904663085938
","x: 264.9286193847656
y: 434.7195739746094
z: 0.04280104860663414
visibility: 0.9902843832969666
","x: 235.88031005859375
y: 440.8017272949219
z: -0.06010965257883072
visibility: 0.9921496510505676
","x: 269.491943359375
y: 482.5747375488281
z: 0.17610272765159607
visibility: 0.9864113330841064
","x: 230.21539306640625
y: 504.1004943847656
z: 0.044991202652454376
visibility: 0.9924682378768921
","x: 266.5731201171875
y: 494.4412841796875
z: 0.18387416005134583
visibility: 0.9107276201248169
","x: 231.2665557861328
y: 512.5645141601562
z: 0.049663182348012924
visibility: 0.8869413733482361
","x: 279.4166259765625
y: 497.73968505859375
z: 0.09405843913555145
visibility: 0.9841431379318237
","x: 228.4425811767578
y: 523.72265625
z: -0.059887368232011795
visibility: 0.987226128578186
",6.123965740203857,,,,,,,,,,,,,,,,,,,,,,,,,,,,,,,,,,,,,,,,,,
26,"x: 255.52090454101562
y: 250.6017303466797
z: -0.18363729119300842
visibility: 0.9998948574066162
","x: 256.67376708984375
y: 245.65321350097656
z: -0.16764572262763977
visibility: 0.9997140169143677
","x: 257.73583984375
y: 245.78550720214844
z: -0.1676984429359436
visibility: 0.9997149705886841
","x: 258.8509826660156
y: 245.95689392089844
z: -0.16773353517055511
visibility: 0.9996662139892578
","x: 253.51129150390625
y: 245.9463653564453
z: -0.16971249878406525
visibility: 0.999740481376648
","x: 252.25221252441406
y: 246.21163940429688
z: -0.16971246898174286
visibility: 0.9997528791427612
","x: 250.91616821289062
y: 246.48695373535156
z: -0.16970470547676086
visibility: 0.999778151512146
","x: 260.6033020019531
y: 250.2094268798828
z: -0.06931861490011215
visibility: 0.9994478821754456
","x: 248.69622802734375
y: 251.28509521484375
z: -0.07989607751369476
visibility: 0.9995923042297363
","x: 258.0036315917969
y: 257.971435546875
z: -0.1469804048538208
visibility: 0.9998199939727783
","x: 253.6671142578125
y: 258.5870666503906
z: -0.1502237319946289
visibility: 0.9998365044593811
","x: 269.9239807128906
y: 290.2781982421875
z: -0.003605926875025034
visibility: 0.9995913505554199
","x: 237.4061279296875
y: 287.02197265625
z: -0.03498436510562897
visibility: 0.9998246431350708
","x: 275.9474182128906
y: 328.9626770019531
z: -0.07829933613538742
visibility: 0.9249305725097656
","x: 224.5130157470703
y: 328.7658386230469
z: -0.10948320478200912
visibility: 0.9668706059455872
","x: 283.17669677734375
y: 321.17742919921875
z: -0.2808573544025421
visibility: 0.758020281791687
","x: 227.18319702148438
y: 324.6813659667969
z: -0.27828431129455566
visibility: 0.8536756634712219
","x: 286.3148498535156
y: 321.0330505371094
z: -0.3208068013191223
visibility: 0.6794995665550232
","x: 225.60777282714844
y: 326.4902038574219
z: -0.3130165934562683
visibility: 0.7670835852622986
","x: 285.4101257324219
y: 315.57843017578125
z: -0.3315523564815521
visibility: 0.6850242614746094
","x: 226.6808624267578
y: 324.0443420410156
z: -0.3220829367637634
visibility: 0.7668737769126892
","x: 283.875
y: 315.3265686035156
z: -0.2903532385826111
visibility: 0.6635806560516357
","x: 227.74615478515625
y: 323.6531982421875
z: -0.28595665097236633
visibility: 0.7427211403846741
","x: 260.9998474121094
y: 376.9092102050781
z: 0.020924467593431473
visibility: 0.9986767768859863
","x: 240.7750244140625
y: 375.697509765625
z: -0.020981695502996445
visibility: 0.9993512034416199
","x: 267.96881103515625
y: 445.8418273925781
z: 0.03693559020757675
visibility: 0.9906604290008545
","x: 237.05328369140625
y: 442.0677185058594
z: -0.03338397294282913
visibility: 0.9926940202713013
","x: 277.474853515625
y: 502.918212890625
z: 0.15722987055778503
visibility: 0.9874301552772522
","x: 230.31752014160156
y: 504.2291259765625
z: 0.05597584694623947
visibility: 0.9929807782173157
","x: 275.3523254394531
y: 512.9573974609375
z: 0.16353581845760345
visibility: 0.9161207675933838
","x: 231.20407104492188
y: 512.5118408203125
z: 0.057889174669981
visibility: 0.8908064365386963
","x: 285.6225891113281
y: 520.2600708007812
z: 0.06661147624254227
visibility: 0.9850685000419617
","x: 228.25808715820312
y: 523.7557373046875
z: -0.05302342772483826
visibility: 0.9879429340362549
",6.2316529750823975,,,,,,,,,,,,,,,,,,,,,,,,,,,,,,,,,,,,,,,,,,
27,"x: 255.52090454101562
y: 250.6017303466797
z: -0.18363729119300842
visibility: 0.9998948574066162
","x: 256.67376708984375
y: 245.65321350097656
z: -0.16764572262763977
visibility: 0.9997140169143677
","x: 257.73583984375
y: 245.78550720214844
z: -0.1676984429359436
visibility: 0.9997149705886841
","x: 258.8509826660156
y: 245.95689392089844
z: -0.16773353517055511
visibility: 0.9996662139892578
","x: 253.51129150390625
y: 245.9463653564453
z: -0.16971249878406525
visibility: 0.999740481376648
","x: 252.25221252441406
y: 246.21163940429688
z: -0.16971246898174286
visibility: 0.9997528791427612
","x: 250.91616821289062
y: 246.48695373535156
z: -0.16970470547676086
visibility: 0.999778151512146
","x: 260.6033020019531
y: 250.2094268798828
z: -0.06931861490011215
visibility: 0.9994478821754456
","x: 248.69622802734375
y: 251.28509521484375
z: -0.07989607751369476
visibility: 0.9995923042297363
","x: 258.0036315917969
y: 257.971435546875
z: -0.1469804048538208
visibility: 0.9998199939727783
","x: 253.6671142578125
y: 258.5870666503906
z: -0.1502237319946289
visibility: 0.9998365044593811
","x: 269.9239807128906
y: 290.2781982421875
z: -0.003605926875025034
visibility: 0.9995913505554199
","x: 237.4061279296875
y: 287.02197265625
z: -0.03498436510562897
visibility: 0.9998246431350708
","x: 275.9474182128906
y: 328.9626770019531
z: -0.07829933613538742
visibility: 0.9249305725097656
","x: 224.5130157470703
y: 328.7658386230469
z: -0.10948320478200912
visibility: 0.9668706059455872
","x: 283.17669677734375
y: 321.17742919921875
z: -0.2808573544025421
visibility: 0.758020281791687
","x: 227.18319702148438
y: 324.6813659667969
z: -0.27828431129455566
visibility: 0.8536756634712219
","x: 286.3148498535156
y: 321.0330505371094
z: -0.3208068013191223
visibility: 0.6794995665550232
","x: 225.60777282714844
y: 326.4902038574219
z: -0.3130165934562683
visibility: 0.7670835852622986
","x: 285.4101257324219
y: 315.57843017578125
z: -0.3315523564815521
visibility: 0.6850242614746094
","x: 226.6808624267578
y: 324.0443420410156
z: -0.3220829367637634
visibility: 0.7668737769126892
","x: 283.875
y: 315.3265686035156
z: -0.2903532385826111
visibility: 0.6635806560516357
","x: 227.74615478515625
y: 323.6531982421875
z: -0.28595665097236633
visibility: 0.7427211403846741
","x: 260.9998474121094
y: 376.9092102050781
z: 0.020924467593431473
visibility: 0.9986767768859863
","x: 240.7750244140625
y: 375.697509765625
z: -0.020981695502996445
visibility: 0.9993512034416199
","x: 267.96881103515625
y: 445.8418273925781
z: 0.03693559020757675
visibility: 0.9906604290008545
","x: 237.05328369140625
y: 442.0677185058594
z: -0.03338397294282913
visibility: 0.9926940202713013
","x: 277.474853515625
y: 502.918212890625
z: 0.15722987055778503
visibility: 0.9874301552772522
","x: 230.31752014160156
y: 504.2291259765625
z: 0.05597584694623947
visibility: 0.9929807782173157
","x: 275.3523254394531
y: 512.9573974609375
z: 0.16353581845760345
visibility: 0.9161207675933838
","x: 231.20407104492188
y: 512.5118408203125
z: 0.057889174669981
visibility: 0.8908064365386963
","x: 285.6225891113281
y: 520.2600708007812
z: 0.06661147624254227
visibility: 0.9850685000419617
","x: 228.25808715820312
y: 523.7557373046875
z: -0.05302342772483826
visibility: 0.9879429340362549
",6.2316529750823975,,,,,,,,,,,,,,,,,,,,,,,,,,,,,,,,,,,,,,,,,,
28,"x: 261.3260498046875
y: 249.48129272460938
z: -0.2010728120803833
visibility: 0.9999023675918579
","x: 262.48876953125
y: 245.48330688476562
z: -0.18587186932563782
visibility: 0.9997364282608032
","x: 263.5595703125
y: 245.7260284423828
z: -0.18590527772903442
visibility: 0.9997364282608032
","x: 264.6070251464844
y: 245.95953369140625
z: -0.18594291806221008
visibility: 0.9996910095214844
","x: 259.2000427246094
y: 245.45899963378906
z: -0.18810030817985535
visibility: 0.999760627746582
","x: 258.0072937011719
y: 245.6946563720703
z: -0.18811622262001038
visibility: 0.9997718930244446
","x: 256.76507568359375
y: 245.9404296875
z: -0.18811573088169098
visibility: 0.9997943043708801
","x: 266.1822509765625
y: 250.2323760986328
z: -0.08658846467733383
visibility: 0.9994851350784302
","x: 254.77220153808594
y: 251.1643829345703
z: -0.09734101593494415
visibility: 0.9996265769004822
","x: 263.5556640625
y: 257.0184631347656
z: -0.16331122815608978
visibility: 0.9998363256454468
","x: 259.05859375
y: 257.02386474609375
z: -0.1679326593875885
visibility: 0.9998517036437988
","x: 276.5185241699219
y: 289.7055358886719
z: -0.02536660060286522
visibility: 0.9996298551559448
","x: 241.8899688720703
y: 285.5752258300781
z: -0.037065211683511734
visibility: 0.9998391270637512
","x: 289.6777038574219
y: 328.6357116699219
z: -0.12343087047338486
visibility: 0.9320383667945862
","x: 226.26060485839844
y: 327.4952392578125
z: -0.12519334256649017
visibility: 0.9699700474739075
","x: 284.47564697265625
y: 325.0976257324219
z: -0.3187820017337799
visibility: 0.781767725944519
","x: 241.82040405273438
y: 324.2274475097656
z: -0.2772934138774872
visibility: 0.8679705262184143
","x: 281.3591003417969
y: 327.9336853027344
z: -0.3623710572719574
visibility: 0.7103516459465027
","x: 246.9001922607422
y: 328.6429443359375
z: -0.3161344826221466
visibility: 0.7894088625907898
","x: 278.38232421875
y: 322.2400207519531
z: -0.36479419469833374
visibility: 0.715300977230072
","x: 250.04405212402344
y: 324.636474609375
z: -0.31517112255096436
visibility: 0.7891301512718201
","x: 278.6940612792969
y: 321.0393981933594
z: -0.3232606053352356
visibility: 0.695133626461029
","x: 249.1481170654297
y: 322.80810546875
z: -0.27892670035362244
visibility: 0.7665959000587463
","x: 265.5679626464844
y: 377.10333251953125
z: 0.01696942374110222
visibility: 0.9988037943840027
","x: 244.86756896972656
y: 375.1451110839844
z: -0.01716071367263794
visibility: 0.9994099140167236
","x: 273.01336669921875
y: 447.9005432128906
z: -0.004895650781691074
visibility: 0.9913603067398071
","x: 239.627197265625
y: 442.60369873046875
z: -0.019448433071374893
visibility: 0.9931743741035461
","x: 279.4937744140625
y: 505.8944396972656
z: 0.14527228474617004
visibility: 0.9883921146392822
","x: 231.3779296875
y: 500.2406311035156
z: 0.1629890352487564
visibility: 0.9933598041534424
","x: 276.60308837890625
y: 514.7061767578125
z: 0.15597999095916748
visibility: 0.9200580716133118
","x: 232.37353515625
y: 505.6841735839844
z: 0.17652395367622375
visibility: 0.8920739889144897
","x: 286.40557861328125
y: 527.8363647460938
z: 0.05755854770541191
visibility: 0.9858648180961609
","x: 228.23260498046875
y: 523.6127319335938
z: 0.07698077708482742
visibility: 0.9883577823638916
",6.358025789260864,,,,,,,,,,,,,,,,,,,,,,,,,,,,,,,,,,,,,,,,,,
29,"x: 261.3260498046875
y: 249.48129272460938
z: -0.2010728120803833
visibility: 0.9999023675918579
","x: 262.48876953125
y: 245.48330688476562
z: -0.18587186932563782
visibility: 0.9997364282608032
","x: 263.5595703125
y: 245.7260284423828
z: -0.18590527772903442
visibility: 0.9997364282608032
","x: 264.6070251464844
y: 245.95953369140625
z: -0.18594291806221008
visibility: 0.9996910095214844
","x: 259.2000427246094
y: 245.45899963378906
z: -0.18810030817985535
visibility: 0.999760627746582
","x: 258.0072937011719
y: 245.6946563720703
z: -0.18811622262001038
visibility: 0.9997718930244446
","x: 256.76507568359375
y: 245.9404296875
z: -0.18811573088169098
visibility: 0.9997943043708801
","x: 266.1822509765625
y: 250.2323760986328
z: -0.08658846467733383
visibility: 0.9994851350784302
","x: 254.77220153808594
y: 251.1643829345703
z: -0.09734101593494415
visibility: 0.9996265769004822
","x: 263.5556640625
y: 257.0184631347656
z: -0.16331122815608978
visibility: 0.9998363256454468
","x: 259.05859375
y: 257.02386474609375
z: -0.1679326593875885
visibility: 0.9998517036437988
","x: 276.5185241699219
y: 289.7055358886719
z: -0.02536660060286522
visibility: 0.9996298551559448
","x: 241.8899688720703
y: 285.5752258300781
z: -0.037065211683511734
visibility: 0.9998391270637512
","x: 289.6777038574219
y: 328.6357116699219
z: -0.12343087047338486
visibility: 0.9320383667945862
","x: 226.26060485839844
y: 327.4952392578125
