uscmakers/ReverseChoreography/data/10_partition_beyonce.csv
,NOSE,LEFT_EYE_INNER,LEFT_EYE,LEFT_EYE_OUTER,RIGHT_EYE_INNER,RIGHT_EYE,RIGHT_EYE_OUTER,LEFT_EAR,RIGHT_EAR,MOUTH_LEFT,MOUTH_RIGHT,LEFT_SHOULDER,RIGHT_SHOULDER,LEFT_ELBOW,RIGHT_ELBOW,LEFT_WRIST,RIGHT_WRIST,LEFT_PINKY,RIGHT_PINKY,LEFT_INDEX,RIGHT_INDEX,LEFT_THUMB,RIGHT_THUMB,LEFT_HIP,RIGHT_HIP,LEFT_KNEE,RIGHT_KNEE,LEFT_ANKLE,RIGHT_ANKLE,LEFT_HEEL,RIGHT_HEEL,LEFT_FOOT_INDEX,RIGHT_FOOT_INDEX,TIMESTAMP,WRIST2,THUMB_CPC2,THUMB_MCP2,THUMB_IP2,THUMB_TIP2,INDEX_FINGER_MCP2,INDEX_FINGER_PIP2,INDEX_FINGER_DIP2,INDEX_FINGER_TIP2,MIDDLE_FINGER_MCP2,MIDDLE_FINGER_PIP2,MIDDLE_FINGER_DIP2,MIDDLE_FINGER_TIP2,RING_FINGER_PIP2,RING_FINGER_DIP2,RING_FINGER_TIP2,RING_FINGER_MCP2,PINKY_MCP2,PINKY_PIP2,PINKY_DIP2,PINKY_TIP2,WRIST,THUMB_CPC,THUMB_MCP,THUMB_IP,THUMB_TIP,INDEX_FINGER_MCP,INDEX_FINGER_PIP,INDEX_FINGER_DIP,INDEX_FINGER_TIP,MIDDLE_FINGER_MCP,MIDDLE_FINGER_PIP,MIDDLE_FINGER_DIP,MIDDLE_FINGER_TIP,RING_FINGER_PIP,RING_FINGER_DIP,RING_FINGER_TIP,RING_FINGER_MCP,PINKY_MCP,PINKY_PIP,PINKY_DIP,PINKY_TIP
0,"x: 271.3817138671875
y: 257.68780517578125
z: -0.24009723961353302
visibility: 0.9998987913131714
","x: 272.6365966796875
y: 252.58587646484375
z: -0.22630174458026886
visibility: 0.9995805621147156
","x: 273.6225891113281
y: 252.53094482421875
z: -0.22632181644439697
visibility: 0.9995991587638855
","x: 274.511962890625
y: 252.48226928710938
z: -0.22636154294013977
visibility: 0.9996403455734253
","x: 269.4470520019531
y: 253.13595581054688
z: -0.224555104970932
visibility: 0.9995118379592896
","x: 268.20391845703125
y: 253.453369140625
z: -0.22454991936683655
visibility: 0.9994320273399353
","x: 266.8819580078125
y: 253.8121795654297
z: -0.2245427817106247
visibility: 0.9994105100631714
","x: 275.7666320800781
y: 255.7879638671875
z: -0.1354101300239563
visibility: 0.9995012283325195
","x: 264.4993896484375
y: 257.23626708984375
z: -0.1260244995355606
visibility: 0.9987492561340332
","x: 273.73101806640625
y: 264.17950439453125
z: -0.20558898150920868
visibility: 0.9998660087585449
","x: 269.18768310546875
y: 264.8003234863281
z: -0.2029864490032196
visibility: 0.9997069239616394
","x: 287.228759765625
y: 290.8768310546875
z: -0.07875993102788925
visibility: 0.9999606609344482
","x: 254.67649841308594
y: 287.99053955078125
z: -0.04593832045793533
visibility: 0.9996026158332825
","x: 300.6282958984375
y: 325.9297180175781
z: -0.05758904665708542
visibility: 0.9929297566413879
","x: 248.03936767578125
y: 324.1300048828125
z: 0.009332363493740559
visibility: 0.8772633671760559
","x: 293.5229797363281
y: 350.9393615722656
z: -0.1515144556760788
visibility: 0.9712302684783936
","x: 250.1055908203125
y: 359.2286682128906
z: -0.055220164358615875
visibility: 0.7669255137443542
","x: 289.225341796875
y: 360.81524658203125
z: -0.17941945791244507
visibility: 0.9224995970726013
","x: 250.4606475830078
y: 369.8122863769531
z: -0.07803565263748169
visibility: 0.6529649496078491
","x: 287.53759765625
y: 354.31744384765625
z: -0.20045331120491028
visibility: 0.925625741481781
","x: 252.927734375
y: 367.7523498535156
z: -0.10249032080173492
visibility: 0.6620067358016968
","x: 288.4085998535156
y: 350.4488830566406
z: -0.16131196916103363
visibility: 0.8961151242256165
","x: 253.24545288085938
y: 363.68341064453125
z: -0.06721266359090805
visibility: 0.6443514823913574
","x: 281.33087158203125
y: 375.419677734375
z: -0.00676864106208086
visibility: 0.9997366070747375
","x: 258.7744140625
y: 375.2157287597656
z: 0.006754823960363865
visibility: 0.9997757077217102
","x: 288.8179016113281
y: 442.6199645996094
z: -0.06135929375886917
visibility: 0.998044490814209
","x: 248.0360107421875
y: 443.1636962890625
z: -0.032500866800546646
visibility: 0.9986569881439209
","x: 287.0399169921875
y: 502.0965270996094
z: 0.09814222902059555
visibility: 0.9973174929618835
","x: 246.08334350585938
y: 498.2716369628906
z: 0.13617731630802155
visibility: 0.9985408782958984
","x: 283.2395324707031
y: 510.2735900878906
z: 0.10736913979053497
visibility: 0.9377716183662415
","x: 248.80079650878906
y: 505.3379821777344
z: 0.14598992466926575
visibility: 0.9710631966590881
","x: 293.6422119140625
y: 523.6226806640625
z: -0.00440385052934289
visibility: 0.9945953488349915
","x: 238.181884765625
y: 520.841796875
z: 0.04861539229750633
visibility: 0.9966323971748352
",3.5840559005737305,,,,,,,,,,,,,,,,,,,,,,,,,,,,,,,,,,,,,,,,,,
1,"x: 271.3817138671875
y: 257.68780517578125
z: -0.24009723961353302
visibility: 0.9998987913131714
","x: 272.6365966796875
y: 252.58587646484375
z: -0.22630174458026886
visibility: 0.9995805621147156
","x: 273.6225891113281
y: 252.53094482421875
z: -0.22632181644439697
visibility: 0.9995991587638855
","x: 274.511962890625
y: 252.48226928710938
z: -0.22636154294013977
visibility: 0.9996403455734253
","x: 269.4470520019531
y: 253.13595581054688
z: -0.224555104970932
visibility: 0.9995118379592896
","x: 268.20391845703125
y: 253.453369140625
z: -0.22454991936683655
visibility: 0.9994320273399353
","x: 266.8819580078125
y: 253.8121795654297
z: -0.2245427817106247
visibility: 0.9994105100631714
","x: 275.7666320800781
y: 255.7879638671875
z: -0.1354101300239563
visibility: 0.9995012283325195
","x: 264.4993896484375
y: 257.23626708984375
z: -0.1260244995355606
visibility: 0.9987492561340332
","x: 273.73101806640625
y: 264.17950439453125
z: -0.20558898150920868
visibility: 0.9998660087585449
","x: 269.18768310546875
y: 264.8003234863281
z: -0.2029864490032196
visibility: 0.9997069239616394
","x: 287.228759765625
y: 290.8768310546875
z: -0.07875993102788925
visibility: 0.9999606609344482
","x: 254.67649841308594
y: 287.99053955078125
z: -0.04593832045793533
visibility: 0.9996026158332825
","x: 300.6282958984375
y: 325.9297180175781
z: -0.05758904665708542
visibility: 0.9929297566413879
","x: 248.03936767578125
y: 324.1300048828125
z: 0.009332363493740559
visibility: 0.8772633671760559
","x: 293.5229797363281
y: 350.9393615722656
z: -0.1515144556760788
visibility: 0.9712302684783936
","x: 250.1055908203125
y: 359.2286682128906
z: -0.055220164358615875
visibility: 0.7669255137443542
","x: 289.225341796875
y: 360.81524658203125
z: -0.17941945791244507
visibility: 0.9224995970726013
","x: 250.4606475830078
y: 369.8122863769531
z: -0.07803565263748169
visibility: 0.6529649496078491
","x: 287.53759765625
y: 354.31744384765625
z: -0.20045331120491028
visibility: 0.925625741481781
","x: 252.927734375
y: 367.7523498535156
z: -0.10249032080173492
visibility: 0.6620067358016968
","x: 288.4085998535156
y: 350.4488830566406
z: -0.16131196916103363
visibility: 0.8961151242256165
","x: 253.24545288085938
y: 363.68341064453125
z: -0.06721266359090805
visibility: 0.6443514823913574
","x: 281.33087158203125
y: 375.419677734375
z: -0.00676864106208086
visibility: 0.9997366070747375
","x: 258.7744140625
y: 375.2157287597656
z: 0.006754823960363865
visibility: 0.9997757077217102
","x: 288.8179016113281
y: 442.6199645996094
z: -0.06135929375886917
visibility: 0.998044490814209
","x: 248.0360107421875
y: 443.1636962890625
z: -0.032500866800546646
visibility: 0.9986569881439209
","x: 287.0399169921875
y: 502.0965270996094
z: 0.09814222902059555
visibility: 0.9973174929618835
","x: 246.08334350585938
y: 498.2716369628906
z: 0.13617731630802155
visibility: 0.9985408782958984
","x: 283.2395324707031
y: 510.2735900878906
z: 0.10736913979053497
visibility: 0.9377716183662415
","x: 248.80079650878906
y: 505.3379821777344
z: 0.14598992466926575
visibility: 0.9710631966590881
","x: 293.6422119140625
y: 523.6226806640625
z: -0.00440385052934289
visibility: 0.9945953488349915
","x: 238.181884765625
y: 520.841796875
z: 0.04861539229750633
visibility: 0.9966323971748352
",3.5840559005737305,,,,,,,,,,,,,,,,,,,,,,,,,,,,,,,,,,,,,,,,,,
2,"x: 269.8837890625
y: 255.67425537109375
z: -0.30079296231269836
visibility: 0.9999088048934937
","x: 270.4931335449219
y: 250.6466522216797
z: -0.2883443236351013
visibility: 0.999622106552124
","x: 271.4972229003906
y: 250.6448974609375
z: -0.2883107662200928
visibility: 0.9996388554573059
","x: 272.48272705078125
y: 250.6210174560547
z: -0.2883051335811615
visibility: 0.9996759295463562
","x: 267.15899658203125
y: 250.84393310546875
z: -0.2905295789241791
visibility: 0.9995602965354919
","x: 265.8876037597656
y: 251.07037353515625
z: -0.2905782461166382
visibility: 0.9994884133338928
","x: 264.58660888671875
y: 251.34054565429688
z: -0.29056769609451294
visibility: 0.999468982219696
","x: 273.06304931640625
y: 254.169677734375
z: -0.19586560130119324
visibility: 0.9995502829551697
","x: 261.6802062988281
y: 255.31492614746094
z: -0.20745830237865448
visibility: 0.9988734126091003
","x: 271.89306640625
y: 262.6038818359375
z: -0.2649564743041992
visibility: 0.9998791813850403
","x: 267.3348693847656
y: 262.4746398925781
z: -0.2684696912765503
visibility: 0.9997360110282898
","x: 283.7559509277344
y: 289.56396484375
z: -0.12467581033706665
visibility: 0.99996417760849
","x: 250.22286987304688
y: 287.98858642578125
z: -0.123567596077919
visibility: 0.9996411204338074
","x: 294.3890686035156
y: 327.4457092285156
z: -0.07658489048480988
visibility: 0.9934691190719604
","x: 238.41787719726562
y: 324.01544189453125
z: -0.07699985057115555
visibility: 0.8890154957771301
","x: 293.1347351074219
y: 368.7318115234375
z: -0.15729102492332458
visibility: 0.9738322496414185
","x: 242.19766235351562
y: 362.4102478027344
z: -0.13950762152671814
visibility: 0.7884493470191956
","x: 291.2301330566406
y: 381.5621643066406
z: -0.18223385512828827
visibility: 0.9293383955955505
","x: 241.24351501464844
y: 374.6983642578125
z: -0.16178783774375916
visibility: 0.6831936836242676
","x: 288.7740783691406
y: 381.0235900878906
z: -0.2109745740890503
visibility: 0.9322307705879211
","x: 243.94549560546875
y: 374.33172607421875
z: -0.18704819679260254
visibility: 0.6915601491928101
","x: 288.6509704589844
y: 377.318359375
z: -0.1692166030406952
visibility: 0.9052237272262573
","x: 245.24176025390625
y: 370.21429443359375
z: -0.15018591284751892
visibility: 0.6744813323020935
","x: 279.0781555175781
y: 375.3564453125
z: -0.0016086522955447435
visibility: 0.9997495412826538
","x: 257.318603515625
y: 375.632568359375
z: 0.0015314745251089334
visibility: 0.9997901320457458
","x: 285.17767333984375
y: 444.4488220214844
z: 0.007656463421881199
visibility: 0.9980089664459229
","x: 249.90248107910156
y: 446.11981201171875
z: -0.002895663259550929
visibility: 0.9986265897750854
","x: 288.9173889160156
y: 503.49365234375
z: 0.10487157106399536
visibility: 0.9973799586296082
","x: 243.15850830078125
y: 506.4002685546875
z: 0.11088214069604874
visibility: 0.9985106587409973
","x: 285.85302734375
y: 512.6607055664062
z: 0.10862989723682404
visibility: 0.9394466876983643
","x: 243.5978546142578
y: 514.2362670898438
z: 0.1142800897359848
visibility: 0.9676876664161682
","x: 297.3163757324219
y: 524.6795043945312
z: -8.216056448873132e-05
visibility: 0.9947024583816528
","x: 238.17347717285156
y: 524.9686279296875
z: 0.008587139658629894
visibility: 0.9965268969535828
",4.0925939083099365,,,,,,,,,,,,,,,,,,,,,,,,,,,,,,,,,,,,,,,,,,
3,"x: 269.8837890625
y: 255.67425537109375
z: -0.30079296231269836
visibility: 0.9999088048934937
","x: 270.4931335449219
y: 250.6466522216797
z: -0.2883443236351013
visibility: 0.999622106552124
","x: 271.4972229003906
y: 250.6448974609375
z: -0.2883107662200928
visibility: 0.9996388554573059
","x: 272.48272705078125
y: 250.6210174560547
z: -0.2883051335811615
visibility: 0.9996759295463562
","x: 267.15899658203125
y: 250.84393310546875
z: -0.2905295789241791
visibility: 0.9995602965354919
","x: 265.8876037597656
y: 251.07037353515625
z: -0.2905782461166382
visibility: 0.9994884133338928
","x: 264.58660888671875
y: 251.34054565429688
z: -0.29056769609451294
visibility: 0.999468982219696
","x: 273.06304931640625
y: 254.169677734375
z: -0.19586560130119324
visibility: 0.9995502829551697
","x: 261.6802062988281
y: 255.31492614746094
z: -0.20745830237865448
visibility: 0.9988734126091003
","x: 271.89306640625
y: 262.6038818359375
z: -0.2649564743041992
visibility: 0.9998791813850403
","x: 267.3348693847656
y: 262.4746398925781
z: -0.2684696912765503
visibility: 0.9997360110282898
","x: 283.7559509277344
y: 289.56396484375
z: -0.12467581033706665
visibility: 0.99996417760849
","x: 250.22286987304688
y: 287.98858642578125
z: -0.123567596077919
visibility: 0.9996411204338074
","x: 294.3890686035156
y: 327.4457092285156
z: -0.07658489048480988
visibility: 0.9934691190719604
","x: 238.41787719726562
y: 324.01544189453125
z: -0.07699985057115555
visibility: 0.8890154957771301
","x: 293.1347351074219
y: 368.7318115234375
z: -0.15729102492332458
visibility: 0.9738322496414185
","x: 242.19766235351562
y: 362.4102478027344
z: -0.13950762152671814
visibility: 0.7884493470191956
","x: 291.2301330566406
y: 381.5621643066406
z: -0.18223385512828827
visibility: 0.9293383955955505
","x: 241.24351501464844
y: 374.6983642578125
z: -0.16178783774375916
visibility: 0.6831936836242676
","x: 288.7740783691406
y: 381.0235900878906
z: -0.2109745740890503
visibility: 0.9322307705879211
","x: 243.94549560546875
y: 374.33172607421875
z: -0.18704819679260254
visibility: 0.6915601491928101
","x: 288.6509704589844
y: 377.318359375
z: -0.1692166030406952
visibility: 0.9052237272262573
","x: 245.24176025390625
y: 370.21429443359375
z: -0.15018591284751892
visibility: 0.6744813323020935
","x: 279.0781555175781
y: 375.3564453125
z: -0.0016086522955447435
visibility: 0.9997495412826538
","x: 257.318603515625
y: 375.632568359375
z: 0.0015314745251089334
visibility: 0.9997901320457458
","x: 285.17767333984375
y: 444.4488220214844
z: 0.007656463421881199
visibility: 0.9980089664459229
","x: 249.90248107910156
y: 446.11981201171875
z: -0.002895663259550929
visibility: 0.9986265897750854
","x: 288.9173889160156
y: 503.49365234375
z: 0.10487157106399536
visibility: 0.9973799586296082
","x: 243.15850830078125
y: 506.4002685546875
z: 0.11088214069604874
visibility: 0.9985106587409973
","x: 285.85302734375
y: 512.6607055664062
z: 0.10862989723682404
visibility: 0.9394466876983643
","x: 243.5978546142578
y: 514.2362670898438
z: 0.1142800897359848
visibility: 0.9676876664161682
","x: 297.3163757324219
y: 524.6795043945312
z: -8.216056448873132e-05
visibility: 0.9947024583816528
","x: 238.17347717285156
y: 524.9686279296875
z: 0.008587139658629894
visibility: 0.9965268969535828
",4.0925939083099365,,,,,,,,,,,,,,,,,,,,,,,,,,,,,,,,,,,,,,,,,,
4,"x: 269.93304443359375
y: 254.17886352539062
z: -0.2576713263988495
visibility: 0.9999174475669861
","x: 270.60418701171875
y: 248.63916015625
z: -0.24625244736671448
visibility: 0.9996582865715027
","x: 271.3863525390625
y: 248.6493682861328
z: -0.24622078239917755
visibility: 0.9996732473373413
","x: 272.0989074707031
y: 248.6750030517578
z: -0.2462346851825714
visibility: 0.9997068643569946
","x: 267.31243896484375
y: 248.7358856201172
z: -0.2626618444919586
visibility: 0.9996023774147034
","x: 266.0021667480469
y: 248.9021453857422
z: -0.26274850964546204
visibility: 0.9995372295379639
","x: 264.6944580078125
y: 249.14752197265625
z: -0.2627815008163452
visibility: 0.9995195865631104
","x: 271.8372497558594
y: 252.3242950439453
z: -0.15632064640522003
visibility: 0.9995917677879333
","x: 261.9026184082031
y: 253.64854431152344
z: -0.16893969476222992
visibility: 0.9989811778068542
","x: 271.83856201171875
y: 261.2218933105469
z: -0.22103774547576904
visibility: 0.9998902082443237
","x: 267.5262451171875
y: 261.1314697265625
z: -0.24444499611854553
visibility: 0.999761164188385
","x: 282.9136962890625
y: 287.5679931640625
z: -0.0843442752957344
visibility: 0.9999672174453735
","x: 250.37808227539062
y: 286.0629577636719
z: -0.09395787864923477
visibility: 0.9996737837791443
","x: 289.60687255859375
y: 328.23809814453125
z: -0.03503593057394028
visibility: 0.9934232234954834
","x: 239.24960327148438
y: 322.2030944824219
z: -0.059785179793834686
visibility: 0.8978000283241272
","x: 293.68682861328125
y: 369.7543029785156
z: -0.11121425777673721
visibility: 0.9759014844894409
","x: 241.60086059570312
y: 362.5779724121094
z: -0.11682169139385223
visibility: 0.8047314286231995
","x: 296.84771728515625
y: 380.4902648925781
z: -0.13347940146923065
visibility: 0.9349998235702515
","x: 240.5948028564453
y: 375.32476806640625
z: -0.13811573386192322
visibility: 0.7055063247680664
","x: 294.9407653808594
y: 381.3753662109375
z: -0.16520573198795319
visibility: 0.937751293182373
","x: 243.1926727294922
y: 375.132080078125
z: -0.16452398896217346
visibility: 0.7136421799659729
","x: 292.8955078125
y: 379.1966247558594
z: -0.12487002462148666
visibility: 0.9128615260124207
","x: 244.4033966064453
y: 370.9742736816406
z: -0.12818461656570435
visibility: 0.6963174939155579
","x: 277.73052978515625
y: 373.47235107421875
z: 0.003940783441066742
visibility: 0.9997667670249939
","x: 256.40496826171875
y: 375.0091857910156
z: -0.004002176690846682
visibility: 0.999803900718689
","x: 284.92083740234375
y: 444.3884582519531
z: -0.0026121940463781357
visibility: 0.997993528842926
","x: 249.84564208984375
y: 446.06817626953125
z: -0.011278499849140644
visibility: 0.9985723495483398
","x: 289.20587158203125
y: 504.1612243652344
z: 0.09150736033916473
visibility: 0.9974706172943115
","x: 242.34774780273438
y: 506.56927490234375
z: 0.09527991712093353
visibility: 0.9985314607620239
","x: 285.88763427734375
y: 514.2101440429688
z: 0.09267889708280563
visibility: 0.9419326782226562
","x: 243.66714477539062
y: 516.2288818359375
z: 0.09869160503149033
visibility: 0.966464102268219
","x: 298.62481689453125
y: 524.8905029296875
z: -0.011088026687502861
visibility: 0.9948402047157288
","x: 235.8706512451172
y: 526.3018188476562
z: -0.004473958630114794
visibility: 0.9965599775314331
",4.216599225997925,,,,,,,,,,,,,,,,,,,,,,,,,,,,,,,,,,,,,,,,,,
5,"x: 269.93304443359375
y: 254.17886352539062
z: -0.2576713263988495
visibility: 0.9999174475669861
","x: 270.60418701171875
y: 248.63916015625
z: -0.24625244736671448
visibility: 0.9996582865715027
","x: 271.3863525390625
y: 248.6493682861328
z: -0.24622078239917755
visibility: 0.9996732473373413
","x: 272.0989074707031
y: 248.6750030517578
z: -0.2462346851825714
visibility: 0.9997068643569946
","x: 267.31243896484375
y: 248.7358856201172
z: -0.2626618444919586
visibility: 0.9996023774147034
","x: 266.0021667480469
y: 248.9021453857422
z: -0.26274850964546204
visibility: 0.9995372295379639
","x: 264.6944580078125
y: 249.14752197265625
z: -0.2627815008163452
visibility: 0.9995195865631104
","x: 271.8372497558594
y: 252.3242950439453
z: -0.15632064640522003
visibility: 0.9995917677879333
","x: 261.9026184082031
y: 253.64854431152344
z: -0.16893969476222992
visibility: 0.9989811778068542
","x: 271.83856201171875
y: 261.2218933105469
z: -0.22103774547576904
visibility: 0.9998902082443237
","x: 267.5262451171875
y: 261.1314697265625
z: -0.24444499611854553
visibility: 0.999761164188385
","x: 282.9136962890625
y: 287.5679931640625
z: -0.0843442752957344
visibility: 0.9999672174453735
","x: 250.37808227539062
y: 286.0629577636719
z: -0.09395787864923477
visibility: 0.9996737837791443
","x: 289.60687255859375
y: 328.23809814453125
z: -0.03503593057394028
visibility: 0.9934232234954834
","x: 239.24960327148438
y: 322.2030944824219
z: -0.059785179793834686
visibility: 0.8978000283241272
","x: 293.68682861328125
y: 369.7543029785156
z: -0.11121425777673721
visibility: 0.9759014844894409
","x: 241.60086059570312
y: 362.5779724121094
z: -0.11682169139385223
visibility: 0.8047314286231995
","x: 296.84771728515625
y: 380.4902648925781
z: -0.13347940146923065
visibility: 0.9349998235702515
","x: 240.5948028564453
y: 375.32476806640625
z: -0.13811573386192322
visibility: 0.7055063247680664
","x: 294.9407653808594
y: 381.3753662109375
z: -0.16520573198795319
visibility: 0.937751293182373
","x: 243.1926727294922
y: 375.132080078125
z: -0.16452398896217346
visibility: 0.7136421799659729
","x: 292.8955078125
y: 379.1966247558594
z: -0.12487002462148666
visibility: 0.9128615260124207
","x: 244.4033966064453
y: 370.9742736816406
z: -0.12818461656570435
visibility: 0.6963174939155579
","x: 277.73052978515625
y: 373.47235107421875
z: 0.003940783441066742
visibility: 0.9997667670249939
","x: 256.40496826171875
y: 375.0091857910156
z: -0.004002176690846682
visibility: 0.999803900718689
","x: 284.92083740234375
y: 444.3884582519531
z: -0.0026121940463781357
visibility: 0.997993528842926
","x: 249.84564208984375
y: 446.06817626953125
z: -0.011278499849140644
visibility: 0.9985723495483398
","x: 289.20587158203125
y: 504.1612243652344
z: 0.09150736033916473
visibility: 0.9974706172943115
","x: 242.34774780273438
y: 506.56927490234375
z: 0.09527991712093353
visibility: 0.9985314607620239
","x: 285.88763427734375
y: 514.2101440429688
z: 0.09267889708280563
visibility: 0.9419326782226562
","x: 243.66714477539062
y: 516.2288818359375
z: 0.09869160503149033
visibility: 0.966464102268219
","x: 298.62481689453125
y: 524.8905029296875
z: -0.011088026687502861
visibility: 0.9948402047157288
","x: 235.8706512451172
y: 526.3018188476562
z: -0.004473958630114794
visibility: 0.9965599775314331
",4.216599225997925,,,,,,,,,,,,,,,,,,,,,,,,,,,,,,,,,,,,,,,,,,
6,"x: 271.1512145996094
y: 255.03416442871094
z: -0.2915862202644348
visibility: 0.9999234080314636
","x: 271.03265380859375
y: 248.83413696289062
z: -0.2792375385761261
visibility: 0.999684751033783
","x: 271.4129943847656
y: 248.7285614013672
z: -0.27924060821533203
visibility: 0.9996980428695679
","x: 272.2950744628906
y: 248.7786865234375
z: -0.27928346395492554
visibility: 0.9997284412384033
","x: 269.0833740234375
y: 249.01014709472656
z: -0.2898213267326355
visibility: 0.9996340870857239
","x: 268.0078125
y: 249.31884765625
z: -0.2898547351360321
visibility: 0.9995740652084351
","x: 266.80084228515625
y: 249.522216796875
z: -0.28988441824913025
visibility: 0.9995556473731995
","x: 271.87933349609375
y: 252.3995361328125
z: -0.18454496562480927
visibility: 0.9996145963668823
","x: 262.2956848144531
y: 253.1040802001953
z: -0.23055872321128845
visibility: 0.9990661144256592
","x: 271.9375
y: 261.6502685546875
z: -0.25364863872528076
visibility: 0.9998968243598938
","x: 268.75946044921875
y: 261.32208251953125
z: -0.26854580640792847
visibility: 0.9997806549072266
","x: 281.9347839355469
y: 287.7689208984375
z: -0.10388998687267303
visibility: 0.9999690651893616
","x: 249.7166290283203
y: 286.08172607421875
z: -0.15916241705417633
visibility: 0.9997010827064514
","x: 287.3049621582031
y: 331.9853210449219
z: -0.04316011071205139
visibility: 0.9914405345916748
","x: 238.1639862060547
y: 322.23516845703125
z: -0.13856814801692963
visibility: 0.9053068161010742
","x: 301.1536865234375
y: 365.483642578125
z: -0.12769478559494019
visibility: 0.9767617583274841
","x: 240.4281005859375
y: 365.9364318847656
z: -0.19689151644706726
visibility: 0.8181371092796326
","x: 307.316650390625
y: 377.91827392578125
z: -0.1506497710943222
visibility: 0.9382710456848145
","x: 239.41465759277344
y: 379.38702392578125
z: -0.22066351771354675
visibility: 0.723696768283844
","x: 308.4179992675781
y: 373.828857421875
z: -0.17422841489315033
visibility: 0.9412652254104614
","x: 242.38478088378906
y: 378.75390625
z: -0.24456198513507843
visibility: 0.7316200137138367
","x: 305.9399108886719
y: 371.05712890625
z: -0.1369144320487976
visibility: 0.9181451797485352
","x: 243.45852661132812
y: 374.15277099609375
z: -0.20769131183624268
visibility: 0.7131750583648682
","x: 277.4574890136719
y: 373.52069091796875
z: 0.013529427349567413
visibility: 0.9997738003730774
","x: 256.0813293457031
y: 375.7733154296875
z: -0.013553130440413952
visibility: 0.999807596206665
","x: 285.1435852050781
y: 445.26055908203125
z: 0.0060131060890853405
visibility: 0.99800044298172
","x: 248.62069702148438
y: 447.84124755859375
z: -0.014716921374201775
visibility: 0.9985606074333191
","x: 289.1024475097656
y: 504.0692443847656
z: 0.1423368752002716
visibility: 0.997553825378418
","x: 240.9121551513672
y: 506.6004943847656
z: 0.11105164140462875
visibility: 0.9985864162445068
","x: 285.71478271484375
y: 513.9501953125
z: 0.149057537317276
visibility: 0.9448159337043762
","x: 242.24313354492188
y: 514.9188232421875
z: 0.114845409989357
visibility: 0.9659913778305054
","x: 298.72332763671875
y: 524.9091186523438
z: 0.046561580151319504
visibility: 0.9949772357940674
","x: 234.68399047851562
y: 528.1326904296875
z: 0.014021145179867744
visibility: 0.9966621994972229
",4.378659725189209,"x: 301.0523681640625
y: 361.8192138671875
z: 0.0
","x: 305.029296875
y: 359.81756591796875
z: -0.0005400775116868317
","x: 309.1661071777344
y: 359.4323425292969
z: -0.0013961492804810405
","x: 312.2117614746094
y: 360.0863342285156
z: -0.002979126526042819
","x: 314.3828125
y: 360.07952880859375
z: -0.004332593642175198
","x: 312.8048400878906
y: 366.03997802734375
z: 0.0014990156050771475
","x: 316.55615234375
y: 368.43408203125
z: -0.0002350624999962747
","x: 318.2561950683594
y: 369.53240966796875
z: -0.0010825692443177104
","x: 319.34259033203125
y: 370.0743103027344
z: -0.0013588938163593411
","x: 311.804443359375
y: 369.5646667480469
z: 0.00010161097452510148
","x: 315.4638366699219
y: 373.11126708984375
z: -0.0011931535555049777
","x: 316.25640869140625
y: 373.2223205566406
z: -0.001401590066961944
","x: 316.5246276855469
y: 372.6513977050781
z: -0.0011867707362398505
","x: 310.1772766113281
y: 372.263671875
z: -0.0018247758271172643
","x: 313.10107421875
y: 375.2578430175781
z: -0.003400046145543456
","x: 313.7376708984375
y: 374.80828857421875
z: -0.003331130603328347
","x: 313.9326477050781
y: 373.8542175292969
z: -0.002849796786904335
","x: 307.9240417480469
y: 374.4292907714844
z: -0.00409697974100709
","x: 309.8707275390625
y: 377.1831970214844
z: -0.005068852566182613
","x: 310.56195068359375
y: 377.01104736328125
z: -0.00487113744020462
","x: 310.7772521972656
y: 376.1083679199219
z: -0.004360212478786707
",,,,,,,,,,,,,,,,,,,,,
7,"x: 271.1512145996094
y: 255.03416442871094
z: -0.2915862202644348
visibility: 0.9999234080314636
","x: 271.03265380859375
y: 248.83413696289062
z: -0.2792375385761261
visibility: 0.999684751033783
","x: 271.4129943847656
y: 248.7285614013672
z: -0.27924060821533203
visibility: 0.9996980428695679
","x: 272.2950744628906
y: 248.7786865234375
z: -0.27928346395492554
visibility: 0.9997284412384033
","x: 269.0833740234375
y: 249.01014709472656
z: -0.2898213267326355
visibility: 0.9996340870857239
","x: 268.0078125
y: 249.31884765625
z: -0.2898547351360321
visibility: 0.9995740652084351
","x: 266.80084228515625
y: 249.522216796875
z: -0.28988441824913025
visibility: 0.9995556473731995
","x: 271.87933349609375
y: 252.3995361328125
z: -0.18454496562480927
visibility: 0.9996145963668823
","x: 262.2956848144531
y: 253.1040802001953
z: -0.23055872321128845
visibility: 0.9990661144256592
","x: 271.9375
y: 261.6502685546875
z: -0.25364863872528076
visibility: 0.9998968243598938
","x: 268.75946044921875
y: 261.32208251953125
z: -0.26854580640792847
visibility: 0.9997806549072266
","x: 281.9347839355469
y: 287.7689208984375
z: -0.10388998687267303
visibility: 0.9999690651893616
","x: 249.7166290283203
y: 286.08172607421875
z: -0.15916241705417633
visibility: 0.9997010827064514
","x: 287.3049621582031
y: 331.9853210449219
z: -0.04316011071205139
visibility: 0.9914405345916748
","x: 238.1639862060547
y: 322.23516845703125
z: -0.13856814801692963
visibility: 0.9053068161010742
","x: 301.1536865234375
y: 365.483642578125
z: -0.12769478559494019
visibility: 0.9767617583274841
","x: 240.4281005859375
y: 365.9364318847656
z: -0.19689151644706726
visibility: 0.8181371092796326
","x: 307.316650390625
y: 377.91827392578125
z: -0.1506497710943222
visibility: 0.9382710456848145
","x: 239.41465759277344
y: 379.38702392578125
z: -0.22066351771354675
visibility: 0.723696768283844
","x: 308.4179992675781
y: 373.828857421875
z: -0.17422841489315033
visibility: 0.9412652254104614
","x: 242.38478088378906
y: 378.75390625
z: -0.24456198513507843
visibility: 0.7316200137138367
","x: 305.9399108886719
y: 371.05712890625
z: -0.1369144320487976
visibility: 0.9181451797485352
","x: 243.45852661132812
y: 374.15277099609375
z: -0.20769131183624268
visibility: 0.7131750583648682
","x: 277.4574890136719
y: 373.52069091796875
z: 0.013529427349567413
visibility: 0.9997738003730774
","x: 256.0813293457031
y: 375.7733154296875
z: -0.013553130440413952
visibility: 0.999807596206665
","x: 285.1435852050781
y: 445.26055908203125
z: 0.0060131060890853405
visibility: 0.99800044298172
","x: 248.62069702148438
y: 447.84124755859375
z: -0.014716921374201775
visibility: 0.9985606074333191
","x: 289.1024475097656
y: 504.0692443847656
z: 0.1423368752002716
visibility: 0.997553825378418
","x: 240.9121551513672
y: 506.6004943847656
z: 0.11105164140462875
visibility: 0.9985864162445068
","x: 285.71478271484375
y: 513.9501953125
z: 0.149057537317276
visibility: 0.9448159337043762
","x: 242.24313354492188
y: 514.9188232421875
z: 0.114845409989357
visibility: 0.9659913778305054
","x: 298.72332763671875
y: 524.9091186523438
z: 0.046561580151319504
visibility: 0.9949772357940674
","x: 234.68399047851562
y: 528.1326904296875
z: 0.014021145179867744
visibility: 0.9966621994972229
",4.378659725189209,"x: 301.0523681640625
y: 361.8192138671875
z: 0.0
","x: 305.029296875
y: 359.81756591796875
z: -0.0005400775116868317
","x: 309.1661071777344
y: 359.4323425292969
z: -0.0013961492804810405
","x: 312.2117614746094
y: 360.0863342285156
z: -0.002979126526042819
","x: 314.3828125
y: 360.07952880859375
z: -0.004332593642175198
","x: 312.8048400878906
y: 366.03997802734375
z: 0.0014990156050771475
","x: 316.55615234375
y: 368.43408203125
z: -0.0002350624999962747
","x: 318.2561950683594
y: 369.53240966796875
z: -0.0010825692443177104
","x: 319.34259033203125
y: 370.0743103027344
z: -0.0013588938163593411
","x: 311.804443359375
y: 369.5646667480469
z: 0.00010161097452510148
","x: 315.4638366699219
y: 373.11126708984375
z: -0.0011931535555049777
","x: 316.25640869140625
y: 373.2223205566406
z: -0.001401590066961944
","x: 316.5246276855469
y: 372.6513977050781
z: -0.0011867707362398505
","x: 310.1772766113281
y: 372.263671875
z: -0.0018247758271172643
","x: 313.10107421875
y: 375.2578430175781
z: -0.003400046145543456
","x: 313.7376708984375
y: 374.80828857421875
z: -0.003331130603328347
","x: 313.9326477050781
y: 373.8542175292969
z: -0.002849796786904335
","x: 307.9240417480469
y: 374.4292907714844
z: -0.00409697974100709
","x: 309.8707275390625
y: 377.1831970214844
z: -0.005068852566182613
","x: 310.56195068359375
y: 377.01104736328125
z: -0.00487113744020462
","x: 310.7772521972656
y: 376.1083679199219
z: -0.004360212478786707
",,,,,,,,,,,,,,,,,,,,,
8,"x: 271.1512145996094
y: 255.03416442871094
z: -0.2915862202644348
visibility: 0.9999234080314636
","x: 271.03265380859375
y: 248.83413696289062
z: -0.2792375385761261
visibility: 0.999684751033783
","x: 271.4129943847656
y: 248.7285614013672
z: -0.27924060821533203
visibility: 0.9996980428695679
","x: 272.2950744628906
y: 248.7786865234375
z: -0.27928346395492554
visibility: 0.9997284412384033
","x: 269.0833740234375
y: 249.01014709472656
z: -0.2898213267326355
visibility: 0.9996340870857239
","x: 268.0078125
y: 249.31884765625
z: -0.2898547351360321
visibility: 0.9995740652084351
","x: 266.80084228515625
y: 249.522216796875
z: -0.28988441824913025
visibility: 0.9995556473731995
","x: 271.87933349609375
y: 252.3995361328125
z: -0.18454496562480927
visibility: 0.9996145963668823
","x: 262.2956848144531
y: 253.1040802001953
z: -0.23055872321128845
visibility: 0.9990661144256592
","x: 271.9375
y: 261.6502685546875
z: -0.25364863872528076
visibility: 0.9998968243598938
","x: 268.75946044921875
y: 261.32208251953125
z: -0.26854580640792847
visibility: 0.9997806549072266
","x: 281.9347839355469
y: 287.7689208984375
z: -0.10388998687267303
visibility: 0.9999690651893616
","x: 249.7166290283203
y: 286.08172607421875
z: -0.15916241705417633
visibility: 0.9997010827064514
","x: 287.3049621582031
y: 331.9853210449219
z: -0.04316011071205139
visibility: 0.9914405345916748
","x: 238.1639862060547
y: 322.23516845703125
z: -0.13856814801692963
visibility: 0.9053068161010742
","x: 301.1536865234375
y: 365.483642578125
z: -0.12769478559494019
visibility: 0.9767617583274841
","x: 240.4281005859375
y: 365.9364318847656
z: -0.19689151644706726
visibility: 0.8181371092796326
","x: 307.316650390625
y: 377.91827392578125
z: -0.1506497710943222
visibility: 0.9382710456848145
","x: 239.41465759277344
y: 379.38702392578125
z: -0.22066351771354675
visibility: 0.723696768283844
","x: 308.4179992675781
y: 373.828857421875
z: -0.17422841489315033
visibility: 0.9412652254104614
","x: 242.38478088378906
y: 378.75390625
z: -0.24456198513507843
visibility: 0.7316200137138367
","x: 305.9399108886719
y: 371.05712890625
z: -0.1369144320487976
visibility: 0.9181451797485352
","x: 243.45852661132812
y: 374.15277099609375
z: -0.20769131183624268
visibility: 0.7131750583648682
","x: 277.4574890136719
y: 373.52069091796875
z: 0.013529427349567413
visibility: 0.9997738003730774
","x: 256.0813293457031
y: 375.7733154296875
z: -0.013553130440413952
visibility: 0.999807596206665
","x: 285.1435852050781
y: 445.26055908203125
z: 0.0060131060890853405
visibility: 0.99800044298172
","x: 248.62069702148438
y: 447.84124755859375
z: -0.014716921374201775
visibility: 0.9985606074333191
","x: 289.1024475097656
y: 504.0692443847656
z: 0.1423368752002716
visibility: 0.997553825378418
","x: 240.9121551513672
y: 506.6004943847656
z: 0.11105164140462875
visibility: 0.9985864162445068
","x: 285.71478271484375
y: 513.9501953125
z: 0.149057537317276
visibility: 0.9448159337043762
","x: 242.24313354492188
y: 514.9188232421875
z: 0.114845409989357
visibility: 0.9659913778305054
","x: 298.72332763671875
y: 524.9091186523438
z: 0.046561580151319504
visibility: 0.9949772357940674
","x: 234.68399047851562
y: 528.1326904296875
z: 0.014021145179867744
visibility: 0.9966621994972229
",4.378659725189209,"x: 301.0523681640625
y: 361.8192138671875
z: 0.0
","x: 305.029296875
y: 359.81756591796875
z: -0.0005400775116868317
","x: 309.1661071777344
y: 359.4323425292969
z: -0.0013961492804810405
","x: 312.2117614746094
y: 360.0863342285156
z: -0.002979126526042819
","x: 314.3828125
y: 360.07952880859375
z: -0.004332593642175198
","x: 312.8048400878906
y: 366.03997802734375
z: 0.0014990156050771475
","x: 316.55615234375
y: 368.43408203125
z: -0.0002350624999962747
","x: 318.2561950683594
y: 369.53240966796875
z: -0.0010825692443177104
","x: 319.34259033203125
y: 370.0743103027344
z: -0.0013588938163593411
","x: 311.804443359375
y: 369.5646667480469
z: 0.00010161097452510148
","x: 315.4638366699219
y: 373.11126708984375
z: -0.0011931535555049777
","x: 316.25640869140625
y: 373.2223205566406
z: -0.001401590066961944
","x: 316.5246276855469
y: 372.6513977050781
z: -0.0011867707362398505
","x: 310.1772766113281
y: 372.263671875
z: -0.0018247758271172643
","x: 313.10107421875
y: 375.2578430175781
z: -0.003400046145543456
","x: 313.7376708984375
y: 374.80828857421875
z: -0.003331130603328347
","x: 313.9326477050781
y: 373.8542175292969
z: -0.002849796786904335
","x: 307.9240417480469
y: 374.4292907714844
z: -0.00409697974100709
","x: 309.8707275390625
y: 377.1831970214844
z: -0.005068852566182613
","x: 310.56195068359375
y: 377.01104736328125
z: -0.00487113744020462
","x: 310.7772521972656
y: 376.1083679199219
z: -0.004360212478786707
",,,,,,,,,,,,,,,,,,,,,
9,"x: 270.6100158691406
y: 254.89378356933594
z: -0.2791022062301636
visibility: 0.9999306201934814
","x: 270.5436706542969
y: 248.83447265625
z: -0.26505815982818604
visibility: 0.9997150301933289
","x: 271.0143737792969
y: 248.72377014160156
z: -0.2650647461414337
visibility: 0.9997269511222839
","x: 271.7638244628906
y: 248.6799774169922
z: -0.2650913894176483
visibility: 0.9997541308403015
","x: 268.4674987792969
y: 248.9044952392578
z: -0.271731436252594
visibility: 0.9996691346168518
","x: 267.35357666015625
y: 249.0314483642578
z: -0.27176138758659363
visibility: 0.9996150732040405
","x: 266.1171875
y: 249.085205078125
z: -0.27177008986473083
visibility: 0.9995981454849243
","x: 271.53643798828125
y: 251.37826538085938
z: -0.17780080437660217
visibility: 0.9996488690376282
","x: 261.67437744140625
y: 252.17752075195312
z: -0.19063282012939453
visibility: 0.9991571307182312
","x: 271.6725769042969
y: 261.5216064453125
z: -0.2385888546705246
visibility: 0.9999060034751892
","x: 268.3524475097656
y: 261.0677490234375
z: -0.24709954857826233
visibility: 0.9998014569282532
","x: 281.5404968261719
y: 286.7502136230469
z: -0.06008923798799515
visibility: 0.9999716877937317
","x: 249.78521728515625
y: 283.34307861328125
z: -0.12166479974985123
visibility: 0.999729335308075
","x: 287.6373291015625
y: 323.03936767578125
z: -0.0250408798456192
visibility: 0.9882723689079285
","x: 235.76708984375
y: 319.266357421875
z: -0.09132112562656403
visibility: 0.9141832590103149
","x: 299.1470031738281
y: 352.93646240234375
z: -0.14744500815868378
visibility: 0.9772276282310486
","x: 237.61129760742188
y: 365.3838806152344
z: -0.15079545974731445
visibility: 0.8343225717544556
","x: 302.7367858886719
y: 357.57861328125
z: -0.17500968277454376
visibility: 0.9411948919296265
","x: 236.71653747558594
y: 377.95892333984375
z: -0.17450621724128723
visibility: 0.7466383576393127
","x: 303.2750549316406
y: 358.2519836425781
z: -0.20816347002983093
visibility: 0.9444255232810974
","x: 239.71925354003906
y: 377.09027099609375
z: -0.1980615109205246
visibility: 0.7540533542633057
","x: 301.4004821777344
y: 357.4650573730469
z: -0.16402271389961243
visibility: 0.922788679599762
","x: 240.82188415527344
y: 372.59417724609375
z: -0.16085419058799744
visibility: 0.7360463738441467
","x: 276.1905517578125
y: 373.41326904296875
z: 0.022837482392787933
visibility: 0.9997891783714294
","x: 254.697998046875
y: 374.8353576660156
z: -0.022905772551894188
visibility: 0.9998142719268799
","x: 284.62860107421875
y: 445.1480407714844
z: 0.006312214769423008
visibility: 0.9978384971618652
","x: 248.36569213867188
y: 446.78460693359375
z: -0.046596575528383255
visibility: 0.9985669255256653
","x: 290.2578125
y: 504.0064697265625
z: 0.14298398792743683
visibility: 0.9975376725196838
","x: 232.43284606933594
y: 504.99810791015625
z: 0.0951341763138771
visibility: 0.9984842538833618
","x: 287.1033020019531
y: 513.8382568359375
z: 0.1507551223039627
visibility: 0.9452783465385437
","x: 229.56158447265625
y: 508.424072265625
z: 0.10436936467885971
visibility: 0.9586798548698425
","x: 298.7601318359375
y: 525.4256591796875
z: 0.05346766114234924
visibility: 0.994868278503418
","x: 233.72879028320312
y: 529.3133544921875
z: 0.006162311881780624
visibility: 0.9964452385902405
",4.5053651332855225,"x: 295.4944763183594
y: 352.2187805175781
z: 0.0
","x: 297.608154296875
y: 348.4771728515625
z: -0.0014081414556130767
","x: 300.04876708984375
y: 345.3975830078125
z: -0.003101983806118369
","x: 301.7491149902344
y: 344.3316345214844
z: -0.005472587887197733
","x: 302.8345642089844
y: 344.2406921386719
z: -0.007306815590709448
","x: 304.86676025390625
y: 348.6607360839844
z: -0.0007207468734122813
","x: 308.176513671875
y: 348.6041259765625
z: -0.0037957157474011183
","x: 306.35308837890625
y: 348.5602111816406
z: -0.004910509567707777
","x: 304.6105651855469
y: 348.66705322265625
z: -0.00517158443108201
","x: 304.45794677734375
y: 352.38916015625
z: -0.0019397400319576263
","x: 307.0804443359375
y: 352.486083984375
z: -0.005157576873898506
","x: 304.6124572753906
y: 352.0718994140625
z: -0.005404003895819187
","x: 302.9826354980469
y: 351.8917541503906
z: -0.004733526147902012
","x: 303.616455078125
y: 356.0094909667969
z: -0.003710684599354863
","x: 305.8561706542969
y: 356.0150146484375
z: -0.006644414272159338
","x: 303.5506591796875
y: 355.2276916503906
z: -0.0056692929938435555
","x: 302.0126647949219
y: 355.0101318359375
z: -0.004267977550625801
","x: 302.4291076660156
y: 359.5758056640625
z: -0.005813730880618095
","x: 304.40460205078125
y: 359.36590576171875
z: -0.007287611253559589
","x: 302.7376403808594
y: 358.4106750488281
z: -0.0063818334601819515
","x: 301.33831787109375
y: 358.08892822265625
z: -0.005169373005628586
",,,,,,,,,,,,,,,,,,,,,
10,"x: 270.6100158691406
y: 254.89378356933594
z: -0.2791022062301636
visibility: 0.9999306201934814
","x: 270.5436706542969
y: 248.83447265625
z: -0.26505815982818604
visibility: 0.9997150301933289
","x: 271.0143737792969
y: 248.72377014160156
z: -0.2650647461414337
visibility: 0.9997269511222839
","x: 271.7638244628906
y: 248.6799774169922
z: -0.2650913894176483
visibility: 0.9997541308403015
","x: 268.4674987792969
y: 248.9044952392578
z: -0.271731436252594
visibility: 0.9996691346168518
","x: 267.35357666015625
y: 249.0314483642578
z: -0.27176138758659363
visibility: 0.9996150732040405
","x: 266.1171875
y: 249.085205078125
z: -0.27177008986473083
visibility: 0.9995981454849243
","x: 271.53643798828125
y: 251.37826538085938
z: -0.17780080437660217
visibility: 0.9996488690376282
","x: 261.67437744140625
y: 252.17752075195312
z: -0.19063282012939453
visibility: 0.9991571307182312
","x: 271.6725769042969
y: 261.5216064453125
z: -0.2385888546705246
visibility: 0.9999060034751892
","x: 268.3524475097656
y: 261.0677490234375
z: -0.24709954857826233
visibility: 0.9998014569282532
","x: 281.5404968261719
y: 286.7502136230469
z: -0.06008923798799515
visibility: 0.9999716877937317
","x: 249.78521728515625
y: 283.34307861328125
z: -0.12166479974985123
visibility: 0.999729335308075
","x: 287.6373291015625
y: 323.03936767578125
z: -0.0250408798456192
visibility: 0.9882723689079285
","x: 235.76708984375
y: 319.266357421875
z: -0.09132112562656403
visibility: 0.9141832590103149
","x: 299.1470031738281
y: 352.93646240234375
z: -0.14744500815868378
visibility: 0.9772276282310486
","x: 237.61129760742188
y: 365.3838806152344
z: -0.15079545974731445
visibility: 0.8343225717544556
","x: 302.7367858886719
y: 357.57861328125
z: -0.17500968277454376
visibility: 0.9411948919296265
","x: 236.71653747558594
y: 377.95892333984375
z: -0.17450621724128723
visibility: 0.7466383576393127
","x: 303.2750549316406
y: 358.2519836425781
z: -0.20816347002983093
visibility: 0.9444255232810974
","x: 239.71925354003906
y: 377.09027099609375
z: -0.1980615109205246
visibility: 0.7540533542633057
","x: 301.4004821777344
y: 357.4650573730469
z: -0.16402271389961243
visibility: 0.922788679599762
","x: 240.82188415527344
y: 372.59417724609375
z: -0.16085419058799744
visibility: 0.7360463738441467
","x: 276.1905517578125
y: 373.41326904296875
z: 0.022837482392787933
visibility: 0.9997891783714294
","x: 254.697998046875
y: 374.8353576660156
z: -0.022905772551894188
visibility: 0.9998142719268799
","x: 284.62860107421875
y: 445.1480407714844
z: 0.006312214769423008
visibility: 0.9978384971618652
","x: 248.36569213867188
y: 446.78460693359375
z: -0.046596575528383255
visibility: 0.9985669255256653
","x: 290.2578125
y: 504.0064697265625
z: 0.14298398792743683
visibility: 0.9975376725196838
","x: 232.43284606933594
y: 504.99810791015625
z: 0.0951341763138771
visibility: 0.9984842538833618
","x: 287.1033020019531
y: 513.8382568359375
z: 0.1507551223039627
visibility: 0.9452783465385437
","x: 229.56158447265625
y: 508.424072265625
z: 0.10436936467885971
visibility: 0.9586798548698425
","x: 298.7601318359375
y: 525.4256591796875
z: 0.05346766114234924
visibility: 0.994868278503418
","x: 233.72879028320312
y: 529.3133544921875
z: 0.006162311881780624
visibility: 0.9964452385902405
",4.5053651332855225,"x: 295.4944763183594
y: 352.2187805175781
z: 0.0
","x: 297.608154296875
y: 348.4771728515625
z: -0.0014081414556130767
","x: 300.04876708984375
y: 345.3975830078125
z: -0.003101983806118369
","x: 301.7491149902344
y: 344.3316345214844
z: -0.005472587887197733
","x: 302.8345642089844
y: 344.2406921386719
z: -0.007306815590709448
","x: 304.86676025390625
y: 348.6607360839844
z: -0.0007207468734122813
","x: 308.176513671875
y: 348.6041259765625
z: -0.0037957157474011183
","x: 306.35308837890625
y: 348.5602111816406
z: -0.004910509567707777
","x: 304.6105651855469
y: 348.66705322265625
z: -0.00517158443108201
","x: 304.45794677734375
y: 352.38916015625
z: -0.0019397400319576263
","x: 307.0804443359375
y: 352.486083984375
z: -0.005157576873898506
","x: 304.6124572753906
y: 352.0718994140625
z: -0.005404003895819187
","x: 302.9826354980469
y: 351.8917541503906
z: -0.004733526147902012
","x: 303.616455078125
y: 356.0094909667969
z: -0.003710684599354863
","x: 305.8561706542969
y: 356.0150146484375
z: -0.006644414272159338
","x: 303.5506591796875
y: 355.2276916503906
z: -0.0056692929938435555
","x: 302.0126647949219
y: 355.0101318359375
z: -0.004267977550625801
","x: 302.4291076660156
y: 359.5758056640625
z: -0.005813730880618095
","x: 304.40460205078125
y: 359.36590576171875
z: -0.007287611253559589
","x: 302.7376403808594
y: 358.4106750488281
z: -0.0063818334601819515
","x: 301.33831787109375
y: 358.08892822265625
z: -0.005169373005628586
",,,,,,,,,,,,,,,,,,,,,
11,"x: 270.6100158691406
y: 254.89378356933594
z: -0.2791022062301636
visibility: 0.9999306201934814
","x: 270.5436706542969
y: 248.83447265625
z: -0.26505815982818604
visibility: 0.9997150301933289
","x: 271.0143737792969
y: 248.72377014160156
z: -0.2650647461414337
visibility: 0.9997269511222839
","x: 271.7638244628906
y: 248.6799774169922
z: -0.2650913894176483
visibility: 0.9997541308403015
","x: 268.4674987792969
y: 248.9044952392578
z: -0.271731436252594
visibility: 0.9996691346168518
","x: 267.35357666015625
y: 249.0314483642578
z: -0.27176138758659363
visibility: 0.9996150732040405
","x: 266.1171875
y: 249.085205078125
z: -0.27177008986473083
visibility: 0.9995981454849243
","x: 271.53643798828125
y: 251.37826538085938
z: -0.17780080437660217
visibility: 0.9996488690376282
","x: 261.67437744140625
y: 252.17752075195312
z: -0.19063282012939453
visibility: 0.9991571307182312
","x: 271.6725769042969
y: 261.5216064453125
z: -0.2385888546705246
visibility: 0.9999060034751892
","x: 268.3524475097656
y: 261.0677490234375
z: -0.24709954857826233
visibility: 0.9998014569282532
","x: 281.5404968261719
y: 286.7502136230469
z: -0.06008923798799515
visibility: 0.9999716877937317
","x: 249.78521728515625
y: 283.34307861328125
z: -0.12166479974985123
visibility: 0.999729335308075
","x: 287.6373291015625
y: 323.03936767578125
z: -0.0250408798456192
visibility: 0.9882723689079285
","x: 235.76708984375
y: 319.266357421875
z: -0.09132112562656403
visibility: 0.9141832590103149
","x: 299.1470031738281
y: 352.93646240234375
z: -0.14744500815868378
visibility: 0.9772276282310486
","x: 237.61129760742188
y: 365.3838806152344
z: -0.15079545974731445
visibility: 0.8343225717544556
","x: 302.7367858886719
y: 357.57861328125
z: -0.17500968277454376
visibility: 0.9411948919296265
","x: 236.71653747558594
y: 377.95892333984375
z: -0.17450621724128723
visibility: 0.7466383576393127
","x: 303.2750549316406
y: 358.2519836425781
z: -0.20816347002983093
visibility: 0.9444255232810974
","x: 239.71925354003906
y: 377.09027099609375
z: -0.1980615109205246
visibility: 0.7540533542633057
","x: 301.4004821777344
y: 357.4650573730469
z: -0.16402271389961243
visibility: 0.922788679599762
","x: 240.82188415527344
y: 372.59417724609375
z: -0.16085419058799744
visibility: 0.7360463738441467
","x: 276.1905517578125
y: 373.41326904296875
z: 0.022837482392787933
visibility: 0.9997891783714294
","x: 254.697998046875
y: 374.8353576660156
z: -0.022905772551894188
visibility: 0.9998142719268799
","x: 284.62860107421875
y: 445.1480407714844
z: 0.006312214769423008
visibility: 0.9978384971618652
","x: 248.36569213867188
y: 446.78460693359375
z: -0.046596575528383255
visibility: 0.9985669255256653
","x: 290.2578125
y: 504.0064697265625
z: 0.14298398792743683
visibility: 0.9975376725196838
","x: 232.43284606933594
y: 504.99810791015625
z: 0.0951341763138771
visibility: 0.9984842538833618
","x: 287.1033020019531
y: 513.8382568359375
z: 0.1507551223039627
visibility: 0.9452783465385437
","x: 229.56158447265625
y: 508.424072265625
z: 0.10436936467885971
visibility: 0.9586798548698425
","x: 298.7601318359375
y: 525.4256591796875
z: 0.05346766114234924
visibility: 0.994868278503418
","x: 233.72879028320312
y: 529.3133544921875
z: 0.006162311881780624
visibility: 0.9964452385902405
",4.5053651332855225,"x: 295.4944763183594
y: 352.2187805175781
z: 0.0
","x: 297.608154296875
y: 348.4771728515625
z: -0.0014081414556130767
","x: 300.04876708984375
y: 345.3975830078125
z: -0.003101983806118369
","x: 301.7491149902344
y: 344.3316345214844
z: -0.005472587887197733
","x: 302.8345642089844
y: 344.2406921386719
z: -0.007306815590709448
","x: 304.86676025390625
y: 348.6607360839844
z: -0.0007207468734122813
","x: 308.176513671875
y: 348.6041259765625
z: -0.0037957157474011183
","x: 306.35308837890625
y: 348.5602111816406
z: -0.004910509567707777
","x: 304.6105651855469
y: 348.66705322265625
z: -0.00517158443108201
","x: 304.45794677734375
y: 352.38916015625
z: -0.0019397400319576263
","x: 307.0804443359375
y: 352.486083984375
z: -0.005157576873898506
","x: 304.6124572753906
y: 352.0718994140625
z: -0.005404003895819187
","x: 302.9826354980469
y: 351.8917541503906
z: -0.004733526147902012
","x: 303.616455078125
y: 356.0094909667969
z: -0.003710684599354863
","x: 305.8561706542969
y: 356.0150146484375
z: -0.006644414272159338
","x: 303.5506591796875
y: 355.2276916503906
z: -0.0056692929938435555
","x: 302.0126647949219
y: 355.0101318359375
z: -0.004267977550625801
","x: 302.4291076660156
y: 359.5758056640625
z: -0.005813730880618095
","x: 304.40460205078125
y: 359.36590576171875
z: -0.007287611253559589
","x: 302.7376403808594
y: 358.4106750488281
z: -0.0063818334601819515
","x: 301.33831787109375
y: 358.08892822265625
z: -0.005169373005628586
",,,,,,,,,,,,,,,,,,,,,
12,"x: 264.8079833984375
y: 254.92306518554688
z: -0.28679174184799194
visibility: 0.999937117099762
","x: 264.7261657714844
y: 248.66064453125
z: -0.27416643500328064
visibility: 0.9997422099113464
","x: 265.3738708496094
y: 248.4811553955078
z: -0.274166464805603
visibility: 0.9997529983520508
","x: 266.0706787109375
y: 248.31459045410156
z: -0.27418777346611023
visibility: 0.9997773766517639
","x: 261.9552001953125
y: 249.00921630859375
z: -0.2775173783302307
visibility: 0.9997006058692932
","x: 260.6386413574219
y: 249.20022583007812
z: -0.27754583954811096
visibility: 0.9996519088745117
","x: 259.27484130859375
y: 249.32318115234375
z: -0.27754542231559753
visibility: 0.9996363520622253
","x: 265.38751220703125
y: 250.91336059570312
z: -0.1754670888185501
visibility: 0.9996817708015442
","x: 255.66915893554688
y: 252.4868621826172
z: -0.18850134313106537
visibility: 0.999238908290863
","x: 266.16278076171875
y: 261.594482421875
z: -0.24631881713867188
visibility: 0.999914824962616
","x: 262.2612609863281
y: 261.24468994140625
z: -0.2510528266429901
visibility: 0.9998207092285156
","x: 276.6874694824219
y: 286.9827575683594
z: -0.0798795074224472
visibility: 0.9999741315841675
","x: 244.10699462890625
y: 283.6095275878906
z: -0.10749886184930801
visibility: 0.9997547268867493
","x: 283.64337158203125
y: 323.7339782714844
z: -0.034133680164813995
visibility: 0.988296389579773
","x: 231.90066528320312
y: 320.6923828125
z: -0.0661693587899208
visibility: 0.9219558835029602
","x: 290.4413757324219
y: 362.414794921875
z: -0.1338193714618683
visibility: 0.9776796102523804
","x: 234.01483154296875
y: 365.5476379394531
z: -0.1300661414861679
visibility: 0.8475267887115479
","x: 295.1790771484375
y: 370.9884948730469
z: -0.15912194550037384
visibility: 0.9430510997772217
","x: 233.71302795410156
y: 379.2288818359375
z: -0.15376323461532593
visibility: 0.7643041610717773
","x: 294.0172119140625
y: 372.19683837890625
z: -0.1924356371164322
visibility: 0.9463593363761902
","x: 236.2383575439453
y: 378.2645263671875
z: -0.17930282652378082
visibility: 0.7715117931365967
","x: 291.20892333984375
y: 369.7050476074219
z: -0.14897699654102325
visibility: 0.9256369471549988
","x: 237.27508544921875
y: 373.4734802246094
z: -0.1412743330001831
visibility: 0.7538073658943176
","x: 273.1177673339844
y: 374.61199951171875
z: 0.02219802886247635
visibility: 0.999800980091095
","x: 250.86077880859375
y: 377.2689514160156
z: -0.022262755781412125
visibility: 0.9998211860656738
","x: 284.43756103515625
y: 445.6490478515625
z: -0.0007465245435014367
visibility: 0.9979555606842041
","x: 242.58241271972656
y: 448.3624267578125
z: -0.012593944557011127
visibility: 0.9986011385917664
","x: 291.99658203125
y: 503.989013671875
z: 0.15108460187911987
visibility: 0.9976527690887451
","x: 232.2730712890625
y: 505.92950439453125
z: 0.1357518434524536
visibility: 0.9985011219978333
","x: 289.4522705078125
y: 512.693603515625
z: 0.15977241098880768
visibility: 0.9455439448356628
","x: 231.55613708496094
y: 509.78009033203125
z: 0.14488956332206726
visibility: 0.9563629627227783
","x: 298.61444091796875
y: 526.198974609375
z: 0.05011466145515442
visibility: 0.9950129985809326
","x: 232.38800048828125
y: 529.280029296875
z: 0.03420398384332657
visibility: 0.9964521527290344
",4.633589506149292,"x: 286.93011474609375
y: 366.8608093261719
z: 0.0
","x: 286.13958740234375
y: 371.375732421875
z: -0.001646334188990295
","x: 286.42474365234375
y: 375.9681701660156
z: -0.002992277266457677
","x: 287.899658203125
y: 378.2394714355469
z: -0.00471360282972455
","x: 289.5453186035156
y: 378.5918884277344
z: -0.00608039740473032
","x: 290.2066955566406
y: 380.3799133300781
z: -0.0009651430882513523
","x: 291.91119384765625
y: 384.7674865722656
z: -0.003482242813333869
","x: 291.6918640136719
y: 384.4700927734375
z: -0.004522687289863825
","x: 291.0556945800781
y: 382.662353515625
z: -0.004785573575645685
","x: 291.9004821777344
y: 378.1356201171875
z: -0.0018663853406906128
","x: 294.3214111328125
y: 382.5281066894531
z: -0.004352749790996313
","x: 293.5355529785156
y: 381.5196228027344
z: -0.0048348200507462025
","x: 292.3511657714844
y: 379.3570251464844
z: -0.004545838106423616
","x: 293.133056640625
y: 375.1896667480469
z: -0.0033032570499926805
","x: 294.66644287109375
y: 377.7471923828125
z: -0.005402463022619486
","x: 293.4344177246094
y: 376.5354919433594
z: -0.005160063970834017
","x: 292.1431579589844
y: 374.87884521484375
z: -0.004445341415703297
","x: 293.8459167480469
y: 371.5122985839844
z: -0.005142478737980127
","x: 294.5032653808594
y: 373.3499450683594
z: -0.006339417304843664
","x: 293.2734069824219
y: 372.52032470703125
z: -0.006078401114791632
","x: 291.952880859375
y: 371.2435607910156
z: -0.005460456013679504
",,,,,,,,,,,,,,,,,,,,,
13,"x: 264.8079833984375
y: 254.92306518554688
z: -0.28679174184799194
visibility: 0.999937117099762
","x: 264.7261657714844
y: 248.66064453125
z: -0.27416643500328064
visibility: 0.9997422099113464
","x: 265.3738708496094
y: 248.4811553955078
z: -0.274166464805603
visibility: 0.9997529983520508
","x: 266.0706787109375
y: 248.31459045410156
z: -0.27418777346611023
visibility: 0.9997773766517639
","x: 261.9552001953125
y: 249.00921630859375
z: -0.2775173783302307
visibility: 0.9997006058692932
","x: 260.6386413574219
y: 249.20022583007812
z: -0.27754583954811096
visibility: 0.9996519088745117
","x: 259.27484130859375
y: 249.32318115234375
z: -0.27754542231559753
visibility: 0.9996363520622253
","x: 265.38751220703125
y: 250.91336059570312
z: -0.1754670888185501
visibility: 0.9996817708015442
","x: 255.66915893554688
y: 252.4868621826172
z: -0.18850134313106537
visibility: 0.999238908290863
","x: 266.16278076171875
y: 261.594482421875
z: -0.24631881713867188
visibility: 0.999914824962616
","x: 262.2612609863281
y: 261.24468994140625
z: -0.2510528266429901
visibility: 0.9998207092285156
","x: 276.6874694824219
y: 286.9827575683594
z: -0.0798795074224472
visibility: 0.9999741315841675
","x: 244.10699462890625
y: 283.6095275878906
z: -0.10749886184930801
visibility: 0.9997547268867493
","x: 283.64337158203125
y: 323.7339782714844
z: -0.034133680164813995
visibility: 0.988296389579773
","x: 231.90066528320312
y: 320.6923828125
z: -0.0661693587899208
visibility: 0.9219558835029602
","x: 290.4413757324219
y: 362.414794921875
z: -0.1338193714618683
visibility: 0.9776796102523804
","x: 234.01483154296875
y: 365.5476379394531
z: -0.1300661414861679
visibility: 0.8475267887115479
","x: 295.1790771484375
y: 370.9884948730469
z: -0.15912194550037384
visibility: 0.9430510997772217
","x: 233.71302795410156
y: 379.2288818359375
z: -0.15376323461532593
visibility: 0.7643041610717773
","x: 294.0172119140625
y: 372.19683837890625
z: -0.1924356371164322
visibility: 0.9463593363761902
","x: 236.2383575439453
y: 378.2645263671875
z: -0.17930282652378082
visibility: 0.7715117931365967
","x: 291.20892333984375
y: 369.7050476074219
z: -0.14897699654102325
visibility: 0.9256369471549988
","x: 237.27508544921875
y: 373.4734802246094
z: -0.1412743330001831
visibility: 0.7538073658943176
","x: 273.1177673339844
y: 374.61199951171875
z: 0.02219802886247635
visibility: 0.999800980091095
","x: 250.86077880859375
y: 377.2689514160156
z: -0.022262755781412125
visibility: 0.9998211860656738
","x: 284.43756103515625
y: 445.6490478515625
z: -0.0007465245435014367
visibility: 0.9979555606842041
","x: 242.58241271972656
y: 448.3624267578125
z: -0.012593944557011127
visibility: 0.9986011385917664
","x: 291.99658203125
y: 503.989013671875
z: 0.15108460187911987
visibility: 0.9976527690887451
","x: 232.2730712890625
y: 505.92950439453125
z: 0.1357518434524536
visibility: 0.9985011219978333
","x: 289.4522705078125
y: 512.693603515625
z: 0.15977241098880768
visibility: 0.9455439448356628
","x: 231.55613708496094
y: 509.78009033203125
z: 0.14488956332206726
visibility: 0.9563629627227783
","x: 298.61444091796875
y: 526.198974609375
z: 0.05011466145515442
visibility: 0.9950129985809326
","x: 232.38800048828125
y: 529.280029296875
z: 0.03420398384332657
visibility: 0.9964521527290344
",4.633589506149292,"x: 286.93011474609375
y: 366.8608093261719
z: 0.0
","x: 286.13958740234375
y: 371.375732421875
z: -0.001646334188990295
","x: 286.42474365234375
y: 375.9681701660156
z: -0.002992277266457677
","x: 287.899658203125
y: 378.2394714355469
z: -0.00471360282972455
","x: 289.5453186035156
y: 378.5918884277344
z: -0.00608039740473032
","x: 290.2066955566406
y: 380.3799133300781
z: -0.0009651430882513523
","x: 291.91119384765625
y: 384.7674865722656
z: -0.003482242813333869
","x: 291.6918640136719
y: 384.4700927734375
z: -0.004522687289863825
","x: 291.0556945800781
y: 382.662353515625
z: -0.004785573575645685
","x: 291.9004821777344
y: 378.1356201171875
z: -0.0018663853406906128
","x: 294.3214111328125
y: 382.5281066894531
z: -0.004352749790996313
","x: 293.5355529785156
y: 381.5196228027344
z: -0.0048348200507462025
","x: 292.3511657714844
y: 379.3570251464844
z: -0.004545838106423616
","x: 293.133056640625
y: 375.1896667480469
z: -0.0033032570499926805
","x: 294.66644287109375
y: 377.7471923828125
z: -0.005402463022619486
","x: 293.4344177246094
y: 376.5354919433594
z: -0.005160063970834017
","x: 292.1431579589844
y: 374.87884521484375
z: -0.004445341415703297
","x: 293.8459167480469
y: 371.5122985839844
z: -0.005142478737980127
","x: 294.5032653808594
y: 373.3499450683594
z: -0.006339417304843664
","x: 293.2734069824219
y: 372.52032470703125
z: -0.006078401114791632
","x: 291.952880859375
y: 371.2435607910156
z: -0.005460456013679504
",,,,,,,,,,,,,,,,,,,,,
14,"x: 264.8079833984375
y: 254.92306518554688
z: -0.28679174184799194
visibility: 0.999937117099762
","x: 264.7261657714844
y: 248.66064453125
z: -0.27416643500328064
visibility: 0.9997422099113464
","x: 265.3738708496094
y: 248.4811553955078
z: -0.274166464805603
visibility: 0.9997529983520508
","x: 266.0706787109375
y: 248.31459045410156
z: -0.27418777346611023
visibility: 0.9997773766517639
","x: 261.9552001953125
y: 249.00921630859375
z: -0.2775173783302307
visibility: 0.9997006058692932
","x: 260.6386413574219
y: 249.20022583007812
z: -0.27754583954811096
visibility: 0.9996519088745117
","x: 259.27484130859375
y: 249.32318115234375
z: -0.27754542231559753
visibility: 0.9996363520622253
","x: 265.38751220703125
y: 250.91336059570312
z: -0.1754670888185501
visibility: 0.9996817708015442
","x: 255.66915893554688
y: 252.4868621826172
z: -0.18850134313106537
visibility: 0.999238908290863
","x: 266.16278076171875
y: 261.594482421875
z: -0.24631881713867188
visibility: 0.999914824962616
","x: 262.2612609863281
y: 261.24468994140625
z: -0.2510528266429901
visibility: 0.9998207092285156
","x: 276.6874694824219
y: 286.9827575683594
z: -0.0798795074224472
visibility: 0.9999741315841675
","x: 244.10699462890625
y: 283.6095275878906
z: -0.10749886184930801
visibility: 0.9997547268867493
","x: 283.64337158203125
y: 323.7339782714844
z: -0.034133680164813995
visibility: 0.988296389579773
","x: 231.90066528320312
y: 320.6923828125
z: -0.0661693587899208
visibility: 0.9219558835029602
","x: 290.4413757324219
y: 362.414794921875
z: -0.1338193714618683
visibility: 0.9776796102523804
","x: 234.01483154296875
y: 365.5476379394531
z: -0.1300661414861679
visibility: 0.8475267887115479
","x: 295.1790771484375
y: 370.9884948730469
z: -0.15912194550037384
visibility: 0.9430510997772217
","x: 233.71302795410156
y: 379.2288818359375
z: -0.15376323461532593
visibility: 0.7643041610717773
","x: 294.0172119140625
y: 372.19683837890625
z: -0.1924356371164322
visibility: 0.9463593363761902
","x: 236.2383575439453
y: 378.2645263671875
z: -0.17930282652378082
visibility: 0.7715117931365967
","x: 291.20892333984375
y: 369.7050476074219
z: -0.14897699654102325
visibility: 0.9256369471549988
","x: 237.27508544921875
y: 373.4734802246094
z: -0.1412743330001831
visibility: 0.7538073658943176
","x: 273.1177673339844
y: 374.61199951171875
z: 0.02219802886247635
visibility: 0.999800980091095
","x: 250.86077880859375
y: 377.2689514160156
z: -0.022262755781412125
visibility: 0.9998211860656738
","x: 284.43756103515625
y: 445.6490478515625
z: -0.0007465245435014367
visibility: 0.9979555606842041
","x: 242.58241271972656
y: 448.3624267578125
z: -0.012593944557011127
visibility: 0.9986011385917664
","x: 291.99658203125
y: 503.989013671875
z: 0.15108460187911987
visibility: 0.9976527690887451
","x: 232.2730712890625
y: 505.92950439453125
z: 0.1357518434524536
visibility: 0.9985011219978333
","x: 289.4522705078125
y: 512.693603515625
z: 0.15977241098880768
visibility: 0.9455439448356628
","x: 231.55613708496094
y: 509.78009033203125
z: 0.14488956332206726
visibility: 0.9563629627227783
","x: 298.61444091796875
y: 526.198974609375
z: 0.05011466145515442
visibility: 0.9950129985809326
","x: 232.38800048828125
y: 529.280029296875
z: 0.03420398384332657
visibility: 0.9964521527290344
",4.633589506149292,"x: 286.93011474609375
y: 366.8608093261719
z: 0.0
","x: 286.13958740234375
y: 371.375732421875
z: -0.001646334188990295
","x: 286.42474365234375
y: 375.9681701660156
z: -0.002992277266457677
","x: 287.899658203125
y: 378.2394714355469
z: -0.00471360282972455
","x: 289.5453186035156
y: 378.5918884277344
z: -0.00608039740473032
","x: 290.2066955566406
y: 380.3799133300781
z: -0.0009651430882513523
","x: 291.91119384765625
y: 384.7674865722656
z: -0.003482242813333869
","x: 291.6918640136719
y: 384.4700927734375
z: -0.004522687289863825
","x: 291.0556945800781
y: 382.662353515625
z: -0.004785573575645685
","x: 291.9004821777344
y: 378.1356201171875
z: -0.0018663853406906128
","x: 294.3214111328125
y: 382.5281066894531
z: -0.004352749790996313
","x: 293.5355529785156
y: 381.5196228027344
z: -0.0048348200507462025
","x: 292.3511657714844
y: 379.3570251464844
z: -0.004545838106423616
","x: 293.133056640625
y: 375.1896667480469
z: -0.0033032570499926805
","x: 294.66644287109375
y: 377.7471923828125
z: -0.005402463022619486
","x: 293.4344177246094
y: 376.5354919433594
z: -0.005160063970834017
","x: 292.1431579589844
y: 374.87884521484375
z: -0.004445341415703297
","x: 293.8459167480469
y: 371.5122985839844
z: -0.005142478737980127
","x: 294.5032653808594
y: 373.3499450683594
z: -0.006339417304843664
","x: 293.2734069824219
y: 372.52032470703125
z: -0.006078401114791632
","x: 291.952880859375
y: 371.2435607910156
z: -0.005460456013679504
",,,,,,,,,,,,,,,,,,,,,
15,"x: 255.69171142578125
y: 259.0270690917969
z: -0.3984628915786743
visibility: 0.9999419450759888
","x: 256.8509826660156
y: 254.05052185058594
z: -0.3842164874076843
visibility: 0.9997623562812805
","x: 257.83929443359375
y: 254.35031127929688
z: -0.3842315077781677
visibility: 0.9997731447219849
","x: 258.88885498046875
y: 254.69451904296875
z: -0.3843033015727997
visibility: 0.9997944831848145
","x: 254.01492309570312
y: 253.63461303710938
z: -0.3848353922367096
visibility: 0.9997228384017944
","x: 252.86187744140625
y: 253.69021606445312
z: -0.38488131761550903
visibility: 0.9996787905693054
","x: 251.65426635742188
y: 253.73654174804688
z: -0.3849010765552521
visibility: 0.9996626377105713
","x: 259.89886474609375
y: 258.26641845703125
z: -0.2743838131427765
visibility: 0.999704897403717
","x: 248.71902465820312
y: 257.106689453125
z: -0.27609026432037354
visibility: 0.9993007779121399
","x: 256.7885437011719
y: 266.74932861328125
z: -0.35523441433906555
visibility: 0.9999220371246338
","x: 253.20150756835938
y: 266.3351745605469
z: -0.356162965297699
visibility: 0.9998371601104736
","x: 270.55487060546875
y: 291.218505859375
z: -0.1871432065963745
visibility: 0.999976396560669
","x: 235.05043029785156
y: 287.5737609863281
z: -0.17160120606422424
visibility: 0.9997771978378296
","x: 277.37506103515625
y: 330.9378662109375
z: -0.1751377284526825
visibility: 0.9875479340553284
","x: 226.4161376953125
y: 327.6418762207031
z: -0.11348198354244232
visibility: 0.9277203679084778
","x: 290.1778259277344
y: 362.01287841796875
z: -0.3078950345516205
visibility: 0.9765439033508301
","x: 228.0217742919922
y: 370.7315673828125
z: -0.17969109117984772
visibility: 0.8571998476982117
","x: 295.2523498535156
y: 367.720458984375
z: -0.34377142786979675
visibility: 0.9436323642730713
","x: 228.34217834472656
y: 384.6020202636719
z: -0.20686443150043488
visibility: 0.7779104709625244
","x: 294.9580993652344
y: 370.463134765625
z: -0.3781127333641052
visibility: 0.9470848441123962
","x: 230.2987518310547
y: 383.6830139160156
z: -0.23740045726299286
visibility: 0.7851802110671997
","x: 291.8287353515625
y: 367.7685241699219
z: -0.3249063789844513
visibility: 0.9262791275978088
","x: 231.01881408691406
y: 378.9345703125
z: -0.1935446560382843
visibility: 0.7674291133880615
","x: 267.4573059082031
y: 376.7920227050781
z: 0.005173814948648214
visibility: 0.9998154044151306
","x: 245.3340301513672
y: 380.03594970703125
z: -0.005185293965041637
visibility: 0.9998288154602051
","x: 281.8614501953125
y: 445.9070129394531
z: -0.04553670808672905
visibility: 0.9981147646903992
","x: 238.46759033203125
y: 450.55438232421875
z: -0.010236507281661034
visibility: 0.9986187219619751
","x: 303.2130126953125
y: 496.4676513671875
z: 0.1585795134305954
visibility: 0.997810959815979
","x: 231.85633850097656
y: 507.2158508300781
z: 0.2339639961719513
visibility: 0.9983634948730469
","x: 307.2269287109375
y: 499.3817443847656
z: 0.17268860340118408
visibility: 0.9427655935287476
","x: 231.85198974609375
y: 513.4116821289062
z: 0.25259140133857727
visibility: 0.9519875049591064
","x: 301.2550964355469
y: 526.5410766601562
z: 0.046115461736917496
visibility: 0.9952354431152344
","x: 230.6964111328125
y: 528.7103881835938
z: 0.14297601580619812
visibility: 0.996128499507904
",4.7944862842559814,"x: 288.7054748535156
y: 360.92340087890625
z: 0.0
","x: 291.0550842285156
y: 366.0920715332031
z: -0.000875211029779166
","x: 293.4700927734375
y: 368.6999206542969
z: -0.00186047179158777
","x: 296.1564025878906
y: 368.398681640625
z: -0.0033910267520695925
","x: 298.2613525390625
y: 366.79644775390625
z: -0.004296400118619204
","x: 298.287109375
y: 365.7247619628906
z: 0.0008915747748687863
","x: 301.1279296875
y: 365.04461669921875
z: -0.0013028794201090932
","x: 299.45867919921875
y: 365.25958251953125
z: -0.002007888862863183
","x: 298.01336669921875
y: 365.1875305175781
z: -0.002030670177191496
","x: 298.32562255859375
y: 362.5616455078125
z: -0.00030312174931168556
","x: 300.9007873535156
y: 361.5534973144531
z: -0.002105021383613348
","x: 298.7472229003906
y: 361.9872741699219
z: -0.001994045916944742
","x: 297.51129150390625
y: 362.20587158203125
z: -0.0014531754422932863
","x: 297.9505920410156
y: 359.2557067871094
z: -0.002092335605993867
","x: 300.3458251953125
y: 357.97314453125
z: -0.0037599005736410618
","x: 298.3824157714844
y: 358.8015441894531
z: -0.0027498831041157246
","x: 297.01654052734375
y: 359.38385009765625
z: -0.0016840188764035702
","x: 297.1099853515625
y: 355.68951416015625
z: -0.004203337710350752
","x: 299.2596435546875
y: 354.94183349609375
z: -0.004969553090631962
","x: 298.01806640625
y: 356.04034423828125
z: -0.004016171675175428
","x: 296.77410888671875
y: 356.9399719238281
z: -0.002951217582449317
",,,,,,,,,,,,,,,,,,,,,
16,"x: 255.69171142578125
y: 259.0270690917969
z: -0.3984628915786743
visibility: 0.9999419450759888
","x: 256.8509826660156
y: 254.05052185058594
z: -0.3842164874076843
visibility: 0.9997623562812805
","x: 257.83929443359375
y: 254.35031127929688
z: -0.3842315077781677
visibility: 0.9997731447219849
","x: 258.88885498046875
y: 254.69451904296875
z: -0.3843033015727997
visibility: 0.9997944831848145
","x: 254.01492309570312
y: 253.63461303710938
z: -0.3848353922367096
visibility: 0.9997228384017944
","x: 252.86187744140625
y: 253.69021606445312
z: -0.38488131761550903
visibility: 0.9996787905693054
","x: 251.65426635742188
y: 253.73654174804688
z: -0.3849010765552521
visibility: 0.9996626377105713
","x: 259.89886474609375
y: 258.26641845703125
z: -0.2743838131427765
visibility: 0.999704897403717
","x: 248.71902465820312
y: 257.106689453125
z: -0.27609026432037354
visibility: 0.9993007779121399
","x: 256.7885437011719
y: 266.74932861328125
z: -0.35523441433906555
visibility: 0.9999220371246338
","x: 253.20150756835938
y: 266.3351745605469
z: -0.356162965297699
visibility: 0.9998371601104736
","x: 270.55487060546875
y: 291.218505859375
z: -0.1871432065963745
visibility: 0.999976396560669
","x: 235.05043029785156
y: 287.5737609863281
z: -0.17160120606422424
visibility: 0.9997771978378296
","x: 277.37506103515625
y: 330.9378662109375
z: -0.1751377284526825
visibility: 0.9875479340553284
","x: 226.4161376953125
y: 327.6418762207031
z: -0.11348198354244232
visibility: 0.9277203679084778
","x: 290.1778259277344
y: 362.01287841796875
z: -0.3078950345516205
visibility: 0.9765439033508301
","x: 228.0217742919922
y: 370.7315673828125
z: -0.17969109117984772
visibility: 0.8571998476982117
","x: 295.2523498535156
y: 367.720458984375
z: -0.34377142786979675
visibility: 0.9436323642730713
","x: 228.34217834472656
y: 384.6020202636719
z: -0.20686443150043488
visibility: 0.7779104709625244
","x: 294.9580993652344
y: 370.463134765625
z: -0.3781127333641052
visibility: 0.9470848441123962
","x: 230.2987518310547
y: 383.6830139160156
z: -0.23740045726299286
visibility: 0.7851802110671997
","x: 291.8287353515625
y: 367.7685241699219
z: -0.3249063789844513
visibility: 0.9262791275978088
","x: 231.01881408691406
y: 378.9345703125
z: -0.1935446560382843
visibility: 0.7674291133880615
","x: 267.4573059082031
y: 376.7920227050781
z: 0.005173814948648214
visibility: 0.9998154044151306
","x: 245.3340301513672
y: 380.03594970703125
z: -0.005185293965041637
visibility: 0.9998288154602051
","x: 281.8614501953125
y: 445.9070129394531
z: -0.04553670808672905
visibility: 0.9981147646903992
","x: 238.46759033203125
y: 450.55438232421875
z: -0.010236507281661034
visibility: 0.9986187219619751
","x: 303.2130126953125
y: 496.4676513671875
z: 0.1585795134305954
visibility: 0.997810959815979
","x: 231.85633850097656
y: 507.2158508300781
z: 0.2339639961719513
visibility: 0.9983634948730469
","x: 307.2269287109375
y: 499.3817443847656
z: 0.17268860340118408
visibility: 0.9427655935287476
","x: 231.85198974609375
y: 513.4116821289062
z: 0.25259140133857727
visibility: 0.9519875049591064
","x: 301.2550964355469
y: 526.5410766601562
z: 0.046115461736917496
visibility: 0.9952354431152344
","x: 230.6964111328125
y: 528.7103881835938
z: 0.14297601580619812
visibility: 0.996128499507904
",4.7944862842559814,"x: 288.7054748535156
y: 360.92340087890625
z: 0.0
","x: 291.0550842285156
y: 366.0920715332031
z: -0.000875211029779166
","x: 293.4700927734375
y: 368.6999206542969
z: -0.00186047179158777
","x: 296.1564025878906
y: 368.398681640625
z: -0.0033910267520695925
","x: 298.2613525390625
y: 366.79644775390625
z: -0.004296400118619204
","x: 298.287109375
y: 365.7247619628906
z: 0.0008915747748687863
","x: 301.1279296875
y: 365.04461669921875
z: -0.0013028794201090932
","x: 299.45867919921875
y: 365.25958251953125
z: -0.002007888862863183
","x: 298.01336669921875
y: 365.1875305175781
z: -0.002030670177191496
","x: 298.32562255859375
y: 362.5616455078125
z: -0.00030312174931168556
","x: 300.9007873535156
y: 361.5534973144531
z: -0.002105021383613348
","x: 298.7472229003906
y: 361.9872741699219
z: -0.001994045916944742
","x: 297.51129150390625
y: 362.20587158203125
z: -0.0014531754422932863
","x: 297.9505920410156
y: 359.2557067871094
z: -0.002092335605993867
","x: 300.3458251953125
y: 357.97314453125
z: -0.0037599005736410618
","x: 298.3824157714844
y: 358.8015441894531
z: -0.0027498831041157246
","x: 297.01654052734375
y: 359.38385009765625
z: -0.0016840188764035702
","x: 297.1099853515625
y: 355.68951416015625
z: -0.004203337710350752
","x: 299.2596435546875
y: 354.94183349609375
z: -0.004969553090631962
","x: 298.01806640625
y: 356.04034423828125
z: -0.004016171675175428
","x: 296.77410888671875
y: 356.9399719238281
z: -0.002951217582449317
",,,,,,,,,,,,,,,,,,,,,
17,"x: 255.69171142578125
y: 259.0270690917969
z: -0.3984628915786743
visibility: 0.9999419450759888
","x: 256.8509826660156
y: 254.05052185058594
z: -0.3842164874076843
visibility: 0.9997623562812805
","x: 257.83929443359375
y: 254.35031127929688
z: -0.3842315077781677
visibility: 0.9997731447219849
","x: 258.88885498046875
y: 254.69451904296875
z: -0.3843033015727997
visibility: 0.9997944831848145
","x: 254.01492309570312
y: 253.63461303710938
z: -0.3848353922367096
visibility: 0.9997228384017944
","x: 252.86187744140625
y: 253.69021606445312
z: -0.38488131761550903
visibility: 0.9996787905693054
","x: 251.65426635742188
y: 253.73654174804688
z: -0.3849010765552521
visibility: 0.9996626377105713
","x: 259.89886474609375
y: 258.26641845703125
z: -0.2743838131427765
visibility: 0.999704897403717
","x: 248.71902465820312
y: 257.106689453125
z: -0.27609026432037354
visibility: 0.9993007779121399
","x: 256.7885437011719
y: 266.74932861328125
z: -0.35523441433906555
visibility: 0.9999220371246338
","x: 253.20150756835938
y: 266.3351745605469
z: -0.356162965297699
visibility: 0.9998371601104736
","x: 270.55487060546875
y: 291.218505859375
z: -0.1871432065963745
visibility: 0.999976396560669
","x: 235.05043029785156
y: 287.5737609863281
z: -0.17160120606422424
visibility: 0.9997771978378296
","x: 277.37506103515625
y: 330.9378662109375
z: -0.1751377284526825
visibility: 0.9875479340553284
","x: 226.4161376953125
y: 327.6418762207031
z: -0.11348198354244232
visibility: 0.9277203679084778
","x: 290.1778259277344
y: 362.01287841796875
z: -0.3078950345516205
visibility: 0.9765439033508301
","x: 228.0217742919922
y: 370.7315673828125
z: -0.17969109117984772
visibility: 0.8571998476982117
","x: 295.2523498535156
y: 367.720458984375
z: -0.34377142786979675
visibility: 0.9436323642730713
","x: 228.34217834472656
y: 384.6020202636719
z: -0.20686443150043488
visibility: 0.7779104709625244
","x: 294.9580993652344
y: 370.463134765625
z: -0.3781127333641052
visibility: 0.9470848441123962
","x: 230.2987518310547
y: 383.6830139160156
z: -0.23740045726299286
visibility: 0.7851802110671997
","x: 291.8287353515625
y: 367.7685241699219
z: -0.3249063789844513
visibility: 0.9262791275978088
","x: 231.01881408691406
y: 378.9345703125
z: -0.1935446560382843
visibility: 0.7674291133880615
","x: 267.4573059082031
y: 376.7920227050781
z: 0.005173814948648214
visibility: 0.9998154044151306
","x: 245.3340301513672
y: 380.03594970703125
z: -0.005185293965041637
visibility: 0.9998288154602051
","x: 281.8614501953125
y: 445.9070129394531
z: -0.04553670808672905
visibility: 0.9981147646903992
","x: 238.46759033203125
y: 450.55438232421875
z: -0.010236507281661034
visibility: 0.9986187219619751
","x: 303.2130126953125
y: 496.4676513671875
z: 0.1585795134305954
visibility: 0.997810959815979
","x: 231.85633850097656
y: 507.2158508300781
z: 0.2339639961719513
visibility: 0.9983634948730469
","x: 307.2269287109375
y: 499.3817443847656
z: 0.17268860340118408
visibility: 0.9427655935287476
","x: 231.85198974609375
y: 513.4116821289062
z: 0.25259140133857727
visibility: 0.9519875049591064
","x: 301.2550964355469
y: 526.5410766601562
z: 0.046115461736917496
visibility: 0.9952354431152344
","x: 230.6964111328125
y: 528.7103881835938
z: 0.14297601580619812
visibility: 0.996128499507904
",4.7944862842559814,"x: 288.7054748535156
y: 360.92340087890625
z: 0.0
","x: 291.0550842285156
y: 366.0920715332031
z: -0.000875211029779166
","x: 293.4700927734375
y: 368.6999206542969
z: -0.00186047179158777
","x: 296.1564025878906
y: 368.398681640625
z: -0.0033910267520695925
","x: 298.2613525390625
y: 366.79644775390625
z: -0.004296400118619204
","x: 298.287109375
y: 365.7247619628906
z: 0.0008915747748687863
","x: 301.1279296875
y: 365.04461669921875
z: -0.0013028794201090932
","x: 299.45867919921875
y: 365.25958251953125
z: -0.002007888862863183
","x: 298.01336669921875
y: 365.1875305175781
z: -0.002030670177191496
","x: 298.32562255859375
y: 362.5616455078125
z: -0.00030312174931168556
","x: 300.9007873535156
y: 361.5534973144531
z: -0.002105021383613348
","x: 298.7472229003906
y: 361.9872741699219
z: -0.001994045916944742
","x: 297.51129150390625
y: 362.20587158203125
z: -0.0014531754422932863
","x: 297.9505920410156
y: 359.2557067871094
z: -0.002092335605993867
","x: 300.3458251953125
y: 357.97314453125
z: -0.0037599005736410618
","x: 298.3824157714844
y: 358.8015441894531
z: -0.0027498831041157246
","x: 297.01654052734375
y: 359.38385009765625
z: -0.0016840188764035702
","x: 297.1099853515625
y: 355.68951416015625
z: -0.004203337710350752
","x: 299.2596435546875
y: 354.94183349609375
z: -0.004969553090631962
","x: 298.01806640625
y: 356.04034423828125
z: -0.004016171675175428
","x: 296.77410888671875
y: 356.9399719238281
z: -0.002951217582449317
",,,,,,,,,,,,,,,,,,,,,
18,"x: 256.3849792480469
y: 260.8946533203125
z: -0.22373422980308533
visibility: 0.9999434351921082
","x: 256.82080078125
y: 256.2640686035156
z: -0.20921564102172852
visibility: 0.9997702240943909
","x: 257.4729919433594
y: 256.4884033203125
z: -0.20924706757068634
visibility: 0.9997835755348206
","x: 258.1095275878906
y: 256.6887512207031
z: -0.20927643775939941
visibility: 0.9998007416725159
","x: 254.12298583984375
y: 255.67562866210938
z: -0.21061113476753235
visibility: 0.9997297525405884
","x: 252.899658203125
y: 255.6410369873047
z: -0.2106199711561203
visibility: 0.9996915459632874
","x: 251.66273498535156
y: 255.67015075683594
z: -0.21064317226409912
visibility: 0.9996761083602905
","x: 257.1534118652344
y: 260.110107421875
z: -0.12349496781826019
visibility: 0.9997144937515259
","x: 247.77056884765625
y: 259.8660888671875
z: -0.12659604847431183
visibility: 0.9993447661399841
","x: 256.87152099609375
y: 268.02911376953125
z: -0.1917981058359146
visibility: 0.9999274015426636
","x: 253.51243591308594
y: 267.7082214355469
z: -0.19296011328697205
visibility: 0.9998506307601929
","x: 268.5027770996094
y: 294.14520263671875
z: -0.08894801139831543
visibility: 0.9999780654907227
","x: 233.2762908935547
y: 294.8144226074219
z: -0.060760002583265305
visibility: 0.9997973442077637
","x: 276.4776306152344
y: 333.3749084472656
z: -0.1295616328716278
visibility: 0.9862174987792969
","x: 222.17388916015625
y: 331.2801818847656
z: -0.03421679884195328
visibility: 0.9343679547309875
","x: 283.781005859375
y: 343.3529357910156
z: -0.3224060535430908
visibility: 0.9763877391815186
","x: 224.35585021972656
y: 371.63397216796875
z: -0.11280456930398941
visibility: 0.8701054453849792
","x: 290.46392822265625
y: 343.8651123046875
z: -0.3669334053993225
visibility: 0.9457648992538452
","x: 224.1881561279297
y: 385.0595397949219
z: -0.14264801144599915
visibility: 0.7966888546943665
","x: 289.82025146484375
y: 341.32989501953125
z: -0.3896850049495697
visibility: 0.9491778016090393
","x: 226.9715118408203
y: 383.0960693359375
z: -0.16620908677577972
visibility: 0.8035121560096741
","x: 287.09930419921875
y: 341.1828308105469
z: -0.33718183636665344
visibility: 0.9288085699081421
","x: 227.7327117919922
y: 378.26611328125
z: -0.12494701147079468
visibility: 0.7869148850440979
","x: 267.0662841796875
y: 380.5682373046875
z: -0.006609183736145496
visibility: 0.9998207688331604
","x: 244.50070190429688
y: 384.6637268066406
z: 0.006602478213608265
visibility: 0.999834418296814
","x: 281.24017333984375
y: 447.9953308105469
z: -0.05422847718000412
visibility: 0.9982600808143616
","x: 235.3799285888672
y: 453.1527099609375
z: -0.02823539450764656
visibility: 0.9986882209777832
","x: 300.8965759277344
y: 497.2179870605469
z: 0.1527906358242035
visibility: 0.9979225993156433
","x: 231.61729431152344
y: 507.7418212890625
z: 0.18753862380981445
visibility: 0.9982821941375732
","x: 302.6840515136719
y: 500.8122253417969
z: 0.1675359308719635
visibility: 0.9350961446762085
","x: 232.37969970703125
y: 514.7808227539062
z: 0.2034485638141632
visibility: 0.9501349329948425
","x: 301.11865234375
y: 526.9487915039062
z: 0.051268987357616425
visibility: 0.9953405261039734
","x: 229.61651611328125
y: 528.6524658203125
z: 0.10633628070354462
visibility: 0.9959191083908081
",4.946631193161011,,,,,,,,,,,,,,,,,,,,,,,,,,,,,,,,,,,,,,,,,,
19,"x: 256.3849792480469
y: 260.8946533203125
z: -0.22373422980308533
visibility: 0.9999434351921082
","x: 256.82080078125
y: 256.2640686035156
z: -0.20921564102172852
visibility: 0.9997702240943909
","x: 257.4729919433594
y: 256.4884033203125
z: -0.20924706757068634
visibility: 0.9997835755348206
","x: 258.1095275878906
y: 256.6887512207031
z: -0.20927643775939941
visibility: 0.9998007416725159
","x: 254.12298583984375
y: 255.67562866210938
z: -0.21061113476753235
visibility: 0.9997297525405884
","x: 252.899658203125
y: 255.6410369873047
z: -0.2106199711561203
visibility: 0.9996915459632874
","x: 251.66273498535156
y: 255.67015075683594
z: -0.21064317226409912
visibility: 0.9996761083602905
","x: 257.1534118652344
y: 260.110107421875
z: -0.12349496781826019
visibility: 0.9997144937515259
","x: 247.77056884765625
y: 259.8660888671875
z: -0.12659604847431183
visibility: 0.9993447661399841
","x: 256.87152099609375
y: 268.02911376953125
z: -0.1917981058359146
visibility: 0.9999274015426636
","x: 253.51243591308594
y: 267.7082214355469
z: -0.19296011328697205
visibility: 0.9998506307601929
","x: 268.5027770996094
y: 294.14520263671875
z: -0.08894801139831543
visibility: 0.9999780654907227
","x: 233.2762908935547
y: 294.8144226074219
z: -0.060760002583265305
visibility: 0.9997973442077637
","x: 276.4776306152344
y: 333.3749084472656
z: -0.1295616328716278
visibility: 0.9862174987792969
","x: 222.17388916015625
y: 331.2801818847656
z: -0.03421679884195328
visibility: 0.9343679547309875
","x: 283.781005859375
y: 343.3529357910156
z: -0.3224060535430908
visibility: 0.9763877391815186
","x: 224.35585021972656
y: 371.63397216796875
z: -0.11280456930398941
visibility: 0.8701054453849792
","x: 290.46392822265625
y: 343.8651123046875
z: -0.3669334053993225
visibility: 0.9457648992538452
","x: 224.1881561279297
y: 385.0595397949219
z: -0.14264801144599915
visibility: 0.7966888546943665
","x: 289.82025146484375
y: 341.32989501953125
z: -0.3896850049495697
visibility: 0.9491778016090393
","x: 226.9715118408203
y: 383.0960693359375
z: -0.16620908677577972
visibility: 0.8035121560096741
","x: 287.09930419921875
y: 341.1828308105469
z: -0.33718183636665344
visibility: 0.9288085699081421
","x: 227.7327117919922
y: 378.26611328125
z: -0.12494701147079468
visibility: 0.7869148850440979
","x: 267.0662841796875
y: 380.5682373046875
z: -0.006609183736145496
visibility: 0.9998207688331604
","x: 244.50070190429688
y: 384.6637268066406
z: 0.006602478213608265
visibility: 0.999834418296814
","x: 281.24017333984375
y: 447.9953308105469
z: -0.05422847718000412
visibility: 0.9982600808143616
","x: 235.3799285888672
y: 453.1527099609375
z: -0.02823539450764656
visibility: 0.9986882209777832
","x: 300.8965759277344
y: 497.2179870605469
z: 0.1527906358242035
visibility: 0.9979225993156433
","x: 231.61729431152344
y: 507.7418212890625
z: 0.18753862380981445
visibility: 0.9982821941375732
","x: 302.6840515136719
y: 500.8122253417969
z: 0.1675359308719635
visibility: 0.9350961446762085
","x: 232.37969970703125
y: 514.7808227539062
z: 0.2034485638141632
visibility: 0.9501349329948425
","x: 301.11865234375
y: 526.9487915039062
z: 0.051268987357616425
visibility: 0.9953405261039734
","x: 229.61651611328125
y: 528.6524658203125
z: 0.10633628070354462
visibility: 0.9959191083908081
",4.946631193161011,,,,,,,,,,,,,,,,,,,,,,,,,,,,,,,,,,,,,,,,,,
20,"x: 257.2213134765625
y: 259.96063232421875
z: -0.2532193958759308
visibility: 0.9999485015869141
","x: 257.2164306640625
y: 253.65093994140625
z: -0.23985889554023743
visibility: 0.9997899532318115
","x: 257.9861145019531
y: 253.46275329589844
z: -0.23987779021263123
visibility: 0.9998016953468323
","x: 258.7886962890625
y: 253.25804138183594
z: -0.2399081438779831
visibility: 0.9998168349266052
","x: 254.51162719726562
y: 253.91046142578125
z: -0.24172420799732208
visibility: 0.999754011631012
","x: 253.3701629638672
y: 254.06045532226562
z: -0.2417512834072113
visibility: 0.9997194409370422
","x: 252.19430541992188
y: 254.2513427734375
z: -0.24176566302776337
visibility: 0.9997053742408752
","x: 259.1640625
y: 256.249755859375
z: -0.14722685515880585
visibility: 0.9997368454933167
","x: 248.62847900390625
y: 258.598388671875
z: -0.15471294522285461
visibility: 0.999406635761261
","x: 258.79852294921875
y: 266.7767639160156
z: -0.21742892265319824
visibility: 0.9999324083328247
","x: 255.3431854248047
y: 266.65936279296875
z: -0.21976712346076965
visibility: 0.9998634457588196
","x: 271.5279235839844
y: 287.732177734375
z: -0.08488111197948456
visibility: 0.9999790191650391
","x: 236.7021484375
y: 293.9694519042969
z: -0.07932133972644806
visibility: 0.9998160600662231
","x: 278.2090148925781
y: 317.6855773925781
z: -0.05916758254170418
visibility: 0.9868695735931396
","x: 221.3835906982422
y: 323.9341735839844
z: -0.06188298016786575
visibility: 0.9404101967811584
","x: 304.8181457519531
y: 331.1058044433594
z: -0.16736100614070892
visibility: 0.9780372977256775
","x: 207.99171447753906
y: 351.51055908203125
z: -0.15389811992645264
visibility: 0.8823298215866089
","x: 312.23895263671875
y: 330.4454040527344
z: -0.187814399600029
visibility: 0.949334442615509
","x: 201.78997802734375
y: 359.68768310546875
z: -0.17637786269187927
visibility: 0.8147960901260376
","x: 313.16204833984375
y: 327.9482727050781
z: -0.22064058482646942
visibility: 0.952772855758667
","x: 202.8917999267578
y: 359.7834777832031
z: -0.20812280476093292
visibility: 0.8212664127349854
","x: 310.6340637207031
y: 328.7075500488281
z: -0.1846892386674881
visibility: 0.9340864419937134
","x: 205.79574584960938
y: 357.7864074707031
z: -0.17016048729419708
visibility: 0.8061116337776184
","x: 268.951416015625
y: 377.4853820800781
z: -0.005028008483350277
visibility: 0.9998201727867126
","x: 246.28793334960938
y: 383.911865234375
z: 0.005013675894588232
visibility: 0.9998404383659363
","x: 281.8917236328125
y: 445.71697998046875
z: -0.04712696745991707
visibility: 0.9982872605323792
","x: 234.21688842773438
y: 447.31561279296875
z: -0.08403492718935013
visibility: 0.9987700581550598
","x: 293.662353515625
y: 500.1559143066406
z: 0.09203869104385376
visibility: 0.9980053901672363
","x: 233.23828125
y: 504.388671875
z: 0.0692186951637268
visibility: 0.9983846545219421
","x: 289.6517639160156
y: 507.1536560058594
z: 0.09804977476596832
visibility: 0.9386988282203674
","x: 233.87791442871094
y: 512.0137329101562
z: 0.07820738852024078
visibility: 0.953637421131134
","x: 300.63714599609375
y: 526.93310546875
z: -0.008983172476291656
visibility: 0.9955142140388489
","x: 229.40744018554688
y: 528.4073486328125
z: -0.017448896542191505
visibility: 0.9961737990379333
",5.109327554702759,,,,,,,,,,,,,,,,,,,,,,,,,,,,,,,,,,,,,,,,,,
21,"x: 257.2213134765625
y: 259.96063232421875
z: -0.2532193958759308
visibility: 0.9999485015869141
","x: 257.2164306640625
y: 253.65093994140625
z: -0.23985889554023743
visibility: 0.9997899532318115
","x: 257.9861145019531
y: 253.46275329589844
z: -0.23987779021263123
visibility: 0.9998016953468323
","x: 258.7886962890625
y: 253.25804138183594
z: -0.2399081438779831
visibility: 0.9998168349266052
","x: 254.51162719726562
y: 253.91046142578125
z: -0.24172420799732208
visibility: 0.999754011631012
","x: 253.3701629638672
y: 254.06045532226562
z: -0.2417512834072113
visibility: 0.9997194409370422
","x: 252.19430541992188
y: 254.2513427734375
z: -0.24176566302776337
visibility: 0.9997053742408752
","x: 259.1640625
y: 256.249755859375
z: -0.14722685515880585
visibility: 0.9997368454933167
","x: 248.62847900390625
y: 258.598388671875
z: -0.15471294522285461
visibility: 0.999406635761261
","x: 258.79852294921875
y: 266.7767639160156
z: -0.21742892265319824
visibility: 0.9999324083328247
","x: 255.3431854248047
y: 266.65936279296875
z: -0.21976712346076965
visibility: 0.9998634457588196
","x: 271.5279235839844
y: 287.732177734375
z: -0.08488111197948456
visibility: 0.9999790191650391
","x: 236.7021484375
y: 293.9694519042969
z: -0.07932133972644806
visibility: 0.9998160600662231
","x: 278.2090148925781
y: 317.6855773925781
z: -0.05916758254170418
visibility: 0.9868695735931396
","x: 221.3835906982422
y: 323.9341735839844
z: -0.06188298016786575
visibility: 0.9404101967811584
","x: 304.8181457519531
y: 331.1058044433594
z: -0.16736100614070892
visibility: 0.9780372977256775
","x: 207.99171447753906
y: 351.51055908203125
z: -0.15389811992645264
visibility: 0.8823298215866089
","x: 312.23895263671875
y: 330.4454040527344
z: -0.187814399600029
visibility: 0.949334442615509
","x: 201.78997802734375
y: 359.68768310546875
z: -0.17637786269187927
visibility: 0.8147960901260376
","x: 313.16204833984375
y: 327.9482727050781
z: -0.22064058482646942
visibility: 0.952772855758667
","x: 202.8917999267578
y: 359.7834777832031
z: -0.20812280476093292
visibility: 0.8212664127349854
","x: 310.6340637207031
y: 328.7075500488281
z: -0.1846892386674881
visibility: 0.9340864419937134
","x: 205.79574584960938
y: 357.7864074707031
z: -0.17016048729419708
visibility: 0.8061116337776184
","x: 268.951416015625
y: 377.4853820800781
z: -0.005028008483350277
visibility: 0.9998201727867126
","x: 246.28793334960938
y: 383.911865234375
z: 0.005013675894588232
visibility: 0.9998404383659363
","x: 281.8917236328125
y: 445.71697998046875
z: -0.04712696745991707
visibility: 0.9982872605323792
","x: 234.21688842773438
y: 447.31561279296875
z: -0.08403492718935013
visibility: 0.9987700581550598
","x: 293.662353515625
y: 500.1559143066406
z: 0.09203869104385376
visibility: 0.9980053901672363
","x: 233.23828125
y: 504.388671875
z: 0.0692186951637268
visibility: 0.9983846545219421
","x: 289.6517639160156
y: 507.1536560058594
z: 0.09804977476596832
visibility: 0.9386988282203674
","x: 233.87791442871094
y: 512.0137329101562
z: 0.07820738852024078
visibility: 0.953637421131134
","x: 300.63714599609375
y: 526.93310546875
z: -0.008983172476291656
visibility: 0.9955142140388489
","x: 229.40744018554688
y: 528.4073486328125
z: -0.017448896542191505
visibility: 0.9961737990379333
",5.109327554702759,,,,,,,,,,,,,,,,,,,,,,,,,,,,,,,,,,,,,,,,,,
22,"x: 259.3436584472656
y: 259.9229736328125
z: -0.36678987741470337
visibility: 0.9999511241912842
","x: 259.7448425292969
y: 252.6337890625
z: -0.3581036627292633
visibility: 0.9998027682304382
","x: 260.5072326660156
y: 252.26609802246094
z: -0.35810908675193787
visibility: 0.9998130798339844
","x: 261.21630859375
y: 251.91123962402344
z: -0.35815778374671936
visibility: 0.9998269081115723
","x: 256.8550720214844
y: 253.0956268310547
z: -0.3546253442764282
visibility: 0.9997698664665222
","x: 255.62948608398438
y: 253.11317443847656
z: -0.3546890616416931
visibility: 0.9997372031211853
","x: 254.3273162841797
y: 253.1273651123047
z: -0.35472866892814636
visibility: 0.999723494052887
","x: 260.74420166015625
y: 254.1675567626953
z: -0.2708579897880554
visibility: 0.9997497200965881
","x: 251.140625
y: 256.2743835449219
z: -0.25457844138145447
visibility: 0.9994423985481262
","x: 261.0072937011719
y: 266.49468994140625
z: -0.3314879536628723
visibility: 0.9999346137046814
","x: 257.3233642578125
y: 266.603515625
z: -0.32691502571105957
visibility: 0.9998707175254822
","x: 274.03192138671875
y: 287.59039306640625
z: -0.19777646660804749
visibility: 0.9999783635139465
","x: 238.67674255371094
y: 292.5600891113281
z: -0.15247699618339539
visibility: 0.9998300075531006
","x: 280.3083190917969
y: 328.5772399902344
z: -0.1752196103334427
visibility: 0.987663209438324
","x: 235.1227264404297
y: 334.627685546875
z: -0.09597844630479813
visibility: 0.9420843124389648
","x: 288.003173828125
y: 370.3398132324219
z: -0.25496307015419006
visibility: 0.9790843725204468
","x: 228.28384399414062
y: 374.54644775390625
z: -0.17310412228107452
visibility: 0.8894509673118591
","x: 287.41998291015625
y: 381.4169921875
z: -0.28385961055755615
visibility: 0.9516162872314453
","x: 220.1744384765625
y: 388.9111328125
z: -0.19628092646598816
visibility: 0.8251211047172546
","x: 283.80712890625
y: 379.4955749511719
z: -0.31036534905433655
visibility: 0.954829216003418
","x: 214.5611572265625
y: 389.47711181640625
z: -0.23062992095947266
visibility: 0.8315143585205078
","x: 283.6673889160156
y: 375.8871765136719
z: -0.2659526467323303
visibility: 0.9366542100906372
","x: 220.81768798828125
y: 385.41217041015625
z: -0.18841668963432312
visibility: 0.8164995312690735
","x: 270.5891418457031
y: 377.5625915527344
z: -0.009111209772527218
visibility: 0.999828040599823
","x: 247.12355041503906
y: 383.72808837890625
z: 0.00907061155885458
visibility: 0.9998509287834167
","x: 282.0911865234375
y: 446.29718017578125
z: -0.015246814116835594
visibility: 0.9982002973556519
","x: 236.6919708251953
y: 447.7657775878906
z: 0.005642373114824295
visibility: 0.9987514615058899
","x: 290.5277099609375
y: 502.9337158203125
z: 0.12363331019878387
visibility: 0.998014509677887
","x: 235.37942504882812
y: 507.5809326171875
z: 0.1431746631860733
visibility: 0.9984503984451294
","x: 286.7268981933594
y: 511.97503662109375
z: 0.1285371482372284
visibility: 0.9408315420150757
","x: 239.51596069335938
y: 518.4058837890625
z: 0.1478147804737091
visibility: 0.9562100768089294
","x: 300.3171081542969
y: 526.8781127929688
z: 0.02605748549103737
visibility: 0.9954906105995178
","x: 225.5705108642578
y: 528.74951171875
z: 0.0487155020236969
visibility: 0.9962975978851318
",5.2962586879730225,"x: 286.44439697265625
y: 380.7693176269531
z: 0.0
","x: 283.4581298828125
y: 379.3579406738281
z: -0.002089846646413207
","x: 281.28759765625
y: 378.9339599609375
z: -0.004878741689026356
","x: 280.3306579589844
y: 380.86474609375
z: -0.00707070529460907
","x: 279.9988708496094
y: 383.1866149902344
z: -0.00894756056368351
","x: 285.2496337890625
y: 376.18695068359375
z: -0.011996651999652386
","x: 282.7026672363281
y: 382.102294921875
z: -0.01473158597946167
","x: 281.50018310546875
y: 382.79827880859375
z: -0.014306923374533653
","x: 281.680419921875
y: 382.3722839355469
z: -0.013577137142419815
","x: 287.23443603515625
y: 378.593017578125
z: -0.012121434323489666
","x: 283.9320373535156
y: 385.9146423339844
z: -0.014851817861199379
","x: 283.0700988769531
y: 385.5845947265625
z: -0.012819312512874603
","x: 283.6451416015625
y: 384.1244201660156
z: -0.011186862364411354
","x: 288.4090270996094
y: 381.63702392578125
z: -0.011460992507636547
","x: 285.3460998535156
y: 388.07470703125
z: -0.013277726247906685
","x: 284.68768310546875
y: 387.2940368652344
z: -0.010254421271383762
","x: 285.1492919921875
y: 385.4529113769531
z: -0.008227445185184479
","x: 289.0017395019531
y: 385.0059814453125
z: -0.01083413790911436
","x: 286.44427490234375
y: 390.0621032714844
z: -0.012082903645932674
","x: 285.8388671875
y: 389.8446350097656
z: -0.010405556298792362
","x: 286.1087646484375
y: 388.4923095703125
z: -0.009011504240334034
",,,,,,,,,,,,,,,,,,,,,
23,"x: 259.3436584472656
y: 259.9229736328125
z: -0.36678987741470337
visibility: 0.9999511241912842
","x: 259.7448425292969
y: 252.6337890625
z: -0.3581036627292633
visibility: 0.9998027682304382
","x: 260.5072326660156
y: 252.26609802246094
z: -0.35810908675193787
visibility: 0.9998130798339844
","x: 261.21630859375
y: 251.91123962402344
z: -0.35815778374671936
visibility: 0.9998269081115723
","x: 256.8550720214844
y: 253.0956268310547
z: -0.3546253442764282
visibility: 0.9997698664665222
","x: 255.62948608398438
y: 253.11317443847656
z: -0.3546890616416931
visibility: 0.9997372031211853
","x: 254.3273162841797
y: 253.1273651123047
z: -0.35472866892814636
visibility: 0.999723494052887
","x: 260.74420166015625
y: 254.1675567626953
z: -0.2708579897880554
visibility: 0.9997497200965881
","x: 251.140625
y: 256.2743835449219
z: -0.25457844138145447
visibility: 0.9994423985481262
","x: 261.0072937011719
y: 266.49468994140625
z: -0.3314879536628723
visibility: 0.9999346137046814
","x: 257.3233642578125
y: 266.603515625
z: -0.32691502571105957
visibility: 0.9998707175254822
","x: 274.03192138671875
y: 287.59039306640625
z: -0.19777646660804749
visibility: 0.9999783635139465
","x: 238.67674255371094
y: 292.5600891113281
z: -0.15247699618339539
visibility: 0.9998300075531006
","x: 280.3083190917969
y: 328.5772399902344
z: -0.1752196103334427
visibility: 0.987663209438324
","x: 235.1227264404297
y: 334.627685546875
z: -0.09597844630479813
visibility: 0.9420843124389648
","x: 288.003173828125
y: 370.3398132324219
z: -0.25496307015419006
visibility: 0.9790843725204468
","x: 228.28384399414062
y: 374.54644775390625
z: -0.17310412228107452
visibility: 0.8894509673118591
","x: 287.41998291015625
y: 381.4169921875
z: -0.28385961055755615
visibility: 0.9516162872314453
","x: 220.1744384765625
y: 388.9111328125
z: -0.19628092646598816
visibility: 0.8251211047172546
","x: 283.80712890625
y: 379.4955749511719
z: -0.31036534905433655
visibility: 0.954829216003418
","x: 214.5611572265625
y: 389.47711181640625
z: -0.23062992095947266
visibility: 0.8315143585205078
","x: 283.6673889160156
y: 375.8871765136719
z: -0.2659526467323303
visibility: 0.9366542100906372
","x: 220.81768798828125
y: 385.41217041015625
z: -0.18841668963432312
visibility: 0.8164995312690735
","x: 270.5891418457031
y: 377.5625915527344
z: -0.009111209772527218
visibility: 0.999828040599823
","x: 247.12355041503906
y: 383.72808837890625
z: 0.00907061155885458
visibility: 0.9998509287834167
","x: 282.0911865234375
y: 446.29718017578125
z: -0.015246814116835594
visibility: 0.9982002973556519
","x: 236.6919708251953
y: 447.7657775878906
z: 0.005642373114824295
visibility: 0.9987514615058899
","x: 290.5277099609375
y: 502.9337158203125
z: 0.12363331019878387
visibility: 0.998014509677887
","x: 235.37942504882812
y: 507.5809326171875
z: 0.1431746631860733
visibility: 0.9984503984451294
","x: 286.7268981933594
y: 511.97503662109375
z: 0.1285371482372284
visibility: 0.9408315420150757
","x: 239.51596069335938
y: 518.4058837890625
z: 0.1478147804737091
visibility: 0.9562100768089294
","x: 300.3171081542969
y: 526.8781127929688
z: 0.02605748549103737
visibility: 0.9954906105995178
","x: 225.5705108642578
