uscmakers/ReverseChoreography/data/10_power_little mix.csv
,NOSE,LEFT_EYE_INNER,LEFT_EYE,LEFT_EYE_OUTER,RIGHT_EYE_INNER,RIGHT_EYE,RIGHT_EYE_OUTER,LEFT_EAR,RIGHT_EAR,MOUTH_LEFT,MOUTH_RIGHT,LEFT_SHOULDER,RIGHT_SHOULDER,LEFT_ELBOW,RIGHT_ELBOW,LEFT_WRIST,RIGHT_WRIST,LEFT_PINKY,RIGHT_PINKY,LEFT_INDEX,RIGHT_INDEX,LEFT_THUMB,RIGHT_THUMB,LEFT_HIP,RIGHT_HIP,LEFT_KNEE,RIGHT_KNEE,LEFT_ANKLE,RIGHT_ANKLE,LEFT_HEEL,RIGHT_HEEL,LEFT_FOOT_INDEX,RIGHT_FOOT_INDEX,TIMESTAMP,WRIST2,THUMB_CPC2,THUMB_MCP2,THUMB_IP2,THUMB_TIP2,INDEX_FINGER_MCP2,INDEX_FINGER_PIP2,INDEX_FINGER_DIP2,INDEX_FINGER_TIP2,MIDDLE_FINGER_MCP2,MIDDLE_FINGER_PIP2,MIDDLE_FINGER_DIP2,MIDDLE_FINGER_TIP2,RING_FINGER_PIP2,RING_FINGER_DIP2,RING_FINGER_TIP2,RING_FINGER_MCP2,PINKY_MCP2,PINKY_PIP2,PINKY_DIP2,PINKY_TIP2,WRIST,THUMB_CPC,THUMB_MCP,THUMB_IP,THUMB_TIP,INDEX_FINGER_MCP,INDEX_FINGER_PIP,INDEX_FINGER_DIP,INDEX_FINGER_TIP,MIDDLE_FINGER_MCP,MIDDLE_FINGER_PIP,MIDDLE_FINGER_DIP,MIDDLE_FINGER_TIP,RING_FINGER_PIP,RING_FINGER_DIP,RING_FINGER_TIP,RING_FINGER_MCP,PINKY_MCP,PINKY_PIP,PINKY_DIP,PINKY_TIP
0,"x: 239.1966552734375
y: 251.3554229736328
z: -0.11082352697849274
visibility: 0.9995930790901184
","x: 239.8350067138672
y: 247.75144958496094
z: -0.09584787487983704
visibility: 0.998930037021637
","x: 240.95477294921875
y: 247.56594848632812
z: -0.09588830173015594
visibility: 0.9989263415336609
","x: 242.13223266601562
y: 247.49267578125
z: -0.0958845466375351
visibility: 0.999091386795044
","x: 236.93272399902344
y: 249.23316955566406
z: -0.09237884730100632
visibility: 0.9989104270935059
","x: 235.99598693847656
y: 249.99533081054688
z: -0.09236733615398407
visibility: 0.9987610578536987
","x: 235.0319366455078
y: 250.8583221435547
z: -0.09241257607936859
visibility: 0.9989582300186157
","x: 244.44216918945312
y: 252.271484375
z: -0.01755228079855442
visibility: 0.9970470070838928
","x: 233.74549865722656
y: 257.40643310546875
z: -0.0023642093874514103
visibility: 0.9974834322929382
","x: 242.63662719726562
y: 257.81085205078125
z: -0.08253868669271469
visibility: 0.9987272620201111
","x: 238.07130432128906
y: 260.262939453125
z: -0.07820188999176025
visibility: 0.9988654851913452
","x: 257.9291076660156
y: 280.670654296875
z: -0.0072577400133013725
visibility: 0.9994601607322693
","x: 227.20791625976562
y: 294.6020812988281
z: 0.047407783567905426
visibility: 0.9990543723106384
","x: 264.506103515625
y: 306.68023681640625
z: -0.11475535482168198
visibility: 0.9890509843826294
","x: 222.9966278076172
y: 329.0493469238281
z: 0.04122331365942955
visibility: 0.919476330280304
","x: 245.3907928466797
y: 284.137451171875
z: -0.26566848158836365
visibility: 0.9909883141517639
","x: 225.10089111328125
y: 343.7506103515625
z: -0.05587761849164963
visibility: 0.9110233187675476
","x: 240.77691650390625
y: 279.9984436035156
z: -0.3054918348789215
visibility: 0.9781684279441833
","x: 225.75645446777344
y: 352.446044921875
z: -0.08111723512411118
visibility: 0.8470302224159241
","x: 240.54507446289062
y: 276.714599609375
z: -0.30210569500923157
visibility: 0.977027416229248
","x: 226.9230194091797
y: 349.5400390625
z: -0.09515703469514847
visibility: 0.8470209836959839
","x: 242.29376220703125
y: 278.91534423828125
z: -0.2681349515914917
visibility: 0.962192177772522
","x: 226.95335388183594
y: 345.6507873535156
z: -0.06394746899604797
visibility: 0.8135985732078552
","x: 254.07537841796875
y: 370.35272216796875
z: -0.012661121785640717
visibility: 0.9993079900741577
","x: 234.9283905029297
y: 369.0252380371094
z: 0.012699623592197895
visibility: 0.9992721676826477
","x: 247.4728240966797
y: 437.268798828125
z: -0.01833311654627323
visibility: 0.9784864187240601
","x: 233.21231079101562
y: 432.4637145996094
z: -0.019460592418909073
visibility: 0.9839643239974976
","x: 243.46592712402344
y: 493.79132080078125
z: 0.08444292098283768
visibility: 0.9735808372497559
","x: 231.46937561035156
y: 493.4530334472656
z: 0.07955721765756607
visibility: 0.9820442199707031
","x: 241.99205017089844
y: 501.5740661621094
z: 0.089537613093853
visibility: 0.8446892499923706
","x: 232.60968017578125
y: 501.3765869140625
z: 0.08383604139089584
visibility: 0.7932191491127014
","x: 245.8387451171875
y: 513.2777099609375
z: -0.0075738439336419106
visibility: 0.970901370048523
","x: 227.6929473876953
y: 512.5988159179688
z: -0.016396071761846542
visibility: 0.9753823280334473
",4.143325328826904,,,,,,,,,,,,,,,,,,,,,,,,,,,,,,,,,,,,,,,,,,
1,"x: 239.1966552734375
y: 251.3554229736328
z: -0.11082352697849274
visibility: 0.9995930790901184
","x: 239.8350067138672
y: 247.75144958496094
z: -0.09584787487983704
visibility: 0.998930037021637
","x: 240.95477294921875
y: 247.56594848632812
z: -0.09588830173015594
visibility: 0.9989263415336609
","x: 242.13223266601562
y: 247.49267578125
z: -0.0958845466375351
visibility: 0.999091386795044
","x: 236.93272399902344
y: 249.23316955566406
z: -0.09237884730100632
visibility: 0.9989104270935059
","x: 235.99598693847656
y: 249.99533081054688
z: -0.09236733615398407
visibility: 0.9987610578536987
","x: 235.0319366455078
y: 250.8583221435547
z: -0.09241257607936859
visibility: 0.9989582300186157
","x: 244.44216918945312
y: 252.271484375
z: -0.01755228079855442
visibility: 0.9970470070838928
","x: 233.74549865722656
y: 257.40643310546875
z: -0.0023642093874514103
visibility: 0.9974834322929382
","x: 242.63662719726562
y: 257.81085205078125
z: -0.08253868669271469
visibility: 0.9987272620201111
","x: 238.07130432128906
y: 260.262939453125
z: -0.07820188999176025
visibility: 0.9988654851913452
","x: 257.9291076660156
y: 280.670654296875
z: -0.0072577400133013725
visibility: 0.9994601607322693
","x: 227.20791625976562
y: 294.6020812988281
z: 0.047407783567905426
visibility: 0.9990543723106384
","x: 264.506103515625
y: 306.68023681640625
z: -0.11475535482168198
visibility: 0.9890509843826294
","x: 222.9966278076172
y: 329.0493469238281
z: 0.04122331365942955
visibility: 0.919476330280304
","x: 245.3907928466797
y: 284.137451171875
z: -0.26566848158836365
visibility: 0.9909883141517639
","x: 225.10089111328125
y: 343.7506103515625
z: -0.05587761849164963
visibility: 0.9110233187675476
","x: 240.77691650390625
y: 279.9984436035156
z: -0.3054918348789215
visibility: 0.9781684279441833
","x: 225.75645446777344
y: 352.446044921875
z: -0.08111723512411118
visibility: 0.8470302224159241
","x: 240.54507446289062
y: 276.714599609375
z: -0.30210569500923157
visibility: 0.977027416229248
","x: 226.9230194091797
y: 349.5400390625
z: -0.09515703469514847
visibility: 0.8470209836959839
","x: 242.29376220703125
y: 278.91534423828125
z: -0.2681349515914917
visibility: 0.962192177772522
","x: 226.95335388183594
y: 345.6507873535156
z: -0.06394746899604797
visibility: 0.8135985732078552
","x: 254.07537841796875
y: 370.35272216796875
z: -0.012661121785640717
visibility: 0.9993079900741577
","x: 234.9283905029297
y: 369.0252380371094
z: 0.012699623592197895
visibility: 0.9992721676826477
","x: 247.4728240966797
y: 437.268798828125
z: -0.01833311654627323
visibility: 0.9784864187240601
","x: 233.21231079101562
y: 432.4637145996094
z: -0.019460592418909073
visibility: 0.9839643239974976
","x: 243.46592712402344
y: 493.79132080078125
z: 0.08444292098283768
visibility: 0.9735808372497559
","x: 231.46937561035156
y: 493.4530334472656
z: 0.07955721765756607
visibility: 0.9820442199707031
","x: 241.99205017089844
y: 501.5740661621094
z: 0.089537613093853
visibility: 0.8446892499923706
","x: 232.60968017578125
y: 501.3765869140625
z: 0.08383604139089584
visibility: 0.7932191491127014
","x: 245.8387451171875
y: 513.2777099609375
z: -0.0075738439336419106
visibility: 0.970901370048523
","x: 227.6929473876953
y: 512.5988159179688
z: -0.016396071761846542
visibility: 0.9753823280334473
",4.143325328826904,,,,,,,,,,,,,,,,,,,,,,,,,,,,,,,,,,,,,,,,,,
2,"x: 246.19039916992188
y: 251.64495849609375
z: -0.3524082899093628
visibility: 0.999632716178894
","x: 248.0740966796875
y: 248.0435791015625
z: -0.34237030148506165
visibility: 0.9990330338478088
","x: 249.28916931152344
y: 248.3236083984375
z: -0.3423488736152649
visibility: 0.999031126499176
","x: 250.5100860595703
y: 248.76913452148438
z: -0.34236887097358704
visibility: 0.9991790652275085
","x: 244.96084594726562
y: 248.77027893066406
z: -0.34159421920776367
visibility: 0.9990134239196777
","x: 243.85989379882812
y: 248.98342895507812
z: -0.34163135290145874
visibility: 0.9988803863525391
","x: 242.77163696289062
y: 249.1145477294922
z: -0.34159278869628906
visibility: 0.9990565180778503
","x: 252.3506622314453
y: 253.86114501953125
z: -0.2568383514881134
visibility: 0.9973366856575012
","x: 240.52651977539062
y: 254.49551391601562
z: -0.2571973204612732
visibility: 0.9977261424064636
","x: 247.71360778808594
y: 258.8870544433594
z: -0.3192419409751892
visibility: 0.9988527894020081
","x: 243.61260986328125
y: 259.90289306640625
z: -0.3193146586418152
visibility: 0.998975932598114
","x: 260.5047912597656
y: 287.4094543457031
z: -0.1840675175189972
visibility: 0.9995133280754089
","x: 227.75161743164062
y: 289.68792724609375
z: -0.15332739055156708
visibility: 0.9991425275802612
","x: 270.3071594238281
y: 324.6441955566406
z: -0.1193140372633934
visibility: 0.9900427460670471
","x: 219.64520263671875
y: 324.9360656738281
z: -0.04822862148284912
visibility: 0.9257586598396301
","x: 274.7622985839844
y: 364.5472412109375
z: -0.15604940056800842
visibility: 0.9916501045227051
","x: 214.89688110351562
y: 354.35693359375
z: -0.05122692137956619
visibility: 0.9172062873840332
","x: 277.28753662109375
y: 377.09979248046875
z: -0.1668221652507782
visibility: 0.9792518615722656
","x: 213.537109375
y: 365.6474304199219
z: -0.05476559326052666
visibility: 0.855669379234314
","x: 275.1098327636719
y: 377.60595703125
z: -0.19391924142837524
visibility: 0.9783326983451843
","x: 214.36236572265625
y: 366.47296142578125
z: -0.08093951642513275
visibility: 0.8560971021652222
","x: 273.9806213378906
y: 373.970458984375
z: -0.16625720262527466
visibility: 0.964641273021698
","x: 215.29808044433594
y: 363.18377685546875
z: -0.06039338558912277
visibility: 0.8251621723175049
","x: 252.3939208984375
y: 373.2720642089844
z: -0.006791621446609497
visibility: 0.9993464946746826
","x: 233.3032989501953
y: 370.57550048828125
z: 0.006686226464807987
visibility: 0.9993121027946472
","x: 246.558837890625
y: 437.4466247558594
z: 0.031176764518022537
visibility: 0.9797383546829224
","x: 232.73287963867188
y: 434.1137390136719
z: 0.00012003983283648267
visibility: 0.984594464302063
","x: 243.0886993408203
y: 494.2243957519531
z: 0.16599096357822418
visibility: 0.9755897521972656
","x: 230.6033477783203
y: 493.25482177734375
z: 0.13912858068943024
visibility: 0.9829393625259399
","x: 241.29209899902344
y: 501.7681884765625
z: 0.1733316034078598
visibility: 0.8522942066192627
","x: 231.95632934570312
y: 500.689208984375
z: 0.14663392305374146
visibility: 0.7998249530792236
","x: 245.202880859375
y: 513.423583984375
z: 0.07797925174236298
visibility: 0.972976803779602
","x: 227.53131103515625
y: 512.5786743164062
z: 0.04885999113321304
visibility: 0.9769430756568909
",4.786581516265869,"x: 276.0069885253906
y: 366.059326171875
z: 0.0
","x: 278.0224914550781
y: 371.8218994140625
z: 0.0022017615847289562
","x: 279.0482177734375
y: 378.5720520019531
z: 0.0031065235380083323
","x: 278.77490234375
y: 383.8857421875
z: 0.0035004997625947
","x: 277.9209899902344
y: 387.1445007324219
z: 0.004223177209496498
","x: 279.7941589355469
y: 382.1206970214844
z: 0.0014888588339090347
","x: 279.2891845703125
y: 390.30389404296875
z: 0.0017908328445628285
","x: 277.99188232421875
y: 392.5108337402344
z: 0.0027511976659297943
","x: 277.1163024902344
y: 392.7371826171875
z: 0.003660819726064801
","x: 278.3038330078125
y: 382.77911376953125
z: 0.00022367440396919847
","x: 277.99090576171875
y: 391.0180358886719
z: 0.000623187399469316
","x: 276.7935485839844
y: 393.0224304199219
z: 0.0018184947548434138
","x: 275.89947509765625
y: 392.9447937011719
z: 0.002832883270457387
","x: 276.4738464355469
y: 382.7050476074219
z: -0.0008861297974362969
","x: 276.0343933105469
y: 390.4176330566406
z: -0.00039307677070610225
","x: 275.05194091796875
y: 392.18670654296875
z: 0.0006358077516779304
","x: 274.3454895019531
y: 392.0765380859375
z: 0.001361450762487948
","x: 274.4131774902344
y: 381.87664794921875
z: -0.001940947724506259
","x: 273.8811950683594
y: 387.4525451660156
z: -0.001609647530131042
","x: 273.0970153808594
y: 389.3335266113281
z: -0.0009347643936052918
","x: 272.4740295410156
y: 389.98583984375
z: -0.0002577057166490704
",,,,,,,,,,,,,,,,,,,,,
3,"x: 246.19039916992188
y: 251.64495849609375
z: -0.3524082899093628
visibility: 0.999632716178894
","x: 248.0740966796875
y: 248.0435791015625
z: -0.34237030148506165
visibility: 0.9990330338478088
","x: 249.28916931152344
y: 248.3236083984375
z: -0.3423488736152649
visibility: 0.999031126499176
","x: 250.5100860595703
y: 248.76913452148438
z: -0.34236887097358704
visibility: 0.9991790652275085
","x: 244.96084594726562
y: 248.77027893066406
z: -0.34159421920776367
visibility: 0.9990134239196777
","x: 243.85989379882812
y: 248.98342895507812
z: -0.34163135290145874
visibility: 0.9988803863525391
","x: 242.77163696289062
y: 249.1145477294922
z: -0.34159278869628906
visibility: 0.9990565180778503
","x: 252.3506622314453
y: 253.86114501953125
z: -0.2568383514881134
visibility: 0.9973366856575012
","x: 240.52651977539062
y: 254.49551391601562
z: -0.2571973204612732
visibility: 0.9977261424064636
","x: 247.71360778808594
y: 258.8870544433594
z: -0.3192419409751892
visibility: 0.9988527894020081
","x: 243.61260986328125
y: 259.90289306640625
z: -0.3193146586418152
visibility: 0.998975932598114
","x: 260.5047912597656
y: 287.4094543457031
z: -0.1840675175189972
visibility: 0.9995133280754089
","x: 227.75161743164062
y: 289.68792724609375
z: -0.15332739055156708
visibility: 0.9991425275802612
","x: 270.3071594238281
y: 324.6441955566406
z: -0.1193140372633934
visibility: 0.9900427460670471
","x: 219.64520263671875
y: 324.9360656738281
z: -0.04822862148284912
visibility: 0.9257586598396301
","x: 274.7622985839844
y: 364.5472412109375
z: -0.15604940056800842
visibility: 0.9916501045227051
","x: 214.89688110351562
y: 354.35693359375
z: -0.05122692137956619
visibility: 0.9172062873840332
","x: 277.28753662109375
y: 377.09979248046875
z: -0.1668221652507782
visibility: 0.9792518615722656
","x: 213.537109375
y: 365.6474304199219
z: -0.05476559326052666
visibility: 0.855669379234314
","x: 275.1098327636719
y: 377.60595703125
z: -0.19391924142837524
visibility: 0.9783326983451843
","x: 214.36236572265625
y: 366.47296142578125
z: -0.08093951642513275
visibility: 0.8560971021652222
","x: 273.9806213378906
y: 373.970458984375
z: -0.16625720262527466
visibility: 0.964641273021698
","x: 215.29808044433594
y: 363.18377685546875
z: -0.06039338558912277
visibility: 0.8251621723175049
","x: 252.3939208984375
y: 373.2720642089844
z: -0.006791621446609497
visibility: 0.9993464946746826
","x: 233.3032989501953
y: 370.57550048828125
z: 0.006686226464807987
visibility: 0.9993121027946472
","x: 246.558837890625
y: 437.4466247558594
z: 0.031176764518022537
visibility: 0.9797383546829224
","x: 232.73287963867188
y: 434.1137390136719
z: 0.00012003983283648267
visibility: 0.984594464302063
","x: 243.0886993408203
y: 494.2243957519531
z: 0.16599096357822418
visibility: 0.9755897521972656
","x: 230.6033477783203
y: 493.25482177734375
z: 0.13912858068943024
visibility: 0.9829393625259399
","x: 241.29209899902344
y: 501.7681884765625
z: 0.1733316034078598
visibility: 0.8522942066192627
","x: 231.95632934570312
y: 500.689208984375
z: 0.14663392305374146
visibility: 0.7998249530792236
","x: 245.202880859375
y: 513.423583984375
z: 0.07797925174236298
visibility: 0.972976803779602
","x: 227.53131103515625
y: 512.5786743164062
z: 0.04885999113321304
visibility: 0.9769430756568909
",4.786581516265869,"x: 276.0069885253906
y: 366.059326171875
z: 0.0
","x: 278.0224914550781
y: 371.8218994140625
z: 0.0022017615847289562
","x: 279.0482177734375
y: 378.5720520019531
z: 0.0031065235380083323
","x: 278.77490234375
y: 383.8857421875
z: 0.0035004997625947
","x: 277.9209899902344
y: 387.1445007324219
z: 0.004223177209496498
","x: 279.7941589355469
y: 382.1206970214844
z: 0.0014888588339090347
","x: 279.2891845703125
y: 390.30389404296875
z: 0.0017908328445628285
","x: 277.99188232421875
y: 392.5108337402344
z: 0.0027511976659297943
","x: 277.1163024902344
y: 392.7371826171875
z: 0.003660819726064801
","x: 278.3038330078125
y: 382.77911376953125
z: 0.00022367440396919847
","x: 277.99090576171875
y: 391.0180358886719
z: 0.000623187399469316
","x: 276.7935485839844
y: 393.0224304199219
z: 0.0018184947548434138
","x: 275.89947509765625
y: 392.9447937011719
z: 0.002832883270457387
","x: 276.4738464355469
y: 382.7050476074219
z: -0.0008861297974362969
","x: 276.0343933105469
y: 390.4176330566406
z: -0.00039307677070610225
","x: 275.05194091796875
y: 392.18670654296875
z: 0.0006358077516779304
","x: 274.3454895019531
y: 392.0765380859375
z: 0.001361450762487948
","x: 274.4131774902344
y: 381.87664794921875
z: -0.001940947724506259
","x: 273.8811950683594
y: 387.4525451660156
z: -0.001609647530131042
","x: 273.0970153808594
y: 389.3335266113281
z: -0.0009347643936052918
","x: 272.4740295410156
y: 389.98583984375
z: -0.0002577057166490704
",,,,,,,,,,,,,,,,,,,,,
4,"x: 246.19039916992188
y: 251.64495849609375
z: -0.3524082899093628
visibility: 0.999632716178894
","x: 248.0740966796875
y: 248.0435791015625
z: -0.34237030148506165
visibility: 0.9990330338478088
","x: 249.28916931152344
y: 248.3236083984375
z: -0.3423488736152649
visibility: 0.999031126499176
","x: 250.5100860595703
y: 248.76913452148438
z: -0.34236887097358704
visibility: 0.9991790652275085
","x: 244.96084594726562
y: 248.77027893066406
z: -0.34159421920776367
visibility: 0.9990134239196777
","x: 243.85989379882812
y: 248.98342895507812
z: -0.34163135290145874
visibility: 0.9988803863525391
","x: 242.77163696289062
y: 249.1145477294922
z: -0.34159278869628906
visibility: 0.9990565180778503
","x: 252.3506622314453
y: 253.86114501953125
z: -0.2568383514881134
visibility: 0.9973366856575012
","x: 240.52651977539062
y: 254.49551391601562
z: -0.2571973204612732
visibility: 0.9977261424064636
","x: 247.71360778808594
y: 258.8870544433594
z: -0.3192419409751892
visibility: 0.9988527894020081
","x: 243.61260986328125
y: 259.90289306640625
z: -0.3193146586418152
visibility: 0.998975932598114
","x: 260.5047912597656
y: 287.4094543457031
z: -0.1840675175189972
visibility: 0.9995133280754089
","x: 227.75161743164062
y: 289.68792724609375
z: -0.15332739055156708
visibility: 0.9991425275802612
","x: 270.3071594238281
y: 324.6441955566406
z: -0.1193140372633934
visibility: 0.9900427460670471
","x: 219.64520263671875
y: 324.9360656738281
z: -0.04822862148284912
visibility: 0.9257586598396301
","x: 274.7622985839844
y: 364.5472412109375
z: -0.15604940056800842
visibility: 0.9916501045227051
","x: 214.89688110351562
y: 354.35693359375
z: -0.05122692137956619
visibility: 0.9172062873840332
","x: 277.28753662109375
y: 377.09979248046875
z: -0.1668221652507782
visibility: 0.9792518615722656
","x: 213.537109375
y: 365.6474304199219
z: -0.05476559326052666
visibility: 0.855669379234314
","x: 275.1098327636719
y: 377.60595703125
z: -0.19391924142837524
visibility: 0.9783326983451843
","x: 214.36236572265625
y: 366.47296142578125
z: -0.08093951642513275
visibility: 0.8560971021652222
","x: 273.9806213378906
y: 373.970458984375
z: -0.16625720262527466
visibility: 0.964641273021698
","x: 215.29808044433594
y: 363.18377685546875
z: -0.06039338558912277
visibility: 0.8251621723175049
","x: 252.3939208984375
y: 373.2720642089844
z: -0.006791621446609497
visibility: 0.9993464946746826
","x: 233.3032989501953
y: 370.57550048828125
z: 0.006686226464807987
visibility: 0.9993121027946472
","x: 246.558837890625
y: 437.4466247558594
z: 0.031176764518022537
visibility: 0.9797383546829224
","x: 232.73287963867188
y: 434.1137390136719
z: 0.00012003983283648267
visibility: 0.984594464302063
","x: 243.0886993408203
y: 494.2243957519531
z: 0.16599096357822418
visibility: 0.9755897521972656
","x: 230.6033477783203
y: 493.25482177734375
z: 0.13912858068943024
visibility: 0.9829393625259399
","x: 241.29209899902344
y: 501.7681884765625
z: 0.1733316034078598
visibility: 0.8522942066192627
","x: 231.95632934570312
y: 500.689208984375
z: 0.14663392305374146
visibility: 0.7998249530792236
","x: 245.202880859375
y: 513.423583984375
z: 0.07797925174236298
visibility: 0.972976803779602
","x: 227.53131103515625
y: 512.5786743164062
z: 0.04885999113321304
visibility: 0.9769430756568909
",4.786581516265869,"x: 276.0069885253906
y: 366.059326171875
z: 0.0
","x: 278.0224914550781
y: 371.8218994140625
z: 0.0022017615847289562
","x: 279.0482177734375
y: 378.5720520019531
z: 0.0031065235380083323
","x: 278.77490234375
y: 383.8857421875
z: 0.0035004997625947
","x: 277.9209899902344
y: 387.1445007324219
z: 0.004223177209496498
","x: 279.7941589355469
y: 382.1206970214844
z: 0.0014888588339090347
","x: 279.2891845703125
y: 390.30389404296875
z: 0.0017908328445628285
","x: 277.99188232421875
y: 392.5108337402344
z: 0.0027511976659297943
","x: 277.1163024902344
y: 392.7371826171875
z: 0.003660819726064801
","x: 278.3038330078125
y: 382.77911376953125
z: 0.00022367440396919847
","x: 277.99090576171875
y: 391.0180358886719
z: 0.000623187399469316
","x: 276.7935485839844
y: 393.0224304199219
z: 0.0018184947548434138
","x: 275.89947509765625
y: 392.9447937011719
z: 0.002832883270457387
","x: 276.4738464355469
y: 382.7050476074219
z: -0.0008861297974362969
","x: 276.0343933105469
y: 390.4176330566406
z: -0.00039307677070610225
","x: 275.05194091796875
y: 392.18670654296875
z: 0.0006358077516779304
","x: 274.3454895019531
y: 392.0765380859375
z: 0.001361450762487948
","x: 274.4131774902344
y: 381.87664794921875
z: -0.001940947724506259
","x: 273.8811950683594
y: 387.4525451660156
z: -0.001609647530131042
","x: 273.0970153808594
y: 389.3335266113281
z: -0.0009347643936052918
","x: 272.4740295410156
y: 389.98583984375
z: -0.0002577057166490704
",,,,,,,,,,,,,,,,,,,,,
5,"x: 247.4119415283203
y: 251.73336791992188
z: -0.32559734582901
visibility: 0.9996681809425354
","x: 249.41949462890625
y: 248.0855712890625
z: -0.31497013568878174
visibility: 0.9991250038146973
","x: 250.4221954345703
y: 248.42567443847656
z: -0.31493231654167175
visibility: 0.9991246461868286
","x: 251.56248474121094
y: 248.93161010742188
z: -0.31493207812309265
visibility: 0.9992572665214539
","x: 246.46051025390625
y: 248.37144470214844
z: -0.3156309723854065
visibility: 0.9991064667701721
","x: 245.4265899658203
y: 248.26318359375
z: -0.3156811594963074
visibility: 0.9989879131317139
","x: 244.21018981933594
y: 248.05667114257812
z: -0.31565985083580017
visibility: 0.9991455078125
","x: 253.54666137695312
y: 253.8778076171875
z: -0.2275993525981903
visibility: 0.9975953102111816
","x: 241.84507751464844
y: 252.35816955566406
z: -0.23386001586914062
visibility: 0.9979438185691833
","x: 248.80377197265625
y: 259.00439453125
z: -0.29154911637306213
visibility: 0.9989649653434753
","x: 244.801025390625
y: 259.310791015625
z: -0.293443888425827
visibility: 0.9990747570991516
","x: 261.6824645996094
y: 288.33062744140625
z: -0.1546206772327423
visibility: 0.9995597004890442
","x: 228.2355194091797
y: 285.9486999511719
z: -0.14000214636325836
visibility: 0.9992186427116394
","x: 271.2950134277344
y: 325.29376220703125
z: -0.09223705530166626
visibility: 0.9908782243728638
","x: 216.98056030273438
y: 315.791259765625
z: -0.05091142654418945
visibility: 0.931759774684906
","x: 274.2850646972656
y: 362.80743408203125
z: -0.1260209083557129
visibility: 0.9920267462730408
","x: 214.85287475585938
y: 354.0146179199219
z: -0.05569954961538315
visibility: 0.921585738658905
","x: 275.2835998535156
y: 376.2923583984375
z: -0.1375187784433365
visibility: 0.9794630408287048
","x: 214.8888397216797
y: 363.00439453125
z: -0.06282810866832733
visibility: 0.8610278964042664
","x: 272.9663391113281
y: 376.06146240234375
z: -0.1644400656223297
visibility: 0.978829026222229
","x: 216.4633026123047
y: 361.7918701171875
z: -0.08445993065834045
visibility: 0.8619787693023682
","x: 271.9217224121094
y: 372.7734680175781
z: -0.13622352480888367
visibility: 0.9659318923950195
","x: 217.23236083984375
y: 357.92425537109375
z: -0.06400690972805023
visibility: 0.8326604962348938
","x: 251.96047973632812
y: 373.1585998535156
z: -0.004457780160009861
visibility: 0.9993281364440918
","x: 233.24490356445312
y: 370.70294189453125
z: 0.004350561648607254
visibility: 0.9993171095848083
","x: 246.2272491455078
y: 436.5143127441406
z: 0.024991482496261597
visibility: 0.9807015657424927
","x: 232.57424926757812
y: 434.18798828125
z: -0.004898395389318466
visibility: 0.9851737022399902
","x: 242.98965454101562
y: 494.38916015625
z: 0.13106821477413177
visibility: 0.9773209095001221
","x: 229.95220947265625
y: 493.4384765625
z: 0.11222414672374725
visibility: 0.9837409257888794
","x: 240.96646118164062
y: 501.9258117675781
z: 0.13582167029380798
visibility: 0.8581720590591431
","x: 231.37924194335938
y: 500.88018798828125
z: 0.11827003955841064
visibility: 0.8048546314239502
","x: 245.1998291015625
y: 513.5515747070312
z: 0.03888196498155594
visibility: 0.974740743637085
","x: 227.640380859375
y: 512.75927734375
z: 0.018899478018283844
visibility: 0.9782090187072754
",4.9403510093688965,,,,,,,,,,,,,,,,,,,,,,,,,,,,,,,,,,,,,,,,,,
6,"x: 247.4119415283203
y: 251.73336791992188
z: -0.32559734582901
visibility: 0.9996681809425354
","x: 249.41949462890625
y: 248.0855712890625
z: -0.31497013568878174
visibility: 0.9991250038146973
","x: 250.4221954345703
y: 248.42567443847656
z: -0.31493231654167175
visibility: 0.9991246461868286
","x: 251.56248474121094
y: 248.93161010742188
z: -0.31493207812309265
visibility: 0.9992572665214539
","x: 246.46051025390625
y: 248.37144470214844
z: -0.3156309723854065
visibility: 0.9991064667701721
","x: 245.4265899658203
y: 248.26318359375
z: -0.3156811594963074
visibility: 0.9989879131317139
","x: 244.21018981933594
y: 248.05667114257812
z: -0.31565985083580017
visibility: 0.9991455078125
","x: 253.54666137695312
y: 253.8778076171875
z: -0.2275993525981903
visibility: 0.9975953102111816
","x: 241.84507751464844
y: 252.35816955566406
z: -0.23386001586914062
visibility: 0.9979438185691833
","x: 248.80377197265625
y: 259.00439453125
z: -0.29154911637306213
visibility: 0.9989649653434753
","x: 244.801025390625
y: 259.310791015625
z: -0.293443888425827
visibility: 0.9990747570991516
","x: 261.6824645996094
y: 288.33062744140625
z: -0.1546206772327423
visibility: 0.9995597004890442
","x: 228.2355194091797
y: 285.9486999511719
z: -0.14000214636325836
visibility: 0.9992186427116394
","x: 271.2950134277344
y: 325.29376220703125
z: -0.09223705530166626
visibility: 0.9908782243728638
","x: 216.98056030273438
y: 315.791259765625
z: -0.05091142654418945
visibility: 0.931759774684906
","x: 274.2850646972656
y: 362.80743408203125
z: -0.1260209083557129
visibility: 0.9920267462730408
","x: 214.85287475585938
y: 354.0146179199219
z: -0.05569954961538315
visibility: 0.921585738658905
","x: 275.2835998535156
y: 376.2923583984375
z: -0.1375187784433365
visibility: 0.9794630408287048
","x: 214.8888397216797
y: 363.00439453125
z: -0.06282810866832733
visibility: 0.8610278964042664
","x: 272.9663391113281
y: 376.06146240234375
z: -0.1644400656223297
visibility: 0.978829026222229
","x: 216.4633026123047
y: 361.7918701171875
z: -0.08445993065834045
visibility: 0.8619787693023682
","x: 271.9217224121094
y: 372.7734680175781
z: -0.13622352480888367
visibility: 0.9659318923950195
","x: 217.23236083984375
y: 357.92425537109375
z: -0.06400690972805023
visibility: 0.8326604962348938
","x: 251.96047973632812
y: 373.1585998535156
z: -0.004457780160009861
visibility: 0.9993281364440918
","x: 233.24490356445312
y: 370.70294189453125
z: 0.004350561648607254
visibility: 0.9993171095848083
","x: 246.2272491455078
y: 436.5143127441406
z: 0.024991482496261597
visibility: 0.9807015657424927
","x: 232.57424926757812
y: 434.18798828125
z: -0.004898395389318466
visibility: 0.9851737022399902
","x: 242.98965454101562
y: 494.38916015625
z: 0.13106821477413177
visibility: 0.9773209095001221
","x: 229.95220947265625
y: 493.4384765625
z: 0.11222414672374725
visibility: 0.9837409257888794
","x: 240.96646118164062
y: 501.9258117675781
z: 0.13582167029380798
visibility: 0.8581720590591431
","x: 231.37924194335938
y: 500.88018798828125
z: 0.11827003955841064
visibility: 0.8048546314239502
","x: 245.1998291015625
y: 513.5515747070312
z: 0.03888196498155594
visibility: 0.974740743637085
","x: 227.640380859375
y: 512.75927734375
z: 0.018899478018283844
visibility: 0.9782090187072754
",4.9403510093688965,,,,,,,,,,,,,,,,,,,,,,,,,,,,,,,,,,,,,,,,,,
7,"x: 247.44650268554688
y: 251.99403381347656
z: -0.2555001974105835
visibility: 0.9996992349624634
","x: 249.04037475585938
y: 248.2520294189453
z: -0.24275784194469452
visibility: 0.9992051124572754
","x: 250.16954040527344
y: 248.67694091796875
z: -0.24273094534873962
visibility: 0.9992059469223022
","x: 251.2451629638672
y: 249.1946258544922
z: -0.24271507561206818
visibility: 0.9993243217468262
","x: 246.20492553710938
y: 248.35540771484375
z: -0.24369271099567413
visibility: 0.9991881847381592
","x: 244.9961700439453
y: 248.24990844726562
z: -0.2437269240617752
visibility: 0.9990829229354858
","x: 243.74310302734375
y: 248.0783233642578
z: -0.24371592700481415
visibility: 0.9992247819900513
","x: 253.4014892578125
y: 254.37496948242188
z: -0.15692052245140076
visibility: 0.9978194236755371
","x: 241.389404296875
y: 252.61392211914062
z: -0.16456755995750427
visibility: 0.9981375932693481
","x: 249.05731201171875
y: 259.57928466796875
z: -0.2232150137424469
visibility: 0.9990642070770264
","x: 244.9015655517578
y: 259.32208251953125
z: -0.22547969222068787
visibility: 0.9991621971130371
","x: 262.06488037109375
y: 291.5865173339844
z: -0.09741460531949997
visibility: 0.9995960593223572
","x: 228.35482788085938
y: 286.532470703125
z: -0.08777861297130585
visibility: 0.9992810487747192
","x: 271.7227783203125
y: 325.60675048828125
z: -0.028935188427567482
visibility: 0.9912001490592957
","x: 215.69424438476562
y: 313.08404541015625
z: -0.015929752960801125
visibility: 0.9364863038063049
","x: 270.9039001464844
y: 361.6228942871094
z: -0.06616783142089844
visibility: 0.9904894828796387
","x: 216.1986541748047
y: 347.4129638671875
z: -0.022882673889398575
visibility: 0.9205282926559448
","x: 270.0876159667969
y: 372.6413269042969
z: -0.07772187143564224
visibility: 0.973756730556488
","x: 216.8719024658203
y: 356.36285400390625
z: -0.03005179762840271
visibility: 0.8564802408218384
","x: 267.8164978027344
y: 369.7352294921875
z: -0.10207320749759674
visibility: 0.9737205505371094
","x: 218.65142822265625
y: 356.0043640136719
z: -0.04753928631544113
visibility: 0.8577214479446411
","x: 267.3149108886719
y: 366.228515625
z: -0.07575841248035431
visibility: 0.9601908922195435
","x: 219.11778259277344
y: 352.7076416015625
z: -0.0287918858230114
visibility: 0.8293306827545166
","x: 251.9442596435547
y: 373.5224914550781
z: -0.0015433321241289377
visibility: 0.999281108379364
","x: 233.25729370117188
y: 370.8927917480469
z: 0.0014386692782863975
visibility: 0.9993147253990173
","x: 246.26573181152344
y: 436.1636047363281
z: 0.018179170787334442
visibility: 0.9811771512031555
","x: 232.5322723388672
y: 434.51849365234375
z: -0.007437252439558506
visibility: 0.9856075644493103
","x: 242.71665954589844
y: 495.1317138671875
z: 0.11947409063577652
visibility: 0.97837895154953
","x: 229.89910888671875
y: 493.60101318359375
z: 0.10634247958660126
visibility: 0.984307050704956
","x: 240.65225219726562
y: 503.1329040527344
z: 0.12743163108825684
visibility: 0.8614235520362854
","x: 231.26419067382812
y: 501.0740966796875
z: 0.10882415622472763
visibility: 0.8098472356796265
","x: 245.24806213378906
y: 513.6058349609375
z: 0.027430284768342972
visibility: 0.975720226764679
","x: 227.6407928466797
y: 512.5587768554688
z: 0.014053153805434704
visibility: 0.9790430665016174
",5.0761189460754395,,,,,,,,,,,,,,,,,,,,,,,,,,,,,,,,,,,,,,,,,,
8,"x: 247.44650268554688
y: 251.99403381347656
z: -0.2555001974105835
visibility: 0.9996992349624634
","x: 249.04037475585938
y: 248.2520294189453
z: -0.24275784194469452
visibility: 0.9992051124572754
","x: 250.16954040527344
y: 248.67694091796875
z: -0.24273094534873962
visibility: 0.9992059469223022
","x: 251.2451629638672
y: 249.1946258544922
z: -0.24271507561206818
visibility: 0.9993243217468262
","x: 246.20492553710938
y: 248.35540771484375
z: -0.24369271099567413
visibility: 0.9991881847381592
","x: 244.9961700439453
y: 248.24990844726562
z: -0.2437269240617752
visibility: 0.9990829229354858
","x: 243.74310302734375
y: 248.0783233642578
z: -0.24371592700481415
visibility: 0.9992247819900513
","x: 253.4014892578125
y: 254.37496948242188
z: -0.15692052245140076
visibility: 0.9978194236755371
","x: 241.389404296875
y: 252.61392211914062
z: -0.16456755995750427
visibility: 0.9981375932693481
","x: 249.05731201171875
y: 259.57928466796875
z: -0.2232150137424469
visibility: 0.9990642070770264
","x: 244.9015655517578
y: 259.32208251953125
z: -0.22547969222068787
visibility: 0.9991621971130371
","x: 262.06488037109375
y: 291.5865173339844
z: -0.09741460531949997
visibility: 0.9995960593223572
","x: 228.35482788085938
y: 286.532470703125
z: -0.08777861297130585
visibility: 0.9992810487747192
","x: 271.7227783203125
y: 325.60675048828125
z: -0.028935188427567482
visibility: 0.9912001490592957
","x: 215.69424438476562
y: 313.08404541015625
z: -0.015929752960801125
visibility: 0.9364863038063049
","x: 270.9039001464844
y: 361.6228942871094
z: -0.06616783142089844
visibility: 0.9904894828796387
","x: 216.1986541748047
y: 347.4129638671875
z: -0.022882673889398575
visibility: 0.9205282926559448
","x: 270.0876159667969
y: 372.6413269042969
z: -0.07772187143564224
visibility: 0.973756730556488
","x: 216.8719024658203
y: 356.36285400390625
z: -0.03005179762840271
visibility: 0.8564802408218384
","x: 267.8164978027344
y: 369.7352294921875
z: -0.10207320749759674
visibility: 0.9737205505371094
","x: 218.65142822265625
y: 356.0043640136719
z: -0.04753928631544113
visibility: 0.8577214479446411
","x: 267.3149108886719
y: 366.228515625
z: -0.07575841248035431
visibility: 0.9601908922195435
","x: 219.11778259277344
y: 352.7076416015625
z: -0.0287918858230114
visibility: 0.8293306827545166
","x: 251.9442596435547
y: 373.5224914550781
z: -0.0015433321241289377
visibility: 0.999281108379364
","x: 233.25729370117188
y: 370.8927917480469
z: 0.0014386692782863975
visibility: 0.9993147253990173
","x: 246.26573181152344
y: 436.1636047363281
z: 0.018179170787334442
visibility: 0.9811771512031555
","x: 232.5322723388672
y: 434.51849365234375
z: -0.007437252439558506
visibility: 0.9856075644493103
","x: 242.71665954589844
y: 495.1317138671875
z: 0.11947409063577652
visibility: 0.97837895154953
","x: 229.89910888671875
y: 493.60101318359375
z: 0.10634247958660126
visibility: 0.984307050704956
","x: 240.65225219726562
y: 503.1329040527344
z: 0.12743163108825684
visibility: 0.8614235520362854
","x: 231.26419067382812
y: 501.0740966796875
z: 0.10882415622472763
visibility: 0.8098472356796265
","x: 245.24806213378906
y: 513.6058349609375
z: 0.027430284768342972
visibility: 0.975720226764679
","x: 227.6407928466797
y: 512.5587768554688
z: 0.014053153805434704
visibility: 0.9790430665016174
",5.0761189460754395,,,,,,,,,,,,,,,,,,,,,,,,,,,,,,,,,,,,,,,,,,
9,"x: 247.5747833251953
y: 253.29702758789062
z: -0.27228423953056335
visibility: 0.9997265934944153
","x: 249.11659240722656
y: 249.39910888671875
z: -0.2585415542125702
visibility: 0.9992738366127014
","x: 250.19854736328125
y: 249.89492797851562
z: -0.25851893424987793
visibility: 0.9992766976356506
","x: 251.27481079101562
y: 250.451416015625
z: -0.2585045397281647
visibility: 0.9993807673454285
","x: 246.25428771972656
y: 248.8591766357422
z: -0.2610004246234894
visibility: 0.9992573857307434
","x: 245.0320281982422
y: 248.6000213623047
z: -0.26103565096855164
visibility: 0.9991651773452759
","x: 243.7698516845703
y: 248.23577880859375
z: -0.2610204815864563
visibility: 0.9992921948432922
","x: 253.26702880859375
y: 255.3193359375
z: -0.16555309295654297
visibility: 0.9980140328407288
","x: 241.1811981201172
y: 252.9434356689453
z: -0.17995010316371918
visibility: 0.998308539390564
","x: 249.1231689453125
y: 260.83599853515625
z: -0.23706646263599396
visibility: 0.9991519451141357
","x: 244.81304931640625
y: 259.8578186035156
z: -0.2412695437669754
visibility: 0.9992386698722839
","x: 262.0260314941406
y: 291.71954345703125
z: -0.09496745467185974
visibility: 0.9996304512023926
","x: 228.4814453125
y: 287.16912841796875
z: -0.0967697948217392
visibility: 0.9993325471878052
","x: 270.7764892578125
y: 325.8616638183594
z: -0.025670673698186874
visibility: 0.9915775060653687
","x: 216.14039611816406
y: 313.70550537109375
z: -0.01850058138370514
visibility: 0.9410033822059631
","x: 269.3843688964844
y: 360.38348388671875
z: -0.06866689026355743
visibility: 0.9897876977920532
","x: 217.0482177734375
y: 342.9052734375
z: -0.02992279827594757
visibility: 0.9225947260856628
","x: 268.9238586425781
y: 371.8940734863281
z: -0.08010255545377731
visibility: 0.9703038930892944
","x: 217.9500732421875
y: 352.57244873046875
z: -0.03903026878833771
visibility: 0.8575392961502075
","x: 266.88690185546875
y: 370.1007385253906
z: -0.10593418031930923
visibility: 0.9707676768302917
","x: 219.67025756835938
y: 352.169677734375
z: -0.0568632073700428
visibility: 0.8588740825653076
","x: 266.3058776855469
y: 366.0234375
z: -0.07898960262537003
visibility: 0.9571619033813477
","x: 220.07510375976562
y: 348.56683349609375
z: -0.03609694167971611
visibility: 0.8313435316085815
","x: 251.92654418945312
y: 373.7083740234375
z: -0.0004817204608116299
visibility: 0.9992733001708984
","x: 233.32431030273438
y: 371.146240234375
z: 0.00038677873089909554
visibility: 0.9993298649787903
","x: 246.37490844726562
y: 435.9163818359375
z: 0.019469154998660088
visibility: 0.9820013642311096
","x: 232.00885009765625
y: 434.4874267578125
z: -0.008176509290933609
visibility: 0.9861879348754883
","x: 242.74008178710938
y: 495.177490234375
z: 0.1260717809200287
visibility: 0.9795877933502197
","x: 229.89688110351562
y: 492.4716491699219
z: 0.112216055393219
visibility: 0.9851060509681702
","x: 240.6936492919922
y: 503.160888671875
z: 0.1309894323348999
visibility: 0.8664105534553528
","x: 231.30299377441406
y: 499.88092041015625
z: 0.11735998094081879
visibility: 0.8182029128074646
","x: 245.490478515625
y: 513.5468139648438
z: 0.0340392179787159
visibility: 0.9769740700721741
","x: 227.6409912109375
y: 511.6081237792969
z: 0.020312657579779625
visibility: 0.980158269405365
",5.202372312545776,,,,,,,,,,,,,,,,,,,,,,,,,,,,,,,,,,,,,,,,,,
10,"x: 247.5747833251953
y: 253.29702758789062
z: -0.27228423953056335
visibility: 0.9997265934944153
","x: 249.11659240722656
y: 249.39910888671875
z: -0.2585415542125702
visibility: 0.9992738366127014
","x: 250.19854736328125
y: 249.89492797851562
z: -0.25851893424987793
visibility: 0.9992766976356506
","x: 251.27481079101562
y: 250.451416015625
z: -0.2585045397281647
visibility: 0.9993807673454285
","x: 246.25428771972656
y: 248.8591766357422
z: -0.2610004246234894
visibility: 0.9992573857307434
","x: 245.0320281982422
y: 248.6000213623047
z: -0.26103565096855164
visibility: 0.9991651773452759
","x: 243.7698516845703
y: 248.23577880859375
z: -0.2610204815864563
visibility: 0.9992921948432922
","x: 253.26702880859375
y: 255.3193359375
z: -0.16555309295654297
visibility: 0.9980140328407288
","x: 241.1811981201172
y: 252.9434356689453
z: -0.17995010316371918
visibility: 0.998308539390564
","x: 249.1231689453125
y: 260.83599853515625
z: -0.23706646263599396
visibility: 0.9991519451141357
","x: 244.81304931640625
y: 259.8578186035156
z: -0.2412695437669754
visibility: 0.9992386698722839
","x: 262.0260314941406
y: 291.71954345703125
z: -0.09496745467185974
visibility: 0.9996304512023926
","x: 228.4814453125
y: 287.16912841796875
z: -0.0967697948217392
visibility: 0.9993325471878052
","x: 270.7764892578125
y: 325.8616638183594
z: -0.025670673698186874
visibility: 0.9915775060653687
","x: 216.14039611816406
y: 313.70550537109375
z: -0.01850058138370514
visibility: 0.9410033822059631
","x: 269.3843688964844
y: 360.38348388671875
z: -0.06866689026355743
visibility: 0.9897876977920532
","x: 217.0482177734375
y: 342.9052734375
z: -0.02992279827594757
visibility: 0.9225947260856628
","x: 268.9238586425781
y: 371.8940734863281
z: -0.08010255545377731
visibility: 0.9703038930892944
","x: 217.9500732421875
y: 352.57244873046875
z: -0.03903026878833771
visibility: 0.8575392961502075
","x: 266.88690185546875
y: 370.1007385253906
z: -0.10593418031930923
visibility: 0.9707676768302917
","x: 219.67025756835938
y: 352.169677734375
z: -0.0568632073700428
visibility: 0.8588740825653076
","x: 266.3058776855469
y: 366.0234375
z: -0.07898960262537003
visibility: 0.9571619033813477
","x: 220.07510375976562
y: 348.56683349609375
z: -0.03609694167971611
visibility: 0.8313435316085815
","x: 251.92654418945312
y: 373.7083740234375
z: -0.0004817204608116299
visibility: 0.9992733001708984
","x: 233.32431030273438
y: 371.146240234375
z: 0.00038677873089909554
visibility: 0.9993298649787903
","x: 246.37490844726562
y: 435.9163818359375
z: 0.019469154998660088
visibility: 0.9820013642311096
","x: 232.00885009765625
y: 434.4874267578125
z: -0.008176509290933609
visibility: 0.9861879348754883
","x: 242.74008178710938
y: 495.177490234375
z: 0.1260717809200287
visibility: 0.9795877933502197
","x: 229.89688110351562
y: 492.4716491699219
z: 0.112216055393219
visibility: 0.9851060509681702
","x: 240.6936492919922
y: 503.160888671875
z: 0.1309894323348999
visibility: 0.8664105534553528
","x: 231.30299377441406
y: 499.88092041015625
z: 0.11735998094081879
visibility: 0.8182029128074646
","x: 245.490478515625
y: 513.5468139648438
z: 0.0340392179787159
visibility: 0.9769740700721741
","x: 227.6409912109375
y: 511.6081237792969
z: 0.020312657579779625
visibility: 0.980158269405365
",5.202372312545776,,,,,,,,,,,,,,,,,,,,,,,,,,,,,,,,,,,,,,,,,,
11,"x: 247.5550994873047
y: 254.35659790039062
z: -0.24791789054870605
visibility: 0.9997534155845642
","x: 249.21644592285156
y: 249.98538208007812
z: -0.23298954963684082
visibility: 0.9993454217910767
","x: 250.37672424316406
y: 250.43722534179688
z: -0.2330142706632614
visibility: 0.9993478059768677
","x: 251.56503295898438
y: 250.93753051757812
z: -0.23302078247070312
visibility: 0.999441385269165
","x: 246.06820678710938
y: 249.22645568847656
z: -0.23276075720787048
visibility: 0.9993303418159485
","x: 244.77430725097656
y: 248.8932647705078
z: -0.23277780413627625
visibility: 0.9992469549179077
","x: 243.42446899414062
y: 248.43240356445312
z: -0.2327718436717987
visibility: 0.9993612170219421
","x: 253.6927947998047
y: 255.71046447753906
z: -0.13612601161003113
visibility: 0.9982103109359741
","x: 240.96356201171875
y: 253.10263061523438
z: -0.13769632577896118
visibility: 0.9984753131866455
","x: 249.23577880859375
y: 262.12420654296875
z: -0.21087515354156494
visibility: 0.999236524105072
","x: 244.63119506835938
y: 260.7677001953125
z: -0.21131134033203125
visibility: 0.9993144869804382
","x: 262.4280700683594
y: 290.7003173828125
z: -0.09048645943403244
visibility: 0.9996669292449951
","x: 228.7084197998047
y: 285.8057556152344
z: -0.0628637820482254
visibility: 0.9993956089019775
","x: 271.6523742675781
y: 324.29730224609375
z: -0.09473229199647903
visibility: 0.9919177293777466
","x: 215.4518280029297
y: 312.71539306640625
z: -0.05729901045560837
visibility: 0.946329653263092
","x: 267.3974609375
y: 345.5712585449219
z: -0.27152585983276367
visibility: 0.9899386763572693
","x: 216.08656311035156
y: 332.44989013671875
z: -0.19919762015342712
visibility: 0.9288662672042847
","x: 266.36993408203125
y: 353.7597351074219
z: -0.31101593375205994
visibility: 0.9712255001068115
","x: 215.81927490234375
y: 343.64886474609375
z: -0.23181521892547607
visibility: 0.868332028388977
","x: 264.4906311035156
y: 351.0574035644531
z: -0.3290634751319885
visibility: 0.9717419743537903
","x: 218.22994995117188
y: 343.2217102050781
z: -0.24736802279949188
visibility: 0.8696111440658569
","x: 264.38787841796875
y: 348.10845947265625
z: -0.28166663646698
visibility: 0.9581392407417297
","x: 219.15371704101562
y: 339.5591735839844
z: -0.20791199803352356
visibility: 0.8435162305831909
","x: 251.4754180908203
y: 373.663818359375
z: -0.001602523378096521
visibility: 0.999343752861023
","x: 232.58482360839844
y: 371.1416015625
z: 0.0014947850722819567
visibility: 0.9993897676467896
","x: 246.389404296875
y: 436.1510925292969
z: -0.08411018550395966
visibility: 0.983519434928894
","x: 229.9233856201172
y: 434.5146179199219
z: 0.03751970827579498
visibility: 0.9869990348815918
","x: 243.02198791503906
y: 495.1490478515625
z: 0.04884308949112892
visibility: 0.9811700582504272
","x: 228.4603729248047
y: 479.0649108886719
z: 0.2848814129829407
visibility: 0.9848344326019287
","x: 240.8296356201172
y: 503.21160888671875
z: 0.056408435106277466
visibility: 0.8730199933052063
","x: 229.94906616210938
y: 484.0357666015625
z: 0.3046374022960663
visibility: 0.8256312012672424
","x: 245.4932861328125
y: 513.610595703125
z: -0.05382005125284195
visibility: 0.9786043167114258
","x: 224.58847045898438
y: 502.1445007324219
z: 0.2209520787000656
visibility: 0.9804523587226868
",5.351974010467529,,,,,,,,,,,,,,,,,,,,,,,,,,,,,,,,,,,,,,,,,,
12,"x: 247.5550994873047
y: 254.35659790039062
z: -0.24791789054870605
visibility: 0.9997534155845642
","x: 249.21644592285156
y: 249.98538208007812
z: -0.23298954963684082
visibility: 0.9993454217910767
","x: 250.37672424316406
y: 250.43722534179688
z: -0.2330142706632614
visibility: 0.9993478059768677
","x: 251.56503295898438
y: 250.93753051757812
z: -0.23302078247070312
visibility: 0.999441385269165
","x: 246.06820678710938
y: 249.22645568847656
z: -0.23276075720787048
visibility: 0.9993303418159485
","x: 244.77430725097656
y: 248.8932647705078
z: -0.23277780413627625
visibility: 0.9992469549179077
","x: 243.42446899414062
y: 248.43240356445312
z: -0.2327718436717987
visibility: 0.9993612170219421
","x: 253.6927947998047
y: 255.71046447753906
z: -0.13612601161003113
visibility: 0.9982103109359741
","x: 240.96356201171875
y: 253.10263061523438
z: -0.13769632577896118
visibility: 0.9984753131866455
","x: 249.23577880859375
y: 262.12420654296875
z: -0.21087515354156494
visibility: 0.999236524105072
","x: 244.63119506835938
y: 260.7677001953125
z: -0.21131134033203125
visibility: 0.9993144869804382
","x: 262.4280700683594
y: 290.7003173828125
z: -0.09048645943403244
visibility: 0.9996669292449951
","x: 228.7084197998047
y: 285.8057556152344
z: -0.0628637820482254
visibility: 0.9993956089019775
","x: 271.6523742675781
y: 324.29730224609375
z: -0.09473229199647903
visibility: 0.9919177293777466
","x: 215.4518280029297
y: 312.71539306640625
z: -0.05729901045560837
visibility: 0.946329653263092
","x: 267.3974609375
y: 345.5712585449219
z: -0.27152585983276367
visibility: 0.9899386763572693
","x: 216.08656311035156
y: 332.44989013671875
z: -0.19919762015342712
visibility: 0.9288662672042847
","x: 266.36993408203125
y: 353.7597351074219
z: -0.31101593375205994
visibility: 0.9712255001068115
","x: 215.81927490234375
y: 343.64886474609375
z: -0.23181521892547607
visibility: 0.868332028388977
","x: 264.4906311035156
y: 351.0574035644531
z: -0.3290634751319885
visibility: 0.9717419743537903
","x: 218.22994995117188
y: 343.2217102050781
z: -0.24736802279949188
visibility: 0.8696111440658569
","x: 264.38787841796875
y: 348.10845947265625
z: -0.28166663646698
visibility: 0.9581392407417297
","x: 219.15371704101562
y: 339.5591735839844
z: -0.20791199803352356
visibility: 0.8435162305831909
","x: 251.4754180908203
y: 373.663818359375
z: -0.001602523378096521
visibility: 0.999343752861023
","x: 232.58482360839844
y: 371.1416015625
z: 0.0014947850722819567
visibility: 0.9993897676467896
","x: 246.389404296875
y: 436.1510925292969
z: -0.08411018550395966
visibility: 0.983519434928894
","x: 229.9233856201172
y: 434.5146179199219
z: 0.03751970827579498
visibility: 0.9869990348815918
","x: 243.02198791503906
y: 495.1490478515625
z: 0.04884308949112892
visibility: 0.9811700582504272
","x: 228.4603729248047
y: 479.0649108886719
z: 0.2848814129829407
visibility: 0.9848344326019287
","x: 240.8296356201172
y: 503.21160888671875
z: 0.056408435106277466
visibility: 0.8730199933052063
","x: 229.94906616210938
y: 484.0357666015625
z: 0.3046374022960663
visibility: 0.8256312012672424
","x: 245.4932861328125
y: 513.610595703125
z: -0.05382005125284195
visibility: 0.9786043167114258
","x: 224.58847045898438
y: 502.1445007324219
z: 0.2209520787000656
visibility: 0.9804523587226868
",5.351974010467529,,,,,,,,,,,,,,,,,,,,,,,,,,,,,,,,,,,,,,,,,,
13,"x: 247.12274169921875
y: 253.82225036621094
z: -0.23662567138671875
visibility: 0.9997756481170654
","x: 248.93869018554688
y: 248.91549682617188
z: -0.2226991206407547
visibility: 0.9994062185287476
","x: 249.99693298339844
y: 249.3448486328125
z: -0.22270891070365906
visibility: 0.9994072914123535
","x: 251.11642456054688
y: 249.84030151367188
z: -0.22272920608520508
visibility: 0.9994916915893555
","x: 245.51187133789062
y: 248.06689453125
z: -0.2232811003923416
visibility: 0.9993926286697388
","x: 244.18850708007812
y: 247.8363800048828
z: -0.22331707179546356
visibility: 0.9993166327476501
","x: 242.90948486328125
y: 247.58201599121094
z: -0.22331635653972626
visibility: 0.9994196891784668
","x: 253.08892822265625
y: 253.85850524902344
z: -0.13045206665992737
visibility: 0.9983763694763184
","x: 240.58877563476562
y: 251.21612548828125
z: -0.13515955209732056
visibility: 0.998619019985199
","x: 248.99270629882812
y: 261.1495056152344
z: -0.2017097771167755
visibility: 0.9993115663528442
","x: 244.2830352783203
y: 259.81390380859375
z: -0.2030801773071289
visibility: 0.9993814826011658
","x: 262.19952392578125
y: 289.9014892578125
z: -0.0843849778175354
visibility: 0.999699056148529
","x: 228.68812561035156
y: 281.5579528808594
z: -0.06952212750911713
visibility: 0.9994476437568665
","x: 274.0545654296875
y: 323.1363220214844
z: -0.12495018541812897
visibility: 0.9923217296600342
","x: 211.8536834716797
y: 309.0224304199219
z: -0.13010211288928986
visibility: 0.9512752890586853
","x: 265.247314453125
y: 339.71575927734375
z: -0.28395402431488037
visibility: 0.9902259707450867
","x: 215.495361328125
y: 316.06121826171875
z: -0.2968759536743164
visibility: 0.9346059560775757
","x: 265.3835754394531
y: 350.98095703125
z: -0.31988123059272766
visibility: 0.9722021222114563
","x: 216.48619079589844
y: 323.318359375
z: -0.3318548798561096
visibility: 0.8780828714370728
","x: 261.3945617675781
y: 349.0200500488281
z: -0.3243909180164337
visibility: 0.9726623892784119
","x: 219.01515197753906
y: 321.5184020996094
z: -0.33659860491752625
visibility: 0.8791314959526062
","x: 261.9312438964844
y: 345.7703857421875
z: -0.2875431776046753
visibility: 0.958976686000824
","x: 219.72727966308594
y: 319.2802734375
z: -0.3012579083442688
visibility: 0.8539448976516724
","x: 250.71890258789062
y: 370.9818115234375
z: -0.0023915343917906284
visibility: 0.9994043707847595
","x: 231.5939483642578
y: 366.92510986328125
z: 0.002316155005246401
visibility: 0.9994311928749084
","x: 246.374755859375
y: 435.4044189453125
z: -0.08886899799108505
visibility: 0.9847894906997681
","x: 227.9081268310547
y: 428.2393798828125
z: 0.03276067227125168
visibility: 0.9870522618293762
","x: 243.29344177246094
y: 494.97076416015625
z: -0.006549046374857426
visibility: 0.9825400114059448
","x: 226.2608184814453
y: 471.8578796386719
z: 0.24512314796447754
visibility: 0.9816179871559143
","x: 241.1793212890625
y: 503.0035400390625
z: -0.003564281389117241
visibility: 0.8760665655136108
","x: 227.33131408691406
y: 476.49346923828125
z: 0.26244500279426575
visibility: 0.816939651966095
","x: 245.35272216796875
y: 513.7901611328125
z: -0.10721367597579956
visibility: 0.9798120856285095
","x: 223.5237579345703
y: 493.29388427734375
z: 0.1933787763118744
visibility: 0.9776168465614319
",5.499633312225342,,,,,,,,,,,,,,,,,,,,,,,,,,,,,,,,,,,,,,,,,,
14,"x: 247.12274169921875
y: 253.82225036621094
z: -0.23662567138671875
visibility: 0.9997756481170654
","x: 248.93869018554688
y: 248.91549682617188
z: -0.2226991206407547
visibility: 0.9994062185287476
","x: 249.99693298339844
y: 249.3448486328125
z: -0.22270891070365906
visibility: 0.9994072914123535
","x: 251.11642456054688
y: 249.84030151367188
z: -0.22272920608520508
visibility: 0.9994916915893555
","x: 245.51187133789062
y: 248.06689453125
z: -0.2232811003923416
visibility: 0.9993926286697388
","x: 244.18850708007812
y: 247.8363800048828
z: -0.22331707179546356
visibility: 0.9993166327476501
","x: 242.90948486328125
y: 247.58201599121094
z: -0.22331635653972626
visibility: 0.9994196891784668
","x: 253.08892822265625
y: 253.85850524902344
z: -0.13045206665992737
visibility: 0.9983763694763184
","x: 240.58877563476562
y: 251.21612548828125
z: -0.13515955209732056
visibility: 0.998619019985199
","x: 248.99270629882812
y: 261.1495056152344
z: -0.2017097771167755
visibility: 0.9993115663528442
","x: 244.2830352783203
y: 259.81390380859375
z: -0.2030801773071289
visibility: 0.9993814826011658
","x: 262.19952392578125
y: 289.9014892578125
z: -0.0843849778175354
visibility: 0.999699056148529
","x: 228.68812561035156
y: 281.5579528808594
z: -0.06952212750911713
visibility: 0.9994476437568665
","x: 274.0545654296875
y: 323.1363220214844
z: -0.12495018541812897
visibility: 0.9923217296600342
","x: 211.8536834716797
y: 309.0224304199219
z: -0.13010211288928986
visibility: 0.9512752890586853
","x: 265.247314453125
y: 339.71575927734375
z: -0.28395402431488037
visibility: 0.9902259707450867
","x: 215.495361328125
y: 316.06121826171875
z: -0.2968759536743164
visibility: 0.9346059560775757
","x: 265.3835754394531
y: 350.98095703125
z: -0.31988123059272766
visibility: 0.9722021222114563
","x: 216.48619079589844
y: 323.318359375
z: -0.3318548798561096
visibility: 0.8780828714370728
","x: 261.3945617675781
y: 349.0200500488281
z: -0.3243909180164337
visibility: 0.9726623892784119
","x: 219.01515197753906
y: 321.5184020996094
z: -0.33659860491752625
visibility: 0.8791314959526062
","x: 261.9312438964844
y: 345.7703857421875
z: -0.2875431776046753
visibility: 0.958976686000824
","x: 219.72727966308594
y: 319.2802734375
z: -0.3012579083442688
visibility: 0.8539448976516724
","x: 250.71890258789062
y: 370.9818115234375
z: -0.0023915343917906284
visibility: 0.9994043707847595
","x: 231.5939483642578
y: 366.92510986328125
z: 0.002316155005246401
visibility: 0.9994311928749084
","x: 246.374755859375
y: 435.4044189453125
z: -0.08886899799108505
visibility: 0.9847894906997681
","x: 227.9081268310547
y: 428.2393798828125
z: 0.03276067227125168
visibility: 0.9870522618293762
","x: 243.29344177246094
y: 494.97076416015625
z: -0.006549046374857426
visibility: 0.9825400114059448
","x: 226.2608184814453
y: 471.8578796386719
z: 0.24512314796447754
visibility: 0.9816179871559143
","x: 241.1793212890625
y: 503.0035400390625
z: -0.003564281389117241
visibility: 0.8760665655136108
","x: 227.33131408691406
y: 476.49346923828125
z: 0.26244500279426575
visibility: 0.816939651966095
","x: 245.35272216796875
y: 513.7901611328125
z: -0.10721367597579956
visibility: 0.9798120856285095
","x: 223.5237579345703
y: 493.29388427734375
z: 0.1933787763118744
visibility: 0.9776168465614319
",5.499633312225342,,,,,,,,,,,,,,,,,,,,,,,,,,,,,,,,,,,,,,,,,,
15,"x: 246.7779083251953
y: 252.24169921875
z: -0.24432189762592316
visibility: 0.9997954368591309
","x: 248.65435791015625
y: 247.73956298828125
z: -0.23077154159545898
visibility: 0.9994601011276245
","x: 249.60061645507812
y: 248.2325439453125
z: -0.2307804375886917
visibility: 0.9994606375694275
","x: 250.74551391601562
y: 248.69149780273438
z: -0.23079714179039001
visibility: 0.9995356798171997
","x: 244.98902893066406
y: 246.90321350097656
z: -0.23201504349708557
visibility: 0.9994481801986694
","x: 243.49127197265625
y: 246.7674102783203
z: -0.23204827308654785
visibility: 0.9993798136711121
","x: 242.18356323242188
y: 246.61526489257812
z: -0.2320520132780075
visibility: 0.9994726181030273
","x: 252.43020629882812
y: 251.66473388671875
z: -0.13811132311820984
visibility: 0.9985266327857971
","x: 240.17572021484375
y: 249.71124267578125
z: -0.14518612623214722
visibility: 0.9987502098083496
","x: 248.63204956054688
y: 259.2287902832031
z: -0.2087198793888092
visibility: 0.9993774890899658
","x: 243.41131591796875
y: 258.1798400878906
z: -0.21091608703136444
visibility: 0.9994411468505859
","x: 261.1134338378906
y: 285.33282470703125
z: -0.08006726205348969
visibility: 0.9997252821922302
","x: 226.85488891601562
y: 280.2072448730469
z: -0.07143409550189972
visibility: 0.9994913935661316
","x: 272.8841857910156
y: 322.19219970703125
z: -0.13323907554149628
visibility: 0.9927399754524231
","x: 208.9477996826172
y: 311.6464538574219
z: -0.12887047231197357
visibility: 0.9556666612625122
","x: 259.31951904296875
y: 325.4074401855469
z: -0.2981199324131012
visibility: 0.9907773733139038
","x: 218.59962463378906
y: 313.8485412597656
z: -0.2919248938560486
visibility: 0.9402874112129211
","x: 255.0766143798828
y: 331.65985107421875
z: -0.3342093825340271
visibility: 0.973685085773468
","x: 224.18861389160156
y: 319.48602294921875
z: -0.3257538676261902
visibility: 0.8878303170204163
","x: 252.8060302734375
y: 325.3242492675781
z: -0.3366577625274658
visibility: 0.9740620851516724
","x: 226.74891662597656
y: 314.6777038574219
z: -0.32557520270347595
visibility: 0.8885465860366821
","x: 253.55516052246094
y: 322.70098876953125
z: -0.3010363280773163
visibility: 0.9606677293777466
","x: 225.94876098632812
y: 312.8875427246094
z: -0.2936743497848511
visibility: 0.8642500638961792
","x: 250.0907745361328
y: 369.3756408691406
z: -0.0028607589192688465
visibility: 0.9994065761566162
","x: 230.7135772705078
y: 365.55078125
z: 0.00279957614839077
visibility: 0.9994240999221802
","x: 245.39686584472656
y: 434.7845764160156
z: -0.022748876363039017
visibility: 0.985569417476654
","x: 226.6895751953125
y: 427.967041015625
z: 0.024500448256731033
visibility: 0.9873978495597839
","x: 243.29835510253906
y: 494.96221923828125
z: 0.08414774388074875
visibility: 0.9835589528083801
","x: 222.70355224609375
y: 472.94207763671875
z: 0.12876001000404358
visibility: 0.9826263189315796
","x: 241.18643188476562
y: 502.9954833984375
z: 0.08831647783517838
visibility: 0.8793326020240784
","x: 224.23934936523438
y: 483.299072265625
z: 0.13445016741752625
visibility: 0.8254426121711731
","x: 245.26559448242188
y: 513.9690551757812
z: -0.009485199116170406
visibility: 0.9806029796600342
","x: 218.81890869140625
y: 494.00836181640625
z: 0.04121975600719452
visibility: 0.9785580635070801
",5.62583327293396,"x: 256.5919189453125
y: 318.8179016113281
z: 0.0
","x: 252.81394958496094
y: 316.2008972167969
z: 0.0002505274023860693
","x: 249.178955078125
y: 317.6651306152344
z: -0.00028314191149547696
","x: 246.6533966064453
y: 320.5782775878906
z: -0.0007805319619365036
","x: 244.91026306152344
y: 322.9327392578125
z: -0.001258274307474494
","x: 248.3204803466797
y: 319.61614990234375
z: -0.0032812089193612337
","x: 244.48834228515625
y: 322.092529296875
z: -0.0046850088983774185
","x: 242.55923461914062
y: 323.989013671875
z: -0.004621835891157389
","x: 241.40782165527344
y: 325.51385498046875
z: -0.004347183741629124
","x: 249.2057647705078
y: 323.05145263671875
z: -0.004196239169687033
","x: 245.18887329101562
y: 326.9908142089844
z: -0.005741833243519068
","x: 243.1522979736328
y: 329.6962890625
z: -0.0054444908164441586
","x: 241.82598876953125
y: 331.7864990234375
z: -0.005118438508361578
","x: 250.31678771972656
y: 326.1621398925781
z: -0.00489699374884367
","x: 246.748291015625
y: 330.24407958984375
z: -0.006543504539877176
","x: 244.7161407470703
y: 332.50506591796875
z: -0.006435653194785118
","x: 243.15673828125
y: 334.2756652832031
z: -0.00619281642138958
","x: 251.58168029785156
y: 328.77813720703125
z: -0.005500012543052435
","x: 248.97772216796875
y: 332.5833740234375
z: -0.006931479554623365
","x: 247.42959594726562
y: 334.6070556640625
z: -0.007036021910607815
","x: 246.07089233398438
y: 336.2012939453125
z: -0.006938186939805746
","x: 222.52085876464844
y: 312.15753173828125
z: 0.0
","x: 226.09947204589844
y: 309.15032958984375
z: -8.299632463604212e-05
","x: 229.84371948242188
y: 307.6648864746094
z: -0.001475382479839027
","x: 232.43862915039062
y: 306.7080993652344
z: -0.00327172689139843
","x: 234.03453063964844
y: 305.7321472167969
z: -0.005179604049772024
","x: 231.27040100097656
y: 313.4962158203125
z: -0.003777341451495886
","x: 235.29013061523438
y: 316.3653259277344
z: -0.006452367175370455
","x: 237.4445343017578
y: 318.04705810546875
z: -0.007806381676346064
","x: 239.0603485107422
y: 319.2471618652344
z: -0.008673067204654217
","x: 230.09487915039062
y: 316.74951171875
z: -0.005714606959372759
","x: 233.587646484375
y: 320.4266357421875
z: -0.008512210100889206
","x: 235.81317138671875
y: 322.49053955078125
z: -0.009459338150918484
","x: 237.51681518554688
y: 323.74267578125
z: -0.01026061549782753
","x: 228.36447143554688
y: 319.37078857421875
z: -0.007529719732701778
","x: 231.03546142578125
y: 323.244384765625
z: -0.010300622321665287
","x: 232.88595581054688
y: 325.8245544433594
z: -0.010843737050890923
","x: 234.32867431640625
y: 327.5030822753906
z: -0.011243380606174469
","x: 226.37905883789062
y: 321.26239013671875
z: -0.00937571655958891
","x: 227.81076049804688
y: 324.9368591308594
z: -0.011677023023366928
","x: 228.90818786621094
y: 327.33038330078125
z: -0.012105708010494709
","x: 229.84524536132812
y: 328.981689453125
z: -0.012373637408018112
"
16,"x: 246.7779083251953
y: 252.24169921875
z: -0.24432189762592316
visibility: 0.9997954368591309
","x: 248.65435791015625
y: 247.73956298828125
z: -0.23077154159545898
visibility: 0.9994601011276245
","x: 249.60061645507812
y: 248.2325439453125
z: -0.2307804375886917
visibility: 0.9994606375694275
","x: 250.74551391601562
y: 248.69149780273438
z: -0.23079714179039001
visibility: 0.9995356798171997
","x: 244.98902893066406
y: 246.90321350097656
z: -0.23201504349708557
visibility: 0.9994481801986694
","x: 243.49127197265625
y: 246.7674102783203
z: -0.23204827308654785
visibility: 0.9993798136711121
","x: 242.18356323242188
y: 246.61526489257812
z: -0.2320520132780075
visibility: 0.9994726181030273
","x: 252.43020629882812
y: 251.66473388671875
z: -0.13811132311820984
visibility: 0.9985266327857971
","x: 240.17572021484375
y: 249.71124267578125
z: -0.14518612623214722
visibility: 0.9987502098083496
","x: 248.63204956054688
y: 259.2287902832031
z: -0.2087198793888092
visibility: 0.9993774890899658
","x: 243.41131591796875
y: 258.1798400878906
z: -0.21091608703136444
visibility: 0.9994411468505859
","x: 261.1134338378906
y: 285.33282470703125
z: -0.08006726205348969
visibility: 0.9997252821922302
","x: 226.85488891601562
y: 280.2072448730469
z: -0.07143409550189972
visibility: 0.9994913935661316
","x: 272.8841857910156
y: 322.19219970703125
z: -0.13323907554149628
visibility: 0.9927399754524231
","x: 208.9477996826172
y: 311.6464538574219
z: -0.12887047231197357
visibility: 0.9556666612625122
","x: 259.31951904296875
y: 325.4074401855469
z: -0.2981199324131012
visibility: 0.9907773733139038
","x: 218.59962463378906
y: 313.8485412597656
z: -0.2919248938560486
visibility: 0.9402874112129211
","x: 255.0766143798828
y: 331.65985107421875
z: -0.3342093825340271
visibility: 0.973685085773468
","x: 224.18861389160156
y: 319.48602294921875
z: -0.3257538676261902
visibility: 0.8878303170204163
","x: 252.8060302734375
y: 325.3242492675781
z: -0.3366577625274658
visibility: 0.9740620851516724
","x: 226.74891662597656
y: 314.6777038574219
z: -0.32557520270347595
visibility: 0.8885465860366821
","x: 253.55516052246094
y: 322.70098876953125
z: -0.3010363280773163
visibility: 0.9606677293777466
","x: 225.94876098632812
y: 312.8875427246094
z: -0.2936743497848511
visibility: 0.8642500638961792
","x: 250.0907745361328
y: 369.3756408691406
z: -0.0028607589192688465
visibility: 0.9994065761566162
","x: 230.7135772705078
y: 365.55078125
z: 0.00279957614839077
visibility: 0.9994240999221802
","x: 245.39686584472656
y: 434.7845764160156
z: -0.022748876363039017
visibility: 0.985569417476654
","x: 226.6895751953125
y: 427.967041015625
z: 0.024500448256731033
visibility: 0.9873978495597839
","x: 243.29835510253906
y: 494.96221923828125
z: 0.08414774388074875
visibility: 0.9835589528083801
","x: 222.70355224609375
y: 472.94207763671875
z: 0.12876001000404358
visibility: 0.9826263189315796
","x: 241.18643188476562
y: 502.9954833984375
z: 0.08831647783517838
visibility: 0.8793326020240784
","x: 224.23934936523438
y: 483.299072265625
z: 0.13445016741752625
visibility: 0.8254426121711731
","x: 245.26559448242188
y: 513.9690551757812
z: -0.009485199116170406
visibility: 0.9806029796600342
","x: 218.81890869140625
y: 494.00836181640625
z: 0.04121975600719452
visibility: 0.9785580635070801
",5.62583327293396,"x: 256.5919189453125
y: 318.8179016113281
z: 0.0
","x: 252.81394958496094
y: 316.2008972167969
z: 0.0002505274023860693
","x: 249.178955078125
y: 317.6651306152344
z: -0.00028314191149547696
","x: 246.6533966064453
y: 320.5782775878906
z: -0.0007805319619365036
","x: 244.91026306152344
y: 322.9327392578125
z: -0.001258274307474494
","x: 248.3204803466797
y: 319.61614990234375
z: -0.0032812089193612337
","x: 244.48834228515625
y: 322.092529296875
z: -0.0046850088983774185
","x: 242.55923461914062
y: 323.989013671875
z: -0.004621835891157389
","x: 241.40782165527344
y: 325.51385498046875
z: -0.004347183741629124
","x: 249.2057647705078
y: 323.05145263671875
z: -0.004196239169687033
","x: 245.18887329101562
y: 326.9908142089844
z: -0.005741833243519068
","x: 243.1522979736328
y: 329.6962890625
z: -0.0054444908164441586
","x: 241.82598876953125
y: 331.7864990234375
z: -0.005118438508361578
","x: 250.31678771972656
y: 326.1621398925781
z: -0.00489699374884367
","x: 246.748291015625
y: 330.24407958984375
z: -0.006543504539877176
","x: 244.7161407470703
y: 332.50506591796875
z: -0.006435653194785118
","x: 243.15673828125
y: 334.2756652832031
z: -0.00619281642138958
","x: 251.58168029785156
y: 328.77813720703125
z: -0.005500012543052435
","x: 248.97772216796875
y: 332.5833740234375
z: -0.006931479554623365
","x: 247.42959594726562
y: 334.6070556640625
z: -0.007036021910607815
","x: 246.07089233398438
y: 336.2012939453125
z: -0.006938186939805746
","x: 222.52085876464844
y: 312.15753173828125
z: 0.0
","x: 226.09947204589844
y: 309.15032958984375
z: -8.299632463604212e-05
","x: 229.84371948242188
y: 307.6648864746094
z: -0.001475382479839027
","x: 232.43862915039062
y: 306.7080993652344
z: -0.00327172689139843
","x: 234.03453063964844
y: 305.7321472167969
z: -0.005179604049772024
","x: 231.27040100097656
y: 313.4962158203125
z: -0.003777341451495886
","x: 235.29013061523438
y: 316.3653259277344
z: -0.006452367175370455
","x: 237.4445343017578
y: 318.04705810546875
z: -0.007806381676346064
","x: 239.0603485107422
y: 319.2471618652344
z: -0.008673067204654217
","x: 230.09487915039062
y: 316.74951171875
z: -0.005714606959372759
","x: 233.587646484375
y: 320.4266357421875
z: -0.008512210100889206
","x: 235.81317138671875
y: 322.49053955078125
z: -0.009459338150918484
","x: 237.51681518554688
y: 323.74267578125
z: -0.01026061549782753
","x: 228.36447143554688
y: 319.37078857421875
z: -0.007529719732701778
","x: 231.03546142578125
y: 323.244384765625
z: -0.010300622321665287
","x: 232.88595581054688
y: 325.8245544433594
z: -0.010843737050890923
","x: 234.32867431640625
y: 327.5030822753906
z: -0.011243380606174469
","x: 226.37905883789062
y: 321.26239013671875
z: -0.00937571655958891
","x: 227.81076049804688
y: 324.9368591308594
z: -0.011677023023366928
","x: 228.90818786621094
y: 327.33038330078125
z: -0.012105708010494709
","x: 229.84524536132812
y: 328.981689453125
z: -0.012373637408018112
"
17,"x: 246.7779083251953
y: 252.24169921875
z: -0.24432189762592316
visibility: 0.9997954368591309
","x: 248.65435791015625
y: 247.73956298828125
z: -0.23077154159545898
visibility: 0.9994601011276245
","x: 249.60061645507812
y: 248.2325439453125
z: -0.2307804375886917
visibility: 0.9994606375694275
","x: 250.74551391601562
y: 248.69149780273438
z: -0.23079714179039001
visibility: 0.9995356798171997
","x: 244.98902893066406
y: 246.90321350097656
z: -0.23201504349708557
visibility: 0.9994481801986694
","x: 243.49127197265625
y: 246.7674102783203
z: -0.23204827308654785
visibility: 0.9993798136711121
","x: 242.18356323242188
y: 246.61526489257812
z: -0.2320520132780075
visibility: 0.9994726181030273
","x: 252.43020629882812
y: 251.66473388671875
z: -0.13811132311820984
visibility: 0.9985266327857971
","x: 240.17572021484375
y: 249.71124267578125
z: -0.14518612623214722
visibility: 0.9987502098083496
","x: 248.63204956054688
y: 259.2287902832031
z: -0.2087198793888092
visibility: 0.9993774890899658
","x: 243.41131591796875
y: 258.1798400878906
z: -0.21091608703136444
visibility: 0.9994411468505859
","x: 261.1134338378906
y: 285.33282470703125
z: -0.08006726205348969
visibility: 0.9997252821922302
","x: 226.85488891601562
y: 280.2072448730469
z: -0.07143409550189972
visibility: 0.9994913935661316
","x: 272.8841857910156
y: 322.19219970703125
z: -0.13323907554149628
visibility: 0.9927399754524231
","x: 208.9477996826172
y: 311.6464538574219
z: -0.12887047231197357
visibility: 0.9556666612625122
","x: 259.31951904296875
y: 325.4074401855469
z: -0.2981199324131012
visibility: 0.9907773733139038
","x: 218.59962463378906
y: 313.8485412597656
z: -0.2919248938560486
visibility: 0.9402874112129211
","x: 255.0766143798828
y: 331.65985107421875
z: -0.3342093825340271
visibility: 0.973685085773468
","x: 224.18861389160156
y: 319.48602294921875
z: -0.3257538676261902
visibility: 0.8878303170204163
","x: 252.8060302734375
y: 325.3242492675781
z: -0.3366577625274658
visibility: 0.9740620851516724
","x: 226.74891662597656
y: 314.6777038574219
z: -0.32557520270347595
visibility: 0.8885465860366821
","x: 253.55516052246094
y: 322.70098876953125
z: -0.3010363280773163
visibility: 0.9606677293777466
","x: 225.94876098632812
y: 312.8875427246094
z: -0.2936743497848511
visibility: 0.8642500638961792
","x: 250.0907745361328
y: 369.3756408691406
z: -0.0028607589192688465
visibility: 0.9994065761566162
","x: 230.7135772705078
y: 365.55078125
z: 0.00279957614839077
visibility: 0.9994240999221802
","x: 245.39686584472656
y: 434.7845764160156
z: -0.022748876363039017
visibility: 0.985569417476654
","x: 226.6895751953125
y: 427.967041015625
z: 0.024500448256731033
visibility: 0.9873978495597839
","x: 243.29835510253906
y: 494.96221923828125
z: 0.08414774388074875
visibility: 0.9835589528083801
","x: 222.70355224609375
y: 472.94207763671875
z: 0.12876001000404358
visibility: 0.9826263189315796
","x: 241.18643188476562
y: 502.9954833984375
z: 0.08831647783517838
visibility: 0.8793326020240784
","x: 224.23934936523438
y: 483.299072265625
z: 0.13445016741752625
visibility: 0.8254426121711731
","x: 245.26559448242188
y: 513.9690551757812
z: -0.009485199116170406
visibility: 0.9806029796600342
","x: 218.81890869140625
y: 494.00836181640625
z: 0.04121975600719452
visibility: 0.9785580635070801
",5.62583327293396,"x: 256.5919189453125
y: 318.8179016113281
z: 0.0
","x: 252.81394958496094
y: 316.2008972167969
z: 0.0002505274023860693
","x: 249.178955078125
y: 317.6651306152344
z: -0.00028314191149547696
","x: 246.6533966064453
y: 320.5782775878906
z: -0.0007805319619365036
","x: 244.91026306152344
y: 322.9327392578125
z: -0.001258274307474494
","x: 248.3204803466797
y: 319.61614990234375
z: -0.0032812089193612337
","x: 244.48834228515625
y: 322.092529296875
z: -0.0046850088983774185
","x: 242.55923461914062
y: 323.989013671875
z: -0.004621835891157389
","x: 241.40782165527344
y: 325.51385498046875
z: -0.004347183741629124
","x: 249.2057647705078
y: 323.05145263671875
z: -0.004196239169687033
","x: 245.18887329101562
y: 326.9908142089844
z: -0.005741833243519068
","x: 243.1522979736328
y: 329.6962890625
z: -0.0054444908164441586
","x: 241.82598876953125
y: 331.7864990234375
z: -0.005118438508361578
","x: 250.31678771972656
y: 326.1621398925781
z: -0.00489699374884367
","x: 246.748291015625
y: 330.24407958984375
z: -0.006543504539877176
","x: 244.7161407470703
y: 332.50506591796875
z: -0.006435653194785118
","x: 243.15673828125
y: 334.2756652832031
z: -0.00619281642138958
","x: 251.58168029785156
y: 328.77813720703125
z: -0.005500012543052435
","x: 248.97772216796875
y: 332.5833740234375
z: -0.006931479554623365
","x: 247.42959594726562
y: 334.6070556640625
z: -0.007036021910607815
","x: 246.07089233398438
y: 336.2012939453125
z: -0.006938186939805746
","x: 222.52085876464844
y: 312.15753173828125
z: 0.0
","x: 226.09947204589844
y: 309.15032958984375
z: -8.299632463604212e-05
","x: 229.84371948242188
y: 307.6648864746094
z: -0.001475382479839027
","x: 232.43862915039062
y: 306.7080993652344
z: -0.00327172689139843
","x: 234.03453063964844
y: 305.7321472167969
z: -0.005179604049772024
","x: 231.27040100097656
y: 313.4962158203125
z: -0.003777341451495886
","x: 235.29013061523438
y: 316.3653259277344
z: -0.006452367175370455
","x: 237.4445343017578
y: 318.04705810546875
z: -0.007806381676346064
","x: 239.0603485107422
y: 319.2471618652344
z: -0.008673067204654217
","x: 230.09487915039062
y: 316.74951171875
z: -0.005714606959372759
","x: 233.587646484375
y: 320.4266357421875
z: -0.008512210100889206
","x: 235.81317138671875
y: 322.49053955078125
z: -0.009459338150918484
","x: 237.51681518554688
y: 323.74267578125
z: -0.01026061549782753
","x: 228.36447143554688
y: 319.37078857421875
z: -0.007529719732701778
","x: 231.03546142578125
y: 323.244384765625
z: -0.010300622321665287
","x: 232.88595581054688
y: 325.8245544433594
z: -0.010843737050890923
","x: 234.32867431640625
y: 327.5030822753906
z: -0.011243380606174469
","x: 226.37905883789062
y: 321.26239013671875
z: -0.00937571655958891
","x: 227.81076049804688
y: 324.9368591308594
z: -0.011677023023366928
","x: 228.90818786621094
y: 327.33038330078125
z: -0.012105708010494709
","x: 229.84524536132812
y: 328.981689453125
z: -0.012373637408018112
"
18,"x: 246.7779083251953
y: 252.24169921875
z: -0.24432189762592316
visibility: 0.9997954368591309
","x: 248.65435791015625
y: 247.73956298828125
z: -0.23077154159545898
visibility: 0.9994601011276245
","x: 249.60061645507812
y: 248.2325439453125
z: -0.2307804375886917
visibility: 0.9994606375694275
","x: 250.74551391601562
y: 248.69149780273438
z: -0.23079714179039001
visibility: 0.9995356798171997
","x: 244.98902893066406
y: 246.90321350097656
z: -0.23201504349708557
visibility: 0.9994481801986694
","x: 243.49127197265625
y: 246.7674102783203
z: -0.23204827308654785
visibility: 0.9993798136711121
","x: 242.18356323242188
y: 246.61526489257812
z: -0.2320520132780075
visibility: 0.9994726181030273
","x: 252.43020629882812
y: 251.66473388671875
z: -0.13811132311820984
visibility: 0.9985266327857971
","x: 240.17572021484375
y: 249.71124267578125
z: -0.14518612623214722
visibility: 0.9987502098083496
","x: 248.63204956054688
y: 259.2287902832031
z: -0.2087198793888092
visibility: 0.9993774890899658
","x: 243.41131591796875
y: 258.1798400878906
z: -0.21091608703136444
visibility: 0.9994411468505859
","x: 261.1134338378906
y: 285.33282470703125
z: -0.08006726205348969
visibility: 0.9997252821922302
","x: 226.85488891601562
y: 280.2072448730469
z: -0.07143409550189972
visibility: 0.9994913935661316
","x: 272.8841857910156
y: 322.19219970703125
z: -0.13323907554149628
visibility: 0.9927399754524231
","x: 208.9477996826172
y: 311.6464538574219
z: -0.12887047231197357
visibility: 0.9556666612625122
","x: 259.31951904296875
y: 325.4074401855469
z: -0.2981199324131012
visibility: 0.9907773733139038
","x: 218.59962463378906
y: 313.8485412597656
z: -0.2919248938560486
visibility: 0.9402874112129211
","x: 255.0766143798828
y: 331.65985107421875
z: -0.3342093825340271
visibility: 0.973685085773468
","x: 224.18861389160156
y: 319.48602294921875
z: -0.3257538676261902
visibility: 0.8878303170204163
","x: 252.8060302734375
y: 325.3242492675781
z: -0.3366577625274658
visibility: 0.9740620851516724
","x: 226.74891662597656
y: 314.6777038574219
z: -0.32557520270347595
visibility: 0.8885465860366821
","x: 253.55516052246094
y: 322.70098876953125
z: -0.3010363280773163
visibility: 0.9606677293777466
","x: 225.94876098632812
y: 312.8875427246094
z: -0.2936743497848511
visibility: 0.8642500638961792
","x: 250.0907745361328
y: 369.3756408691406
z: -0.0028607589192688465
visibility: 0.9994065761566162
","x: 230.7135772705078
y: 365.55078125
z: 0.00279957614839077
visibility: 0.9994240999221802
","x: 245.39686584472656
y: 434.7845764160156
z: -0.022748876363039017
visibility: 0.985569417476654
","x: 226.6895751953125
y: 427.967041015625
z: 0.024500448256731033
visibility: 0.9873978495597839
","x: 243.29835510253906
y: 494.96221923828125
z: 0.08414774388074875
visibility: 0.9835589528083801
","x: 222.70355224609375
y: 472.94207763671875
z: 0.12876001000404358
visibility: 0.9826263189315796
","x: 241.18643188476562
y: 502.9954833984375
z: 0.08831647783517838
visibility: 0.8793326020240784
","x: 224.23934936523438
y: 483.299072265625
z: 0.13445016741752625
visibility: 0.8254426121711731
","x: 245.26559448242188
y: 513.9690551757812
z: -0.009485199116170406
visibility: 0.9806029796600342
","x: 218.81890869140625
y: 494.00836181640625
z: 0.04121975600719452
visibility: 0.9785580635070801
",5.62583327293396,"x: 256.5919189453125
y: 318.8179016113281
z: 0.0
","x: 252.81394958496094
y: 316.2008972167969
z: 0.0002505274023860693
","x: 249.178955078125
y: 317.6651306152344
z: -0.00028314191149547696
","x: 246.6533966064453
y: 320.5782775878906
z: -0.0007805319619365036
","x: 244.91026306152344
y: 322.9327392578125
z: -0.001258274307474494
","x: 248.3204803466797
y: 319.61614990234375
z: -0.0032812089193612337
","x: 244.48834228515625
y: 322.092529296875
z: -0.0046850088983774185
","x: 242.55923461914062
y: 323.989013671875
z: -0.004621835891157389
","x: 241.40782165527344
y: 325.51385498046875
z: -0.004347183741629124
","x: 249.2057647705078
y: 323.05145263671875
z: -0.004196239169687033
","x: 245.18887329101562
y: 326.9908142089844
z: -0.005741833243519068
","x: 243.1522979736328
y: 329.6962890625
z: -0.0054444908164441586
","x: 241.82598876953125
y: 331.7864990234375
z: -0.005118438508361578
","x: 250.31678771972656
y: 326.1621398925781
z: -0.00489699374884367
","x: 246.748291015625
y: 330.24407958984375
z: -0.006543504539877176
","x: 244.7161407470703
y: 332.50506591796875
z: -0.006435653194785118
","x: 243.15673828125
y: 334.2756652832031
z: -0.00619281642138958
","x: 251.58168029785156
y: 328.77813720703125
z: -0.005500012543052435
","x: 248.97772216796875
y: 332.5833740234375
z: -0.006931479554623365
","x: 247.42959594726562
y: 334.6070556640625
z: -0.007036021910607815
","x: 246.07089233398438
y: 336.2012939453125
z: -0.006938186939805746
","x: 222.52085876464844
y: 312.15753173828125
z: 0.0
","x: 226.09947204589844
y: 309.15032958984375
z: -8.299632463604212e-05
","x: 229.84371948242188
y: 307.6648864746094
z: -0.001475382479839027
","x: 232.43862915039062
y: 306.7080993652344
z: -0.00327172689139843
","x: 234.03453063964844
y: 305.7321472167969
z: -0.005179604049772024
","x: 231.27040100097656
y: 313.4962158203125
z: -0.003777341451495886
","x: 235.29013061523438
y: 316.3653259277344
z: -0.006452367175370455
","x: 237.4445343017578
y: 318.04705810546875
z: -0.007806381676346064
","x: 239.0603485107422
y: 319.2471618652344
z: -0.008673067204654217
","x: 230.09487915039062
y: 316.74951171875
z: -0.005714606959372759
","x: 233.587646484375
y: 320.4266357421875
z: -0.008512210100889206
","x: 235.81317138671875
y: 322.49053955078125
z: -0.009459338150918484
","x: 237.51681518554688
y: 323.74267578125
z: -0.01026061549782753
","x: 228.36447143554688
y: 319.37078857421875
z: -0.007529719732701778
","x: 231.03546142578125
y: 323.244384765625
z: -0.010300622321665287
","x: 232.88595581054688
y: 325.8245544433594
z: -0.010843737050890923
","x: 234.32867431640625
y: 327.5030822753906
z: -0.011243380606174469
","x: 226.37905883789062
y: 321.26239013671875
z: -0.00937571655958891
","x: 227.81076049804688
y: 324.9368591308594
z: -0.011677023023366928
","x: 228.90818786621094
y: 327.33038330078125
z: -0.012105708010494709
","x: 229.84524536132812
y: 328.981689453125
z: -0.012373637408018112
"
19,"x: 243.8499298095703
y: 254.6258544921875
z: -0.17318932712078094
visibility: 0.999809741973877
","x: 246.21914672851562
y: 249.81451416015625
z: -0.15757229924201965
visibility: 0.9995026588439941
","x: 247.39688110351562
y: 250.36257934570312
z: -0.1575956642627716
visibility: 0.9995006918907166
","x: 248.80943298339844
y: 251.01123046875
z: -0.15759964287281036
visibility: 0.9995677471160889
","x: 242.171630859375
y: 248.56597900390625
z: -0.15976877510547638
visibility: 0.9994941353797913
","x: 240.8782501220703
y: 248.22190856933594
z: -0.15977910161018372
visibility: 0.9994310140609741
","x: 239.6707763671875
y: 248.00001525878906
z: -0.15976791083812714
visibility: 0.9995154738426208
","x: 250.1277313232422
y: 254.2678680419922
z: -0.06614411622285843
visibility: 0.9986499547958374
","x: 237.2308349609375
y: 250.9480438232422
z: -0.07818251103162766
visibility: 0.9988583922386169
","x: 245.74221801757812
y: 261.7942199707031
z: -0.13890479505062103
visibility: 0.9994298815727234
","x: 240.61605834960938
y: 260.44195556640625
z: -0.1424243152141571
visibility: 0.9994903802871704
","x: 256.8283996582031
y: 287.42633056640625
z: -0.02542394958436489
visibility: 0.9997398257255554
","x: 224.19796752929688
y: 282.6162109375
z: -0.018616095185279846
visibility: 0.9995138049125671
","x: 264.6291198730469
y: 325.93927001953125
z: -0.08209459483623505
visibility: 0.9925713539123535
","x: 210.90834045410156
y: 322.2180480957031
z: -0.08142241090536118
visibility: 0.957811176776886
","x: 248.79481506347656
y: 329.370361328125
z: -0.24002082645893097
visibility: 0.9905327558517456
","x: 227.4024200439453
y: 320.170654296875
z: -0.223322793841362
visibility: 0.9418871402740479
","x: 244.3727264404297
y: 336.13922119140625
z: -0.28843551874160767
visibility: 0.9732581973075867
","x: 232.2090606689453
y: 325.6066589355469
z: -0.2557382583618164
visibility: 0.8895982503890991
","x: 241.5406036376953
y: 332.6353454589844
z: -0.27694210410118103
visibility: 0.9735538363456726
","x: 235.1172637939453
y: 323.4245300292969
z: -0.2555663585662842
visibility: 0.8894635438919067
","x: 242.64080810546875
y: 329.4981689453125
z: -0.23998931050300598
visibility: 0.9593762755393982
","x: 233.851318359375
y: 320.7821350097656
z: -0.2250884771347046
visibility: 0.8628761172294617
","x: 248.81869506835938
y: 369.4869384765625
z: -0.0028841360472142696
visibility: 0.9993219375610352
","x: 229.0174102783203
y: 365.9539794921875
z: 0.002887208480387926
visibility: 0.9993692636489868
","x: 243.03981018066406
y: 434.84381103515625
z: -0.01586207002401352
visibility: 0.9857341051101685
","x: 225.3924560546875
y: 430.18670654296875
z: -0.012526187114417553
visibility: 0.9876158237457275
","x: 242.9373779296875
y: 495.5013427734375
z: 0.07493772357702255
visibility: 0.9839023947715759
","x: 219.82630920410156
y: 492.3810119628906
z: 0.06816034764051437
visibility: 0.983531653881073
","x: 240.38523864746094
y: 504.72698974609375
z: 0.07722340524196625
visibility: 0.8840009570121765
","x: 221.35032653808594
y: 503.03326416015625
z: 0.06995023787021637
visibility: 0.8330797553062439
","x: 245.46377563476562
y: 514.03759765625
z: -0.016555478796362877
visibility: 0.9805614948272705
","x: 215.07101440429688
y: 509.8646240234375
z: -0.027476906776428223
visibility: 0.9788851737976074
",5.749785900115967,"x: 244.77146911621094
y: 329.0599060058594
z: 0.0
","x: 241.19590759277344
y: 328.64703369140625
z: 0.0002915748336818069
","x: 238.23422241210938
y: 331.04241943359375
z: -0.0005919986870139837
","x: 236.56126403808594
y: 333.9896240234375
z: -0.001720488304272294
","x: 235.71240234375
y: 336.24383544921875
z: -0.0029655995313078165
","x: 237.1349334716797
y: 334.88543701171875
z: -0.003011555876582861
","x: 234.29241943359375
y: 339.83880615234375
z: -0.005081778392195702
","x: 232.5441436767578
y: 343.41876220703125
z: -0.006065962370485067
","x: 231.3131561279297
y: 346.18963623046875
z: -0.006639127619564533
","x: 238.62374877929688
y: 337.36822509765625
z: -0.0045725516974925995
","x: 236.2001495361328
y: 344.0786437988281
z: -0.006559145636856556
","x: 234.53643798828125
y: 348.3906555175781
z: -0.0070594544522464275
","x: 233.380859375
y: 351.5193176269531
z: -0.007486017886549234
","x: 240.5082550048828
y: 339.40765380859375
z: -0.00602157274261117
","x: 238.4398956298828
y: 346.1822814941406
z: -0.007947447709739208
","x: 236.91575622558594
y: 350.24908447265625
z: -0.008318274281919003
","x: 235.83164978027344
y: 353.11883544921875
z: -0.008616777136921883
","x: 242.59812927246094
y: 340.861572265625
z: -0.007445128168910742
","x: 241.1817169189453
y: 346.35821533203125
z: -0.00917574018239975
","x: 240.1293182373047
y: 349.86932373046875
z: -0.009553691372275352
","x: 239.2832489013672
y: 352.6578063964844
z: -0.009781476110219955
","x: 230.8654022216797
y: 320.0793151855469
z: 0.0
","x: 235.13087463378906
y: 321.58319091796875
z: 0.0015171729028224945
","x: 238.9601593017578
y: 323.65850830078125
z: 0.0010575921041890979
","x: 241.8057098388672
y: 323.7788391113281
z: -0.0001374118000967428
","x: 243.635009765625
y: 321.98480224609375
z: -0.001215116586536169
","x: 239.74514770507812
y: 327.165283203125
z: 4.3154399463674054e-05
","x: 242.19131469726562
y: 331.7108459472656
z: -0.0018670057179406285
","x: 243.34625244140625
y: 335.1129150390625
z: -0.002938939491286874
","x: 244.0436553955078
y: 337.6654052734375
z: -0.003506583394482732
","x: 238.60240173339844
y: 328.4234619140625
z: -0.002298124600201845
","x: 241.06787109375
y: 333.466796875
z: -0.004119344986975193
","x: 242.29957580566406
y: 337.101806640625
z: -0.004640991799533367
","x: 243.12115478515625
y: 340.0355224609375
z: -0.005123248789459467
","x: 237.09518432617188
y: 329.5837097167969
z: -0.0046727778390049934
","x: 239.39219665527344
y: 334.8041076660156
z: -0.006163797341287136
","x: 240.5914306640625
y: 338.23089599609375
z: -0.006043071858584881
","x: 241.39100646972656
y: 340.95477294921875
z: -0.006130841560661793
","x: 235.29086303710938
y: 330.5932312011719
z: -0.007066646590828896
","x: 236.79208374023438
y: 335.2837829589844
z: -0.008036368526518345
","x: 237.64218139648438
y: 338.1280212402344
z: -0.007831910625100136
","x: 238.25753784179688
y: 340.426513671875
z: -0.007790503092110157
"
20,"x: 243.8499298095703
y: 254.6258544921875
z: -0.17318932712078094
visibility: 0.999809741973877
","x: 246.21914672851562
y: 249.81451416015625
z: -0.15757229924201965
visibility: 0.9995026588439941
","x: 247.39688110351562
y: 250.36257934570312
z: -0.1575956642627716
visibility: 0.9995006918907166
","x: 248.80943298339844
y: 251.01123046875
z: -0.15759964287281036
visibility: 0.9995677471160889
","x: 242.171630859375
y: 248.56597900390625
z: -0.15976877510547638
visibility: 0.9994941353797913
","x: 240.8782501220703
y: 248.22190856933594
z: -0.15977910161018372
visibility: 0.9994310140609741
","x: 239.6707763671875
y: 248.00001525878906
z: -0.15976791083812714
visibility: 0.9995154738426208
","x: 250.1277313232422
y: 254.2678680419922
z: -0.06614411622285843
visibility: 0.9986499547958374
","x: 237.2308349609375
y: 250.9480438232422
z: -0.07818251103162766
visibility: 0.9988583922386169
","x: 245.74221801757812
y: 261.7942199707031
z: -0.13890479505062103
visibility: 0.9994298815727234
","x: 240.61605834960938
y: 260.44195556640625
z: -0.1424243152141571
visibility: 0.9994903802871704
","x: 256.8283996582031
y: 287.42633056640625
z: -0.02542394958436489
visibility: 0.9997398257255554
","x: 224.19796752929688
y: 282.6162109375
z: -0.018616095185279846
visibility: 0.9995138049125671
","x: 264.6291198730469
y: 325.93927001953125
z: -0.08209459483623505
visibility: 0.9925713539123535
","x: 210.90834045410156
y: 322.2180480957031
z: -0.08142241090536118
visibility: 0.957811176776886
","x: 248.79481506347656
y: 329.370361328125
z: -0.24002082645893097
visibility: 0.9905327558517456
","x: 227.4024200439453
y: 320.170654296875
z: -0.223322793841362
visibility: 0.9418871402740479
","x: 244.3727264404297
y: 336.13922119140625
z: -0.28843551874160767
visibility: 0.9732581973075867
","x: 232.2090606689453
y: 325.6066589355469
z: -0.2557382583618164
visibility: 0.8895982503890991
","x: 241.5406036376953
y: 332.6353454589844
z: -0.27694210410118103
visibility: 0.9735538363456726
","x: 235.1172637939453
y: 323.4245300292969
z: -0.2555663585662842
visibility: 0.8894635438919067
","x: 242.64080810546875
y: 329.4981689453125
z: -0.23998931050300598
visibility: 0.9593762755393982
","x: 233.851318359375
y: 320.7821350097656
z: -0.2250884771347046
visibility: 0.8628761172294617
","x: 248.81869506835938
y: 369.4869384765625
z: -0.0028841360472142696
visibility: 0.9993219375610352
","x: 229.0174102783203
y: 365.9539794921875
z: 0.002887208480387926
visibility: 0.9993692636489868
","x: 243.03981018066406
y: 434.84381103515625
z: -0.01586207002401352
visibility: 0.9857341051101685
","x: 225.3924560546875
y: 430.18670654296875
z: -0.012526187114417553
visibility: 0.9876158237457275
","x: 242.9373779296875
y: 495.5013427734375
z: 0.07493772357702255
visibility: 0.9839023947715759
","x: 219.82630920410156
y: 492.3810119628906
z: 0.06816034764051437
visibility: 0.983531653881073
","x: 240.38523864746094
y: 504.72698974609375
z: 0.07722340524196625
visibility: 0.8840009570121765
","x: 221.35032653808594
y: 503.03326416015625
z: 0.06995023787021637
visibility: 0.8330797553062439
","x: 245.46377563476562
y: 514.03759765625
z: -0.016555478796362877
visibility: 0.9805614948272705
","x: 215.07101440429688
y: 509.8646240234375
z: -0.027476906776428223
visibility: 0.9788851737976074
",5.749785900115967,"x: 244.77146911621094
y: 329.0599060058594
z: 0.0
","x: 241.19590759277344
y: 328.64703369140625
z: 0.0002915748336818069
","x: 238.23422241210938
y: 331.04241943359375
z: -0.0005919986870139837
","x: 236.56126403808594
y: 333.9896240234375
z: -0.001720488304272294
","x: 235.71240234375
y: 336.24383544921875
z: -0.0029655995313078165
","x: 237.1349334716797
y: 334.88543701171875
z: -0.003011555876582861
","x: 234.29241943359375
y: 339.83880615234375
z: -0.005081778392195702
","x: 232.5441436767578
y: 343.41876220703125
z: -0.006065962370485067
","x: 231.3131561279297
y: 346.18963623046875
z: -0.006639127619564533
","x: 238.62374877929688
y: 337.36822509765625
z: -0.0045725516974925995
","x: 236.2001495361328
y: 344.0786437988281
z: -0.006559145636856556
","x: 234.53643798828125
y: 348.3906555175781
z: -0.0070594544522464275
","x: 233.380859375
y: 351.5193176269531
z: -0.007486017886549234
","x: 240.5082550048828
y: 339.40765380859375
z: -0.00602157274261117
","x: 238.4398956298828
y: 346.1822814941406
z: -0.007947447709739208
","x: 236.91575622558594
y: 350.24908447265625
z: -0.008318274281919003
","x: 235.83164978027344
y: 353.11883544921875
z: -0.008616777136921883
","x: 242.59812927246094
y: 340.861572265625
z: -0.007445128168910742
","x: 241.1817169189453
y: 346.35821533203125
z: -0.00917574018239975
","x: 240.1293182373047
y: 349.86932373046875
z: -0.009553691372275352
","x: 239.2832489013672
y: 352.6578063964844
z: -0.009781476110219955
","x: 230.8654022216797
y: 320.0793151855469
z: 0.0
","x: 235.13087463378906
y: 321.58319091796875
z: 0.0015171729028224945
","x: 238.9601593017578
y: 323.65850830078125
z: 0.0010575921041890979
","x: 241.8057098388672
y: 323.7788391113281
z: -0.0001374118000967428
","x: 243.635009765625
y: 321.98480224609375
z: -0.001215116586536169
","x: 239.74514770507812
y: 327.165283203125
z: 4.3154399463674054e-05
","x: 242.19131469726562
y: 331.7108459472656
z: -0.0018670057179406285
","x: 243.34625244140625
y: 335.1129150390625
z: -0.002938939491286874
","x: 244.0436553955078
y: 337.6654052734375
z: -0.003506583394482732
","x: 238.60240173339844
y: 328.4234619140625
z: -0.002298124600201845
","x: 241.06787109375
y: 333.466796875
z: -0.004119344986975193
","x: 242.29957580566406
y: 337.101806640625
z: -0.004640991799533367
","x: 243.12115478515625
y: 340.0355224609375
z: -0.005123248789459467
","x: 237.09518432617188
y: 329.5837097167969
z: -0.0046727778390049934
","x: 239.39219665527344
y: 334.8041076660156
z: -0.006163797341287136
","x: 240.5914306640625
y: 338.23089599609375
z: -0.006043071858584881
","x: 241.39100646972656
y: 340.95477294921875
z: -0.006130841560661793
","x: 235.29086303710938
y: 330.5932312011719
z: -0.007066646590828896
","x: 236.79208374023438
y: 335.2837829589844
z: -0.008036368526518345
","x: 237.64218139648438
y: 338.1280212402344
z: -0.007831910625100136
","x: 238.25753784179688
y: 340.426513671875
z: -0.007790503092110157
"
21,"x: 243.8499298095703
y: 254.6258544921875
z: -0.17318932712078094
visibility: 0.999809741973877
","x: 246.21914672851562
y: 249.81451416015625
z: -0.15757229924201965
visibility: 0.9995026588439941
","x: 247.39688110351562
y: 250.36257934570312
z: -0.1575956642627716
visibility: 0.9995006918907166
","x: 248.80943298339844
y: 251.01123046875
z: -0.15759964287281036
visibility: 0.9995677471160889
","x: 242.171630859375
y: 248.56597900390625
z: -0.15976877510547638
visibility: 0.9994941353797913
","x: 240.8782501220703
y: 248.22190856933594
z: -0.15977910161018372
visibility: 0.9994310140609741
","x: 239.6707763671875
y: 248.00001525878906
z: -0.15976791083812714
visibility: 0.9995154738426208
","x: 250.1277313232422
y: 254.2678680419922
z: -0.06614411622285843
visibility: 0.9986499547958374
","x: 237.2308349609375
y: 250.9480438232422
z: -0.07818251103162766
visibility: 0.9988583922386169
","x: 245.74221801757812
y: 261.7942199707031
z: -0.13890479505062103
visibility: 0.9994298815727234
","x: 240.61605834960938
y: 260.44195556640625
z: -0.1424243152141571
visibility: 0.9994903802871704
","x: 256.8283996582031
y: 287.42633056640625
z: -0.02542394958436489
visibility: 0.9997398257255554
","x: 224.19796752929688
y: 282.6162109375
z: -0.018616095185279846
visibility: 0.9995138049125671
","x: 264.6291198730469
y: 325.93927001953125
z: -0.08209459483623505
visibility: 0.9925713539123535
","x: 210.90834045410156
y: 322.2180480957031
z: -0.08142241090536118
visibility: 0.957811176776886
","x: 248.79481506347656
y: 329.370361328125
z: -0.24002082645893097
visibility: 0.9905327558517456
","x: 227.4024200439453
y: 320.170654296875
z: -0.223322793841362
visibility: 0.9418871402740479
","x: 244.3727264404297
y: 336.13922119140625
z: -0.28843551874160767
visibility: 0.9732581973075867
","x: 232.2090606689453
y: 325.6066589355469
z: -0.2557382583618164
visibility: 0.8895982503890991
","x: 241.5406036376953
y: 332.6353454589844
z: -0.27694210410118103
visibility: 0.9735538363456726
","x: 235.1172637939453
y: 323.4245300292969
z: -0.2555663585662842
visibility: 0.8894635438919067
","x: 242.64080810546875
y: 329.4981689453125
z: -0.23998931050300598
visibility: 0.9593762755393982
","x: 233.851318359375
y: 320.7821350097656
z: -0.2250884771347046
visibility: 0.8628761172294617
","x: 248.81869506835938
y: 369.4869384765625
z: -0.0028841360472142696
visibility: 0.9993219375610352
","x: 229.0174102783203
y: 365.9539794921875
z: 0.002887208480387926
visibility: 0.9993692636489868
","x: 243.03981018066406
y: 434.84381103515625
z: -0.01586207002401352
visibility: 0.9857341051101685
","x: 225.3924560546875
y: 430.18670654296875
z: -0.012526187114417553
visibility: 0.9876158237457275
","x: 242.9373779296875
y: 495.5013427734375
z: 0.07493772357702255
visibility: 0.9839023947715759
","x: 219.82630920410156
y: 492.3810119628906
z: 0.06816034764051437
visibility: 0.983531653881073
","x: 240.38523864746094
y: 504.72698974609375
z: 0.07722340524196625
visibility: 0.8840009570121765
","x: 221.35032653808594
y: 503.03326416015625
z: 0.06995023787021637
visibility: 0.8330797553062439
","x: 245.46377563476562
y: 514.03759765625
z: -0.016555478796362877
visibility: 0.9805614948272705
","x: 215.07101440429688
y: 509.8646240234375
z: -0.027476906776428223
visibility: 0.9788851737976074
",5.749785900115967,"x: 244.77146911621094
y: 329.0599060058594
z: 0.0
","x: 241.19590759277344
y: 328.64703369140625
z: 0.0002915748336818069
","x: 238.23422241210938
y: 331.04241943359375
z: -0.0005919986870139837
","x: 236.56126403808594
y: 333.9896240234375
z: -0.001720488304272294
","x: 235.71240234375
y: 336.24383544921875
z: -0.0029655995313078165
","x: 237.1349334716797
y: 334.88543701171875
z: -0.003011555876582861
","x: 234.29241943359375
y: 339.83880615234375
z: -0.005081778392195702
","x: 232.5441436767578
y: 343.41876220703125
z: -0.006065962370485067
","x: 231.3131561279297
y: 346.18963623046875
z: -0.006639127619564533
","x: 238.62374877929688
y: 337.36822509765625
z: -0.0045725516974925995
","x: 236.2001495361328
y: 344.0786437988281
z: -0.006559145636856556
","x: 234.53643798828125
y: 348.3906555175781
z: -0.0070594544522464275
","x: 233.380859375
y: 351.5193176269531
z: -0.007486017886549234
","x: 240.5082550048828
y: 339.40765380859375
z: -0.00602157274261117
","x: 238.4398956298828
y: 346.1822814941406
z: -0.007947447709739208
","x: 236.91575622558594
y: 350.24908447265625
z: -0.008318274281919003
","x: 235.83164978027344
y: 353.11883544921875
z: -0.008616777136921883
","x: 242.59812927246094
y: 340.861572265625
z: -0.007445128168910742
","x: 241.1817169189453
y: 346.35821533203125
z: -0.00917574018239975
","x: 240.1293182373047
y: 349.86932373046875
z: -0.009553691372275352
","x: 239.2832489013672
y: 352.6578063964844
z: -0.009781476110219955
","x: 230.8654022216797
y: 320.0793151855469
z: 0.0
","x: 235.13087463378906
y: 321.58319091796875
z: 0.0015171729028224945
","x: 238.9601593017578
y: 323.65850830078125
z: 0.0010575921041890979
","x: 241.8057098388672
y: 323.7788391113281
z: -0.0001374118000967428
","x: 243.635009765625
y: 321.98480224609375
z: -0.001215116586536169
","x: 239.74514770507812
y: 327.165283203125
z: 4.3154399463674054e-05
","x: 242.19131469726562
y: 331.7108459472656
z: -0.0018670057179406285
","x: 243.34625244140625
y: 335.1129150390625
z: -0.002938939491286874
","x: 244.0436553955078
y: 337.6654052734375
z: -0.003506583394482732
","x: 238.60240173339844
y: 328.4234619140625
z: -0.002298124600201845
","x: 241.06787109375
y: 333.466796875
z: -0.004119344986975193
","x: 242.29957580566406
y: 337.101806640625
z: -0.004640991799533367
","x: 243.12115478515625
y: 340.0355224609375
z: -0.005123248789459467
","x: 237.09518432617188
y: 329.5837097167969
z: -0.0046727778390049934
","x: 239.39219665527344
y: 334.8041076660156
z: -0.006163797341287136
","x: 240.5914306640625
y: 338.23089599609375
z: -0.006043071858584881
","x: 241.39100646972656
y: 340.95477294921875
z: -0.006130841560661793
","x: 235.29086303710938
y: 330.5932312011719
z: -0.007066646590828896
","x: 236.79208374023438
y: 335.2837829589844
z: -0.008036368526518345
","x: 237.64218139648438
y: 338.1280212402344
z: -0.007831910625100136
","x: 238.25753784179688
y: 340.426513671875
z: -0.007790503092110157
"
22,"x: 243.8499298095703
y: 254.6258544921875
z: -0.17318932712078094
visibility: 0.999809741973877
","x: 246.21914672851562
y: 249.81451416015625
z: -0.15757229924201965
visibility: 0.9995026588439941
","x: 247.39688110351562
y: 250.36257934570312
z: -0.1575956642627716
visibility: 0.9995006918907166
","x: 248.80943298339844
y: 251.01123046875
z: -0.15759964287281036
