uscmakers/ReverseChoreography/data/10_piano_song_eryn_allen_kane.csv
,NOSE,LEFT_EYE_INNER,LEFT_EYE,LEFT_EYE_OUTER,RIGHT_EYE_INNER,RIGHT_EYE,RIGHT_EYE_OUTER,LEFT_EAR,RIGHT_EAR,MOUTH_LEFT,MOUTH_RIGHT,LEFT_SHOULDER,RIGHT_SHOULDER,LEFT_ELBOW,RIGHT_ELBOW,LEFT_WRIST,RIGHT_WRIST,LEFT_PINKY,RIGHT_PINKY,LEFT_INDEX,RIGHT_INDEX,LEFT_THUMB,RIGHT_THUMB,LEFT_HIP,RIGHT_HIP,LEFT_KNEE,RIGHT_KNEE,LEFT_ANKLE,RIGHT_ANKLE,LEFT_HEEL,RIGHT_HEEL,LEFT_FOOT_INDEX,RIGHT_FOOT_INDEX,TIMESTAMP,WRIST2,THUMB_CPC2,THUMB_MCP2,THUMB_IP2,THUMB_TIP2,INDEX_FINGER_MCP2,INDEX_FINGER_PIP2,INDEX_FINGER_DIP2,INDEX_FINGER_TIP2,MIDDLE_FINGER_MCP2,MIDDLE_FINGER_PIP2,MIDDLE_FINGER_DIP2,MIDDLE_FINGER_TIP2,RING_FINGER_PIP2,RING_FINGER_DIP2,RING_FINGER_TIP2,RING_FINGER_MCP2,PINKY_MCP2,PINKY_PIP2,PINKY_DIP2,PINKY_TIP2,WRIST,THUMB_CPC,THUMB_MCP,THUMB_IP,THUMB_TIP,INDEX_FINGER_MCP,INDEX_FINGER_PIP,INDEX_FINGER_DIP,INDEX_FINGER_TIP,MIDDLE_FINGER_MCP,MIDDLE_FINGER_PIP,MIDDLE_FINGER_DIP,MIDDLE_FINGER_TIP,RING_FINGER_PIP,RING_FINGER_DIP,RING_FINGER_TIP,RING_FINGER_MCP,PINKY_MCP,PINKY_PIP,PINKY_DIP,PINKY_TIP
0,"x: 228.32928466796875
y: 248.2748565673828
z: -0.295742005109787
visibility: 0.9999830722808838
","x: 230.17144775390625
y: 243.41285705566406
z: -0.2818947732448578
visibility: 0.9998881816864014
","x: 231.24893188476562
y: 243.75091552734375
z: -0.2818894684314728
visibility: 0.9999086856842041
","x: 232.45079040527344
y: 244.07208251953125
z: -0.2818874418735504
visibility: 0.9998979568481445
","x: 227.1588592529297
y: 242.8439483642578
z: -0.2836636006832123
visibility: 0.9998880624771118
","x: 226.12709045410156
y: 242.78054809570312
z: -0.2836742103099823
visibility: 0.9998936653137207
","x: 225.05352783203125
y: 242.65960693359375
z: -0.28365516662597656
visibility: 0.9998551607131958
","x: 234.39865112304688
y: 247.43777465820312
z: -0.18613001704216003
visibility: 0.9997602105140686
","x: 222.69927978515625
y: 245.53977966308594
z: -0.194056436419487
visibility: 0.9996562004089355
","x: 229.93301391601562
y: 255.2577362060547
z: -0.25869518518447876
visibility: 0.999946117401123
","x: 226.03343200683594
y: 254.81912231445312
z: -0.26119115948677063
visibility: 0.99992835521698
","x: 245.5341339111328
y: 282.90692138671875
z: -0.11922027170658112
visibility: 0.9999836683273315
","x: 208.75433349609375
y: 285.90350341796875
z: -0.10940273106098175
visibility: 0.9999415874481201
","x: 253.8907470703125
y: 325.8939208984375
z: -0.06920791417360306
visibility: 0.9968591928482056
","x: 200.03343200683594
y: 332.2979431152344
z: -0.0641213059425354
visibility: 0.9839104413986206
","x: 263.5779724121094
y: 372.1339111328125
z: -0.15176449716091156
visibility: 0.994504988193512
","x: 194.81646728515625
y: 373.0294189453125
z: -0.13159379363059998
visibility: 0.9798433184623718
","x: 268.7298889160156
y: 385.67486572265625
z: -0.17417757213115692
visibility: 0.9840821027755737
","x: 192.70628356933594
y: 388.763427734375
z: -0.15441055595874786
visibility: 0.9539564251899719
","x: 268.0128173828125
y: 387.5729064941406
z: -0.2080809324979782
visibility: 0.9862854480743408
","x: 194.41822814941406
y: 389.3804931640625
z: -0.18536557257175446
visibility: 0.9580906629562378
","x: 265.7092590332031
y: 384.0312194824219
z: -0.1671888381242752
visibility: 0.9832837581634521
","x: 195.87551879882812
y: 384.5812683105469
z: -0.1459210366010666
visibility: 0.9509690403938293
","x: 238.23809814453125
y: 376.83856201171875
z: -0.007331831846386194
visibility: 0.9996705055236816
","x: 216.01510620117188
y: 378.1280212402344
z: 0.007239657454192638
visibility: 0.9996256828308105
","x: 241.68377685546875
y: 450.2354736328125
z: -0.01216729823499918
visibility: 0.9969273209571838
","x: 217.60313415527344
y: 447.9857177734375
z: 0.03452958166599274
visibility: 0.9946151375770569
","x: 250.64068603515625
y: 516.5134887695312
z: 0.08004755526781082
visibility: 0.9963571429252625
","x: 216.07203674316406
y: 510.2960510253906
z: 0.17474499344825745
visibility: 0.9934694766998291
","x: 249.82040405273438
y: 524.7838745117188
z: 0.08175098896026611
visibility: 0.9104267954826355
","x: 219.09619140625
y: 518.03125
z: 0.18161135911941528
visibility: 0.9020014405250549
","x: 254.40866088867188
y: 539.54443359375
z: -0.04022158309817314
visibility: 0.9931514263153076
","x: 210.61143493652344
y: 532.760498046875
z: 0.0782947987318039
visibility: 0.9904249310493469
",3.6353566646575928,,,,,,,,,,,,,,,,,,,,,,,,,,,,,,,,,,,,,,,,,,
1,"x: 228.32928466796875
y: 248.2748565673828
z: -0.295742005109787
visibility: 0.9999830722808838
","x: 230.17144775390625
y: 243.41285705566406
z: -0.2818947732448578
visibility: 0.9998881816864014
","x: 231.24893188476562
y: 243.75091552734375
z: -0.2818894684314728
visibility: 0.9999086856842041
","x: 232.45079040527344
y: 244.07208251953125
z: -0.2818874418735504
visibility: 0.9998979568481445
","x: 227.1588592529297
y: 242.8439483642578
z: -0.2836636006832123
visibility: 0.9998880624771118
","x: 226.12709045410156
y: 242.78054809570312
z: -0.2836742103099823
visibility: 0.9998936653137207
","x: 225.05352783203125
y: 242.65960693359375
z: -0.28365516662597656
visibility: 0.9998551607131958
","x: 234.39865112304688
y: 247.43777465820312
z: -0.18613001704216003
visibility: 0.9997602105140686
","x: 222.69927978515625
y: 245.53977966308594
z: -0.194056436419487
visibility: 0.9996562004089355
","x: 229.93301391601562
y: 255.2577362060547
z: -0.25869518518447876
visibility: 0.999946117401123
","x: 226.03343200683594
y: 254.81912231445312
z: -0.26119115948677063
visibility: 0.99992835521698
","x: 245.5341339111328
y: 282.90692138671875
z: -0.11922027170658112
visibility: 0.9999836683273315
","x: 208.75433349609375
y: 285.90350341796875
z: -0.10940273106098175
visibility: 0.9999415874481201
","x: 253.8907470703125
y: 325.8939208984375
z: -0.06920791417360306
visibility: 0.9968591928482056
","x: 200.03343200683594
y: 332.2979431152344
z: -0.0641213059425354
visibility: 0.9839104413986206
","x: 263.5779724121094
y: 372.1339111328125
z: -0.15176449716091156
visibility: 0.994504988193512
","x: 194.81646728515625
y: 373.0294189453125
z: -0.13159379363059998
visibility: 0.9798433184623718
","x: 268.7298889160156
y: 385.67486572265625
z: -0.17417757213115692
visibility: 0.9840821027755737
","x: 192.70628356933594
y: 388.763427734375
z: -0.15441055595874786
visibility: 0.9539564251899719
","x: 268.0128173828125
y: 387.5729064941406
z: -0.2080809324979782
visibility: 0.9862854480743408
","x: 194.41822814941406
y: 389.3804931640625
z: -0.18536557257175446
visibility: 0.9580906629562378
","x: 265.7092590332031
y: 384.0312194824219
z: -0.1671888381242752
visibility: 0.9832837581634521
","x: 195.87551879882812
y: 384.5812683105469
z: -0.1459210366010666
visibility: 0.9509690403938293
","x: 238.23809814453125
y: 376.83856201171875
z: -0.007331831846386194
visibility: 0.9996705055236816
","x: 216.01510620117188
y: 378.1280212402344
z: 0.007239657454192638
visibility: 0.9996256828308105
","x: 241.68377685546875
y: 450.2354736328125
z: -0.01216729823499918
visibility: 0.9969273209571838
","x: 217.60313415527344
y: 447.9857177734375
z: 0.03452958166599274
visibility: 0.9946151375770569
","x: 250.64068603515625
y: 516.5134887695312
z: 0.08004755526781082
visibility: 0.9963571429252625
","x: 216.07203674316406
y: 510.2960510253906
z: 0.17474499344825745
visibility: 0.9934694766998291
","x: 249.82040405273438
y: 524.7838745117188
z: 0.08175098896026611
visibility: 0.9104267954826355
","x: 219.09619140625
y: 518.03125
z: 0.18161135911941528
visibility: 0.9020014405250549
","x: 254.40866088867188
y: 539.54443359375
z: -0.04022158309817314
visibility: 0.9931514263153076
","x: 210.61143493652344
y: 532.760498046875
z: 0.0782947987318039
visibility: 0.9904249310493469
",3.6353566646575928,,,,,,,,,,,,,,,,,,,,,,,,,,,,,,,,,,,,,,,,,,
2,"x: 209.97311401367188
y: 244.95608520507812
z: -0.20617356896400452
visibility: 0.9999712109565735
","x: 210.6056671142578
y: 240.90989685058594
z: -0.2001032829284668
visibility: 0.9998578429222107
","x: 211.7288360595703
y: 240.47634887695312
z: -0.2001505345106125
visibility: 0.9998806715011597
","x: 212.86997985839844
y: 240.0633087158203
z: -0.20016667246818542
visibility: 0.9998733401298523
","x: 207.64352416992188
y: 242.51947021484375
z: -0.19065527617931366
visibility: 0.9998446702957153
","x: 206.74087524414062
y: 242.78018188476562
z: -0.19065585732460022
visibility: 0.9998412132263184
","x: 205.821044921875
y: 242.93902587890625
z: -0.1906903088092804
visibility: 0.9998034238815308
","x: 215.4715118408203
y: 244.78915405273438
z: -0.1466255933046341
visibility: 0.9997377395629883
","x: 205.8295440673828
y: 247.1894073486328
z: -0.1031738892197609
visibility: 0.9994086623191833
","x: 213.60699462890625
y: 250.1002655029297
z: -0.18550977110862732
visibility: 0.9999368190765381
","x: 209.4780731201172
y: 252.89817810058594
z: -0.17298799753189087
visibility: 0.9999054670333862
","x: 231.57550048828125
y: 275.58233642578125
z: -0.12245281785726547
visibility: 0.9999815225601196
","x: 203.0609130859375
y: 292.0117492675781
z: -0.02613135799765587
visibility: 0.9999094605445862
","x: 236.51828002929688
y: 321.51715087890625
z: -0.13055093586444855
visibility: 0.9964818358421326
","x: 197.93223571777344
y: 341.19561767578125
z: 0.022540539503097534
visibility: 0.9667145609855652
","x: 223.8897247314453
y: 361.1044921875
z: -0.20788422226905823
visibility: 0.9942408204078674
","x: 192.676513671875
y: 381.298828125
z: -0.05652858689427376
visibility: 0.9681342840194702
","x: 221.21963500976562
y: 375.7690124511719
z: -0.23593981564044952
visibility: 0.983750581741333
","x: 191.18080139160156
y: 394.2364807128906
z: -0.07606403529644012
visibility: 0.9395785331726074
","x: 217.57835388183594
y: 372.9319763183594
z: -0.2510392963886261
visibility: 0.9857209920883179
","x: 192.04380798339844
y: 394.7840881347656
z: -0.10221318155527115
visibility: 0.9441726207733154
","x: 217.5689697265625
y: 368.2916564941406
z: -0.21349413692951202
visibility: 0.9818004965782166
","x: 193.25772094726562
y: 390.4883117675781
z: -0.06940412521362305
visibility: 0.9354274868965149
","x: 230.54893493652344
y: 373.79449462890625
z: -0.01847262866795063
visibility: 0.9996019601821899
","x: 211.63345336914062
y: 377.78192138671875
z: 0.01850307174026966
visibility: 0.9996228814125061
","x: 231.90231323242188
y: 444.5234680175781
z: -0.02956409379839897
visibility: 0.9936069250106812
","x: 216.38778686523438
y: 444.8500061035156
z: -0.03288087993860245
visibility: 0.9912288188934326
","x: 223.63829040527344
y: 483.06756591796875
z: 0.16893711686134338
visibility: 0.987059473991394
","x: 216.28404235839844
y: 510.2433776855469
z: 0.07406868040561676
visibility: 0.9914242029190063
","x: 222.1327667236328
y: 489.46612548828125
z: 0.18512731790542603
visibility: 0.8858039975166321
","x: 218.67218017578125
y: 518.0518188476562
z: 0.07913033664226532
visibility: 0.8954069018363953
","x: 223.82675170898438
y: 514.675048828125
z: 0.10606910288333893
visibility: 0.9834744930267334
","x: 212.4469451904297
y: 531.4032592773438
z: -0.017964813858270645
visibility: 0.987541139125824
",4.2055463790893555,"x: 220.8448028564453
y: 354.6837158203125
z: 0.0
","x: 216.0728302001953
y: 359.81610107421875
z: 0.0009858804987743497
","x: 213.1247100830078
y: 367.7427673339844
z: -1.9481556591927074e-05
","x: 211.49171447753906
y: 375.01007080078125
z: -0.0013499261112883687
","x: 210.3143768310547
y: 380.7506103515625
z: -0.0021632472053170204
","x: 213.41229248046875
y: 369.694091796875
z: -0.004296231083571911
","x: 211.38577270507812
y: 381.1482238769531
z: -0.005868356674909592
","x: 211.4280548095703
y: 380.3498840332031
z: -0.0046708532609045506
","x: 211.93116760253906
y: 377.1618957519531
z: -0.0033991574309766293
","x: 215.7937774658203
y: 370.86065673828125
z: -0.005915784277021885
","x: 214.02093505859375
y: 383.05352783203125
z: -0.007397163193672895
","x: 214.0118408203125
y: 381.3629455566406
z: -0.005378291476517916
","x: 214.57008361816406
y: 377.563232421875
z: -0.0034786059986799955
","x: 218.23851013183594
y: 371.7578125
z: -0.00724034383893013
","x: 216.85177612304688
y: 382.76947021484375
z: -0.00796473678201437
","x: 216.7604217529297
y: 380.7585144042969
z: -0.005273310001939535
","x: 217.106201171875
y: 377.3748779296875
z: -0.003310090396553278
","x: 220.6149139404297
y: 372.478515625
z: -0.008540445007383823
","x: 219.35047912597656
y: 381.08477783203125
z: -0.008750364184379578
","x: 219.09616088867188
y: 379.789794921875
z: -0.006959461607038975
","x: 219.1916961669922
y: 376.9014892578125
z: -0.005431588739156723
",,,,,,,,,,,,,,,,,,,,,
3,"x: 209.97311401367188
y: 244.95608520507812
z: -0.20617356896400452
visibility: 0.9999712109565735
","x: 210.6056671142578
y: 240.90989685058594
z: -0.2001032829284668
visibility: 0.9998578429222107
","x: 211.7288360595703
y: 240.47634887695312
z: -0.2001505345106125
visibility: 0.9998806715011597
","x: 212.86997985839844
y: 240.0633087158203
z: -0.20016667246818542
visibility: 0.9998733401298523
","x: 207.64352416992188
y: 242.51947021484375
z: -0.19065527617931366
visibility: 0.9998446702957153
","x: 206.74087524414062
y: 242.78018188476562
z: -0.19065585732460022
visibility: 0.9998412132263184
","x: 205.821044921875
y: 242.93902587890625
z: -0.1906903088092804
visibility: 0.9998034238815308
","x: 215.4715118408203
y: 244.78915405273438
z: -0.1466255933046341
visibility: 0.9997377395629883
","x: 205.8295440673828
y: 247.1894073486328
z: -0.1031738892197609
visibility: 0.9994086623191833
","x: 213.60699462890625
y: 250.1002655029297
z: -0.18550977110862732
visibility: 0.9999368190765381
","x: 209.4780731201172
y: 252.89817810058594
z: -0.17298799753189087
visibility: 0.9999054670333862
","x: 231.57550048828125
y: 275.58233642578125
z: -0.12245281785726547
visibility: 0.9999815225601196
","x: 203.0609130859375
y: 292.0117492675781
z: -0.02613135799765587
visibility: 0.9999094605445862
","x: 236.51828002929688
y: 321.51715087890625
z: -0.13055093586444855
visibility: 0.9964818358421326
","x: 197.93223571777344
y: 341.19561767578125
z: 0.022540539503097534
visibility: 0.9667145609855652
","x: 223.8897247314453
y: 361.1044921875
z: -0.20788422226905823
visibility: 0.9942408204078674
","x: 192.676513671875
y: 381.298828125
z: -0.05652858689427376
visibility: 0.9681342840194702
","x: 221.21963500976562
y: 375.7690124511719
z: -0.23593981564044952
visibility: 0.983750581741333
","x: 191.18080139160156
y: 394.2364807128906
z: -0.07606403529644012
visibility: 0.9395785331726074
","x: 217.57835388183594
y: 372.9319763183594
z: -0.2510392963886261
visibility: 0.9857209920883179
","x: 192.04380798339844
y: 394.7840881347656
z: -0.10221318155527115
visibility: 0.9441726207733154
","x: 217.5689697265625
y: 368.2916564941406
z: -0.21349413692951202
visibility: 0.9818004965782166
","x: 193.25772094726562
y: 390.4883117675781
z: -0.06940412521362305
visibility: 0.9354274868965149
","x: 230.54893493652344
y: 373.79449462890625
z: -0.01847262866795063
visibility: 0.9996019601821899
","x: 211.63345336914062
y: 377.78192138671875
z: 0.01850307174026966
visibility: 0.9996228814125061
","x: 231.90231323242188
y: 444.5234680175781
z: -0.02956409379839897
visibility: 0.9936069250106812
","x: 216.38778686523438
y: 444.8500061035156
z: -0.03288087993860245
visibility: 0.9912288188934326
","x: 223.63829040527344
y: 483.06756591796875
z: 0.16893711686134338
visibility: 0.987059473991394
","x: 216.28404235839844
y: 510.2433776855469
z: 0.07406868040561676
visibility: 0.9914242029190063
","x: 222.1327667236328
y: 489.46612548828125
z: 0.18512731790542603
visibility: 0.8858039975166321
","x: 218.67218017578125
y: 518.0518188476562
z: 0.07913033664226532
visibility: 0.8954069018363953
","x: 223.82675170898438
y: 514.675048828125
z: 0.10606910288333893
visibility: 0.9834744930267334
","x: 212.4469451904297
y: 531.4032592773438
z: -0.017964813858270645
visibility: 0.987541139125824
",4.2055463790893555,"x: 220.8448028564453
y: 354.6837158203125
z: 0.0
","x: 216.0728302001953
y: 359.81610107421875
z: 0.0009858804987743497
","x: 213.1247100830078
y: 367.7427673339844
z: -1.9481556591927074e-05
","x: 211.49171447753906
y: 375.01007080078125
z: -0.0013499261112883687
","x: 210.3143768310547
y: 380.7506103515625
z: -0.0021632472053170204
","x: 213.41229248046875
y: 369.694091796875
z: -0.004296231083571911
","x: 211.38577270507812
y: 381.1482238769531
z: -0.005868356674909592
","x: 211.4280548095703
y: 380.3498840332031
z: -0.0046708532609045506
","x: 211.93116760253906
y: 377.1618957519531
z: -0.0033991574309766293
","x: 215.7937774658203
y: 370.86065673828125
z: -0.005915784277021885
","x: 214.02093505859375
y: 383.05352783203125
z: -0.007397163193672895
","x: 214.0118408203125
y: 381.3629455566406
z: -0.005378291476517916
","x: 214.57008361816406
y: 377.563232421875
z: -0.0034786059986799955
","x: 218.23851013183594
y: 371.7578125
z: -0.00724034383893013
","x: 216.85177612304688
y: 382.76947021484375
z: -0.00796473678201437
","x: 216.7604217529297
y: 380.7585144042969
z: -0.005273310001939535
","x: 217.106201171875
y: 377.3748779296875
z: -0.003310090396553278
","x: 220.6149139404297
y: 372.478515625
z: -0.008540445007383823
","x: 219.35047912597656
y: 381.08477783203125
z: -0.008750364184379578
","x: 219.09616088867188
y: 379.789794921875
z: -0.006959461607038975
","x: 219.1916961669922
y: 376.9014892578125
z: -0.005431588739156723
",,,,,,,,,,,,,,,,,,,,,
4,"x: 209.97311401367188
y: 244.95608520507812
z: -0.20617356896400452
visibility: 0.9999712109565735
","x: 210.6056671142578
y: 240.90989685058594
z: -0.2001032829284668
visibility: 0.9998578429222107
","x: 211.7288360595703
y: 240.47634887695312
z: -0.2001505345106125
visibility: 0.9998806715011597
","x: 212.86997985839844
y: 240.0633087158203
z: -0.20016667246818542
visibility: 0.9998733401298523
","x: 207.64352416992188
y: 242.51947021484375
z: -0.19065527617931366
visibility: 0.9998446702957153
","x: 206.74087524414062
y: 242.78018188476562
z: -0.19065585732460022
visibility: 0.9998412132263184
","x: 205.821044921875
y: 242.93902587890625
z: -0.1906903088092804
visibility: 0.9998034238815308
","x: 215.4715118408203
y: 244.78915405273438
z: -0.1466255933046341
visibility: 0.9997377395629883
","x: 205.8295440673828
y: 247.1894073486328
z: -0.1031738892197609
visibility: 0.9994086623191833
","x: 213.60699462890625
y: 250.1002655029297
z: -0.18550977110862732
visibility: 0.9999368190765381
","x: 209.4780731201172
y: 252.89817810058594
z: -0.17298799753189087
visibility: 0.9999054670333862
","x: 231.57550048828125
y: 275.58233642578125
z: -0.12245281785726547
visibility: 0.9999815225601196
","x: 203.0609130859375
y: 292.0117492675781
z: -0.02613135799765587
visibility: 0.9999094605445862
","x: 236.51828002929688
y: 321.51715087890625
z: -0.13055093586444855
visibility: 0.9964818358421326
","x: 197.93223571777344
y: 341.19561767578125
z: 0.022540539503097534
visibility: 0.9667145609855652
","x: 223.8897247314453
y: 361.1044921875
z: -0.20788422226905823
visibility: 0.9942408204078674
","x: 192.676513671875
y: 381.298828125
z: -0.05652858689427376
visibility: 0.9681342840194702
","x: 221.21963500976562
y: 375.7690124511719
z: -0.23593981564044952
visibility: 0.983750581741333
","x: 191.18080139160156
y: 394.2364807128906
z: -0.07606403529644012
visibility: 0.9395785331726074
","x: 217.57835388183594
y: 372.9319763183594
z: -0.2510392963886261
visibility: 0.9857209920883179
","x: 192.04380798339844
y: 394.7840881347656
z: -0.10221318155527115
visibility: 0.9441726207733154
","x: 217.5689697265625
y: 368.2916564941406
z: -0.21349413692951202
visibility: 0.9818004965782166
","x: 193.25772094726562
y: 390.4883117675781
z: -0.06940412521362305
visibility: 0.9354274868965149
","x: 230.54893493652344
y: 373.79449462890625
z: -0.01847262866795063
visibility: 0.9996019601821899
","x: 211.63345336914062
y: 377.78192138671875
z: 0.01850307174026966
visibility: 0.9996228814125061
","x: 231.90231323242188
y: 444.5234680175781
z: -0.02956409379839897
visibility: 0.9936069250106812
","x: 216.38778686523438
y: 444.8500061035156
z: -0.03288087993860245
visibility: 0.9912288188934326
","x: 223.63829040527344
y: 483.06756591796875
z: 0.16893711686134338
visibility: 0.987059473991394
","x: 216.28404235839844
y: 510.2433776855469
z: 0.07406868040561676
visibility: 0.9914242029190063
","x: 222.1327667236328
y: 489.46612548828125
z: 0.18512731790542603
visibility: 0.8858039975166321
","x: 218.67218017578125
y: 518.0518188476562
z: 0.07913033664226532
visibility: 0.8954069018363953
","x: 223.82675170898438
y: 514.675048828125
z: 0.10606910288333893
visibility: 0.9834744930267334
","x: 212.4469451904297
y: 531.4032592773438
z: -0.017964813858270645
visibility: 0.987541139125824
",4.2055463790893555,"x: 220.8448028564453
y: 354.6837158203125
z: 0.0
","x: 216.0728302001953
y: 359.81610107421875
z: 0.0009858804987743497
","x: 213.1247100830078
y: 367.7427673339844
z: -1.9481556591927074e-05
","x: 211.49171447753906
y: 375.01007080078125
z: -0.0013499261112883687
","x: 210.3143768310547
y: 380.7506103515625
z: -0.0021632472053170204
","x: 213.41229248046875
y: 369.694091796875
z: -0.004296231083571911
","x: 211.38577270507812
y: 381.1482238769531
z: -0.005868356674909592
","x: 211.4280548095703
y: 380.3498840332031
z: -0.0046708532609045506
","x: 211.93116760253906
y: 377.1618957519531
z: -0.0033991574309766293
","x: 215.7937774658203
y: 370.86065673828125
z: -0.005915784277021885
","x: 214.02093505859375
y: 383.05352783203125
z: -0.007397163193672895
","x: 214.0118408203125
y: 381.3629455566406
z: -0.005378291476517916
","x: 214.57008361816406
y: 377.563232421875
z: -0.0034786059986799955
","x: 218.23851013183594
y: 371.7578125
z: -0.00724034383893013
","x: 216.85177612304688
y: 382.76947021484375
z: -0.00796473678201437
","x: 216.7604217529297
y: 380.7585144042969
z: -0.005273310001939535
","x: 217.106201171875
y: 377.3748779296875
z: -0.003310090396553278
","x: 220.6149139404297
y: 372.478515625
z: -0.008540445007383823
","x: 219.35047912597656
y: 381.08477783203125
z: -0.008750364184379578
","x: 219.09616088867188
y: 379.789794921875
z: -0.006959461607038975
","x: 219.1916961669922
y: 376.9014892578125
z: -0.005431588739156723
",,,,,,,,,,,,,,,,,,,,,
5,"x: 207.857177734375
y: 243.46205139160156
z: -0.17465241253376007
visibility: 0.9999651312828064
","x: 208.80902099609375
y: 239.95968627929688
z: -0.16682195663452148
visibility: 0.999849796295166
","x: 209.91554260253906
y: 239.52679443359375
z: -0.16687043011188507
visibility: 0.9998742938041687
","x: 211.07444763183594
y: 239.0817108154297
z: -0.16690310835838318
visibility: 0.9998713135719299
","x: 205.78436279296875
y: 241.87945556640625
z: -0.15737731754779816
visibility: 0.999814510345459
","x: 204.83010864257812
y: 242.4752960205078
z: -0.15733851492404938
visibility: 0.9997987151145935
","x: 203.89495849609375
y: 242.87319946289062
z: -0.15733826160430908
visibility: 0.9997513294219971
","x: 213.50537109375
y: 243.77943420410156
z: -0.10994227230548859
visibility: 0.9997503757476807
","x: 203.62332153320312
y: 247.40750122070312
z: -0.06581819802522659
visibility: 0.9991099834442139
","x: 210.9514617919922
y: 248.6617431640625
z: -0.1530168354511261
visibility: 0.9999361038208008
","x: 207.31439208984375
y: 251.3650665283203
z: -0.1403924822807312
visibility: 0.9998864531517029
","x: 229.50527954101562
y: 271.9979248046875
z: -0.10033077001571655
visibility: 0.9999821186065674
","x: 201.41738891601562
y: 291.3479309082031
z: 0.010779022239148617
visibility: 0.9996633529663086
","x: 233.80734252929688
y: 319.39501953125
z: -0.10858651250600815
visibility: 0.996410071849823
","x: 201.99261474609375
y: 339.99603271484375
z: 0.05222700908780098
visibility: 0.9069547057151794
","x: 223.58811950683594
y: 360.4382019042969
z: -0.1833098977804184
visibility: 0.9943830966949463
","x: 196.95559692382812
y: 371.78839111328125
z: -0.033379796892404556
visibility: 0.9181769490242004
","x: 223.1949920654297
y: 374.7859191894531
z: -0.208478644490242
visibility: 0.984223484992981
","x: 195.80215454101562
y: 382.07293701171875
z: -0.05320355296134949
visibility: 0.8920761346817017
","x: 218.0240936279297
y: 373.4267578125
z: -0.24607035517692566
visibility: 0.9859824776649475
","x: 194.975830078125
y: 379.765869140625
z: -0.07820142060518265
visibility: 0.8973079323768616
","x: 217.55917358398438
y: 368.9768981933594
z: -0.20262929797172546
visibility: 0.9818016886711121
","x: 196.3377685546875
y: 375.2892761230469
z: -0.04624287411570549
visibility: 0.8864613175392151
","x: 229.86485290527344
y: 369.4309997558594
z: -0.018033158034086227
visibility: 0.9996121525764465
","x: 209.77285766601562
y: 374.17626953125
z: 0.018060017377138138
visibility: 0.999609112739563
","x: 233.51060485839844
y: 443.8031311035156
z: -0.09283573925495148
visibility: 0.9931238889694214
","x: 215.48374938964844
y: 443.921142578125
z: -0.026415729895234108
visibility: 0.9901937246322632
","x: 223.87344360351562
y: 480.74462890625
z: 0.13122813403606415
visibility: 0.982715904712677
","x: 216.3047332763672
y: 509.90802001953125
z: 0.09619135409593582
visibility: 0.9906320571899414
","x: 221.6305389404297
y: 481.9848937988281
z: 0.14764082431793213
visibility: 0.8677052855491638
","x: 218.3243865966797
y: 516.8162231445312
z: 0.10325286537408829
visibility: 0.8896824717521667
","x: 218.79287719726562
y: 513.132568359375
z: 0.06575782597064972
visibility: 0.9786758422851562
","x: 213.0714569091797
y: 531.2220458984375
z: 0.0073449937626719475
visibility: 0.9861565828323364
",4.335853815078735,"x: 220.79248046875
y: 357.53607177734375
z: 0.0
","x: 216.4232940673828
y: 363.72491455078125
z: 0.003106373827904463
","x: 214.31275939941406
y: 371.6583251953125
z: 0.0034608012065291405
","x: 213.60934448242188
y: 378.098388671875
z: 0.0029594511725008488
","x: 213.90396118164062
y: 382.6733703613281
z: 0.002887394279241562
","x: 214.88491821289062
y: 376.84246826171875
z: 0.0006767524173483253
","x: 214.2494659423828
y: 386.141845703125
z: 3.737299266504124e-05
","x: 214.8932342529297
y: 385.8604736328125
z: 0.0011234547710046172
","x: 215.39459228515625
y: 383.15850830078125
z: 0.0022055422887206078
","x: 217.4416961669922
y: 377.4303894042969
z: -0.0019082716898992658
","x: 217.10577392578125
y: 387.6014709472656
z: -0.0021582648623734713
","x: 217.48590087890625
y: 386.2334899902344
z: -0.00036460929550230503
","x: 217.77224731445312
y: 382.58819580078125
z: 0.0011060719843953848
","x: 220.05975341796875
y: 376.8713684082031
z: -0.004297093953937292
","x: 219.83120727539062
y: 386.2977600097656
z: -0.004084757063537836
","x: 220.1778564453125
y: 384.61749267578125
z: -0.0016442232299596071
","x: 220.3306121826172
y: 381.2989807128906
z: -1.12717780211824e-05
","x: 222.50045776367188
y: 375.4986572265625
z: -0.006598647218197584
","x: 222.26426696777344
y: 383.22003173828125
z: -0.006408852990716696
","x: 222.33168029785156
y: 383.2579345703125
z: -0.004823271185159683
","x: 222.33450317382812
y: 381.6926574707031
z: -0.0034753987565636635
",,,,,,,,,,,,,,,,,,,,,
6,"x: 207.857177734375
y: 243.46205139160156
z: -0.17465241253376007
visibility: 0.9999651312828064
","x: 208.80902099609375
y: 239.95968627929688
z: -0.16682195663452148
visibility: 0.999849796295166
","x: 209.91554260253906
y: 239.52679443359375
z: -0.16687043011188507
visibility: 0.9998742938041687
","x: 211.07444763183594
y: 239.0817108154297
z: -0.16690310835838318
visibility: 0.9998713135719299
","x: 205.78436279296875
y: 241.87945556640625
z: -0.15737731754779816
visibility: 0.999814510345459
","x: 204.83010864257812
y: 242.4752960205078
z: -0.15733851492404938
visibility: 0.9997987151145935
","x: 203.89495849609375
y: 242.87319946289062
z: -0.15733826160430908
visibility: 0.9997513294219971
","x: 213.50537109375
y: 243.77943420410156
z: -0.10994227230548859
visibility: 0.9997503757476807
","x: 203.62332153320312
y: 247.40750122070312
z: -0.06581819802522659
visibility: 0.9991099834442139
","x: 210.9514617919922
y: 248.6617431640625
z: -0.1530168354511261
visibility: 0.9999361038208008
","x: 207.31439208984375
y: 251.3650665283203
z: -0.1403924822807312
visibility: 0.9998864531517029
","x: 229.50527954101562
y: 271.9979248046875
z: -0.10033077001571655
visibility: 0.9999821186065674
","x: 201.41738891601562
y: 291.3479309082031
z: 0.010779022239148617
visibility: 0.9996633529663086
","x: 233.80734252929688
y: 319.39501953125
z: -0.10858651250600815
visibility: 0.996410071849823
","x: 201.99261474609375
y: 339.99603271484375
z: 0.05222700908780098
visibility: 0.9069547057151794
","x: 223.58811950683594
y: 360.4382019042969
z: -0.1833098977804184
visibility: 0.9943830966949463
","x: 196.95559692382812
y: 371.78839111328125
z: -0.033379796892404556
visibility: 0.9181769490242004
","x: 223.1949920654297
y: 374.7859191894531
z: -0.208478644490242
visibility: 0.984223484992981
","x: 195.80215454101562
y: 382.07293701171875
z: -0.05320355296134949
visibility: 0.8920761346817017
","x: 218.0240936279297
y: 373.4267578125
z: -0.24607035517692566
visibility: 0.9859824776649475
","x: 194.975830078125
y: 379.765869140625
z: -0.07820142060518265
visibility: 0.8973079323768616
","x: 217.55917358398438
y: 368.9768981933594
z: -0.20262929797172546
visibility: 0.9818016886711121
","x: 196.3377685546875
y: 375.2892761230469
z: -0.04624287411570549
visibility: 0.8864613175392151
","x: 229.86485290527344
y: 369.4309997558594
z: -0.018033158034086227
visibility: 0.9996121525764465
","x: 209.77285766601562
y: 374.17626953125
z: 0.018060017377138138
visibility: 0.999609112739563
","x: 233.51060485839844
y: 443.8031311035156
z: -0.09283573925495148
visibility: 0.9931238889694214
","x: 215.48374938964844
y: 443.921142578125
z: -0.026415729895234108
visibility: 0.9901937246322632
","x: 223.87344360351562
y: 480.74462890625
z: 0.13122813403606415
visibility: 0.982715904712677
","x: 216.3047332763672
y: 509.90802001953125
z: 0.09619135409593582
visibility: 0.9906320571899414
","x: 221.6305389404297
y: 481.9848937988281
z: 0.14764082431793213
visibility: 0.8677052855491638
","x: 218.3243865966797
y: 516.8162231445312
z: 0.10325286537408829
visibility: 0.8896824717521667
","x: 218.79287719726562
y: 513.132568359375
z: 0.06575782597064972
visibility: 0.9786758422851562
","x: 213.0714569091797
y: 531.2220458984375
z: 0.0073449937626719475
visibility: 0.9861565828323364
",4.335853815078735,"x: 220.79248046875
y: 357.53607177734375
z: 0.0
","x: 216.4232940673828
y: 363.72491455078125
z: 0.003106373827904463
","x: 214.31275939941406
y: 371.6583251953125
z: 0.0034608012065291405
","x: 213.60934448242188
y: 378.098388671875
z: 0.0029594511725008488
","x: 213.90396118164062
y: 382.6733703613281
z: 0.002887394279241562
","x: 214.88491821289062
y: 376.84246826171875
z: 0.0006767524173483253
","x: 214.2494659423828
y: 386.141845703125
z: 3.737299266504124e-05
","x: 214.8932342529297
y: 385.8604736328125
z: 0.0011234547710046172
","x: 215.39459228515625
y: 383.15850830078125
z: 0.0022055422887206078
","x: 217.4416961669922
y: 377.4303894042969
z: -0.0019082716898992658
","x: 217.10577392578125
y: 387.6014709472656
z: -0.0021582648623734713
","x: 217.48590087890625
y: 386.2334899902344
z: -0.00036460929550230503
","x: 217.77224731445312
y: 382.58819580078125
z: 0.0011060719843953848
","x: 220.05975341796875
y: 376.8713684082031
z: -0.004297093953937292
","x: 219.83120727539062
y: 386.2977600097656
z: -0.004084757063537836
","x: 220.1778564453125
y: 384.61749267578125
z: -0.0016442232299596071
","x: 220.3306121826172
y: 381.2989807128906
z: -1.12717780211824e-05
","x: 222.50045776367188
y: 375.4986572265625
z: -0.006598647218197584
","x: 222.26426696777344
y: 383.22003173828125
z: -0.006408852990716696
","x: 222.33168029785156
y: 383.2579345703125
z: -0.004823271185159683
","x: 222.33450317382812
y: 381.6926574707031
z: -0.0034753987565636635
",,,,,,,,,,,,,,,,,,,,,
7,"x: 207.857177734375
y: 243.46205139160156
z: -0.17465241253376007
visibility: 0.9999651312828064
","x: 208.80902099609375
y: 239.95968627929688
z: -0.16682195663452148
visibility: 0.999849796295166
","x: 209.91554260253906
y: 239.52679443359375
z: -0.16687043011188507
visibility: 0.9998742938041687
","x: 211.07444763183594
y: 239.0817108154297
z: -0.16690310835838318
visibility: 0.9998713135719299
","x: 205.78436279296875
y: 241.87945556640625
z: -0.15737731754779816
visibility: 0.999814510345459
","x: 204.83010864257812
y: 242.4752960205078
z: -0.15733851492404938
visibility: 0.9997987151145935
","x: 203.89495849609375
y: 242.87319946289062
z: -0.15733826160430908
visibility: 0.9997513294219971
","x: 213.50537109375
y: 243.77943420410156
z: -0.10994227230548859
visibility: 0.9997503757476807
","x: 203.62332153320312
y: 247.40750122070312
z: -0.06581819802522659
visibility: 0.9991099834442139
","x: 210.9514617919922
y: 248.6617431640625
z: -0.1530168354511261
visibility: 0.9999361038208008
","x: 207.31439208984375
y: 251.3650665283203
z: -0.1403924822807312
visibility: 0.9998864531517029
","x: 229.50527954101562
y: 271.9979248046875
z: -0.10033077001571655
visibility: 0.9999821186065674
","x: 201.41738891601562
y: 291.3479309082031
z: 0.010779022239148617
visibility: 0.9996633529663086
","x: 233.80734252929688
y: 319.39501953125
z: -0.10858651250600815
visibility: 0.996410071849823
","x: 201.99261474609375
y: 339.99603271484375
z: 0.05222700908780098
visibility: 0.9069547057151794
","x: 223.58811950683594
y: 360.4382019042969
z: -0.1833098977804184
visibility: 0.9943830966949463
","x: 196.95559692382812
y: 371.78839111328125
z: -0.033379796892404556
visibility: 0.9181769490242004
","x: 223.1949920654297
y: 374.7859191894531
z: -0.208478644490242
visibility: 0.984223484992981
","x: 195.80215454101562
y: 382.07293701171875
z: -0.05320355296134949
visibility: 0.8920761346817017
","x: 218.0240936279297
y: 373.4267578125
z: -0.24607035517692566
visibility: 0.9859824776649475
","x: 194.975830078125
y: 379.765869140625
z: -0.07820142060518265
visibility: 0.8973079323768616
","x: 217.55917358398438
y: 368.9768981933594
z: -0.20262929797172546
visibility: 0.9818016886711121
","x: 196.3377685546875
y: 375.2892761230469
z: -0.04624287411570549
visibility: 0.8864613175392151
","x: 229.86485290527344
y: 369.4309997558594
z: -0.018033158034086227
visibility: 0.9996121525764465
","x: 209.77285766601562
y: 374.17626953125
z: 0.018060017377138138
visibility: 0.999609112739563
","x: 233.51060485839844
y: 443.8031311035156
z: -0.09283573925495148
visibility: 0.9931238889694214
","x: 215.48374938964844
y: 443.921142578125
z: -0.026415729895234108
visibility: 0.9901937246322632
","x: 223.87344360351562
y: 480.74462890625
z: 0.13122813403606415
visibility: 0.982715904712677
","x: 216.3047332763672
y: 509.90802001953125
z: 0.09619135409593582
visibility: 0.9906320571899414
","x: 221.6305389404297
y: 481.9848937988281
z: 0.14764082431793213
visibility: 0.8677052855491638
","x: 218.3243865966797
y: 516.8162231445312
z: 0.10325286537408829
visibility: 0.8896824717521667
","x: 218.79287719726562
y: 513.132568359375
z: 0.06575782597064972
visibility: 0.9786758422851562
","x: 213.0714569091797
y: 531.2220458984375
z: 0.0073449937626719475
visibility: 0.9861565828323364
",4.335853815078735,"x: 220.79248046875
y: 357.53607177734375
z: 0.0
","x: 216.4232940673828
y: 363.72491455078125
z: 0.003106373827904463
","x: 214.31275939941406
y: 371.6583251953125
z: 0.0034608012065291405
","x: 213.60934448242188
y: 378.098388671875
z: 0.0029594511725008488
","x: 213.90396118164062
y: 382.6733703613281
z: 0.002887394279241562
","x: 214.88491821289062
y: 376.84246826171875
z: 0.0006767524173483253
","x: 214.2494659423828
y: 386.141845703125
z: 3.737299266504124e-05
","x: 214.8932342529297
y: 385.8604736328125
z: 0.0011234547710046172
","x: 215.39459228515625
y: 383.15850830078125
z: 0.0022055422887206078
","x: 217.4416961669922
y: 377.4303894042969
z: -0.0019082716898992658
","x: 217.10577392578125
y: 387.6014709472656
z: -0.0021582648623734713
","x: 217.48590087890625
y: 386.2334899902344
z: -0.00036460929550230503
","x: 217.77224731445312
y: 382.58819580078125
z: 0.0011060719843953848
","x: 220.05975341796875
y: 376.8713684082031
z: -0.004297093953937292
","x: 219.83120727539062
y: 386.2977600097656
z: -0.004084757063537836
","x: 220.1778564453125
y: 384.61749267578125
z: -0.0016442232299596071
","x: 220.3306121826172
y: 381.2989807128906
z: -1.12717780211824e-05
","x: 222.50045776367188
y: 375.4986572265625
z: -0.006598647218197584
","x: 222.26426696777344
y: 383.22003173828125
z: -0.006408852990716696
","x: 222.33168029785156
y: 383.2579345703125
z: -0.004823271185159683
","x: 222.33450317382812
y: 381.6926574707031
z: -0.0034753987565636635
",,,,,,,,,,,,,,,,,,,,,
8,"x: 212.508544921875
y: 243.81536865234375
z: -0.2286502569913864
visibility: 0.9999656081199646
","x: 213.25535583496094
y: 239.6318817138672
z: -0.2175973355770111
visibility: 0.999858021736145
","x: 214.4403076171875
y: 239.05307006835938
z: -0.21760913729667664
visibility: 0.9998809695243835
","x: 215.65907287597656
y: 238.46286010742188
z: -0.21761491894721985
visibility: 0.9998791217803955
","x: 210.07952880859375
y: 241.8345947265625
z: -0.2144230604171753
visibility: 0.9998226761817932
","x: 209.07794189453125
y: 242.48167419433594
z: -0.21441452205181122
visibility: 0.9998056888580322
","x: 208.06300354003906
y: 243.0359649658203
z: -0.21440832316875458
visibility: 0.9997602701187134
","x: 218.3271026611328
y: 242.4315643310547
z: -0.13530436158180237
visibility: 0.9997686147689819
","x: 207.15513610839844
y: 248.00157165527344
z: -0.12128468602895737
visibility: 0.9991475939750671
","x: 215.9286346435547
y: 249.29782104492188
z: -0.19796983897686005
visibility: 0.9999397397041321
","x: 211.59425354003906
y: 251.54539489746094
z: -0.19449643790721893
visibility: 0.9998908042907715
","x: 233.96841430664062
y: 273.10955810546875
z: -0.11504898220300674
visibility: 0.9999825358390808
","x: 202.79635620117188
y: 292.7796630859375
z: -0.039301805198192596
visibility: 0.9996428489685059
","x: 239.32150268554688
y: 319.933837890625
z: -0.1182042807340622
visibility: 0.9964262247085571
","x: 201.911865234375
y: 340.23162841796875
z: 0.0007498996565118432
visibility: 0.8866763114929199
","x: 234.07504272460938
y: 362.1268310546875
z: -0.19916780292987823
visibility: 0.994473934173584
","x: 200.9699249267578
y: 375.0417785644531
z: -0.0986621156334877
visibility: 0.893163800239563
","x: 233.1833038330078
y: 376.5658264160156
z: -0.22918137907981873
visibility: 0.9845190048217773
","x: 199.95834350585938
y: 386.9630432128906
z: -0.1279517114162445
visibility: 0.8634985685348511
","x: 228.86314392089844
y: 375.0195617675781
z: -0.2525436282157898
visibility: 0.9861260056495667
","x: 200.552978515625
y: 383.8868408203125
z: -0.14961031079292297
visibility: 0.8689741492271423
","x: 228.33065795898438
y: 370.31744384765625
z: -0.20867271721363068
visibility: 0.9815823435783386
","x: 201.7510223388672
y: 377.0324401855469
z: -0.11102807521820068
visibility: 0.8558444380760193
","x: 230.91107177734375
y: 370.13690185546875
z: -0.01415361650288105
visibility: 0.9996251463890076
","x: 210.79905700683594
y: 373.7652587890625
z: 0.014219711534678936
visibility: 0.9996209144592285
","x: 240.80422973632812
y: 444.1343994140625
z: -0.07542562484741211
visibility: 0.9934090375900269
","x: 215.61160278320312
y: 444.05499267578125
z: -0.0239022858440876
visibility: 0.990871787071228
","x: 229.87994384765625
y: 491.6393737792969
z: 0.11910372972488403
visibility: 0.9838810563087463
","x: 216.0797882080078
y: 509.63232421875
z: 0.09203121811151505
visibility: 0.9912378787994385
","x: 228.8262481689453
y: 495.69879150390625
z: 0.12870991230010986
visibility: 0.8735818862915039
","x: 218.19187927246094
y: 516.7213134765625
z: 0.09690691530704498
visibility: 0.8921899199485779
","x: 242.5348358154297
y: 520.171630859375
z: 0.02715030312538147
visibility: 0.9797766804695129
","x: 212.93453979492188
y: 531.0314331054688
z: -0.009953595697879791
visibility: 0.9868518114089966
",4.490183115005493,"x: 235.0691680908203
y: 362.0593566894531
z: 0.0
","x: 230.1901397705078
y: 363.9532165527344
z: -0.00022915206500329077
","x: 226.36842346191406
y: 369.5159912109375
z: -0.0013785518240183592
","x: 224.7501678466797
y: 374.6950988769531
z: -0.0026523899286985397
","x: 225.05101013183594
y: 378.65887451171875
z: -0.0034588088747113943
","x: 228.07379150390625
y: 376.4896240234375
z: -0.004457981325685978
","x: 226.79208374023438
y: 387.39306640625
z: -0.006422427482903004
","x: 226.98500061035156
y: 387.242919921875
z: -0.0056587266735732555
","x: 227.55215454101562
y: 384.1756896972656
z: -0.004521660506725311
","x: 231.08883666992188
y: 378.00347900390625
z: -0.005663461983203888
","x: 229.8608856201172
y: 389.2317199707031
z: -0.0074217915534973145
","x: 229.89346313476562
y: 388.14520263671875
z: -0.005653532221913338
","x: 230.36428833007812
y: 384.4036865234375
z: -0.0038251695223152637
","x: 233.9805145263672
y: 378.4048156738281
z: -0.0067898305132985115
","x: 233.04347229003906
y: 388.4350280761719
z: -0.007897566072642803
","x: 232.80418395996094
y: 387.2704772949219
z: -0.0054879277013242245
","x: 232.85488891601562
y: 384.1032409667969
z: -0.003567702602595091
","x: 236.66897583007812
y: 378.18353271484375
z: -0.008045874536037445
","x: 236.01414489746094
y: 386.6197204589844
z: -0.008894193917512894
","x: 235.5859375
y: 386.7632751464844
z: -0.00754082016646862
","x: 235.3284912109375
y: 384.88677978515625
z: -0.006148636806756258
",,,,,,,,,,,,,,,,,,,,,
9,"x: 212.508544921875
y: 243.81536865234375
z: -0.2286502569913864
visibility: 0.9999656081199646
","x: 213.25535583496094
y: 239.6318817138672
z: -0.2175973355770111
visibility: 0.999858021736145
","x: 214.4403076171875
y: 239.05307006835938
z: -0.21760913729667664
visibility: 0.9998809695243835
","x: 215.65907287597656
y: 238.46286010742188
z: -0.21761491894721985
visibility: 0.9998791217803955
","x: 210.07952880859375
y: 241.8345947265625
z: -0.2144230604171753
visibility: 0.9998226761817932
","x: 209.07794189453125
y: 242.48167419433594
z: -0.21441452205181122
visibility: 0.9998056888580322
","x: 208.06300354003906
y: 243.0359649658203
z: -0.21440832316875458
visibility: 0.9997602701187134
","x: 218.3271026611328
y: 242.4315643310547
z: -0.13530436158180237
visibility: 0.9997686147689819
","x: 207.15513610839844
y: 248.00157165527344
z: -0.12128468602895737
visibility: 0.9991475939750671
","x: 215.9286346435547
y: 249.29782104492188
z: -0.19796983897686005
visibility: 0.9999397397041321
","x: 211.59425354003906
y: 251.54539489746094
z: -0.19449643790721893
visibility: 0.9998908042907715
","x: 233.96841430664062
y: 273.10955810546875
z: -0.11504898220300674
visibility: 0.9999825358390808
","x: 202.79635620117188
y: 292.7796630859375
z: -0.039301805198192596
visibility: 0.9996428489685059
","x: 239.32150268554688
y: 319.933837890625
z: -0.1182042807340622
visibility: 0.9964262247085571
","x: 201.911865234375
y: 340.23162841796875
z: 0.0007498996565118432
visibility: 0.8866763114929199
","x: 234.07504272460938
y: 362.1268310546875
z: -0.19916780292987823
visibility: 0.994473934173584
","x: 200.9699249267578
y: 375.0417785644531
z: -0.0986621156334877
visibility: 0.893163800239563
","x: 233.1833038330078
y: 376.5658264160156
z: -0.22918137907981873
visibility: 0.9845190048217773
","x: 199.95834350585938
y: 386.9630432128906
z: -0.1279517114162445
visibility: 0.8634985685348511
","x: 228.86314392089844
y: 375.0195617675781
z: -0.2525436282157898
visibility: 0.9861260056495667
","x: 200.552978515625
y: 383.8868408203125
z: -0.14961031079292297
visibility: 0.8689741492271423
","x: 228.33065795898438
y: 370.31744384765625
z: -0.20867271721363068
visibility: 0.9815823435783386
","x: 201.7510223388672
y: 377.0324401855469
z: -0.11102807521820068
visibility: 0.8558444380760193
","x: 230.91107177734375
y: 370.13690185546875
z: -0.01415361650288105
visibility: 0.9996251463890076
","x: 210.79905700683594
y: 373.7652587890625
z: 0.014219711534678936
visibility: 0.9996209144592285
","x: 240.80422973632812
y: 444.1343994140625
z: -0.07542562484741211
visibility: 0.9934090375900269
","x: 215.61160278320312
y: 444.05499267578125
z: -0.0239022858440876
visibility: 0.990871787071228
","x: 229.87994384765625
y: 491.6393737792969
z: 0.11910372972488403
visibility: 0.9838810563087463
","x: 216.0797882080078
y: 509.63232421875
z: 0.09203121811151505
visibility: 0.9912378787994385
","x: 228.8262481689453
y: 495.69879150390625
z: 0.12870991230010986
visibility: 0.8735818862915039
","x: 218.19187927246094
y: 516.7213134765625
z: 0.09690691530704498
visibility: 0.8921899199485779
","x: 242.5348358154297
y: 520.171630859375
z: 0.02715030312538147
visibility: 0.9797766804695129
","x: 212.93453979492188
y: 531.0314331054688
z: -0.009953595697879791
visibility: 0.9868518114089966
",4.490183115005493,"x: 235.0691680908203
y: 362.0593566894531
z: 0.0
","x: 230.1901397705078
y: 363.9532165527344
z: -0.00022915206500329077
","x: 226.36842346191406
y: 369.5159912109375
z: -0.0013785518240183592
","x: 224.7501678466797
y: 374.6950988769531
z: -0.0026523899286985397
","x: 225.05101013183594
y: 378.65887451171875
z: -0.0034588088747113943
","x: 228.07379150390625
y: 376.4896240234375
z: -0.004457981325685978
","x: 226.79208374023438
y: 387.39306640625
z: -0.006422427482903004
","x: 226.98500061035156
y: 387.242919921875
z: -0.0056587266735732555
","x: 227.55215454101562
y: 384.1756896972656
z: -0.004521660506725311
","x: 231.08883666992188
y: 378.00347900390625
z: -0.005663461983203888
","x: 229.8608856201172
y: 389.2317199707031
z: -0.0074217915534973145
","x: 229.89346313476562
y: 388.14520263671875
z: -0.005653532221913338
","x: 230.36428833007812
y: 384.4036865234375
z: -0.0038251695223152637
","x: 233.9805145263672
y: 378.4048156738281
z: -0.0067898305132985115
","x: 233.04347229003906
y: 388.4350280761719
z: -0.007897566072642803
","x: 232.80418395996094
y: 387.2704772949219
z: -0.0054879277013242245
","x: 232.85488891601562
y: 384.1032409667969
z: -0.003567702602595091
","x: 236.66897583007812
y: 378.18353271484375
z: -0.008045874536037445
","x: 236.01414489746094
y: 386.6197204589844
z: -0.008894193917512894
","x: 235.5859375
y: 386.7632751464844
z: -0.00754082016646862
","x: 235.3284912109375
y: 384.88677978515625
z: -0.006148636806756258
",,,,,,,,,,,,,,,,,,,,,
10,"x: 212.508544921875
y: 243.81536865234375
z: -0.2286502569913864
visibility: 0.9999656081199646
","x: 213.25535583496094
y: 239.6318817138672
z: -0.2175973355770111
visibility: 0.999858021736145
","x: 214.4403076171875
y: 239.05307006835938
z: -0.21760913729667664
visibility: 0.9998809695243835
","x: 215.65907287597656
y: 238.46286010742188
z: -0.21761491894721985
visibility: 0.9998791217803955
","x: 210.07952880859375
y: 241.8345947265625
z: -0.2144230604171753
visibility: 0.9998226761817932
","x: 209.07794189453125
y: 242.48167419433594
z: -0.21441452205181122
visibility: 0.9998056888580322
","x: 208.06300354003906
y: 243.0359649658203
z: -0.21440832316875458
visibility: 0.9997602701187134
","x: 218.3271026611328
y: 242.4315643310547
z: -0.13530436158180237
visibility: 0.9997686147689819
","x: 207.15513610839844
y: 248.00157165527344
z: -0.12128468602895737
visibility: 0.9991475939750671
","x: 215.9286346435547
y: 249.29782104492188
z: -0.19796983897686005
visibility: 0.9999397397041321
","x: 211.59425354003906
y: 251.54539489746094
z: -0.19449643790721893
visibility: 0.9998908042907715
","x: 233.96841430664062
y: 273.10955810546875
z: -0.11504898220300674
visibility: 0.9999825358390808
","x: 202.79635620117188
y: 292.7796630859375
z: -0.039301805198192596
visibility: 0.9996428489685059
","x: 239.32150268554688
y: 319.933837890625
z: -0.1182042807340622
visibility: 0.9964262247085571
","x: 201.911865234375
y: 340.23162841796875
z: 0.0007498996565118432
visibility: 0.8866763114929199
","x: 234.07504272460938
y: 362.1268310546875
z: -0.19916780292987823
visibility: 0.994473934173584
","x: 200.9699249267578
y: 375.0417785644531
z: -0.0986621156334877
visibility: 0.893163800239563
","x: 233.1833038330078
y: 376.5658264160156
z: -0.22918137907981873
visibility: 0.9845190048217773
","x: 199.95834350585938
y: 386.9630432128906
z: -0.1279517114162445
visibility: 0.8634985685348511
","x: 228.86314392089844
y: 375.0195617675781
z: -0.2525436282157898
visibility: 0.9861260056495667
","x: 200.552978515625
y: 383.8868408203125
z: -0.14961031079292297
visibility: 0.8689741492271423
","x: 228.33065795898438
y: 370.31744384765625
z: -0.20867271721363068
visibility: 0.9815823435783386
","x: 201.7510223388672
y: 377.0324401855469
z: -0.11102807521820068
visibility: 0.8558444380760193
","x: 230.91107177734375
y: 370.13690185546875
z: -0.01415361650288105
visibility: 0.9996251463890076
","x: 210.79905700683594
y: 373.7652587890625
z: 0.014219711534678936
visibility: 0.9996209144592285
","x: 240.80422973632812
y: 444.1343994140625
z: -0.07542562484741211
visibility: 0.9934090375900269
","x: 215.61160278320312
y: 444.05499267578125
z: -0.0239022858440876
visibility: 0.990871787071228
","x: 229.87994384765625
y: 491.6393737792969
z: 0.11910372972488403
visibility: 0.9838810563087463
","x: 216.0797882080078
y: 509.63232421875
z: 0.09203121811151505
visibility: 0.9912378787994385
","x: 228.8262481689453
y: 495.69879150390625
z: 0.12870991230010986
visibility: 0.8735818862915039
","x: 218.19187927246094
y: 516.7213134765625
z: 0.09690691530704498
visibility: 0.8921899199485779
","x: 242.5348358154297
y: 520.171630859375
z: 0.02715030312538147
visibility: 0.9797766804695129
","x: 212.93453979492188
y: 531.0314331054688
z: -0.009953595697879791
visibility: 0.9868518114089966
",4.490183115005493,"x: 235.0691680908203
y: 362.0593566894531
z: 0.0
","x: 230.1901397705078
y: 363.9532165527344
z: -0.00022915206500329077
","x: 226.36842346191406
y: 369.5159912109375
z: -0.0013785518240183592
","x: 224.7501678466797
y: 374.6950988769531
z: -0.0026523899286985397
","x: 225.05101013183594
y: 378.65887451171875
z: -0.0034588088747113943
","x: 228.07379150390625
y: 376.4896240234375
z: -0.004457981325685978
","x: 226.79208374023438
y: 387.39306640625
z: -0.006422427482903004
","x: 226.98500061035156
y: 387.242919921875
z: -0.0056587266735732555
","x: 227.55215454101562
y: 384.1756896972656
z: -0.004521660506725311
","x: 231.08883666992188
y: 378.00347900390625
z: -0.005663461983203888
","x: 229.8608856201172
y: 389.2317199707031
z: -0.0074217915534973145
","x: 229.89346313476562
y: 388.14520263671875
z: -0.005653532221913338
","x: 230.36428833007812
y: 384.4036865234375
z: -0.0038251695223152637
","x: 233.9805145263672
y: 378.4048156738281
z: -0.0067898305132985115
","x: 233.04347229003906
y: 388.4350280761719
z: -0.007897566072642803
","x: 232.80418395996094
y: 387.2704772949219
z: -0.0054879277013242245
","x: 232.85488891601562
y: 384.1032409667969
z: -0.003567702602595091
","x: 236.66897583007812
y: 378.18353271484375
z: -0.008045874536037445
","x: 236.01414489746094
y: 386.6197204589844
z: -0.008894193917512894
","x: 235.5859375
y: 386.7632751464844
z: -0.00754082016646862
","x: 235.3284912109375
y: 384.88677978515625
z: -0.006148636806756258
",,,,,,,,,,,,,,,,,,,,,
11,"x: 217.35772705078125
y: 243.16213989257812
z: -0.2381809502840042
visibility: 0.9999654293060303
","x: 217.5860595703125
y: 238.46737670898438
z: -0.22658948600292206
visibility: 0.9998617172241211
","x: 218.87576293945312
y: 238.09292602539062
z: -0.2265767604112625
visibility: 0.999883770942688
","x: 220.1053924560547
y: 237.7105712890625
z: -0.2266073226928711
visibility: 0.9998827576637268
","x: 213.70252990722656
y: 240.2781524658203
z: -0.22499582171440125
visibility: 0.9998261332511902
","x: 211.84722900390625
y: 241.0924072265625
z: -0.2249561995267868
visibility: 0.9998095035552979
","x: 209.79299926757812
y: 241.8762969970703
z: -0.2249404937028885
visibility: 0.9997652769088745
","x: 223.52455139160156
y: 242.0078125
z: -0.13984592258930206
visibility: 0.9997774362564087
","x: 208.24790954589844
y: 247.7696990966797
z: -0.13168032467365265
visibility: 0.999178409576416
","x: 220.89610290527344
y: 249.45213317871094
z: -0.20181222259998322
visibility: 0.9999409914016724
","x: 216.8647003173828
y: 251.1256561279297
z: -0.20186474919319153
visibility: 0.9998925924301147
","x: 240.6374969482422
y: 274.1903076171875
z: -0.1214584931731224
visibility: 0.9999818801879883
","x: 204.69552612304688
y: 292.1469421386719
z: -0.04335978999733925
visibility: 0.9996457695960999
","x: 250.22515869140625
y: 320.4960632324219
z: -0.11486662924289703
visibility: 0.9964075088500977
","x: 201.76129150390625
y: 339.413818359375
z: -0.03409083932638168
visibility: 0.8880242705345154
","x: 243.01882934570312
y: 362.4664001464844
z: -0.19409523904323578
visibility: 0.9941666722297668
","x: 197.5658416748047
y: 371.8925476074219
z: -0.139816015958786
visibility: 0.8906446099281311
","x: 238.3307342529297
y: 377.667724609375
z: -0.22060231864452362
visibility: 0.9838156700134277
","x: 194.70396423339844
y: 383.60821533203125
z: -0.16555573046207428
visibility: 0.8581434488296509
","x: 235.09486389160156
y: 375.9953308105469
z: -0.2446044683456421
visibility: 0.9853744506835938
","x: 195.0105743408203
y: 382.0736389160156
z: -0.1929207444190979
visibility: 0.8643400073051453
","x: 233.60275268554688
y: 371.3000793457031
z: -0.20374099910259247
visibility: 0.9804356098175049
","x: 196.77566528320312
y: 376.9634704589844
z: -0.15413786470890045
visibility: 0.8512895107269287
","x: 237.19142150878906
y: 370.43267822265625
z: -0.010877459309995174
visibility: 0.9996346235275269
","x: 214.17562866210938
y: 374.03009033203125
z: 0.010860474780201912
visibility: 0.9996243119239807
","x: 245.29678344726562
y: 444.4313049316406
z: -0.007608514279127121
visibility: 0.9937002658843994
","x: 217.0763397216797
y: 444.56439208984375
z: -0.011724339798092842
visibility: 0.9913709163665771
","x: 248.03912353515625
y: 502.7055358886719
z: 0.10836781561374664
visibility: 0.985160768032074
","x: 216.0795135498047
y: 507.9395751953125
z: 0.1125897616147995
visibility: 0.9916549921035767
","x: 246.61351013183594
y: 511.63446044921875
z: 0.10975860059261322
visibility: 0.8779687285423279
","x: 218.1031951904297
y: 513.559814453125
z: 0.11754083633422852
visibility: 0.8929361701011658
","x: 254.4123992919922
y: 521.7420043945312
z: -0.001985394861549139
visibility: 0.9810038805007935
","x: 213.20156860351562
y: 530.6845703125
z: 0.013973139226436615
visibility: 0.9872920513153076
",4.617546558380127,,,,,,,,,,,,,,,,,,,,,,,,,,,,,,,,,,,,,,,,,,
12,"x: 217.35772705078125
y: 243.16213989257812
z: -0.2381809502840042
visibility: 0.9999654293060303
","x: 217.5860595703125
y: 238.46737670898438
z: -0.22658948600292206
visibility: 0.9998617172241211
","x: 218.87576293945312
y: 238.09292602539062
z: -0.2265767604112625
visibility: 0.999883770942688
","x: 220.1053924560547
y: 237.7105712890625
z: -0.2266073226928711
visibility: 0.9998827576637268
","x: 213.70252990722656
y: 240.2781524658203
z: -0.22499582171440125
visibility: 0.9998261332511902
","x: 211.84722900390625
y: 241.0924072265625
z: -0.2249561995267868
visibility: 0.9998095035552979
","x: 209.79299926757812
y: 241.8762969970703
z: -0.2249404937028885
visibility: 0.9997652769088745
","x: 223.52455139160156
y: 242.0078125
z: -0.13984592258930206
visibility: 0.9997774362564087
","x: 208.24790954589844
y: 247.7696990966797
z: -0.13168032467365265
visibility: 0.999178409576416
","x: 220.89610290527344
y: 249.45213317871094
z: -0.20181222259998322
visibility: 0.9999409914016724
","x: 216.8647003173828
y: 251.1256561279297
z: -0.20186474919319153
visibility: 0.9998925924301147
","x: 240.6374969482422
y: 274.1903076171875
z: -0.1214584931731224
visibility: 0.9999818801879883
","x: 204.69552612304688
y: 292.1469421386719
z: -0.04335978999733925
visibility: 0.9996457695960999
","x: 250.22515869140625
y: 320.4960632324219
z: -0.11486662924289703
visibility: 0.9964075088500977
","x: 201.76129150390625
y: 339.413818359375
z: -0.03409083932638168
visibility: 0.8880242705345154
","x: 243.01882934570312
y: 362.4664001464844
z: -0.19409523904323578
visibility: 0.9941666722297668
","x: 197.5658416748047
y: 371.8925476074219
z: -0.139816015958786
visibility: 0.8906446099281311
","x: 238.3307342529297
y: 377.667724609375
z: -0.22060231864452362
visibility: 0.9838156700134277
","x: 194.70396423339844
y: 383.60821533203125
z: -0.16555573046207428
visibility: 0.8581434488296509
","x: 235.09486389160156
y: 375.9953308105469
z: -0.2446044683456421
visibility: 0.9853744506835938
","x: 195.0105743408203
y: 382.0736389160156
z: -0.1929207444190979
visibility: 0.8643400073051453
","x: 233.60275268554688
y: 371.3000793457031
z: -0.20374099910259247
visibility: 0.9804356098175049
","x: 196.77566528320312
y: 376.9634704589844
z: -0.15413786470890045
visibility: 0.8512895107269287
","x: 237.19142150878906
y: 370.43267822265625
z: -0.010877459309995174
visibility: 0.9996346235275269
","x: 214.17562866210938
y: 374.03009033203125
z: 0.010860474780201912
visibility: 0.9996243119239807
","x: 245.29678344726562
y: 444.4313049316406
z: -0.007608514279127121
visibility: 0.9937002658843994
","x: 217.0763397216797
y: 444.56439208984375
z: -0.011724339798092842
visibility: 0.9913709163665771
","x: 248.03912353515625
y: 502.7055358886719
z: 0.10836781561374664
visibility: 0.985160768032074
","x: 216.0795135498047
y: 507.9395751953125
z: 0.1125897616147995
visibility: 0.9916549921035767
","x: 246.61351013183594
y: 511.63446044921875
z: 0.10975860059261322
visibility: 0.8779687285423279
","x: 218.1031951904297
y: 513.559814453125
z: 0.11754083633422852
visibility: 0.8929361701011658
","x: 254.4123992919922
y: 521.7420043945312
z: -0.001985394861549139
visibility: 0.9810038805007935
","x: 213.20156860351562
y: 530.6845703125
z: 0.013973139226436615
visibility: 0.9872920513153076
",4.617546558380127,,,,,,,,,,,,,,,,,,,,,,,,,,,,,,,,,,,,,,,,,,
13,"x: 229.1137237548828
y: 243.3392333984375
z: -0.19161979854106903
visibility: 0.99996018409729
","x: 230.45681762695312
y: 238.51605224609375
z: -0.1810423582792282
visibility: 0.9998461008071899
","x: 231.82907104492188
y: 238.260986328125
z: -0.18106703460216522
visibility: 0.9998669624328613
","x: 233.10740661621094
y: 238.0120086669922
z: -0.1810610592365265
visibility: 0.9998670220375061
","x: 226.56163024902344
y: 239.93869018554688
z: -0.17730800807476044
visibility: 0.9998082518577576
","x: 225.19305419921875
y: 240.58023071289062
z: -0.17731072008609772
visibility: 0.9997914433479309
","x: 223.86111450195312
y: 241.17312622070312
z: -0.17731556296348572
visibility: 0.9997506141662598
","x: 235.21925354003906
y: 242.1406707763672
z: -0.1026410236954689
visibility: 0.9997625946998596
","x: 222.33016967773438
y: 246.3159942626953
z: -0.08577651530504227
visibility: 0.999161422252655
","x: 232.0704803466797
y: 249.74966430664062
z: -0.16148021817207336
visibility: 0.9999346733093262
","x: 227.36883544921875
y: 251.0701141357422
z: -0.15683147311210632
visibility: 0.9998835325241089
","x: 250.43714904785156
y: 274.85357666015625
z: -0.057135384529829025
visibility: 0.9999766945838928
","x: 214.37677001953125
y: 284.8410339355469
z: -0.009171206504106522
visibility: 0.9996518492698669
","x: 260.87030029296875
y: 317.94781494140625
z: -0.03407251089811325
visibility: 0.9958994388580322
","x: 205.78536987304688
y: 321.0296630859375
z: 0.006427963264286518
visibility: 0.8913532495498657
","x: 257.2159118652344
y: 355.48687744140625
z: -0.10924337059259415
visibility: 0.992711067199707
","x: 198.5528564453125
y: 344.004150390625
z: -0.12716731429100037
visibility: 0.8934857249259949
","x: 255.24484252929688
y: 368.2288818359375
z: -0.13098779320716858
visibility: 0.9806796908378601
","x: 194.65869140625
y: 355.3384094238281
z: -0.15090952813625336
visibility: 0.8603996634483337
","x: 253.2181854248047
y: 365.1678161621094
z: -0.155959814786911
visibility: 0.982326328754425
","x: 194.83731079101562
y: 356.0227966308594
z: -0.17886191606521606
visibility: 0.8670856952667236
","x: 253.27088928222656
y: 359.5605163574219
z: -0.11973661184310913
visibility: 0.9764575362205505
","x: 196.84011840820312
y: 352.928466796875
z: -0.14074251055717468
visibility: 0.85472571849823
","x: 245.34864807128906
y: 370.626953125
z: -0.008467971347272396
visibility: 0.9996058344841003
","x: 222.46755981445312
y: 373.3216552734375
z: 0.008480118587613106
visibility: 0.9996135234832764
","x: 248.73544311523438
y: 444.7410888671875
z: -0.008179952390491962
visibility: 0.9940435886383057
","x: 222.2336883544922
y: 445.4911804199219
z: -0.0199766643345356
visibility: 0.9920068383216858
","x: 251.1673126220703
y: 504.07000732421875
z: 0.10559616982936859
visibility: 0.986208438873291
","x: 216.71322631835938
y: 507.9586181640625
z: 0.07829432189464569
visibility: 0.9921566843986511
","x: 249.5299530029297
y: 512.5789794921875
z: 0.1066339984536171
visibility: 0.8790709972381592
","x: 218.16590881347656
y: 513.9560546875
z: 0.08065377175807953
visibility: 0.895386815071106
","x: 255.78085327148438
y: 522.4512939453125
z: -0.0049246628768742085
visibility: 0.981877863407135
","x: 213.1439208984375
y: 530.7189331054688
z: -0.027049247175455093
visibility: 0.9878411889076233
",4.7602880001068115,,,,,,,,,,,,,,,,,,,,,,,,,,,,,,,,,,,,,,,,,,
14,"x: 229.1137237548828
y: 243.3392333984375
z: -0.19161979854106903
visibility: 0.99996018409729
","x: 230.45681762695312
y: 238.51605224609375
z: -0.1810423582792282
visibility: 0.9998461008071899
","x: 231.82907104492188
y: 238.260986328125
z: -0.18106703460216522
visibility: 0.9998669624328613
","x: 233.10740661621094
y: 238.0120086669922
z: -0.1810610592365265
visibility: 0.9998670220375061
","x: 226.56163024902344
y: 239.93869018554688
z: -0.17730800807476044
visibility: 0.9998082518577576
","x: 225.19305419921875
y: 240.58023071289062
z: -0.17731072008609772
visibility: 0.9997914433479309
","x: 223.86111450195312
y: 241.17312622070312
z: -0.17731556296348572
visibility: 0.9997506141662598
","x: 235.21925354003906
y: 242.1406707763672
z: -0.1026410236954689
visibility: 0.9997625946998596
","x: 222.33016967773438
y: 246.3159942626953
z: -0.08577651530504227
visibility: 0.999161422252655
","x: 232.0704803466797
y: 249.74966430664062
z: -0.16148021817207336
visibility: 0.9999346733093262
","x: 227.36883544921875
y: 251.0701141357422
z: -0.15683147311210632
visibility: 0.9998835325241089
","x: 250.43714904785156
y: 274.85357666015625
z: -0.057135384529829025
visibility: 0.9999766945838928
","x: 214.37677001953125
y: 284.8410339355469
z: -0.009171206504106522
visibility: 0.9996518492698669
","x: 260.87030029296875
y: 317.94781494140625
z: -0.03407251089811325
visibility: 0.9958994388580322
","x: 205.78536987304688
y: 321.0296630859375
z: 0.006427963264286518
visibility: 0.8913532495498657
","x: 257.2159118652344
y: 355.48687744140625
z: -0.10924337059259415
visibility: 0.992711067199707
","x: 198.5528564453125
y: 344.004150390625
z: -0.12716731429100037
visibility: 0.8934857249259949
","x: 255.24484252929688
y: 368.2288818359375
z: -0.13098779320716858
visibility: 0.9806796908378601
","x: 194.65869140625
y: 355.3384094238281
z: -0.15090952813625336
visibility: 0.8603996634483337
","x: 253.2181854248047
y: 365.1678161621094
z: -0.155959814786911
visibility: 0.982326328754425
","x: 194.83731079101562
y: 356.0227966308594
z: -0.17886191606521606
visibility: 0.8670856952667236
","x: 253.27088928222656
y: 359.5605163574219
z: -0.11973661184310913
visibility: 0.9764575362205505
","x: 196.84011840820312
y: 352.928466796875
z: -0.14074251055717468
visibility: 0.85472571849823
","x: 245.34864807128906
y: 370.626953125
z: -0.008467971347272396
visibility: 0.9996058344841003
","x: 222.46755981445312
y: 373.3216552734375
z: 0.008480118587613106
visibility: 0.9996135234832764
","x: 248.73544311523438
y: 444.7410888671875
z: -0.008179952390491962
visibility: 0.9940435886383057
","x: 222.2336883544922
y: 445.4911804199219
z: -0.0199766643345356
visibility: 0.9920068383216858
","x: 251.1673126220703
y: 504.07000732421875
z: 0.10559616982936859
visibility: 0.986208438873291
","x: 216.71322631835938
y: 507.9586181640625
z: 0.07829432189464569
visibility: 0.9921566843986511
","x: 249.5299530029297
y: 512.5789794921875
z: 0.1066339984536171
visibility: 0.8790709972381592
","x: 218.16590881347656
y: 513.9560546875
z: 0.08065377175807953
visibility: 0.895386815071106
","x: 255.78085327148438
y: 522.4512939453125
z: -0.0049246628768742085
visibility: 0.981877863407135
","x: 213.1439208984375
y: 530.7189331054688
z: -0.027049247175455093
visibility: 0.9878411889076233
",4.7602880001068115,,,,,,,,,,,,,,,,,,,,,,,,,,,,,,,,,,,,,,,,,,
15,"x: 238.55113220214844
y: 243.52481079101562
z: -0.13281700015068054
visibility: 0.9999582767486572
","x: 239.75941467285156
y: 238.6555633544922
z: -0.11773421615362167
visibility: 0.9998477697372437
","x: 240.89642333984375
y: 238.45755004882812
z: -0.11774774640798569
visibility: 0.9998641014099121
","x: 241.89085388183594
y: 238.25753784179688
z: -0.1177443265914917
visibility: 0.9998648166656494
","x: 236.16641235351562
y: 239.77774047851562
z: -0.11671896278858185
visibility: 0.9998149871826172
","x: 234.8396759033203
y: 240.2430877685547
z: -0.11672060191631317
visibility: 0.9997987747192383
","x: 233.52886962890625
y: 240.630859375
z: -0.11672419309616089
visibility: 0.9997646808624268
","x: 243.23243713378906
y: 242.11427307128906
z: -0.028750265017151833
visibility: 0.9997563362121582
","x: 231.2095184326172
y: 244.84678649902344
z: -0.024177495390176773
visibility: 0.9992238283157349
","x: 240.6887969970703
y: 249.90476989746094
z: -0.09940065443515778
visibility: 0.9999328255653381
","x: 236.4008026123047
y: 251.14320373535156
z: -0.09816000610589981
visibility: 0.9998896718025208
","x: 255.20315551757812
y: 275.2086486816406
z: 0.015266409143805504
visibility: 0.9999735355377197
","x: 221.82838439941406
y: 280.1367492675781
z: 0.025847535580396652
visibility: 0.9996737241744995
","x: 266.2797546386719
y: 316.1531982421875
z: -0.009362800046801567
visibility: 0.9945316910743713
","x: 210.69447326660156
y: 319.7897644042969
z: -0.007273378781974316
visibility: 0.8992807865142822
","x: 262.1982421875
y: 343.5302429199219
z: -0.13730686902999878
visibility: 0.9912456274032593
","x: 228.2860565185547
y: 340.4197998046875
z: -0.16538812220096588
visibility: 0.9013081192970276
","x: 259.7059326171875
y: 353.4423828125
z: -0.15488462150096893
visibility: 0.97845458984375
","x: 232.73162841796875
y: 349.1097717285156
z: -0.20506110787391663
visibility: 0.869360089302063
","x: 257.2676696777344
y: 348.8891906738281
z: -0.1891031116247177
visibility: 0.9800206422805786
","x: 235.0789031982422
y: 342.7659912109375
z: -0.21565523743629456
visibility: 0.8753572702407837
","x: 257.6633605957031
y: 344.9666748046875
z: -0.1478637307882309
visibility: 0.9729219079017639
","x: 234.2310333251953
y: 339.512451171875
z: -0.17232535779476166
visibility: 0.862148642539978
","x: 251.04544067382812
y: 369.3369140625
z: -0.00527240289375186
visibility: 0.9996041059494019
","x: 228.69728088378906
y: 370.2743225097656
z: 0.00532520329579711
visibility: 0.9996177554130554
","x: 250.24220275878906
y: 443.9993591308594
z: -0.015558449551463127
visibility: 0.9941834211349487
","x: 232.4622802734375
y: 445.43804931640625
z: -0.01931276172399521
visibility: 0.9922773838043213
","x: 252.72291564941406
y: 506.3575439453125
z: 0.08849868178367615
visibility: 0.986924409866333
","x: 230.6184539794922
y: 507.6346435546875
z: 0.08555000275373459
visibility: 0.9923473596572876
","x: 251.5185089111328
y: 514.4228515625
z: 0.0915692001581192
visibility: 0.8787100911140442
","x: 232.06939697265625
y: 514.2161254882812
z: 0.08917742967605591
visibility: 0.8948783278465271
","x: 255.52139282226562
y: 526.0961303710938
z: -0.022686894983053207
visibility: 0.9823458790779114
","x: 229.7076873779297
y: 530.6246337890625
z: -0.02135327085852623
visibility: 0.9879283308982849
",4.911575794219971,"x: 261.40997314453125
y: 346.2572937011719
z: 0.0
","x: 259.023681640625
y: 342.8739929199219
z: -0.000770612561609596
","x: 255.8138427734375
y: 342.32269287109375
z: -0.00172846217174083
","x: 252.91639709472656
y: 343.5423278808594
z: -0.0025683066342025995
","x: 250.93695068359375
y: 344.915283203125
z: -0.003385686781257391
","x: 256.0028076171875
y: 347.68939208984375
z: -0.0036822583060711622
","x: 252.07594299316406
y: 348.6485595703125
z: -0.005284415557980537
","x: 249.6750030517578
y: 349.1492919921875
z: -0.00563820032402873
","x: 247.97781372070312
y: 349.3512268066406
z: -0.005716591142117977
","x: 256.3622741699219
y: 351.66015625
z: -0.00435205502435565
","x: 252.10772705078125
y: 352.721435546875
z: -0.00608231034129858
","x: 249.3880157470703
y: 353.27459716796875
z: -0.006454704329371452
","x: 247.42172241210938
y: 353.45721435546875
z: -0.00670285988599062
","x: 256.8582763671875
y: 354.7652893066406
z: -0.004902394488453865
","x: 253.1619873046875
y: 356.8028259277344
z: -0.006637358106672764
","x: 250.74110412597656
y: 357.5752258300781
z: -0.006965055130422115
","x: 248.86524963378906
y: 357.9281005859375
z: -0.007221265230327845
","x: 257.30859375
y: 356.96844482421875
z: -0.005490484181791544
","x: 254.80645751953125
y: 360.18780517578125
z: -0.007086735684424639
","x: 253.2218780517578
y: 361.7936706542969
z: -0.007482501678168774
","x: 251.7923583984375
y: 362.7371520996094
z: -0.007714653387665749
","x: 228.17333984375
y: 339.8443908691406
z: 0.0
","x: 232.10548400878906
y: 337.10809326171875
z: 0.0006734913913533092
","x: 235.45223999023438
y: 337.54052734375
z: -3.613632361521013e-05
","x: 237.5721435546875
y: 339.8460693359375
z: -0.0009476824779994786
","x: 238.9406280517578
y: 341.306884765625
z: -0.0019546879921108484
","x: 235.64581298828125
y: 339.5925598144531
z: -0.004094318021088839
","x: 239.5216064453125
y: 342.8396911621094
z: -0.006035615690052509
","x: 241.5131378173828
y: 345.3487548828125
z: -0.0063154324889183044
","x: 243.0528564453125
y: 347.37945556640625
z: -0.006375079974532127
","x: 234.42393493652344
y: 343.2848815917969
z: -0.005854122806340456
","x: 238.66632080078125
y: 347.46923828125
z: -0.00787160824984312
","x: 240.96072387695312
y: 350.3968505859375
z: -0.007761811837553978
","x: 242.67356872558594
y: 352.36212158203125
z: -0.007743339519947767
","x: 232.97784423828125
y: 346.5970458984375
z: -0.0073131113313138485
","x: 236.43115234375
y: 351.0652160644531
z: -0.009366712532937527
","x: 238.5111541748047
y: 353.79437255859375
z: -0.009356679394841194
","x: 240.0670623779297
y: 355.63446044921875
z: -0.009346213191747665
","x: 231.39450073242188
y: 349.3050842285156
z: -0.008677816949784756
","x: 233.4147186279297
y: 353.0028991699219
z: -0.01046115905046463
","x: 234.7306671142578
y: 354.9586181640625
z: -0.010694846510887146
","x: 235.8859405517578
y: 356.2629699707031
z: -0.010789494030177593
"
16,"x: 238.55113220214844
y: 243.52481079101562
z: -0.13281700015068054
visibility: 0.9999582767486572
","x: 239.75941467285156
y: 238.6555633544922
z: -0.11773421615362167
visibility: 0.9998477697372437
","x: 240.89642333984375
y: 238.45755004882812
z: -0.11774774640798569
visibility: 0.9998641014099121
","x: 241.89085388183594
y: 238.25753784179688
z: -0.1177443265914917
visibility: 0.9998648166656494
","x: 236.16641235351562
y: 239.77774047851562
z: -0.11671896278858185
visibility: 0.9998149871826172
","x: 234.8396759033203
y: 240.2430877685547
z: -0.11672060191631317
visibility: 0.9997987747192383
","x: 233.52886962890625
y: 240.630859375
z: -0.11672419309616089
visibility: 0.9997646808624268
","x: 243.23243713378906
y: 242.11427307128906
z: -0.028750265017151833
visibility: 0.9997563362121582
","x: 231.2095184326172
y: 244.84678649902344
z: -0.024177495390176773
visibility: 0.9992238283157349
","x: 240.6887969970703
y: 249.90476989746094
z: -0.09940065443515778
visibility: 0.9999328255653381
","x: 236.4008026123047
y: 251.14320373535156
z: -0.09816000610589981
visibility: 0.9998896718025208
","x: 255.20315551757812
y: 275.2086486816406
z: 0.015266409143805504
visibility: 0.9999735355377197
","x: 221.82838439941406
y: 280.1367492675781
z: 0.025847535580396652
visibility: 0.9996737241744995
","x: 266.2797546386719
y: 316.1531982421875
z: -0.009362800046801567
visibility: 0.9945316910743713
","x: 210.69447326660156
y: 319.7897644042969
z: -0.007273378781974316
visibility: 0.8992807865142822
","x: 262.1982421875
y: 343.5302429199219
z: -0.13730686902999878
visibility: 0.9912456274032593
","x: 228.2860565185547
y: 340.4197998046875
z: -0.16538812220096588
visibility: 0.9013081192970276
","x: 259.7059326171875
y: 353.4423828125
z: -0.15488462150096893
visibility: 0.97845458984375
","x: 232.73162841796875
y: 349.1097717285156
z: -0.20506110787391663
visibility: 0.869360089302063
","x: 257.2676696777344
y: 348.8891906738281
z: -0.1891031116247177
visibility: 0.9800206422805786
","x: 235.0789031982422
y: 342.7659912109375
z: -0.21565523743629456
visibility: 0.8753572702407837
","x: 257.6633605957031
y: 344.9666748046875
z: -0.1478637307882309
visibility: 0.9729219079017639
","x: 234.2310333251953
y: 339.512451171875
z: -0.17232535779476166
visibility: 0.862148642539978
","x: 251.04544067382812
y: 369.3369140625
z: -0.00527240289375186
visibility: 0.9996041059494019
","x: 228.69728088378906
y: 370.2743225097656
z: 0.00532520329579711
visibility: 0.9996177554130554
","x: 250.24220275878906
y: 443.9993591308594
z: -0.015558449551463127
visibility: 0.9941834211349487
","x: 232.4622802734375
y: 445.43804931640625
z: -0.01931276172399521
visibility: 0.9922773838043213
","x: 252.72291564941406
y: 506.3575439453125
z: 0.08849868178367615
visibility: 0.986924409866333
","x: 230.6184539794922
y: 507.6346435546875
z: 0.08555000275373459
visibility: 0.9923473596572876
","x: 251.5185089111328
y: 514.4228515625
z: 0.0915692001581192
visibility: 0.8787100911140442
","x: 232.06939697265625
y: 514.2161254882812
z: 0.08917742967605591
visibility: 0.8948783278465271
","x: 255.52139282226562
y: 526.0961303710938
z: -0.022686894983053207
visibility: 0.9823458790779114
","x: 229.7076873779297
y: 530.6246337890625
z: -0.02135327085852623
visibility: 0.9879283308982849
",4.911575794219971,"x: 261.40997314453125
y: 346.2572937011719
z: 0.0
","x: 259.023681640625
y: 342.8739929199219
z: -0.000770612561609596
","x: 255.8138427734375
y: 342.32269287109375
z: -0.00172846217174083
","x: 252.91639709472656
y: 343.5423278808594
z: -0.0025683066342025995
","x: 250.93695068359375
y: 344.915283203125
z: -0.003385686781257391
","x: 256.0028076171875
y: 347.68939208984375
z: -0.0036822583060711622
","x: 252.07594299316406
y: 348.6485595703125
z: -0.005284415557980537
","x: 249.6750030517578
y: 349.1492919921875
z: -0.00563820032402873
","x: 247.97781372070312
y: 349.3512268066406
z: -0.005716591142117977
","x: 256.3622741699219
y: 351.66015625
z: -0.00435205502435565
","x: 252.10772705078125
y: 352.721435546875
z: -0.00608231034129858
","x: 249.3880157470703
y: 353.27459716796875
z: -0.006454704329371452
","x: 247.42172241210938
y: 353.45721435546875
z: -0.00670285988599062
","x: 256.8582763671875
y: 354.7652893066406
z: -0.004902394488453865
","x: 253.1619873046875
y: 356.8028259277344
z: -0.006637358106672764
","x: 250.74110412597656
y: 357.5752258300781
z: -0.006965055130422115
","x: 248.86524963378906
y: 357.9281005859375
z: -0.007221265230327845
","x: 257.30859375
y: 356.96844482421875
z: -0.005490484181791544
","x: 254.80645751953125
y: 360.18780517578125
z: -0.007086735684424639
","x: 253.2218780517578
y: 361.7936706542969
z: -0.007482501678168774
","x: 251.7923583984375
y: 362.7371520996094
z: -0.007714653387665749
","x: 228.17333984375
y: 339.8443908691406
z: 0.0
","x: 232.10548400878906
y: 337.10809326171875
z: 0.0006734913913533092
","x: 235.45223999023438
y: 337.54052734375
z: -3.613632361521013e-05
","x: 237.5721435546875
y: 339.8460693359375
z: -0.0009476824779994786
","x: 238.9406280517578
y: 341.306884765625
z: -0.0019546879921108484
","x: 235.64581298828125
y: 339.5925598144531
z: -0.004094318021088839
","x: 239.5216064453125
y: 342.8396911621094
z: -0.006035615690052509
","x: 241.5131378173828
y: 345.3487548828125
z: -0.0063154324889183044
","x: 243.0528564453125
y: 347.37945556640625
z: -0.006375079974532127
","x: 234.42393493652344
y: 343.2848815917969
z: -0.005854122806340456
","x: 238.66632080078125
y: 347.46923828125
z: -0.00787160824984312
","x: 240.96072387695312
y: 350.3968505859375
z: -0.007761811837553978
","x: 242.67356872558594
y: 352.36212158203125
z: -0.007743339519947767
","x: 232.97784423828125
y: 346.5970458984375
z: -0.0073131113313138485
","x: 236.43115234375
y: 351.0652160644531
z: -0.009366712532937527
","x: 238.5111541748047
y: 353.79437255859375
z: -0.009356679394841194
","x: 240.0670623779297
y: 355.63446044921875
z: -0.009346213191747665
","x: 231.39450073242188
y: 349.3050842285156
z: -0.008677816949784756
","x: 233.4147186279297
y: 353.0028991699219
z: -0.01046115905046463
","x: 234.7306671142578
y: 354.9586181640625
z: -0.010694846510887146
","x: 235.8859405517578
y: 356.2629699707031
z: -0.010789494030177593
"
17,"x: 238.55113220214844
y: 243.52481079101562
z: -0.13281700015068054
visibility: 0.9999582767486572
","x: 239.75941467285156
y: 238.6555633544922
z: -0.11773421615362167
visibility: 0.9998477697372437
","x: 240.89642333984375
y: 238.45755004882812
z: -0.11774774640798569
visibility: 0.9998641014099121
","x: 241.89085388183594
y: 238.25753784179688
z: -0.1177443265914917
visibility: 0.9998648166656494
","x: 236.16641235351562
y: 239.77774047851562
z: -0.11671896278858185
visibility: 0.9998149871826172
","x: 234.8396759033203
y: 240.2430877685547
z: -0.11672060191631317
visibility: 0.9997987747192383
","x: 233.52886962890625
y: 240.630859375
z: -0.11672419309616089
visibility: 0.9997646808624268
","x: 243.23243713378906
y: 242.11427307128906
z: -0.028750265017151833
visibility: 0.9997563362121582
","x: 231.2095184326172
y: 244.84678649902344
z: -0.024177495390176773
visibility: 0.9992238283157349
","x: 240.6887969970703
y: 249.90476989746094
z: -0.09940065443515778
visibility: 0.9999328255653381
","x: 236.4008026123047
y: 251.14320373535156
z: -0.09816000610589981
visibility: 0.9998896718025208
","x: 255.20315551757812
y: 275.2086486816406
z: 0.015266409143805504
visibility: 0.9999735355377197
","x: 221.82838439941406
y: 280.1367492675781
z: 0.025847535580396652
visibility: 0.9996737241744995
","x: 266.2797546386719
y: 316.1531982421875
z: -0.009362800046801567
visibility: 0.9945316910743713
","x: 210.69447326660156
y: 319.7897644042969
z: -0.007273378781974316
visibility: 0.8992807865142822
","x: 262.1982421875
y: 343.5302429199219
z: -0.13730686902999878
visibility: 0.9912456274032593
","x: 228.2860565185547
y: 340.4197998046875
z: -0.16538812220096588
visibility: 0.9013081192970276
","x: 259.7059326171875
y: 353.4423828125
z: -0.15488462150096893
visibility: 0.97845458984375
","x: 232.73162841796875
y: 349.1097717285156
z: -0.20506110787391663
visibility: 0.869360089302063
","x: 257.2676696777344
y: 348.8891906738281
z: -0.1891031116247177
visibility: 0.9800206422805786
","x: 235.0789031982422
y: 342.7659912109375
z: -0.21565523743629456
visibility: 0.8753572702407837
","x: 257.6633605957031
y: 344.9666748046875
z: -0.1478637307882309
visibility: 0.9729219079017639
","x: 234.2310333251953
y: 339.512451171875
z: -0.17232535779476166
visibility: 0.862148642539978
","x: 251.04544067382812
y: 369.3369140625
z: -0.00527240289375186
visibility: 0.9996041059494019
","x: 228.69728088378906
y: 370.2743225097656
z: 0.00532520329579711
visibility: 0.9996177554130554
","x: 250.24220275878906
y: 443.9993591308594
z: -0.015558449551463127
visibility: 0.9941834211349487
","x: 232.4622802734375
y: 445.43804931640625
z: -0.01931276172399521
visibility: 0.9922773838043213
","x: 252.72291564941406
y: 506.3575439453125
z: 0.08849868178367615
visibility: 0.986924409866333
","x: 230.6184539794922
y: 507.6346435546875
z: 0.08555000275373459
visibility: 0.9923473596572876
","x: 251.5185089111328
y: 514.4228515625
z: 0.0915692001581192
visibility: 0.8787100911140442
","x: 232.06939697265625
y: 514.2161254882812
z: 0.08917742967605591
visibility: 0.8948783278465271
","x: 255.52139282226562
y: 526.0961303710938
z: -0.022686894983053207
visibility: 0.9823458790779114
","x: 229.7076873779297
y: 530.6246337890625
z: -0.02135327085852623
visibility: 0.9879283308982849
",4.911575794219971,"x: 261.40997314453125
y: 346.2572937011719
z: 0.0
","x: 259.023681640625
y: 342.8739929199219
z: -0.000770612561609596
","x: 255.8138427734375
y: 342.32269287109375
z: -0.00172846217174083
","x: 252.91639709472656
y: 343.5423278808594
z: -0.0025683066342025995
","x: 250.93695068359375
y: 344.915283203125
z: -0.003385686781257391
","x: 256.0028076171875
y: 347.68939208984375
z: -0.0036822583060711622
","x: 252.07594299316406
y: 348.6485595703125
z: -0.005284415557980537
","x: 249.6750030517578
y: 349.1492919921875
z: -0.00563820032402873
","x: 247.97781372070312
y: 349.3512268066406
z: -0.005716591142117977
","x: 256.3622741699219
y: 351.66015625
z: -0.00435205502435565
","x: 252.10772705078125
y: 352.721435546875
z: -0.00608231034129858
","x: 249.3880157470703
y: 353.27459716796875
z: -0.006454704329371452
","x: 247.42172241210938
y: 353.45721435546875
z: -0.00670285988599062
","x: 256.8582763671875
y: 354.7652893066406
z: -0.004902394488453865
","x: 253.1619873046875
y: 356.8028259277344
z: -0.006637358106672764
","x: 250.74110412597656
y: 357.5752258300781
z: -0.006965055130422115
","x: 248.86524963378906
y: 357.9281005859375
z: -0.007221265230327845
","x: 257.30859375
y: 356.96844482421875
z: -0.005490484181791544
","x: 254.80645751953125
y: 360.18780517578125
z: -0.007086735684424639
","x: 253.2218780517578
y: 361.7936706542969
z: -0.007482501678168774
","x: 251.7923583984375
y: 362.7371520996094
z: -0.007714653387665749
","x: 228.17333984375
y: 339.8443908691406
z: 0.0
","x: 232.10548400878906
y: 337.10809326171875
z: 0.0006734913913533092
","x: 235.45223999023438
y: 337.54052734375
z: -3.613632361521013e-05
","x: 237.5721435546875
y: 339.8460693359375
z: -0.0009476824779994786
","x: 238.9406280517578
y: 341.306884765625
z: -0.0019546879921108484
","x: 235.64581298828125
y: 339.5925598144531
z: -0.004094318021088839
","x: 239.5216064453125
y: 342.8396911621094
z: -0.006035615690052509
","x: 241.5131378173828
y: 345.3487548828125
z: -0.0063154324889183044
","x: 243.0528564453125
y: 347.37945556640625
z: -0.006375079974532127
","x: 234.42393493652344
y: 343.2848815917969
z: -0.005854122806340456
","x: 238.66632080078125
y: 347.46923828125
z: -0.00787160824984312
","x: 240.96072387695312
y: 350.3968505859375
z: -0.007761811837553978
","x: 242.67356872558594
y: 352.36212158203125
z: -0.007743339519947767
","x: 232.97784423828125
y: 346.5970458984375
z: -0.0073131113313138485
","x: 236.43115234375
y: 351.0652160644531
z: -0.009366712532937527
","x: 238.5111541748047
y: 353.79437255859375
z: -0.009356679394841194
","x: 240.0670623779297
y: 355.63446044921875
z: -0.009346213191747665
","x: 231.39450073242188
y: 349.3050842285156
z: -0.008677816949784756
","x: 233.4147186279297
y: 353.0028991699219
z: -0.01046115905046463
","x: 234.7306671142578
y: 354.9586181640625
z: -0.010694846510887146
","x: 235.8859405517578
y: 356.2629699707031
z: -0.010789494030177593
"
18,"x: 238.55113220214844
y: 243.52481079101562
z: -0.13281700015068054
visibility: 0.9999582767486572
","x: 239.75941467285156
y: 238.6555633544922
z: -0.11773421615362167
visibility: 0.9998477697372437
","x: 240.89642333984375
y: 238.45755004882812
z: -0.11774774640798569
visibility: 0.9998641014099121
","x: 241.89085388183594
y: 238.25753784179688
z: -0.1177443265914917
visibility: 0.9998648166656494
","x: 236.16641235351562
y: 239.77774047851562
z: -0.11671896278858185
visibility: 0.9998149871826172
","x: 234.8396759033203
y: 240.2430877685547
z: -0.11672060191631317
visibility: 0.9997987747192383
","x: 233.52886962890625
y: 240.630859375
z: -0.11672419309616089
visibility: 0.9997646808624268
","x: 243.23243713378906
y: 242.11427307128906
z: -0.028750265017151833
visibility: 0.9997563362121582
","x: 231.2095184326172
y: 244.84678649902344
z: -0.024177495390176773
visibility: 0.9992238283157349
","x: 240.6887969970703
y: 249.90476989746094
z: -0.09940065443515778
visibility: 0.9999328255653381
","x: 236.4008026123047
y: 251.14320373535156
z: -0.09816000610589981
visibility: 0.9998896718025208
","x: 255.20315551757812
y: 275.2086486816406
z: 0.015266409143805504
visibility: 0.9999735355377197
","x: 221.82838439941406
y: 280.1367492675781
z: 0.025847535580396652
visibility: 0.9996737241744995
","x: 266.2797546386719
y: 316.1531982421875
z: -0.009362800046801567
visibility: 0.9945316910743713
","x: 210.69447326660156
y: 319.7897644042969
z: -0.007273378781974316
visibility: 0.8992807865142822
","x: 262.1982421875
y: 343.5302429199219
z: -0.13730686902999878
visibility: 0.9912456274032593
","x: 228.2860565185547
y: 340.4197998046875
z: -0.16538812220096588
visibility: 0.9013081192970276
","x: 259.7059326171875
y: 353.4423828125
z: -0.15488462150096893
visibility: 0.97845458984375
","x: 232.73162841796875
y: 349.1097717285156
z: -0.20506110787391663
visibility: 0.869360089302063
","x: 257.2676696777344
y: 348.8891906738281
z: -0.1891031116247177
visibility: 0.9800206422805786
","x: 235.0789031982422
y: 342.7659912109375
z: -0.21565523743629456
visibility: 0.8753572702407837
","x: 257.6633605957031
y: 344.9666748046875
z: -0.1478637307882309
visibility: 0.9729219079017639
","x: 234.2310333251953
y: 339.512451171875
z: -0.17232535779476166
visibility: 0.862148642539978
","x: 251.04544067382812
y: 369.3369140625
z: -0.00527240289375186
visibility: 0.9996041059494019
","x: 228.69728088378906
y: 370.2743225097656
z: 0.00532520329579711
visibility: 0.9996177554130554
","x: 250.24220275878906
y: 443.9993591308594
z: -0.015558449551463127
visibility: 0.9941834211349487
","x: 232.4622802734375
y: 445.43804931640625
z: -0.01931276172399521
visibility: 0.9922773838043213
","x: 252.72291564941406
y: 506.3575439453125
z: 0.08849868178367615
visibility: 0.986924409866333
","x: 230.6184539794922
y: 507.6346435546875
z: 0.08555000275373459
visibility: 0.9923473596572876
","x: 251.5185089111328
y: 514.4228515625
z: 0.0915692001581192
visibility: 0.8787100911140442
","x: 232.06939697265625
y: 514.2161254882812
z: 0.08917742967605591
visibility: 0.8948783278465271
","x: 255.52139282226562
y: 526.0961303710938
z: -0.022686894983053207
visibility: 0.9823458790779114
","x: 229.7076873779297
y: 530.6246337890625
z: -0.02135327085852623
visibility: 0.9879283308982849
",4.911575794219971,"x: 261.40997314453125
y: 346.2572937011719
z: 0.0
","x: 259.023681640625
y: 342.8739929199219
z: -0.000770612561609596
","x: 255.8138427734375
y: 342.32269287109375
z: -0.00172846217174083
","x: 252.91639709472656
y: 343.5423278808594
z: -0.0025683066342025995
","x: 250.93695068359375
y: 344.915283203125
z: -0.003385686781257391
","x: 256.0028076171875
y: 347.68939208984375
z: -0.0036822583060711622
","x: 252.07594299316406
y: 348.6485595703125
z: -0.005284415557980537
","x: 249.6750030517578
y: 349.1492919921875
z: -0.00563820032402873
","x: 247.97781372070312
y: 349.3512268066406
z: -0.005716591142117977
","x: 256.3622741699219
y: 351.66015625
z: -0.00435205502435565
","x: 252.10772705078125
y: 352.721435546875
z: -0.00608231034129858
","x: 249.3880157470703
y: 353.27459716796875
z: -0.006454704329371452
","x: 247.42172241210938
y: 353.45721435546875
z: -0.00670285988599062
","x: 256.8582763671875
y: 354.7652893066406
z: -0.004902394488453865
","x: 253.1619873046875
y: 356.8028259277344
z: -0.006637358106672764
","x: 250.74110412597656
y: 357.5752258300781
z: -0.006965055130422115
","x: 248.86524963378906
y: 357.9281005859375
z: -0.007221265230327845
","x: 257.30859375
y: 356.96844482421875
z: -0.005490484181791544
","x: 254.80645751953125
y: 360.18780517578125
z: -0.007086735684424639
","x: 253.2218780517578
y: 361.7936706542969
z: -0.007482501678168774
","x: 251.7923583984375
y: 362.7371520996094
z: -0.007714653387665749
","x: 228.17333984375
y: 339.8443908691406
z: 0.0
","x: 232.10548400878906
y: 337.10809326171875
z: 0.0006734913913533092
","x: 235.45223999023438
y: 337.54052734375
z: -3.613632361521013e-05
","x: 237.5721435546875
y: 339.8460693359375
z: -0.0009476824779994786
","x: 238.9406280517578
y: 341.306884765625
z: -0.0019546879921108484
","x: 235.64581298828125
y: 339.5925598144531
z: -0.004094318021088839
","x: 239.5216064453125
y: 342.8396911621094
z: -0.006035615690052509
","x: 241.5131378173828
y: 345.3487548828125
z: -0.0063154324889183044
","x: 243.0528564453125
y: 347.37945556640625
z: -0.006375079974532127
","x: 234.42393493652344
y: 343.2848815917969
z: -0.005854122806340456
","x: 238.66632080078125
y: 347.46923828125
z: -0.00787160824984312
","x: 240.96072387695312
y: 350.3968505859375
z: -0.007761811837553978
","x: 242.67356872558594
y: 352.36212158203125
z: -0.007743339519947767
","x: 232.97784423828125
y: 346.5970458984375
z: -0.0073131113313138485
","x: 236.43115234375
y: 351.0652160644531
z: -0.009366712532937527
","x: 238.5111541748047
y: 353.79437255859375
z: -0.009356679394841194
","x: 240.0670623779297
y: 355.63446044921875
z: -0.009346213191747665
","x: 231.39450073242188
y: 349.3050842285156
z: -0.008677816949784756
","x: 233.4147186279297
y: 353.0028991699219
z: -0.01046115905046463
","x: 234.7306671142578
y: 354.9586181640625
z: -0.010694846510887146
","x: 235.8859405517578
y: 356.2629699707031
z: -0.010789494030177593
"
19,"x: 240.405517578125
y: 246.53302001953125
z: -0.1894923746585846
visibility: 0.9999428391456604
","x: 242.0363006591797
y: 241.2410888671875
z: -0.17822495102882385
visibility: 0.9998156428337097
","x: 243.30645751953125
y: 241.40765380859375
z: -0.17824161052703857
visibility: 0.9998098015785217
","x: 244.5084228515625
y: 241.6124725341797
z: -0.17824460566043854
visibility: 0.9998042583465576
","x: 238.25628662109375
y: 241.33729553222656
z: -0.17194028198719025
visibility: 0.9998005628585815
","x: 236.98617553710938
y: 241.5510711669922
z: -0.17192700505256653
visibility: 0.9997852444648743
","x: 235.68690490722656
y: 241.7723388671875
z: -0.17183752357959747
visibility: 0.9997631311416626
","x: 245.8230438232422
y: 245.6153564453125
z: -0.08076874911785126
visibility: 0.999505341053009
","x: 233.25901794433594
y: 245.98890686035156
z: -0.07843288779258728
visibility: 0.9992620348930359
","x: 242.30836486816406
y: 253.91488647460938
z: -0.15818536281585693
visibility: 0.999889075756073
","x: 237.53285217285156
y: 253.53643798828125
z: -0.154908686876297
visibility: 0.9998777508735657
","x: 253.22805786132812
y: 278.7215576171875
z: 0.007275971584022045
visibility: 0.9998380541801453
","x: 225.8564453125
y: 281.4691467285156
z: -0.07449207454919815
visibility: 0.9996911287307739
","x: 260.7538757324219
y: 317.0470275878906
z: 0.01011625211685896
visibility: 0.9361201524734497
","x: 228.10585021972656
y: 330.222900390625
z: -0.08729766309261322
visibility: 0.9075456261634827
","x: 262.2889404296875
y: 335.5981750488281
z: -0.12907059490680695
visibility: 0.934008777141571
","x: 252.7554168701172
y: 349.939697265625
z: -0.14898627996444702
visibility: 0.9078258872032166
","x: 263.5953369140625
y: 342.13934326171875
z: -0.15892276167869568
visibility: 0.9212848544120789
","x: 256.25482177734375
y: 361.4422607421875
z: -0.1783357709646225
visibility: 0.8757060170173645
","x: 262.7180480957031
y: 338.09033203125
z: -0.1797088235616684
visibility: 0.924468994140625
","x: 259.9189453125
y: 357.59112548828125
z: -0.19474360346794128
visibility: 0.8810693025588989
","x: 261.38873291015625
y: 335.4452209472656
z: -0.14135226607322693
visibility: 0.9139587879180908
","x: 258.8870849609375
y: 353.2449951171875
z: -0.15553155541419983
visibility: 0.8658028841018677
","x: 251.35745239257812
y: 371.59722900390625
z: 0.018514635041356087
visibility: 0.9995858073234558
","x: 230.133544921875
y: 372.75408935546875
z: -0.018546467646956444
visibility: 0.999604344367981
","x: 255.19961547851562
y: 446.1541748046875
z: -0.032181888818740845
visibility: 0.9942957758903503
","x: 233.09747314453125
y: 448.2051086425781
z: -0.02660018764436245
visibility: 0.9925751686096191
","x: 254.586669921875
y: 506.457763671875
z: 0.0977415069937706
visibility: 0.9877032041549683
","x: 231.44439697265625
y: 507.68194580078125
z: 0.13786782324314117
visibility: 0.9923526048660278
","x: 252.30088806152344
y: 514.345947265625
z: 0.10496951639652252
visibility: 0.8841137290000916
","x: 232.46490478515625
y: 514.3396606445312
z: 0.1497960388660431
visibility: 0.891105055809021
","x: 257.15478515625
y: 528.54931640625
z: -0.007435613311827183
visibility: 0.9831522107124329
","x: 230.3089599609375
y: 530.6868896484375
z: 0.04294697195291519
visibility: 0.9880809187889099
",5.051473617553711,,,,,,,,,,,,,,,,,,,,,,,,,,,,,,,,,,,,,,,,,,
20,"x: 240.405517578125
y: 246.53302001953125
z: -0.1894923746585846
visibility: 0.9999428391456604
","x: 242.0363006591797
y: 241.2410888671875
z: -0.17822495102882385
visibility: 0.9998156428337097
","x: 243.30645751953125
y: 241.40765380859375
z: -0.17824161052703857
visibility: 0.9998098015785217
","x: 244.5084228515625
y: 241.6124725341797
z: -0.17824460566043854
visibility: 0.9998042583465576
","x: 238.25628662109375
y: 241.33729553222656
z: -0.17194028198719025
visibility: 0.9998005628585815
","x: 236.98617553710938
y: 241.5510711669922
z: -0.17192700505256653
visibility: 0.9997852444648743
","x: 235.68690490722656
y: 241.7723388671875
z: -0.17183752357959747
visibility: 0.9997631311416626
","x: 245.8230438232422
y: 245.6153564453125
z: -0.08076874911785126
visibility: 0.999505341053009
","x: 233.25901794433594
y: 245.98890686035156
z: -0.07843288779258728
visibility: 0.9992620348930359
","x: 242.30836486816406
y: 253.91488647460938
z: -0.15818536281585693
visibility: 0.999889075756073
","x: 237.53285217285156
y: 253.53643798828125
z: -0.154908686876297
visibility: 0.9998777508735657
","x: 253.22805786132812
y: 278.7215576171875
z: 0.007275971584022045
visibility: 0.9998380541801453
","x: 225.8564453125
y: 281.4691467285156
z: -0.07449207454919815
visibility: 0.9996911287307739
","x: 260.7538757324219
y: 317.0470275878906
z: 0.01011625211685896
visibility: 0.9361201524734497
","x: 228.10585021972656
y: 330.222900390625
z: -0.08729766309261322
visibility: 0.9075456261634827
","x: 262.2889404296875
y: 335.5981750488281
z: -0.12907059490680695
visibility: 0.934008777141571
","x: 252.7554168701172
y: 349.939697265625
z: -0.14898627996444702
visibility: 0.9078258872032166
","x: 263.5953369140625
y: 342.13934326171875
z: -0.15892276167869568
visibility: 0.9212848544120789
","x: 256.25482177734375
y: 361.4422607421875
z: -0.1783357709646225
visibility: 0.8757060170173645
","x: 262.7180480957031
y: 338.09033203125
z: -0.1797088235616684
visibility: 0.924468994140625
","x: 259.9189453125
y: 357.59112548828125
z: -0.19474360346794128
visibility: 0.8810693025588989
","x: 261.38873291015625
y: 335.4452209472656
z: -0.14135226607322693
visibility: 0.9139587879180908
","x: 258.8870849609375
y: 353.2449951171875
z: -0.15553155541419983
visibility: 0.8658028841018677
","x: 251.35745239257812
y: 371.59722900390625
z: 0.018514635041356087
visibility: 0.9995858073234558
","x: 230.133544921875
y: 372.75408935546875
z: -0.018546467646956444
visibility: 0.999604344367981
","x: 255.19961547851562
y: 446.1541748046875
z: -0.032181888818740845
visibility: 0.9942957758903503
","x: 233.09747314453125
y: 448.2051086425781
z: -0.02660018764436245
visibility: 0.9925751686096191
","x: 254.586669921875
y: 506.457763671875
z: 0.0977415069937706
visibility: 0.9877032041549683
","x: 231.44439697265625
y: 507.68194580078125
z: 0.13786782324314117
visibility: 0.9923526048660278
","x: 252.30088806152344
y: 514.345947265625
z: 0.10496951639652252
visibility: 0.8841137290000916
","x: 232.46490478515625
y: 514.3396606445312
z: 0.1497960388660431
visibility: 0.891105055809021
","x: 257.15478515625
y: 528.54931640625
z: -0.007435613311827183
visibility: 0.9831522107124329
","x: 230.3089599609375
y: 530.6868896484375
z: 0.04294697195291519
visibility: 0.9880809187889099
",5.051473617553711,,,,,,,,,,,,,,,,,,,,,,,,,,,,,,,,,,,,,,,,,,
21,"x: 241.72341918945312
y: 246.4305877685547
z: -0.19297458231449127
visibility: 0.9999428987503052
","x: 243.05543518066406
y: 240.5571746826172
z: -0.17328089475631714
visibility: 0.9998227953910828
","x: 244.1678466796875
y: 240.59613037109375
z: -0.17327629029750824
visibility: 0.9998129606246948
","x: 245.31146240234375
y: 240.65696716308594
z: -0.17326869070529938
visibility: 0.9998048543930054
","x: 239.5580596923828
y: 240.91998291015625
z: -0.17907457053661346
visibility: 0.9998108744621277
","x: 238.15185546875
y: 241.1760711669922
z: -0.17909324169158936
visibility: 0.9997972249984741
","x: 236.66619873046875
y: 241.4104461669922
z: -0.17913192510604858
visibility: 0.999778687953949
","x: 246.43312072753906
y: 244.8241424560547
z: -0.058322686702013016
visibility: 0.9994813799858093
","x: 233.70579528808594
y: 245.72482299804688
z: -0.0882456973195076
visibility: 0.9993289113044739
","x: 243.40887451171875
y: 253.80380249023438
z: -0.15032511949539185
visibility: 0.9998844861984253
","x: 239.31781005859375
y: 253.51614379882812
z: -0.15840426087379456
visibility: 0.9998827576637268
","x: 253.85104370117188
y: 278.8428955078125
z: 0.05033236742019653
visibility: 0.9997808337211609
","x: 227.1845245361328
y: 278.8648681640625
z: -0.08541429042816162
visibility: 0.9997155070304871
","x: 259.06500244140625
y: 320.50213623046875
z: 0.0872972384095192
visibility: 0.8753349184989929
","x: 228.93142700195312
y: 328.335693359375
z: -0.10424621403217316
visibility: 0.9161730408668518
","x: 263.31890869140625
y: 344.2037353515625
z: -0.021308448165655136
visibility: 0.8879925608634949
","x: 254.00181579589844
y: 334.7538757324219
z: -0.1439690738916397
visibility: 0.9158962368965149
","x: 266.292236328125
y: 354.63323974609375
z: -0.04637424275279045
visibility: 0.8749620914459229
","x: 259.3682556152344
y: 341.3576965332031
z: -0.1711428463459015
visibility: 0.885438084602356
","x: 267.4169921875
y: 351.8177490234375
z: -0.07230740785598755
visibility: 0.8799100518226624
","x: 261.46392822265625
y: 336.5950012207031
z: -0.18941174447536469
visibility: 0.8902081251144409
","x: 266.2919921875
y: 348.58514404296875
z: -0.036464665085077286
visibility: 0.8684337735176086
","x: 259.648193359375
y: 334.427734375
z: -0.1492350846529007
visibility: 0.8748219013214111
","x: 255.33619689941406
y: 370.4278564453125
z: 0.03619716316461563
visibility: 0.9996110796928406
","x: 234.29812622070312
y: 372.6407165527344
z: -0.036192070692777634
visibility: 0.9996272921562195
","x: 257.1373291015625
y: 445.7978515625
z: -0.04544905200600624
visibility: 0.9943132996559143
","x: 237.4871826171875
y: 448.1610412597656
z: -0.056384213268756866
visibility: 0.9928789138793945
","x: 254.77923583984375
y: 507.0971984863281
z: 0.09190190583467484
visibility: 0.9882897138595581
","x: 232.26409912109375
y: 507.6278381347656
z: 0.13409331440925598
visibility: 0.9918067455291748
","x: 252.04385375976562
y: 514.975341796875
z: 0.09928812086582184
visibility: 0.8915847539901733
","x: 232.46441650390625
y: 514.3306884765625
z: 0.14714547991752625
visibility: 0.8814445734024048
","x: 258.4560546875
y: 530.20263671875
z: -0.009816448204219341
visibility: 0.9838787317276001
","x: 231.76132202148438
y: 531.0027465820312
z: 0.04403277114033699
visibility: 0.9875890612602234
",5.17623233795166,,,,,,,,,,,,,,,,,,,,,,,,,,,,,,,,,,,,,,,,,,
22,"x: 241.72341918945312
y: 246.4305877685547
z: -0.19297458231449127
visibility: 0.9999428987503052
","x: 243.05543518066406
y: 240.5571746826172
z: -0.17328089475631714
visibility: 0.9998227953910828
","x: 244.1678466796875
y: 240.59613037109375
z: -0.17327629029750824
visibility: 0.9998129606246948
","x: 245.31146240234375
y: 240.65696716308594
z: -0.17326869070529938
visibility: 0.9998048543930054
