uscmakers/ReverseChoreography/data/10_party_rock_anthem_lmfao.csv
,NOSE,LEFT_EYE_INNER,LEFT_EYE,LEFT_EYE_OUTER,RIGHT_EYE_INNER,RIGHT_EYE,RIGHT_EYE_OUTER,LEFT_EAR,RIGHT_EAR,MOUTH_LEFT,MOUTH_RIGHT,LEFT_SHOULDER,RIGHT_SHOULDER,LEFT_ELBOW,RIGHT_ELBOW,LEFT_WRIST,RIGHT_WRIST,LEFT_PINKY,RIGHT_PINKY,LEFT_INDEX,RIGHT_INDEX,LEFT_THUMB,RIGHT_THUMB,LEFT_HIP,RIGHT_HIP,LEFT_KNEE,RIGHT_KNEE,LEFT_ANKLE,RIGHT_ANKLE,LEFT_HEEL,RIGHT_HEEL,LEFT_FOOT_INDEX,RIGHT_FOOT_INDEX,WRIST2,THUMB_CPC2,THUMB_MCP2,THUMB_IP2,THUMB_TIP2,INDEX_FINGER_MCP2,INDEX_FINGER_PIP2,INDEX_FINGER_DIP2,INDEX_FINGER_TIP2,MIDDLE_FINGER_MCP2,MIDDLE_FINGER_PIP2,MIDDLE_FINGER_DIP2,MIDDLE_FINGER_TIP2,RING_FINGER_PIP2,RING_FINGER_DIP2,RING_FINGER_TIP2,RING_FINGER_MCP2,PINKY_MCP2,PINKY_PIP2,PINKY_DIP2,PINKY_TIP2,TIMESTAMP,WRIST,THUMB_CPC,THUMB_MCP,THUMB_IP,THUMB_TIP,INDEX_FINGER_MCP,INDEX_FINGER_PIP,INDEX_FINGER_DIP,INDEX_FINGER_TIP,MIDDLE_FINGER_MCP,MIDDLE_FINGER_PIP,MIDDLE_FINGER_DIP,MIDDLE_FINGER_TIP,RING_FINGER_PIP,RING_FINGER_DIP,RING_FINGER_TIP,RING_FINGER_MCP,PINKY_MCP,PINKY_PIP,PINKY_DIP,PINKY_TIP
0,"x: 238.83206176757812
y: 234.82147216796875
z: -0.10078911483287811
visibility: 0.9999873638153076
","x: 241.0553436279297
y: 230.24478149414062
z: -0.08128543943166733
visibility: 0.999982476234436
","x: 242.51806640625
y: 230.68142700195312
z: -0.08130603283643723
visibility: 0.9999791383743286
","x: 244.06710815429688
y: 231.08360290527344
z: -0.08130422979593277
visibility: 0.9999819993972778
","x: 237.4269561767578
y: 229.48587036132812
z: -0.08249256759881973
visibility: 0.99997878074646
","x: 236.23348999023438
y: 229.39817810058594
z: -0.08248196542263031
visibility: 0.9999740123748779
","x: 234.91976928710938
y: 229.33612060546875
z: -0.08243536949157715
visibility: 0.999975323677063
","x: 246.67507934570312
y: 237.16712951660156
z: 0.021355435252189636
visibility: 0.9999755620956421
","x: 232.783447265625
y: 233.3412322998047
z: 0.012848058715462685
visibility: 0.9999544620513916
","x: 241.09768676757812
y: 243.8917694091797
z: -0.06362953037023544
visibility: 0.9999798536300659
","x: 236.55596923828125
y: 241.95172119140625
z: -0.06628303974866867
visibility: 0.9999788999557495
","x: 255.45848083496094
y: 273.28265380859375
z: 0.04197213426232338
visibility: 0.9999657869338989
","x: 220.61077880859375
y: 271.57794189453125
z: 0.05964719504117966
visibility: 0.9998032450675964
","x: 267.09576416015625
y: 314.5889587402344
z: -0.03561161458492279
visibility: 0.9840766787528992
","x: 203.0784149169922
y: 299.88897705078125
z: -0.043323565274477005
visibility: 0.9415772557258606
","x: 259.82928466796875
y: 333.0755920410156
z: -0.18530519306659698
visibility: 0.9837232828140259
","x: 209.04025268554688
y: 315.17584228515625
z: -0.24162821471691132
visibility: 0.899992048740387
","x: 257.5116882324219
y: 343.9706726074219
z: -0.22567620873451233
visibility: 0.966791033744812
","x: 209.20260620117188
y: 323.9046630859375
z: -0.28503814339637756
visibility: 0.8348119854927063
","x: 253.53561401367188
y: 338.77435302734375
z: -0.23797252774238586
visibility: 0.9676116108894348
","x: 213.6839599609375
y: 317.6797180175781
z: -0.29287874698638916
visibility: 0.8356085419654846
","x: 253.6485595703125
y: 335.70166015625
z: -0.19341592490673065
visibility: 0.9501366019248962
","x: 213.61656188964844
y: 316.4992370605469
z: -0.250378280878067
visibility: 0.8117001056671143
","x: 249.68873596191406
y: 373.79217529296875
z: -0.006685623433440924
visibility: 0.999887228012085
","x: 226.59251403808594
y: 375.9205627441406
z: 0.006787384860217571
visibility: 0.9998536109924316
","x: 255.9156951904297
y: 452.7721862792969
z: -0.02032560296356678
visibility: 0.997553288936615
","x: 228.63226318359375
y: 457.5151062011719
z: -0.003282832447439432
visibility: 0.9974753260612488
","x: 266.48907470703125
y: 527.14794921875
z: 0.05166509002447128
visibility: 0.9973852038383484
","x: 226.78408813476562
y: 529.5484619140625
z: 0.09093891829252243
visibility: 0.9975487589836121
","x: 264.88818359375
y: 535.6207885742188
z: 0.05068936198949814
visibility: 0.9229786992073059
","x: 229.5302276611328
y: 538.3787231445312
z: 0.09249253571033478
visibility: 0.9423246383666992
","x: 270.0268859863281
y: 553.5067138671875
z: -0.07066334038972855
visibility: 0.9938246011734009
","x: 219.68429565429688
y: 551.073974609375
z: -0.018065128475427628
visibility: 0.9948859810829163
","x: 255.80526733398438
y: 333.25787353515625
z: 0.0
","x: 252.1011199951172
y: 333.3662414550781
z: -0.0002077676763292402
","x: 248.5811767578125
y: 336.4706115722656
z: -0.0010305913165211678
","x: 246.32437133789062
y: 340.3222961425781
z: -0.001879677758552134
","x: 244.7939910888672
y: 343.564697265625
z: -0.002715602284297347
","x: 247.9979248046875
y: 339.1466979980469
z: -0.003091144375503063
","x: 245.06875610351562
y: 344.6119384765625
z: -0.004954902920871973
","x: 243.58209228515625
y: 348.22747802734375
z: -0.005467501934617758
","x: 242.56556701660156
y: 350.935546875
z: -0.005585997365415096
","x: 249.60531616210938
y: 342.1593933105469
z: -0.004075526259839535
","x: 246.88780212402344
y: 348.3648986816406
z: -0.005893421825021505
","x: 245.2777862548828
y: 352.1706848144531
z: -0.005883557256311178
","x: 244.10646057128906
y: 354.8043518066406
z: -0.005774864461272955
","x: 251.50428771972656
y: 344.8271179199219
z: -0.005001549609005451
","x: 249.17718505859375
y: 351.1160583496094
z: -0.006796129513531923
","x: 247.8164520263672
y: 354.62744140625
z: -0.006618959363549948
","x: 246.8193359375
y: 357.03338623046875
z: -0.006387741304934025
","x: 253.50491333007812
y: 346.91864013671875
z: -0.005953582935035229
","x: 251.8101806640625
y: 352.3654479980469
z: -0.007498234510421753
","x: 250.6790008544922
y: 355.5135803222656
z: -0.00760110467672348
","x: 249.6346893310547
y: 357.99798583984375
z: -0.007526945322751999
",3.749422311782837,,,,,,,,,,,,,,,,,,,,,
1,"x: 238.83206176757812
y: 234.82147216796875
z: -0.10078911483287811
visibility: 0.9999873638153076
","x: 241.0553436279297
y: 230.24478149414062
z: -0.08128543943166733
visibility: 0.999982476234436
","x: 242.51806640625
y: 230.68142700195312
z: -0.08130603283643723
visibility: 0.9999791383743286
","x: 244.06710815429688
y: 231.08360290527344
z: -0.08130422979593277
visibility: 0.9999819993972778
","x: 237.4269561767578
y: 229.48587036132812
z: -0.08249256759881973
visibility: 0.99997878074646
","x: 236.23348999023438
y: 229.39817810058594
z: -0.08248196542263031
visibility: 0.9999740123748779
","x: 234.91976928710938
y: 229.33612060546875
z: -0.08243536949157715
visibility: 0.999975323677063
","x: 246.67507934570312
y: 237.16712951660156
z: 0.021355435252189636
visibility: 0.9999755620956421
","x: 232.783447265625
y: 233.3412322998047
z: 0.012848058715462685
visibility: 0.9999544620513916
","x: 241.09768676757812
y: 243.8917694091797
z: -0.06362953037023544
visibility: 0.9999798536300659
","x: 236.55596923828125
y: 241.95172119140625
z: -0.06628303974866867
visibility: 0.9999788999557495
","x: 255.45848083496094
y: 273.28265380859375
z: 0.04197213426232338
visibility: 0.9999657869338989
","x: 220.61077880859375
y: 271.57794189453125
z: 0.05964719504117966
visibility: 0.9998032450675964
","x: 267.09576416015625
y: 314.5889587402344
z: -0.03561161458492279
visibility: 0.9840766787528992
","x: 203.0784149169922
y: 299.88897705078125
z: -0.043323565274477005
visibility: 0.9415772557258606
","x: 259.82928466796875
y: 333.0755920410156
z: -0.18530519306659698
visibility: 0.9837232828140259
","x: 209.04025268554688
y: 315.17584228515625
z: -0.24162821471691132
visibility: 0.899992048740387
","x: 257.5116882324219
y: 343.9706726074219
z: -0.22567620873451233
visibility: 0.966791033744812
","x: 209.20260620117188
y: 323.9046630859375
z: -0.28503814339637756
visibility: 0.8348119854927063
","x: 253.53561401367188
y: 338.77435302734375
z: -0.23797252774238586
visibility: 0.9676116108894348
","x: 213.6839599609375
y: 317.6797180175781
z: -0.29287874698638916
visibility: 0.8356085419654846
","x: 253.6485595703125
y: 335.70166015625
z: -0.19341592490673065
visibility: 0.9501366019248962
","x: 213.61656188964844
y: 316.4992370605469
z: -0.250378280878067
visibility: 0.8117001056671143
","x: 249.68873596191406
y: 373.79217529296875
z: -0.006685623433440924
visibility: 0.999887228012085
","x: 226.59251403808594
y: 375.9205627441406
z: 0.006787384860217571
visibility: 0.9998536109924316
","x: 255.9156951904297
y: 452.7721862792969
z: -0.02032560296356678
visibility: 0.997553288936615
","x: 228.63226318359375
y: 457.5151062011719
z: -0.003282832447439432
visibility: 0.9974753260612488
","x: 266.48907470703125
y: 527.14794921875
z: 0.05166509002447128
visibility: 0.9973852038383484
","x: 226.78408813476562
y: 529.5484619140625
z: 0.09093891829252243
visibility: 0.9975487589836121
","x: 264.88818359375
y: 535.6207885742188
z: 0.05068936198949814
visibility: 0.9229786992073059
","x: 229.5302276611328
y: 538.3787231445312
z: 0.09249253571033478
visibility: 0.9423246383666992
","x: 270.0268859863281
y: 553.5067138671875
z: -0.07066334038972855
visibility: 0.9938246011734009
","x: 219.68429565429688
y: 551.073974609375
z: -0.018065128475427628
visibility: 0.9948859810829163
","x: 255.80526733398438
y: 333.25787353515625
z: 0.0
","x: 252.1011199951172
y: 333.3662414550781
z: -0.0002077676763292402
","x: 248.5811767578125
y: 336.4706115722656
z: -0.0010305913165211678
","x: 246.32437133789062
y: 340.3222961425781
z: -0.001879677758552134
","x: 244.7939910888672
y: 343.564697265625
z: -0.002715602284297347
","x: 247.9979248046875
y: 339.1466979980469
z: -0.003091144375503063
","x: 245.06875610351562
y: 344.6119384765625
z: -0.004954902920871973
","x: 243.58209228515625
y: 348.22747802734375
z: -0.005467501934617758
","x: 242.56556701660156
y: 350.935546875
z: -0.005585997365415096
","x: 249.60531616210938
y: 342.1593933105469
z: -0.004075526259839535
","x: 246.88780212402344
y: 348.3648986816406
z: -0.005893421825021505
","x: 245.2777862548828
y: 352.1706848144531
z: -0.005883557256311178
","x: 244.10646057128906
y: 354.8043518066406
z: -0.005774864461272955
","x: 251.50428771972656
y: 344.8271179199219
z: -0.005001549609005451
","x: 249.17718505859375
y: 351.1160583496094
z: -0.006796129513531923
","x: 247.8164520263672
y: 354.62744140625
z: -0.006618959363549948
","x: 246.8193359375
y: 357.03338623046875
z: -0.006387741304934025
","x: 253.50491333007812
y: 346.91864013671875
z: -0.005953582935035229
","x: 251.8101806640625
y: 352.3654479980469
z: -0.007498234510421753
","x: 250.6790008544922
y: 355.5135803222656
z: -0.00760110467672348
","x: 249.6346893310547
y: 357.99798583984375
z: -0.007526945322751999
",3.749422311782837,,,,,,,,,,,,,,,,,,,,,
2,"x: 238.83206176757812
y: 234.82147216796875
z: -0.10078911483287811
visibility: 0.9999873638153076
","x: 241.0553436279297
y: 230.24478149414062
z: -0.08128543943166733
visibility: 0.999982476234436
","x: 242.51806640625
y: 230.68142700195312
z: -0.08130603283643723
visibility: 0.9999791383743286
","x: 244.06710815429688
y: 231.08360290527344
z: -0.08130422979593277
visibility: 0.9999819993972778
","x: 237.4269561767578
y: 229.48587036132812
z: -0.08249256759881973
visibility: 0.99997878074646
","x: 236.23348999023438
y: 229.39817810058594
z: -0.08248196542263031
visibility: 0.9999740123748779
","x: 234.91976928710938
y: 229.33612060546875
z: -0.08243536949157715
visibility: 0.999975323677063
","x: 246.67507934570312
y: 237.16712951660156
z: 0.021355435252189636
visibility: 0.9999755620956421
","x: 232.783447265625
y: 233.3412322998047
z: 0.012848058715462685
visibility: 0.9999544620513916
","x: 241.09768676757812
y: 243.8917694091797
z: -0.06362953037023544
visibility: 0.9999798536300659
","x: 236.55596923828125
y: 241.95172119140625
z: -0.06628303974866867
visibility: 0.9999788999557495
","x: 255.45848083496094
y: 273.28265380859375
z: 0.04197213426232338
visibility: 0.9999657869338989
","x: 220.61077880859375
y: 271.57794189453125
z: 0.05964719504117966
visibility: 0.9998032450675964
","x: 267.09576416015625
y: 314.5889587402344
z: -0.03561161458492279
visibility: 0.9840766787528992
","x: 203.0784149169922
y: 299.88897705078125
z: -0.043323565274477005
visibility: 0.9415772557258606
","x: 259.82928466796875
y: 333.0755920410156
z: -0.18530519306659698
visibility: 0.9837232828140259
","x: 209.04025268554688
y: 315.17584228515625
z: -0.24162821471691132
visibility: 0.899992048740387
","x: 257.5116882324219
y: 343.9706726074219
z: -0.22567620873451233
visibility: 0.966791033744812
","x: 209.20260620117188
y: 323.9046630859375
z: -0.28503814339637756
visibility: 0.8348119854927063
","x: 253.53561401367188
y: 338.77435302734375
z: -0.23797252774238586
visibility: 0.9676116108894348
","x: 213.6839599609375
y: 317.6797180175781
z: -0.29287874698638916
visibility: 0.8356085419654846
","x: 253.6485595703125
y: 335.70166015625
z: -0.19341592490673065
visibility: 0.9501366019248962
","x: 213.61656188964844
y: 316.4992370605469
z: -0.250378280878067
visibility: 0.8117001056671143
","x: 249.68873596191406
y: 373.79217529296875
z: -0.006685623433440924
visibility: 0.999887228012085
","x: 226.59251403808594
y: 375.9205627441406
z: 0.006787384860217571
visibility: 0.9998536109924316
","x: 255.9156951904297
y: 452.7721862792969
z: -0.02032560296356678
visibility: 0.997553288936615
","x: 228.63226318359375
y: 457.5151062011719
z: -0.003282832447439432
visibility: 0.9974753260612488
","x: 266.48907470703125
y: 527.14794921875
z: 0.05166509002447128
visibility: 0.9973852038383484
","x: 226.78408813476562
y: 529.5484619140625
z: 0.09093891829252243
visibility: 0.9975487589836121
","x: 264.88818359375
y: 535.6207885742188
z: 0.05068936198949814
visibility: 0.9229786992073059
","x: 229.5302276611328
y: 538.3787231445312
z: 0.09249253571033478
visibility: 0.9423246383666992
","x: 270.0268859863281
y: 553.5067138671875
z: -0.07066334038972855
visibility: 0.9938246011734009
","x: 219.68429565429688
y: 551.073974609375
z: -0.018065128475427628
visibility: 0.9948859810829163
","x: 255.80526733398438
y: 333.25787353515625
z: 0.0
","x: 252.1011199951172
y: 333.3662414550781
z: -0.0002077676763292402
","x: 248.5811767578125
y: 336.4706115722656
z: -0.0010305913165211678
","x: 246.32437133789062
y: 340.3222961425781
z: -0.001879677758552134
","x: 244.7939910888672
y: 343.564697265625
z: -0.002715602284297347
","x: 247.9979248046875
y: 339.1466979980469
z: -0.003091144375503063
","x: 245.06875610351562
y: 344.6119384765625
z: -0.004954902920871973
","x: 243.58209228515625
y: 348.22747802734375
z: -0.005467501934617758
","x: 242.56556701660156
y: 350.935546875
z: -0.005585997365415096
","x: 249.60531616210938
y: 342.1593933105469
z: -0.004075526259839535
","x: 246.88780212402344
y: 348.3648986816406
z: -0.005893421825021505
","x: 245.2777862548828
y: 352.1706848144531
z: -0.005883557256311178
","x: 244.10646057128906
y: 354.8043518066406
z: -0.005774864461272955
","x: 251.50428771972656
y: 344.8271179199219
z: -0.005001549609005451
","x: 249.17718505859375
y: 351.1160583496094
z: -0.006796129513531923
","x: 247.8164520263672
y: 354.62744140625
z: -0.006618959363549948
","x: 246.8193359375
y: 357.03338623046875
z: -0.006387741304934025
","x: 253.50491333007812
y: 346.91864013671875
z: -0.005953582935035229
","x: 251.8101806640625
y: 352.3654479980469
z: -0.007498234510421753
","x: 250.6790008544922
y: 355.5135803222656
z: -0.00760110467672348
","x: 249.6346893310547
y: 357.99798583984375
z: -0.007526945322751999
",3.749422311782837,,,,,,,,,,,,,,,,,,,,,
3,"x: 236.8678436279297
y: 235.40408325195312
z: -0.21631205081939697
visibility: 0.9999850988388062
","x: 239.40447998046875
y: 231.14199829101562
z: -0.19949911534786224
visibility: 0.9999761581420898
","x: 240.8824462890625
y: 231.5998077392578
z: -0.1994919627904892
visibility: 0.9999709725379944
","x: 242.31517028808594
y: 232.02642822265625
z: -0.199504092335701
visibility: 0.9999737739562988
","x: 235.3306121826172
y: 230.3282928466797
z: -0.20159220695495605
visibility: 0.9999746680259705
","x: 233.928955078125
y: 230.21157836914062
z: -0.20161180198192596
visibility: 0.9999697804450989
","x: 232.54116821289062
y: 230.0452880859375
z: -0.20158782601356506
visibility: 0.9999725818634033
","x: 244.1986083984375
y: 237.28858947753906
z: -0.09469889104366302
visibility: 0.9999588131904602
","x: 229.96456909179688
y: 233.81268310546875
z: -0.10562443733215332
visibility: 0.9999496936798096
","x: 239.03512573242188
y: 243.9988555908203
z: -0.17669565975666046
visibility: 0.9999755620956421
","x: 233.6675567626953
y: 242.24176025390625
z: -0.1800370216369629
visibility: 0.9999779462814331
","x: 253.59718322753906
y: 274.8982849121094
z: -0.03759727627038956
visibility: 0.9999601244926453
","x: 215.95257568359375
y: 272.88018798828125
z: -0.030258337035775185
visibility: 0.999816358089447
","x: 264.6531066894531
y: 316.9170837402344
z: -0.0724102184176445
visibility: 0.9831582307815552
","x: 200.89080810546875
y: 310.5140380859375
z: -0.0774589329957962
visibility: 0.9460452795028687
","x: 259.1719665527344
y: 334.04168701171875
z: -0.23681017756462097
visibility: 0.9810718297958374
","x: 208.90975952148438
y: 325.4720458984375
z: -0.2528495788574219
visibility: 0.9082068204879761
","x: 256.3082275390625
y: 345.6587219238281
z: -0.2802340090274811
visibility: 0.9622166156768799
","x: 211.42791748046875
y: 336.91534423828125
z: -0.29546093940734863
visibility: 0.8477718234062195
","x: 253.0959014892578
y: 340.6534118652344
z: -0.2976635992527008
visibility: 0.9630882143974304
","x: 215.13140869140625
y: 331.3775329589844
z: -0.305896520614624
visibility: 0.8485429286956787
","x: 252.89442443847656
y: 337.2491760253906
z: -0.24731266498565674
visibility: 0.9443997740745544
","x: 214.45411682128906
y: 327.2677001953125
z: -0.2602517008781433
visibility: 0.8256056308746338
","x: 248.87191772460938
y: 371.052490234375
z: -0.005044613499194384
visibility: 0.9998431205749512
","x: 224.81948852539062
y: 374.6700439453125
z: 0.005061676260083914
visibility: 0.9998341798782349
","x: 255.7765655517578
y: 451.71929931640625
z: -0.02033829875290394
visibility: 0.9975905418395996
","x: 227.99415588378906
y: 455.1936340332031
z: -0.006984931882470846
visibility: 0.9974806308746338
","x: 262.2687683105469
y: 520.5736083984375
z: 0.09399354457855225
visibility: 0.9973620772361755
","x: 227.25146484375
y: 524.6702270507812
z: 0.09869633615016937
visibility: 0.9975767135620117
","x: 260.4533996582031
y: 529.1605224609375
z: 0.09815149754285812
visibility: 0.923994243144989
","x: 230.10101318359375
y: 533.0017700195312
z: 0.10223926603794098
visibility: 0.9431830644607544
","x: 268.46783447265625
y: 548.301513671875
z: -0.022917769849300385
visibility: 0.9938741326332092
","x: 221.6796875
y: 549.8024291992188
z: -0.012183205224573612
visibility: 0.9949069023132324
",,,,,,,,,,,,,,,,,,,,,,4.353597640991211,"x: 207.85479736328125
y: 322.3965759277344
z: 0.0
","x: 212.08055114746094
y: 324.93157958984375
z: 0.0011184178292751312
","x: 215.55496215820312
y: 330.0717468261719
z: 0.0004817282606381923
","x: 217.04693603515625
y: 335.438720703125
z: -0.0005307106184773147
","x: 217.59251403808594
y: 339.9391174316406
z: -0.00139598548412323
","x: 216.62440490722656
y: 330.1185302734375
z: -0.002508976962417364
","x: 219.42523193359375
y: 336.4283752441406
z: -0.004375989083200693
","x: 220.60693359375
y: 341.0577392578125
z: -0.0047903829254209995
","x: 221.23577880859375
y: 344.346923828125
z: -0.004794251173734665
","x: 214.58740234375
y: 331.552978515625
z: -0.004375628661364317
","x: 216.85089111328125
y: 338.5226135253906
z: -0.006161474157124758
","x: 217.91664123535156
y: 343.3111877441406
z: -0.005751946475356817
","x: 218.7072296142578
y: 346.7076110839844
z: -0.005416939500719309
","x: 212.13601684570312
y: 333.0946350097656
z: -0.006079335696995258
","x: 213.7926025390625
y: 340.04718017578125
z: -0.007647189777344465
","x: 214.82017517089844
y: 344.4387512207031
z: -0.006940901279449463
","x: 215.6850128173828
y: 347.5306701660156
z: -0.006423729006201029
","x: 209.55712890625
y: 334.6191101074219
z: -0.007757518906146288
","x: 210.63734436035156
y: 340.600830078125
z: -0.009071286767721176
","x: 211.37979125976562
y: 344.4346618652344
z: -0.008792461827397346
","x: 212.09056091308594
y: 347.4560852050781
z: -0.008440722711384296
"
4,"x: 236.8678436279297
y: 235.40408325195312
z: -0.21631205081939697
visibility: 0.9999850988388062
","x: 239.40447998046875
y: 231.14199829101562
z: -0.19949911534786224
visibility: 0.9999761581420898
","x: 240.8824462890625
y: 231.5998077392578
z: -0.1994919627904892
visibility: 0.9999709725379944
","x: 242.31517028808594
y: 232.02642822265625
z: -0.199504092335701
visibility: 0.9999737739562988
","x: 235.3306121826172
y: 230.3282928466797
z: -0.20159220695495605
visibility: 0.9999746680259705
","x: 233.928955078125
y: 230.21157836914062
z: -0.20161180198192596
visibility: 0.9999697804450989
","x: 232.54116821289062
y: 230.0452880859375
z: -0.20158782601356506
visibility: 0.9999725818634033
","x: 244.1986083984375
y: 237.28858947753906
z: -0.09469889104366302
visibility: 0.9999588131904602
","x: 229.96456909179688
y: 233.81268310546875
z: -0.10562443733215332
visibility: 0.9999496936798096
","x: 239.03512573242188
y: 243.9988555908203
z: -0.17669565975666046
visibility: 0.9999755620956421
","x: 233.6675567626953
y: 242.24176025390625
z: -0.1800370216369629
visibility: 0.9999779462814331
","x: 253.59718322753906
y: 274.8982849121094
z: -0.03759727627038956
visibility: 0.9999601244926453
","x: 215.95257568359375
y: 272.88018798828125
z: -0.030258337035775185
visibility: 0.999816358089447
","x: 264.6531066894531
y: 316.9170837402344
z: -0.0724102184176445
visibility: 0.9831582307815552
","x: 200.89080810546875
y: 310.5140380859375
z: -0.0774589329957962
visibility: 0.9460452795028687
","x: 259.1719665527344
y: 334.04168701171875
z: -0.23681017756462097
visibility: 0.9810718297958374
","x: 208.90975952148438
y: 325.4720458984375
z: -0.2528495788574219
visibility: 0.9082068204879761
","x: 256.3082275390625
y: 345.6587219238281
z: -0.2802340090274811
visibility: 0.9622166156768799
","x: 211.42791748046875
y: 336.91534423828125
z: -0.29546093940734863
visibility: 0.8477718234062195
","x: 253.0959014892578
y: 340.6534118652344
z: -0.2976635992527008
visibility: 0.9630882143974304
","x: 215.13140869140625
y: 331.3775329589844
z: -0.305896520614624
visibility: 0.8485429286956787
","x: 252.89442443847656
y: 337.2491760253906
z: -0.24731266498565674
visibility: 0.9443997740745544
","x: 214.45411682128906
y: 327.2677001953125
z: -0.2602517008781433
visibility: 0.8256056308746338
","x: 248.87191772460938
y: 371.052490234375
z: -0.005044613499194384
visibility: 0.9998431205749512
","x: 224.81948852539062
y: 374.6700439453125
z: 0.005061676260083914
visibility: 0.9998341798782349
","x: 255.7765655517578
y: 451.71929931640625
z: -0.02033829875290394
visibility: 0.9975905418395996
","x: 227.99415588378906
y: 455.1936340332031
z: -0.006984931882470846
visibility: 0.9974806308746338
","x: 262.2687683105469
y: 520.5736083984375
z: 0.09399354457855225
visibility: 0.9973620772361755
","x: 227.25146484375
y: 524.6702270507812
z: 0.09869633615016937
visibility: 0.9975767135620117
","x: 260.4533996582031
y: 529.1605224609375
z: 0.09815149754285812
visibility: 0.923994243144989
","x: 230.10101318359375
y: 533.0017700195312
z: 0.10223926603794098
visibility: 0.9431830644607544
","x: 268.46783447265625
y: 548.301513671875
z: -0.022917769849300385
visibility: 0.9938741326332092
","x: 221.6796875
y: 549.8024291992188
z: -0.012183205224573612
visibility: 0.9949069023132324
",,,,,,,,,,,,,,,,,,,,,,4.353597640991211,"x: 207.85479736328125
y: 322.3965759277344
z: 0.0
","x: 212.08055114746094
y: 324.93157958984375
z: 0.0011184178292751312
","x: 215.55496215820312
y: 330.0717468261719
z: 0.0004817282606381923
","x: 217.04693603515625
y: 335.438720703125
z: -0.0005307106184773147
","x: 217.59251403808594
y: 339.9391174316406
z: -0.00139598548412323
","x: 216.62440490722656
y: 330.1185302734375
z: -0.002508976962417364
","x: 219.42523193359375
y: 336.4283752441406
z: -0.004375989083200693
","x: 220.60693359375
y: 341.0577392578125
z: -0.0047903829254209995
","x: 221.23577880859375
y: 344.346923828125
z: -0.004794251173734665
","x: 214.58740234375
y: 331.552978515625
z: -0.004375628661364317
","x: 216.85089111328125
y: 338.5226135253906
z: -0.006161474157124758
","x: 217.91664123535156
y: 343.3111877441406
z: -0.005751946475356817
","x: 218.7072296142578
y: 346.7076110839844
z: -0.005416939500719309
","x: 212.13601684570312
y: 333.0946350097656
z: -0.006079335696995258
","x: 213.7926025390625
y: 340.04718017578125
z: -0.007647189777344465
","x: 214.82017517089844
y: 344.4387512207031
z: -0.006940901279449463
","x: 215.6850128173828
y: 347.5306701660156
z: -0.006423729006201029
","x: 209.55712890625
y: 334.6191101074219
z: -0.007757518906146288
","x: 210.63734436035156
y: 340.600830078125
z: -0.009071286767721176
","x: 211.37979125976562
y: 344.4346618652344
z: -0.008792461827397346
","x: 212.09056091308594
y: 347.4560852050781
z: -0.008440722711384296
"
5,"x: 236.8678436279297
y: 235.40408325195312
z: -0.21631205081939697
visibility: 0.9999850988388062
","x: 239.40447998046875
y: 231.14199829101562
z: -0.19949911534786224
visibility: 0.9999761581420898
","x: 240.8824462890625
y: 231.5998077392578
z: -0.1994919627904892
visibility: 0.9999709725379944
","x: 242.31517028808594
y: 232.02642822265625
z: -0.199504092335701
visibility: 0.9999737739562988
","x: 235.3306121826172
y: 230.3282928466797
z: -0.20159220695495605
visibility: 0.9999746680259705
","x: 233.928955078125
y: 230.21157836914062
z: -0.20161180198192596
visibility: 0.9999697804450989
","x: 232.54116821289062
y: 230.0452880859375
z: -0.20158782601356506
visibility: 0.9999725818634033
","x: 244.1986083984375
y: 237.28858947753906
z: -0.09469889104366302
visibility: 0.9999588131904602
","x: 229.96456909179688
y: 233.81268310546875
z: -0.10562443733215332
visibility: 0.9999496936798096
","x: 239.03512573242188
y: 243.9988555908203
z: -0.17669565975666046
visibility: 0.9999755620956421
","x: 233.6675567626953
y: 242.24176025390625
z: -0.1800370216369629
visibility: 0.9999779462814331
","x: 253.59718322753906
y: 274.8982849121094
z: -0.03759727627038956
visibility: 0.9999601244926453
","x: 215.95257568359375
y: 272.88018798828125
z: -0.030258337035775185
visibility: 0.999816358089447
","x: 264.6531066894531
y: 316.9170837402344
z: -0.0724102184176445
visibility: 0.9831582307815552
","x: 200.89080810546875
y: 310.5140380859375
z: -0.0774589329957962
visibility: 0.9460452795028687
","x: 259.1719665527344
y: 334.04168701171875
z: -0.23681017756462097
visibility: 0.9810718297958374
","x: 208.90975952148438
y: 325.4720458984375
z: -0.2528495788574219
visibility: 0.9082068204879761
","x: 256.3082275390625
y: 345.6587219238281
z: -0.2802340090274811
visibility: 0.9622166156768799
","x: 211.42791748046875
y: 336.91534423828125
z: -0.29546093940734863
visibility: 0.8477718234062195
","x: 253.0959014892578
y: 340.6534118652344
z: -0.2976635992527008
visibility: 0.9630882143974304
","x: 215.13140869140625
y: 331.3775329589844
z: -0.305896520614624
visibility: 0.8485429286956787
","x: 252.89442443847656
y: 337.2491760253906
z: -0.24731266498565674
visibility: 0.9443997740745544
","x: 214.45411682128906
y: 327.2677001953125
z: -0.2602517008781433
visibility: 0.8256056308746338
","x: 248.87191772460938
y: 371.052490234375
z: -0.005044613499194384
visibility: 0.9998431205749512
","x: 224.81948852539062
y: 374.6700439453125
z: 0.005061676260083914
visibility: 0.9998341798782349
","x: 255.7765655517578
y: 451.71929931640625
z: -0.02033829875290394
visibility: 0.9975905418395996
","x: 227.99415588378906
y: 455.1936340332031
z: -0.006984931882470846
visibility: 0.9974806308746338
","x: 262.2687683105469
y: 520.5736083984375
z: 0.09399354457855225
visibility: 0.9973620772361755
","x: 227.25146484375
y: 524.6702270507812
z: 0.09869633615016937
visibility: 0.9975767135620117
","x: 260.4533996582031
y: 529.1605224609375
z: 0.09815149754285812
visibility: 0.923994243144989
","x: 230.10101318359375
y: 533.0017700195312
z: 0.10223926603794098
visibility: 0.9431830644607544
","x: 268.46783447265625
y: 548.301513671875
z: -0.022917769849300385
visibility: 0.9938741326332092
","x: 221.6796875
y: 549.8024291992188
z: -0.012183205224573612
visibility: 0.9949069023132324
",,,,,,,,,,,,,,,,,,,,,,4.353597640991211,"x: 207.85479736328125
y: 322.3965759277344
z: 0.0
","x: 212.08055114746094
y: 324.93157958984375
z: 0.0011184178292751312
","x: 215.55496215820312
y: 330.0717468261719
z: 0.0004817282606381923
","x: 217.04693603515625
y: 335.438720703125
z: -0.0005307106184773147
","x: 217.59251403808594
y: 339.9391174316406
z: -0.00139598548412323
","x: 216.62440490722656
y: 330.1185302734375
z: -0.002508976962417364
","x: 219.42523193359375
y: 336.4283752441406
z: -0.004375989083200693
","x: 220.60693359375
y: 341.0577392578125
z: -0.0047903829254209995
","x: 221.23577880859375
y: 344.346923828125
z: -0.004794251173734665
","x: 214.58740234375
y: 331.552978515625
z: -0.004375628661364317
","x: 216.85089111328125
y: 338.5226135253906
z: -0.006161474157124758
","x: 217.91664123535156
y: 343.3111877441406
z: -0.005751946475356817
","x: 218.7072296142578
y: 346.7076110839844
z: -0.005416939500719309
","x: 212.13601684570312
y: 333.0946350097656
z: -0.006079335696995258
","x: 213.7926025390625
y: 340.04718017578125
z: -0.007647189777344465
","x: 214.82017517089844
y: 344.4387512207031
z: -0.006940901279449463
","x: 215.6850128173828
y: 347.5306701660156
z: -0.006423729006201029
","x: 209.55712890625
y: 334.6191101074219
z: -0.007757518906146288
","x: 210.63734436035156
y: 340.600830078125
z: -0.009071286767721176
","x: 211.37979125976562
y: 344.4346618652344
z: -0.008792461827397346
","x: 212.09056091308594
y: 347.4560852050781
z: -0.008440722711384296
"
6,"x: 237.0081024169922
y: 235.69064331054688
z: -0.18358370661735535
visibility: 0.9999851584434509
","x: 239.51626586914062
y: 231.4849090576172
z: -0.16460773348808289
visibility: 0.9999755024909973
","x: 240.96617126464844
y: 231.95590209960938
z: -0.1645945906639099
visibility: 0.9999702572822571
","x: 242.29931640625
y: 232.376953125
z: -0.16459092497825623
visibility: 0.999972939491272
","x: 235.48977661132812
y: 230.70570373535156
z: -0.1663610190153122
visibility: 0.9999746680259705
","x: 234.14710998535156
y: 230.6403350830078
z: -0.16636984050273895
visibility: 0.9999698996543884
","x: 232.7748565673828
y: 230.52117919921875
z: -0.16632983088493347
visibility: 0.9999729990959167
","x: 244.352294921875
y: 237.30203247070312
z: -0.05980328842997551
visibility: 0.9999576807022095
","x: 230.2416229248047
y: 234.30335998535156
z: -0.06895249336957932
visibility: 0.9999504089355469
","x: 239.208251953125
y: 244.03150939941406
z: -0.1450958251953125
visibility: 0.9999758005142212
","x: 234.00572204589844
y: 242.4875030517578
z: -0.147869274020195
visibility: 0.99997878074646
","x: 253.72088623046875
y: 275.906982421875
z: -0.014452507719397545
visibility: 0.9999611973762512
","x: 216.7342529296875
y: 274.729736328125
z: -0.00506693497300148
visibility: 0.9998288154602051
","x: 265.47479248046875
y: 316.7960205078125
z: -0.07084213197231293
visibility: 0.9840681552886963
","x: 200.64358520507812
y: 314.1241760253906
z: -0.06925112754106522
visibility: 0.950594425201416
","x: 261.9914855957031
y: 333.74285888671875
z: -0.24951580166816711
visibility: 0.9819324016571045
","x: 209.34176635742188
y: 324.6739501953125
z: -0.2509464919567108
visibility: 0.9162980914115906
","x: 259.75128173828125
y: 345.2274169921875
z: -0.29517054557800293
visibility: 0.9635307192802429
","x: 213.816650390625
y: 334.78961181640625
z: -0.2941199541091919
visibility: 0.8603672981262207
","x: 256.5462646484375
y: 340.57623291015625
z: -0.30957168340682983
visibility: 0.964336097240448
","x: 217.38523864746094
y: 330.1656494140625
z: -0.30013781785964966
visibility: 0.8610401153564453
","x: 256.40277099609375
y: 337.2288818359375
z: -0.25898125767707825
visibility: 0.9462212920188904
","x: 216.70005798339844
y: 326.7866516113281
z: -0.25494495034217834
visibility: 0.8392022252082825
","x: 248.74453735351562
y: 370.08892822265625
z: -0.005048683378845453
visibility: 0.9998239278793335
","x: 224.71859741210938
y: 373.09075927734375
z: 0.005066377110779285
visibility: 0.9998286366462708
","x: 255.3262176513672
y: 451.30657958984375
z: -0.026068206876516342
visibility: 0.9976091384887695
","x: 228.02853393554688
y: 454.0474853515625
z: -0.015722963958978653
visibility: 0.9974818825721741
","x: 261.2877197265625
y: 519.2195434570312
z: 0.08874475210905075
visibility: 0.9973325729370117
","x: 227.67567443847656
y: 524.8566284179688
z: 0.09108632802963257
visibility: 0.9976140260696411
","x: 259.44378662109375
y: 528.46240234375
z: 0.09289954602718353
visibility: 0.9242499470710754
","x: 230.67539978027344
y: 533.2344360351562
z: 0.09457342326641083
visibility: 0.9437898993492126
","x: 267.6397705078125
y: 546.0654907226562
z: -0.02815265581011772
visibility: 0.9939349889755249
","x: 222.1165008544922
y: 550.0847778320312
z: -0.024182913824915886
visibility: 0.9949421882629395
","x: 261.1290283203125
y: 332.363525390625
z: 0.0
","x: 261.9620056152344
y: 338.5582275390625
z: 0.0007934190216474235
","x: 261.75335693359375
y: 344.8494873046875
z: 0.00014416519843507558
","x: 261.1597595214844
y: 349.2233581542969
z: -0.0008299276232719421
","x: 260.8784484863281
y: 352.4886779785156
z: -0.001852135406807065
","x: 259.9410705566406
y: 347.0394592285156
z: -0.0025872993282973766
","x: 258.4698791503906
y: 353.4844665527344
z: -0.0045716227032244205
","x: 256.9366760253906
y: 357.0653991699219
z: -0.0050680991262197495
","x: 255.7113037109375
y: 359.2466735839844
z: -0.005132897756993771
","x: 258.044677734375
y: 345.2146911621094
z: -0.004357647616416216
","x: 255.9896240234375
y: 352.34332275390625
z: -0.006397296208888292
","x: 254.2677001953125
y: 356.3636779785156
z: -0.006451161578297615
","x: 253.00294494628906
y: 359.1767578125
z: -0.0063568055629730225
","x: 256.1949462890625
y: 342.58721923828125
z: -0.0060034506022930145
","x: 253.86068725585938
y: 349.25592041015625
z: -0.00807987805455923
","x: 252.31100463867188
y: 353.29669189453125
z: -0.008020015433430672
","x: 251.24346923828125
y: 356.2435302734375
z: -0.00782681629061699
","x: 254.55018615722656
y: 339.35040283203125
z: -0.007575257681310177
","x: 252.41432189941406
y: 344.26318359375
z: -0.009273693896830082
","x: 251.18045043945312
y: 347.69140625
z: -0.009411614388227463
","x: 250.24681091308594
y: 350.527099609375
z: -0.009360948577523232
",4.49486517906189,"x: 211.00738525390625
y: 322.4354248046875
z: 0.0
","x: 208.73365783691406
y: 328.7291259765625
z: -0.0026716282591223717
","x: 207.9669647216797
y: 336.01531982421875
z: -0.0050033568404614925
","x: 208.126708984375
y: 342.6496887207031
z: -0.006997521035373211
","x: 208.9459686279297
y: 347.78076171875
z: -0.009163939394056797
","x: 210.0446014404297
y: 328.6090087890625
z: -0.00742691894993186
","x: 210.60250854492188
y: 332.5425720214844
z: -0.010415350086987019
","x: 211.82159423828125
y: 337.44512939453125
z: -0.01172025129199028
","x: 213.21543884277344
y: 341.32470703125
z: -0.012435004115104675
","x: 213.51060485839844
y: 326.79034423828125
z: -0.007868058979511261
","x: 214.8905487060547
y: 332.1789245605469
z: -0.010990078561007977
","x: 216.37278747558594
y: 338.51605224609375
z: -0.01204343605786562
","x: 217.62045288085938
y: 343.6170654296875
z: -0.012890471145510674
","x: 216.4986114501953
y: 325.4553527832031
z: -0.008107501082122326
","x: 218.4076385498047
y: 331.93841552734375
z: -0.010733847506344318
","x: 219.69564819335938
y: 338.067138671875
z: -0.01110415905714035
","x: 220.55577087402344
y: 342.87774658203125
z: -0.011586807668209076
","x: 219.0250244140625
y: 324.67193603515625
z: -0.008582842536270618
","x: 221.25872802734375
y: 330.9062194824219
z: -0.010832945816218853
","x: 222.43138122558594
y: 336.0089416503906
z: -0.011412291787564754
","x: 223.2454376220703
y: 340.4450988769531
z: -0.011913915164768696
"
7,"x: 237.0081024169922
y: 235.69064331054688
z: -0.18358370661735535
visibility: 0.9999851584434509
","x: 239.51626586914062
y: 231.4849090576172
z: -0.16460773348808289
visibility: 0.9999755024909973
","x: 240.96617126464844
y: 231.95590209960938
z: -0.1645945906639099
visibility: 0.9999702572822571
","x: 242.29931640625
y: 232.376953125
z: -0.16459092497825623
visibility: 0.999972939491272
","x: 235.48977661132812
y: 230.70570373535156
z: -0.1663610190153122
visibility: 0.9999746680259705
","x: 234.14710998535156
y: 230.6403350830078
z: -0.16636984050273895
visibility: 0.9999698996543884
","x: 232.7748565673828
y: 230.52117919921875
z: -0.16632983088493347
visibility: 0.9999729990959167
","x: 244.352294921875
y: 237.30203247070312
z: -0.05980328842997551
visibility: 0.9999576807022095
","x: 230.2416229248047
y: 234.30335998535156
z: -0.06895249336957932
visibility: 0.9999504089355469
","x: 239.208251953125
y: 244.03150939941406
z: -0.1450958251953125
visibility: 0.9999758005142212
","x: 234.00572204589844
y: 242.4875030517578
z: -0.147869274020195
visibility: 0.99997878074646
","x: 253.72088623046875
y: 275.906982421875
z: -0.014452507719397545
visibility: 0.9999611973762512
","x: 216.7342529296875
y: 274.729736328125
z: -0.00506693497300148
visibility: 0.9998288154602051
","x: 265.47479248046875
y: 316.7960205078125
z: -0.07084213197231293
visibility: 0.9840681552886963
","x: 200.64358520507812
y: 314.1241760253906
z: -0.06925112754106522
visibility: 0.950594425201416
","x: 261.9914855957031
y: 333.74285888671875
z: -0.24951580166816711
visibility: 0.9819324016571045
","x: 209.34176635742188
y: 324.6739501953125
z: -0.2509464919567108
visibility: 0.9162980914115906
","x: 259.75128173828125
y: 345.2274169921875
z: -0.29517054557800293
visibility: 0.9635307192802429
","x: 213.816650390625
y: 334.78961181640625
z: -0.2941199541091919
visibility: 0.8603672981262207
","x: 256.5462646484375
y: 340.57623291015625
z: -0.30957168340682983
visibility: 0.964336097240448
","x: 217.38523864746094
y: 330.1656494140625
z: -0.30013781785964966
visibility: 0.8610401153564453
","x: 256.40277099609375
y: 337.2288818359375
z: -0.25898125767707825
visibility: 0.9462212920188904
","x: 216.70005798339844
y: 326.7866516113281
z: -0.25494495034217834
visibility: 0.8392022252082825
","x: 248.74453735351562
y: 370.08892822265625
z: -0.005048683378845453
visibility: 0.9998239278793335
","x: 224.71859741210938
y: 373.09075927734375
z: 0.005066377110779285
visibility: 0.9998286366462708
","x: 255.3262176513672
y: 451.30657958984375
z: -0.026068206876516342
visibility: 0.9976091384887695
","x: 228.02853393554688
y: 454.0474853515625
z: -0.015722963958978653
visibility: 0.9974818825721741
","x: 261.2877197265625
y: 519.2195434570312
z: 0.08874475210905075
visibility: 0.9973325729370117
","x: 227.67567443847656
y: 524.8566284179688
z: 0.09108632802963257
visibility: 0.9976140260696411
","x: 259.44378662109375
y: 528.46240234375
z: 0.09289954602718353
visibility: 0.9242499470710754
","x: 230.67539978027344
y: 533.2344360351562
z: 0.09457342326641083
visibility: 0.9437898993492126
","x: 267.6397705078125
y: 546.0654907226562
z: -0.02815265581011772
visibility: 0.9939349889755249
","x: 222.1165008544922
y: 550.0847778320312
z: -0.024182913824915886
visibility: 0.9949421882629395
","x: 261.1290283203125
y: 332.363525390625
z: 0.0
","x: 261.9620056152344
y: 338.5582275390625
z: 0.0007934190216474235
","x: 261.75335693359375
y: 344.8494873046875
z: 0.00014416519843507558
","x: 261.1597595214844
y: 349.2233581542969
z: -0.0008299276232719421
","x: 260.8784484863281
y: 352.4886779785156
z: -0.001852135406807065
","x: 259.9410705566406
y: 347.0394592285156
z: -0.0025872993282973766
","x: 258.4698791503906
y: 353.4844665527344
z: -0.0045716227032244205
","x: 256.9366760253906
y: 357.0653991699219
z: -0.0050680991262197495
","x: 255.7113037109375
y: 359.2466735839844
z: -0.005132897756993771
","x: 258.044677734375
y: 345.2146911621094
z: -0.004357647616416216
","x: 255.9896240234375
y: 352.34332275390625
z: -0.006397296208888292
","x: 254.2677001953125
y: 356.3636779785156
z: -0.006451161578297615
","x: 253.00294494628906
y: 359.1767578125
z: -0.0063568055629730225
","x: 256.1949462890625
y: 342.58721923828125
z: -0.0060034506022930145
","x: 253.86068725585938
y: 349.25592041015625
z: -0.00807987805455923
","x: 252.31100463867188
y: 353.29669189453125
z: -0.008020015433430672
","x: 251.24346923828125
y: 356.2435302734375
z: -0.00782681629061699
","x: 254.55018615722656
y: 339.35040283203125
z: -0.007575257681310177
","x: 252.41432189941406
y: 344.26318359375
z: -0.009273693896830082
","x: 251.18045043945312
y: 347.69140625
z: -0.009411614388227463
","x: 250.24681091308594
y: 350.527099609375
z: -0.009360948577523232
",4.49486517906189,"x: 211.00738525390625
y: 322.4354248046875
z: 0.0
","x: 208.73365783691406
y: 328.7291259765625
z: -0.0026716282591223717
","x: 207.9669647216797
y: 336.01531982421875
z: -0.0050033568404614925
","x: 208.126708984375
y: 342.6496887207031
z: -0.006997521035373211
","x: 208.9459686279297
y: 347.78076171875
z: -0.009163939394056797
","x: 210.0446014404297
y: 328.6090087890625
z: -0.00742691894993186
","x: 210.60250854492188
y: 332.5425720214844
z: -0.010415350086987019
","x: 211.82159423828125
y: 337.44512939453125
z: -0.01172025129199028
","x: 213.21543884277344
y: 341.32470703125
z: -0.012435004115104675
","x: 213.51060485839844
y: 326.79034423828125
z: -0.007868058979511261
","x: 214.8905487060547
y: 332.1789245605469
z: -0.010990078561007977
","x: 216.37278747558594
y: 338.51605224609375
z: -0.01204343605786562
","x: 217.62045288085938
y: 343.6170654296875
z: -0.012890471145510674
","x: 216.4986114501953
y: 325.4553527832031
z: -0.008107501082122326
","x: 218.4076385498047
y: 331.93841552734375
z: -0.010733847506344318
","x: 219.69564819335938
y: 338.067138671875
z: -0.01110415905714035
","x: 220.55577087402344
y: 342.87774658203125
z: -0.011586807668209076
","x: 219.0250244140625
y: 324.67193603515625
z: -0.008582842536270618
","x: 221.25872802734375
y: 330.9062194824219
z: -0.010832945816218853
","x: 222.43138122558594
y: 336.0089416503906
z: -0.011412291787564754
","x: 223.2454376220703
y: 340.4450988769531
z: -0.011913915164768696
"
8,"x: 237.0081024169922
y: 235.69064331054688
z: -0.18358370661735535
visibility: 0.9999851584434509
","x: 239.51626586914062
y: 231.4849090576172
z: -0.16460773348808289
visibility: 0.9999755024909973
","x: 240.96617126464844
y: 231.95590209960938
z: -0.1645945906639099
visibility: 0.9999702572822571
","x: 242.29931640625
y: 232.376953125
z: -0.16459092497825623
visibility: 0.999972939491272
","x: 235.48977661132812
y: 230.70570373535156
z: -0.1663610190153122
visibility: 0.9999746680259705
","x: 234.14710998535156
y: 230.6403350830078
z: -0.16636984050273895
visibility: 0.9999698996543884
","x: 232.7748565673828
y: 230.52117919921875
z: -0.16632983088493347
visibility: 0.9999729990959167
","x: 244.352294921875
y: 237.30203247070312
z: -0.05980328842997551
visibility: 0.9999576807022095
","x: 230.2416229248047
y: 234.30335998535156
z: -0.06895249336957932
visibility: 0.9999504089355469
","x: 239.208251953125
y: 244.03150939941406
z: -0.1450958251953125
visibility: 0.9999758005142212
","x: 234.00572204589844
y: 242.4875030517578
z: -0.147869274020195
visibility: 0.99997878074646
","x: 253.72088623046875
y: 275.906982421875
z: -0.014452507719397545
visibility: 0.9999611973762512
","x: 216.7342529296875
y: 274.729736328125
z: -0.00506693497300148
visibility: 0.9998288154602051
","x: 265.47479248046875
y: 316.7960205078125
z: -0.07084213197231293
visibility: 0.9840681552886963
","x: 200.64358520507812
y: 314.1241760253906
z: -0.06925112754106522
visibility: 0.950594425201416
","x: 261.9914855957031
y: 333.74285888671875
z: -0.24951580166816711
visibility: 0.9819324016571045
","x: 209.34176635742188
y: 324.6739501953125
z: -0.2509464919567108
visibility: 0.9162980914115906
","x: 259.75128173828125
y: 345.2274169921875
z: -0.29517054557800293
visibility: 0.9635307192802429
","x: 213.816650390625
y: 334.78961181640625
z: -0.2941199541091919
visibility: 0.8603672981262207
","x: 256.5462646484375
y: 340.57623291015625
z: -0.30957168340682983
visibility: 0.964336097240448
","x: 217.38523864746094
y: 330.1656494140625
z: -0.30013781785964966
visibility: 0.8610401153564453
","x: 256.40277099609375
y: 337.2288818359375
z: -0.25898125767707825
visibility: 0.9462212920188904
","x: 216.70005798339844
y: 326.7866516113281
z: -0.25494495034217834
visibility: 0.8392022252082825
","x: 248.74453735351562
y: 370.08892822265625
z: -0.005048683378845453
visibility: 0.9998239278793335
","x: 224.71859741210938
y: 373.09075927734375
z: 0.005066377110779285
visibility: 0.9998286366462708
","x: 255.3262176513672
y: 451.30657958984375
z: -0.026068206876516342
visibility: 0.9976091384887695
","x: 228.02853393554688
y: 454.0474853515625
z: -0.015722963958978653
visibility: 0.9974818825721741
","x: 261.2877197265625
y: 519.2195434570312
z: 0.08874475210905075
visibility: 0.9973325729370117
","x: 227.67567443847656
y: 524.8566284179688
z: 0.09108632802963257
visibility: 0.9976140260696411
","x: 259.44378662109375
y: 528.46240234375
z: 0.09289954602718353
visibility: 0.9242499470710754
","x: 230.67539978027344
y: 533.2344360351562
z: 0.09457342326641083
visibility: 0.9437898993492126
","x: 267.6397705078125
y: 546.0654907226562
z: -0.02815265581011772
visibility: 0.9939349889755249
","x: 222.1165008544922
y: 550.0847778320312
z: -0.024182913824915886
visibility: 0.9949421882629395
","x: 261.1290283203125
y: 332.363525390625
z: 0.0
","x: 261.9620056152344
y: 338.5582275390625
z: 0.0007934190216474235
","x: 261.75335693359375
y: 344.8494873046875
z: 0.00014416519843507558
","x: 261.1597595214844
y: 349.2233581542969
z: -0.0008299276232719421
","x: 260.8784484863281
y: 352.4886779785156
z: -0.001852135406807065
","x: 259.9410705566406
y: 347.0394592285156
z: -0.0025872993282973766
","x: 258.4698791503906
y: 353.4844665527344
z: -0.0045716227032244205
","x: 256.9366760253906
y: 357.0653991699219
z: -0.0050680991262197495
","x: 255.7113037109375
y: 359.2466735839844
z: -0.005132897756993771
","x: 258.044677734375
y: 345.2146911621094
z: -0.004357647616416216
","x: 255.9896240234375
y: 352.34332275390625
z: -0.006397296208888292
","x: 254.2677001953125
y: 356.3636779785156
z: -0.006451161578297615
","x: 253.00294494628906
y: 359.1767578125
z: -0.0063568055629730225
","x: 256.1949462890625
y: 342.58721923828125
z: -0.0060034506022930145
","x: 253.86068725585938
y: 349.25592041015625
z: -0.00807987805455923
","x: 252.31100463867188
y: 353.29669189453125
z: -0.008020015433430672
","x: 251.24346923828125
y: 356.2435302734375
z: -0.00782681629061699
","x: 254.55018615722656
y: 339.35040283203125
z: -0.007575257681310177
","x: 252.41432189941406
y: 344.26318359375
z: -0.009273693896830082
","x: 251.18045043945312
y: 347.69140625
z: -0.009411614388227463
","x: 250.24681091308594
y: 350.527099609375
z: -0.009360948577523232
",4.49486517906189,"x: 211.00738525390625
y: 322.4354248046875
z: 0.0
","x: 208.73365783691406
y: 328.7291259765625
z: -0.0026716282591223717
","x: 207.9669647216797
y: 336.01531982421875
z: -0.0050033568404614925
","x: 208.126708984375
y: 342.6496887207031
z: -0.006997521035373211
","x: 208.9459686279297
y: 347.78076171875
z: -0.009163939394056797
","x: 210.0446014404297
y: 328.6090087890625
z: -0.00742691894993186
","x: 210.60250854492188
y: 332.5425720214844
z: -0.010415350086987019
","x: 211.82159423828125
y: 337.44512939453125
z: -0.01172025129199028
","x: 213.21543884277344
y: 341.32470703125
z: -0.012435004115104675
","x: 213.51060485839844
y: 326.79034423828125
z: -0.007868058979511261
","x: 214.8905487060547
y: 332.1789245605469
z: -0.010990078561007977
","x: 216.37278747558594
y: 338.51605224609375
z: -0.01204343605786562
","x: 217.62045288085938
y: 343.6170654296875
z: -0.012890471145510674
","x: 216.4986114501953
y: 325.4553527832031
z: -0.008107501082122326
","x: 218.4076385498047
y: 331.93841552734375
z: -0.010733847506344318
","x: 219.69564819335938
y: 338.067138671875
z: -0.01110415905714035
","x: 220.55577087402344
y: 342.87774658203125
z: -0.011586807668209076
","x: 219.0250244140625
y: 324.67193603515625
z: -0.008582842536270618
","x: 221.25872802734375
y: 330.9062194824219
z: -0.010832945816218853
","x: 222.43138122558594
y: 336.0089416503906
z: -0.011412291787564754
","x: 223.2454376220703
y: 340.4450988769531
z: -0.011913915164768696
"
9,"x: 237.0081024169922
y: 235.69064331054688
z: -0.18358370661735535
visibility: 0.9999851584434509
","x: 239.51626586914062
y: 231.4849090576172
z: -0.16460773348808289
visibility: 0.9999755024909973
","x: 240.96617126464844
y: 231.95590209960938
z: -0.1645945906639099
visibility: 0.9999702572822571
","x: 242.29931640625
y: 232.376953125
z: -0.16459092497825623
visibility: 0.999972939491272
","x: 235.48977661132812
y: 230.70570373535156
z: -0.1663610190153122
visibility: 0.9999746680259705
","x: 234.14710998535156
y: 230.6403350830078
z: -0.16636984050273895
visibility: 0.9999698996543884
","x: 232.7748565673828
y: 230.52117919921875
z: -0.16632983088493347
visibility: 0.9999729990959167
","x: 244.352294921875
y: 237.30203247070312
z: -0.05980328842997551
visibility: 0.9999576807022095
","x: 230.2416229248047
y: 234.30335998535156
z: -0.06895249336957932
visibility: 0.9999504089355469
","x: 239.208251953125
y: 244.03150939941406
z: -0.1450958251953125
visibility: 0.9999758005142212
","x: 234.00572204589844
y: 242.4875030517578
z: -0.147869274020195
visibility: 0.99997878074646
","x: 253.72088623046875
y: 275.906982421875
z: -0.014452507719397545
visibility: 0.9999611973762512
","x: 216.7342529296875
y: 274.729736328125
z: -0.00506693497300148
visibility: 0.9998288154602051
","x: 265.47479248046875
y: 316.7960205078125
z: -0.07084213197231293
visibility: 0.9840681552886963
","x: 200.64358520507812
y: 314.1241760253906
z: -0.06925112754106522
visibility: 0.950594425201416
","x: 261.9914855957031
y: 333.74285888671875
z: -0.24951580166816711
visibility: 0.9819324016571045
","x: 209.34176635742188
y: 324.6739501953125
z: -0.2509464919567108
visibility: 0.9162980914115906
","x: 259.75128173828125
y: 345.2274169921875
z: -0.29517054557800293
visibility: 0.9635307192802429
","x: 213.816650390625
y: 334.78961181640625
z: -0.2941199541091919
visibility: 0.8603672981262207
","x: 256.5462646484375
y: 340.57623291015625
z: -0.30957168340682983
visibility: 0.964336097240448
","x: 217.38523864746094
y: 330.1656494140625
z: -0.30013781785964966
visibility: 0.8610401153564453
","x: 256.40277099609375
y: 337.2288818359375
z: -0.25898125767707825
visibility: 0.9462212920188904
","x: 216.70005798339844
y: 326.7866516113281
z: -0.25494495034217834
visibility: 0.8392022252082825
","x: 248.74453735351562
y: 370.08892822265625
z: -0.005048683378845453
visibility: 0.9998239278793335
","x: 224.71859741210938
y: 373.09075927734375
z: 0.005066377110779285
visibility: 0.9998286366462708
","x: 255.3262176513672
y: 451.30657958984375
z: -0.026068206876516342
visibility: 0.9976091384887695
","x: 228.02853393554688
y: 454.0474853515625
z: -0.015722963958978653
visibility: 0.9974818825721741
","x: 261.2877197265625
y: 519.2195434570312
z: 0.08874475210905075
visibility: 0.9973325729370117
","x: 227.67567443847656
y: 524.8566284179688
z: 0.09108632802963257
visibility: 0.9976140260696411
","x: 259.44378662109375
y: 528.46240234375
z: 0.09289954602718353
visibility: 0.9242499470710754
","x: 230.67539978027344
y: 533.2344360351562
z: 0.09457342326641083
visibility: 0.9437898993492126
","x: 267.6397705078125
y: 546.0654907226562
z: -0.02815265581011772
visibility: 0.9939349889755249
","x: 222.1165008544922
y: 550.0847778320312
z: -0.024182913824915886
visibility: 0.9949421882629395
","x: 261.1290283203125
y: 332.363525390625
z: 0.0
","x: 261.9620056152344
y: 338.5582275390625
z: 0.0007934190216474235
","x: 261.75335693359375
y: 344.8494873046875
z: 0.00014416519843507558
","x: 261.1597595214844
y: 349.2233581542969
z: -0.0008299276232719421
","x: 260.8784484863281
y: 352.4886779785156
z: -0.001852135406807065
","x: 259.9410705566406
y: 347.0394592285156
z: -0.0025872993282973766
","x: 258.4698791503906
y: 353.4844665527344
z: -0.0045716227032244205
","x: 256.9366760253906
y: 357.0653991699219
z: -0.0050680991262197495
","x: 255.7113037109375
y: 359.2466735839844
z: -0.005132897756993771
","x: 258.044677734375
y: 345.2146911621094
z: -0.004357647616416216
","x: 255.9896240234375
y: 352.34332275390625
z: -0.006397296208888292
","x: 254.2677001953125
y: 356.3636779785156
z: -0.006451161578297615
","x: 253.00294494628906
y: 359.1767578125
z: -0.0063568055629730225
","x: 256.1949462890625
y: 342.58721923828125
z: -0.0060034506022930145
","x: 253.86068725585938
y: 349.25592041015625
z: -0.00807987805455923
","x: 252.31100463867188
y: 353.29669189453125
z: -0.008020015433430672
","x: 251.24346923828125
y: 356.2435302734375
z: -0.00782681629061699
","x: 254.55018615722656
y: 339.35040283203125
z: -0.007575257681310177
","x: 252.41432189941406
y: 344.26318359375
z: -0.009273693896830082
","x: 251.18045043945312
y: 347.69140625
z: -0.009411614388227463
","x: 250.24681091308594
y: 350.527099609375
z: -0.009360948577523232
",4.49486517906189,"x: 211.00738525390625
y: 322.4354248046875
z: 0.0
","x: 208.73365783691406
y: 328.7291259765625
z: -0.0026716282591223717
","x: 207.9669647216797
y: 336.01531982421875
z: -0.0050033568404614925
","x: 208.126708984375
y: 342.6496887207031
z: -0.006997521035373211
","x: 208.9459686279297
y: 347.78076171875
z: -0.009163939394056797
","x: 210.0446014404297
y: 328.6090087890625
z: -0.00742691894993186
","x: 210.60250854492188
y: 332.5425720214844
z: -0.010415350086987019
","x: 211.82159423828125
y: 337.44512939453125
z: -0.01172025129199028
","x: 213.21543884277344
y: 341.32470703125
z: -0.012435004115104675
","x: 213.51060485839844
y: 326.79034423828125
z: -0.007868058979511261
","x: 214.8905487060547
y: 332.1789245605469
z: -0.010990078561007977
","x: 216.37278747558594
y: 338.51605224609375
z: -0.01204343605786562
","x: 217.62045288085938
y: 343.6170654296875
z: -0.012890471145510674
","x: 216.4986114501953
y: 325.4553527832031
z: -0.008107501082122326
","x: 218.4076385498047
y: 331.93841552734375
z: -0.010733847506344318
","x: 219.69564819335938
y: 338.067138671875
z: -0.01110415905714035
","x: 220.55577087402344
y: 342.87774658203125
z: -0.011586807668209076
","x: 219.0250244140625
y: 324.67193603515625
z: -0.008582842536270618
","x: 221.25872802734375
y: 330.9062194824219
z: -0.010832945816218853
","x: 222.43138122558594
y: 336.0089416503906
z: -0.011412291787564754
","x: 223.2454376220703
y: 340.4450988769531
z: -0.011913915164768696
"
10,"x: 243.96206665039062
y: 236.827392578125
z: -0.15991921722888947
visibility: 0.999983012676239
","x: 246.1531982421875
y: 232.37115478515625
z: -0.1417466104030609
visibility: 0.9999706745147705
","x: 247.51791381835938
y: 232.78756713867188
z: -0.1417502909898758
visibility: 0.9999639987945557
","x: 248.84622192382812
y: 233.10983276367188
z: -0.14175072312355042
visibility: 0.9999670386314392
","x: 242.17803955078125
y: 231.55422973632812
z: -0.1437271684408188
visibility: 0.9999707937240601
","x: 240.77574157714844
y: 231.46630859375
z: -0.1437266767024994
visibility: 0.9999653100967407
","x: 239.23306274414062
y: 231.36660766601562
z: -0.1436888426542282
visibility: 0.9999693632125854
","x: 250.57420349121094
y: 237.2831573486328
z: -0.03658687695860863
visibility: 0.9999445080757141
","x: 236.389892578125
y: 234.9549560546875
z: -0.04690222814679146
visibility: 0.9999437928199768
","x: 245.70631408691406
y: 244.9900665283203
z: -0.12082278728485107
visibility: 0.9999716281890869
","x: 241.15823364257812
y: 243.5316162109375
z: -0.12385670840740204
visibility: 0.9999765753746033
","x: 259.61566162109375
y: 275.8578796386719
z: 0.006944387219846249
visibility: 0.9999582171440125
","x: 223.43898010253906
y: 274.57318115234375
z: 0.010729827918112278
visibility: 0.9998370409011841
","x: 269.3236083984375
y: 316.99664306640625
z: -0.037547528743743896
visibility: 0.9843874573707581
","x: 213.76327514648438
y: 314.13623046875
z: -0.05507436394691467
visibility: 0.9537566304206848
","x: 263.9953918457031
y: 333.7198181152344
z: -0.22966793179512024
visibility: 0.9826205968856812
","x: 222.03811645507812
y: 325.6579284667969
z: -0.2319076508283615
visibility: 0.9230453968048096
","x: 260.1065673828125
y: 345.005126953125
z: -0.2692592740058899
visibility: 0.9646103382110596
","x: 225.9012908935547
y: 334.72967529296875
z: -0.2770995795726776
visibility: 0.8711865544319153
","x: 257.3266296386719
y: 338.47113037109375
z: -0.2828347384929657
visibility: 0.9654104709625244
","x: 228.54087829589844
y: 329.4690246582031
z: -0.28587308526039124
visibility: 0.8717736005783081
","x: 257.84228515625
y: 335.3671875
z: -0.23730354011058807
visibility: 0.9476531744003296
","x: 227.89453125
y: 326.2208251953125
z: -0.2380298674106598
visibility: 0.8505807518959045
","x: 254.38597106933594
y: 368.97357177734375
z: 0.0022839498706161976
visibility: 0.9997848868370056
","x: 230.55885314941406
y: 371.5428466796875
z: -0.0022067041136324406
visibility: 0.9998131990432739
","x: 256.1030578613281
y: 450.38641357421875
z: -0.0065831453539431095
visibility: 0.997456967830658
","x: 231.57839965820312
y: 452.99627685546875
z: -0.025962840765714645
visibility: 0.9974473118782043
","x: 260.88226318359375
y: 519.37451171875
z: 0.09531659632921219
visibility: 0.997042179107666
","x: 228.23452758789062
y: 524.392822265625
z: 0.07384777069091797
visibility: 0.9975547790527344
","x: 258.812255859375
y: 528.9241943359375
z: 0.0977715477347374
visibility: 0.9239406585693359
","x: 230.89694213867188
y: 533.353515625
z: 0.07589902728796005
visibility: 0.941785454750061
","x: 267.5127868652344
y: 545.2025756835938
z: -0.020955124869942665
visibility: 0.9935044050216675
","x: 222.19927978515625
y: 549.8683471679688
z: -0.045865822583436966
visibility: 0.9947268962860107
","x: 262.4413757324219
y: 332.36419677734375
z: 0.0
","x: 262.8554382324219
y: 337.8500061035156
z: 0.00024372785992454737
","x: 262.113525390625
y: 342.74530029296875
z: -0.0008047646260820329
","x: 260.89990234375
y: 345.54144287109375
z: -0.0021766952704638243
","x: 259.8169250488281
y: 347.46209716796875
z: -0.003685483243316412
","x: 259.8185729980469
y: 345.1746826171875
z: -0.0036766421981155872
","x: 257.8733215332031
y: 351.48687744140625
z: -0.0061747548170387745
","x: 256.1206359863281
y: 354.5452880859375
z: -0.007201888598501682
","x: 254.730712890625
y: 356.2112731933594
z: -0.007688610814511776
","x: 257.96148681640625
y: 342.912353515625
z: -0.005470671691000462
","x: 255.22828674316406
y: 349.2804260253906
z: -0.00794103741645813
","x: 253.09092712402344
y: 352.6852111816406
z: -0.008528481237590313
","x: 251.54640197753906
y: 354.95068359375
z: -0.008929843083024025
","x: 256.412353515625
y: 339.77789306640625
z: -0.007156624924391508
","x: 253.37460327148438
y: 345.0321960449219
z: -0.009614536538720131
","x: 251.2246551513672
y: 348.2467956542969
z: -0.010080196894705296
","x: 249.7110595703125
y: 350.4757995605469
z: -0.010341084562242031
","x: 255.2488555908203
y: 336.107666015625
z: -0.008819508366286755
","x: 252.63339233398438
y: 339.471435546875
z: -0.010933059267699718
","x: 250.91880798339844
y: 341.93878173828125
z: -0.011475074104964733
","x: 249.6256561279297
y: 343.9122314453125
z: -0.011773615144193172
",4.653619050979614,"x: 224.6829376220703
y: 322.318359375
z: 0.0
","x: 228.25341796875
y: 323.5254211425781
z: 0.0006719328812323511
","x: 231.39895629882812
y: 327.562255859375
z: -0.00047766577336005867
","x: 233.13922119140625
y: 332.171142578125
z: -0.0018072217935696244
","x: 234.0869140625
y: 336.1844482421875
z: -0.0032069827429950237
","x: 232.16696166992188
y: 327.2051696777344
z: -0.004893547389656305
","x: 235.45040893554688
y: 332.32275390625
z: -0.007468896452337503
","x: 237.43972778320312
y: 336.3834228515625
z: -0.008505323901772499
","x: 238.81463623046875
y: 339.71075439453125
z: -0.009077013470232487
","x: 230.45411682128906
y: 329.1313171386719
z: -0.006789248902350664
","x: 233.5172576904297
y: 335.38665771484375
z: -0.009621204808354378
","x: 235.28317260742188
y: 340.28948974609375
z: -0.010143978521227837
","x: 236.53421020507812
y: 344.1169738769531
z: -0.01046874187886715
","x: 228.41566467285156
y: 331.11578369140625
z: -0.008365187793970108
","x: 230.84542846679688
y: 337.7515869140625
z: -0.010853223502635956
","x: 232.17880249023438
y: 342.1181945800781
z: -0.010806916281580925
","x: 233.15695190429688
y: 345.179443359375
z: -0.010727623477578163
","x: 226.2106170654297
y: 332.9588623046875
z: -0.009834597818553448
","x: 227.94384765625
y: 338.92626953125
z: -0.011974677443504333
","x: 229.2130584716797
y: 342.9256591796875
z: -0.012267408892512321
","x: 230.33969116210938
y: 346.0179138183594
z: -0.012353040277957916
"
11,"x: 243.96206665039062
y: 236.827392578125
z: -0.15991921722888947
visibility: 0.999983012676239
","x: 246.1531982421875
y: 232.37115478515625
z: -0.1417466104030609
visibility: 0.9999706745147705
","x: 247.51791381835938
y: 232.78756713867188
z: -0.1417502909898758
visibility: 0.9999639987945557
","x: 248.84622192382812
y: 233.10983276367188
z: -0.14175072312355042
visibility: 0.9999670386314392
","x: 242.17803955078125
y: 231.55422973632812
z: -0.1437271684408188
visibility: 0.9999707937240601
","x: 240.77574157714844
y: 231.46630859375
z: -0.1437266767024994
visibility: 0.9999653100967407
","x: 239.23306274414062
y: 231.36660766601562
z: -0.1436888426542282
visibility: 0.9999693632125854
","x: 250.57420349121094
y: 237.2831573486328
z: -0.03658687695860863
visibility: 0.9999445080757141
","x: 236.389892578125
y: 234.9549560546875
z: -0.04690222814679146
visibility: 0.9999437928199768
","x: 245.70631408691406
y: 244.9900665283203
z: -0.12082278728485107
visibility: 0.9999716281890869
","x: 241.15823364257812
y: 243.5316162109375
z: -0.12385670840740204
visibility: 0.9999765753746033
","x: 259.61566162109375
y: 275.8578796386719
z: 0.006944387219846249
visibility: 0.9999582171440125
","x: 223.43898010253906
y: 274.57318115234375
z: 0.010729827918112278
visibility: 0.9998370409011841
","x: 269.3236083984375
y: 316.99664306640625
z: -0.037547528743743896
visibility: 0.9843874573707581
","x: 213.76327514648438
y: 314.13623046875
z: -0.05507436394691467
visibility: 0.9537566304206848
","x: 263.9953918457031
y: 333.7198181152344
z: -0.22966793179512024
visibility: 0.9826205968856812
","x: 222.03811645507812
y: 325.6579284667969
z: -0.2319076508283615
visibility: 0.9230453968048096
","x: 260.1065673828125
y: 345.005126953125
z: -0.2692592740058899
visibility: 0.9646103382110596
","x: 225.9012908935547
y: 334.72967529296875
z: -0.2770995795726776
visibility: 0.8711865544319153
","x: 257.3266296386719
y: 338.47113037109375
z: -0.2828347384929657
visibility: 0.9654104709625244
","x: 228.54087829589844
y: 329.4690246582031
z: -0.28587308526039124
visibility: 0.8717736005783081
","x: 257.84228515625
y: 335.3671875
z: -0.23730354011058807
visibility: 0.9476531744003296
","x: 227.89453125
y: 326.2208251953125
z: -0.2380298674106598
visibility: 0.8505807518959045
","x: 254.38597106933594
y: 368.97357177734375
z: 0.0022839498706161976
visibility: 0.9997848868370056
","x: 230.55885314941406
y: 371.5428466796875
z: -0.0022067041136324406
visibility: 0.9998131990432739
","x: 256.1030578613281
y: 450.38641357421875
z: -0.0065831453539431095
visibility: 0.997456967830658
","x: 231.57839965820312
y: 452.99627685546875
z: -0.025962840765714645
visibility: 0.9974473118782043
","x: 260.88226318359375
y: 519.37451171875
z: 0.09531659632921219
visibility: 0.997042179107666
","x: 228.23452758789062
y: 524.392822265625
z: 0.07384777069091797
visibility: 0.9975547790527344
","x: 258.812255859375
y: 528.9241943359375
z: 0.0977715477347374
visibility: 0.9239406585693359
","x: 230.89694213867188
y: 533.353515625
z: 0.07589902728796005
visibility: 0.941785454750061
","x: 267.5127868652344
y: 545.2025756835938
z: -0.020955124869942665
visibility: 0.9935044050216675
","x: 222.19927978515625
y: 549.8683471679688
z: -0.045865822583436966
visibility: 0.9947268962860107
","x: 262.4413757324219
y: 332.36419677734375
z: 0.0
","x: 262.8554382324219
y: 337.8500061035156
z: 0.00024372785992454737
","x: 262.113525390625
y: 342.74530029296875
z: -0.0008047646260820329
","x: 260.89990234375
y: 345.54144287109375
z: -0.0021766952704638243
","x: 259.8169250488281
y: 347.46209716796875
z: -0.003685483243316412
","x: 259.8185729980469
y: 345.1746826171875
z: -0.0036766421981155872
","x: 257.8733215332031
y: 351.48687744140625
z: -0.0061747548170387745
","x: 256.1206359863281
y: 354.5452880859375
z: -0.007201888598501682
","x: 254.730712890625
y: 356.2112731933594
z: -0.007688610814511776
","x: 257.96148681640625
y: 342.912353515625
z: -0.005470671691000462
","x: 255.22828674316406
y: 349.2804260253906
z: -0.00794103741645813
","x: 253.09092712402344
y: 352.6852111816406
z: -0.008528481237590313
","x: 251.54640197753906
y: 354.95068359375
z: -0.008929843083024025
","x: 256.412353515625
y: 339.77789306640625
z: -0.007156624924391508
","x: 253.37460327148438
y: 345.0321960449219
z: -0.009614536538720131
","x: 251.2246551513672
y: 348.2467956542969
z: -0.010080196894705296
","x: 249.7110595703125
y: 350.4757995605469
z: -0.010341084562242031
","x: 255.2488555908203
y: 336.107666015625
z: -0.008819508366286755
","x: 252.63339233398438
y: 339.471435546875
z: -0.010933059267699718
","x: 250.91880798339844
y: 341.93878173828125
z: -0.011475074104964733
","x: 249.6256561279297
y: 343.9122314453125
z: -0.011773615144193172
",4.653619050979614,"x: 224.6829376220703
y: 322.318359375
z: 0.0
","x: 228.25341796875
y: 323.5254211425781
z: 0.0006719328812323511
","x: 231.39895629882812
y: 327.562255859375
z: -0.00047766577336005867
","x: 233.13922119140625
y: 332.171142578125
z: -0.0018072217935696244
","x: 234.0869140625
y: 336.1844482421875
z: -0.0032069827429950237
","x: 232.16696166992188
y: 327.2051696777344
z: -0.004893547389656305
","x: 235.45040893554688
y: 332.32275390625
z: -0.007468896452337503
","x: 237.43972778320312
y: 336.3834228515625
z: -0.008505323901772499
","x: 238.81463623046875
y: 339.71075439453125
z: -0.009077013470232487
","x: 230.45411682128906
y: 329.1313171386719
z: -0.006789248902350664
","x: 233.5172576904297
y: 335.38665771484375
z: -0.009621204808354378
","x: 235.28317260742188
y: 340.28948974609375
z: -0.010143978521227837
","x: 236.53421020507812
y: 344.1169738769531
z: -0.01046874187886715
","x: 228.41566467285156
y: 331.11578369140625
z: -0.008365187793970108
","x: 230.84542846679688
y: 337.7515869140625
z: -0.010853223502635956
","x: 232.17880249023438
y: 342.1181945800781
z: -0.010806916281580925
","x: 233.15695190429688
y: 345.179443359375
z: -0.010727623477578163
","x: 226.2106170654297
y: 332.9588623046875
z: -0.009834597818553448
","x: 227.94384765625
y: 338.92626953125
z: -0.011974677443504333
","x: 229.2130584716797
y: 342.9256591796875
z: -0.012267408892512321
","x: 230.33969116210938
y: 346.0179138183594
z: -0.012353040277957916
"
12,"x: 243.96206665039062
y: 236.827392578125
z: -0.15991921722888947
visibility: 0.999983012676239
","x: 246.1531982421875
y: 232.37115478515625
z: -0.1417466104030609
visibility: 0.9999706745147705
","x: 247.51791381835938
y: 232.78756713867188
z: -0.1417502909898758
visibility: 0.9999639987945557
","x: 248.84622192382812
y: 233.10983276367188
z: -0.14175072312355042
visibility: 0.9999670386314392
","x: 242.17803955078125
y: 231.55422973632812
z: -0.1437271684408188
visibility: 0.9999707937240601
","x: 240.77574157714844
y: 231.46630859375
z: -0.1437266767024994
visibility: 0.9999653100967407
","x: 239.23306274414062
y: 231.36660766601562
z: -0.1436888426542282
visibility: 0.9999693632125854
","x: 250.57420349121094
y: 237.2831573486328
z: -0.03658687695860863
visibility: 0.9999445080757141
","x: 236.389892578125
y: 234.9549560546875
z: -0.04690222814679146
visibility: 0.9999437928199768
","x: 245.70631408691406
y: 244.9900665283203
z: -0.12082278728485107
visibility: 0.9999716281890869
","x: 241.15823364257812
y: 243.5316162109375
z: -0.12385670840740204
visibility: 0.9999765753746033
","x: 259.61566162109375
y: 275.8578796386719
z: 0.006944387219846249
visibility: 0.9999582171440125
","x: 223.43898010253906
y: 274.57318115234375
z: 0.010729827918112278
visibility: 0.9998370409011841
","x: 269.3236083984375
y: 316.99664306640625
z: -0.037547528743743896
visibility: 0.9843874573707581
","x: 213.76327514648438
y: 314.13623046875
z: -0.05507436394691467
visibility: 0.9537566304206848
","x: 263.9953918457031
y: 333.7198181152344
z: -0.22966793179512024
visibility: 0.9826205968856812
","x: 222.03811645507812
y: 325.6579284667969
z: -0.2319076508283615
visibility: 0.9230453968048096
","x: 260.1065673828125
y: 345.005126953125
z: -0.2692592740058899
visibility: 0.9646103382110596
","x: 225.9012908935547
y: 334.72967529296875
z: -0.2770995795726776
visibility: 0.8711865544319153
","x: 257.3266296386719
y: 338.47113037109375
z: -0.2828347384929657
visibility: 0.9654104709625244
","x: 228.54087829589844
y: 329.4690246582031
z: -0.28587308526039124
visibility: 0.8717736005783081
","x: 257.84228515625
y: 335.3671875
z: -0.23730354011058807
visibility: 0.9476531744003296
","x: 227.89453125
y: 326.2208251953125
z: -0.2380298674106598
visibility: 0.8505807518959045
","x: 254.38597106933594
y: 368.97357177734375
z: 0.0022839498706161976
visibility: 0.9997848868370056
","x: 230.55885314941406
y: 371.5428466796875
z: -0.0022067041136324406
visibility: 0.9998131990432739
","x: 256.1030578613281
y: 450.38641357421875
z: -0.0065831453539431095
visibility: 0.997456967830658
","x: 231.57839965820312
y: 452.99627685546875
z: -0.025962840765714645
visibility: 0.9974473118782043
","x: 260.88226318359375
y: 519.37451171875
z: 0.09531659632921219
visibility: 0.997042179107666
","x: 228.23452758789062
y: 524.392822265625
z: 0.07384777069091797
visibility: 0.9975547790527344
","x: 258.812255859375
y: 528.9241943359375
z: 0.0977715477347374
visibility: 0.9239406585693359
","x: 230.89694213867188
y: 533.353515625
z: 0.07589902728796005
visibility: 0.941785454750061
","x: 267.5127868652344
y: 545.2025756835938
z: -0.020955124869942665
visibility: 0.9935044050216675
","x: 222.19927978515625
y: 549.8683471679688
z: -0.045865822583436966
visibility: 0.9947268962860107
","x: 262.4413757324219
y: 332.36419677734375
z: 0.0
","x: 262.8554382324219
y: 337.8500061035156
z: 0.00024372785992454737
","x: 262.113525390625
y: 342.74530029296875
z: -0.0008047646260820329
","x: 260.89990234375
y: 345.54144287109375
z: -0.0021766952704638243
","x: 259.8169250488281
y: 347.46209716796875
z: -0.003685483243316412
","x: 259.8185729980469
y: 345.1746826171875
z: -0.0036766421981155872
","x: 257.8733215332031
y: 351.48687744140625
z: -0.0061747548170387745
","x: 256.1206359863281
y: 354.5452880859375
z: -0.007201888598501682
","x: 254.730712890625
y: 356.2112731933594
z: -0.007688610814511776
","x: 257.96148681640625
y: 342.912353515625
z: -0.005470671691000462
","x: 255.22828674316406
y: 349.2804260253906
z: -0.00794103741645813
","x: 253.09092712402344
y: 352.6852111816406
z: -0.008528481237590313
","x: 251.54640197753906
y: 354.95068359375
z: -0.008929843083024025
","x: 256.412353515625
y: 339.77789306640625
z: -0.007156624924391508
","x: 253.37460327148438
y: 345.0321960449219
z: -0.009614536538720131
","x: 251.2246551513672
y: 348.2467956542969
z: -0.010080196894705296
","x: 249.7110595703125
y: 350.4757995605469
z: -0.010341084562242031
","x: 255.2488555908203
y: 336.107666015625
z: -0.008819508366286755
","x: 252.63339233398438
y: 339.471435546875
z: -0.010933059267699718
","x: 250.91880798339844
y: 341.93878173828125
z: -0.011475074104964733
","x: 249.6256561279297
y: 343.9122314453125
z: -0.011773615144193172
",4.653619050979614,"x: 224.6829376220703
y: 322.318359375
z: 0.0
","x: 228.25341796875
y: 323.5254211425781
z: 0.0006719328812323511
","x: 231.39895629882812
y: 327.562255859375
z: -0.00047766577336005867
","x: 233.13922119140625
y: 332.171142578125
z: -0.0018072217935696244
","x: 234.0869140625
y: 336.1844482421875
z: -0.0032069827429950237
","x: 232.16696166992188
y: 327.2051696777344
z: -0.004893547389656305
","x: 235.45040893554688
y: 332.32275390625
z: -0.007468896452337503
","x: 237.43972778320312
y: 336.3834228515625
z: -0.008505323901772499
","x: 238.81463623046875
y: 339.71075439453125
z: -0.009077013470232487
","x: 230.45411682128906
y: 329.1313171386719
z: -0.006789248902350664
","x: 233.5172576904297
y: 335.38665771484375
z: -0.009621204808354378
","x: 235.28317260742188
y: 340.28948974609375
z: -0.010143978521227837
","x: 236.53421020507812
y: 344.1169738769531
z: -0.01046874187886715
","x: 228.41566467285156
y: 331.11578369140625
z: -0.008365187793970108
","x: 230.84542846679688
y: 337.7515869140625
z: -0.010853223502635956
","x: 232.17880249023438
y: 342.1181945800781
z: -0.010806916281580925
","x: 233.15695190429688
y: 345.179443359375
z: -0.010727623477578163
","x: 226.2106170654297
y: 332.9588623046875
z: -0.009834597818553448
","x: 227.94384765625
y: 338.92626953125
z: -0.011974677443504333
","x: 229.2130584716797
y: 342.9256591796875
z: -0.012267408892512321
","x: 230.33969116210938
y: 346.0179138183594
z: -0.012353040277957916
"
13,"x: 243.96206665039062
y: 236.827392578125
z: -0.15991921722888947
visibility: 0.999983012676239
","x: 246.1531982421875
y: 232.37115478515625
z: -0.1417466104030609
visibility: 0.9999706745147705
","x: 247.51791381835938
y: 232.78756713867188
z: -0.1417502909898758
visibility: 0.9999639987945557
","x: 248.84622192382812
y: 233.10983276367188
z: -0.14175072312355042
visibility: 0.9999670386314392
","x: 242.17803955078125
y: 231.55422973632812
z: -0.1437271684408188
visibility: 0.9999707937240601
","x: 240.77574157714844
y: 231.46630859375
z: -0.1437266767024994
visibility: 0.9999653100967407
","x: 239.23306274414062
y: 231.36660766601562
z: -0.1436888426542282
visibility: 0.9999693632125854
","x: 250.57420349121094
y: 237.2831573486328
z: -0.03658687695860863
visibility: 0.9999445080757141
","x: 236.389892578125
y: 234.9549560546875
z: -0.04690222814679146
visibility: 0.9999437928199768
","x: 245.70631408691406
y: 244.9900665283203
z: -0.12082278728485107
visibility: 0.9999716281890869
","x: 241.15823364257812
y: 243.5316162109375
z: -0.12385670840740204
visibility: 0.9999765753746033
","x: 259.61566162109375
y: 275.8578796386719
z: 0.006944387219846249
visibility: 0.9999582171440125
","x: 223.43898010253906
y: 274.57318115234375
z: 0.010729827918112278
visibility: 0.9998370409011841
","x: 269.3236083984375
y: 316.99664306640625
z: -0.037547528743743896
visibility: 0.9843874573707581
","x: 213.76327514648438
y: 314.13623046875
z: -0.05507436394691467
visibility: 0.9537566304206848
","x: 263.9953918457031
y: 333.7198181152344
z: -0.22966793179512024
visibility: 0.9826205968856812
","x: 222.03811645507812
y: 325.6579284667969
z: -0.2319076508283615
visibility: 0.9230453968048096
","x: 260.1065673828125
y: 345.005126953125
z: -0.2692592740058899
visibility: 0.9646103382110596
","x: 225.9012908935547
y: 334.72967529296875
z: -0.2770995795726776
visibility: 0.8711865544319153
","x: 257.3266296386719
y: 338.47113037109375
z: -0.2828347384929657
visibility: 0.9654104709625244
","x: 228.54087829589844
y: 329.4690246582031
z: -0.28587308526039124
visibility: 0.8717736005783081
","x: 257.84228515625
y: 335.3671875
z: -0.23730354011058807
visibility: 0.9476531744003296
","x: 227.89453125
y: 326.2208251953125
z: -0.2380298674106598
visibility: 0.8505807518959045
","x: 254.38597106933594
y: 368.97357177734375
z: 0.0022839498706161976
visibility: 0.9997848868370056
","x: 230.55885314941406
y: 371.5428466796875
z: -0.0022067041136324406
visibility: 0.9998131990432739
","x: 256.1030578613281
y: 450.38641357421875
z: -0.0065831453539431095
visibility: 0.997456967830658
","x: 231.57839965820312
y: 452.99627685546875
z: -0.025962840765714645
visibility: 0.9974473118782043
","x: 260.88226318359375
y: 519.37451171875
z: 0.09531659632921219
visibility: 0.997042179107666
","x: 228.23452758789062
y: 524.392822265625
z: 0.07384777069091797
visibility: 0.9975547790527344
","x: 258.812255859375
y: 528.9241943359375
z: 0.0977715477347374
visibility: 0.9239406585693359
","x: 230.89694213867188
y: 533.353515625
z: 0.07589902728796005
visibility: 0.941785454750061
","x: 267.5127868652344
y: 545.2025756835938
z: -0.020955124869942665
visibility: 0.9935044050216675
","x: 222.19927978515625
y: 549.8683471679688
z: -0.045865822583436966
visibility: 0.9947268962860107
","x: 262.4413757324219
y: 332.36419677734375
z: 0.0
","x: 262.8554382324219
y: 337.8500061035156
z: 0.00024372785992454737
","x: 262.113525390625
y: 342.74530029296875
z: -0.0008047646260820329
","x: 260.89990234375
y: 345.54144287109375
z: -0.0021766952704638243
","x: 259.8169250488281
y: 347.46209716796875
z: -0.003685483243316412
","x: 259.8185729980469
y: 345.1746826171875
z: -0.0036766421981155872
","x: 257.8733215332031
y: 351.48687744140625
z: -0.0061747548170387745
","x: 256.1206359863281
y: 354.5452880859375
z: -0.007201888598501682
","x: 254.730712890625
y: 356.2112731933594
z: -0.007688610814511776
","x: 257.96148681640625
y: 342.912353515625
z: -0.005470671691000462
","x: 255.22828674316406
y: 349.2804260253906
z: -0.00794103741645813
","x: 253.09092712402344
y: 352.6852111816406
z: -0.008528481237590313
","x: 251.54640197753906
y: 354.95068359375
z: -0.008929843083024025
","x: 256.412353515625
y: 339.77789306640625
z: -0.007156624924391508
","x: 253.37460327148438
y: 345.0321960449219
z: -0.009614536538720131
","x: 251.2246551513672
y: 348.2467956542969
z: -0.010080196894705296
","x: 249.7110595703125
y: 350.4757995605469
z: -0.010341084562242031
","x: 255.2488555908203
y: 336.107666015625
z: -0.008819508366286755
","x: 252.63339233398438
y: 339.471435546875
z: -0.010933059267699718
","x: 250.91880798339844
y: 341.93878173828125
z: -0.011475074104964733
","x: 249.6256561279297
y: 343.9122314453125
z: -0.011773615144193172
",4.653619050979614,"x: 224.6829376220703
y: 322.318359375
z: 0.0
","x: 228.25341796875
y: 323.5254211425781
z: 0.0006719328812323511
","x: 231.39895629882812
y: 327.562255859375
z: -0.00047766577336005867
","x: 233.13922119140625
y: 332.171142578125
z: -0.0018072217935696244
","x: 234.0869140625
y: 336.1844482421875
z: -0.0032069827429950237
","x: 232.16696166992188
y: 327.2051696777344
z: -0.004893547389656305
","x: 235.45040893554688
y: 332.32275390625
z: -0.007468896452337503
","x: 237.43972778320312
y: 336.3834228515625
z: -0.008505323901772499
","x: 238.81463623046875
y: 339.71075439453125
z: -0.009077013470232487
","x: 230.45411682128906
y: 329.1313171386719
z: -0.006789248902350664
","x: 233.5172576904297
y: 335.38665771484375
z: -0.009621204808354378
","x: 235.28317260742188
y: 340.28948974609375
z: -0.010143978521227837
","x: 236.53421020507812
y: 344.1169738769531
z: -0.01046874187886715
","x: 228.41566467285156
y: 331.11578369140625
z: -0.008365187793970108
","x: 230.84542846679688
y: 337.7515869140625
z: -0.010853223502635956
","x: 232.17880249023438
y: 342.1181945800781
z: -0.010806916281580925
","x: 233.15695190429688
y: 345.179443359375
z: -0.010727623477578163
","x: 226.2106170654297
y: 332.9588623046875
z: -0.009834597818553448
","x: 227.94384765625
y: 338.92626953125
z: -0.011974677443504333
","x: 229.2130584716797
y: 342.9256591796875
z: -0.012267408892512321
","x: 230.33969116210938
y: 346.0179138183594
z: -0.012353040277957916
"
14,"x: 250.09005737304688
y: 237.0523681640625
z: -0.15214022994041443
visibility: 0.9999821186065674
","x: 252.25567626953125
y: 232.4414825439453
z: -0.13426724076271057
visibility: 0.9999673962593079
","x: 253.65780639648438
y: 232.8060302734375
z: -0.13427093625068665
visibility: 0.9999595880508423
","x: 254.9865264892578
y: 233.09603881835938
z: -0.13427004218101501
visibility: 0.999963104724884
","x: 248.24520874023438
y: 231.71388244628906
z: -0.13517294824123383
visibility: 0.9999687671661377
","x: 246.792724609375
y: 231.62078857421875
z: -0.13516934216022491
visibility: 0.999963104724884
","x: 245.4983367919922
y: 231.516845703125
z: -0.1351320594549179
visibility: 0.9999681115150452
","x: 256.80291748046875
y: 237.2423553466797
z: -0.0323924645781517
visibility: 0.999935507774353
","x: 243.00244140625
y: 235.0281524658203
z: -0.03762124106287956
visibility: 0.9999389052391052
","x: 252.15765380859375
y: 245.02005004882812
z: -0.11419031769037247
visibility: 0.9999690055847168
","x: 247.29730224609375
y: 243.77586364746094
z: -0.11585737764835358
visibility: 0.999975323677063
","x: 266.4184265136719
y: 275.7574462890625
z: 0.011567892506718636
visibility: 0.9999532699584961
","x: 230.33389282226562
y: 274.508544921875
z: 0.01877419464290142
visibility: 0.9998434782028198
","x: 276.5189514160156
y: 317.35223388671875
z: -0.033788688480854034
visibility: 0.9848433136940002
","x: 221.4916534423828
y: 317.195556640625
z: -0.031939372420310974
visibility: 0.9559106826782227
","x: 264.8807678222656
y: 334.2904968261719
z: -0.19376996159553528
visibility: 0.9828535318374634
","x: 233.56837463378906
y: 329.3431091308594
z: -0.20040282607078552
visibility: 0.9286749362945557
","x: 260.5240478515625
y: 344.9989318847656
z: -0.23663274943828583
visibility: 0.9646618962287903
","x: 237.89886474609375
y: 338.63177490234375
z: -0.24442370235919952
visibility: 0.8801414370536804
","x: 258.50091552734375
y: 338.0029602050781
z: -0.24881725013256073
visibility: 0.9654251337051392
","x: 239.93463134765625
y: 331.77105712890625
z: -0.2542262375354767
visibility: 0.8806830644607544
","x: 259.33349609375
y: 334.82635498046875
z: -0.20157010853290558
visibility: 0.9476234316825867
","x: 239.5345458984375
y: 328.3949279785156
z: -0.20748722553253174
visibility: 0.8598605990409851
","x: 260.4644775390625
y: 368.8039855957031
z: 0.001957403961569071
visibility: 0.9997532963752747
","x: 236.40301513671875
y: 370.62799072265625
z: -0.0018890636274591088
visibility: 0.9998036623001099
","x: 258.1357421875
y: 449.116455078125
z: -0.004889206029474735
visibility: 0.9973192811012268
","x: 234.13021850585938
y: 452.3411560058594
z: -0.021898960694670677
visibility: 0.9973673820495605
","x: 261.08551025390625
y: 518.7052001953125
z: 0.10524674504995346
visibility: 0.9967448711395264
","x: 229.0221405029297
y: 524.381591796875
z: 0.0779377818107605
visibility: 0.997473418712616
","x: 259.0144958496094
y: 528.4080200195312
z: 0.10918968915939331
visibility: 0.9204422831535339
","x: 231.22616577148438
y: 533.351806640625
z: 0.08000368624925613
visibility: 0.939486563205719
","x: 266.4869689941406
y: 544.23291015625
z: -0.007656716741621494
visibility: 0.9930933713912964
","x: 222.35215759277344
y: 549.741455078125
z: -0.039356835186481476
visibility: 0.9944632649421692
","x: 265.49444580078125
y: 335.3315734863281
z: 0.0
","x: 262.1606140136719
y: 333.4384460449219
z: -0.0004714519309345633
","x: 258.47247314453125
y: 333.7020568847656
z: -0.0017169323982670903
","x: 255.4542236328125
y: 334.6680908203125
z: -0.002846537856385112
","x: 253.386474609375
y: 335.24395751953125
z: -0.004008905496448278
","x: 257.5453796386719
y: 336.97235107421875
z: -0.005120072513818741
","x: 253.51475524902344
y: 340.8726501464844
z: -0.0071375248953700066
","x: 251.31016540527344
y: 343.15423583984375
z: -0.007425306364893913
","x: 249.75926208496094
y: 344.5350341796875
z: -0.007360735442489386
","x: 258.6617431640625
y: 340.7702941894531
z: -0.006011048797518015
","x: 254.67990112304688
y: 345.8476257324219
z: -0.008014094084501266
","x: 252.3336639404297
y: 348.3730773925781
z: -0.007821709848940372
","x: 250.6432342529297
y: 349.8609924316406
z: -0.00763833848759532
","x: 260.15130615234375
y: 344.0872802734375
z: -0.0066749053075909615
","x: 256.5805358886719
y: 349.5179443359375
z: -0.008439592085778713
","x: 254.326171875
y: 352.2669982910156
z: -0.008249622769653797
","x: 252.60850524902344
y: 353.9271545410156
z: -0.008177618496119976
","x: 261.81597900390625
y: 346.7276611328125
z: -0.007327776402235031
","x: 259.3612365722656
y: 351.6378173828125
z: -0.008693858981132507
","x: 257.8133850097656
y: 354.1286926269531
z: -0.008723164908587933
","x: 256.4115295410156
y: 355.65399169921875
z: -0.008764383383095264
",4.78224778175354,"x: 235.04566955566406
y: 328.907958984375
z: 0.0
","x: 238.47557067871094
y: 327.0199890136719
z: 0.00048348173731938004
","x: 241.97364807128906
y: 328.035400390625
z: -0.000132365312310867
","x: 244.1708526611328
y: 330.2417297363281
z: -0.0010166045976802707
","x: 245.28782653808594
y: 331.59906005859375
z: -0.0019182361429557204
","x: 243.0968017578125
y: 330.68182373046875
z: -0.0029767826199531555
","x: 246.7111053466797
y: 334.17523193359375
z: -0.0048975590616464615
","x: 248.57562255859375
y: 336.8521728515625
z: -0.005451007280498743
","x: 249.8360595703125
y: 338.98712158203125
z: -0.005640233401209116
","x: 241.8604736328125
y: 333.9218444824219
z: -0.00448443740606308
","x: 245.2388153076172
y: 337.9788513183594
z: -0.006454654969274998
","x: 246.77313232421875
y: 340.6717529296875
z: -0.006430273875594139
","x: 247.68507385253906
y: 342.567138671875
z: -0.006323985755443573
","x: 240.22702026367188
y: 336.85845947265625
z: -0.00584044074639678
","x: 243.00875854492188
y: 341.17962646484375
z: -0.007796585559844971
","x: 244.34835815429688
y: 343.71453857421875
z: -0.007631218526512384
","x: 245.2122344970703
y: 345.27001953125
z: -0.007384731899946928
","x: 238.41387939453125
y: 339.27301025390625
z: -0.007185117341578007
","x: 240.33705139160156
y: 343.35540771484375
z: -0.008874707855284214
","x: 241.52215576171875
y: 345.63189697265625
z: -0.009035886265337467
","x: 242.4812774658203
y: 347.1463623046875
z: -0.008959558792412281
"
15,"x: 250.09005737304688
y: 237.0523681640625
z: -0.15214022994041443
visibility: 0.9999821186065674
","x: 252.25567626953125
y: 232.4414825439453
z: -0.13426724076271057
visibility: 0.9999673962593079
","x: 253.65780639648438
y: 232.8060302734375
z: -0.13427093625068665
visibility: 0.9999595880508423
","x: 254.9865264892578
y: 233.09603881835938
z: -0.13427004218101501
visibility: 0.999963104724884
","x: 248.24520874023438
y: 231.71388244628906
z: -0.13517294824123383
visibility: 0.9999687671661377
","x: 246.792724609375
y: 231.62078857421875
z: -0.13516934216022491
visibility: 0.999963104724884
","x: 245.4983367919922
y: 231.516845703125
z: -0.1351320594549179
visibility: 0.9999681115150452
","x: 256.80291748046875
y: 237.2423553466797
z: -0.0323924645781517
visibility: 0.999935507774353
","x: 243.00244140625
y: 235.0281524658203
z: -0.03762124106287956
visibility: 0.9999389052391052
","x: 252.15765380859375
y: 245.02005004882812
z: -0.11419031769037247
visibility: 0.9999690055847168
","x: 247.29730224609375
y: 243.77586364746094
z: -0.11585737764835358
visibility: 0.999975323677063
","x: 266.4184265136719
y: 275.7574462890625
z: 0.011567892506718636
visibility: 0.9999532699584961
","x: 230.33389282226562
y: 274.508544921875
z: 0.01877419464290142
visibility: 0.9998434782028198
","x: 276.5189514160156
y: 317.35223388671875
z: -0.033788688480854034
visibility: 0.9848433136940002
","x: 221.4916534423828
y: 317.195556640625
z: -0.031939372420310974
visibility: 0.9559106826782227
","x: 264.8807678222656
y: 334.2904968261719
z: -0.19376996159553528
visibility: 0.9828535318374634
","x: 233.56837463378906
y: 329.3431091308594
z: -0.20040282607078552
visibility: 0.9286749362945557
","x: 260.5240478515625
y: 344.9989318847656
z: -0.23663274943828583
visibility: 0.9646618962287903
","x: 237.89886474609375
y: 338.63177490234375
z: -0.24442370235919952
visibility: 0.8801414370536804
","x: 258.50091552734375
y: 338.0029602050781
z: -0.24881725013256073
visibility: 0.9654251337051392
","x: 239.93463134765625
y: 331.77105712890625
z: -0.2542262375354767
visibility: 0.8806830644607544
","x: 259.33349609375
y: 334.82635498046875
z: -0.20157010853290558
visibility: 0.9476234316825867
","x: 239.5345458984375
y: 328.3949279785156
z: -0.20748722553253174
visibility: 0.8598605990409851
","x: 260.4644775390625
y: 368.8039855957031
z: 0.001957403961569071
visibility: 0.9997532963752747
","x: 236.40301513671875
y: 370.62799072265625
z: -0.0018890636274591088
visibility: 0.9998036623001099
","x: 258.1357421875
y: 449.116455078125
z: -0.004889206029474735
visibility: 0.9973192811012268
","x: 234.13021850585938
y: 452.3411560058594
z: -0.021898960694670677
visibility: 0.9973673820495605
","x: 261.08551025390625
y: 518.7052001953125
z: 0.10524674504995346
visibility: 0.9967448711395264
","x: 229.0221405029297
y: 524.381591796875
z: 0.0779377818107605
visibility: 0.997473418712616
","x: 259.0144958496094
y: 528.4080200195312
z: 0.10918968915939331
visibility: 0.9204422831535339
","x: 231.22616577148438
y: 533.351806640625
z: 0.08000368624925613
visibility: 0.939486563205719
","x: 266.4869689941406
y: 544.23291015625
z: -0.007656716741621494
visibility: 0.9930933713912964
","x: 222.35215759277344
y: 549.741455078125
z: -0.039356835186481476
visibility: 0.9944632649421692
","x: 265.49444580078125
y: 335.3315734863281
z: 0.0
","x: 262.1606140136719
y: 333.4384460449219
z: -0.0004714519309345633
","x: 258.47247314453125
y: 333.7020568847656
z: -0.0017169323982670903
","x: 255.4542236328125
y: 334.6680908203125
z: -0.002846537856385112
","x: 253.386474609375
y: 335.24395751953125
z: -0.004008905496448278
","x: 257.5453796386719
y: 336.97235107421875
z: -0.005120072513818741
","x: 253.51475524902344
y: 340.8726501464844
z: -0.0071375248953700066
","x: 251.31016540527344
y: 343.15423583984375
z: -0.007425306364893913
","x: 249.75926208496094
y: 344.5350341796875
z: -0.007360735442489386
","x: 258.6617431640625
y: 340.7702941894531
z: -0.006011048797518015
","x: 254.67990112304688
y: 345.8476257324219
z: -0.008014094084501266
","x: 252.3336639404297
y: 348.3730773925781
z: -0.007821709848940372
","x: 250.6432342529297
y: 349.8609924316406
z: -0.00763833848759532
","x: 260.15130615234375
y: 344.0872802734375
z: -0.0066749053075909615
","x: 256.5805358886719
y: 349.5179443359375
z: -0.008439592085778713
","x: 254.326171875
y: 352.2669982910156
z: -0.008249622769653797
","x: 252.60850524902344
y: 353.9271545410156
z: -0.008177618496119976
","x: 261.81597900390625
y: 346.7276611328125
z: -0.007327776402235031
","x: 259.3612365722656
y: 351.6378173828125
z: -0.008693858981132507
","x: 257.8133850097656
y: 354.1286926269531
z: -0.008723164908587933
","x: 256.4115295410156
y: 355.65399169921875
z: -0.008764383383095264
",4.78224778175354,"x: 235.04566955566406
y: 328.907958984375
z: 0.0
","x: 238.47557067871094
y: 327.0199890136719
z: 0.00048348173731938004
","x: 241.97364807128906
y: 328.035400390625
z: -0.000132365312310867
","x: 244.1708526611328
y: 330.2417297363281
z: -0.0010166045976802707
","x: 245.28782653808594
y: 331.59906005859375
z: -0.0019182361429557204
","x: 243.0968017578125
y: 330.68182373046875
z: -0.0029767826199531555
","x: 246.7111053466797
y: 334.17523193359375
z: -0.0048975590616464615
","x: 248.57562255859375
y: 336.8521728515625
z: -0.005451007280498743
","x: 249.8360595703125
y: 338.98712158203125
z: -0.005640233401209116
","x: 241.8604736328125
y: 333.9218444824219
z: -0.00448443740606308
","x: 245.2388153076172
y: 337.9788513183594
z: -0.006454654969274998
","x: 246.77313232421875
y: 340.6717529296875
z: -0.006430273875594139
","x: 247.68507385253906
y: 342.567138671875
z: -0.006323985755443573
","x: 240.22702026367188
y: 336.85845947265625
z: -0.00584044074639678
","x: 243.00875854492188
y: 341.17962646484375
z: -0.007796585559844971
","x: 244.34835815429688
y: 343.71453857421875
z: -0.007631218526512384
","x: 245.2122344970703
y: 345.27001953125
z: -0.007384731899946928
","x: 238.41387939453125
y: 339.27301025390625
z: -0.007185117341578007
","x: 240.33705139160156
y: 343.35540771484375
z: -0.008874707855284214
","x: 241.52215576171875
y: 345.63189697265625
z: -0.009035886265337467
","x: 242.4812774658203
y: 347.1463623046875
z: -0.008959558792412281
"
16,"x: 250.09005737304688
y: 237.0523681640625
z: -0.15214022994041443
visibility: 0.9999821186065674
","x: 252.25567626953125
y: 232.4414825439453
z: -0.13426724076271057
visibility: 0.9999673962593079
","x: 253.65780639648438
y: 232.8060302734375
z: -0.13427093625068665
visibility: 0.9999595880508423
","x: 254.9865264892578
y: 233.09603881835938
z: -0.13427004218101501
visibility: 0.999963104724884
","x: 248.24520874023438
y: 231.71388244628906
z: -0.13517294824123383
visibility: 0.9999687671661377
","x: 246.792724609375
y: 231.62078857421875
z: -0.13516934216022491
visibility: 0.999963104724884
","x: 245.4983367919922
y: 231.516845703125
z: -0.1351320594549179
visibility: 0.9999681115150452
","x: 256.80291748046875
y: 237.2423553466797
z: -0.0323924645781517
visibility: 0.999935507774353
","x: 243.00244140625
y: 235.0281524658203
z: -0.03762124106287956
visibility: 0.9999389052391052
","x: 252.15765380859375
y: 245.02005004882812
z: -0.11419031769037247
visibility: 0.9999690055847168
","x: 247.29730224609375
y: 243.77586364746094
z: -0.11585737764835358
visibility: 0.999975323677063
","x: 266.4184265136719
y: 275.7574462890625
z: 0.011567892506718636
visibility: 0.9999532699584961
","x: 230.33389282226562
y: 274.508544921875
z: 0.01877419464290142
visibility: 0.9998434782028198
","x: 276.5189514160156
y: 317.35223388671875
z: -0.033788688480854034
visibility: 0.9848433136940002
","x: 221.4916534423828
y: 317.195556640625
z: -0.031939372420310974
visibility: 0.9559106826782227
","x: 264.8807678222656
y: 334.2904968261719
z: -0.19376996159553528
visibility: 0.9828535318374634
","x: 233.56837463378906
y: 329.3431091308594
z: -0.20040282607078552
visibility: 0.9286749362945557
","x: 260.5240478515625
y: 344.9989318847656
z: -0.23663274943828583
visibility: 0.9646618962287903
","x: 237.89886474609375
y: 338.63177490234375
z: -0.24442370235919952
visibility: 0.8801414370536804
","x: 258.50091552734375
y: 338.0029602050781
z: -0.24881725013256073
visibility: 0.9654251337051392
","x: 239.93463134765625
y: 331.77105712890625
z: -0.2542262375354767
visibility: 0.8806830644607544
","x: 259.33349609375
y: 334.82635498046875
z: -0.20157010853290558
visibility: 0.9476234316825867
","x: 239.5345458984375
y: 328.3949279785156
z: -0.20748722553253174
visibility: 0.8598605990409851
","x: 260.4644775390625
y: 368.8039855957031
z: 0.001957403961569071
visibility: 0.9997532963752747
","x: 236.40301513671875
y: 370.62799072265625
z: -0.0018890636274591088
visibility: 0.9998036623001099
","x: 258.1357421875
y: 449.116455078125
z: -0.004889206029474735
visibility: 0.9973192811012268
","x: 234.13021850585938
y: 452.3411560058594
z: -0.021898960694670677
visibility: 0.9973673820495605
","x: 261.08551025390625
y: 518.7052001953125
z: 0.10524674504995346
visibility: 0.9967448711395264
","x: 229.0221405029297
y: 524.381591796875
z: 0.0779377818107605
visibility: 0.997473418712616
","x: 259.0144958496094
y: 528.4080200195312
z: 0.10918968915939331
visibility: 0.9204422831535339
","x: 231.22616577148438
y: 533.351806640625
z: 0.08000368624925613
visibility: 0.939486563205719
","x: 266.4869689941406
y: 544.23291015625
z: -0.007656716741621494
visibility: 0.9930933713912964
","x: 222.35215759277344
y: 549.741455078125
z: -0.039356835186481476
visibility: 0.9944632649421692
","x: 265.49444580078125
y: 335.3315734863281
z: 0.0
","x: 262.1606140136719
y: 333.4384460449219
z: -0.0004714519309345633
","x: 258.47247314453125
y: 333.7020568847656
z: -0.0017169323982670903
","x: 255.4542236328125
y: 334.6680908203125
z: -0.002846537856385112
","x: 253.386474609375
y: 335.24395751953125
z: -0.004008905496448278
","x: 257.5453796386719
y: 336.97235107421875
z: -0.005120072513818741
","x: 253.51475524902344
y: 340.8726501464844
z: -0.0071375248953700066
","x: 251.31016540527344
y: 343.15423583984375
z: -0.007425306364893913
","x: 249.75926208496094
y: 344.5350341796875
z: -0.007360735442489386
","x: 258.6617431640625
y: 340.7702941894531
z: -0.006011048797518015
","x: 254.67990112304688
y: 345.8476257324219
z: -0.008014094084501266
","x: 252.3336639404297
y: 348.3730773925781
z: -0.007821709848940372
","x: 250.6432342529297
y: 349.8609924316406
z: -0.00763833848759532
","x: 260.15130615234375
y: 344.0872802734375
z: -0.0066749053075909615
","x: 256.5805358886719
y: 349.5179443359375
z: -0.008439592085778713
","x: 254.326171875
y: 352.2669982910156
z: -0.008249622769653797
","x: 252.60850524902344
y: 353.9271545410156
z: -0.008177618496119976
","x: 261.81597900390625
y: 346.7276611328125
z: -0.007327776402235031
","x: 259.3612365722656
y: 351.6378173828125
z: -0.008693858981132507
","x: 257.8133850097656
y: 354.1286926269531
z: -0.008723164908587933
","x: 256.4115295410156
y: 355.65399169921875
z: -0.008764383383095264
",4.78224778175354,"x: 235.04566955566406
y: 328.907958984375
z: 0.0
","x: 238.47557067871094
y: 327.0199890136719
z: 0.00048348173731938004
","x: 241.97364807128906
y: 328.035400390625
z: -0.000132365312310867
","x: 244.1708526611328
y: 330.2417297363281
z: -0.0010166045976802707
","x: 245.28782653808594
y: 331.59906005859375
z: -0.0019182361429557204
","x: 243.0968017578125
y: 330.68182373046875
z: -0.0029767826199531555
","x: 246.7111053466797
y: 334.17523193359375
z: -0.0048975590616464615
","x: 248.57562255859375
y: 336.8521728515625
z: -0.005451007280498743
","x: 249.8360595703125
y: 338.98712158203125
z: -0.005640233401209116
","x: 241.8604736328125
y: 333.9218444824219
z: -0.00448443740606308
","x: 245.2388153076172
y: 337.9788513183594
z: -0.006454654969274998
","x: 246.77313232421875
y: 340.6717529296875
z: -0.006430273875594139
","x: 247.68507385253906
y: 342.567138671875
z: -0.006323985755443573
","x: 240.22702026367188
y: 336.85845947265625
z: -0.00584044074639678
","x: 243.00875854492188
y: 341.17962646484375
z: -0.007796585559844971
","x: 244.34835815429688
y: 343.71453857421875
z: -0.007631218526512384
","x: 245.2122344970703
y: 345.27001953125
z: -0.007384731899946928
","x: 238.41387939453125
y: 339.27301025390625
z: -0.007185117341578007
","x: 240.33705139160156
y: 343.35540771484375
z: -0.008874707855284214
","x: 241.52215576171875
y: 345.63189697265625
z: -0.009035886265337467
","x: 242.4812774658203
y: 347.1463623046875
z: -0.008959558792412281
"
17,"x: 250.09005737304688
y: 237.0523681640625
z: -0.15214022994041443
visibility: 0.9999821186065674
","x: 252.25567626953125
y: 232.4414825439453
z: -0.13426724076271057
visibility: 0.9999673962593079
","x: 253.65780639648438
y: 232.8060302734375
z: -0.13427093625068665
visibility: 0.9999595880508423
","x: 254.9865264892578
y: 233.09603881835938
z: -0.13427004218101501
visibility: 0.999963104724884
","x: 248.24520874023438
y: 231.71388244628906
z: -0.13517294824123383
visibility: 0.9999687671661377
","x: 246.792724609375
y: 231.62078857421875
z: -0.13516934216022491
visibility: 0.999963104724884
","x: 245.4983367919922
y: 231.516845703125
z: -0.1351320594549179
visibility: 0.9999681115150452
","x: 256.80291748046875
y: 237.2423553466797
z: -0.0323924645781517
visibility: 0.999935507774353
","x: 243.00244140625
y: 235.0281524658203
z: -0.03762124106287956
visibility: 0.9999389052391052
","x: 252.15765380859375
y: 245.02005004882812
z: -0.11419031769037247
visibility: 0.9999690055847168
","x: 247.29730224609375
y: 243.77586364746094
z: -0.11585737764835358
visibility: 0.999975323677063
","x: 266.4184265136719
y: 275.7574462890625
z: 0.011567892506718636
visibility: 0.9999532699584961
","x: 230.33389282226562
y: 274.508544921875
z: 0.01877419464290142
visibility: 0.9998434782028198
","x: 276.5189514160156
y: 317.35223388671875
z: -0.033788688480854034
visibility: 0.9848433136940002
","x: 221.4916534423828
y: 317.195556640625
