uscmakers/ReverseChoreography/data/10_peaches_justin_bieber.csv
,NOSE,LEFT_EYE_INNER,LEFT_EYE,LEFT_EYE_OUTER,RIGHT_EYE_INNER,RIGHT_EYE,RIGHT_EYE_OUTER,LEFT_EAR,RIGHT_EAR,MOUTH_LEFT,MOUTH_RIGHT,LEFT_SHOULDER,RIGHT_SHOULDER,LEFT_ELBOW,RIGHT_ELBOW,LEFT_WRIST,RIGHT_WRIST,LEFT_PINKY,RIGHT_PINKY,LEFT_INDEX,RIGHT_INDEX,LEFT_THUMB,RIGHT_THUMB,LEFT_HIP,RIGHT_HIP,LEFT_KNEE,RIGHT_KNEE,LEFT_ANKLE,RIGHT_ANKLE,LEFT_HEEL,RIGHT_HEEL,LEFT_FOOT_INDEX,RIGHT_FOOT_INDEX,TIMESTAMP,WRIST2,THUMB_CPC2,THUMB_MCP2,THUMB_IP2,THUMB_TIP2,INDEX_FINGER_MCP2,INDEX_FINGER_PIP2,INDEX_FINGER_DIP2,INDEX_FINGER_TIP2,MIDDLE_FINGER_MCP2,MIDDLE_FINGER_PIP2,MIDDLE_FINGER_DIP2,MIDDLE_FINGER_TIP2,RING_FINGER_PIP2,RING_FINGER_DIP2,RING_FINGER_TIP2,RING_FINGER_MCP2,PINKY_MCP2,PINKY_PIP2,PINKY_DIP2,PINKY_TIP2,WRIST,THUMB_CPC,THUMB_MCP,THUMB_IP,THUMB_TIP,INDEX_FINGER_MCP,INDEX_FINGER_PIP,INDEX_FINGER_DIP,INDEX_FINGER_TIP,MIDDLE_FINGER_MCP,MIDDLE_FINGER_PIP,MIDDLE_FINGER_DIP,MIDDLE_FINGER_TIP,RING_FINGER_PIP,RING_FINGER_DIP,RING_FINGER_TIP,RING_FINGER_MCP,PINKY_MCP,PINKY_PIP,PINKY_DIP,PINKY_TIP
0,"x: 256.0169677734375
y: 247.20181274414062
z: -0.2622489929199219
visibility: 0.9999914169311523
","x: 258.5611572265625
y: 242.1452178955078
z: -0.2471347153186798
visibility: 0.9999680519104004
","x: 259.81658935546875
y: 242.58042907714844
z: -0.24714751541614532
visibility: 0.9999674558639526
","x: 261.1857604980469
y: 243.0410614013672
z: -0.24712803959846497
visibility: 0.9999665021896362
","x: 254.38833618164062
y: 241.18572998046875
z: -0.24904868006706238
visibility: 0.9999682903289795
","x: 252.9438934326172
y: 240.93865966796875
z: -0.24906465411186218
visibility: 0.999967098236084
","x: 251.47564697265625
y: 240.7494354248047
z: -0.24906568229198456
visibility: 0.9999637603759766
","x: 263.62860107421875
y: 248.15782165527344
z: -0.15250976383686066
visibility: 0.9999022483825684
","x: 248.92376708984375
y: 245.18455505371094
z: -0.16413086652755737
visibility: 0.9999165534973145
","x: 258.3490905761719
y: 255.98141479492188
z: -0.2268611490726471
visibility: 0.9999809265136719
","x: 252.63644409179688
y: 254.43051147460938
z: -0.23021993041038513
visibility: 0.9999817609786987
","x: 274.1297607421875
y: 289.05438232421875
z: -0.0938805341720581
visibility: 0.9999494552612305
","x: 235.72389221191406
y: 287.5751647949219
z: -0.09193046391010284
visibility: 0.9999319314956665
","x: 280.08770751953125
y: 337.12078857421875
z: -0.0488194115459919
visibility: 0.9916278123855591
","x: 229.75924682617188
y: 337.7647399902344
z: -0.049805328249931335
visibility: 0.9771658182144165
","x: 278.7290344238281
y: 382.5189208984375
z: -0.123541459441185
visibility: 0.9836992025375366
","x: 228.49021911621094
y: 378.5885925292969
z: -0.12057782709598541
visibility: 0.9498430490493774
","x: 280.03118896484375
y: 397.63140869140625
z: -0.1474447101354599
visibility: 0.9618858098983765
","x: 227.19798278808594
y: 393.4243469238281
z: -0.14370906352996826
visibility: 0.9099831581115723
","x: 276.92279052734375
y: 397.1219482421875
z: -0.1744307279586792
visibility: 0.9644008278846741
","x: 229.33200073242188
y: 392.98504638671875
z: -0.17083019018173218
visibility: 0.9147321581840515
","x: 275.7499084472656
y: 392.8350524902344
z: -0.1351972371339798
visibility: 0.9547843337059021
","x: 230.56787109375
y: 388.43829345703125
z: -0.1326349824666977
visibility: 0.9007601141929626
","x: 264.97357177734375
y: 383.64404296875
z: 0.0008285403018817306
visibility: 0.9996263980865479
","x: 242.6805419921875
y: 383.3275146484375
z: -0.0008714956929907203
visibility: 0.9996875524520874
","x: 260.6730041503906
y: 453.2113342285156
z: 0.0332634337246418
visibility: 0.9907327890396118
","x: 240.9596710205078
y: 452.3428649902344
z: 0.009438363835215569
visibility: 0.9924198985099792
","x: 259.0669860839844
y: 514.7587890625
z: 0.1542184203863144
visibility: 0.9910679459571838
","x: 235.967529296875
y: 513.814453125
z: 0.13487844169139862
visibility: 0.9901763796806335
","x: 257.3189392089844
y: 524.8223266601562
z: 0.15996842086315155
visibility: 0.9308027029037476
","x: 237.277587890625
y: 523.7523193359375
z: 0.14073768258094788
visibility: 0.8607689142227173
","x: 262.6226806640625
y: 534.8629150390625
z: 0.06182538717985153
visibility: 0.9866525530815125
","x: 234.7831268310547
y: 533.099365234375
z: 0.037596166133880615
visibility: 0.9833828806877136
",3.596104145050049,,,,,,,,,,,,,,,,,,,,,,,,,,,,,,,,,,,,,,,,,,
1,"x: 256.0169677734375
y: 247.20181274414062
z: -0.2622489929199219
visibility: 0.9999914169311523
","x: 258.5611572265625
y: 242.1452178955078
z: -0.2471347153186798
visibility: 0.9999680519104004
","x: 259.81658935546875
y: 242.58042907714844
z: -0.24714751541614532
visibility: 0.9999674558639526
","x: 261.1857604980469
y: 243.0410614013672
z: -0.24712803959846497
visibility: 0.9999665021896362
","x: 254.38833618164062
y: 241.18572998046875
z: -0.24904868006706238
visibility: 0.9999682903289795
","x: 252.9438934326172
y: 240.93865966796875
z: -0.24906465411186218
visibility: 0.999967098236084
","x: 251.47564697265625
y: 240.7494354248047
z: -0.24906568229198456
visibility: 0.9999637603759766
","x: 263.62860107421875
y: 248.15782165527344
z: -0.15250976383686066
visibility: 0.9999022483825684
","x: 248.92376708984375
y: 245.18455505371094
z: -0.16413086652755737
visibility: 0.9999165534973145
","x: 258.3490905761719
y: 255.98141479492188
z: -0.2268611490726471
visibility: 0.9999809265136719
","x: 252.63644409179688
y: 254.43051147460938
z: -0.23021993041038513
visibility: 0.9999817609786987
","x: 274.1297607421875
y: 289.05438232421875
z: -0.0938805341720581
visibility: 0.9999494552612305
","x: 235.72389221191406
y: 287.5751647949219
z: -0.09193046391010284
visibility: 0.9999319314956665
","x: 280.08770751953125
y: 337.12078857421875
z: -0.0488194115459919
visibility: 0.9916278123855591
","x: 229.75924682617188
y: 337.7647399902344
z: -0.049805328249931335
visibility: 0.9771658182144165
","x: 278.7290344238281
y: 382.5189208984375
z: -0.123541459441185
visibility: 0.9836992025375366
","x: 228.49021911621094
y: 378.5885925292969
z: -0.12057782709598541
visibility: 0.9498430490493774
","x: 280.03118896484375
y: 397.63140869140625
z: -0.1474447101354599
visibility: 0.9618858098983765
","x: 227.19798278808594
y: 393.4243469238281
z: -0.14370906352996826
visibility: 0.9099831581115723
","x: 276.92279052734375
y: 397.1219482421875
z: -0.1744307279586792
visibility: 0.9644008278846741
","x: 229.33200073242188
y: 392.98504638671875
z: -0.17083019018173218
visibility: 0.9147321581840515
","x: 275.7499084472656
y: 392.8350524902344
z: -0.1351972371339798
visibility: 0.9547843337059021
","x: 230.56787109375
y: 388.43829345703125
z: -0.1326349824666977
visibility: 0.9007601141929626
","x: 264.97357177734375
y: 383.64404296875
z: 0.0008285403018817306
visibility: 0.9996263980865479
","x: 242.6805419921875
y: 383.3275146484375
z: -0.0008714956929907203
visibility: 0.9996875524520874
","x: 260.6730041503906
y: 453.2113342285156
z: 0.0332634337246418
visibility: 0.9907327890396118
","x: 240.9596710205078
y: 452.3428649902344
z: 0.009438363835215569
visibility: 0.9924198985099792
","x: 259.0669860839844
y: 514.7587890625
z: 0.1542184203863144
visibility: 0.9910679459571838
","x: 235.967529296875
y: 513.814453125
z: 0.13487844169139862
visibility: 0.9901763796806335
","x: 257.3189392089844
y: 524.8223266601562
z: 0.15996842086315155
visibility: 0.9308027029037476
","x: 237.277587890625
y: 523.7523193359375
z: 0.14073768258094788
visibility: 0.8607689142227173
","x: 262.6226806640625
y: 534.8629150390625
z: 0.06182538717985153
visibility: 0.9866525530815125
","x: 234.7831268310547
y: 533.099365234375
z: 0.037596166133880615
visibility: 0.9833828806877136
",3.596104145050049,,,,,,,,,,,,,,,,,,,,,,,,,,,,,,,,,,,,,,,,,,
2,"x: 256.0824890136719
y: 246.73194885253906
z: -0.2647464871406555
visibility: 0.9999913573265076
","x: 258.561767578125
y: 241.8795166015625
z: -0.2497846782207489
visibility: 0.999967634677887
","x: 259.8279724121094
y: 242.379150390625
z: -0.2498011291027069
visibility: 0.9999669790267944
","x: 261.2183837890625
y: 242.90260314941406
z: -0.24979087710380554
visibility: 0.9999662041664124
","x: 254.40594482421875
y: 240.82862854003906
z: -0.25225895643234253
visibility: 0.9999680519104004
","x: 252.9493408203125
y: 240.6399688720703
z: -0.2522805333137512
visibility: 0.9999668598175049
","x: 251.47439575195312
y: 240.5035400390625
z: -0.25229260325431824
visibility: 0.9999635815620422
","x: 263.6561584472656
y: 248.03994750976562
z: -0.1557740867137909
visibility: 0.9999011754989624
","x: 248.9042205810547
y: 245.0418701171875
z: -0.1699073314666748
visibility: 0.9999160766601562
","x: 258.3785705566406
y: 255.70919799804688
z: -0.22950546443462372
visibility: 0.9999809861183167
","x: 252.80267333984375
y: 254.32308959960938
z: -0.23361656069755554
visibility: 0.9999818205833435
","x: 273.86669921875
y: 288.835693359375
z: -0.09537756443023682
visibility: 0.9999505877494812
","x: 235.72390747070312
y: 287.2330017089844
z: -0.10019407421350479
visibility: 0.9999321103096008
","x: 279.8825988769531
y: 336.2676696777344
z: -0.04844219237565994
visibility: 0.9917274117469788
","x: 229.44044494628906
y: 336.87213134765625
z: -0.06249507516622543
visibility: 0.9773257374763489
","x: 278.7533874511719
y: 380.71295166015625
z: -0.11750813573598862
visibility: 0.9838237762451172
","x: 228.38987731933594
y: 378.58935546875
z: -0.12921102344989777
visibility: 0.9485951066017151
","x: 280.0284423828125
y: 395.8124084472656
z: -0.13915017247200012
visibility: 0.9620249271392822
","x: 227.1551513671875
y: 393.7149353027344
z: -0.15110424160957336
visibility: 0.9076582193374634
","x: 276.92431640625
y: 394.9304504394531
z: -0.1656724512577057
visibility: 0.96457839012146
","x: 229.33184814453125
y: 393.4187316894531
z: -0.1779535412788391
visibility: 0.9124253988265991
","x: 275.7590026855469
y: 391.1361083984375
z: -0.12855438888072968
visibility: 0.9549329280853271
","x: 230.55967712402344
y: 388.8216857910156
z: -0.1407962590456009
visibility: 0.8979284763336182
","x: 264.809326171875
y: 382.5198059082031
z: 0.002198808128014207
visibility: 0.9996237754821777
","x: 242.61732482910156
y: 381.6964111328125
z: -0.0022508243564516306
visibility: 0.9996781945228577
","x: 260.5393371582031
y: 452.93499755859375
z: 0.030085626989603043
visibility: 0.9906620979309082
","x: 240.9847869873047
y: 451.9328308105469
z: 0.004442264791578054
visibility: 0.9923770427703857
","x: 258.98431396484375
y: 515.1618041992188
z: 0.13969218730926514
visibility: 0.9911268353462219
","x: 235.93199157714844
y: 513.709228515625
z: 0.12793876230716705
visibility: 0.9901384711265564
","x: 257.16021728515625
y: 524.8388061523438
z: 0.14396025240421295
visibility: 0.9307225346565247
","x: 237.01849365234375
y: 523.4624633789062
z: 0.13353724777698517
visibility: 0.8580058813095093
","x: 262.6249084472656
y: 535.2054443359375
z: 0.04335712641477585
visibility: 0.9867029786109924
","x: 235.07540893554688
y: 533.1746215820312
z: 0.029233047738671303
visibility: 0.9833419322967529
",4.232936382293701,,,,,,,,,,,,,,,,,,,,,,,,,,,,,,,,,,,,,,,,,,
3,"x: 256.0824890136719
y: 246.73194885253906
z: -0.2647464871406555
visibility: 0.9999913573265076
","x: 258.561767578125
y: 241.8795166015625
z: -0.2497846782207489
visibility: 0.999967634677887
","x: 259.8279724121094
y: 242.379150390625
z: -0.2498011291027069
visibility: 0.9999669790267944
","x: 261.2183837890625
y: 242.90260314941406
z: -0.24979087710380554
visibility: 0.9999662041664124
","x: 254.40594482421875
y: 240.82862854003906
z: -0.25225895643234253
visibility: 0.9999680519104004
","x: 252.9493408203125
y: 240.6399688720703
z: -0.2522805333137512
visibility: 0.9999668598175049
","x: 251.47439575195312
y: 240.5035400390625
z: -0.25229260325431824
visibility: 0.9999635815620422
","x: 263.6561584472656
y: 248.03994750976562
z: -0.1557740867137909
visibility: 0.9999011754989624
","x: 248.9042205810547
y: 245.0418701171875
z: -0.1699073314666748
visibility: 0.9999160766601562
","x: 258.3785705566406
y: 255.70919799804688
z: -0.22950546443462372
visibility: 0.9999809861183167
","x: 252.80267333984375
y: 254.32308959960938
z: -0.23361656069755554
visibility: 0.9999818205833435
","x: 273.86669921875
y: 288.835693359375
z: -0.09537756443023682
visibility: 0.9999505877494812
","x: 235.72390747070312
y: 287.2330017089844
z: -0.10019407421350479
visibility: 0.9999321103096008
","x: 279.8825988769531
y: 336.2676696777344
z: -0.04844219237565994
visibility: 0.9917274117469788
","x: 229.44044494628906
y: 336.87213134765625
z: -0.06249507516622543
visibility: 0.9773257374763489
","x: 278.7533874511719
y: 380.71295166015625
z: -0.11750813573598862
visibility: 0.9838237762451172
","x: 228.38987731933594
y: 378.58935546875
z: -0.12921102344989777
visibility: 0.9485951066017151
","x: 280.0284423828125
y: 395.8124084472656
z: -0.13915017247200012
visibility: 0.9620249271392822
","x: 227.1551513671875
y: 393.7149353027344
z: -0.15110424160957336
visibility: 0.9076582193374634
","x: 276.92431640625
y: 394.9304504394531
z: -0.1656724512577057
visibility: 0.96457839012146
","x: 229.33184814453125
y: 393.4187316894531
z: -0.1779535412788391
visibility: 0.9124253988265991
","x: 275.7590026855469
y: 391.1361083984375
z: -0.12855438888072968
visibility: 0.9549329280853271
","x: 230.55967712402344
y: 388.8216857910156
z: -0.1407962590456009
visibility: 0.8979284763336182
","x: 264.809326171875
y: 382.5198059082031
z: 0.002198808128014207
visibility: 0.9996237754821777
","x: 242.61732482910156
y: 381.6964111328125
z: -0.0022508243564516306
visibility: 0.9996781945228577
","x: 260.5393371582031
y: 452.93499755859375
z: 0.030085626989603043
visibility: 0.9906620979309082
","x: 240.9847869873047
y: 451.9328308105469
z: 0.004442264791578054
visibility: 0.9923770427703857
","x: 258.98431396484375
y: 515.1618041992188
z: 0.13969218730926514
visibility: 0.9911268353462219
","x: 235.93199157714844
y: 513.709228515625
z: 0.12793876230716705
visibility: 0.9901384711265564
","x: 257.16021728515625
y: 524.8388061523438
z: 0.14396025240421295
visibility: 0.9307225346565247
","x: 237.01849365234375
y: 523.4624633789062
z: 0.13353724777698517
visibility: 0.8580058813095093
","x: 262.6249084472656
y: 535.2054443359375
z: 0.04335712641477585
visibility: 0.9867029786109924
","x: 235.07540893554688
y: 533.1746215820312
z: 0.029233047738671303
visibility: 0.9833419322967529
",4.232936382293701,,,,,,,,,,,,,,,,,,,,,,,,,,,,,,,,,,,,,,,,,,
4,"x: 256.57672119140625
y: 246.7516326904297
z: -0.28115206956863403
visibility: 0.9999916553497314
","x: 258.82928466796875
y: 241.889404296875
z: -0.2663975954055786
visibility: 0.9999685883522034
","x: 260.1795349121094
y: 242.4075164794922
z: -0.26641255617141724
visibility: 0.9999679327011108
","x: 261.5433044433594
y: 242.95518493652344
z: -0.26640936732292175
visibility: 0.9999672770500183
","x: 254.7398681640625
y: 240.8097686767578
z: -0.2693229019641876
visibility: 0.999968945980072
","x: 253.17930603027344
y: 240.6147918701172
z: -0.2693497836589813
visibility: 0.9999677538871765
","x: 251.61358642578125
y: 240.48696899414062
z: -0.2693612277507782
visibility: 0.9999645948410034
","x: 263.8428039550781
y: 248.0413055419922
z: -0.16943247616291046
visibility: 0.9999048113822937
","x: 248.9271697998047
y: 245.031982421875
z: -0.18527886271476746
visibility: 0.9999186992645264
","x: 258.55206298828125
y: 255.7361602783203
z: -0.2443394660949707
visibility: 0.9999817609786987
","x: 253.24781799316406
y: 254.43968200683594
z: -0.24904295802116394
visibility: 0.999982476234436
","x: 273.81585693359375
y: 288.607666015625
z: -0.10367618501186371
visibility: 0.9999533295631409
","x: 235.8350830078125
y: 286.876708984375
z: -0.1111975908279419
visibility: 0.9999337196350098
","x: 279.8856201171875
y: 335.2746887207031
z: -0.05449763685464859
visibility: 0.9919953942298889
","x: 229.39146423339844
y: 335.646484375
z: -0.07296919077634811
visibility: 0.9778364896774292
","x: 278.8440856933594
y: 379.6499328613281
z: -0.12760983407497406
visibility: 0.9843156337738037
","x: 228.42715454101562
y: 378.08056640625
z: -0.14267636835575104
visibility: 0.9485302567481995
","x: 280.0350341796875
y: 394.7381591796875
z: -0.15044020116329193
visibility: 0.9629392027854919
","x: 227.18524169921875
y: 393.6578674316406
z: -0.1657799631357193
visibility: 0.9071621298789978
","x: 276.9256896972656
y: 393.7127990722656
z: -0.17790579795837402
visibility: 0.9654650092124939
","x: 229.4878692626953
y: 393.34674072265625
z: -0.19338233768939972
visibility: 0.9119231104850769
","x: 275.76806640625
y: 390.0989990234375
z: -0.1390429139137268
visibility: 0.9559328556060791
","x: 230.7762451171875
y: 388.58636474609375
z: -0.15458150207996368
visibility: 0.897049605846405
","x: 264.7110290527344
y: 381.8993835449219
z: 0.0026758285239338875
visibility: 0.999629557132721
","x: 242.61520385742188
y: 380.7283935546875
z: -0.0027261723298579454
visibility: 0.9996759295463562
","x: 260.5137023925781
y: 452.5928955078125
z: 0.02792053483426571
visibility: 0.99079430103302
","x: 241.0420379638672
y: 451.50091552734375
z: 0.003575808135792613
visibility: 0.9924527406692505
","x: 258.9461975097656
y: 515.2649536132812
z: 0.14293105900287628
visibility: 0.9912735223770142
","x: 235.91683959960938
y: 513.5264892578125
z: 0.12808212637901306
visibility: 0.9902596473693848
","x: 257.05126953125
y: 524.7869262695312
z: 0.14781351387500763
visibility: 0.9308664798736572
","x: 236.9380645751953
y: 523.1029663085938
z: 0.13399331271648407
visibility: 0.8570437431335449
","x: 262.635009765625
y: 535.5588989257812
z: 0.04653346911072731
visibility: 0.9869011640548706
","x: 235.2279510498047
y: 533.2959594726562
z: 0.030604517087340355
visibility: 0.9835672378540039
",4.380125522613525,"x: 279.2371826171875
y: 378.32177734375
z: 0.0
","x: 275.74334716796875
y: 382.5999450683594
z: -0.0022267098538577557
","x: 273.9131164550781
y: 389.0592041015625
z: -0.0022418592125177383
","x: 273.2723083496094
y: 395.6372375488281
z: -0.0015962758334353566
","x: 272.75640869140625
y: 400.4685974121094
z: -0.0005838085198774934
","x: 277.23345947265625
y: 395.335205078125
z: -0.0021687543485313654
","x: 275.7450256347656
y: 404.62823486328125
z: -0.0014261328615248203
","x: 274.015625
y: 408.5139465332031
z: -3.1607105483999476e-05
","x: 272.8138122558594
y: 411.24090576171875
z: 0.0011514537036418915
","x: 279.5201721191406
y: 396.0461120605469
z: -0.0007750213844701648
","x: 278.2472229003906
y: 405.2119140625
z: 0.0007812457042746246
","x: 276.3120422363281
y: 407.763916015625
z: 0.0025327634066343307
","x: 275.1962890625
y: 409.0606994628906
z: 0.003665073774755001
","x: 280.88983154296875
y: 395.81768798828125
z: 0.000533553131390363
","x: 279.8169860839844
y: 403.9908142089844
z: 0.0017835103208199143
","x: 278.09197998046875
y: 404.6896057128906
z: 0.0028719778638333082
","x: 276.96685791015625
y: 403.8924560546875
z: 0.0035147438757121563
","x: 281.5721130371094
y: 394.92291259765625
z: 0.00156032619997859
","x: 280.6528625488281
y: 401.87664794921875
z: 0.0020094376523047686
","x: 279.1432800292969
y: 403.5680847167969
z: 0.00247261393815279
","x: 277.9322204589844
y: 403.3262939453125
z: 0.0030673323199152946
",,,,,,,,,,,,,,,,,,,,,
5,"x: 256.57672119140625
y: 246.7516326904297
z: -0.28115206956863403
visibility: 0.9999916553497314
","x: 258.82928466796875
y: 241.889404296875
z: -0.2663975954055786
visibility: 0.9999685883522034
","x: 260.1795349121094
y: 242.4075164794922
z: -0.26641255617141724
visibility: 0.9999679327011108
","x: 261.5433044433594
y: 242.95518493652344
z: -0.26640936732292175
visibility: 0.9999672770500183
","x: 254.7398681640625
y: 240.8097686767578
z: -0.2693229019641876
visibility: 0.999968945980072
","x: 253.17930603027344
y: 240.6147918701172
z: -0.2693497836589813
visibility: 0.9999677538871765
","x: 251.61358642578125
y: 240.48696899414062
z: -0.2693612277507782
visibility: 0.9999645948410034
","x: 263.8428039550781
y: 248.0413055419922
z: -0.16943247616291046
visibility: 0.9999048113822937
","x: 248.9271697998047
y: 245.031982421875
z: -0.18527886271476746
visibility: 0.9999186992645264
","x: 258.55206298828125
y: 255.7361602783203
z: -0.2443394660949707
visibility: 0.9999817609786987
","x: 253.24781799316406
y: 254.43968200683594
z: -0.24904295802116394
visibility: 0.999982476234436
","x: 273.81585693359375
y: 288.607666015625
z: -0.10367618501186371
visibility: 0.9999533295631409
","x: 235.8350830078125
y: 286.876708984375
z: -0.1111975908279419
visibility: 0.9999337196350098
","x: 279.8856201171875
y: 335.2746887207031
z: -0.05449763685464859
visibility: 0.9919953942298889
","x: 229.39146423339844
y: 335.646484375
z: -0.07296919077634811
visibility: 0.9778364896774292
","x: 278.8440856933594
y: 379.6499328613281
z: -0.12760983407497406
visibility: 0.9843156337738037
","x: 228.42715454101562
y: 378.08056640625
z: -0.14267636835575104
visibility: 0.9485302567481995
","x: 280.0350341796875
y: 394.7381591796875
z: -0.15044020116329193
visibility: 0.9629392027854919
","x: 227.18524169921875
y: 393.6578674316406
z: -0.1657799631357193
visibility: 0.9071621298789978
","x: 276.9256896972656
y: 393.7127990722656
z: -0.17790579795837402
visibility: 0.9654650092124939
","x: 229.4878692626953
y: 393.34674072265625
z: -0.19338233768939972
visibility: 0.9119231104850769
","x: 275.76806640625
y: 390.0989990234375
z: -0.1390429139137268
visibility: 0.9559328556060791
","x: 230.7762451171875
y: 388.58636474609375
z: -0.15458150207996368
visibility: 0.897049605846405
","x: 264.7110290527344
y: 381.8993835449219
z: 0.0026758285239338875
visibility: 0.999629557132721
","x: 242.61520385742188
y: 380.7283935546875
z: -0.0027261723298579454
visibility: 0.9996759295463562
","x: 260.5137023925781
y: 452.5928955078125
z: 0.02792053483426571
visibility: 0.99079430103302
","x: 241.0420379638672
y: 451.50091552734375
z: 0.003575808135792613
visibility: 0.9924527406692505
","x: 258.9461975097656
y: 515.2649536132812
z: 0.14293105900287628
visibility: 0.9912735223770142
","x: 235.91683959960938
y: 513.5264892578125
z: 0.12808212637901306
visibility: 0.9902596473693848
","x: 257.05126953125
y: 524.7869262695312
z: 0.14781351387500763
visibility: 0.9308664798736572
","x: 236.9380645751953
y: 523.1029663085938
z: 0.13399331271648407
visibility: 0.8570437431335449
","x: 262.635009765625
y: 535.5588989257812
z: 0.04653346911072731
visibility: 0.9869011640548706
","x: 235.2279510498047
y: 533.2959594726562
z: 0.030604517087340355
visibility: 0.9835672378540039
",4.380125522613525,"x: 279.2371826171875
y: 378.32177734375
z: 0.0
","x: 275.74334716796875
y: 382.5999450683594
z: -0.0022267098538577557
","x: 273.9131164550781
y: 389.0592041015625
z: -0.0022418592125177383
","x: 273.2723083496094
y: 395.6372375488281
z: -0.0015962758334353566
","x: 272.75640869140625
y: 400.4685974121094
z: -0.0005838085198774934
","x: 277.23345947265625
y: 395.335205078125
z: -0.0021687543485313654
","x: 275.7450256347656
y: 404.62823486328125
z: -0.0014261328615248203
","x: 274.015625
y: 408.5139465332031
z: -3.1607105483999476e-05
","x: 272.8138122558594
y: 411.24090576171875
z: 0.0011514537036418915
","x: 279.5201721191406
y: 396.0461120605469
z: -0.0007750213844701648
","x: 278.2472229003906
y: 405.2119140625
z: 0.0007812457042746246
","x: 276.3120422363281
y: 407.763916015625
z: 0.0025327634066343307
","x: 275.1962890625
y: 409.0606994628906
z: 0.003665073774755001
","x: 280.88983154296875
y: 395.81768798828125
z: 0.000533553131390363
","x: 279.8169860839844
y: 403.9908142089844
z: 0.0017835103208199143
","x: 278.09197998046875
y: 404.6896057128906
z: 0.0028719778638333082
","x: 276.96685791015625
y: 403.8924560546875
z: 0.0035147438757121563
","x: 281.5721130371094
y: 394.92291259765625
z: 0.00156032619997859
","x: 280.6528625488281
y: 401.87664794921875
z: 0.0020094376523047686
","x: 279.1432800292969
y: 403.5680847167969
z: 0.00247261393815279
","x: 277.9322204589844
y: 403.3262939453125
z: 0.0030673323199152946
",,,,,,,,,,,,,,,,,,,,,
6,"x: 256.57672119140625
y: 246.7516326904297
z: -0.28115206956863403
visibility: 0.9999916553497314
","x: 258.82928466796875
y: 241.889404296875
z: -0.2663975954055786
visibility: 0.9999685883522034
","x: 260.1795349121094
y: 242.4075164794922
z: -0.26641255617141724
visibility: 0.9999679327011108
","x: 261.5433044433594
y: 242.95518493652344
z: -0.26640936732292175
visibility: 0.9999672770500183
","x: 254.7398681640625
y: 240.8097686767578
z: -0.2693229019641876
visibility: 0.999968945980072
","x: 253.17930603027344
y: 240.6147918701172
z: -0.2693497836589813
visibility: 0.9999677538871765
","x: 251.61358642578125
y: 240.48696899414062
z: -0.2693612277507782
visibility: 0.9999645948410034
","x: 263.8428039550781
y: 248.0413055419922
z: -0.16943247616291046
visibility: 0.9999048113822937
","x: 248.9271697998047
y: 245.031982421875
z: -0.18527886271476746
visibility: 0.9999186992645264
","x: 258.55206298828125
y: 255.7361602783203
z: -0.2443394660949707
visibility: 0.9999817609786987
","x: 253.24781799316406
y: 254.43968200683594
z: -0.24904295802116394
visibility: 0.999982476234436
","x: 273.81585693359375
y: 288.607666015625
z: -0.10367618501186371
visibility: 0.9999533295631409
","x: 235.8350830078125
y: 286.876708984375
z: -0.1111975908279419
visibility: 0.9999337196350098
","x: 279.8856201171875
y: 335.2746887207031
z: -0.05449763685464859
visibility: 0.9919953942298889
","x: 229.39146423339844
y: 335.646484375
z: -0.07296919077634811
visibility: 0.9778364896774292
","x: 278.8440856933594
y: 379.6499328613281
z: -0.12760983407497406
visibility: 0.9843156337738037
","x: 228.42715454101562
y: 378.08056640625
z: -0.14267636835575104
visibility: 0.9485302567481995
","x: 280.0350341796875
y: 394.7381591796875
z: -0.15044020116329193
visibility: 0.9629392027854919
","x: 227.18524169921875
y: 393.6578674316406
z: -0.1657799631357193
visibility: 0.9071621298789978
","x: 276.9256896972656
y: 393.7127990722656
z: -0.17790579795837402
visibility: 0.9654650092124939
","x: 229.4878692626953
y: 393.34674072265625
z: -0.19338233768939972
visibility: 0.9119231104850769
","x: 275.76806640625
y: 390.0989990234375
z: -0.1390429139137268
visibility: 0.9559328556060791
","x: 230.7762451171875
y: 388.58636474609375
z: -0.15458150207996368
visibility: 0.897049605846405
","x: 264.7110290527344
y: 381.8993835449219
z: 0.0026758285239338875
visibility: 0.999629557132721
","x: 242.61520385742188
y: 380.7283935546875
z: -0.0027261723298579454
visibility: 0.9996759295463562
","x: 260.5137023925781
y: 452.5928955078125
z: 0.02792053483426571
visibility: 0.99079430103302
","x: 241.0420379638672
y: 451.50091552734375
z: 0.003575808135792613
visibility: 0.9924527406692505
","x: 258.9461975097656
y: 515.2649536132812
z: 0.14293105900287628
visibility: 0.9912735223770142
","x: 235.91683959960938
y: 513.5264892578125
z: 0.12808212637901306
visibility: 0.9902596473693848
","x: 257.05126953125
y: 524.7869262695312
z: 0.14781351387500763
visibility: 0.9308664798736572
","x: 236.9380645751953
y: 523.1029663085938
z: 0.13399331271648407
visibility: 0.8570437431335449
","x: 262.635009765625
y: 535.5588989257812
z: 0.04653346911072731
visibility: 0.9869011640548706
","x: 235.2279510498047
y: 533.2959594726562
z: 0.030604517087340355
visibility: 0.9835672378540039
",4.380125522613525,"x: 279.2371826171875
y: 378.32177734375
z: 0.0
","x: 275.74334716796875
y: 382.5999450683594
z: -0.0022267098538577557
","x: 273.9131164550781
y: 389.0592041015625
z: -0.0022418592125177383
","x: 273.2723083496094
y: 395.6372375488281
z: -0.0015962758334353566
","x: 272.75640869140625
y: 400.4685974121094
z: -0.0005838085198774934
","x: 277.23345947265625
y: 395.335205078125
z: -0.0021687543485313654
","x: 275.7450256347656
y: 404.62823486328125
z: -0.0014261328615248203
","x: 274.015625
y: 408.5139465332031
z: -3.1607105483999476e-05
","x: 272.8138122558594
y: 411.24090576171875
z: 0.0011514537036418915
","x: 279.5201721191406
y: 396.0461120605469
z: -0.0007750213844701648
","x: 278.2472229003906
y: 405.2119140625
z: 0.0007812457042746246
","x: 276.3120422363281
y: 407.763916015625
z: 0.0025327634066343307
","x: 275.1962890625
y: 409.0606994628906
z: 0.003665073774755001
","x: 280.88983154296875
y: 395.81768798828125
z: 0.000533553131390363
","x: 279.8169860839844
y: 403.9908142089844
z: 0.0017835103208199143
","x: 278.09197998046875
y: 404.6896057128906
z: 0.0028719778638333082
","x: 276.96685791015625
y: 403.8924560546875
z: 0.0035147438757121563
","x: 281.5721130371094
y: 394.92291259765625
z: 0.00156032619997859
","x: 280.6528625488281
y: 401.87664794921875
z: 0.0020094376523047686
","x: 279.1432800292969
y: 403.5680847167969
z: 0.00247261393815279
","x: 277.9322204589844
y: 403.3262939453125
z: 0.0030673323199152946
",,,,,,,,,,,,,,,,,,,,,
7,"x: 256.9367370605469
y: 247.0688018798828
z: -0.27662938833236694
visibility: 0.9999920725822449
","x: 259.17822265625
y: 242.21923828125
z: -0.2616913318634033
visibility: 0.9999701976776123
","x: 260.6247253417969
y: 242.79884338378906
z: -0.2617036998271942
visibility: 0.999969482421875
","x: 261.96710205078125
y: 243.36087036132812
z: -0.2616925835609436
visibility: 0.9999688267707825
","x: 255.07373046875
y: 240.90380859375
z: -0.26423919200897217
visibility: 0.999970555305481
","x: 253.431640625
y: 240.64877319335938
z: -0.26426368951797485
visibility: 0.9999694228172302
","x: 251.8050079345703
y: 240.50253295898438
z: -0.2642720341682434
visibility: 0.9999665021896362
","x: 264.1687316894531
y: 248.27676391601562
z: -0.1654675304889679
visibility: 0.9999096393585205
","x: 249.06532287597656
y: 245.07203674316406
z: -0.17978402972221375
visibility: 0.9999234080314636
","x: 258.7457580566406
y: 256.050048828125
z: -0.24031035602092743
visibility: 0.9999828934669495
","x: 253.59486389160156
y: 254.81777954101562
z: -0.24453382194042206
visibility: 0.9999836087226868
","x: 273.8846435546875
y: 288.84814453125
z: -0.10325376689434052
visibility: 0.9999561309814453
","x: 235.9442596435547
y: 286.88421630859375
z: -0.10692918300628662
visibility: 0.9999368786811829
","x: 280.236572265625
y: 335.3310852050781
z: -0.051399070769548416
visibility: 0.9923276901245117
","x: 229.39349365234375
y: 335.5723876953125
z: -0.06823994964361191
visibility: 0.9787754416465759
","x: 280.0646667480469
y: 379.3822021484375
z: -0.12699410319328308
visibility: 0.9849374294281006
","x: 228.43943786621094
y: 377.808837890625
z: -0.1406954824924469
visibility: 0.9498949646949768
","x: 280.513671875
y: 394.4375
z: -0.15012893080711365
visibility: 0.9641347527503967
","x: 227.200439453125
y: 393.6459655761719
z: -0.16420850157737732
visibility: 0.908950686454773
","x: 277.4056091308594
y: 392.932861328125
z: -0.17735707759857178
visibility: 0.9666082859039307
","x: 229.7228240966797
y: 393.3438720703125
z: -0.19113276898860931
visibility: 0.9135695695877075
","x: 276.33905029296875
y: 389.1552734375
z: -0.1384681761264801
visibility: 0.9572685360908508
","x: 231.0779266357422
y: 388.5914611816406
z: -0.15233738720417023
visibility: 0.8986228704452515
","x: 264.74169921875
y: 382.33624267578125
z: 0.003457849146798253
visibility: 0.9996399879455566
","x: 242.7293243408203
y: 380.80926513671875
z: -0.0035104132257401943
visibility: 0.9996795654296875
","x: 260.5116882324219
y: 452.9263916015625
z: 0.026739319786429405
visibility: 0.9908223152160645
","x: 241.2856903076172
y: 451.4989929199219
z: 0.0034819699358195066
visibility: 0.9924830794334412
","x: 258.873779296875
y: 515.5402221679688
z: 0.14686912298202515
visibility: 0.9912972450256348
","x: 235.90281677246094
y: 513.17431640625
z: 0.13623984158039093
visibility: 0.9902064204216003
","x: 256.9047546386719
y: 524.8033447265625
z: 0.15295706689357758
visibility: 0.9311937689781189
","x: 236.81103515625
y: 522.4066772460938
z: 0.14341683685779572
visibility: 0.8551791310310364
","x: 262.8316345214844
y: 535.9501953125
z: 0.05021145939826965
visibility: 0.9869503378868103
","x: 235.44818115234375
y: 533.2953491210938
z: 0.038059547543525696
visibility: 0.9835370779037476
",4.594614028930664,"x: 281.0766906738281
y: 377.2161560058594
z: 0.0
","x: 278.08526611328125
y: 379.92584228515625
z: -0.001547698280774057
","x: 276.1650085449219
y: 385.6265869140625
z: -0.0018612369894981384
","x: 274.93878173828125
y: 391.56524658203125
z: -0.0019129076972603798
","x: 274.236328125
y: 396.1012268066406
z: -0.0014601682778447866
","x: 279.146240234375
y: 392.9132080078125
z: -0.0012882841983810067
","x: 277.1054992675781
y: 400.28704833984375
z: -0.001379491644911468
","x: 274.9394226074219
y: 401.38287353515625
z: -0.0006717828218825161
","x: 273.6878662109375
y: 401.02239990234375
z: 4.857962630921975e-05
","x: 280.662841796875
y: 394.8094177246094
z: -0.0007976469933055341
","x: 278.61572265625
y: 402.49920654296875
z: -0.0005272536654956639
","x: 276.37371826171875
y: 403.382568359375
z: 0.00030347277061082423
","x: 275.0631103515625
y: 402.7042236328125
z: 0.0009267437853850424
","x: 281.4134216308594
y: 395.383056640625
z: -0.0004225463781040162
","x: 279.5555725097656
y: 402.54376220703125
z: -0.0004638128448277712
","x: 277.4785461425781
y: 403.4193420410156
z: -6.064247281756252e-05
","x: 276.1324462890625
y: 402.7179260253906
z: 0.00027888661134056747
","x: 281.48944091796875
y: 395.0396423339844
z: -0.00026552905910648406
","x: 279.9283142089844
y: 400.9013366699219
z: -0.0006190795684233308
","x: 278.10467529296875
y: 402.16815185546875
z: -0.0004808332596439868
","x: 276.6441955566406
y: 401.8527526855469
z: -8.063001587288454e-05
",,,,,,,,,,,,,,,,,,,,,
8,"x: 256.9367370605469
y: 247.0688018798828
z: -0.27662938833236694
visibility: 0.9999920725822449
","x: 259.17822265625
y: 242.21923828125
z: -0.2616913318634033
visibility: 0.9999701976776123
","x: 260.6247253417969
y: 242.79884338378906
z: -0.2617036998271942
visibility: 0.999969482421875
","x: 261.96710205078125
y: 243.36087036132812
z: -0.2616925835609436
visibility: 0.9999688267707825
","x: 255.07373046875
y: 240.90380859375
z: -0.26423919200897217
visibility: 0.999970555305481
","x: 253.431640625
y: 240.64877319335938
z: -0.26426368951797485
visibility: 0.9999694228172302
","x: 251.8050079345703
y: 240.50253295898438
z: -0.2642720341682434
visibility: 0.9999665021896362
","x: 264.1687316894531
y: 248.27676391601562
z: -0.1654675304889679
visibility: 0.9999096393585205
","x: 249.06532287597656
y: 245.07203674316406
z: -0.17978402972221375
visibility: 0.9999234080314636
","x: 258.7457580566406
y: 256.050048828125
z: -0.24031035602092743
visibility: 0.9999828934669495
","x: 253.59486389160156
y: 254.81777954101562
z: -0.24453382194042206
visibility: 0.9999836087226868
","x: 273.8846435546875
y: 288.84814453125
z: -0.10325376689434052
visibility: 0.9999561309814453
","x: 235.9442596435547
y: 286.88421630859375
z: -0.10692918300628662
visibility: 0.9999368786811829
","x: 280.236572265625
y: 335.3310852050781
z: -0.051399070769548416
visibility: 0.9923276901245117
","x: 229.39349365234375
y: 335.5723876953125
z: -0.06823994964361191
visibility: 0.9787754416465759
","x: 280.0646667480469
y: 379.3822021484375
z: -0.12699410319328308
visibility: 0.9849374294281006
","x: 228.43943786621094
y: 377.808837890625
z: -0.1406954824924469
visibility: 0.9498949646949768
","x: 280.513671875
y: 394.4375
z: -0.15012893080711365
visibility: 0.9641347527503967
","x: 227.200439453125
y: 393.6459655761719
z: -0.16420850157737732
visibility: 0.908950686454773
","x: 277.4056091308594
y: 392.932861328125
z: -0.17735707759857178
visibility: 0.9666082859039307
","x: 229.7228240966797
y: 393.3438720703125
z: -0.19113276898860931
visibility: 0.9135695695877075
","x: 276.33905029296875
y: 389.1552734375
z: -0.1384681761264801
visibility: 0.9572685360908508
","x: 231.0779266357422
y: 388.5914611816406
z: -0.15233738720417023
visibility: 0.8986228704452515
","x: 264.74169921875
y: 382.33624267578125
z: 0.003457849146798253
visibility: 0.9996399879455566
","x: 242.7293243408203
y: 380.80926513671875
z: -0.0035104132257401943
visibility: 0.9996795654296875
","x: 260.5116882324219
y: 452.9263916015625
z: 0.026739319786429405
visibility: 0.9908223152160645
","x: 241.2856903076172
y: 451.4989929199219
z: 0.0034819699358195066
visibility: 0.9924830794334412
","x: 258.873779296875
y: 515.5402221679688
z: 0.14686912298202515
visibility: 0.9912972450256348
","x: 235.90281677246094
y: 513.17431640625
z: 0.13623984158039093
visibility: 0.9902064204216003
","x: 256.9047546386719
y: 524.8033447265625
z: 0.15295706689357758
visibility: 0.9311937689781189
","x: 236.81103515625
y: 522.4066772460938
z: 0.14341683685779572
visibility: 0.8551791310310364
","x: 262.8316345214844
y: 535.9501953125
z: 0.05021145939826965
visibility: 0.9869503378868103
","x: 235.44818115234375
y: 533.2953491210938
z: 0.038059547543525696
visibility: 0.9835370779037476
",4.594614028930664,"x: 281.0766906738281
y: 377.2161560058594
z: 0.0
","x: 278.08526611328125
y: 379.92584228515625
z: -0.001547698280774057
","x: 276.1650085449219
y: 385.6265869140625
z: -0.0018612369894981384
","x: 274.93878173828125
y: 391.56524658203125
z: -0.0019129076972603798
","x: 274.236328125
y: 396.1012268066406
z: -0.0014601682778447866
","x: 279.146240234375
y: 392.9132080078125
z: -0.0012882841983810067
","x: 277.1054992675781
y: 400.28704833984375
z: -0.001379491644911468
","x: 274.9394226074219
y: 401.38287353515625
z: -0.0006717828218825161
","x: 273.6878662109375
y: 401.02239990234375
z: 4.857962630921975e-05
","x: 280.662841796875
y: 394.8094177246094
z: -0.0007976469933055341
","x: 278.61572265625
y: 402.49920654296875
z: -0.0005272536654956639
","x: 276.37371826171875
y: 403.382568359375
z: 0.00030347277061082423
","x: 275.0631103515625
y: 402.7042236328125
z: 0.0009267437853850424
","x: 281.4134216308594
y: 395.383056640625
z: -0.0004225463781040162
","x: 279.5555725097656
y: 402.54376220703125
z: -0.0004638128448277712
","x: 277.4785461425781
y: 403.4193420410156
z: -6.064247281756252e-05
","x: 276.1324462890625
y: 402.7179260253906
z: 0.00027888661134056747
","x: 281.48944091796875
y: 395.0396423339844
z: -0.00026552905910648406
","x: 279.9283142089844
y: 400.9013366699219
z: -0.0006190795684233308
","x: 278.10467529296875
y: 402.16815185546875
z: -0.0004808332596439868
","x: 276.6441955566406
y: 401.8527526855469
z: -8.063001587288454e-05
",,,,,,,,,,,,,,,,,,,,,
9,"x: 256.9367370605469
y: 247.0688018798828
z: -0.27662938833236694
visibility: 0.9999920725822449
","x: 259.17822265625
y: 242.21923828125
z: -0.2616913318634033
visibility: 0.9999701976776123
","x: 260.6247253417969
y: 242.79884338378906
z: -0.2617036998271942
visibility: 0.999969482421875
","x: 261.96710205078125
y: 243.36087036132812
z: -0.2616925835609436
visibility: 0.9999688267707825
","x: 255.07373046875
y: 240.90380859375
z: -0.26423919200897217
visibility: 0.999970555305481
","x: 253.431640625
y: 240.64877319335938
z: -0.26426368951797485
visibility: 0.9999694228172302
","x: 251.8050079345703
y: 240.50253295898438
z: -0.2642720341682434
visibility: 0.9999665021896362
","x: 264.1687316894531
y: 248.27676391601562
z: -0.1654675304889679
visibility: 0.9999096393585205
","x: 249.06532287597656
y: 245.07203674316406
z: -0.17978402972221375
visibility: 0.9999234080314636
","x: 258.7457580566406
y: 256.050048828125
z: -0.24031035602092743
visibility: 0.9999828934669495
","x: 253.59486389160156
y: 254.81777954101562
z: -0.24453382194042206
visibility: 0.9999836087226868
","x: 273.8846435546875
y: 288.84814453125
z: -0.10325376689434052
visibility: 0.9999561309814453
","x: 235.9442596435547
y: 286.88421630859375
z: -0.10692918300628662
visibility: 0.9999368786811829
","x: 280.236572265625
y: 335.3310852050781
z: -0.051399070769548416
visibility: 0.9923276901245117
","x: 229.39349365234375
y: 335.5723876953125
z: -0.06823994964361191
visibility: 0.9787754416465759
","x: 280.0646667480469
y: 379.3822021484375
z: -0.12699410319328308
visibility: 0.9849374294281006
","x: 228.43943786621094
y: 377.808837890625
z: -0.1406954824924469
visibility: 0.9498949646949768
","x: 280.513671875
y: 394.4375
z: -0.15012893080711365
visibility: 0.9641347527503967
","x: 227.200439453125
y: 393.6459655761719
z: -0.16420850157737732
visibility: 0.908950686454773
","x: 277.4056091308594
y: 392.932861328125
z: -0.17735707759857178
visibility: 0.9666082859039307
","x: 229.7228240966797
y: 393.3438720703125
z: -0.19113276898860931
visibility: 0.9135695695877075
","x: 276.33905029296875
y: 389.1552734375
z: -0.1384681761264801
visibility: 0.9572685360908508
","x: 231.0779266357422
y: 388.5914611816406
z: -0.15233738720417023
visibility: 0.8986228704452515
","x: 264.74169921875
y: 382.33624267578125
z: 0.003457849146798253
visibility: 0.9996399879455566
","x: 242.7293243408203
y: 380.80926513671875
z: -0.0035104132257401943
visibility: 0.9996795654296875
","x: 260.5116882324219
y: 452.9263916015625
z: 0.026739319786429405
visibility: 0.9908223152160645
","x: 241.2856903076172
y: 451.4989929199219
z: 0.0034819699358195066
visibility: 0.9924830794334412
","x: 258.873779296875
y: 515.5402221679688
z: 0.14686912298202515
visibility: 0.9912972450256348
","x: 235.90281677246094
y: 513.17431640625
z: 0.13623984158039093
visibility: 0.9902064204216003
","x: 256.9047546386719
y: 524.8033447265625
z: 0.15295706689357758
visibility: 0.9311937689781189
","x: 236.81103515625
y: 522.4066772460938
z: 0.14341683685779572
visibility: 0.8551791310310364
","x: 262.8316345214844
y: 535.9501953125
z: 0.05021145939826965
visibility: 0.9869503378868103
","x: 235.44818115234375
y: 533.2953491210938
z: 0.038059547543525696
visibility: 0.9835370779037476
",4.594614028930664,"x: 281.0766906738281
y: 377.2161560058594
z: 0.0
","x: 278.08526611328125
y: 379.92584228515625
z: -0.001547698280774057
","x: 276.1650085449219
y: 385.6265869140625
z: -0.0018612369894981384
","x: 274.93878173828125
y: 391.56524658203125
z: -0.0019129076972603798
","x: 274.236328125
y: 396.1012268066406
z: -0.0014601682778447866
","x: 279.146240234375
y: 392.9132080078125
z: -0.0012882841983810067
","x: 277.1054992675781
y: 400.28704833984375
z: -0.001379491644911468
","x: 274.9394226074219
y: 401.38287353515625
z: -0.0006717828218825161
","x: 273.6878662109375
y: 401.02239990234375
z: 4.857962630921975e-05
","x: 280.662841796875
y: 394.8094177246094
z: -0.0007976469933055341
","x: 278.61572265625
y: 402.49920654296875
z: -0.0005272536654956639
","x: 276.37371826171875
y: 403.382568359375
z: 0.00030347277061082423
","x: 275.0631103515625
y: 402.7042236328125
z: 0.0009267437853850424
","x: 281.4134216308594
y: 395.383056640625
z: -0.0004225463781040162
","x: 279.5555725097656
y: 402.54376220703125
z: -0.0004638128448277712
","x: 277.4785461425781
y: 403.4193420410156
z: -6.064247281756252e-05
","x: 276.1324462890625
y: 402.7179260253906
z: 0.00027888661134056747
","x: 281.48944091796875
y: 395.0396423339844
z: -0.00026552905910648406
","x: 279.9283142089844
y: 400.9013366699219
z: -0.0006190795684233308
","x: 278.10467529296875
y: 402.16815185546875
z: -0.0004808332596439868
","x: 276.6441955566406
y: 401.8527526855469
z: -8.063001587288454e-05
",,,,,,,,,,,,,,,,,,,,,
10,"x: 257.2413330078125
y: 247.30377197265625
z: -0.27061551809310913
visibility: 0.999992311000824
","x: 259.4717102050781
y: 242.44534301757812
z: -0.2551019787788391
visibility: 0.9999712109565735
","x: 260.9725341796875
y: 243.0765380859375
z: -0.25512632727622986
visibility: 0.9999703764915466
","x: 262.3309631347656
y: 243.656494140625
z: -0.2551271319389343
visibility: 0.9999698400497437
","x: 255.3612060546875
y: 240.9632568359375
z: -0.258122056722641
visibility: 0.9999716281890869
","x: 253.662353515625
y: 240.66802978515625
z: -0.2581426501274109
visibility: 0.999970555305481
","x: 252.0051727294922
y: 240.51190185546875
z: -0.25813165307044983
visibility: 0.9999676942825317
","x: 264.471923828125
y: 248.4194793701172
z: -0.15763716399669647
visibility: 0.9999131560325623
","x: 249.2130889892578
y: 245.07798767089844
z: -0.17311522364616394
visibility: 0.9999265074729919
","x: 258.9441223144531
y: 256.32598876953125
z: -0.23379544913768768
visibility: 0.9999836087226868
","x: 253.8868408203125
y: 255.12026977539062
z: -0.23834016919136047
visibility: 0.9999842643737793
","x: 273.9759826660156
y: 288.8990478515625
z: -0.0949958935379982
visibility: 0.9999588131904602
","x: 236.17648315429688
y: 286.97003173828125
z: -0.09348919987678528
visibility: 0.9999369978904724
","x: 282.1210021972656
y: 330.9219970703125
z: -0.04769671708345413
visibility: 0.9927158355712891
","x: 229.11044311523438
y: 334.7729187011719
z: -0.04718858748674393
visibility: 0.9790996313095093
","x: 284.447509765625
y: 365.28668212890625
z: -0.12933313846588135
visibility: 0.9855154752731323
","x: 228.50933837890625
y: 376.94586181640625
z: -0.1195768490433693
visibility: 0.9498040676116943
","x: 283.74810791015625
y: 380.92718505859375
z: -0.15405626595020294
visibility: 0.9651374816894531
","x: 227.37808227539062
y: 393.0541687011719
z: -0.14174844324588776
visibility: 0.9079744815826416
","x: 280.9663391113281
y: 379.2318420410156
z: -0.18043920397758484
visibility: 0.9675905704498291
","x: 230.32681274414062
y: 392.69366455078125
z: -0.1671614795923233
visibility: 0.9126061201095581
","x: 279.99041748046875
y: 373.711181640625
z: -0.14057645201683044
visibility: 0.9584062695503235
","x: 231.65185546875
y: 387.8436279296875
z: -0.13039511442184448
visibility: 0.8973154425621033
","x: 264.8700256347656
y: 382.33282470703125
z: 0.0026237652637064457
visibility: 0.9996334314346313
","x: 242.9940643310547
y: 380.65936279296875
z: -0.0026688892394304276
visibility: 0.9996595978736877
","x: 260.48480224609375
y: 452.6815185546875
z: 0.014851933345198631
visibility: 0.9907621145248413
","x: 241.69398498535156
y: 451.4576721191406
z: 0.0037991392891854048
visibility: 0.9923422932624817
","x: 258.8435974121094
y: 515.6861572265625
z: 0.13481222093105316
visibility: 0.991279125213623
","x: 235.90252685546875
y: 512.9473266601562
z: 0.1361069679260254
visibility: 0.9901323914527893
","x: 256.86968994140625
y: 524.9161376953125
z: 0.14034567773342133
visibility: 0.9302899837493896
","x: 236.81243896484375
y: 522.1236572265625
z: 0.14318940043449402
visibility: 0.8542136549949646
","x: 262.83172607421875
y: 535.96484375
z: 0.03875657916069031
visibility: 0.9868628978729248
","x: 235.4480743408203
y: 533.3018798828125
z: 0.03808475285768509
visibility: 0.983466386795044
",4.730255603790283,,,,,,,,,,,,,,,,,,,,,,,,,,,,,,,,,,,,,,,,,,
11,"x: 257.2413330078125
y: 247.30377197265625
z: -0.27061551809310913
visibility: 0.999992311000824
","x: 259.4717102050781
y: 242.44534301757812
z: -0.2551019787788391
visibility: 0.9999712109565735
","x: 260.9725341796875
y: 243.0765380859375
z: -0.25512632727622986
visibility: 0.9999703764915466
","x: 262.3309631347656
y: 243.656494140625
z: -0.2551271319389343
visibility: 0.9999698400497437
","x: 255.3612060546875
y: 240.9632568359375
z: -0.258122056722641
visibility: 0.9999716281890869
","x: 253.662353515625
y: 240.66802978515625
z: -0.2581426501274109
visibility: 0.999970555305481
","x: 252.0051727294922
y: 240.51190185546875
z: -0.25813165307044983
visibility: 0.9999676942825317
","x: 264.471923828125
y: 248.4194793701172
z: -0.15763716399669647
visibility: 0.9999131560325623
","x: 249.2130889892578
y: 245.07798767089844
z: -0.17311522364616394
visibility: 0.9999265074729919
","x: 258.9441223144531
y: 256.32598876953125
z: -0.23379544913768768
visibility: 0.9999836087226868
","x: 253.8868408203125
y: 255.12026977539062
z: -0.23834016919136047
visibility: 0.9999842643737793
","x: 273.9759826660156
y: 288.8990478515625
z: -0.0949958935379982
visibility: 0.9999588131904602
","x: 236.17648315429688
y: 286.97003173828125
z: -0.09348919987678528
visibility: 0.9999369978904724
","x: 282.1210021972656
y: 330.9219970703125
z: -0.04769671708345413
visibility: 0.9927158355712891
","x: 229.11044311523438
y: 334.7729187011719
z: -0.04718858748674393
visibility: 0.9790996313095093
","x: 284.447509765625
y: 365.28668212890625
z: -0.12933313846588135
visibility: 0.9855154752731323
","x: 228.50933837890625
y: 376.94586181640625
z: -0.1195768490433693
visibility: 0.9498040676116943
","x: 283.74810791015625
y: 380.92718505859375
z: -0.15405626595020294
visibility: 0.9651374816894531
","x: 227.37808227539062
y: 393.0541687011719
z: -0.14174844324588776
visibility: 0.9079744815826416
","x: 280.9663391113281
y: 379.2318420410156
z: -0.18043920397758484
visibility: 0.9675905704498291
","x: 230.32681274414062
y: 392.69366455078125
z: -0.1671614795923233
visibility: 0.9126061201095581
","x: 279.99041748046875
y: 373.711181640625
z: -0.14057645201683044
visibility: 0.9584062695503235
","x: 231.65185546875
y: 387.8436279296875
z: -0.13039511442184448
visibility: 0.8973154425621033
","x: 264.8700256347656
y: 382.33282470703125
z: 0.0026237652637064457
visibility: 0.9996334314346313
","x: 242.9940643310547
y: 380.65936279296875
z: -0.0026688892394304276
visibility: 0.9996595978736877
","x: 260.48480224609375
y: 452.6815185546875
z: 0.014851933345198631
visibility: 0.9907621145248413
","x: 241.69398498535156
y: 451.4576721191406
z: 0.0037991392891854048
visibility: 0.9923422932624817
","x: 258.8435974121094
y: 515.6861572265625
z: 0.13481222093105316
visibility: 0.991279125213623
","x: 235.90252685546875
y: 512.9473266601562
z: 0.1361069679260254
visibility: 0.9901323914527893
","x: 256.86968994140625
y: 524.9161376953125
z: 0.14034567773342133
visibility: 0.9302899837493896
","x: 236.81243896484375
y: 522.1236572265625
z: 0.14318940043449402
visibility: 0.8542136549949646
","x: 262.83172607421875
y: 535.96484375
z: 0.03875657916069031
visibility: 0.9868628978729248
","x: 235.4480743408203
y: 533.3018798828125
z: 0.03808475285768509
visibility: 0.983466386795044
",4.730255603790283,,,,,,,,,,,,,,,,,,,,,,,,,,,,,,,,,,,,,,,,,,
12,"x: 257.9094543457031
y: 247.2948455810547
z: -0.20633509755134583
visibility: 0.9999920129776001
","x: 260.275390625
y: 242.45811462402344
z: -0.1916773021221161
visibility: 0.9999701976776123
","x: 261.77557373046875
y: 243.113525390625
z: -0.19171032309532166
visibility: 0.9999684691429138
","x: 263.2414855957031
y: 243.69139099121094
z: -0.19169801473617554
visibility: 0.9999673366546631
","x: 256.1056823730469
y: 240.9390411376953
z: -0.19383904337882996
visibility: 0.9999717473983765
","x: 254.42076110839844
y: 240.606201171875
z: -0.19383969902992249
visibility: 0.9999706149101257
","x: 252.7579345703125
y: 240.41677856445312
z: -0.1938277781009674
visibility: 0.9999685287475586
","x: 265.1664123535156
y: 248.4203338623047
z: -0.09823505580425262
visibility: 0.9999067783355713
","x: 249.87112426757812
y: 244.86428833007812
z: -0.10858160257339478
visibility: 0.9999310970306396
","x: 259.6143493652344
y: 256.2969665527344
z: -0.1712975949048996
visibility: 0.9999833703041077
","x: 254.61122131347656
y: 254.9915313720703
z: -0.17427921295166016
visibility: 0.9999849796295166
","x: 274.06878662109375
y: 287.9212646484375
z: -0.03737006336450577
visibility: 0.9999484419822693
","x: 236.52191162109375
y: 285.9146728515625
z: -0.03743196278810501
visibility: 0.9999409914016724
","x: 283.7395935058594
y: 318.0388488769531
z: -0.0406075157225132
visibility: 0.9867605566978455
","x: 227.34042358398438
y: 327.02166748046875
z: 0.010304160416126251
visibility: 0.9804878234863281
","x: 286.02764892578125
y: 330.2290344238281
z: -0.1732761114835739
visibility: 0.9706000685691833
","x: 228.005859375
y: 366.3104248046875
z: -0.03951694443821907
visibility: 0.951601505279541
","x: 287.3919982910156
y: 335.6398010253906
z: -0.2032252997159958
visibility: 0.9435542821884155
","x: 227.53614807128906
y: 378.9124755859375
z: -0.05469214916229248
visibility: 0.9090530276298523
","x: 284.05224609375
y: 331.3022155761719
z: -0.2217990607023239
visibility: 0.9475452303886414
","x: 230.51429748535156
y: 377.28448486328125
z: -0.07541493326425552
visibility: 0.9135534763336182
","x: 282.6622619628906
y: 329.8556823730469
z: -0.184039905667305
visibility: 0.9362519979476929
","x: 231.62879943847656
y: 373.5418395996094
z: -0.04722122102975845
visibility: 0.8984842300415039
","x: 265.0277099609375
y: 382.1094970703125
z: 0.0021805446594953537
visibility: 0.9995803236961365
","x: 243.2838592529297
y: 380.0335388183594
z: -0.0021965033374726772
visibility: 0.9996277093887329
","x: 260.5749206542969
y: 452.695556640625
z: 0.006869724486023188
visibility: 0.9905903935432434
","x: 241.75291442871094
y: 451.14178466796875
z: -0.003893177956342697
visibility: 0.9926846623420715
","x: 258.853515625
y: 515.9261474609375
z: 0.12931975722312927
visibility: 0.9912679195404053
","x: 235.70701599121094
y: 513.4208984375
z: 0.12214579433202744
visibility: 0.9904508590698242
","x: 256.87017822265625
y: 524.9389038085938
z: 0.13492868840694427
visibility: 0.9288621544837952
","x: 236.5369415283203
y: 522.5038452148438
z: 0.12808957695960999
visibility: 0.8579713106155396
","x: 263.0845947265625
y: 536.0939331054688
z: 0.030164891853928566
visibility: 0.9868528842926025
","x: 235.47509765625
y: 533.8817749023438
z: 0.020262885838747025
visibility: 0.9840863943099976
",4.8869547843933105,,,,,,,,,,,,,,,,,,,,,,,,,,,,,,,,,,,,,,,,,,
13,"x: 257.9094543457031
y: 247.2948455810547
z: -0.20633509755134583
visibility: 0.9999920129776001
","x: 260.275390625
y: 242.45811462402344
z: -0.1916773021221161
visibility: 0.9999701976776123
","x: 261.77557373046875
y: 243.113525390625
z: -0.19171032309532166
visibility: 0.9999684691429138
","x: 263.2414855957031
y: 243.69139099121094
z: -0.19169801473617554
visibility: 0.9999673366546631
","x: 256.1056823730469
y: 240.9390411376953
z: -0.19383904337882996
visibility: 0.9999717473983765
","x: 254.42076110839844
y: 240.606201171875
z: -0.19383969902992249
visibility: 0.9999706149101257
","x: 252.7579345703125
y: 240.41677856445312
z: -0.1938277781009674
visibility: 0.9999685287475586
","x: 265.1664123535156
y: 248.4203338623047
z: -0.09823505580425262
visibility: 0.9999067783355713
","x: 249.87112426757812
y: 244.86428833007812
z: -0.10858160257339478
visibility: 0.9999310970306396
","x: 259.6143493652344
y: 256.2969665527344
z: -0.1712975949048996
visibility: 0.9999833703041077
","x: 254.61122131347656
y: 254.9915313720703
z: -0.17427921295166016
visibility: 0.9999849796295166
","x: 274.06878662109375
y: 287.9212646484375
z: -0.03737006336450577
visibility: 0.9999484419822693
","x: 236.52191162109375
y: 285.9146728515625
z: -0.03743196278810501
visibility: 0.9999409914016724
","x: 283.7395935058594
y: 318.0388488769531
z: -0.0406075157225132
visibility: 0.9867605566978455
","x: 227.34042358398438
y: 327.02166748046875
z: 0.010304160416126251
visibility: 0.9804878234863281
","x: 286.02764892578125
y: 330.2290344238281
z: -0.1732761114835739
visibility: 0.9706000685691833
","x: 228.005859375
y: 366.3104248046875
z: -0.03951694443821907
visibility: 0.951601505279541
","x: 287.3919982910156
y: 335.6398010253906
z: -0.2032252997159958
visibility: 0.9435542821884155
","x: 227.53614807128906
y: 378.9124755859375
z: -0.05469214916229248
visibility: 0.9090530276298523
","x: 284.05224609375
y: 331.3022155761719
z: -0.2217990607023239
visibility: 0.9475452303886414
","x: 230.51429748535156
y: 377.28448486328125
z: -0.07541493326425552
visibility: 0.9135534763336182
","x: 282.6622619628906
y: 329.8556823730469
z: -0.184039905667305
visibility: 0.9362519979476929
","x: 231.62879943847656
y: 373.5418395996094
z: -0.04722122102975845
visibility: 0.8984842300415039
","x: 265.0277099609375
y: 382.1094970703125
z: 0.0021805446594953537
visibility: 0.9995803236961365
","x: 243.2838592529297
y: 380.0335388183594
z: -0.0021965033374726772
visibility: 0.9996277093887329
","x: 260.5749206542969
y: 452.695556640625
z: 0.006869724486023188
visibility: 0.9905903935432434
","x: 241.75291442871094
y: 451.14178466796875
z: -0.003893177956342697
visibility: 0.9926846623420715
","x: 258.853515625
y: 515.9261474609375
z: 0.12931975722312927
visibility: 0.9912679195404053
","x: 235.70701599121094
y: 513.4208984375
z: 0.12214579433202744
visibility: 0.9904508590698242
","x: 256.87017822265625
y: 524.9389038085938
z: 0.13492868840694427
visibility: 0.9288621544837952
","x: 236.5369415283203
y: 522.5038452148438
z: 0.12808957695960999
visibility: 0.8579713106155396
","x: 263.0845947265625
y: 536.0939331054688
z: 0.030164891853928566
visibility: 0.9868528842926025
","x: 235.47509765625
y: 533.8817749023438
z: 0.020262885838747025
visibility: 0.9840863943099976
",4.8869547843933105,,,,,,,,,,,,,,,,,,,,,,,,,,,,,,,,,,,,,,,,,,
14,"x: 258.0956726074219
y: 247.20924377441406
z: -0.20191149413585663
visibility: 0.9999925494194031
","x: 260.5498962402344
y: 242.436279296875
z: -0.18626275658607483
visibility: 0.9999724626541138
","x: 262.07928466796875
y: 243.10800170898438
z: -0.1862853318452835
visibility: 0.9999708533287048
","x: 263.60772705078125
y: 243.6875762939453
z: -0.18627673387527466
visibility: 0.9999697804450989
","x: 256.2821350097656
y: 240.88136291503906
z: -0.1864745318889618
visibility: 0.9999738335609436
","x: 254.5853271484375
y: 240.52513122558594
z: -0.18645533919334412
visibility: 0.9999726414680481
","x: 252.91380310058594
y: 240.34303283691406
z: -0.18644188344478607
visibility: 0.9999706745147705
","x: 265.6428527832031
y: 248.4169158935547
z: -0.08770648390054703
visibility: 0.999914288520813
","x: 250.16012573242188
y: 244.84808349609375
z: -0.08978324383497238
visibility: 0.9999369978904724
","x: 259.8488464355469
y: 256.230224609375
z: -0.165215402841568
visibility: 0.999984860420227
","x: 254.77517700195312
y: 254.93466186523438
z: -0.16591396927833557
visibility: 0.9999862909317017
","x: 274.3134765625
y: 287.3751220703125
z: -0.028012603521347046
visibility: 0.9999525547027588
","x: 237.21185302734375
y: 284.7567443847656
z: -0.01804647035896778
visibility: 0.9999451637268066
","x: 287.7364196777344
y: 322.8120422363281
z: -0.09881888329982758
visibility: 0.9878868460655212
","x: 227.22256469726562
y: 325.31793212890625
z: -0.0003794844960793853
visibility: 0.9816235303878784
","x: 285.3420104980469
y: 315.07891845703125
z: -0.3077990412712097
visibility: 0.9733076095581055
","x: 228.10166931152344
y: 354.30364990234375
z: -0.058203719556331635
visibility: 0.9543958902359009
","x: 286.4822998046875
y: 312.7043762207031
z: -0.3511940538883209
visibility: 0.9484423398971558
","x: 228.61990356445312
y: 367.73602294921875
z: -0.07679884135723114
visibility: 0.913021445274353
","x: 283.0082092285156
y: 306.9587097167969
z: -0.3551527261734009
visibility: 0.9520596861839294
","x: 231.3856658935547
y: 365.73675537109375
z: -0.11960709095001221
visibility: 0.9171754121780396
","x: 281.3815002441406
y: 307.08453369140625
z: -0.3133353590965271
visibility: 0.9413313269615173
","x: 232.02835083007812
y: 361.56243896484375
z: -0.08221811801195145
visibility: 0.9019816517829895
","x: 265.18658447265625
y: 381.8857116699219
z: 0.0027710325084626675
visibility: 0.9996024370193481
","x: 243.3057098388672
y: 379.67724609375
z: -0.0027944245375692844
visibility: 0.9996415972709656
","x: 260.64385986328125
y: 453.163330078125
z: 0.008898978121578693
visibility: 0.9908567667007446
","x: 240.35671997070312
y: 451.24853515625
z: -0.007464869413524866
visibility: 0.9930734634399414
","x: 258.888427734375
y: 516.052734375
z: 0.15374210476875305
visibility: 0.9915626049041748
","x: 234.92713928222656
y: 512.6585083007812
z: 0.13192954659461975
visibility: 0.9909109473228455
","x: 256.9059143066406
y: 524.9597778320312
z: 0.16275814175605774
visibility: 0.9300709962844849
","x: 235.7813262939453
y: 521.6788330078125
z: 0.1397814005613327
visibility: 0.8624966740608215
","x: 263.0954895019531
y: 536.3292846679688
z: 0.0506790354847908
visibility: 0.9872530102729797
","x: 233.41639709472656
y: 533.8361206054688
z: 0.021617235615849495
visibility: 0.9848435521125793
",4.997619867324829,"x: 285.3377685546875
y: 309.25433349609375
z: 0.0
","x: 283.8604736328125
y: 303.8946228027344
z: 0.0004905391251668334
","x: 280.7708435058594
y: 300.7520751953125
z: -0.0010873901192098856
","x: 278.09820556640625
y: 300.2463073730469
z: -0.0029575377702713013
","x: 276.01177978515625
y: 301.3210144042969
z: -0.004754331428557634
","x: 280.0734558105469
y: 299.5138854980469
z: -0.005329946056008339
","x: 275.6976623535156
y: 299.2306823730469
z: -0.008447065018117428
","x: 274.72216796875
y: 300.333740234375
z: -0.009122394025325775
","x: 274.7756652832031
y: 301.0546875
z: -0.009183338843286037
","x: 280.2923278808594
y: 303.09814453125
z: -0.007363639306277037
","x: 275.515625
y: 303.0186767578125
z: -0.010604253038764
","x: 274.4057922363281
y: 304.032958984375
z: -0.010229322127997875
","x: 274.52685546875
y: 304.6459655761719
z: -0.009635012596845627
","x: 280.5852355957031
y: 307.2917785644531
z: -0.009197128005325794
","x: 276.16357421875
y: 307.41876220703125
z: -0.0115482397377491
","x: 275.0483093261719
y: 307.9962158203125
z: -0.010065373033285141
","x: 275.05987548828125
y: 308.1376953125
z: -0.008947771973907948
","x: 281.003662109375
y: 311.5600891113281
z: -0.011008627712726593
","x: 277.6096496582031
y: 311.9405212402344
z: -0.012556630186736584
","x: 276.78009033203125
y: 312.01324462890625
z: -0.011584475636482239
","x: 276.87957763671875
y: 311.853271484375
z: -0.01069997251033783
",,,,,,,,,,,,,,,,,,,,,
15,"x: 258.0956726074219
y: 247.20924377441406
z: -0.20191149413585663
visibility: 0.9999925494194031
","x: 260.5498962402344
y: 242.436279296875
z: -0.18626275658607483
visibility: 0.9999724626541138
","x: 262.07928466796875
y: 243.10800170898438
z: -0.1862853318452835
visibility: 0.9999708533287048
","x: 263.60772705078125
y: 243.6875762939453
z: -0.18627673387527466
visibility: 0.9999697804450989
","x: 256.2821350097656
y: 240.88136291503906
z: -0.1864745318889618
visibility: 0.9999738335609436
","x: 254.5853271484375
y: 240.52513122558594
z: -0.18645533919334412
visibility: 0.9999726414680481
","x: 252.91380310058594
y: 240.34303283691406
z: -0.18644188344478607
visibility: 0.9999706745147705
","x: 265.6428527832031
y: 248.4169158935547
z: -0.08770648390054703
visibility: 0.999914288520813
","x: 250.16012573242188
y: 244.84808349609375
z: -0.08978324383497238
visibility: 0.9999369978904724
","x: 259.8488464355469
y: 256.230224609375
z: -0.165215402841568
visibility: 0.999984860420227
","x: 254.77517700195312
y: 254.93466186523438
z: -0.16591396927833557
visibility: 0.9999862909317017
","x: 274.3134765625
y: 287.3751220703125
z: -0.028012603521347046
visibility: 0.9999525547027588
","x: 237.21185302734375
y: 284.7567443847656
z: -0.01804647035896778
visibility: 0.9999451637268066
","x: 287.7364196777344
y: 322.8120422363281
z: -0.09881888329982758
visibility: 0.9878868460655212
","x: 227.22256469726562
y: 325.31793212890625
z: -0.0003794844960793853
visibility: 0.9816235303878784
","x: 285.3420104980469
y: 315.07891845703125
z: -0.3077990412712097
visibility: 0.9733076095581055
","x: 228.10166931152344
y: 354.30364990234375
z: -0.058203719556331635
visibility: 0.9543958902359009
","x: 286.4822998046875
y: 312.7043762207031
z: -0.3511940538883209
visibility: 0.9484423398971558
","x: 228.61990356445312
y: 367.73602294921875
z: -0.07679884135723114
visibility: 0.913021445274353
","x: 283.0082092285156
y: 306.9587097167969
z: -0.3551527261734009
visibility: 0.9520596861839294
","x: 231.3856658935547
y: 365.73675537109375
z: -0.11960709095001221
visibility: 0.9171754121780396
","x: 281.3815002441406
y: 307.08453369140625
z: -0.3133353590965271
visibility: 0.9413313269615173
","x: 232.02835083007812
y: 361.56243896484375
z: -0.08221811801195145
visibility: 0.9019816517829895
","x: 265.18658447265625
y: 381.8857116699219
z: 0.0027710325084626675
visibility: 0.9996024370193481
","x: 243.3057098388672
y: 379.67724609375
z: -0.0027944245375692844
visibility: 0.9996415972709656
","x: 260.64385986328125
y: 453.163330078125
z: 0.008898978121578693
visibility: 0.9908567667007446
","x: 240.35671997070312
y: 451.24853515625
z: -0.007464869413524866
visibility: 0.9930734634399414
","x: 258.888427734375
y: 516.052734375
z: 0.15374210476875305
visibility: 0.9915626049041748
","x: 234.92713928222656
y: 512.6585083007812
z: 0.13192954659461975
visibility: 0.9909109473228455
","x: 256.9059143066406
y: 524.9597778320312
z: 0.16275814175605774
visibility: 0.9300709962844849
","x: 235.7813262939453
y: 521.6788330078125
z: 0.1397814005613327
visibility: 0.8624966740608215
","x: 263.0954895019531
y: 536.3292846679688
z: 0.0506790354847908
visibility: 0.9872530102729797
","x: 233.41639709472656
y: 533.8361206054688
z: 0.021617235615849495
visibility: 0.9848435521125793
",4.997619867324829,"x: 285.3377685546875
y: 309.25433349609375
z: 0.0
","x: 283.8604736328125
y: 303.8946228027344
z: 0.0004905391251668334
","x: 280.7708435058594
y: 300.7520751953125
z: -0.0010873901192098856
","x: 278.09820556640625
y: 300.2463073730469
z: -0.0029575377702713013
","x: 276.01177978515625
y: 301.3210144042969
z: -0.004754331428557634
","x: 280.0734558105469
y: 299.5138854980469
z: -0.005329946056008339
","x: 275.6976623535156
y: 299.2306823730469
z: -0.008447065018117428
","x: 274.72216796875
y: 300.333740234375
z: -0.009122394025325775
","x: 274.7756652832031
y: 301.0546875
z: -0.009183338843286037
","x: 280.2923278808594
y: 303.09814453125
z: -0.007363639306277037
","x: 275.515625
y: 303.0186767578125
z: -0.010604253038764
","x: 274.4057922363281
y: 304.032958984375
z: -0.010229322127997875
","x: 274.52685546875
y: 304.6459655761719
z: -0.009635012596845627
","x: 280.5852355957031
y: 307.2917785644531
z: -0.009197128005325794
","x: 276.16357421875
y: 307.41876220703125
z: -0.0115482397377491
","x: 275.0483093261719
y: 307.9962158203125
z: -0.010065373033285141
","x: 275.05987548828125
y: 308.1376953125
z: -0.008947771973907948
","x: 281.003662109375
y: 311.5600891113281
z: -0.011008627712726593
","x: 277.6096496582031
y: 311.9405212402344
z: -0.012556630186736584
","x: 276.78009033203125
y: 312.01324462890625
z: -0.011584475636482239
","x: 276.87957763671875
y: 311.853271484375
z: -0.01069997251033783
",,,,,,,,,,,,,,,,,,,,,
16,"x: 258.0956726074219
y: 247.20924377441406
z: -0.20191149413585663
visibility: 0.9999925494194031
","x: 260.5498962402344
y: 242.436279296875
z: -0.18626275658607483
visibility: 0.9999724626541138
","x: 262.07928466796875
y: 243.10800170898438
z: -0.1862853318452835
visibility: 0.9999708533287048
","x: 263.60772705078125
y: 243.6875762939453
z: -0.18627673387527466
visibility: 0.9999697804450989
","x: 256.2821350097656
y: 240.88136291503906
z: -0.1864745318889618
visibility: 0.9999738335609436
","x: 254.5853271484375
y: 240.52513122558594
z: -0.18645533919334412
visibility: 0.9999726414680481
","x: 252.91380310058594
y: 240.34303283691406
z: -0.18644188344478607
visibility: 0.9999706745147705
","x: 265.6428527832031
y: 248.4169158935547
z: -0.08770648390054703
visibility: 0.999914288520813
","x: 250.16012573242188
y: 244.84808349609375
z: -0.08978324383497238
visibility: 0.9999369978904724
","x: 259.8488464355469
y: 256.230224609375
z: -0.165215402841568
visibility: 0.999984860420227
","x: 254.77517700195312
y: 254.93466186523438
z: -0.16591396927833557
visibility: 0.9999862909317017
","x: 274.3134765625
y: 287.3751220703125
z: -0.028012603521347046
visibility: 0.9999525547027588
","x: 237.21185302734375
y: 284.7567443847656
z: -0.01804647035896778
visibility: 0.9999451637268066
","x: 287.7364196777344
y: 322.8120422363281
z: -0.09881888329982758
visibility: 0.9878868460655212
","x: 227.22256469726562
y: 325.31793212890625
z: -0.0003794844960793853
visibility: 0.9816235303878784
","x: 285.3420104980469
y: 315.07891845703125
z: -0.3077990412712097
visibility: 0.9733076095581055
","x: 228.10166931152344
y: 354.30364990234375
z: -0.058203719556331635
visibility: 0.9543958902359009
","x: 286.4822998046875
y: 312.7043762207031
z: -0.3511940538883209
visibility: 0.9484423398971558
","x: 228.61990356445312
y: 367.73602294921875
z: -0.07679884135723114
visibility: 0.913021445274353
","x: 283.0082092285156
y: 306.9587097167969
z: -0.3551527261734009
visibility: 0.9520596861839294
","x: 231.3856658935547
y: 365.73675537109375
z: -0.11960709095001221
visibility: 0.9171754121780396
","x: 281.3815002441406
y: 307.08453369140625
z: -0.3133353590965271
visibility: 0.9413313269615173
","x: 232.02835083007812
y: 361.56243896484375
z: -0.08221811801195145
visibility: 0.9019816517829895
","x: 265.18658447265625
y: 381.8857116699219
z: 0.0027710325084626675
visibility: 0.9996024370193481
","x: 243.3057098388672
y: 379.67724609375
z: -0.0027944245375692844
visibility: 0.9996415972709656
","x: 260.64385986328125
y: 453.163330078125
z: 0.008898978121578693
visibility: 0.9908567667007446
","x: 240.35671997070312
y: 451.24853515625
z: -0.007464869413524866
visibility: 0.9930734634399414
","x: 258.888427734375
y: 516.052734375
z: 0.15374210476875305
visibility: 0.9915626049041748
","x: 234.92713928222656
y: 512.6585083007812
z: 0.13192954659461975
visibility: 0.9909109473228455
","x: 256.9059143066406
y: 524.9597778320312
z: 0.16275814175605774
visibility: 0.9300709962844849
","x: 235.7813262939453
y: 521.6788330078125
z: 0.1397814005613327
visibility: 0.8624966740608215
","x: 263.0954895019531
y: 536.3292846679688
z: 0.0506790354847908
visibility: 0.9872530102729797
","x: 233.41639709472656
y: 533.8361206054688
z: 0.021617235615849495
visibility: 0.9848435521125793
",4.997619867324829,"x: 285.3377685546875
y: 309.25433349609375
z: 0.0
","x: 283.8604736328125
y: 303.8946228027344
z: 0.0004905391251668334
","x: 280.7708435058594
y: 300.7520751953125
z: -0.0010873901192098856
","x: 278.09820556640625
y: 300.2463073730469
z: -0.0029575377702713013
","x: 276.01177978515625
y: 301.3210144042969
z: -0.004754331428557634
","x: 280.0734558105469
y: 299.5138854980469
z: -0.005329946056008339
","x: 275.6976623535156
y: 299.2306823730469
z: -0.008447065018117428
","x: 274.72216796875
y: 300.333740234375
z: -0.009122394025325775
","x: 274.7756652832031
y: 301.0546875
z: -0.009183338843286037
","x: 280.2923278808594
y: 303.09814453125
z: -0.007363639306277037
","x: 275.515625
y: 303.0186767578125
z: -0.010604253038764
","x: 274.4057922363281
y: 304.032958984375
z: -0.010229322127997875
","x: 274.52685546875
y: 304.6459655761719
z: -0.009635012596845627
","x: 280.5852355957031
y: 307.2917785644531
z: -0.009197128005325794
","x: 276.16357421875
y: 307.41876220703125
z: -0.0115482397377491
","x: 275.0483093261719
y: 307.9962158203125
z: -0.010065373033285141
","x: 275.05987548828125
y: 308.1376953125
z: -0.008947771973907948
","x: 281.003662109375
y: 311.5600891113281
z: -0.011008627712726593
","x: 277.6096496582031
y: 311.9405212402344
z: -0.012556630186736584
","x: 276.78009033203125
y: 312.01324462890625
z: -0.011584475636482239
","x: 276.87957763671875
y: 311.853271484375
z: -0.01069997251033783
",,,,,,,,,,,,,,,,,,,,,
17,"x: 258.160888671875
y: 247.31884765625
z: -0.1893801987171173
visibility: 0.9999929070472717
","x: 260.56005859375
y: 242.52496337890625
z: -0.1741292029619217
visibility: 0.9999741911888123
","x: 262.091552734375
y: 243.15809631347656
z: -0.17415904998779297
visibility: 0.9999727010726929
","x: 263.6155090332031
y: 243.6993408203125
z: -0.1741640865802765
visibility: 0.9999717473983765
","x: 256.3341979980469
y: 241.05828857421875
z: -0.17306986451148987
visibility: 0.9999751448631287
","x: 254.637939453125
y: 240.703369140625
z: -0.17304739356040955
visibility: 0.999973714351654
","x: 252.98377990722656
y: 240.50787353515625
z: -0.17304334044456482
visibility: 0.9999718070030212
","x: 265.8185729980469
y: 248.3917999267578
z: -0.07752837240695953
visibility: 0.9999207854270935
","x: 250.26019287109375
y: 245.04275512695312
z: -0.07355310022830963
visibility: 0.9999414086341858
","x: 259.9681396484375
y: 256.275634765625
z: -0.1532479226589203
visibility: 0.9999861121177673
","x: 254.93826293945312
y: 255.1763153076172
z: -0.15223388373851776
visibility: 0.9999873638153076
","x: 274.60980224609375
y: 286.99346923828125
z: -0.023550812155008316
visibility: 0.9999563694000244
","x: 237.65414428710938
y: 284.3407897949219
z: -0.0019708401523530483
visibility: 0.9999487400054932
","x: 286.6212158203125
y: 324.9571228027344
z: -0.10468196868896484
visibility: 0.9889174699783325
","x: 227.5345001220703
y: 323.1280517578125
z: 0.02096926048398018
visibility: 0.9822785258293152
","x: 285.02459716796875
y: 314.8950500488281
z: -0.3149295449256897
visibility: 0.9758203625679016
","x: 228.385009765625
y: 351.642333984375
z: -0.07943843305110931
visibility: 0.9564208388328552
","x: 281.68084716796875
y: 311.33447265625
z: -0.35930225253105164
visibility: 0.9531075358390808
","x: 229.68617248535156
y: 365.1791687011719
z: -0.10322348028421402
visibility: 0.9159446954727173
","x: 280.53125
y: 303.720458984375
z: -0.3638823330402374
visibility: 0.9563751816749573
","x: 232.11585998535156
y: 362.8775634765625
z: -0.1270063817501068
visibility: 0.9198684096336365
","x: 280.635498046875
y: 304.5849609375
z: -0.32083380222320557
visibility: 0.9462979435920715
","x: 232.43862915039062
y: 358.65216064453125
z: -0.09117073565721512
visibility: 0.9045483469963074
","x: 265.1534423828125
y: 381.93896484375
z: 0.0025730663910508156
visibility: 0.999623715877533
","x: 243.2681427001953
y: 379.7756652832031
z: -0.0025917431339621544
visibility: 0.9996590614318848
","x: 260.64617919921875
y: 453.6898193359375
z: 0.006679781712591648
visibility: 0.9912912845611572
","x: 238.95973205566406
y: 451.6451721191406
z: -0.006400244776159525
visibility: 0.9935142993927002
","x: 258.90789794921875
y: 516.0866088867188
z: 0.1648261398077011
visibility: 0.9918936491012573
","x: 233.84722900390625
y: 512.4581298828125
z: 0.1427610218524933
visibility: 0.9914103746414185
","x: 256.91168212890625
y: 524.93310546875
z: 0.17496785521507263
visibility: 0.9313079714775085
","x: 234.91943359375
y: 521.2222900390625
z: 0.15106414258480072
visibility: 0.8677778244018555
","x: 263.1461486816406
y: 536.5377197265625
z: 0.0641743615269661
visibility: 0.9877068996429443
","x: 230.8679962158203
y: 534.115234375
z: 0.034635189920663834
visibility: 0.9856517910957336
",5.141237497329712,"x: 281.0669860839844
y: 307.4352722167969
z: 0.0
","x: 279.46856689453125
y: 301.8902282714844
z: 0.00043457350693643093
","x: 275.8589172363281
y: 297.89056396484375
z: -0.0013782128226011992
","x: 272.4722595214844
y: 296.4101257324219
z: -0.003300048876553774
","x: 269.9153137207031
y: 295.9778137207031
z: -0.005031511653214693
","x: 276.0159606933594
y: 295.61627197265625
z: -0.0071652173064649105
","x: 270.26959228515625
y: 295.80499267578125
z: -0.010103880427777767
","x: 268.3069763183594
y: 298.29156494140625
z: -0.010168550536036491
","x: 267.9241638183594
y: 300.2794189453125
z: -0.009800594300031662
","x: 276.2729797363281
y: 299.623046875
z: -0.009091522544622421
","x: 269.4624328613281
y: 300.60443115234375
z: -0.012539205141365528
","x: 267.8882141113281
y: 303.4597473144531
z: -0.011456599459052086
","x: 268.2701416015625
y: 305.3984680175781
z: -0.010204888880252838
","x: 276.35650634765625
y: 304.1294250488281
z: -0.010599963366985321
","x: 269.8731689453125
y: 304.9766540527344
z: -0.01300239097326994
","x: 268.9962158203125
y: 307.1526184082031
z: -0.010509755462408066
","x: 269.8299560546875
y: 308.28497314453125
z: -0.008601635694503784
","x: 276.33648681640625
y: 308.6159362792969
z: -0.012040381319820881
","x: 271.533935546875
y: 309.034423828125
z: -0.013284584507346153
","x: 271.035400390625
y: 309.90191650390625
z: -0.011496278457343578
","x: 272.0169677734375
y: 310.1105041503906
z: -0.009999502450227737
","x: 227.9180908203125
y: 352.9504699707031
z: 0.0
","x: 231.0289306640625
y: 354.1723937988281
z: -0.0014484901912510395
","x: 233.80128479003906
y: 358.3793640136719
z: -0.0028036031872034073
","x: 235.91587829589844
y: 362.90234375
z: -0.003903493983671069
","x: 237.6759033203125
y: 366.7235107421875
z: -0.0047309198416769505
","x: 231.1724395751953
y: 365.74346923828125
z: -0.0033516327384859324
","x: 233.9548797607422
y: 371.91534423828125
z: -0.004933885298669338
","x: 236.44395446777344
y: 373.3795471191406
z: -0.005354280583560467
","x: 238.41143798828125
y: 373.2698974609375
z: -0.005347521044313908
","x: 229.87686157226562
y: 367.29058837890625
z: -0.0034413670655339956
","x: 232.9866943359375
y: 373.99188232421875
z: -0.005402983166277409
","x: 235.91793823242188
y: 374.97930908203125
z: -0.005840298719704151
","x: 238.08168029785156
y: 374.0112609863281
z: -0.005839865654706955
","x: 229.4888153076172
y: 367.78662109375
z: -0.0034988955594599247
","x: 232.21371459960938
y: 373.96014404296875
z: -0.005182178225368261
","x: 235.00677490234375
y: 374.9459533691406
z: -0.005274259485304356
","x: 237.1243438720703
y: 374.3016052246094
z: -0.005072011146694422
","x: 229.66134643554688
y: 367.6268310546875
z: -0.0036707227118313313
","x: 231.7093505859375
y: 372.3671875
z: -0.00474244961515069
","x: 233.80670166015625
y: 373.56048583984375
z: -0.004839346278458834
","x: 235.64537048339844
y: 373.6200256347656
z: -0.004714624490588903
"
18,"x: 258.160888671875
y: 247.31884765625
z: -0.1893801987171173
visibility: 0.9999929070472717
","x: 260.56005859375
y: 242.52496337890625
z: -0.1741292029619217
visibility: 0.9999741911888123
","x: 262.091552734375
y: 243.15809631347656
z: -0.17415904998779297
visibility: 0.9999727010726929
","x: 263.6155090332031
y: 243.6993408203125
z: -0.1741640865802765
visibility: 0.9999717473983765
","x: 256.3341979980469
y: 241.05828857421875
z: -0.17306986451148987
visibility: 0.9999751448631287
","x: 254.637939453125
y: 240.703369140625
z: -0.17304739356040955
visibility: 0.999973714351654
","x: 252.98377990722656
y: 240.50787353515625
z: -0.17304334044456482
visibility: 0.9999718070030212
","x: 265.8185729980469
y: 248.3917999267578
z: -0.07752837240695953
visibility: 0.9999207854270935
","x: 250.26019287109375
y: 245.04275512695312
z: -0.07355310022830963
visibility: 0.9999414086341858
","x: 259.9681396484375
y: 256.275634765625
z: -0.1532479226589203
visibility: 0.9999861121177673
","x: 254.93826293945312
y: 255.1763153076172
z: -0.15223388373851776
visibility: 0.9999873638153076
","x: 274.60980224609375
y: 286.99346923828125
z: -0.023550812155008316
visibility: 0.9999563694000244
","x: 237.65414428710938
y: 284.3407897949219
z: -0.0019708401523530483
visibility: 0.9999487400054932
","x: 286.6212158203125
y: 324.9571228027344
z: -0.10468196868896484
visibility: 0.9889174699783325
","x: 227.5345001220703
y: 323.1280517578125
z: 0.02096926048398018
visibility: 0.9822785258293152
","x: 285.02459716796875
y: 314.8950500488281
z: -0.3149295449256897
visibility: 0.9758203625679016
","x: 228.385009765625
y: 351.642333984375
z: -0.07943843305110931
visibility: 0.9564208388328552
","x: 281.68084716796875
y: 311.33447265625
z: -0.35930225253105164
visibility: 0.9531075358390808
","x: 229.68617248535156
y: 365.1791687011719
z: -0.10322348028421402
visibility: 0.9159446954727173
","x: 280.53125
y: 303.720458984375
z: -0.3638823330402374
visibility: 0.9563751816749573
","x: 232.11585998535156
y: 362.8775634765625
z: -0.1270063817501068
visibility: 0.9198684096336365
","x: 280.635498046875
y: 304.5849609375
z: -0.32083380222320557
visibility: 0.9462979435920715
","x: 232.43862915039062
y: 358.65216064453125
z: -0.09117073565721512
visibility: 0.9045483469963074
","x: 265.1534423828125
y: 381.93896484375
z: 0.0025730663910508156
visibility: 0.999623715877533
","x: 243.2681427001953
y: 379.7756652832031
z: -0.0025917431339621544
visibility: 0.9996590614318848
","x: 260.64617919921875
y: 453.6898193359375
z: 0.006679781712591648
visibility: 0.9912912845611572
","x: 238.95973205566406
y: 451.6451721191406
z: -0.006400244776159525
visibility: 0.9935142993927002
","x: 258.90789794921875
y: 516.0866088867188
z: 0.1648261398077011
visibility: 0.9918936491012573
","x: 233.84722900390625
y: 512.4581298828125
z: 0.1427610218524933
visibility: 0.9914103746414185
","x: 256.91168212890625
y: 524.93310546875
z: 0.17496785521507263
visibility: 0.9313079714775085
","x: 234.91943359375
y: 521.2222900390625
z: 0.15106414258480072
visibility: 0.8677778244018555
","x: 263.1461486816406
y: 536.5377197265625
z: 0.0641743615269661
visibility: 0.9877068996429443
","x: 230.8679962158203
y: 534.115234375
z: 0.034635189920663834
visibility: 0.9856517910957336
",5.141237497329712,"x: 281.0669860839844
y: 307.4352722167969
z: 0.0
","x: 279.46856689453125
y: 301.8902282714844
z: 0.00043457350693643093
","x: 275.8589172363281
y: 297.89056396484375
z: -0.0013782128226011992
","x: 272.4722595214844
y: 296.4101257324219
z: -0.003300048876553774
","x: 269.9153137207031
y: 295.9778137207031
z: -0.005031511653214693
","x: 276.0159606933594
y: 295.61627197265625
z: -0.0071652173064649105
","x: 270.26959228515625
y: 295.80499267578125
z: -0.010103880427777767
","x: 268.3069763183594
y: 298.29156494140625
z: -0.010168550536036491
","x: 267.9241638183594
y: 300.2794189453125
z: -0.009800594300031662
","x: 276.2729797363281
y: 299.623046875
z: -0.009091522544622421
","x: 269.4624328613281
y: 300.60443115234375
z: -0.012539205141365528
","x: 267.8882141113281
y: 303.4597473144531
z: -0.011456599459052086
","x: 268.2701416015625
y: 305.3984680175781
z: -0.010204888880252838
","x: 276.35650634765625
y: 304.1294250488281
z: -0.010599963366985321
","x: 269.8731689453125
y: 304.9766540527344
z: -0.01300239097326994
","x: 268.9962158203125
y: 307.1526184082031
z: -0.010509755462408066
","x: 269.8299560546875
y: 308.28497314453125
z: -0.008601635694503784
","x: 276.33648681640625
y: 308.6159362792969
z: -0.012040381319820881
","x: 271.533935546875
y: 309.034423828125
z: -0.013284584507346153
","x: 271.035400390625
y: 309.90191650390625
z: -0.011496278457343578
","x: 272.0169677734375
y: 310.1105041503906
z: -0.009999502450227737
","x: 227.9180908203125
y: 352.9504699707031
z: 0.0
","x: 231.0289306640625
y: 354.1723937988281
z: -0.0014484901912510395
","x: 233.80128479003906
y: 358.3793640136719
z: -0.0028036031872034073
","x: 235.91587829589844
y: 362.90234375
z: -0.003903493983671069
","x: 237.6759033203125
y: 366.7235107421875
z: -0.0047309198416769505
","x: 231.1724395751953
y: 365.74346923828125
z: -0.0033516327384859324
","x: 233.9548797607422
y: 371.91534423828125
z: -0.004933885298669338
","x: 236.44395446777344
y: 373.3795471191406
z: -0.005354280583560467
","x: 238.41143798828125
y: 373.2698974609375
z: -0.005347521044313908
","x: 229.87686157226562
y: 367.29058837890625
z: -0.0034413670655339956
","x: 232.9866943359375
y: 373.99188232421875
z: -0.005402983166277409
","x: 235.91793823242188
y: 374.97930908203125
z: -0.005840298719704151
","x: 238.08168029785156
y: 374.0112609863281
z: -0.005839865654706955
","x: 229.4888153076172
y: 367.78662109375
z: -0.0034988955594599247
","x: 232.21371459960938
y: 373.96014404296875
z: -0.005182178225368261
","x: 235.00677490234375
y: 374.9459533691406
z: -0.005274259485304356
","x: 237.1243438720703
y: 374.3016052246094
z: -0.005072011146694422
","x: 229.66134643554688
y: 367.6268310546875
z: -0.0036707227118313313
","x: 231.7093505859375
y: 372.3671875
z: -0.00474244961515069
","x: 233.80670166015625
y: 373.56048583984375
z: -0.004839346278458834
","x: 235.64537048339844
y: 373.6200256347656
z: -0.004714624490588903
"
19,"x: 258.160888671875
y: 247.31884765625
z: -0.1893801987171173
visibility: 0.9999929070472717
","x: 260.56005859375
y: 242.52496337890625
z: -0.1741292029619217
visibility: 0.9999741911888123
","x: 262.091552734375
y: 243.15809631347656
z: -0.17415904998779297
visibility: 0.9999727010726929
","x: 263.6155090332031
y: 243.6993408203125
z: -0.1741640865802765
visibility: 0.9999717473983765
","x: 256.3341979980469
y: 241.05828857421875
z: -0.17306986451148987
visibility: 0.9999751448631287
","x: 254.637939453125
y: 240.703369140625
z: -0.17304739356040955
visibility: 0.999973714351654
","x: 252.98377990722656
y: 240.50787353515625
z: -0.17304334044456482
visibility: 0.9999718070030212
","x: 265.8185729980469
y: 248.3917999267578
z: -0.07752837240695953
visibility: 0.9999207854270935
","x: 250.26019287109375
y: 245.04275512695312
z: -0.07355310022830963
visibility: 0.9999414086341858
","x: 259.9681396484375
y: 256.275634765625
z: -0.1532479226589203
visibility: 0.9999861121177673
","x: 254.93826293945312
y: 255.1763153076172
z: -0.15223388373851776
visibility: 0.9999873638153076
","x: 274.60980224609375
y: 286.99346923828125
z: -0.023550812155008316
visibility: 0.9999563694000244
","x: 237.65414428710938
y: 284.3407897949219
z: -0.0019708401523530483
visibility: 0.9999487400054932
","x: 286.6212158203125
y: 324.9571228027344
z: -0.10468196868896484
visibility: 0.9889174699783325
","x: 227.5345001220703
y: 323.1280517578125
z: 0.02096926048398018
visibility: 0.9822785258293152
","x: 285.02459716796875
y: 314.8950500488281
z: -0.3149295449256897
visibility: 0.9758203625679016
","x: 228.385009765625
y: 351.642333984375
z: -0.07943843305110931
visibility: 0.9564208388328552
","x: 281.68084716796875
y: 311.33447265625
z: -0.35930225253105164
visibility: 0.9531075358390808
","x: 229.68617248535156
y: 365.1791687011719
z: -0.10322348028421402
visibility: 0.9159446954727173
","x: 280.53125
y: 303.720458984375
z: -0.3638823330402374
visibility: 0.9563751816749573
","x: 232.11585998535156
y: 362.8775634765625
z: -0.1270063817501068
visibility: 0.9198684096336365
","x: 280.635498046875
y: 304.5849609375
z: -0.32083380222320557
visibility: 0.9462979435920715
","x: 232.43862915039062
y: 358.65216064453125
z: -0.09117073565721512
visibility: 0.9045483469963074
","x: 265.1534423828125
y: 381.93896484375
z: 0.0025730663910508156
visibility: 0.999623715877533
","x: 243.2681427001953
y: 379.7756652832031
z: -0.0025917431339621544
visibility: 0.9996590614318848
","x: 260.64617919921875
y: 453.6898193359375
z: 0.006679781712591648
visibility: 0.9912912845611572
","x: 238.95973205566406
y: 451.6451721191406
z: -0.006400244776159525
visibility: 0.9935142993927002
","x: 258.90789794921875
y: 516.0866088867188
z: 0.1648261398077011
visibility: 0.9918936491012573
","x: 233.84722900390625
y: 512.4581298828125
z: 0.1427610218524933
visibility: 0.9914103746414185
","x: 256.91168212890625
y: 524.93310546875
z: 0.17496785521507263
visibility: 0.9313079714775085
","x: 234.91943359375
y: 521.2222900390625
z: 0.15106414258480072
visibility: 0.8677778244018555
","x: 263.1461486816406
y: 536.5377197265625
z: 0.0641743615269661
visibility: 0.9877068996429443
","x: 230.8679962158203
y: 534.115234375
z: 0.034635189920663834
visibility: 0.9856517910957336
",5.141237497329712,"x: 281.0669860839844
y: 307.4352722167969
z: 0.0
","x: 279.46856689453125
y: 301.8902282714844
z: 0.00043457350693643093
","x: 275.8589172363281
y: 297.89056396484375
z: -0.0013782128226011992
","x: 272.4722595214844
y: 296.4101257324219
z: -0.003300048876553774
","x: 269.9153137207031
y: 295.9778137207031
z: -0.005031511653214693
","x: 276.0159606933594
y: 295.61627197265625
z: -0.0071652173064649105
","x: 270.26959228515625
y: 295.80499267578125
z: -0.010103880427777767
","x: 268.3069763183594
y: 298.29156494140625
z: -0.010168550536036491
","x: 267.9241638183594
y: 300.2794189453125
z: -0.009800594300031662
","x: 276.2729797363281
y: 299.623046875
z: -0.009091522544622421
","x: 269.4624328613281
y: 300.60443115234375
z: -0.012539205141365528
","x: 267.8882141113281
y: 303.4597473144531
z: -0.011456599459052086
","x: 268.2701416015625
y: 305.3984680175781
z: -0.010204888880252838
","x: 276.35650634765625
y: 304.1294250488281
z: -0.010599963366985321
","x: 269.8731689453125
y: 304.9766540527344
z: -0.01300239097326994
","x: 268.9962158203125
y: 307.1526184082031
z: -0.010509755462408066
","x: 269.8299560546875
y: 308.28497314453125
z: -0.008601635694503784
","x: 276.33648681640625
y: 308.6159362792969
z: -0.012040381319820881
","x: 271.533935546875
y: 309.034423828125
z: -0.013284584507346153
","x: 271.035400390625
y: 309.90191650390625
z: -0.011496278457343578
","x: 272.0169677734375
y: 310.1105041503906
z: -0.009999502450227737
","x: 227.9180908203125
y: 352.9504699707031
z: 0.0
","x: 231.0289306640625
y: 354.1723937988281
z: -0.0014484901912510395
","x: 233.80128479003906
y: 358.3793640136719
z: -0.0028036031872034073
","x: 235.91587829589844
y: 362.90234375
z: -0.003903493983671069
","x: 237.6759033203125
y: 366.7235107421875
z: -0.0047309198416769505
","x: 231.1724395751953
y: 365.74346923828125
z: -0.0033516327384859324
","x: 233.9548797607422
y: 371.91534423828125
z: -0.004933885298669338
","x: 236.44395446777344
y: 373.3795471191406
z: -0.005354280583560467
","x: 238.41143798828125
y: 373.2698974609375
z: -0.005347521044313908
","x: 229.87686157226562
y: 367.29058837890625
z: -0.0034413670655339956
","x: 232.9866943359375
y: 373.99188232421875
z: -0.005402983166277409
","x: 235.91793823242188
y: 374.97930908203125
z: -0.005840298719704151
","x: 238.08168029785156
y: 374.0112609863281
z: -0.005839865654706955
","x: 229.4888153076172
y: 367.78662109375
z: -0.0034988955594599247
","x: 232.21371459960938
y: 373.96014404296875
z: -0.005182178225368261
","x: 235.00677490234375
y: 374.9459533691406
z: -0.005274259485304356
","x: 237.1243438720703
y: 374.3016052246094
z: -0.005072011146694422
","x: 229.66134643554688
y: 367.6268310546875
z: -0.0036707227118313313
","x: 231.7093505859375
y: 372.3671875
z: -0.00474244961515069
","x: 233.80670166015625
y: 373.56048583984375
z: -0.004839346278458834
","x: 235.64537048339844
y: 373.6200256347656
z: -0.004714624490588903
"
20,"x: 258.160888671875
y: 247.31884765625
z: -0.1893801987171173
visibility: 0.9999929070472717
","x: 260.56005859375
y: 242.52496337890625
z: -0.1741292029619217
visibility: 0.9999741911888123
","x: 262.091552734375
y: 243.15809631347656
z: -0.17415904998779297
visibility: 0.9999727010726929
","x: 263.6155090332031
y: 243.6993408203125
z: -0.1741640865802765
visibility: 0.9999717473983765
","x: 256.3341979980469
y: 241.05828857421875
z: -0.17306986451148987
visibility: 0.9999751448631287
","x: 254.637939453125
y: 240.703369140625
z: -0.17304739356040955
visibility: 0.999973714351654
","x: 252.98377990722656
y: 240.50787353515625
z: -0.17304334044456482
visibility: 0.9999718070030212
","x: 265.8185729980469
y: 248.3917999267578
z: -0.07752837240695953
visibility: 0.9999207854270935
","x: 250.26019287109375
y: 245.04275512695312
z: -0.07355310022830963
visibility: 0.9999414086341858
","x: 259.9681396484375
y: 256.275634765625
z: -0.1532479226589203
visibility: 0.9999861121177673
","x: 254.93826293945312
y: 255.1763153076172
z: -0.15223388373851776
visibility: 0.9999873638153076
","x: 274.60980224609375
y: 286.99346923828125
z: -0.023550812155008316
visibility: 0.9999563694000244
","x: 237.65414428710938
y: 284.3407897949219
z: -0.0019708401523530483
visibility: 0.9999487400054932
","x: 286.6212158203125
y: 324.9571228027344
z: -0.10468196868896484
visibility: 0.9889174699783325
","x: 227.5345001220703
y: 323.1280517578125
z: 0.02096926048398018
visibility: 0.9822785258293152
","x: 285.02459716796875
y: 314.8950500488281
z: -0.3149295449256897
visibility: 0.9758203625679016
","x: 228.385009765625
y: 351.642333984375
z: -0.07943843305110931
visibility: 0.9564208388328552
","x: 281.68084716796875
y: 311.33447265625
z: -0.35930225253105164
visibility: 0.9531075358390808
","x: 229.68617248535156
y: 365.1791687011719
z: -0.10322348028421402
visibility: 0.9159446954727173
","x: 280.53125
y: 303.720458984375
z: -0.3638823330402374
visibility: 0.9563751816749573
","x: 232.11585998535156
y: 362.8775634765625
z: -0.1270063817501068
visibility: 0.9198684096336365
","x: 280.635498046875
y: 304.5849609375
z: -0.32083380222320557
visibility: 0.9462979435920715
","x: 232.43862915039062
y: 358.65216064453125
z: -0.09117073565721512
visibility: 0.9045483469963074
","x: 265.1534423828125
y: 381.93896484375
z: 0.0025730663910508156
visibility: 0.999623715877533
","x: 243.2681427001953
y: 379.7756652832031
z: -0.0025917431339621544
visibility: 0.9996590614318848
","x: 260.64617919921875
y: 453.6898193359375
z: 0.006679781712591648
visibility: 0.9912912845611572
","x: 238.95973205566406
y: 451.6451721191406
z: -0.006400244776159525
visibility: 0.9935142993927002
","x: 258.90789794921875
y: 516.0866088867188
z: 0.1648261398077011
visibility: 0.9918936491012573
","x: 233.84722900390625
y: 512.4581298828125
z: 0.1427610218524933
visibility: 0.9914103746414185
","x: 256.91168212890625
y: 524.93310546875
z: 0.17496785521507263
visibility: 0.9313079714775085
","x: 234.91943359375
y: 521.2222900390625
z: 0.15106414258480072
visibility: 0.8677778244018555
","x: 263.1461486816406
y: 536.5377197265625
z: 0.0641743615269661
visibility: 0.9877068996429443
","x: 230.8679962158203
y: 534.115234375
z: 0.034635189920663834
visibility: 0.9856517910957336
",5.141237497329712,"x: 281.0669860839844
y: 307.4352722167969
z: 0.0
","x: 279.46856689453125
y: 301.8902282714844
z: 0.00043457350693643093
","x: 275.8589172363281
y: 297.89056396484375
z: -0.0013782128226011992
","x: 272.4722595214844
y: 296.4101257324219
z: -0.003300048876553774
","x: 269.9153137207031
y: 295.9778137207031
z: -0.005031511653214693
","x: 276.0159606933594
y: 295.61627197265625
z: -0.0071652173064649105
","x: 270.26959228515625
y: 295.80499267578125
z: -0.010103880427777767
","x: 268.3069763183594
y: 298.29156494140625
z: -0.010168550536036491
","x: 267.9241638183594
y: 300.2794189453125
z: -0.009800594300031662
","x: 276.2729797363281
y: 299.623046875
z: -0.009091522544622421
","x: 269.4624328613281
y: 300.60443115234375
z: -0.012539205141365528
","x: 267.8882141113281
y: 303.4597473144531
z: -0.011456599459052086
","x: 268.2701416015625
y: 305.3984680175781
z: -0.010204888880252838
","x: 276.35650634765625
y: 304.1294250488281
z: -0.010599963366985321
","x: 269.8731689453125
y: 304.9766540527344
z: -0.01300239097326994
","x: 268.9962158203125
y: 307.1526184082031
z: -0.010509755462408066
","x: 269.8299560546875
y: 308.28497314453125
z: -0.008601635694503784
","x: 276.33648681640625
y: 308.6159362792969
z: -0.012040381319820881
","x: 271.533935546875
y: 309.034423828125
z: -0.013284584507346153
","x: 271.035400390625
y: 309.90191650390625
z: -0.011496278457343578
","x: 272.0169677734375
y: 310.1105041503906
z: -0.009999502450227737
","x: 227.9180908203125
y: 352.9504699707031
z: 0.0
","x: 231.0289306640625
y: 354.1723937988281
z: -0.0014484901912510395
","x: 233.80128479003906
y: 358.3793640136719
z: -0.0028036031872034073
","x: 235.91587829589844
y: 362.90234375
z: -0.003903493983671069
","x: 237.6759033203125
y: 366.7235107421875
z: -0.0047309198416769505
","x: 231.1724395751953
y: 365.74346923828125
z: -0.0033516327384859324
","x: 233.9548797607422
y: 371.91534423828125
z: -0.004933885298669338
","x: 236.44395446777344
y: 373.3795471191406
z: -0.005354280583560467
","x: 238.41143798828125
y: 373.2698974609375
z: -0.005347521044313908
","x: 229.87686157226562
y: 367.29058837890625
z: -0.0034413670655339956
","x: 232.9866943359375
y: 373.99188232421875
z: -0.005402983166277409
","x: 235.91793823242188
y: 374.97930908203125
z: -0.005840298719704151
","x: 238.08168029785156
y: 374.0112609863281
z: -0.005839865654706955
","x: 229.4888153076172
y: 367.78662109375
z: -0.0034988955594599247
","x: 232.21371459960938
y: 373.96014404296875
z: -0.005182178225368261
","x: 235.00677490234375
y: 374.9459533691406
z: -0.005274259485304356
","x: 237.1243438720703
y: 374.3016052246094
z: -0.005072011146694422
","x: 229.66134643554688
y: 367.6268310546875
z: -0.0036707227118313313
","x: 231.7093505859375
y: 372.3671875
z: -0.00474244961515069
","x: 233.80670166015625
y: 373.56048583984375
z: -0.004839346278458834
","x: 235.64537048339844
y: 373.6200256347656
z: -0.004714624490588903
"
21,"x: 256.5716857910156
y: 248.6033477783203
z: -0.1926393210887909
visibility: 0.9999921321868896
","x: 259.2735900878906
y: 243.77117919921875
z: -0.17582078278064728
visibility: 0.9999735355377197
","x: 260.5794372558594
y: 244.28131103515625
z: -0.1758522242307663
visibility: 0.9999714493751526
","x: 261.85821533203125
y: 244.8625030517578
z: -0.1758517622947693
visibility: 0.9999704957008362
","x: 254.74356079101562
y: 242.72512817382812
z: -0.17745807766914368
visibility: 0.999974250793457
","x: 252.99053955078125
y: 242.59036254882812
z: -0.177455872297287
visibility: 0.9999724626541138
","x: 251.37562561035156
y: 242.5320587158203
z: -0.1774546205997467
visibility: 0.9999709725379944
","x: 263.99920654296875
y: 249.63462829589844
z: -0.07697180658578873
visibility: 0.9999198317527771
","x: 249.1575927734375
y: 247.07586669921875
z: -0.08589077740907669
visibility: 0.9999411106109619
","x: 258.6709899902344
y: 257.06243896484375
z: -0.15594103932380676
visibility: 0.9999859929084778
","x: 253.23587036132812
y: 256.4068603515625
z: -0.15860742330551147
visibility: 0.9999874830245972
","x: 273.15325927734375
y: 287.6966552734375
z: -0.027341345325112343
visibility: 0.9999567270278931
","x: 235.74620056152344
y: 285.7801208496094
z: -0.019036132842302322
visibility: 0.9999454617500305
","x: 280.835205078125
y: 332.097900390625
z: -0.09043796360492706
visibility: 0.989357590675354
","x: 226.81654357910156
y: 326.9830322265625
z: -0.03155187517404556
visibility: 0.9812791347503662
","x: 268.30828857421875
y: 327.3573303222656
z: -0.28167423605918884
visibility: 0.9777380228042603
","x: 233.8602752685547
y: 354.4024658203125
z: -0.18744434416294098
visibility: 0.9567037224769592
","x: 263.39825439453125
y: 329.927490234375
z: -0.32613861560821533
visibility: 0.9566567540168762
","x: 237.44700622558594
y: 365.5832214355469
z: -0.22396159172058105
visibility: 0.9172208309173584
","x: 261.11334228515625
y: 322.4203186035156
z: -0.3337777853012085
visibility: 0.9596312642097473
","x: 239.9232177734375
y: 361.3299560546875
z: -0.23546835780143738
visibility: 0.920791745185852
","x: 262.1432189941406
y: 321.1819152832031
z: -0.2882094383239746
visibility: 0.9497252106666565
","x: 239.28334045410156
y: 357.4234619140625
z: -0.19422955811023712
visibility: 0.9042496085166931
","x: 263.54302978515625
y: 382.007080078125
z: 0.0025613533798605204
visibility: 0.9996134042739868
","x: 240.98187255859375
y: 380.24072265625
z: -0.002580405678600073
visibility: 0.9996505975723267
","x: 260.3316345214844
y: 453.8494873046875
z: -0.0020238354336470366
visibility: 0.9917138814926147
","x: 236.939208984375
y: 451.46441650390625
z: -0.019606972113251686
visibility: 0.9937520623207092
","x: 258.9346008300781
y: 515.913330078125
z: 0.1561768800020218
visibility: 0.9920531511306763
","x: 232.13539123535156
y: 513.7421875
z: 0.11922021210193634
visibility: 0.9917734265327454
","x: 256.9739990234375
y: 524.5421752929688
z: 0.16858389973640442
visibility: 0.9299795031547546
","x: 232.98464965820312
y: 522.3458251953125
z: 0.12646830081939697
visibility: 0.8704344630241394
","x: 262.7163391113281
y: 536.5333251953125
z: 0.05486106872558594
visibility: 0.9878186583518982
","x: 229.25265502929688
y: 534.9811401367188
z: 0.012215942144393921
visibility: 0.986104428768158
",5.294626474380493,"x: 264.1860046386719
y: 327.5458984375
z: 0.0
","x: 262.0971374511719
y: 322.20306396484375
z: -0.00036905682645738125
","x: 258.3555908203125
y: 319.337158203125
z: -0.001389494282193482
","x: 255.6240997314453
y: 320.56317138671875
z: -0.003087469609454274
","x: 254.42446899414062
y: 323.7860412597656
z: -0.004329283721745014
","x: 253.377685546875
y: 322.15863037109375
z: 5.814202449982986e-05
","x: 249.08445739746094
y: 323.0548095703125
z: -0.0024873872753232718
","x: 248.20054626464844
y: 323.09674072265625
z: -0.003414423670619726
","x: 249.01780700683594
y: 323.8631591796875
z: -0.003707893891260028
","x: 253.2587890625
y: 326.48126220703125
z: -0.0015025560278445482
","x: 252.7950897216797
y: 327.0410461425781
z: -0.0038214451633393764
","x: 255.25579833984375
y: 325.88726806640625
z: -0.003419353859499097
","x: 256.57415771484375
y: 325.3377990722656
z: -0.0027023348957300186
","x: 254.17294311523438
y: 330.6484375
