uscmakers/ReverseChoreography/data/10_slow_dancing_in_the_dark_joji.csv
,NOSE,LEFT_EYE_INNER,LEFT_EYE,LEFT_EYE_OUTER,RIGHT_EYE_INNER,RIGHT_EYE,RIGHT_EYE_OUTER,LEFT_EAR,RIGHT_EAR,MOUTH_LEFT,MOUTH_RIGHT,LEFT_SHOULDER,RIGHT_SHOULDER,LEFT_ELBOW,RIGHT_ELBOW,LEFT_WRIST,RIGHT_WRIST,LEFT_PINKY,RIGHT_PINKY,LEFT_INDEX,RIGHT_INDEX,LEFT_THUMB,RIGHT_THUMB,LEFT_HIP,RIGHT_HIP,LEFT_KNEE,RIGHT_KNEE,LEFT_ANKLE,RIGHT_ANKLE,LEFT_HEEL,RIGHT_HEEL,LEFT_FOOT_INDEX,RIGHT_FOOT_INDEX,TIMESTAMP,WRIST2,THUMB_CPC2,THUMB_MCP2,THUMB_IP2,THUMB_TIP2,INDEX_FINGER_MCP2,INDEX_FINGER_PIP2,INDEX_FINGER_DIP2,INDEX_FINGER_TIP2,MIDDLE_FINGER_MCP2,MIDDLE_FINGER_PIP2,MIDDLE_FINGER_DIP2,MIDDLE_FINGER_TIP2,RING_FINGER_PIP2,RING_FINGER_DIP2,RING_FINGER_TIP2,RING_FINGER_MCP2,PINKY_MCP2,PINKY_PIP2,PINKY_DIP2,PINKY_TIP2,WRIST,THUMB_CPC,THUMB_MCP,THUMB_IP,THUMB_TIP,INDEX_FINGER_MCP,INDEX_FINGER_PIP,INDEX_FINGER_DIP,INDEX_FINGER_TIP,MIDDLE_FINGER_MCP,MIDDLE_FINGER_PIP,MIDDLE_FINGER_DIP,MIDDLE_FINGER_TIP,RING_FINGER_PIP,RING_FINGER_DIP,RING_FINGER_TIP,RING_FINGER_MCP,PINKY_MCP,PINKY_PIP,PINKY_DIP,PINKY_TIP
0,"x: 252.95484924316406
y: 248.15890502929688
z: -0.2669253945350647
visibility: 0.999983549118042
","x: 254.63015747070312
y: 243.6659393310547
z: -0.2523871064186096
visibility: 0.9999345541000366
","x: 255.85055541992188
y: 244.2009735107422
z: -0.25238141417503357
visibility: 0.9999299049377441
","x: 257.1050720214844
y: 244.747802734375
z: -0.25235798954963684
visibility: 0.9999265670776367
","x: 251.36038208007812
y: 242.69229125976562
z: -0.25484544038772583
visibility: 0.9999451637268066
","x: 250.141845703125
y: 242.577392578125
z: -0.25487446784973145
visibility: 0.9999440908432007
","x: 248.88623046875
y: 242.483642578125
z: -0.254894495010376
visibility: 0.9999415874481201
","x: 258.7996826171875
y: 248.97702026367188
z: -0.15893977880477905
visibility: 0.9997746348381042
","x: 245.59561157226562
y: 246.98452758789062
z: -0.17375986278057098
visibility: 0.9998695850372314
","x: 254.69224548339844
y: 256.278564453125
z: -0.23177924752235413
visibility: 0.9999569654464722
","x: 249.96717834472656
y: 255.27444458007812
z: -0.23606500029563904
visibility: 0.9999650716781616
","x: 268.058837890625
y: 288.7854309082031
z: -0.09703433513641357
visibility: 0.9998979568481445
","x: 231.81259155273438
y: 285.5951232910156
z: -0.10387244075536728
visibility: 0.9999395608901978
","x: 274.6145935058594
y: 335.5801696777344
z: -0.04679858312010765
visibility: 0.9889538288116455
","x: 224.0218048095703
y: 333.679443359375
z: -0.06390172243118286
visibility: 0.9837692379951477
","x: 273.67669677734375
y: 380.15374755859375
z: -0.11352243274450302
visibility: 0.9802431464195251
","x: 222.29969787597656
y: 378.8584899902344
z: -0.12818941473960876
visibility: 0.9594228267669678
","x: 273.6686096191406
y: 394.8988342285156
z: -0.13494394719600677
visibility: 0.9542439579963684
","x: 220.60482788085938
y: 392.699462890625
z: -0.14956842362880707
visibility: 0.921427309513092
","x: 270.4002380371094
y: 393.607421875
z: -0.16222280263900757
visibility: 0.9571245312690735
","x: 223.24868774414062
y: 393.03271484375
z: -0.17576420307159424
visibility: 0.9249526262283325
","x: 269.48699951171875
y: 389.0689392089844
z: -0.12515050172805786
visibility: 0.9466347098350525
","x: 224.4799346923828
y: 388.46630859375
z: -0.1395626813173294
visibility: 0.9129060506820679
","x: 258.06048583984375
y: 381.89459228515625
z: 0.002802746370434761
visibility: 0.9994251728057861
","x: 236.99183654785156
y: 379.7140808105469
z: -0.0028429029043763876
visibility: 0.9996545314788818
","x: 251.19415283203125
y: 449.68603515625
z: 0.027522791177034378
visibility: 0.986824095249176
","x: 234.07101440429688
y: 449.84417724609375
z: 0.006930175237357616
visibility: 0.9914907813072205
","x: 248.2982177734375
y: 511.658935546875
z: 0.13555464148521423
visibility: 0.9870951771736145
","x: 231.23306274414062
y: 511.2173767089844
z: 0.12526459991931915
visibility: 0.989314079284668
","x: 245.00531005859375
y: 521.2105102539062
z: 0.14013879001140594
visibility: 0.9290996789932251
","x: 233.0385284423828
y: 520.656982421875
z: 0.13032837212085724
visibility: 0.8599328398704529
","x: 253.63978576660156
y: 533.2306518554688
z: 0.04722883924841881
visibility: 0.9830518960952759
","x: 227.2281951904297
y: 532.387451171875
z: 0.03063652478158474
visibility: 0.9820342063903809
",4.1589579582214355,,,,,,,,,,,,,,,,,,,,,,,,,,,,,,,,,,,,,,,,,,
1,"x: 252.95484924316406
y: 248.15890502929688
z: -0.2669253945350647
visibility: 0.999983549118042
","x: 254.63015747070312
y: 243.6659393310547
z: -0.2523871064186096
visibility: 0.9999345541000366
","x: 255.85055541992188
y: 244.2009735107422
z: -0.25238141417503357
visibility: 0.9999299049377441
","x: 257.1050720214844
y: 244.747802734375
z: -0.25235798954963684
visibility: 0.9999265670776367
","x: 251.36038208007812
y: 242.69229125976562
z: -0.25484544038772583
visibility: 0.9999451637268066
","x: 250.141845703125
y: 242.577392578125
z: -0.25487446784973145
visibility: 0.9999440908432007
","x: 248.88623046875
y: 242.483642578125
z: -0.254894495010376
visibility: 0.9999415874481201
","x: 258.7996826171875
y: 248.97702026367188
z: -0.15893977880477905
visibility: 0.9997746348381042
","x: 245.59561157226562
y: 246.98452758789062
z: -0.17375986278057098
visibility: 0.9998695850372314
","x: 254.69224548339844
y: 256.278564453125
z: -0.23177924752235413
visibility: 0.9999569654464722
","x: 249.96717834472656
y: 255.27444458007812
z: -0.23606500029563904
visibility: 0.9999650716781616
","x: 268.058837890625
y: 288.7854309082031
z: -0.09703433513641357
visibility: 0.9998979568481445
","x: 231.81259155273438
y: 285.5951232910156
z: -0.10387244075536728
visibility: 0.9999395608901978
","x: 274.6145935058594
y: 335.5801696777344
z: -0.04679858312010765
visibility: 0.9889538288116455
","x: 224.0218048095703
y: 333.679443359375
z: -0.06390172243118286
visibility: 0.9837692379951477
","x: 273.67669677734375
y: 380.15374755859375
z: -0.11352243274450302
visibility: 0.9802431464195251
","x: 222.29969787597656
y: 378.8584899902344
z: -0.12818941473960876
visibility: 0.9594228267669678
","x: 273.6686096191406
y: 394.8988342285156
z: -0.13494394719600677
visibility: 0.9542439579963684
","x: 220.60482788085938
y: 392.699462890625
z: -0.14956842362880707
visibility: 0.921427309513092
","x: 270.4002380371094
y: 393.607421875
z: -0.16222280263900757
visibility: 0.9571245312690735
","x: 223.24868774414062
y: 393.03271484375
z: -0.17576420307159424
visibility: 0.9249526262283325
","x: 269.48699951171875
y: 389.0689392089844
z: -0.12515050172805786
visibility: 0.9466347098350525
","x: 224.4799346923828
y: 388.46630859375
z: -0.1395626813173294
visibility: 0.9129060506820679
","x: 258.06048583984375
y: 381.89459228515625
z: 0.002802746370434761
visibility: 0.9994251728057861
","x: 236.99183654785156
y: 379.7140808105469
z: -0.0028429029043763876
visibility: 0.9996545314788818
","x: 251.19415283203125
y: 449.68603515625
z: 0.027522791177034378
visibility: 0.986824095249176
","x: 234.07101440429688
y: 449.84417724609375
z: 0.006930175237357616
visibility: 0.9914907813072205
","x: 248.2982177734375
y: 511.658935546875
z: 0.13555464148521423
visibility: 0.9870951771736145
","x: 231.23306274414062
y: 511.2173767089844
z: 0.12526459991931915
visibility: 0.989314079284668
","x: 245.00531005859375
y: 521.2105102539062
z: 0.14013879001140594
visibility: 0.9290996789932251
","x: 233.0385284423828
y: 520.656982421875
z: 0.13032837212085724
visibility: 0.8599328398704529
","x: 253.63978576660156
y: 533.2306518554688
z: 0.04722883924841881
visibility: 0.9830518960952759
","x: 227.2281951904297
y: 532.387451171875
z: 0.03063652478158474
visibility: 0.9820342063903809
",4.1589579582214355,,,,,,,,,,,,,,,,,,,,,,,,,,,,,,,,,,,,,,,,,,
2,"x: 252.13685607910156
y: 247.7009735107422
z: -0.3505313992500305
visibility: 0.999984622001648
","x: 253.66993713378906
y: 243.2492218017578
z: -0.3371686041355133
visibility: 0.9999391436576843
","x: 254.834228515625
y: 243.71615600585938
z: -0.3371603488922119
visibility: 0.9999350905418396
","x: 255.94992065429688
y: 244.1728515625
z: -0.33718401193618774
visibility: 0.9999322295188904
","x: 250.04823303222656
y: 242.41448974609375
z: -0.33915960788726807
visibility: 0.9999487400054932
","x: 248.7087860107422
y: 242.366455078125
z: -0.33921608328819275
visibility: 0.9999476671218872
","x: 247.35943603515625
y: 242.33314514160156
z: -0.33921942114830017
visibility: 0.9999451041221619
","x: 257.6605529785156
y: 248.4728240966797
z: -0.2404225617647171
visibility: 0.9997933506965637
","x: 244.60899353027344
y: 246.79196166992188
z: -0.251846045255661
visibility: 0.9998778104782104
","x: 254.2855987548828
y: 255.85328674316406
z: -0.3134072422981262
visibility: 0.9999603629112244
","x: 249.32444763183594
y: 255.227783203125
z: -0.316811740398407
visibility: 0.9999673962593079
","x: 267.7989807128906
y: 288.74017333984375
z: -0.16652050614356995
visibility: 0.9999064207077026
","x: 230.88812255859375
y: 286.4517822265625
z: -0.1636507511138916
visibility: 0.9999402165412903
","x: 274.7838439941406
y: 335.2861328125
z: -0.10985361039638519
visibility: 0.9898597002029419
","x: 222.97344970703125
y: 333.74810791015625
z: -0.11408601701259613
visibility: 0.983744204044342
","x: 275.5569152832031
y: 379.8943786621094
z: -0.17044737935066223
visibility: 0.9816093444824219
","x: 222.29893493652344
y: 376.1529541015625
z: -0.17640438675880432
visibility: 0.9577041864395142
","x: 275.9010314941406
y: 394.73638916015625
z: -0.19177761673927307
visibility: 0.9568551778793335
","x: 220.85113525390625
y: 390.9998779296875
z: -0.19732557237148285
visibility: 0.9177097678184509
","x: 273.1191101074219
y: 393.5797119140625
z: -0.2209739238023758
visibility: 0.9596518874168396
","x: 223.7919921875
y: 390.50439453125
z: -0.2261081486940384
visibility: 0.9214949607849121
","x: 271.91876220703125
y: 389.12255859375
z: -0.18192093074321747
visibility: 0.9496499300003052
","x: 224.91928100585938
y: 386.3540954589844
z: -0.18855416774749756
visibility: 0.9084047675132751
","x: 258.0545654296875
y: 379.78900146484375
z: 0.0024581248871982098
visibility: 0.9994378089904785
","x: 236.96109008789062
y: 378.6263427734375
z: -0.0025001047179102898
visibility: 0.9996467232704163
","x: 251.12216186523438
y: 448.7322692871094
z: 0.024871673434972763
visibility: 0.9869093298912048
","x: 234.0840606689453
y: 448.447021484375
z: 0.005027315579354763
visibility: 0.9914290904998779
","x: 248.2962188720703
y: 511.70391845703125
z: 0.1374674141407013
visibility: 0.9874333143234253
","x: 231.21112060546875
y: 510.9262390136719
z: 0.12732189893722534
visibility: 0.9894314408302307
","x: 245.0808868408203
y: 521.204345703125
z: 0.14214158058166504
visibility: 0.929513692855835
","x: 232.98065185546875
y: 520.2698364257812
z: 0.1325823813676834
visibility: 0.8596038818359375
","x: 253.15438842773438
y: 533.2233276367188
z: 0.043559879064559937
visibility: 0.9833857417106628
","x: 227.6167755126953
y: 531.8089599609375
z: 0.029628604650497437
visibility: 0.9822996258735657
",4.745179653167725,,,,,,,,,,,,,,,,,,,,,,,,,,,,,,,,,,,,,,,,,,
3,"x: 252.13685607910156
y: 247.7009735107422
z: -0.3505313992500305
visibility: 0.999984622001648
","x: 253.66993713378906
y: 243.2492218017578
z: -0.3371686041355133
visibility: 0.9999391436576843
","x: 254.834228515625
y: 243.71615600585938
z: -0.3371603488922119
visibility: 0.9999350905418396
","x: 255.94992065429688
y: 244.1728515625
z: -0.33718401193618774
visibility: 0.9999322295188904
","x: 250.04823303222656
y: 242.41448974609375
z: -0.33915960788726807
visibility: 0.9999487400054932
","x: 248.7087860107422
y: 242.366455078125
z: -0.33921608328819275
visibility: 0.9999476671218872
","x: 247.35943603515625
y: 242.33314514160156
z: -0.33921942114830017
visibility: 0.9999451041221619
","x: 257.6605529785156
y: 248.4728240966797
z: -0.2404225617647171
visibility: 0.9997933506965637
","x: 244.60899353027344
y: 246.79196166992188
z: -0.251846045255661
visibility: 0.9998778104782104
","x: 254.2855987548828
y: 255.85328674316406
z: -0.3134072422981262
visibility: 0.9999603629112244
","x: 249.32444763183594
y: 255.227783203125
z: -0.316811740398407
visibility: 0.9999673962593079
","x: 267.7989807128906
y: 288.74017333984375
z: -0.16652050614356995
visibility: 0.9999064207077026
","x: 230.88812255859375
y: 286.4517822265625
z: -0.1636507511138916
visibility: 0.9999402165412903
","x: 274.7838439941406
y: 335.2861328125
z: -0.10985361039638519
visibility: 0.9898597002029419
","x: 222.97344970703125
y: 333.74810791015625
z: -0.11408601701259613
visibility: 0.983744204044342
","x: 275.5569152832031
y: 379.8943786621094
z: -0.17044737935066223
visibility: 0.9816093444824219
","x: 222.29893493652344
y: 376.1529541015625
z: -0.17640438675880432
visibility: 0.9577041864395142
","x: 275.9010314941406
y: 394.73638916015625
z: -0.19177761673927307
visibility: 0.9568551778793335
","x: 220.85113525390625
y: 390.9998779296875
z: -0.19732557237148285
visibility: 0.9177097678184509
","x: 273.1191101074219
y: 393.5797119140625
z: -0.2209739238023758
visibility: 0.9596518874168396
","x: 223.7919921875
y: 390.50439453125
z: -0.2261081486940384
visibility: 0.9214949607849121
","x: 271.91876220703125
y: 389.12255859375
z: -0.18192093074321747
visibility: 0.9496499300003052
","x: 224.91928100585938
y: 386.3540954589844
z: -0.18855416774749756
visibility: 0.9084047675132751
","x: 258.0545654296875
y: 379.78900146484375
z: 0.0024581248871982098
visibility: 0.9994378089904785
","x: 236.96109008789062
y: 378.6263427734375
z: -0.0025001047179102898
visibility: 0.9996467232704163
","x: 251.12216186523438
y: 448.7322692871094
z: 0.024871673434972763
visibility: 0.9869093298912048
","x: 234.0840606689453
y: 448.447021484375
z: 0.005027315579354763
visibility: 0.9914290904998779
","x: 248.2962188720703
y: 511.70391845703125
z: 0.1374674141407013
visibility: 0.9874333143234253
","x: 231.21112060546875
y: 510.9262390136719
z: 0.12732189893722534
visibility: 0.9894314408302307
","x: 245.0808868408203
y: 521.204345703125
z: 0.14214158058166504
visibility: 0.929513692855835
","x: 232.98065185546875
y: 520.2698364257812
z: 0.1325823813676834
visibility: 0.8596038818359375
","x: 253.15438842773438
y: 533.2233276367188
z: 0.043559879064559937
visibility: 0.9833857417106628
","x: 227.6167755126953
y: 531.8089599609375
z: 0.029628604650497437
visibility: 0.9822996258735657
",4.745179653167725,,,,,,,,,,,,,,,,,,,,,,,,,,,,,,,,,,,,,,,,,,
4,"x: 251.552978515625
y: 247.3493194580078
z: -0.31959861516952515
visibility: 0.9999856352806091
","x: 253.0574188232422
y: 242.93698120117188
z: -0.3052275776863098
visibility: 0.9999433159828186
","x: 254.204345703125
y: 243.35470581054688
z: -0.30522236227989197
visibility: 0.9999396800994873
","x: 255.25503540039062
y: 243.7559814453125
z: -0.30522412061691284
visibility: 0.999937117099762
","x: 249.3057861328125
y: 242.23507690429688
z: -0.30777227878570557
visibility: 0.9999520778656006
","x: 247.95953369140625
y: 242.2462158203125
z: -0.3078135848045349
visibility: 0.9999510049819946
","x: 246.6056671142578
y: 242.2614288330078
z: -0.3078216016292572
visibility: 0.9999484419822693
","x: 256.9721374511719
y: 248.08006286621094
z: -0.20925946533679962
visibility: 0.9998098611831665
","x: 244.0573272705078
y: 246.73997497558594
z: -0.22333328425884247
visibility: 0.9998860359191895
","x: 253.95277404785156
y: 255.5571746826172
z: -0.28316956758499146
visibility: 0.9999635815620422
","x: 248.8666534423828
y: 255.21446228027344
z: -0.2873113751411438
visibility: 0.9999697804450989
","x: 267.52838134765625
y: 288.5421142578125
z: -0.13996444642543793
visibility: 0.999914288520813
","x: 230.36192321777344
y: 287.01220703125
z: -0.1432061344385147
visibility: 0.9999411106109619
","x: 274.77166748046875
y: 334.6941833496094
z: -0.08477316796779633
visibility: 0.9906632900238037
","x: 222.35369873046875
y: 333.8601989746094
z: -0.10052649676799774
visibility: 0.983902096748352
","x: 274.83380126953125
y: 376.8143310546875
z: -0.15231506526470184
visibility: 0.9829517006874084
","x: 223.6098175048828
y: 373.0363464355469
z: -0.16812825202941895
visibility: 0.9572631120681763
","x: 275.5596008300781
y: 391.7557067871094
z: -0.17542609572410583
visibility: 0.9596577286720276
","x: 223.59149169921875
y: 388.2881164550781
z: -0.1911630928516388
visibility: 0.9165090918540955
","x: 272.6363525390625
y: 389.9630126953125
z: -0.20337295532226562
visibility: 0.962297260761261
","x: 226.85203552246094
y: 386.43695068359375
z: -0.21710732579231262
visibility: 0.920150637626648
","x: 271.23809814453125
y: 385.2888488769531
z: -0.16348642110824585
visibility: 0.9527831077575684
","x: 227.6005859375
y: 381.7097473144531
z: -0.17904773354530334
visibility: 0.9061159491539001
","x: 257.89208984375
y: 378.9715881347656
z: 0.0023863583337515593
visibility: 0.9994587898254395
","x: 236.79425048828125
y: 377.86907958984375
z: -0.0024264852982014418
visibility: 0.9996475577354431
","x: 251.02781677246094
y: 447.686279296875
z: 0.024032587185502052
visibility: 0.9871969819068909
","x: 234.10304260253906
y: 447.42132568359375
z: 0.003601436736062169
visibility: 0.9915087223052979
","x: 248.29461669921875
y: 511.7285461425781
z: 0.13741441071033478
visibility: 0.9878892302513123
","x: 231.21533203125
y: 510.61029052734375
z: 0.12738953530788422
visibility: 0.9896670579910278
","x: 245.10023498535156
y: 521.1929931640625
z: 0.14192332327365875
visibility: 0.9306904673576355
","x: 232.9864501953125
y: 519.8662109375
z: 0.13270491361618042
visibility: 0.8613297343254089
","x: 253.14710998535156
y: 533.1778564453125
z: 0.03962137922644615
visibility: 0.9838635921478271
","x: 227.89723205566406
y: 531.7352905273438
z: 0.028492063283920288
visibility: 0.9827289581298828
",4.918030738830566,"x: 274.08892822265625
y: 375.715087890625
z: 0.0
","x: 270.66943359375
y: 376.420654296875
z: -0.004738869145512581
","x: 268.39434814453125
y: 381.4094543457031
z: -0.006837454158812761
","x: 267.2745361328125
y: 387.5886535644531
z: -0.007784414570778608
","x: 266.1780700683594
y: 392.18756103515625
z: -0.008311145007610321
","x: 272.2823791503906
y: 388.1631774902344
z: -0.008505254052579403
","x: 270.41357421875
y: 398.11553955078125
z: -0.009770154021680355
","x: 268.2469482421875
y: 401.6226501464844
z: -0.00902552343904972
","x: 266.67388916015625
y: 403.5174560546875
z: -0.008111300878226757
","x: 274.43048095703125
y: 390.6679992675781
z: -0.0064962939359247684
","x: 272.5669860839844
y: 400.69610595703125
z: -0.007507238537073135
","x: 270.2644348144531
y: 401.83941650390625
z: -0.0059174587950110435
","x: 269.06915283203125
y: 401.0224914550781
z: -0.004455861635506153
","x: 275.51287841796875
y: 392.196533203125
z: -0.0044922614470124245
","x: 274.0028076171875
y: 401.0281677246094
z: -0.005578650161623955
","x: 271.8184509277344
y: 401.8477783203125
z: -0.004491446539759636
","x: 270.4719543457031
y: 400.69970703125
z: -0.003445851616561413
","x: 275.7667541503906
y: 393.0469970703125
z: -0.0028458794113248587
","x: 274.7328796386719
y: 400.3596496582031
z: -0.004010158125311136
","x: 272.98126220703125
y: 401.95751953125
z: -0.003787811379879713
","x: 271.5814514160156
y: 401.30517578125
z: -0.0031247197184711695
",,,,,,,,,,,,,,,,,,,,,
5,"x: 251.552978515625
y: 247.3493194580078
z: -0.31959861516952515
visibility: 0.9999856352806091
","x: 253.0574188232422
y: 242.93698120117188
z: -0.3052275776863098
visibility: 0.9999433159828186
","x: 254.204345703125
y: 243.35470581054688
z: -0.30522236227989197
visibility: 0.9999396800994873
","x: 255.25503540039062
y: 243.7559814453125
z: -0.30522412061691284
visibility: 0.999937117099762
","x: 249.3057861328125
y: 242.23507690429688
z: -0.30777227878570557
visibility: 0.9999520778656006
","x: 247.95953369140625
y: 242.2462158203125
z: -0.3078135848045349
visibility: 0.9999510049819946
","x: 246.6056671142578
y: 242.2614288330078
z: -0.3078216016292572
visibility: 0.9999484419822693
","x: 256.9721374511719
y: 248.08006286621094
z: -0.20925946533679962
visibility: 0.9998098611831665
","x: 244.0573272705078
y: 246.73997497558594
z: -0.22333328425884247
visibility: 0.9998860359191895
","x: 253.95277404785156
y: 255.5571746826172
z: -0.28316956758499146
visibility: 0.9999635815620422
","x: 248.8666534423828
y: 255.21446228027344
z: -0.2873113751411438
visibility: 0.9999697804450989
","x: 267.52838134765625
y: 288.5421142578125
z: -0.13996444642543793
visibility: 0.999914288520813
","x: 230.36192321777344
y: 287.01220703125
z: -0.1432061344385147
visibility: 0.9999411106109619
","x: 274.77166748046875
y: 334.6941833496094
z: -0.08477316796779633
visibility: 0.9906632900238037
","x: 222.35369873046875
y: 333.8601989746094
z: -0.10052649676799774
visibility: 0.983902096748352
","x: 274.83380126953125
y: 376.8143310546875
z: -0.15231506526470184
visibility: 0.9829517006874084
","x: 223.6098175048828
y: 373.0363464355469
z: -0.16812825202941895
visibility: 0.9572631120681763
","x: 275.5596008300781
y: 391.7557067871094
z: -0.17542609572410583
visibility: 0.9596577286720276
","x: 223.59149169921875
y: 388.2881164550781
z: -0.1911630928516388
visibility: 0.9165090918540955
","x: 272.6363525390625
y: 389.9630126953125
z: -0.20337295532226562
visibility: 0.962297260761261
","x: 226.85203552246094
y: 386.43695068359375
z: -0.21710732579231262
visibility: 0.920150637626648
","x: 271.23809814453125
y: 385.2888488769531
z: -0.16348642110824585
visibility: 0.9527831077575684
","x: 227.6005859375
y: 381.7097473144531
z: -0.17904773354530334
visibility: 0.9061159491539001
","x: 257.89208984375
y: 378.9715881347656
z: 0.0023863583337515593
visibility: 0.9994587898254395
","x: 236.79425048828125
y: 377.86907958984375
z: -0.0024264852982014418
visibility: 0.9996475577354431
","x: 251.02781677246094
y: 447.686279296875
z: 0.024032587185502052
visibility: 0.9871969819068909
","x: 234.10304260253906
y: 447.42132568359375
z: 0.003601436736062169
visibility: 0.9915087223052979
","x: 248.29461669921875
y: 511.7285461425781
z: 0.13741441071033478
visibility: 0.9878892302513123
","x: 231.21533203125
y: 510.61029052734375
z: 0.12738953530788422
visibility: 0.9896670579910278
","x: 245.10023498535156
y: 521.1929931640625
z: 0.14192332327365875
visibility: 0.9306904673576355
","x: 232.9864501953125
y: 519.8662109375
z: 0.13270491361618042
visibility: 0.8613297343254089
","x: 253.14710998535156
y: 533.1778564453125
z: 0.03962137922644615
visibility: 0.9838635921478271
","x: 227.89723205566406
y: 531.7352905273438
z: 0.028492063283920288
visibility: 0.9827289581298828
",4.918030738830566,"x: 274.08892822265625
y: 375.715087890625
z: 0.0
","x: 270.66943359375
y: 376.420654296875
z: -0.004738869145512581
","x: 268.39434814453125
y: 381.4094543457031
z: -0.006837454158812761
","x: 267.2745361328125
y: 387.5886535644531
z: -0.007784414570778608
","x: 266.1780700683594
y: 392.18756103515625
z: -0.008311145007610321
","x: 272.2823791503906
y: 388.1631774902344
z: -0.008505254052579403
","x: 270.41357421875
y: 398.11553955078125
z: -0.009770154021680355
","x: 268.2469482421875
y: 401.6226501464844
z: -0.00902552343904972
","x: 266.67388916015625
y: 403.5174560546875
z: -0.008111300878226757
","x: 274.43048095703125
y: 390.6679992675781
z: -0.0064962939359247684
","x: 272.5669860839844
y: 400.69610595703125
z: -0.007507238537073135
","x: 270.2644348144531
y: 401.83941650390625
z: -0.0059174587950110435
","x: 269.06915283203125
y: 401.0224914550781
z: -0.004455861635506153
","x: 275.51287841796875
y: 392.196533203125
z: -0.0044922614470124245
","x: 274.0028076171875
y: 401.0281677246094
z: -0.005578650161623955
","x: 271.8184509277344
y: 401.8477783203125
z: -0.004491446539759636
","x: 270.4719543457031
y: 400.69970703125
z: -0.003445851616561413
","x: 275.7667541503906
y: 393.0469970703125
z: -0.0028458794113248587
","x: 274.7328796386719
y: 400.3596496582031
z: -0.004010158125311136
","x: 272.98126220703125
y: 401.95751953125
z: -0.003787811379879713
","x: 271.5814514160156
y: 401.30517578125
z: -0.0031247197184711695
",,,,,,,,,,,,,,,,,,,,,
6,"x: 251.552978515625
y: 247.3493194580078
z: -0.31959861516952515
visibility: 0.9999856352806091
","x: 253.0574188232422
y: 242.93698120117188
z: -0.3052275776863098
visibility: 0.9999433159828186
","x: 254.204345703125
y: 243.35470581054688
z: -0.30522236227989197
visibility: 0.9999396800994873
","x: 255.25503540039062
y: 243.7559814453125
z: -0.30522412061691284
visibility: 0.999937117099762
","x: 249.3057861328125
y: 242.23507690429688
z: -0.30777227878570557
visibility: 0.9999520778656006
","x: 247.95953369140625
y: 242.2462158203125
z: -0.3078135848045349
visibility: 0.9999510049819946
","x: 246.6056671142578
y: 242.2614288330078
z: -0.3078216016292572
visibility: 0.9999484419822693
","x: 256.9721374511719
y: 248.08006286621094
z: -0.20925946533679962
visibility: 0.9998098611831665
","x: 244.0573272705078
y: 246.73997497558594
z: -0.22333328425884247
visibility: 0.9998860359191895
","x: 253.95277404785156
y: 255.5571746826172
z: -0.28316956758499146
visibility: 0.9999635815620422
","x: 248.8666534423828
y: 255.21446228027344
z: -0.2873113751411438
visibility: 0.9999697804450989
","x: 267.52838134765625
y: 288.5421142578125
z: -0.13996444642543793
visibility: 0.999914288520813
","x: 230.36192321777344
y: 287.01220703125
z: -0.1432061344385147
visibility: 0.9999411106109619
","x: 274.77166748046875
y: 334.6941833496094
z: -0.08477316796779633
visibility: 0.9906632900238037
","x: 222.35369873046875
y: 333.8601989746094
z: -0.10052649676799774
visibility: 0.983902096748352
","x: 274.83380126953125
y: 376.8143310546875
z: -0.15231506526470184
visibility: 0.9829517006874084
","x: 223.6098175048828
y: 373.0363464355469
z: -0.16812825202941895
visibility: 0.9572631120681763
","x: 275.5596008300781
y: 391.7557067871094
z: -0.17542609572410583
visibility: 0.9596577286720276
","x: 223.59149169921875
y: 388.2881164550781
z: -0.1911630928516388
visibility: 0.9165090918540955
","x: 272.6363525390625
y: 389.9630126953125
z: -0.20337295532226562
visibility: 0.962297260761261
","x: 226.85203552246094
y: 386.43695068359375
z: -0.21710732579231262
visibility: 0.920150637626648
","x: 271.23809814453125
y: 385.2888488769531
z: -0.16348642110824585
visibility: 0.9527831077575684
","x: 227.6005859375
y: 381.7097473144531
z: -0.17904773354530334
visibility: 0.9061159491539001
","x: 257.89208984375
y: 378.9715881347656
z: 0.0023863583337515593
visibility: 0.9994587898254395
","x: 236.79425048828125
y: 377.86907958984375
z: -0.0024264852982014418
visibility: 0.9996475577354431
","x: 251.02781677246094
y: 447.686279296875
z: 0.024032587185502052
visibility: 0.9871969819068909
","x: 234.10304260253906
y: 447.42132568359375
z: 0.003601436736062169
visibility: 0.9915087223052979
","x: 248.29461669921875
y: 511.7285461425781
z: 0.13741441071033478
visibility: 0.9878892302513123
","x: 231.21533203125
y: 510.61029052734375
z: 0.12738953530788422
visibility: 0.9896670579910278
","x: 245.10023498535156
y: 521.1929931640625
z: 0.14192332327365875
visibility: 0.9306904673576355
","x: 232.9864501953125
y: 519.8662109375
z: 0.13270491361618042
visibility: 0.8613297343254089
","x: 253.14710998535156
y: 533.1778564453125
z: 0.03962137922644615
visibility: 0.9838635921478271
","x: 227.89723205566406
y: 531.7352905273438
z: 0.028492063283920288
visibility: 0.9827289581298828
",4.918030738830566,"x: 274.08892822265625
y: 375.715087890625
z: 0.0
","x: 270.66943359375
y: 376.420654296875
z: -0.004738869145512581
","x: 268.39434814453125
y: 381.4094543457031
z: -0.006837454158812761
","x: 267.2745361328125
y: 387.5886535644531
z: -0.007784414570778608
","x: 266.1780700683594
y: 392.18756103515625
z: -0.008311145007610321
","x: 272.2823791503906
y: 388.1631774902344
z: -0.008505254052579403
","x: 270.41357421875
y: 398.11553955078125
z: -0.009770154021680355
","x: 268.2469482421875
y: 401.6226501464844
z: -0.00902552343904972
","x: 266.67388916015625
y: 403.5174560546875
z: -0.008111300878226757
","x: 274.43048095703125
y: 390.6679992675781
z: -0.0064962939359247684
","x: 272.5669860839844
y: 400.69610595703125
z: -0.007507238537073135
","x: 270.2644348144531
y: 401.83941650390625
z: -0.0059174587950110435
","x: 269.06915283203125
y: 401.0224914550781
z: -0.004455861635506153
","x: 275.51287841796875
y: 392.196533203125
z: -0.0044922614470124245
","x: 274.0028076171875
y: 401.0281677246094
z: -0.005578650161623955
","x: 271.8184509277344
y: 401.8477783203125
z: -0.004491446539759636
","x: 270.4719543457031
y: 400.69970703125
z: -0.003445851616561413
","x: 275.7667541503906
y: 393.0469970703125
z: -0.0028458794113248587
","x: 274.7328796386719
y: 400.3596496582031
z: -0.004010158125311136
","x: 272.98126220703125
y: 401.95751953125
z: -0.003787811379879713
","x: 271.5814514160156
y: 401.30517578125
z: -0.0031247197184711695
",,,,,,,,,,,,,,,,,,,,,
7,"x: 250.9371795654297
y: 246.9249725341797
z: -0.3095930218696594
visibility: 0.9999861717224121
","x: 252.56639099121094
y: 242.59396362304688
z: -0.2958749234676361
visibility: 0.9999455213546753
","x: 253.74830627441406
y: 242.99111938476562
z: -0.29587239027023315
visibility: 0.9999423623085022
","x: 254.82553100585938
y: 243.38623046875
z: -0.29587629437446594
visibility: 0.9999400973320007
","x: 248.7418212890625
y: 241.98997497558594
z: -0.29743802547454834
visibility: 0.9999537467956543
","x: 247.380859375
y: 242.0549774169922
z: -0.2974786162376404
visibility: 0.9999526739120483
","x: 246.03807067871094
y: 242.13417053222656
z: -0.29748713970184326
visibility: 0.9999498128890991
","x: 256.6961975097656
y: 247.9543914794922
z: -0.20461197197437286
visibility: 0.9998206496238708
","x: 243.6188201904297
y: 246.7090606689453
z: -0.2140243500471115
visibility: 0.9998892545700073
","x: 253.5798797607422
y: 255.22726440429688
z: -0.2750853896141052
visibility: 0.9999657273292542
","x: 248.323486328125
y: 255.0999755859375
z: -0.27788934111595154
visibility: 0.9999710321426392
","x: 267.508544921875
y: 288.6471252441406
z: -0.1388026922941208
visibility: 0.999919593334198
","x: 230.23052978515625
y: 288.11505126953125
z: -0.13826629519462585
visibility: 0.9999421834945679
","x: 274.71136474609375
y: 335.2507019042969
z: -0.08329946547746658
visibility: 0.9912474155426025
","x: 222.37510681152344
y: 334.8879699707031
z: -0.09328312426805496
visibility: 0.9832544922828674
","x: 274.7440490722656
y: 377.1890869140625
z: -0.14304497838020325
visibility: 0.9836875200271606
","x: 222.6963348388672
y: 373.9109802246094
z: -0.15662303566932678
visibility: 0.9544535875320435
","x: 275.4586486816406
y: 392.44921875
z: -0.1644861102104187
visibility: 0.9609445929527283
","x: 221.7220001220703
y: 389.3435974121094
z: -0.179360494017601
visibility: 0.9118145704269409
","x: 272.5864562988281
y: 391.3529968261719
z: -0.1920524537563324
visibility: 0.9635281562805176
","x: 224.73171997070312
y: 388.3753967285156
z: -0.20514008402824402
visibility: 0.9155522584915161
","x: 271.1986083984375
y: 387.0122985839844
z: -0.15395526587963104
visibility: 0.9542224407196045
","x: 225.68797302246094
y: 384.04046630859375
z: -0.1678374856710434
visibility: 0.9007706642150879
","x: 257.8509216308594
y: 379.0938720703125
z: 0.002571787452325225
visibility: 0.999478280544281
","x: 236.74415588378906
y: 378.0151672363281
z: -0.0026186867617070675
visibility: 0.9996601343154907
","x: 250.9225311279297
y: 448.0399169921875
z: 0.031635116785764694
visibility: 0.9871439933776855
","x: 234.11862182617188
y: 447.5286865234375
z: -0.007013275288045406
visibility: 0.9916033148765564
","x: 248.27427673339844
y: 512.0323486328125
z: 0.15073104202747345
visibility: 0.9880887269973755
","x: 231.21548461914062
y: 510.66973876953125
z: 0.11286748945713043
visibility: 0.9898298978805542
","x: 245.1005401611328
y: 521.4577026367188
z: 0.15581992268562317
visibility: 0.9317461252212524
","x: 232.98851013183594
y: 519.927001953125
z: 0.11767258495092392
visibility: 0.8627721667289734
","x: 253.3235321044922
y: 533.22314453125
z: 0.057714976370334625
visibility: 0.9840176701545715
","x: 228.03240966796875
y: 531.7102661132812
z: 0.0120033398270607
visibility: 0.9830442667007446
",5.066669702529907,"x: 274.0693359375
y: 374.99932861328125
z: 0.0
","x: 270.6819152832031
y: 378.9747619628906
z: -0.002459065057337284
","x: 268.7560729980469
y: 385.6982116699219
z: -0.0028138107154518366
","x: 267.7893371582031
y: 391.74609375
z: -0.002398954937234521
","x: 266.92266845703125
y: 396.1798400878906
z: -0.0016320018330588937
","x: 272.4775390625
y: 390.2934265136719
z: -0.002566736424341798
","x: 271.7540588378906
y: 398.4031982421875
z: -0.002615425968542695
","x: 270.7207946777344
y: 402.34381103515625
z: -0.0019103360828012228
","x: 269.9420166015625
y: 405.1961669921875
z: -0.001174181466922164
","x: 274.2812194824219
y: 391.1388854980469
z: -0.0011917162919417024
","x: 272.94183349609375
y: 399.0112609863281
z: -0.000897380814421922
","x: 271.3252868652344
y: 402.6058349609375
z: -4.5849552407162264e-05
","x: 270.0696105957031
y: 404.9683837890625
z: 0.0005628256476484239
","x: 275.27227783203125
y: 391.3902587890625
z: 8.079335384536535e-05
","x: 273.9013671875
y: 398.62322998046875
z: -7.455771992681548e-05
","x: 272.4275207519531
y: 401.84698486328125
z: -5.8045858168043196e-05
","x: 271.23089599609375
y: 404.1409912109375
z: 1.9562481611501426e-05
","x: 275.6518859863281
y: 391.27252197265625
z: 0.0011578762205317616
","x: 274.6158447265625
y: 397.52618408203125
z: 0.0007227031164802611
","x: 273.4855651855469
y: 400.7561950683594
z: 0.0005045799189247191
","x: 272.43585205078125
y: 403.04052734375
z: 0.0005562215228565037
","x: 219.97047424316406
y: 374.3716735839844
z: 0.0
","x: 223.18661499023438
y: 378.3614807128906
z: 0.0005911094485782087
","x: 224.79598999023438
y: 384.9178466796875
z: 0.0007721981382928789
","x: 225.63023376464844
y: 390.6893615722656
z: 0.0008552397484891117
","x: 226.6451416015625
y: 394.9866943359375
z: 0.0013703351141884923
","x: 220.84072875976562
y: 392.9955749511719
z: 0.001318688620813191
","x: 221.92620849609375
y: 401.0272521972656
z: 0.0018631985876709223
","x: 223.56195068359375
y: 403.5380859375
z: 0.0029459483921527863
","x: 224.7132110595703
y: 404.3246154785156
z: 0.003945847507566214
","x: 219.41378784179688
y: 393.7540283203125
z: 0.0008545330492779613
","x: 220.79718017578125
y: 401.33905029296875
z: 0.0018449166091158986
","x: 222.46954345703125
y: 403.41595458984375
z: 0.003067451762035489
","x: 223.735107421875
y: 404.3423156738281
z: 0.003910548985004425
","x: 218.60826110839844
y: 393.5800476074219
z: 0.00035609453334473073
","x: 220.12533569335938
y: 400.5883483886719
z: 0.0010319030843675137
","x: 221.75735473632812
y: 402.8094177246094
z: 0.0018528731307014823
","x: 223.0194549560547
y: 403.92852783203125
z: 0.0023994140792638063
","x: 218.26104736328125
y: 393.02984619140625
z: -0.00022329848434310406
","x: 219.70413208007812
y: 399.33551025390625
z: 0.00014524451398756355
","x: 221.0767822265625
y: 401.93963623046875
z: 0.0006583008216693997
","x: 222.1790771484375
y: 403.3757019042969
z: 0.0011762705398723483
"
8,"x: 250.9371795654297
y: 246.9249725341797
z: -0.3095930218696594
visibility: 0.9999861717224121
","x: 252.56639099121094
y: 242.59396362304688
z: -0.2958749234676361
visibility: 0.9999455213546753
","x: 253.74830627441406
y: 242.99111938476562
z: -0.29587239027023315
visibility: 0.9999423623085022
","x: 254.82553100585938
y: 243.38623046875
z: -0.29587629437446594
visibility: 0.9999400973320007
","x: 248.7418212890625
y: 241.98997497558594
z: -0.29743802547454834
visibility: 0.9999537467956543
","x: 247.380859375
y: 242.0549774169922
z: -0.2974786162376404
visibility: 0.9999526739120483
","x: 246.03807067871094
y: 242.13417053222656
z: -0.29748713970184326
visibility: 0.9999498128890991
","x: 256.6961975097656
y: 247.9543914794922
z: -0.20461197197437286
visibility: 0.9998206496238708
","x: 243.6188201904297
y: 246.7090606689453
z: -0.2140243500471115
visibility: 0.9998892545700073
","x: 253.5798797607422
y: 255.22726440429688
z: -0.2750853896141052
visibility: 0.9999657273292542
","x: 248.323486328125
y: 255.0999755859375
z: -0.27788934111595154
visibility: 0.9999710321426392
","x: 267.508544921875
y: 288.6471252441406
z: -0.1388026922941208
visibility: 0.999919593334198
","x: 230.23052978515625
y: 288.11505126953125
z: -0.13826629519462585
visibility: 0.9999421834945679
","x: 274.71136474609375
y: 335.2507019042969
z: -0.08329946547746658
visibility: 0.9912474155426025
","x: 222.37510681152344
y: 334.8879699707031
z: -0.09328312426805496
visibility: 0.9832544922828674
","x: 274.7440490722656
y: 377.1890869140625
z: -0.14304497838020325
visibility: 0.9836875200271606
","x: 222.6963348388672
y: 373.9109802246094
z: -0.15662303566932678
visibility: 0.9544535875320435
","x: 275.4586486816406
y: 392.44921875
z: -0.1644861102104187
visibility: 0.9609445929527283
","x: 221.7220001220703
y: 389.3435974121094
z: -0.179360494017601
visibility: 0.9118145704269409
","x: 272.5864562988281
y: 391.3529968261719
z: -0.1920524537563324
visibility: 0.9635281562805176
","x: 224.73171997070312
y: 388.3753967285156
z: -0.20514008402824402
visibility: 0.9155522584915161
","x: 271.1986083984375
y: 387.0122985839844
z: -0.15395526587963104
visibility: 0.9542224407196045
","x: 225.68797302246094
y: 384.04046630859375
z: -0.1678374856710434
visibility: 0.9007706642150879
","x: 257.8509216308594
y: 379.0938720703125
z: 0.002571787452325225
visibility: 0.999478280544281
","x: 236.74415588378906
y: 378.0151672363281
z: -0.0026186867617070675
visibility: 0.9996601343154907
","x: 250.9225311279297
y: 448.0399169921875
z: 0.031635116785764694
visibility: 0.9871439933776855
","x: 234.11862182617188
y: 447.5286865234375
z: -0.007013275288045406
visibility: 0.9916033148765564
","x: 248.27427673339844
y: 512.0323486328125
z: 0.15073104202747345
visibility: 0.9880887269973755
","x: 231.21548461914062
y: 510.66973876953125
z: 0.11286748945713043
visibility: 0.9898298978805542
","x: 245.1005401611328
y: 521.4577026367188
z: 0.15581992268562317
visibility: 0.9317461252212524
","x: 232.98851013183594
y: 519.927001953125
z: 0.11767258495092392
visibility: 0.8627721667289734
","x: 253.3235321044922
y: 533.22314453125
z: 0.057714976370334625
visibility: 0.9840176701545715
","x: 228.03240966796875
y: 531.7102661132812
z: 0.0120033398270607
visibility: 0.9830442667007446
",5.066669702529907,"x: 274.0693359375
y: 374.99932861328125
z: 0.0
","x: 270.6819152832031
y: 378.9747619628906
z: -0.002459065057337284
","x: 268.7560729980469
y: 385.6982116699219
z: -0.0028138107154518366
","x: 267.7893371582031
y: 391.74609375
z: -0.002398954937234521
","x: 266.92266845703125
y: 396.1798400878906
z: -0.0016320018330588937
","x: 272.4775390625
y: 390.2934265136719
z: -0.002566736424341798
","x: 271.7540588378906
y: 398.4031982421875
z: -0.002615425968542695
","x: 270.7207946777344
y: 402.34381103515625
z: -0.0019103360828012228
","x: 269.9420166015625
y: 405.1961669921875
z: -0.001174181466922164
","x: 274.2812194824219
y: 391.1388854980469
z: -0.0011917162919417024
","x: 272.94183349609375
y: 399.0112609863281
z: -0.000897380814421922
","x: 271.3252868652344
y: 402.6058349609375
z: -4.5849552407162264e-05
","x: 270.0696105957031
y: 404.9683837890625
z: 0.0005628256476484239
","x: 275.27227783203125
y: 391.3902587890625
z: 8.079335384536535e-05
","x: 273.9013671875
y: 398.62322998046875
z: -7.455771992681548e-05
","x: 272.4275207519531
y: 401.84698486328125
z: -5.8045858168043196e-05
","x: 271.23089599609375
y: 404.1409912109375
z: 1.9562481611501426e-05
","x: 275.6518859863281
y: 391.27252197265625
z: 0.0011578762205317616
","x: 274.6158447265625
y: 397.52618408203125
z: 0.0007227031164802611
","x: 273.4855651855469
y: 400.7561950683594
z: 0.0005045799189247191
","x: 272.43585205078125
y: 403.04052734375
z: 0.0005562215228565037
","x: 219.97047424316406
y: 374.3716735839844
z: 0.0
","x: 223.18661499023438
y: 378.3614807128906
z: 0.0005911094485782087
","x: 224.79598999023438
y: 384.9178466796875
z: 0.0007721981382928789
","x: 225.63023376464844
y: 390.6893615722656
z: 0.0008552397484891117
","x: 226.6451416015625
y: 394.9866943359375
z: 0.0013703351141884923
","x: 220.84072875976562
y: 392.9955749511719
z: 0.001318688620813191
","x: 221.92620849609375
y: 401.0272521972656
z: 0.0018631985876709223
","x: 223.56195068359375
y: 403.5380859375
z: 0.0029459483921527863
","x: 224.7132110595703
y: 404.3246154785156
z: 0.003945847507566214
","x: 219.41378784179688
y: 393.7540283203125
z: 0.0008545330492779613
","x: 220.79718017578125
y: 401.33905029296875
z: 0.0018449166091158986
","x: 222.46954345703125
y: 403.41595458984375
z: 0.003067451762035489
","x: 223.735107421875
y: 404.3423156738281
z: 0.003910548985004425
","x: 218.60826110839844
y: 393.5800476074219
z: 0.00035609453334473073
","x: 220.12533569335938
y: 400.5883483886719
z: 0.0010319030843675137
","x: 221.75735473632812
y: 402.8094177246094
z: 0.0018528731307014823
","x: 223.0194549560547
y: 403.92852783203125
z: 0.0023994140792638063
","x: 218.26104736328125
y: 393.02984619140625
z: -0.00022329848434310406
","x: 219.70413208007812
y: 399.33551025390625
z: 0.00014524451398756355
","x: 221.0767822265625
y: 401.93963623046875
z: 0.0006583008216693997
","x: 222.1790771484375
y: 403.3757019042969
z: 0.0011762705398723483
"
9,"x: 250.9371795654297
y: 246.9249725341797
z: -0.3095930218696594
visibility: 0.9999861717224121
","x: 252.56639099121094
y: 242.59396362304688
z: -0.2958749234676361
visibility: 0.9999455213546753
","x: 253.74830627441406
y: 242.99111938476562
z: -0.29587239027023315
visibility: 0.9999423623085022
","x: 254.82553100585938
y: 243.38623046875
z: -0.29587629437446594
visibility: 0.9999400973320007
","x: 248.7418212890625
y: 241.98997497558594
z: -0.29743802547454834
visibility: 0.9999537467956543
","x: 247.380859375
y: 242.0549774169922
z: -0.2974786162376404
visibility: 0.9999526739120483
","x: 246.03807067871094
y: 242.13417053222656
z: -0.29748713970184326
visibility: 0.9999498128890991
","x: 256.6961975097656
y: 247.9543914794922
z: -0.20461197197437286
visibility: 0.9998206496238708
","x: 243.6188201904297
y: 246.7090606689453
z: -0.2140243500471115
visibility: 0.9998892545700073
","x: 253.5798797607422
y: 255.22726440429688
z: -0.2750853896141052
visibility: 0.9999657273292542
","x: 248.323486328125
y: 255.0999755859375
z: -0.27788934111595154
visibility: 0.9999710321426392
","x: 267.508544921875
y: 288.6471252441406
z: -0.1388026922941208
visibility: 0.999919593334198
","x: 230.23052978515625
y: 288.11505126953125
z: -0.13826629519462585
visibility: 0.9999421834945679
","x: 274.71136474609375
y: 335.2507019042969
z: -0.08329946547746658
visibility: 0.9912474155426025
","x: 222.37510681152344
y: 334.8879699707031
z: -0.09328312426805496
visibility: 0.9832544922828674
","x: 274.7440490722656
y: 377.1890869140625
z: -0.14304497838020325
visibility: 0.9836875200271606
","x: 222.6963348388672
y: 373.9109802246094
z: -0.15662303566932678
visibility: 0.9544535875320435
","x: 275.4586486816406
y: 392.44921875
z: -0.1644861102104187
visibility: 0.9609445929527283
","x: 221.7220001220703
y: 389.3435974121094
z: -0.179360494017601
visibility: 0.9118145704269409
","x: 272.5864562988281
y: 391.3529968261719
z: -0.1920524537563324
visibility: 0.9635281562805176
","x: 224.73171997070312
y: 388.3753967285156
z: -0.20514008402824402
visibility: 0.9155522584915161
","x: 271.1986083984375
y: 387.0122985839844
z: -0.15395526587963104
visibility: 0.9542224407196045
","x: 225.68797302246094
y: 384.04046630859375
z: -0.1678374856710434
visibility: 0.9007706642150879
","x: 257.8509216308594
y: 379.0938720703125
z: 0.002571787452325225
visibility: 0.999478280544281
","x: 236.74415588378906
y: 378.0151672363281
z: -0.0026186867617070675
visibility: 0.9996601343154907
","x: 250.9225311279297
y: 448.0399169921875
z: 0.031635116785764694
visibility: 0.9871439933776855
","x: 234.11862182617188
y: 447.5286865234375
z: -0.007013275288045406
visibility: 0.9916033148765564
","x: 248.27427673339844
y: 512.0323486328125
z: 0.15073104202747345
visibility: 0.9880887269973755
","x: 231.21548461914062
y: 510.66973876953125
z: 0.11286748945713043
visibility: 0.9898298978805542
","x: 245.1005401611328
y: 521.4577026367188
z: 0.15581992268562317
visibility: 0.9317461252212524
","x: 232.98851013183594
y: 519.927001953125
z: 0.11767258495092392
visibility: 0.8627721667289734
","x: 253.3235321044922
y: 533.22314453125
z: 0.057714976370334625
visibility: 0.9840176701545715
","x: 228.03240966796875
y: 531.7102661132812
z: 0.0120033398270607
visibility: 0.9830442667007446
",5.066669702529907,"x: 274.0693359375
y: 374.99932861328125
z: 0.0
","x: 270.6819152832031
y: 378.9747619628906
z: -0.002459065057337284
","x: 268.7560729980469
y: 385.6982116699219
z: -0.0028138107154518366
","x: 267.7893371582031
y: 391.74609375
z: -0.002398954937234521
","x: 266.92266845703125
y: 396.1798400878906
z: -0.0016320018330588937
","x: 272.4775390625
y: 390.2934265136719
z: -0.002566736424341798
","x: 271.7540588378906
y: 398.4031982421875
z: -0.002615425968542695
","x: 270.7207946777344
y: 402.34381103515625
z: -0.0019103360828012228
","x: 269.9420166015625
y: 405.1961669921875
z: -0.001174181466922164
","x: 274.2812194824219
y: 391.1388854980469
z: -0.0011917162919417024
","x: 272.94183349609375
y: 399.0112609863281
z: -0.000897380814421922
","x: 271.3252868652344
y: 402.6058349609375
z: -4.5849552407162264e-05
","x: 270.0696105957031
y: 404.9683837890625
z: 0.0005628256476484239
","x: 275.27227783203125
y: 391.3902587890625
z: 8.079335384536535e-05
","x: 273.9013671875
y: 398.62322998046875
z: -7.455771992681548e-05
","x: 272.4275207519531
y: 401.84698486328125
z: -5.8045858168043196e-05
","x: 271.23089599609375
y: 404.1409912109375
z: 1.9562481611501426e-05
","x: 275.6518859863281
y: 391.27252197265625
z: 0.0011578762205317616
","x: 274.6158447265625
y: 397.52618408203125
z: 0.0007227031164802611
","x: 273.4855651855469
y: 400.7561950683594
z: 0.0005045799189247191
","x: 272.43585205078125
y: 403.04052734375
z: 0.0005562215228565037
","x: 219.97047424316406
y: 374.3716735839844
z: 0.0
","x: 223.18661499023438
y: 378.3614807128906
z: 0.0005911094485782087
","x: 224.79598999023438
y: 384.9178466796875
z: 0.0007721981382928789
","x: 225.63023376464844
y: 390.6893615722656
z: 0.0008552397484891117
","x: 226.6451416015625
y: 394.9866943359375
z: 0.0013703351141884923
","x: 220.84072875976562
y: 392.9955749511719
z: 0.001318688620813191
","x: 221.92620849609375
y: 401.0272521972656
z: 0.0018631985876709223
","x: 223.56195068359375
y: 403.5380859375
z: 0.0029459483921527863
","x: 224.7132110595703
y: 404.3246154785156
z: 0.003945847507566214
","x: 219.41378784179688
y: 393.7540283203125
z: 0.0008545330492779613
","x: 220.79718017578125
y: 401.33905029296875
z: 0.0018449166091158986
","x: 222.46954345703125
y: 403.41595458984375
z: 0.003067451762035489
","x: 223.735107421875
y: 404.3423156738281
z: 0.003910548985004425
","x: 218.60826110839844
y: 393.5800476074219
z: 0.00035609453334473073
","x: 220.12533569335938
y: 400.5883483886719
z: 0.0010319030843675137
","x: 221.75735473632812
y: 402.8094177246094
z: 0.0018528731307014823
","x: 223.0194549560547
y: 403.92852783203125
z: 0.0023994140792638063
","x: 218.26104736328125
y: 393.02984619140625
z: -0.00022329848434310406
","x: 219.70413208007812
y: 399.33551025390625
z: 0.00014524451398756355
","x: 221.0767822265625
y: 401.93963623046875
z: 0.0006583008216693997
","x: 222.1790771484375
y: 403.3757019042969
z: 0.0011762705398723483
"
10,"x: 250.9371795654297
y: 246.9249725341797
z: -0.3095930218696594
visibility: 0.9999861717224121
","x: 252.56639099121094
y: 242.59396362304688
z: -0.2958749234676361
visibility: 0.9999455213546753
","x: 253.74830627441406
y: 242.99111938476562
z: -0.29587239027023315
visibility: 0.9999423623085022
","x: 254.82553100585938
y: 243.38623046875
z: -0.29587629437446594
visibility: 0.9999400973320007
","x: 248.7418212890625
y: 241.98997497558594
z: -0.29743802547454834
visibility: 0.9999537467956543
","x: 247.380859375
y: 242.0549774169922
z: -0.2974786162376404
visibility: 0.9999526739120483
","x: 246.03807067871094
y: 242.13417053222656
z: -0.29748713970184326
visibility: 0.9999498128890991
","x: 256.6961975097656
y: 247.9543914794922
z: -0.20461197197437286
visibility: 0.9998206496238708
","x: 243.6188201904297
y: 246.7090606689453
z: -0.2140243500471115
visibility: 0.9998892545700073
","x: 253.5798797607422
y: 255.22726440429688
z: -0.2750853896141052
visibility: 0.9999657273292542
","x: 248.323486328125
y: 255.0999755859375
z: -0.27788934111595154
visibility: 0.9999710321426392
","x: 267.508544921875
y: 288.6471252441406
z: -0.1388026922941208
visibility: 0.999919593334198
","x: 230.23052978515625
y: 288.11505126953125
z: -0.13826629519462585
visibility: 0.9999421834945679
","x: 274.71136474609375
y: 335.2507019042969
z: -0.08329946547746658
visibility: 0.9912474155426025
","x: 222.37510681152344
y: 334.8879699707031
z: -0.09328312426805496
visibility: 0.9832544922828674
","x: 274.7440490722656
y: 377.1890869140625
z: -0.14304497838020325
visibility: 0.9836875200271606
","x: 222.6963348388672
y: 373.9109802246094
z: -0.15662303566932678
visibility: 0.9544535875320435
","x: 275.4586486816406
y: 392.44921875
z: -0.1644861102104187
visibility: 0.9609445929527283
","x: 221.7220001220703
y: 389.3435974121094
z: -0.179360494017601
visibility: 0.9118145704269409
","x: 272.5864562988281
y: 391.3529968261719
z: -0.1920524537563324
visibility: 0.9635281562805176
","x: 224.73171997070312
y: 388.3753967285156
z: -0.20514008402824402
visibility: 0.9155522584915161
","x: 271.1986083984375
y: 387.0122985839844
z: -0.15395526587963104
visibility: 0.9542224407196045
","x: 225.68797302246094
y: 384.04046630859375
z: -0.1678374856710434
visibility: 0.9007706642150879
","x: 257.8509216308594
y: 379.0938720703125
z: 0.002571787452325225
visibility: 0.999478280544281
","x: 236.74415588378906
y: 378.0151672363281
z: -0.0026186867617070675
visibility: 0.9996601343154907
","x: 250.9225311279297
y: 448.0399169921875
z: 0.031635116785764694
visibility: 0.9871439933776855
","x: 234.11862182617188
y: 447.5286865234375
z: -0.007013275288045406
visibility: 0.9916033148765564
","x: 248.27427673339844
y: 512.0323486328125
z: 0.15073104202747345
visibility: 0.9880887269973755
","x: 231.21548461914062
y: 510.66973876953125
z: 0.11286748945713043
visibility: 0.9898298978805542
","x: 245.1005401611328
y: 521.4577026367188
z: 0.15581992268562317
visibility: 0.9317461252212524
","x: 232.98851013183594
y: 519.927001953125
z: 0.11767258495092392
visibility: 0.8627721667289734
","x: 253.3235321044922
y: 533.22314453125
z: 0.057714976370334625
visibility: 0.9840176701545715
","x: 228.03240966796875
y: 531.7102661132812
z: 0.0120033398270607
visibility: 0.9830442667007446
",5.066669702529907,"x: 274.0693359375
y: 374.99932861328125
z: 0.0
","x: 270.6819152832031
y: 378.9747619628906
z: -0.002459065057337284
","x: 268.7560729980469
y: 385.6982116699219
z: -0.0028138107154518366
","x: 267.7893371582031
y: 391.74609375
z: -0.002398954937234521
","x: 266.92266845703125
y: 396.1798400878906
z: -0.0016320018330588937
","x: 272.4775390625
y: 390.2934265136719
z: -0.002566736424341798
","x: 271.7540588378906
y: 398.4031982421875
z: -0.002615425968542695
","x: 270.7207946777344
y: 402.34381103515625
z: -0.0019103360828012228
","x: 269.9420166015625
y: 405.1961669921875
z: -0.001174181466922164
","x: 274.2812194824219
y: 391.1388854980469
z: -0.0011917162919417024
","x: 272.94183349609375
y: 399.0112609863281
z: -0.000897380814421922
","x: 271.3252868652344
y: 402.6058349609375
z: -4.5849552407162264e-05
","x: 270.0696105957031
y: 404.9683837890625
z: 0.0005628256476484239
","x: 275.27227783203125
y: 391.3902587890625
z: 8.079335384536535e-05
","x: 273.9013671875
y: 398.62322998046875
z: -7.455771992681548e-05
","x: 272.4275207519531
y: 401.84698486328125
z: -5.8045858168043196e-05
","x: 271.23089599609375
y: 404.1409912109375
z: 1.9562481611501426e-05
","x: 275.6518859863281
y: 391.27252197265625
z: 0.0011578762205317616
","x: 274.6158447265625
y: 397.52618408203125
z: 0.0007227031164802611
","x: 273.4855651855469
y: 400.7561950683594
z: 0.0005045799189247191
","x: 272.43585205078125
y: 403.04052734375
z: 0.0005562215228565037
","x: 219.97047424316406
y: 374.3716735839844
z: 0.0
","x: 223.18661499023438
y: 378.3614807128906
z: 0.0005911094485782087
","x: 224.79598999023438
y: 384.9178466796875
z: 0.0007721981382928789
","x: 225.63023376464844
y: 390.6893615722656
z: 0.0008552397484891117
","x: 226.6451416015625
y: 394.9866943359375
z: 0.0013703351141884923
","x: 220.84072875976562
y: 392.9955749511719
z: 0.001318688620813191
","x: 221.92620849609375
y: 401.0272521972656
z: 0.0018631985876709223
","x: 223.56195068359375
y: 403.5380859375
z: 0.0029459483921527863
","x: 224.7132110595703
y: 404.3246154785156
z: 0.003945847507566214
","x: 219.41378784179688
y: 393.7540283203125
z: 0.0008545330492779613
","x: 220.79718017578125
y: 401.33905029296875
z: 0.0018449166091158986
","x: 222.46954345703125
y: 403.41595458984375
z: 0.003067451762035489
","x: 223.735107421875
y: 404.3423156738281
z: 0.003910548985004425
","x: 218.60826110839844
y: 393.5800476074219
z: 0.00035609453334473073
","x: 220.12533569335938
y: 400.5883483886719
z: 0.0010319030843675137
","x: 221.75735473632812
y: 402.8094177246094
z: 0.0018528731307014823
","x: 223.0194549560547
y: 403.92852783203125
z: 0.0023994140792638063
","x: 218.26104736328125
y: 393.02984619140625
z: -0.00022329848434310406
","x: 219.70413208007812
y: 399.33551025390625
z: 0.00014524451398756355
","x: 221.0767822265625
y: 401.93963623046875
z: 0.0006583008216693997
","x: 222.1790771484375
y: 403.3757019042969
z: 0.0011762705398723483
"
11,"x: 250.83555603027344
y: 246.76611328125
z: -0.31460651755332947
visibility: 0.999987006187439
","x: 252.47177124023438
y: 242.4740447998047
z: -0.300492525100708
visibility: 0.9999488592147827
","x: 253.6734619140625
y: 242.85301208496094
z: -0.30048614740371704
visibility: 0.9999460577964783
","x: 254.76617431640625
y: 243.22000122070312
z: -0.30049097537994385
visibility: 0.9999439716339111
","x: 248.56280517578125
y: 241.94212341308594
z: -0.30258479714393616
visibility: 0.999956488609314
","x: 247.1602020263672
y: 242.03616333007812
z: -0.302629292011261
visibility: 0.9999554753303528
","x: 245.78070068359375
y: 242.1330108642578
z: -0.30262869596481323
visibility: 0.999952495098114
","x: 256.6555480957031
y: 247.8168487548828
z: -0.2068677693605423
visibility: 0.9998335838317871
","x: 243.37872314453125
y: 246.7446746826172
z: -0.21913710236549377
visibility: 0.9998958706855774
","x: 253.54823303222656
y: 255.14340209960938
z: -0.2793002426624298
visibility: 0.9999681711196899
","x: 248.23934936523438
y: 255.09677124023438
z: -0.2828608751296997
visibility: 0.9999728202819824
","x: 267.4781188964844
y: 288.76190185546875
z: -0.13756228983402252
visibility: 0.9999250173568726
","x: 230.20742797851562
y: 288.4699401855469
z: -0.14117763936519623
visibility: 0.9999435544013977
","x: 274.8516845703125
y: 335.2482604980469
z: -0.07808537781238556
visibility: 0.9918184876441956
","x: 221.96466064453125
y: 335.1965637207031
z: -0.09436017274856567
visibility: 0.9832087159156799
","x: 274.7040100097656
y: 376.94720458984375
z: -0.14107492566108704
visibility: 0.9844783544540405
","x: 221.28536987304688
y: 374.2876892089844
z: -0.1543034166097641
visibility: 0.9522343277931213
","x: 275.3289794921875
y: 392.14154052734375
z: -0.1602805107831955
visibility: 0.9622843861579895
","x: 219.456298828125
y: 389.373779296875
z: -0.17501212656497955
visibility: 0.9072481989860535
","x: 272.37750244140625
y: 391.01092529296875
z: -0.18595561385154724
visibility: 0.9648136496543884
","x: 222.6624298095703
y: 388.7155456542969
z: -0.20151421427726746
visibility: 0.9110448956489563
","x: 271.0641784667969
y: 386.9073181152344
z: -0.15325459837913513
visibility: 0.9557434916496277
","x: 223.99029541015625
y: 384.3724060058594
z: -0.16568560898303986
visibility: 0.8956437110900879
","x: 257.827392578125
y: 379.19598388671875
z: 0.0033978361170738935
visibility: 0.9994922876358032
","x: 236.62539672851562
y: 378.05975341796875
z: -0.003452535020187497
visibility: 0.999666690826416
","x: 250.9296875
y: 448.05975341796875
z: 0.033170584589242935
visibility: 0.9871101975440979
","x: 233.76512145996094
y: 447.5010986328125
z: -0.009475834667682648
visibility: 0.9916713237762451
","x: 248.26123046875
y: 512.1585693359375
z: 0.15105441212654114
visibility: 0.988280177116394
","x: 231.16845703125
y: 510.66766357421875
z: 0.11205822229385376
visibility: 0.9899539351463318
","x: 245.09494018554688
y: 521.6326904296875
z: 0.15600915253162384
visibility: 0.9330613017082214
","x: 232.94972229003906
y: 519.9326171875
z: 0.1169397234916687
visibility: 0.8636769652366638
","x: 253.45848083496094
y: 533.2071533203125
z: 0.05809827521443367
visibility: 0.9841799139976501
","x: 228.08724975585938
y: 531.5729370117188
z: 0.010039481334388256
visibility: 0.9832716584205627
",5.1943347454071045,"x: 274.8309020996094
y: 373.7641906738281
z: 0.0
","x: 271.6288757324219
y: 377.0089416503906
z: -0.0036909827031195164
","x: 269.6865539550781
y: 383.1339111328125
z: -0.004466317128390074
","x: 268.6373596191406
y: 388.97265625
z: -0.004313495475798845
","x: 267.679931640625
y: 393.5400085449219
z: -0.0038073938339948654
","x: 273.0466003417969
y: 388.50701904296875
z: -0.003018181538209319
","x: 272.2857666015625
y: 396.2347106933594
z: -0.0032608581241220236
","x: 271.45098876953125
y: 400.02252197265625
z: -0.0028904422651976347
","x: 270.8827819824219
y: 402.9820251464844
z: -0.0024281807709485292
","x: 274.47528076171875
y: 389.32537841796875
z: -0.0010693490039557219
","x: 272.96002197265625
y: 396.73785400390625
z: -0.0010350147495046258
","x: 271.2832336425781
y: 400.24078369140625
z: -0.0006844085874035954
","x: 269.8711242675781
y: 402.81842041015625
z: -0.0004024810332339257
","x: 275.0838928222656
y: 389.6352844238281
z: 0.0006322999252006412
","x: 273.6203918457031
y: 396.4722900390625
z: 0.00018253787129651755
","x: 272.2027587890625
y: 399.7288818359375
z: -0.0003865678736474365
","x: 270.9592590332031
y: 402.2821044921875
z: -0.0006546373479068279
","x: 275.0864562988281
y: 389.4537658691406
z: 0.0020497767254710197
","x: 274.064697265625
y: 395.3985595703125
z: 0.0014043150003999472
","x: 273.0011901855469
y: 398.91119384765625
z: 0.0007631175103597343
","x: 271.9944763183594
y: 401.60760498046875
z: 0.00052356201922521
",,,,,,,,,,,,,,,,,,,,,
12,"x: 250.83555603027344
y: 246.76611328125
z: -0.31460651755332947
visibility: 0.999987006187439
","x: 252.47177124023438
y: 242.4740447998047
z: -0.300492525100708
visibility: 0.9999488592147827
","x: 253.6734619140625
y: 242.85301208496094
z: -0.30048614740371704
visibility: 0.9999460577964783
","x: 254.76617431640625
y: 243.22000122070312
z: -0.30049097537994385
visibility: 0.9999439716339111
","x: 248.56280517578125
y: 241.94212341308594
z: -0.30258479714393616
visibility: 0.999956488609314
","x: 247.1602020263672
y: 242.03616333007812
z: -0.302629292011261
visibility: 0.9999554753303528
","x: 245.78070068359375
y: 242.1330108642578
z: -0.30262869596481323
visibility: 0.999952495098114
","x: 256.6555480957031
y: 247.8168487548828
z: -0.2068677693605423
visibility: 0.9998335838317871
","x: 243.37872314453125
y: 246.7446746826172
z: -0.21913710236549377
visibility: 0.9998958706855774
","x: 253.54823303222656
y: 255.14340209960938
z: -0.2793002426624298
visibility: 0.9999681711196899
","x: 248.23934936523438
y: 255.09677124023438
z: -0.2828608751296997
visibility: 0.9999728202819824
","x: 267.4781188964844
y: 288.76190185546875
z: -0.13756228983402252
visibility: 0.9999250173568726
","x: 230.20742797851562
y: 288.4699401855469
z: -0.14117763936519623
visibility: 0.9999435544013977
","x: 274.8516845703125
y: 335.2482604980469
z: -0.07808537781238556
visibility: 0.9918184876441956
","x: 221.96466064453125
y: 335.1965637207031
z: -0.09436017274856567
visibility: 0.9832087159156799
","x: 274.7040100097656
y: 376.94720458984375
z: -0.14107492566108704
visibility: 0.9844783544540405
","x: 221.28536987304688
y: 374.2876892089844
z: -0.1543034166097641
visibility: 0.9522343277931213
","x: 275.3289794921875
y: 392.14154052734375
z: -0.1602805107831955
visibility: 0.9622843861579895
","x: 219.456298828125
y: 389.373779296875
z: -0.17501212656497955
visibility: 0.9072481989860535
","x: 272.37750244140625
y: 391.01092529296875
z: -0.18595561385154724
visibility: 0.9648136496543884
","x: 222.6624298095703
y: 388.7155456542969
z: -0.20151421427726746
visibility: 0.9110448956489563
","x: 271.0641784667969
y: 386.9073181152344
z: -0.15325459837913513
visibility: 0.9557434916496277
","x: 223.99029541015625
y: 384.3724060058594
z: -0.16568560898303986
visibility: 0.8956437110900879
","x: 257.827392578125
y: 379.19598388671875
z: 0.0033978361170738935
visibility: 0.9994922876358032
","x: 236.62539672851562
y: 378.05975341796875
z: -0.003452535020187497
visibility: 0.999666690826416
","x: 250.9296875
y: 448.05975341796875
z: 0.033170584589242935
visibility: 0.9871101975440979
","x: 233.76512145996094
y: 447.5010986328125
z: -0.009475834667682648
visibility: 0.9916713237762451
","x: 248.26123046875
y: 512.1585693359375
z: 0.15105441212654114
visibility: 0.988280177116394
","x: 231.16845703125
y: 510.66766357421875
z: 0.11205822229385376
visibility: 0.9899539351463318
","x: 245.09494018554688
y: 521.6326904296875
z: 0.15600915253162384
visibility: 0.9330613017082214
","x: 232.94972229003906
y: 519.9326171875
z: 0.1169397234916687
visibility: 0.8636769652366638
","x: 253.45848083496094
y: 533.2071533203125
z: 0.05809827521443367
visibility: 0.9841799139976501
","x: 228.08724975585938
y: 531.5729370117188
z: 0.010039481334388256
visibility: 0.9832716584205627
",5.1943347454071045,"x: 274.8309020996094
y: 373.7641906738281
z: 0.0
","x: 271.6288757324219
y: 377.0089416503906
z: -0.0036909827031195164
","x: 269.6865539550781
y: 383.1339111328125
z: -0.004466317128390074
","x: 268.6373596191406
y: 388.97265625
z: -0.004313495475798845
","x: 267.679931640625
y: 393.5400085449219
z: -0.0038073938339948654
","x: 273.0466003417969
y: 388.50701904296875
z: -0.003018181538209319
","x: 272.2857666015625
y: 396.2347106933594
z: -0.0032608581241220236
","x: 271.45098876953125
y: 400.02252197265625
z: -0.0028904422651976347
","x: 270.8827819824219
y: 402.9820251464844
z: -0.0024281807709485292
","x: 274.47528076171875
y: 389.32537841796875
z: -0.0010693490039557219
","x: 272.96002197265625
y: 396.73785400390625
z: -0.0010350147495046258
","x: 271.2832336425781
y: 400.24078369140625
z: -0.0006844085874035954
","x: 269.8711242675781
y: 402.81842041015625
z: -0.0004024810332339257
","x: 275.0838928222656
y: 389.6352844238281
z: 0.0006322999252006412
","x: 273.6203918457031
y: 396.4722900390625
z: 0.00018253787129651755
","x: 272.2027587890625
y: 399.7288818359375
z: -0.0003865678736474365
","x: 270.9592590332031
y: 402.2821044921875
z: -0.0006546373479068279
","x: 275.0864562988281
y: 389.4537658691406
z: 0.0020497767254710197
","x: 274.064697265625
y: 395.3985595703125
z: 0.0014043150003999472
","x: 273.0011901855469
y: 398.91119384765625
z: 0.0007631175103597343
","x: 271.9944763183594
y: 401.60760498046875
z: 0.00052356201922521
",,,,,,,,,,,,,,,,,,,,,
13,"x: 250.83555603027344
y: 246.76611328125
z: -0.31460651755332947
visibility: 0.999987006187439
","x: 252.47177124023438
y: 242.4740447998047
z: -0.300492525100708
visibility: 0.9999488592147827
","x: 253.6734619140625
y: 242.85301208496094
z: -0.30048614740371704
visibility: 0.9999460577964783
","x: 254.76617431640625
y: 243.22000122070312
z: -0.30049097537994385
visibility: 0.9999439716339111
","x: 248.56280517578125
y: 241.94212341308594
z: -0.30258479714393616
visibility: 0.999956488609314
","x: 247.1602020263672
y: 242.03616333007812
z: -0.302629292011261
visibility: 0.9999554753303528
","x: 245.78070068359375
y: 242.1330108642578
z: -0.30262869596481323
visibility: 0.999952495098114
","x: 256.6555480957031
y: 247.8168487548828
z: -0.2068677693605423
visibility: 0.9998335838317871
","x: 243.37872314453125
y: 246.7446746826172
z: -0.21913710236549377
visibility: 0.9998958706855774
","x: 253.54823303222656
y: 255.14340209960938
z: -0.2793002426624298
visibility: 0.9999681711196899
","x: 248.23934936523438
y: 255.09677124023438
z: -0.2828608751296997
visibility: 0.9999728202819824
","x: 267.4781188964844
y: 288.76190185546875
z: -0.13756228983402252
visibility: 0.9999250173568726
","x: 230.20742797851562
y: 288.4699401855469
z: -0.14117763936519623
visibility: 0.9999435544013977
","x: 274.8516845703125
y: 335.2482604980469
z: -0.07808537781238556
visibility: 0.9918184876441956
","x: 221.96466064453125
y: 335.1965637207031
z: -0.09436017274856567
visibility: 0.9832087159156799
","x: 274.7040100097656
y: 376.94720458984375
z: -0.14107492566108704
visibility: 0.9844783544540405
","x: 221.28536987304688
y: 374.2876892089844
z: -0.1543034166097641
visibility: 0.9522343277931213
","x: 275.3289794921875
y: 392.14154052734375
z: -0.1602805107831955
visibility: 0.9622843861579895
","x: 219.456298828125
y: 389.373779296875
z: -0.17501212656497955
visibility: 0.9072481989860535
","x: 272.37750244140625
y: 391.01092529296875
z: -0.18595561385154724
visibility: 0.9648136496543884
","x: 222.6624298095703
y: 388.7155456542969
z: -0.20151421427726746
visibility: 0.9110448956489563
","x: 271.0641784667969
y: 386.9073181152344
z: -0.15325459837913513
visibility: 0.9557434916496277
","x: 223.99029541015625
y: 384.3724060058594
z: -0.16568560898303986
visibility: 0.8956437110900879
","x: 257.827392578125
y: 379.19598388671875
z: 0.0033978361170738935
visibility: 0.9994922876358032
","x: 236.62539672851562
y: 378.05975341796875
z: -0.003452535020187497
visibility: 0.999666690826416
","x: 250.9296875
y: 448.05975341796875
z: 0.033170584589242935
visibility: 0.9871101975440979
","x: 233.76512145996094
y: 447.5010986328125
z: -0.009475834667682648
visibility: 0.9916713237762451
","x: 248.26123046875
y: 512.1585693359375
z: 0.15105441212654114
visibility: 0.988280177116394
","x: 231.16845703125
y: 510.66766357421875
z: 0.11205822229385376
visibility: 0.9899539351463318
","x: 245.09494018554688
y: 521.6326904296875
z: 0.15600915253162384
visibility: 0.9330613017082214
","x: 232.94972229003906
y: 519.9326171875
z: 0.1169397234916687
visibility: 0.8636769652366638
","x: 253.45848083496094
y: 533.2071533203125
z: 0.05809827521443367
visibility: 0.9841799139976501
","x: 228.08724975585938
y: 531.5729370117188
z: 0.010039481334388256
visibility: 0.9832716584205627
",5.1943347454071045,"x: 274.8309020996094
y: 373.7641906738281
z: 0.0
","x: 271.6288757324219
y: 377.0089416503906
z: -0.0036909827031195164
","x: 269.6865539550781
y: 383.1339111328125
z: -0.004466317128390074
","x: 268.6373596191406
y: 388.97265625
z: -0.004313495475798845
","x: 267.679931640625
y: 393.5400085449219
z: -0.0038073938339948654
","x: 273.0466003417969
y: 388.50701904296875
z: -0.003018181538209319
","x: 272.2857666015625
y: 396.2347106933594
z: -0.0032608581241220236
","x: 271.45098876953125
y: 400.02252197265625
z: -0.0028904422651976347
","x: 270.8827819824219
y: 402.9820251464844
z: -0.0024281807709485292
","x: 274.47528076171875
y: 389.32537841796875
z: -0.0010693490039557219
","x: 272.96002197265625
y: 396.73785400390625
z: -0.0010350147495046258
","x: 271.2832336425781
y: 400.24078369140625
z: -0.0006844085874035954
","x: 269.8711242675781
y: 402.81842041015625
z: -0.0004024810332339257
","x: 275.0838928222656
y: 389.6352844238281
z: 0.0006322999252006412
","x: 273.6203918457031
y: 396.4722900390625
z: 0.00018253787129651755
","x: 272.2027587890625
y: 399.7288818359375
z: -0.0003865678736474365
","x: 270.9592590332031
y: 402.2821044921875
z: -0.0006546373479068279
","x: 275.0864562988281
y: 389.4537658691406
z: 0.0020497767254710197
","x: 274.064697265625
y: 395.3985595703125
z: 0.0014043150003999472
","x: 273.0011901855469
y: 398.91119384765625
z: 0.0007631175103597343
","x: 271.9944763183594
y: 401.60760498046875
z: 0.00052356201922521
",,,,,,,,,,,,,,,,,,,,,
14,"x: 249.1304931640625
y: 245.74647521972656
z: -0.3117991089820862
visibility: 0.9999858736991882
","x: 251.1630859375
y: 242.04571533203125
z: -0.2977621257305145
visibility: 0.9999449849128723
","x: 252.5222930908203
y: 242.5200653076172
z: -0.29775410890579224
visibility: 0.9999434947967529
","x: 253.72250366210938
y: 242.97451782226562
z: -0.2977626919746399
visibility: 0.9999410510063171
","x: 247.0991668701172
y: 241.5789031982422
z: -0.2982760965824127
visibility: 0.9999521970748901
","x: 245.73623657226562
y: 241.77987670898438
z: -0.29831695556640625
visibility: 0.9999517798423767
","x: 244.4369354248047
y: 241.9747314453125
z: -0.29831820726394653
visibility: 0.9999480843544006
","x: 255.82247924804688
y: 247.8107452392578
z: -0.20429947972297668
visibility: 0.9998369812965393
","x: 242.52828979492188
y: 246.74429321289062
z: -0.21215610206127167
visibility: 0.9998891949653625
","x: 252.316162109375
y: 254.2918243408203
z: -0.2764393091201782
visibility: 0.9999681711196899
","x: 246.48245239257812
y: 254.276123046875
z: -0.27774250507354736
visibility: 0.9999708533287048
","x: 266.6882629394531
y: 288.76275634765625
z: -0.1367301046848297
visibility: 0.9999290704727173
","x: 229.33016967773438
y: 287.6968078613281
z: -0.12375098466873169
visibility: 0.9999380111694336
","x: 275.63397216796875
y: 332.54132080078125
z: -0.07761523127555847
visibility: 0.9924319982528687
","x: 219.20529174804688
y: 327.74774169921875
z: -0.059274785220623016
visibility: 0.982029139995575
","x: 275.4715576171875
y: 371.9337463378906
z: -0.13817590475082397
visibility: 0.985214114189148
","x: 221.35342407226562
y: 366.02276611328125
z: -0.1178407296538353
visibility: 0.9493995308876038
","x: 275.4400939941406
y: 386.143798828125
z: -0.15802522003650665
visibility: 0.9634780287742615
","x: 221.1304473876953
y: 379.5023193359375
z: -0.13655158877372742
visibility: 0.9014169573783875
","x: 272.2835693359375
y: 383.2711181640625
z: -0.18460750579833984
visibility: 0.9659212231636047
","x: 224.0924835205078
y: 377.79779052734375
z: -0.16129274666309357
visibility: 0.9050014615058899
","x: 271.1029968261719
y: 378.82757568359375
z: -0.14971815049648285
visibility: 0.9568516612052917
","x: 224.57260131835938
y: 373.31597900390625
z: -0.12816454470157623
visibility: 0.8881626725196838
","x: 257.4889221191406
y: 379.30975341796875
z: -0.0035076432395726442
visibility: 0.9994930028915405
","x: 235.44796752929688
y: 378.0968017578125
z: 0.0034589669667184353
visibility: 0.999670684337616
","x: 251.55307006835938
y: 449.1322326660156
z: 0.014695718884468079
visibility: 0.9877777695655823
","x: 230.30941772460938
y: 447.5928039550781
z: -0.005019557196646929
visibility: 0.9920667409896851
","x: 248.2607421875
y: 512.1334228515625
z: 0.15210920572280884
visibility: 0.9887900948524475
","x: 225.73489379882812
y: 510.996826171875
z: 0.12966054677963257
visibility: 0.9906017184257507
","x: 245.10043334960938
y: 521.4884643554688
z: 0.15831346809864044
visibility: 0.9311308860778809
","x: 228.3002471923828
y: 520.1578369140625
z: 0.1350320279598236
visibility: 0.8717702627182007
","x: 253.45948791503906
y: 533.0278930664062
z: 0.0566314160823822
visibility: 0.9846399426460266
","x: 216.85699462890625
y: 531.4191284179688
z: 0.029100775718688965
visibility: 0.9843337535858154
",5.334363698959351,,,,,,,,,,,,,,,,,,,,,,,,,,,,,,,,,,,,,,,,,,
15,"x: 249.1304931640625
y: 245.74647521972656
z: -0.3117991089820862
visibility: 0.9999858736991882
","x: 251.1630859375
y: 242.04571533203125
z: -0.2977621257305145
visibility: 0.9999449849128723
","x: 252.5222930908203
y: 242.5200653076172
z: -0.29775410890579224
visibility: 0.9999434947967529
","x: 253.72250366210938
y: 242.97451782226562
z: -0.2977626919746399
visibility: 0.9999410510063171
","x: 247.0991668701172
y: 241.5789031982422
z: -0.2982760965824127
visibility: 0.9999521970748901
","x: 245.73623657226562
y: 241.77987670898438
z: -0.29831695556640625
visibility: 0.9999517798423767
","x: 244.4369354248047
y: 241.9747314453125
z: -0.29831820726394653
visibility: 0.9999480843544006
","x: 255.82247924804688
y: 247.8107452392578
z: -0.20429947972297668
visibility: 0.9998369812965393
","x: 242.52828979492188
y: 246.74429321289062
z: -0.21215610206127167
visibility: 0.9998891949653625
","x: 252.316162109375
y: 254.2918243408203
z: -0.2764393091201782
visibility: 0.9999681711196899
","x: 246.48245239257812
y: 254.276123046875
z: -0.27774250507354736
visibility: 0.9999708533287048
","x: 266.6882629394531
y: 288.76275634765625
z: -0.1367301046848297
visibility: 0.9999290704727173
","x: 229.33016967773438
y: 287.6968078613281
z: -0.12375098466873169
visibility: 0.9999380111694336
","x: 275.63397216796875
y: 332.54132080078125
z: -0.07761523127555847
visibility: 0.9924319982528687
","x: 219.20529174804688
y: 327.74774169921875
z: -0.059274785220623016
visibility: 0.982029139995575
","x: 275.4715576171875
y: 371.9337463378906
z: -0.13817590475082397
visibility: 0.985214114189148
","x: 221.35342407226562
y: 366.02276611328125
z: -0.1178407296538353
visibility: 0.9493995308876038
","x: 275.4400939941406
y: 386.143798828125
z: -0.15802522003650665
visibility: 0.9634780287742615
","x: 221.1304473876953
y: 379.5023193359375
z: -0.13655158877372742
visibility: 0.9014169573783875
","x: 272.2835693359375
y: 383.2711181640625
z: -0.18460750579833984
visibility: 0.9659212231636047
","x: 224.0924835205078
y: 377.79779052734375
z: -0.16129274666309357
visibility: 0.9050014615058899
","x: 271.1029968261719
y: 378.82757568359375
z: -0.14971815049648285
visibility: 0.9568516612052917
","x: 224.57260131835938
y: 373.31597900390625
z: -0.12816454470157623
visibility: 0.8881626725196838
","x: 257.4889221191406
y: 379.30975341796875
z: -0.0035076432395726442
visibility: 0.9994930028915405
","x: 235.44796752929688
y: 378.0968017578125
z: 0.0034589669667184353
visibility: 0.999670684337616
","x: 251.55307006835938
y: 449.1322326660156
z: 0.014695718884468079
visibility: 0.9877777695655823
","x: 230.30941772460938
y: 447.5928039550781
z: -0.005019557196646929
visibility: 0.9920667409896851
","x: 248.2607421875
y: 512.1334228515625
z: 0.15210920572280884
visibility: 0.9887900948524475
","x: 225.73489379882812
y: 510.996826171875
z: 0.12966054677963257
visibility: 0.9906017184257507
","x: 245.10043334960938
y: 521.4884643554688
z: 0.15831346809864044
visibility: 0.9311308860778809
","x: 228.3002471923828
y: 520.1578369140625
z: 0.1350320279598236
visibility: 0.8717702627182007
","x: 253.45948791503906
y: 533.0278930664062
z: 0.0566314160823822
visibility: 0.9846399426460266
","x: 216.85699462890625
y: 531.4191284179688
z: 0.029100775718688965
visibility: 0.9843337535858154
",5.334363698959351,,,,,,,,,,,,,,,,,,,,,,,,,,,,,,,,,,,,,,,,,,
16,"x: 245.8743133544922
y: 244.71783447265625
z: -0.3072214722633362
visibility: 0.9999814033508301
","x: 247.9800262451172
y: 241.3596954345703
z: -0.29303571581840515
visibility: 0.9999319911003113
","x: 249.32725524902344
y: 241.82461547851562
z: -0.2930322587490082
visibility: 0.9999315738677979
","x: 250.614501953125
y: 242.30206298828125
z: -0.2930387854576111
visibility: 0.9999290704727173
","x: 244.16127014160156
y: 240.8822784423828
z: -0.2952582836151123
visibility: 0.9999368190765381
","x: 243.0257568359375
y: 241.03445434570312
z: -0.2952973544597626
visibility: 0.9999356865882874
","x: 241.8314208984375
y: 241.20504760742188
z: -0.29529061913490295
visibility: 0.9999322295188904
","x: 252.84439086914062
y: 247.43121337890625
z: -0.20002464950084686
visibility: 0.9998281598091125
","x: 240.0908966064453
y: 246.3223114013672
z: -0.18817946314811707
visibility: 0.9998541474342346
","x: 248.8609619140625
y: 253.0982666015625
z: -0.27169308066368103
visibility: 0.9999661445617676
","x: 243.5006561279297
y: 252.5816192626953
z: -0.27508336305618286
visibility: 0.9999662637710571
","x: 264.2565002441406
y: 288.6819763183594
z: -0.13291598856449127
visibility: 0.9999305009841919
","x: 226.46722412109375
y: 286.2144775390625
z: -0.09726326167583466
visibility: 0.9999256730079651
","x: 274.8505554199219
y: 330.0779724121094
z: -0.1162974014878273
visibility: 0.9925915002822876
","x: 218.04888916015625
y: 322.259033203125
z: -0.05300600081682205
visibility: 0.9789486527442932
","x: 268.8011169433594
y: 357.47906494140625
z: -0.2343628704547882
visibility: 0.9838429093360901
","x: 221.0565643310547
y: 353.2020263671875
z: -0.1423322707414627
visibility: 0.9424295425415039
","x: 266.0804138183594
y: 368.6245422363281
z: -0.2675369083881378
visibility: 0.9605588912963867
","x: 221.27891540527344
y: 366.0078125
z: -0.17337211966514587
visibility: 0.8911285400390625
","x: 264.2206115722656
y: 364.4979248046875
z: -0.2934209108352661
visibility: 0.9629915356636047
","x: 224.0949249267578
y: 364.489990234375
z: -0.1965467482805252
visibility: 0.8950380682945251
","x: 264.5494689941406
y: 360.397705078125
z: -0.24613511562347412
visibility: 0.95216304063797
","x: 224.4185028076172
y: 359.1723937988281
z: -0.15380199253559113
visibility: 0.8764034509658813
","x: 255.2676239013672
y: 377.7659912109375
z: -0.006552037782967091
visibility: 0.9995005130767822
","x: 232.7870635986328
y: 376.7359924316406
z: 0.006525331176817417
visibility: 0.9996761679649353
","x: 253.3798065185547
y: 448.2735595703125
z: -0.032331209629774094
visibility: 0.9886106252670288
","x: 227.65118408203125
y: 446.9723815917969
z: -0.02226857654750347
visibility: 0.992537260055542
","x: 248.42095947265625
y: 510.14599609375
z: 0.1497991979122162
visibility: 0.9893981218338013
","x: 223.79391479492188
y: 511.8462829589844
z: 0.12885573506355286
visibility: 0.9912904500961304
","x: 245.46095275878906
y: 518.43212890625
z: 0.15686321258544922
visibility: 0.9272353053092957
","x: 226.1033935546875
y: 521.095703125
z: 0.13501490652561188
visibility: 0.8800662755966187
","x: 253.08203125
y: 532.9912109375
z: 0.042805127799510956
visibility: 0.985303521156311
","x: 215.0316619873047
y: 532.5925903320312
z: 0.021100791171193123
visibility: 0.9854410886764526
",5.491355657577515,,,,,,,,,,,,,,,,,,,,,,,,,,,,,,,,,,,,,,,,,,
17,"x: 245.8743133544922
y: 244.71783447265625
z: -0.3072214722633362
visibility: 0.9999814033508301
","x: 247.9800262451172
y: 241.3596954345703
z: -0.29303571581840515
visibility: 0.9999319911003113
","x: 249.32725524902344
y: 241.82461547851562
z: -0.2930322587490082
visibility: 0.9999315738677979
","x: 250.614501953125
y: 242.30206298828125
z: -0.2930387854576111
visibility: 0.9999290704727173
","x: 244.16127014160156
y: 240.8822784423828
z: -0.2952582836151123
visibility: 0.9999368190765381
","x: 243.0257568359375
y: 241.03445434570312
z: -0.2952973544597626
visibility: 0.9999356865882874
","x: 241.8314208984375
y: 241.20504760742188
z: -0.29529061913490295
visibility: 0.9999322295188904
","x: 252.84439086914062
y: 247.43121337890625
z: -0.20002464950084686
visibility: 0.9998281598091125
","x: 240.0908966064453
y: 246.3223114013672
z: -0.18817946314811707
visibility: 0.9998541474342346
","x: 248.8609619140625
y: 253.0982666015625
z: -0.27169308066368103
visibility: 0.9999661445617676
","x: 243.5006561279297
y: 252.5816192626953
z: -0.27508336305618286
visibility: 0.9999662637710571
","x: 264.2565002441406
y: 288.6819763183594
z: -0.13291598856449127
visibility: 0.9999305009841919
","x: 226.46722412109375
y: 286.2144775390625
z: -0.09726326167583466
visibility: 0.9999256730079651
","x: 274.8505554199219
y: 330.0779724121094
z: -0.1162974014878273
visibility: 0.9925915002822876
","x: 218.04888916015625
y: 322.259033203125
z: -0.05300600081682205
visibility: 0.9789486527442932
","x: 268.8011169433594
y: 357.47906494140625
z: -0.2343628704547882
visibility: 0.9838429093360901
","x: 221.0565643310547
y: 353.2020263671875
z: -0.1423322707414627
visibility: 0.9424295425415039
","x: 266.0804138183594
y: 368.6245422363281
z: -0.2675369083881378
visibility: 0.9605588912963867
","x: 221.27891540527344
y: 366.0078125
z: -0.17337211966514587
visibility: 0.8911285400390625
","x: 264.2206115722656
y: 364.4979248046875
z: -0.2934209108352661
visibility: 0.9629915356636047
","x: 224.0949249267578
y: 364.489990234375
z: -0.1965467482805252
visibility: 0.8950380682945251
","x: 264.5494689941406
y: 360.397705078125
z: -0.24613511562347412
visibility: 0.95216304063797
","x: 224.4185028076172
y: 359.1723937988281
z: -0.15380199253559113
visibility: 0.8764034509658813
","x: 255.2676239013672
y: 377.7659912109375
z: -0.006552037782967091
visibility: 0.9995005130767822
","x: 232.7870635986328
y: 376.7359924316406
z: 0.006525331176817417
visibility: 0.9996761679649353
","x: 253.3798065185547
y: 448.2735595703125
z: -0.032331209629774094
visibility: 0.9886106252670288
","x: 227.65118408203125
y: 446.9723815917969
z: -0.02226857654750347
visibility: 0.992537260055542
","x: 248.42095947265625
y: 510.14599609375
z: 0.1497991979122162
visibility: 0.9893981218338013
","x: 223.79391479492188
y: 511.8462829589844
z: 0.12885573506355286
visibility: 0.9912904500961304
","x: 245.46095275878906
y: 518.43212890625
z: 0.15686321258544922
visibility: 0.9272353053092957
","x: 226.1033935546875
y: 521.095703125
z: 0.13501490652561188
visibility: 0.8800662755966187
","x: 253.08203125
y: 532.9912109375
z: 0.042805127799510956
visibility: 0.985303521156311
","x: 215.0316619873047
y: 532.5925903320312
z: 0.021100791171193123
visibility: 0.9854410886764526
",5.491355657577515,,,,,,,,,,,,,,,,,,,,,,,,,,,,,,,,,,,,,,,,,,
18,"x: 242.32904052734375
y: 245.6975555419922
z: -0.30161920189857483
visibility: 0.9999828338623047
","x: 244.4777069091797
y: 241.99114990234375
z: -0.28506338596343994
visibility: 0.9999376535415649
","x: 245.99424743652344
y: 242.33961486816406
z: -0.28511136770248413
visibility: 0.9999373555183411
","x: 247.54946899414062
y: 242.7186737060547
z: -0.2851843237876892
visibility: 0.9999350905418396
","x: 240.5230255126953
y: 241.60696411132812
z: -0.28168898820877075
visibility: 0.999941885471344
","x: 239.28013610839844
y: 241.66806030273438
z: -0.28165075182914734
visibility: 0.9999403357505798
","x: 237.9828338623047
y: 241.739013671875
z: -0.28161710500717163
visibility: 0.9999368190765381
","x: 249.5524444580078
y: 247.45858764648438
z: -0.17933490872383118
visibility: 0.9998440146446228
","x: 235.89697265625
y: 246.740478515625
z: -0.16024518013000488
visibility: 0.9998661875724792
","x: 245.0190887451172
y: 254.0167999267578
z: -0.26046568155288696
visibility: 0.9999690651893616
","x: 239.76844787597656
y: 253.3011016845703
z: -0.2560402452945709
visibility: 0.9999691247940063
","x: 259.9625549316406
y: 286.27532958984375
z: -0.13184018433094025
visibility: 0.999936580657959
","x: 223.00669860839844
y: 286.22186279296875
z: -0.052556972950696945
visibility: 0.9999295473098755
","x: 268.9946594238281
y: 329.573486328125
z: -0.23398271203041077
visibility: 0.9931914806365967
","x: 216.06578063964844
y: 322.97808837890625
z: 0.030476894229650497
visibility: 0.9710326194763184
","x: 249.92189025878906
y: 306.45843505859375
z: -0.4346529543399811
visibility: 0.9851841926574707
","x: 220.3268280029297
y: 358.7227783203125
z: -0.015164618380367756
visibility: 0.9232195615768433
","x: 243.06796264648438
y: 301.8426818847656
z: -0.4801878035068512
visibility: 0.9636693000793457
","x: 221.0491180419922
y: 372.4378967285156
z: -0.032670143991708755
visibility: 0.8643353581428528
","x: 242.71421813964844
y: 295.4024658203125
z: -0.4795358180999756
visibility: 0.965817928314209
","x: 223.3831329345703
y: 371.0592041015625
z: -0.05505276843905449
visibility: 0.868651807308197
","x: 244.37867736816406
y: 296.5500183105469
z: -0.4377591013908386
visibility: 0.9549115300178528
","x: 223.60267639160156
y: 366.2438659667969
z: -0.024706773459911346
visibility: 0.8461650013923645
","x: 253.77725219726562
y: 377.41021728515625
z: -0.011377580463886261
visibility: 0.9995440244674683
","x: 230.5535125732422
y: 377.0090026855469
z: 0.011341392062604427
visibility: 0.9997062087059021
","x: 263.4469299316406
y: 447.90325927734375
z: 0.014647617936134338
visibility: 0.9896180629730225
","x: 225.158203125
y: 446.9888000488281
z: -0.04415183141827583
visibility: 0.9932236075401306
","x: 268.0627746582031
y: 503.6130065917969
z: 0.23098821938037872
visibility: 0.9903144836425781
","x: 222.67259216308594
y: 513.51220703125
z: 0.10681018978357315
visibility: 0.9921045303344727
","x: 264.44390869140625
y: 511.03961181640625
z: 0.24527588486671448
visibility: 0.9283474683761597
","x: 225.47341918945312
y: 522.8553466796875
z: 0.11398579925298691
visibility: 0.8899573087692261
","x: 273.89349365234375
y: 530.212646484375
z: 0.12491115182638168
visibility: 0.986483633518219
","x: 214.58758544921875
y: 533.429931640625
z: -0.011030551977455616
visibility: 0.9867698550224304
",5.652568578720093,,,,,,,,,,,,,,,,,,,,,,,,,,,,,,,,,,,,,,,,,,
19,"x: 242.32904052734375
y: 245.6975555419922
z: -0.30161920189857483
visibility: 0.9999828338623047
","x: 244.4777069091797
y: 241.99114990234375
z: -0.28506338596343994
visibility: 0.9999376535415649
","x: 245.99424743652344
y: 242.33961486816406
z: -0.28511136770248413
visibility: 0.9999373555183411
","x: 247.54946899414062
y: 242.7186737060547
z: -0.2851843237876892
visibility: 0.9999350905418396
","x: 240.5230255126953
y: 241.60696411132812
z: -0.28168898820877075
visibility: 0.999941885471344
","x: 239.28013610839844
y: 241.66806030273438
z: -0.28165075182914734
visibility: 0.9999403357505798
","x: 237.9828338623047
y: 241.739013671875
z: -0.28161710500717163
visibility: 0.9999368190765381
","x: 249.5524444580078
y: 247.45858764648438
z: -0.17933490872383118
visibility: 0.9998440146446228
","x: 235.89697265625
y: 246.740478515625
z: -0.16024518013000488
visibility: 0.9998661875724792
","x: 245.0190887451172
y: 254.0167999267578
z: -0.26046568155288696
visibility: 0.9999690651893616
","x: 239.76844787597656
y: 253.3011016845703
z: -0.2560402452945709
visibility: 0.9999691247940063
","x: 259.9625549316406
y: 286.27532958984375
z: -0.13184018433094025
visibility: 0.999936580657959
","x: 223.00669860839844
y: 286.22186279296875
z: -0.052556972950696945
visibility: 0.9999295473098755
","x: 268.9946594238281
y: 329.573486328125
z: -0.23398271203041077
visibility: 0.9931914806365967
","x: 216.06578063964844
y: 322.97808837890625
z: 0.030476894229650497
visibility: 0.9710326194763184
","x: 249.92189025878906
y: 306.45843505859375
z: -0.4346529543399811
visibility: 0.9851841926574707
","x: 220.3268280029297
y: 358.7227783203125
z: -0.015164618380367756
visibility: 0.9232195615768433
","x: 243.06796264648438
y: 301.8426818847656
z: -0.4801878035068512
visibility: 0.9636693000793457
","x: 221.0491180419922
y: 372.4378967285156
z: -0.032670143991708755
visibility: 0.8643353581428528
","x: 242.71421813964844
y: 295.4024658203125
z: -0.4795358180999756
visibility: 0.965817928314209
","x: 223.3831329345703
y: 371.0592041015625
z: -0.05505276843905449
visibility: 0.868651807308197
","x: 244.37867736816406
y: 296.5500183105469
z: -0.4377591013908386
visibility: 0.9549115300178528
","x: 223.60267639160156
y: 366.2438659667969
z: -0.024706773459911346
visibility: 0.8461650013923645
","x: 253.77725219726562
y: 377.41021728515625
z: -0.011377580463886261
visibility: 0.9995440244674683
","x: 230.5535125732422
y: 377.0090026855469
z: 0.011341392062604427
visibility: 0.9997062087059021
","x: 263.4469299316406
y: 447.90325927734375
z: 0.014647617936134338
visibility: 0.9896180629730225
","x: 225.158203125
y: 446.9888000488281
z: -0.04415183141827583
visibility: 0.9932236075401306
","x: 268.0627746582031
y: 503.6130065917969
z: 0.23098821938037872
visibility: 0.9903144836425781
","x: 222.67259216308594
y: 513.51220703125
z: 0.10681018978357315
visibility: 0.9921045303344727
","x: 264.44390869140625
y: 511.03961181640625
z: 0.24527588486671448
visibility: 0.9283474683761597
","x: 225.47341918945312
y: 522.8553466796875
z: 0.11398579925298691
visibility: 0.8899573087692261
","x: 273.89349365234375
y: 530.212646484375
z: 0.12491115182638168
visibility: 0.986483633518219
","x: 214.58758544921875
y: 533.429931640625
z: -0.011030551977455616
visibility: 0.9867698550224304
",5.652568578720093,,,,,,,,,,,,,,,,,,,,,,,,,,,,,,,,,,,,,,,,,,
20,"x: 243.0103759765625
y: 244.58779907226562
z: -0.12921090424060822
visibility: 0.9999817609786987
","x: 244.72128295898438
y: 240.51658630371094
z: -0.1167178750038147
visibility: 0.9999377727508545
","x: 246.06121826171875
y: 240.40200805664062
z: -0.11677549034357071
visibility: 0.999937891960144
","x: 247.39019775390625
y: 240.4417724609375
z: -0.1168012022972107
visibility: 0.9999351501464844
","x: 241.14134216308594
y: 241.52235412597656
z: -0.11217162758111954
visibility: 0.9999396800994873
","x: 240.10333251953125
y: 241.69493103027344
z: -0.11213067919015884
visibility: 0.9999351501464844
","x: 239.04656982421875
y: 242.01943969726562
z: -0.11213071644306183
visibility: 0.9999286532402039
","x: 249.5242919921875
y: 244.59669494628906
z: -0.033793505281209946
visibility: 0.9998525977134705
","x: 237.56668090820312
y: 246.738037109375
z: -0.010499661788344383
visibility: 0.999863862991333
","x: 246.29888916015625
y: 250.16680908203125
z: -0.096673883497715
visibility: 0.999966561794281
","x: 241.21630859375
y: 252.33995056152344
z: -0.09051956236362457
visibility: 0.9999648928642273
","x: 260.3768005371094
y: 275.7578430175781
z: -0.029337039217352867
visibility: 0.9999389052391052
","x: 224.90589904785156
y: 280.7161865234375
z: 0.050710201263427734
visibility: 0.9999257326126099
","x: 259.15386962890625
y: 297.7650146484375
z: -0.18375980854034424
visibility: 0.9921900629997253
","x: 223.72447204589844
y: 320.3166198730469
z: 0.053245335817337036
visibility: 0.9227393865585327
","x: 238.9337158203125
y: 261.68878173828125
z: -0.35485124588012695
visibility: 0.9853034019470215
","x: 224.0068817138672
y: 357.81939697265625
z: -0.03288014233112335
visibility: 0.8782779574394226
","x: 233.66871643066406
y: 255.05380249023438
z: -0.3968335688114166
visibility: 0.9648621082305908
","x: 220.93743896484375
y: 371.84161376953125
z: -0.05458882451057434
visibility: 0.8224172592163086
","x: 234.29458618164062
y: 250.74928283691406
z: -0.3929792642593384
visibility: 0.966641902923584
","x: 223.92279052734375
y: 370.537353515625
z: -0.07780647277832031
visibility: 0.8277682662010193
","x: 236.04977416992188
y: 253.2127685546875
z: -0.35773223638534546
visibility: 0.9549036622047424
","x: 224.98947143554688
y: 367.6839904785156
z: -0.04528730362653732
visibility: 0.8054323196411133
","x: 254.29220581054688
y: 375.58734130859375
z: -0.015356090851128101
visibility: 0.9995880126953125
","x: 231.54322814941406
y: 375.9729309082031
z: 0.015274196863174438
visibility: 0.9997339248657227
","x: 268.960205078125
y: 448.1134338378906
z: -0.0047217728570103645
visibility: 0.9905530214309692
","x: 226.7901153564453
y: 447.3621826171875
z: -0.011979577131569386
visibility: 0.9938440918922424
","x: 282.8563537597656
y: 505.0338134765625
z: 0.21295063197612762
visibility: 0.9911404252052307
","x: 222.50172424316406
y: 514.250244140625
z: 0.1205497533082962
visibility: 0.992836594581604
","x: 281.7933349609375
y: 512.9526977539062
z: 0.21767380833625793
visibility: 0.928386390209198
","x: 225.28675842285156
y: 523.013671875
z: 0.1279720962047577
visibility: 0.8984230160713196
","x: 287.11688232421875
y: 531.6707763671875
z: 0.09074819087982178
visibility: 0.9875307679176331
","x: 214.63925170898438
y: 533.8458862304688
z: 0.018791940063238144
visibility: 0.9879242777824402
",5.792413711547852,,,,,,,,,,,,,,,,,,,,,,,,,,,,,,,,,,,,,,,,,,
21,"x: 243.0103759765625
y: 244.58779907226562
z: -0.12921090424060822
visibility: 0.9999817609786987
","x: 244.72128295898438
y: 240.51658630371094
z: -0.1167178750038147
visibility: 0.9999377727508545
","x: 246.06121826171875
y: 240.40200805664062
z: -0.11677549034357071
visibility: 0.999937891960144
","x: 247.39019775390625
y: 240.4417724609375
z: -0.1168012022972107
visibility: 0.9999351501464844
","x: 241.14134216308594
y: 241.52235412597656
z: -0.11217162758111954
visibility: 0.9999396800994873
","x: 240.10333251953125
y: 241.69493103027344
z: -0.11213067919015884
visibility: 0.9999351501464844
","x: 239.04656982421875
y: 242.01943969726562
z: -0.11213071644306183
visibility: 0.9999286532402039
","x: 249.5242919921875
y: 244.59669494628906
z: -0.033793505281209946
visibility: 0.9998525977134705
","x: 237.56668090820312
y: 246.738037109375
z: -0.010499661788344383
visibility: 0.999863862991333
","x: 246.29888916015625
y: 250.16680908203125
z: -0.096673883497715
visibility: 0.999966561794281
","x: 241.21630859375
y: 252.33995056152344
z: -0.09051956236362457
visibility: 0.9999648928642273
","x: 260.3768005371094
y: 275.7578430175781
z: -0.029337039217352867
visibility: 0.9999389052391052
","x: 224.90589904785156
y: 280.7161865234375
z: 0.050710201263427734
visibility: 0.9999257326126099
","x: 259.15386962890625
y: 297.7650146484375
z: -0.18375980854034424
visibility: 0.9921900629997253
","x: 223.72447204589844
y: 320.3166198730469
z: 0.053245335817337036
visibility: 0.9227393865585327
","x: 238.9337158203125
y: 261.68878173828125
z: -0.35485124588012695
visibility: 0.9853034019470215
","x: 224.0068817138672
y: 357.81939697265625
z: -0.03288014233112335
visibility: 0.8782779574394226
","x: 233.66871643066406
y: 255.05380249023438
z: -0.3968335688114166
visibility: 0.9648621082305908
","x: 220.93743896484375
y: 371.84161376953125
z: -0.05458882451057434
visibility: 0.8224172592163086
","x: 234.29458618164062
y: 250.74928283691406
z: -0.3929792642593384
visibility: 0.966641902923584
","x: 223.92279052734375
y: 370.537353515625
z: -0.07780647277832031
visibility: 0.8277682662010193
","x: 236.04977416992188
y: 253.2127685546875
z: -0.35773223638534546
visibility: 0.9549036622047424
","x: 224.98947143554688
y: 367.6839904785156
z: -0.04528730362653732
visibility: 0.8054323196411133
","x: 254.29220581054688
y: 375.58734130859375
z: -0.015356090851128101
visibility: 0.9995880126953125
","x: 231.54322814941406
y: 375.9729309082031
z: 0.015274196863174438
visibility: 0.9997339248657227
","x: 268.960205078125
y: 448.1134338378906
z: -0.0047217728570103645
visibility: 0.9905530214309692
","x: 226.7901153564453
y: 447.3621826171875
z: -0.011979577131569386
visibility: 0.9938440918922424
","x: 282.8563537597656
y: 505.0338134765625
z: 0.21295063197612762
visibility: 0.9911404252052307
","x: 222.50172424316406
y: 514.250244140625
z: 0.1205497533082962
visibility: 0.992836594581604
","x: 281.7933349609375
y: 512.9526977539062
z: 0.21767380833625793
visibility: 0.928386390209198
","x: 225.28675842285156
y: 523.013671875
z: 0.1279720962047577
visibility: 0.8984230160713196
","x: 287.11688232421875
y: 531.6707763671875
z: 0.09074819087982178
visibility: 0.9875307679176331
","x: 214.63925170898438
y: 533.8458862304688
z: 0.018791940063238144
visibility: 0.9879242777824402
",5.792413711547852,,,,,,,,,,,,,,,,,,,,,,,,,,,,,,,,,,,,,,,,,,
22,"x: 244.33973693847656
y: 244.19044494628906
z: -0.20280668139457703
visibility: 0.9999802112579346
","x: 245.92037963867188
y: 239.82057189941406
z: -0.19115068018436432
visibility: 0.9999352693557739
","x: 247.3368682861328
y: 239.81060791015625
z: -0.19118568301200867
visibility: 0.9999364018440247
","x: 248.67979431152344
y: 239.94189453125
z: -0.1911601424217224
visibility: 0.9999318718910217
","x: 241.23455810546875
y: 240.16622924804688
z: -0.18399715423583984
visibility: 0.9999372363090515
","x: 240.9329833984375
y: 240.11456298828125
z: -0.18398606777191162
visibility: 0.9999311566352844
","x: 240.62673950195312
y: 240.1219482421875
z: -0.18399561941623688
visibility: 0.9999207258224487
","x: 250.49855041503906
y: 243.95379638671875
z: -0.11238066107034683
visibility: 0.9998565316200256
","x: 241.43658447265625
y: 244.6083984375
z: -0.07654079049825668
visibility: 0.9998604655265808
","x: 247.36944580078125
y: 250.06451416015625
z: -0.17255011200904846
visibility: 0.9999585747718811
","x: 241.9564208984375
y: 250.8522186279297
z: -0.16249290108680725
visibility: 0.999954879283905
","x: 261.47784423828125
y: 271.50640869140625
z: -0.12574857473373413
visibility: 0.9999297261238098
","x: 233.718017578125
y: 280.1476745605469
z: -0.001030294573865831
visibility: 0.9999057650566101
","x: 251.43467712402344
y: 256.7596130371094
z: -0.33688604831695557
visibility: 0.9923295974731445
","x: 236.35501098632812
y: 320.0435791015625
z: 0.045651283115148544
visibility: 0.87046879529953
","x: 230.2484893798828
y: 225.10470581054688
z: -0.5110651850700378
visibility: 0.9862136244773865
","x: 227.46722412109375
y: 360.35455322265625
z: 0.011311893351376057
visibility: 0.8290073275566101
","x: 224.50204467773438
y: 219.9716033935547
z: -0.5602635145187378
visibility: 0.9671944379806519
","x: 223.2933807373047
y: 374.2158508300781
z: -0.0029195034876465797
visibility: 0.7767707705497742
","x: 224.2906494140625
y: 218.66326904296875
z: -0.5555047988891602
visibility: 0.9686911702156067
","x: 225.2233428955078
y: 366.3278503417969
z: -0.034170061349868774
visibility: 0.7829274535179138
","x: 226.35105895996094
y: 220.89479064941406
z: -0.5150330662727356
visibility: 0.957085371017456
","x: 226.37001037597656
y: 370.10614013671875
z: -0.003395642386749387
visibility: 0.7603963017463684
","x: 258.6396179199219
y: 375.1174621582031
z: -0.024432126432657242
visibility: 0.9996271133422852
","x: 236.82225036621094
y: 375.9737548828125
z: 0.02429104410111904
visibility: 0.9997578859329224
","x: 271.31903076171875
y: 447.867919921875
z: -0.014534940011799335
visibility: 0.9913792014122009
","x: 228.24813842773438
y: 447.6981201171875
z: -0.007512086536735296
visibility: 0.9944102764129639
","x: 284.7162780761719
y: 505.72772216796875
z: 0.18348164856433868
visibility: 0.991745114326477
","x: 222.29393005371094
y: 514.594970703125
z: 0.12071700394153595
visibility: 0.9934632778167725
","x: 284.04217529296875
y: 512.8199462890625
z: 0.19371898472309113
visibility: 0.9231432676315308
","x: 224.94186401367188
y: 523.11669921875
z: 0.12789064645767212
visibility: 0.9050843119621277
","x: 287.1805114746094
y: 531.9374389648438
z: 0.07891063392162323
visibility: 0.9882209897041321
","x: 214.6217041015625
y: 533.7872314453125
z: 0.015343746170401573
visibility: 0.9889161586761475
",5.935285329818726,,,,,,,,,,,,,,,,,,,,,,,,,,,,,,,,,,,,,,,,,,
23,"x: 244.33973693847656
y: 244.19044494628906
z: -0.20280668139457703
visibility: 0.9999802112579346
","x: 245.92037963867188
y: 239.82057189941406
z: -0.19115068018436432
visibility: 0.9999352693557739
","x: 247.3368682861328
y: 239.81060791015625
z: -0.19118568301200867
visibility: 0.9999364018440247
","x: 248.67979431152344
y: 239.94189453125
z: -0.1911601424217224
visibility: 0.9999318718910217
","x: 241.23455810546875
y: 240.16622924804688
z: -0.18399715423583984
visibility: 0.9999372363090515
","x: 240.9329833984375
y: 240.11456298828125
z: -0.18398606777191162
visibility: 0.9999311566352844
","x: 240.62673950195312
y: 240.1219482421875
z: -0.18399561941623688
visibility: 0.9999207258224487
","x: 250.49855041503906
y: 243.95379638671875
z: -0.11238066107034683
visibility: 0.9998565316200256
","x: 241.43658447265625
y: 244.6083984375
z: -0.07654079049825668
visibility: 0.9998604655265808
","x: 247.36944580078125
y: 250.06451416015625
z: -0.17255011200904846
visibility: 0.9999585747718811
","x: 241.9564208984375
y: 250.8522186279297
z: -0.16249290108680725
visibility: 0.999954879283905
","x: 261.47784423828125
y: 271.50640869140625
z: -0.12574857473373413
visibility: 0.9999297261238098
","x: 233.718017578125
y: 280.1476745605469
z: -0.001030294573865831
visibility: 0.9999057650566101
","x: 251.43467712402344
y: 256.7596130371094
z: -0.33688604831695557
visibility: 0.9923295974731445
","x: 236.35501098632812
y: 320.0435791015625
z: 0.045651283115148544
visibility: 0.87046879529953
","x: 230.2484893798828
