uscmakers/ReverseChoreography/data/10_sad_girlz_luv_money_amaarae.csv
,NOSE,LEFT_EYE_INNER,LEFT_EYE,LEFT_EYE_OUTER,RIGHT_EYE_INNER,RIGHT_EYE,RIGHT_EYE_OUTER,LEFT_EAR,RIGHT_EAR,MOUTH_LEFT,MOUTH_RIGHT,LEFT_SHOULDER,RIGHT_SHOULDER,LEFT_ELBOW,RIGHT_ELBOW,LEFT_WRIST,RIGHT_WRIST,LEFT_PINKY,RIGHT_PINKY,LEFT_INDEX,RIGHT_INDEX,LEFT_THUMB,RIGHT_THUMB,LEFT_HIP,RIGHT_HIP,LEFT_KNEE,RIGHT_KNEE,LEFT_ANKLE,RIGHT_ANKLE,LEFT_HEEL,RIGHT_HEEL,LEFT_FOOT_INDEX,RIGHT_FOOT_INDEX,TIMESTAMP,WRIST,THUMB_CPC,THUMB_MCP,THUMB_IP,THUMB_TIP,INDEX_FINGER_MCP,INDEX_FINGER_PIP,INDEX_FINGER_DIP,INDEX_FINGER_TIP,MIDDLE_FINGER_MCP,MIDDLE_FINGER_PIP,MIDDLE_FINGER_DIP,MIDDLE_FINGER_TIP,RING_FINGER_PIP,RING_FINGER_DIP,RING_FINGER_TIP,RING_FINGER_MCP,PINKY_MCP,PINKY_PIP,PINKY_DIP,PINKY_TIP,WRIST2,THUMB_CPC2,THUMB_MCP2,THUMB_IP2,THUMB_TIP2,INDEX_FINGER_MCP2,INDEX_FINGER_PIP2,INDEX_FINGER_DIP2,INDEX_FINGER_TIP2,MIDDLE_FINGER_MCP2,MIDDLE_FINGER_PIP2,MIDDLE_FINGER_DIP2,MIDDLE_FINGER_TIP2,RING_FINGER_PIP2,RING_FINGER_DIP2,RING_FINGER_TIP2,RING_FINGER_MCP2,PINKY_MCP2,PINKY_PIP2,PINKY_DIP2,PINKY_TIP2
0,"x: 287.6114807128906
y: 357.61370849609375
z: -0.19265852868556976
visibility: 0.9999876022338867
","x: 289.8045349121094
y: 353.6639404296875
z: -0.16980095207691193
visibility: 0.9999924898147583
","x: 290.1155090332031
y: 354.26641845703125
z: -0.16982516646385193
visibility: 0.9999916553497314
","x: 290.4527587890625
y: 354.8983459472656
z: -0.1698487550020218
visibility: 0.9999830722808838
","x: 288.2009582519531
y: 351.4830322265625
z: -0.18971511721611023
visibility: 0.999992847442627
","x: 287.27587890625
y: 350.30694580078125
z: -0.18981358408927917
visibility: 0.9999943971633911
","x: 286.278076171875
y: 348.9736633300781
z: -0.1898026466369629
visibility: 0.9999942779541016
","x: 288.01580810546875
y: 356.0057067871094
z: -0.0600949302315712
visibility: 0.9999654293060303
","x: 281.8895568847656
y: 347.0887451171875
z: -0.1475420594215393
visibility: 0.9999945163726807
","x: 284.65093994140625
y: 363.39483642578125
z: -0.15076221525669098
visibility: 0.9999226331710815
","x: 282.8178405761719
y: 361.1844482421875
z: -0.17617163062095642
visibility: 0.999955415725708
","x: 266.3631896972656
y: 371.201416015625
z: 0.09617257863283157
visibility: 0.9993896484375
","x: 267.66766357421875
y: 367.43060302734375
z: -0.20354576408863068
visibility: 0.9999713897705078
","x: 254.26907348632812
y: 415.3108215332031
z: 0.13327699899673462
visibility: 0.03831600025296211
","x: 254.9485626220703
y: 412.4561767578125
z: -0.17836830019950867
visibility: 0.8214937448501587
","x: 249.08297729492188
y: 447.35723876953125
z: 0.03805623948574066
visibility: 0.04718304052948952
","x: 254.29266357421875
y: 432.5587463378906
z: -0.04947769641876221
visibility: 0.4995943009853363
","x: 247.72584533691406
y: 461.6406555175781
z: 0.03381238877773285
visibility: 0.05290721356868744
","x: 253.00389099121094
y: 436.39697265625
z: -0.05933528393507004
visibility: 0.43392542004585266
","x: 247.14468383789062
y: 459.32232666015625
z: 0.010072288103401661
visibility: 0.05755488574504852
","x: 252.86244201660156
y: 437.5215148925781
z: -0.06404455751180649
visibility: 0.44293856620788574
","x: 247.39743041992188
y: 455.20361328125
z: 0.023563459515571594
visibility: 0.06328843533992767
","x: 252.96524047851562
y: 434.4361572265625
z: -0.04732488468289375
visibility: 0.445205956697464
","x: 218.5813751220703
y: 399.7515869140625
z: 0.10142481327056885
visibility: 0.9995483756065369
","x: 220.74191284179688
y: 401.25299072265625
z: -0.10138082504272461
visibility: 0.9999114274978638
","x: 248.77859497070312
y: 449.01959228515625
z: 0.2058592289686203
visibility: 0.43540307879447937
","x: 249.03225708007812
y: 455.1131591796875
z: -0.10143408924341202
visibility: 0.9937474727630615
","x: 242.7845458984375
y: 509.248046875
z: 0.31094226241111755
visibility: 0.6318559646606445
","x: 239.369384765625
y: 529.2804565429688
z: -0.04833033308386803
visibility: 0.9911858439445496
","x: 238.01121520996094
y: 519.46728515625
z: 0.3186858892440796
visibility: 0.5631654858589172
","x: 232.2205047607422
y: 542.8759155273438
z: -0.04546203091740608
visibility: 0.9753290414810181
","x: 260.1694030761719
y: 521.1549682617188
z: 0.30069857835769653
visibility: 0.7439897656440735
","x: 257.8678283691406
y: 539.4690551757812
z: -0.090715192258358
visibility: 0.9876683354377747
",3.945390224456787,,,,,,,,,,,,,,,,,,,,,,,,,,,,,,,,,,,,,,,,,,
1,"x: 287.6114807128906
y: 357.61370849609375
z: -0.19265852868556976
visibility: 0.9999876022338867
","x: 289.8045349121094
y: 353.6639404296875
z: -0.16980095207691193
visibility: 0.9999924898147583
","x: 290.1155090332031
y: 354.26641845703125
z: -0.16982516646385193
visibility: 0.9999916553497314
","x: 290.4527587890625
y: 354.8983459472656
z: -0.1698487550020218
visibility: 0.9999830722808838
","x: 288.2009582519531
y: 351.4830322265625
z: -0.18971511721611023
visibility: 0.999992847442627
","x: 287.27587890625
y: 350.30694580078125
z: -0.18981358408927917
visibility: 0.9999943971633911
","x: 286.278076171875
y: 348.9736633300781
z: -0.1898026466369629
visibility: 0.9999942779541016
","x: 288.01580810546875
y: 356.0057067871094
z: -0.0600949302315712
visibility: 0.9999654293060303
","x: 281.8895568847656
y: 347.0887451171875
z: -0.1475420594215393
visibility: 0.9999945163726807
","x: 284.65093994140625
y: 363.39483642578125
z: -0.15076221525669098
visibility: 0.9999226331710815
","x: 282.8178405761719
y: 361.1844482421875
z: -0.17617163062095642
visibility: 0.999955415725708
","x: 266.3631896972656
y: 371.201416015625
z: 0.09617257863283157
visibility: 0.9993896484375
","x: 267.66766357421875
y: 367.43060302734375
z: -0.20354576408863068
visibility: 0.9999713897705078
","x: 254.26907348632812
y: 415.3108215332031
z: 0.13327699899673462
visibility: 0.03831600025296211
","x: 254.9485626220703
y: 412.4561767578125
z: -0.17836830019950867
visibility: 0.8214937448501587
","x: 249.08297729492188
y: 447.35723876953125
z: 0.03805623948574066
visibility: 0.04718304052948952
","x: 254.29266357421875
y: 432.5587463378906
z: -0.04947769641876221
visibility: 0.4995943009853363
","x: 247.72584533691406
y: 461.6406555175781
z: 0.03381238877773285
visibility: 0.05290721356868744
","x: 253.00389099121094
y: 436.39697265625
z: -0.05933528393507004
visibility: 0.43392542004585266
","x: 247.14468383789062
y: 459.32232666015625
z: 0.010072288103401661
visibility: 0.05755488574504852
","x: 252.86244201660156
y: 437.5215148925781
z: -0.06404455751180649
visibility: 0.44293856620788574
","x: 247.39743041992188
y: 455.20361328125
z: 0.023563459515571594
visibility: 0.06328843533992767
","x: 252.96524047851562
y: 434.4361572265625
z: -0.04732488468289375
visibility: 0.445205956697464
","x: 218.5813751220703
y: 399.7515869140625
z: 0.10142481327056885
visibility: 0.9995483756065369
","x: 220.74191284179688
y: 401.25299072265625
z: -0.10138082504272461
visibility: 0.9999114274978638
","x: 248.77859497070312
y: 449.01959228515625
z: 0.2058592289686203
visibility: 0.43540307879447937
","x: 249.03225708007812
y: 455.1131591796875
z: -0.10143408924341202
visibility: 0.9937474727630615
","x: 242.7845458984375
y: 509.248046875
z: 0.31094226241111755
visibility: 0.6318559646606445
","x: 239.369384765625
y: 529.2804565429688
z: -0.04833033308386803
visibility: 0.9911858439445496
","x: 238.01121520996094
y: 519.46728515625
z: 0.3186858892440796
visibility: 0.5631654858589172
","x: 232.2205047607422
y: 542.8759155273438
z: -0.04546203091740608
visibility: 0.9753290414810181
","x: 260.1694030761719
y: 521.1549682617188
z: 0.30069857835769653
visibility: 0.7439897656440735
","x: 257.8678283691406
y: 539.4690551757812
z: -0.090715192258358
visibility: 0.9876683354377747
",3.945390224456787,,,,,,,,,,,,,,,,,,,,,,,,,,,,,,,,,,,,,,,,,,
2,"x: 287.9893493652344
y: 357.9849548339844
z: -0.09992243349552155
visibility: 0.9999750256538391
","x: 289.8096923828125
y: 354.09722900390625
z: -0.0848035216331482
visibility: 0.9999855160713196
","x: 290.0987548828125
y: 354.5942687988281
z: -0.0848228856921196
visibility: 0.9999850392341614
","x: 290.35858154296875
y: 355.1496887207031
z: -0.08484059572219849
visibility: 0.99997478723526
","x: 288.3542175292969
y: 352.55517578125
z: -0.10940009355545044
visibility: 0.9999873042106628
","x: 287.4920654296875
y: 351.79205322265625
z: -0.10949478298425674
visibility: 0.9999898672103882
","x: 286.57757568359375
y: 350.8338623046875
z: -0.10951393842697144
visibility: 0.9999901652336121
","x: 287.7493896484375
y: 356.0879211425781
z: -0.00875343382358551
visibility: 0.9999539256095886
","x: 282.3940124511719
y: 349.1914367675781
z: -0.11749432235956192
visibility: 0.9999912977218628
","x: 284.87371826171875
y: 363.3975524902344
z: -0.0699278861284256
visibility: 0.999908447265625
","x: 283.31341552734375
y: 361.5504455566406
z: -0.10163266956806183
visibility: 0.9999465346336365
","x: 266.46856689453125
y: 370.4450988769531
z: 0.10902448743581772
visibility: 0.999315619468689
","x: 269.3120422363281
y: 368.6291809082031
z: -0.18437883257865906
visibility: 0.9999690651893616
","x: 256.9792785644531
y: 416.9677429199219
z: 0.13323579728603363
visibility: 0.039071522653102875
","x: 261.58624267578125
y: 416.05999755859375
z: -0.14333033561706543
visibility: 0.8286190032958984
","x: 251.24917602539062
y: 444.54669189453125
z: 0.056616753339767456
visibility: 0.04619786888360977
","x: 254.7828826904297
y: 437.97894287109375
z: 0.018982650712132454
visibility: 0.5073018670082092
","x: 251.09266662597656
y: 451.0037841796875
z: 0.05692460387945175
visibility: 0.051572222262620926
","x: 253.3299560546875
y: 441.793212890625
z: 0.01601429656147957
visibility: 0.4412711560726166
","x: 250.59640502929688
y: 448.15673828125
z: 0.03699413686990738
visibility: 0.056155554950237274
","x: 253.1044921875
y: 440.4908752441406
z: 0.01601768471300602
visibility: 0.44941163063049316
","x: 249.96127319335938
y: 448.27703857421875
z: 0.04450218752026558
visibility: 0.0621187724173069
","x: 253.22012329101562
y: 439.7744140625
z: 0.023772981017827988
visibility: 0.45109227299690247
","x: 220.25624084472656
y: 398.2057189941406
z: 0.09668062627315521
visibility: 0.9995026588439941
","x: 221.32667541503906
y: 402.13134765625
z: -0.09660175442695618
visibility: 0.9998916983604431
","x: 249.40203857421875
y: 447.2655029296875
z: 0.16395939886569977
visibility: 0.4360466003417969
","x: 249.04620361328125
y: 455.0985412597656
z: -0.08645637333393097
visibility: 0.9932624697685242
","x: 242.8013458251953
y: 509.26416015625
z: 0.24018721282482147
visibility: 0.6295644044876099
","x: 239.1708984375
y: 528.467041015625
z: -0.025445008650422096
visibility: 0.9907617568969727
","x: 238.07632446289062
y: 519.3007202148438
z: 0.24582283198833466
visibility: 0.5656326413154602
","x: 232.4845733642578
y: 541.182861328125
z: -0.0211581252515316
visibility: 0.9747370481491089
","x: 259.5771484375
y: 521.5549926757812
z: 0.22538498044013977
visibility: 0.7407911419868469
","x: 257.0921936035156
y: 539.445556640625
z: -0.06333591789007187
visibility: 0.9868952631950378
",4.538224697113037,,,,,,,,,,,,,,,,,,,,,,,,,,,,,,,,,,,,,,,,,,
3,"x: 287.9893493652344
y: 357.9849548339844
z: -0.09992243349552155
visibility: 0.9999750256538391
","x: 289.8096923828125
y: 354.09722900390625
z: -0.0848035216331482
visibility: 0.9999855160713196
","x: 290.0987548828125
y: 354.5942687988281
z: -0.0848228856921196
visibility: 0.9999850392341614
","x: 290.35858154296875
y: 355.1496887207031
z: -0.08484059572219849
visibility: 0.99997478723526
","x: 288.3542175292969
y: 352.55517578125
z: -0.10940009355545044
visibility: 0.9999873042106628
","x: 287.4920654296875
y: 351.79205322265625
z: -0.10949478298425674
visibility: 0.9999898672103882
","x: 286.57757568359375
y: 350.8338623046875
z: -0.10951393842697144
visibility: 0.9999901652336121
","x: 287.7493896484375
y: 356.0879211425781
z: -0.00875343382358551
visibility: 0.9999539256095886
","x: 282.3940124511719
y: 349.1914367675781
z: -0.11749432235956192
visibility: 0.9999912977218628
","x: 284.87371826171875
y: 363.3975524902344
z: -0.0699278861284256
visibility: 0.999908447265625
","x: 283.31341552734375
y: 361.5504455566406
z: -0.10163266956806183
visibility: 0.9999465346336365
","x: 266.46856689453125
y: 370.4450988769531
z: 0.10902448743581772
visibility: 0.999315619468689
","x: 269.3120422363281
y: 368.6291809082031
z: -0.18437883257865906
visibility: 0.9999690651893616
","x: 256.9792785644531
y: 416.9677429199219
z: 0.13323579728603363
visibility: 0.039071522653102875
","x: 261.58624267578125
y: 416.05999755859375
z: -0.14333033561706543
visibility: 0.8286190032958984
","x: 251.24917602539062
y: 444.54669189453125
z: 0.056616753339767456
visibility: 0.04619786888360977
","x: 254.7828826904297
y: 437.97894287109375
z: 0.018982650712132454
visibility: 0.5073018670082092
","x: 251.09266662597656
y: 451.0037841796875
z: 0.05692460387945175
visibility: 0.051572222262620926
","x: 253.3299560546875
y: 441.793212890625
z: 0.01601429656147957
visibility: 0.4412711560726166
","x: 250.59640502929688
y: 448.15673828125
z: 0.03699413686990738
visibility: 0.056155554950237274
","x: 253.1044921875
y: 440.4908752441406
z: 0.01601768471300602
visibility: 0.44941163063049316
","x: 249.96127319335938
y: 448.27703857421875
z: 0.04450218752026558
visibility: 0.0621187724173069
","x: 253.22012329101562
y: 439.7744140625
z: 0.023772981017827988
visibility: 0.45109227299690247
","x: 220.25624084472656
y: 398.2057189941406
z: 0.09668062627315521
visibility: 0.9995026588439941
","x: 221.32667541503906
y: 402.13134765625
z: -0.09660175442695618
visibility: 0.9998916983604431
","x: 249.40203857421875
y: 447.2655029296875
z: 0.16395939886569977
visibility: 0.4360466003417969
","x: 249.04620361328125
y: 455.0985412597656
z: -0.08645637333393097
visibility: 0.9932624697685242
","x: 242.8013458251953
y: 509.26416015625
z: 0.24018721282482147
visibility: 0.6295644044876099
","x: 239.1708984375
y: 528.467041015625
z: -0.025445008650422096
visibility: 0.9907617568969727
","x: 238.07632446289062
y: 519.3007202148438
z: 0.24582283198833466
visibility: 0.5656326413154602
","x: 232.4845733642578
y: 541.182861328125
z: -0.0211581252515316
visibility: 0.9747370481491089
","x: 259.5771484375
y: 521.5549926757812
z: 0.22538498044013977
visibility: 0.7407911419868469
","x: 257.0921936035156
y: 539.445556640625
z: -0.06333591789007187
visibility: 0.9868952631950378
",4.538224697113037,,,,,,,,,,,,,,,,,,,,,,,,,,,,,,,,,,,,,,,,,,
4,"x: 288.4092102050781
y: 356.33380126953125
z: -0.1140880435705185
visibility: 0.9999697208404541
","x: 289.8949279785156
y: 352.9980163574219
z: -0.09798331558704376
visibility: 0.9999815821647644
","x: 290.11749267578125
y: 353.553466796875
z: -0.09799949824810028
visibility: 0.9999815821647644
","x: 290.35650634765625
y: 354.1412048339844
z: -0.09800533950328827
visibility: 0.999969482421875
","x: 288.6632385253906
y: 351.11083984375
z: -0.12154817581176758
visibility: 0.9999845623970032
","x: 287.8586120605469
y: 350.19097900390625
z: -0.12164481729269028
visibility: 0.9999879598617554
","x: 287.0002136230469
y: 349.1311950683594
z: -0.12164813280105591
visibility: 0.999988317489624
","x: 287.7180480957031
y: 354.91064453125
z: -0.01597127690911293
visibility: 0.9999470114707947
","x: 282.6997985839844
y: 348.14813232421875
z: -0.12019691616296768
visibility: 0.999989926815033
","x: 285.1556701660156
y: 361.4980773925781
z: -0.08209705352783203
visibility: 0.9999024868011475
","x: 283.6851806640625
y: 359.55218505859375
z: -0.11240500211715698
visibility: 0.9999433159828186
","x: 267.1719665527344
y: 369.7605895996094
z: 0.10676325857639313
visibility: 0.9992360472679138
","x: 269.17926025390625
y: 363.02496337890625
z: -0.18270273506641388
visibility: 0.9999681711196899
","x: 259.695068359375
y: 416.89410400390625
z: 0.13306741416454315
visibility: 0.040381304919719696
","x: 260.0070495605469
y: 413.7826232910156
z: -0.14514407515525818
visibility: 0.8391968607902527
","x: 253.99961853027344
y: 439.11151123046875
z: 0.056752752512693405
visibility: 0.04508954659104347
","x: 256.3738098144531
y: 437.7794189453125
z: 0.0067571536637842655
visibility: 0.5260393023490906
","x: 253.9419403076172
y: 443.7115173339844
z: 0.05651099607348442
visibility: 0.05012029409408569
","x: 254.7294921875
y: 440.98455810546875
z: 0.0024165306240320206
visibility: 0.4584701359272003
","x: 253.0199432373047
y: 441.29595947265625
z: 0.03613201156258583
visibility: 0.054703488945961
","x: 253.59352111816406
y: 440.2791748046875
z: 0.0017823586240410805
visibility: 0.4663834571838379
","x: 252.10061645507812
y: 442.04345703125
z: 0.0445869043469429
visibility: 0.060759902000427246
","x: 253.61331176757812
y: 439.0336608886719
z: 0.011218634434044361
visibility: 0.4666866660118103
","x: 221.91299438476562
y: 397.5668029785156
z: 0.09397561103105545
visibility: 0.999370813369751
","x: 221.43536376953125
y: 402.1220397949219
z: -0.09385055303573608
visibility: 0.9998652338981628
","x: 250.22889709472656
y: 446.50213623046875
z: 0.14518894255161285
visibility: 0.44297537207603455
","x: 249.09788513183594
y: 454.7747497558594
z: -0.10000202804803848
visibility: 0.9931662678718567
","x: 242.95401000976562
y: 509.2642517089844
z: 0.21301475167274475
visibility: 0.6332767009735107
","x: 238.90919494628906
y: 527.980224609375
z: -0.0567457377910614
visibility: 0.9907392859458923
","x: 238.2047882080078
y: 518.53564453125
z: 0.21755632758140564
visibility: 0.5715421438217163
","x: 232.48690795898438
y: 540.22265625
z: -0.054366402328014374
visibility: 0.9750336408615112
","x: 259.4278869628906
y: 522.291015625
z: 0.1947227567434311
visibility: 0.7417819499969482
","x: 256.52838134765625
y: 539.2846069335938
z: -0.09747590124607086
visibility: 0.9867211580276489
",4.685832977294922,,,,,,,,,,,,,,,,,,,,,,,,,,,,,,,,,,,,,,,,,,
5,"x: 288.4092102050781
y: 356.33380126953125
z: -0.1140880435705185
visibility: 0.9999697208404541
","x: 289.8949279785156
y: 352.9980163574219
z: -0.09798331558704376
visibility: 0.9999815821647644
","x: 290.11749267578125
y: 353.553466796875
z: -0.09799949824810028
visibility: 0.9999815821647644
","x: 290.35650634765625
y: 354.1412048339844
z: -0.09800533950328827
visibility: 0.999969482421875
","x: 288.6632385253906
y: 351.11083984375
z: -0.12154817581176758
visibility: 0.9999845623970032
","x: 287.8586120605469
y: 350.19097900390625
z: -0.12164481729269028
visibility: 0.9999879598617554
","x: 287.0002136230469
y: 349.1311950683594
z: -0.12164813280105591
visibility: 0.999988317489624
","x: 287.7180480957031
y: 354.91064453125
z: -0.01597127690911293
visibility: 0.9999470114707947
","x: 282.6997985839844
y: 348.14813232421875
z: -0.12019691616296768
visibility: 0.999989926815033
","x: 285.1556701660156
y: 361.4980773925781
z: -0.08209705352783203
visibility: 0.9999024868011475
","x: 283.6851806640625
y: 359.55218505859375
z: -0.11240500211715698
visibility: 0.9999433159828186
","x: 267.1719665527344
y: 369.7605895996094
z: 0.10676325857639313
visibility: 0.9992360472679138
","x: 269.17926025390625
y: 363.02496337890625
z: -0.18270273506641388
visibility: 0.9999681711196899
","x: 259.695068359375
y: 416.89410400390625
z: 0.13306741416454315
visibility: 0.040381304919719696
","x: 260.0070495605469
y: 413.7826232910156
z: -0.14514407515525818
visibility: 0.8391968607902527
","x: 253.99961853027344
y: 439.11151123046875
z: 0.056752752512693405
visibility: 0.04508954659104347
","x: 256.3738098144531
y: 437.7794189453125
z: 0.0067571536637842655
visibility: 0.5260393023490906
","x: 253.9419403076172
y: 443.7115173339844
z: 0.05651099607348442
visibility: 0.05012029409408569
","x: 254.7294921875
y: 440.98455810546875
z: 0.0024165306240320206
visibility: 0.4584701359272003
","x: 253.0199432373047
y: 441.29595947265625
z: 0.03613201156258583
visibility: 0.054703488945961
","x: 253.59352111816406
y: 440.2791748046875
z: 0.0017823586240410805
visibility: 0.4663834571838379
","x: 252.10061645507812
y: 442.04345703125
z: 0.0445869043469429
visibility: 0.060759902000427246
","x: 253.61331176757812
y: 439.0336608886719
z: 0.011218634434044361
visibility: 0.4666866660118103
","x: 221.91299438476562
y: 397.5668029785156
z: 0.09397561103105545
visibility: 0.999370813369751
","x: 221.43536376953125
y: 402.1220397949219
z: -0.09385055303573608
visibility: 0.9998652338981628
","x: 250.22889709472656
y: 446.50213623046875
z: 0.14518894255161285
visibility: 0.44297537207603455
","x: 249.09788513183594
y: 454.7747497558594
z: -0.10000202804803848
visibility: 0.9931662678718567
","x: 242.95401000976562
y: 509.2642517089844
z: 0.21301475167274475
visibility: 0.6332767009735107
","x: 238.90919494628906
y: 527.980224609375
z: -0.0567457377910614
visibility: 0.9907392859458923
","x: 238.2047882080078
y: 518.53564453125
z: 0.21755632758140564
visibility: 0.5715421438217163
","x: 232.48690795898438
y: 540.22265625
z: -0.054366402328014374
visibility: 0.9750336408615112
","x: 259.4278869628906
y: 522.291015625
z: 0.1947227567434311
visibility: 0.7417819499969482
","x: 256.52838134765625
y: 539.2846069335938
z: -0.09747590124607086
visibility: 0.9867211580276489
",4.685832977294922,,,,,,,,,,,,,,,,,,,,,,,,,,,,,,,,,,,,,,,,,,
6,"x: 288.4752197265625
y: 351.73236083984375
z: -0.12294653803110123
visibility: 0.9999685287475586
","x: 289.99127197265625
y: 349.2569274902344
z: -0.10568682104349136
visibility: 0.9999807476997375
","x: 290.2311706542969
y: 350.1941223144531
z: -0.10568320751190186
visibility: 0.999980628490448
","x: 290.4782409667969
y: 351.14215087890625
z: -0.10570278018712997
visibility: 0.9999675750732422
","x: 288.6974792480469
y: 345.6676025390625
z: -0.12702970206737518
visibility: 0.9999840259552002
","x: 287.8892822265625
y: 344.1534729003906
z: -0.1271238476037979
visibility: 0.9999875426292419
","x: 287.0412902832031
y: 342.70611572265625
z: -0.12713512778282166
visibility: 0.9999878406524658
","x: 288.18133544921875
y: 351.9788818359375
z: -0.017738375812768936
visibility: 0.9999440908432007
","x: 282.9864807128906
y: 342.66534423828125
z: -0.11187444627285004
visibility: 0.9999895691871643
","x: 285.34246826171875
y: 358.22564697265625
z: -0.08854387700557709
visibility: 0.9999008178710938
","x: 283.7361755371094
y: 353.9125061035156
z: -0.11584740877151489
visibility: 0.9999421834945679
","x: 268.336669921875
y: 366.55389404296875
z: 0.1114911437034607
visibility: 0.9992207884788513
","x: 270.2442321777344
y: 355.0417785644531
z: -0.17412950098514557
visibility: 0.9999690651893616
","x: 260.7923583984375
y: 415.6864013671875
z: 0.137419193983078
visibility: 0.03986743837594986
","x: 260.7002258300781
y: 410.8770446777344
z: -0.13052156567573547
visibility: 0.844432532787323
","x: 254.0709686279297
y: 436.9685363769531
z: 0.05637586861848831
visibility: 0.04347452148795128
","x: 257.6205139160156
y: 435.0771484375
z: 0.027612661942839622
visibility: 0.5280230641365051
","x: 254.0078582763672
y: 441.9633483886719
z: 0.05495782941579819
visibility: 0.04835522547364235
","x: 255.59918212890625
y: 438.5849304199219
z: 0.028201723471283913
visibility: 0.4586767852306366
","x: 253.06082153320312
y: 439.5988464355469
z: 0.037142641842365265
visibility: 0.05285165086388588
","x: 254.5999755859375
y: 438.5163879394531
z: 0.02523648738861084
visibility: 0.4666644334793091
","x: 252.27293395996094
y: 440.07061767578125
z: 0.04503583163022995
visibility: 0.05877771973609924
","x: 254.46661376953125
y: 437.6940612792969
z: 0.031883545219898224
visibility: 0.4667988717556
","x: 223.73146057128906
y: 395.52935791015625
z: 0.09460654854774475
visibility: 0.9993350505828857
","x: 222.5621795654297
y: 399.6876220703125
z: -0.09451592713594437
visibility: 0.999861478805542
","x: 253.59689331054688
y: 445.3308410644531
z: 0.1648009717464447
visibility: 0.44630682468414307
","x: 249.27252197265625
y: 452.6620788574219
z: -0.10399516671895981
visibility: 0.9928179383277893
","x: 243.69850158691406
y: 506.7154235839844
z: 0.23965628445148468
visibility: 0.6365793347358704
","x: 238.89646911621094
y: 527.659423828125
z: -0.07062704116106033
visibility: 0.9908279776573181
","x: 238.84002685546875
y: 515.820068359375
z: 0.24470463395118713
visibility: 0.5759657025337219
","x: 232.57431030273438
y: 539.9248046875
z: -0.06935832649469376
visibility: 0.9753767848014832
","x: 259.5052795410156
y: 521.787109375
z: 0.2230784147977829
visibility: 0.7435352206230164
","x: 256.5115966796875
y: 539.5978393554688
z: -0.11809730529785156
visibility: 0.9868441224098206
",4.8269429206848145,,,,,,,,,,,,,,,,,,,,,,,,,,,,,,,,,,,,,,,,,,
7,"x: 288.4752197265625
y: 351.73236083984375
z: -0.12294653803110123
visibility: 0.9999685287475586
","x: 289.99127197265625
y: 349.2569274902344
z: -0.10568682104349136
visibility: 0.9999807476997375
","x: 290.2311706542969
y: 350.1941223144531
z: -0.10568320751190186
visibility: 0.999980628490448
","x: 290.4782409667969
y: 351.14215087890625
z: -0.10570278018712997
visibility: 0.9999675750732422
","x: 288.6974792480469
y: 345.6676025390625
z: -0.12702970206737518
visibility: 0.9999840259552002
","x: 287.8892822265625
y: 344.1534729003906
z: -0.1271238476037979
visibility: 0.9999875426292419
","x: 287.0412902832031
y: 342.70611572265625
z: -0.12713512778282166
visibility: 0.9999878406524658
","x: 288.18133544921875
y: 351.9788818359375
z: -0.017738375812768936
visibility: 0.9999440908432007
","x: 282.9864807128906
y: 342.66534423828125
z: -0.11187444627285004
visibility: 0.9999895691871643
","x: 285.34246826171875
y: 358.22564697265625
z: -0.08854387700557709
visibility: 0.9999008178710938
","x: 283.7361755371094
y: 353.9125061035156
z: -0.11584740877151489
visibility: 0.9999421834945679
","x: 268.336669921875
y: 366.55389404296875
z: 0.1114911437034607
visibility: 0.9992207884788513
","x: 270.2442321777344
y: 355.0417785644531
z: -0.17412950098514557
visibility: 0.9999690651893616
","x: 260.7923583984375
y: 415.6864013671875
z: 0.137419193983078
visibility: 0.03986743837594986
","x: 260.7002258300781
y: 410.8770446777344
z: -0.13052156567573547
visibility: 0.844432532787323
","x: 254.0709686279297
y: 436.9685363769531
z: 0.05637586861848831
visibility: 0.04347452148795128
","x: 257.6205139160156
y: 435.0771484375
z: 0.027612661942839622
visibility: 0.5280230641365051
","x: 254.0078582763672
y: 441.9633483886719
z: 0.05495782941579819
visibility: 0.04835522547364235
","x: 255.59918212890625
y: 438.5849304199219
z: 0.028201723471283913
visibility: 0.4586767852306366
","x: 253.06082153320312
y: 439.5988464355469
z: 0.037142641842365265
visibility: 0.05285165086388588
","x: 254.5999755859375
y: 438.5163879394531
z: 0.02523648738861084
visibility: 0.4666644334793091
","x: 252.27293395996094
y: 440.07061767578125
z: 0.04503583163022995
visibility: 0.05877771973609924
","x: 254.46661376953125
y: 437.6940612792969
z: 0.031883545219898224
visibility: 0.4667988717556
","x: 223.73146057128906
y: 395.52935791015625
z: 0.09460654854774475
visibility: 0.9993350505828857
","x: 222.5621795654297
y: 399.6876220703125
z: -0.09451592713594437
visibility: 0.999861478805542
","x: 253.59689331054688
y: 445.3308410644531
z: 0.1648009717464447
visibility: 0.44630682468414307
","x: 249.27252197265625
y: 452.6620788574219
z: -0.10399516671895981
visibility: 0.9928179383277893
","x: 243.69850158691406
y: 506.7154235839844
z: 0.23965628445148468
visibility: 0.6365793347358704
","x: 238.89646911621094
y: 527.659423828125
z: -0.07062704116106033
visibility: 0.9908279776573181
","x: 238.84002685546875
y: 515.820068359375
z: 0.24470463395118713
visibility: 0.5759657025337219
","x: 232.57431030273438
y: 539.9248046875
z: -0.06935832649469376
visibility: 0.9753767848014832
","x: 259.5052795410156
y: 521.787109375
z: 0.2230784147977829
visibility: 0.7435352206230164
","x: 256.5115966796875
y: 539.5978393554688
z: -0.11809730529785156
visibility: 0.9868441224098206
",4.8269429206848145,,,,,,,,,,,,,,,,,,,,,,,,,,,,,,,,,,,,,,,,,,
8,"x: 289.47711181640625
y: 356.0591125488281
z: -0.05734574794769287
visibility: 0.9999527931213379
","x: 290.4348449707031
y: 351.97393798828125
z: -0.04450879991054535
visibility: 0.999974250793457
","x: 290.5697021484375
y: 352.3815612792969
z: -0.0445135235786438
visibility: 0.9999750852584839
","x: 290.7154235839844
y: 352.8918762207031
z: -0.04453514888882637
visibility: 0.9999613165855408
","x: 289.3411560058594
y: 350.2479553222656
z: -0.07157965749502182
visibility: 0.9999765753746033
","x: 288.59466552734375
y: 349.45184326171875
z: -0.07168349623680115
visibility: 0.9999818801879883
","x: 287.7909240722656
y: 348.73150634765625
z: -0.07170911133289337
visibility: 0.9999825954437256
","x: 288.2532653808594
y: 352.27838134765625
z: 0.024659456685185432
visibility: 0.9999375939369202
","x: 283.74725341796875
y: 347.4949951171875
z: -0.09449157118797302
visibility: 0.9999864101409912
","x: 286.5519104003906
y: 361.624267578125
z: -0.02935549058020115
visibility: 0.9998916983604431
","x: 285.28338623046875
y: 359.37542724609375
z: -0.06419241428375244
visibility: 0.9999351501464844
","x: 268.235595703125
y: 367.243408203125
z: 0.13511338829994202
visibility: 0.9991185665130615
","x: 270.1786193847656
y: 355.7857971191406
z: -0.1649913787841797
visibility: 0.9999637603759766
","x: 259.8763427734375
y: 416.64056396484375
z: 0.15000806748867035
visibility: 0.03884157910943031
","x: 261.9630126953125
y: 412.2973937988281
z: -0.10861654579639435
visibility: 0.8484911322593689
","x: 255.42237854003906
y: 437.1282958984375
z: 0.07334241271018982
visibility: 0.04140232875943184
","x: 259.5943908691406
y: 429.12066650390625
z: 0.08430401980876923
visibility: 0.5346578359603882
","x: 254.6078643798828
y: 446.12451171875
z: 0.07366882264614105
visibility: 0.04652870073914528
","x: 257.9557189941406
y: 430.548828125
z: 0.08878584206104279
visibility: 0.4668624699115753
","x: 254.2452850341797
y: 443.3975830078125
z: 0.0571373887360096
visibility: 0.050850287079811096
","x: 257.3946533203125
y: 431.8713073730469
z: 0.08551952242851257
visibility: 0.4739404618740082
","x: 254.3502960205078
y: 442.04827880859375
z: 0.06254835426807404
visibility: 0.056948911398649216
","x: 257.57470703125
y: 431.6083984375
z: 0.08915887027978897
visibility: 0.4752260744571686
","x: 223.13075256347656
y: 395.74078369140625
z: 0.09513141214847565
visibility: 0.9993491172790527
","x: 222.4500732421875
y: 399.69549560546875
z: -0.09504354000091553
visibility: 0.99985271692276
","x: 252.94970703125
y: 446.1416320800781
z: 0.14194300770759583
visibility: 0.4467166066169739
","x: 249.78414916992188
y: 452.74420166015625
z: -0.10374633967876434
visibility: 0.9924813508987427
","x: 242.9867401123047
y: 511.0383605957031
z: 0.19465158879756927
visibility: 0.6378988027572632
","x: 238.84402465820312
y: 527.6470336914062
z: -0.06297634541988373
visibility: 0.9907100200653076
","x: 237.90650939941406
y: 520.2510986328125
z: 0.19794639945030212
visibility: 0.5843092799186707
","x: 232.6168670654297
y: 539.6063842773438
z: -0.060712672770023346
visibility: 0.9757360816001892
","x: 258.3040771484375
y: 524.6910400390625
z: 0.17530418932437897
visibility: 0.7431053519248962
","x: 256.2941589355469
y: 539.2496337890625
z: -0.11130134761333466
visibility: 0.9865995645523071
",4.987607717514038,,,,,,,,,,,,,,,,,,,,,,,,,,,,,,,,,,,,,,,,,,
9,"x: 289.47711181640625
y: 356.0591125488281
z: -0.05734574794769287
visibility: 0.9999527931213379
","x: 290.4348449707031
y: 351.97393798828125
z: -0.04450879991054535
visibility: 0.999974250793457
","x: 290.5697021484375
y: 352.3815612792969
z: -0.0445135235786438
visibility: 0.9999750852584839
","x: 290.7154235839844
y: 352.8918762207031
z: -0.04453514888882637
visibility: 0.9999613165855408
","x: 289.3411560058594
y: 350.2479553222656
z: -0.07157965749502182
visibility: 0.9999765753746033
","x: 288.59466552734375
y: 349.45184326171875
z: -0.07168349623680115
visibility: 0.9999818801879883
","x: 287.7909240722656
y: 348.73150634765625
z: -0.07170911133289337
visibility: 0.9999825954437256
","x: 288.2532653808594
y: 352.27838134765625
z: 0.024659456685185432
visibility: 0.9999375939369202
","x: 283.74725341796875
y: 347.4949951171875
z: -0.09449157118797302
visibility: 0.9999864101409912
","x: 286.5519104003906
y: 361.624267578125
z: -0.02935549058020115
visibility: 0.9998916983604431
","x: 285.28338623046875
y: 359.37542724609375
z: -0.06419241428375244
visibility: 0.9999351501464844
","x: 268.235595703125
y: 367.243408203125
z: 0.13511338829994202
visibility: 0.9991185665130615
","x: 270.1786193847656
y: 355.7857971191406
z: -0.1649913787841797
visibility: 0.9999637603759766
","x: 259.8763427734375
y: 416.64056396484375
z: 0.15000806748867035
visibility: 0.03884157910943031
","x: 261.9630126953125
y: 412.2973937988281
z: -0.10861654579639435
visibility: 0.8484911322593689
","x: 255.42237854003906
y: 437.1282958984375
z: 0.07334241271018982
visibility: 0.04140232875943184
","x: 259.5943908691406
y: 429.12066650390625
z: 0.08430401980876923
visibility: 0.5346578359603882
","x: 254.6078643798828
y: 446.12451171875
z: 0.07366882264614105
visibility: 0.04652870073914528
","x: 257.9557189941406
y: 430.548828125
z: 0.08878584206104279
visibility: 0.4668624699115753
","x: 254.2452850341797
y: 443.3975830078125
z: 0.0571373887360096
visibility: 0.050850287079811096
","x: 257.3946533203125
y: 431.8713073730469
z: 0.08551952242851257
visibility: 0.4739404618740082
","x: 254.3502960205078
y: 442.04827880859375
z: 0.06254835426807404
visibility: 0.056948911398649216
","x: 257.57470703125
y: 431.6083984375
z: 0.08915887027978897
visibility: 0.4752260744571686
","x: 223.13075256347656
y: 395.74078369140625
z: 0.09513141214847565
visibility: 0.9993491172790527
","x: 222.4500732421875
y: 399.69549560546875
z: -0.09504354000091553
visibility: 0.99985271692276
","x: 252.94970703125
y: 446.1416320800781
z: 0.14194300770759583
visibility: 0.4467166066169739
","x: 249.78414916992188
y: 452.74420166015625
z: -0.10374633967876434
visibility: 0.9924813508987427
","x: 242.9867401123047
y: 511.0383605957031
z: 0.19465158879756927
visibility: 0.6378988027572632
","x: 238.84402465820312
y: 527.6470336914062
z: -0.06297634541988373
visibility: 0.9907100200653076
","x: 237.90650939941406
y: 520.2510986328125
z: 0.19794639945030212
visibility: 0.5843092799186707
","x: 232.6168670654297
y: 539.6063842773438
z: -0.060712672770023346
visibility: 0.9757360816001892
","x: 258.3040771484375
y: 524.6910400390625
z: 0.17530418932437897
visibility: 0.7431053519248962
","x: 256.2941589355469
y: 539.2496337890625
z: -0.11130134761333466
visibility: 0.9865995645523071
",4.987607717514038,,,,,,,,,,,,,,,,,,,,,,,,,,,,,,,,,,,,,,,,,,
10,"x: 289.57635498046875
y: 372.6531982421875
z: 0.02354389801621437
visibility: 0.9999415874481201
","x: 290.345458984375
y: 366.3492431640625
z: 0.03247933089733124
visibility: 0.9999701380729675
","x: 290.34765625
y: 366.00537109375
z: 0.03248041868209839
visibility: 0.9999722242355347
","x: 290.2969665527344
y: 365.7265625
z: 0.032476600259542465
visibility: 0.9999590516090393
","x: 289.3318176269531
y: 366.4852294921875
z: 0.003950269427150488
visibility: 0.9999713897705078
","x: 288.62939453125
y: 366.2551574707031
z: 0.0038368632085621357
visibility: 0.999978244304657
","x: 287.8633728027344
y: 366.1191101074219
z: 0.003766820300370455
visibility: 0.9999790191650391
","x: 286.96026611328125
y: 363.5894775390625
z: 0.08243106305599213
visibility: 0.99993497133255
","x: 283.8003234863281
y: 364.77618408203125
z: -0.04568244144320488
visibility: 0.999984860420227
","x: 286.7143859863281
y: 376.2628173828125
z: 0.04461676999926567
visibility: 0.9998884797096252
","x: 285.71405029296875
y: 376.0791320800781
z: 0.0072840796783566475
visibility: 0.9999319314956665
","x: 265.93798828125
y: 375.3651123046875
z: 0.17110392451286316
visibility: 0.9990895986557007
","x: 271.5820007324219
y: 386.6978454589844
z: -0.12529505789279938
visibility: 0.9999635219573975
","x: 258.9383850097656
y: 419.2675476074219
z: 0.14902128279209137
visibility: 0.04223216325044632
","x: 262.34930419921875
y: 433.0702209472656
z: -0.05066385120153427
visibility: 0.8388625979423523
","x: 267.40234375
y: 416.8351745605469
z: 0.06600359082221985
visibility: 0.04686884954571724
","x: 265.06488037109375
y: 427.63323974609375
z: 0.18385536968708038
visibility: 0.5283100008964539
","x: 270.2372131347656
y: 413.2479248046875
z: 0.07044520974159241
visibility: 0.05331079661846161
","x: 262.90496826171875
y: 426.5086364746094
z: 0.20011897385120392
visibility: 0.46702349185943604
","x: 270.6307373046875
y: 409.9039306640625
z: 0.053210534155368805
visibility: 0.057651225477457047
","x: 261.7042541503906
y: 423.24267578125
z: 0.19019228219985962
visibility: 0.4736917018890381
","x: 269.5173645019531
y: 410.7096862792969
z: 0.05197472497820854
visibility: 0.06415268778800964
","x: 260.6102294921875
y: 423.6200256347656
z: 0.18740540742874146
visibility: 0.47727319598197937
","x: 219.00863647460938
y: 402.7193603515625
z: 0.098961241543293
visibility: 0.9994029402732849
","x: 222.18772888183594
y: 406.8639831542969
z: -0.09896621853113174
visibility: 0.9998619556427002
","x: 252.43603515625
y: 448.2199401855469
z: 0.15831999480724335
visibility: 0.4286702275276184
","x: 253.31288146972656
y: 453.75958251953125
z: -0.10834045708179474
visibility: 0.9919232130050659
","x: 242.4276123046875
y: 513.8570556640625
z: 0.2108900547027588
visibility: 0.6356270909309387
","x: 238.90423583984375
y: 527.246826171875
z: -0.08823110908269882
visibility: 0.9903292655944824
","x: 236.49436950683594
y: 524.0306396484375
z: 0.21527758240699768
visibility: 0.5913146138191223
","x: 232.75843811035156
y: 538.9638671875
z: -0.0857854038476944
visibility: 0.9755371809005737
","x: 257.4841613769531
y: 525.2429809570312
z: 0.20219580829143524
visibility: 0.7446020245552063
","x: 256.3370361328125
y: 538.5050659179688
z: -0.12005193531513214
visibility: 0.9863438010215759
",5.1128246784210205,,,,,,,,,,,,,,,,,,,,,,,,,,,,,,,,,,,,,,,,,,
11,"x: 289.57635498046875
y: 372.6531982421875
z: 0.02354389801621437
visibility: 0.9999415874481201
","x: 290.345458984375
y: 366.3492431640625
z: 0.03247933089733124
visibility: 0.9999701380729675
","x: 290.34765625
y: 366.00537109375
z: 0.03248041868209839
visibility: 0.9999722242355347
","x: 290.2969665527344
y: 365.7265625
z: 0.032476600259542465
visibility: 0.9999590516090393
","x: 289.3318176269531
y: 366.4852294921875
z: 0.003950269427150488
visibility: 0.9999713897705078
","x: 288.62939453125
y: 366.2551574707031
z: 0.0038368632085621357
visibility: 0.999978244304657
","x: 287.8633728027344
y: 366.1191101074219
z: 0.003766820300370455
visibility: 0.9999790191650391
","x: 286.96026611328125
y: 363.5894775390625
z: 0.08243106305599213
visibility: 0.99993497133255
","x: 283.8003234863281
y: 364.77618408203125
z: -0.04568244144320488
visibility: 0.999984860420227
","x: 286.7143859863281
y: 376.2628173828125
z: 0.04461676999926567
visibility: 0.9998884797096252
","x: 285.71405029296875
y: 376.0791320800781
z: 0.0072840796783566475
visibility: 0.9999319314956665
","x: 265.93798828125
y: 375.3651123046875
z: 0.17110392451286316
visibility: 0.9990895986557007
","x: 271.5820007324219
y: 386.6978454589844
z: -0.12529505789279938
visibility: 0.9999635219573975
","x: 258.9383850097656
y: 419.2675476074219
z: 0.14902128279209137
visibility: 0.04223216325044632
","x: 262.34930419921875
y: 433.0702209472656
z: -0.05066385120153427
visibility: 0.8388625979423523
","x: 267.40234375
y: 416.8351745605469
z: 0.06600359082221985
visibility: 0.04686884954571724
","x: 265.06488037109375
y: 427.63323974609375
z: 0.18385536968708038
visibility: 0.5283100008964539
","x: 270.2372131347656
y: 413.2479248046875
z: 0.07044520974159241
visibility: 0.05331079661846161
","x: 262.90496826171875
y: 426.5086364746094
z: 0.20011897385120392
visibility: 0.46702349185943604
","x: 270.6307373046875
y: 409.9039306640625
z: 0.053210534155368805
visibility: 0.057651225477457047
","x: 261.7042541503906
y: 423.24267578125
z: 0.19019228219985962
visibility: 0.4736917018890381
","x: 269.5173645019531
y: 410.7096862792969
z: 0.05197472497820854
visibility: 0.06415268778800964
","x: 260.6102294921875
y: 423.6200256347656
z: 0.18740540742874146
visibility: 0.47727319598197937
","x: 219.00863647460938
y: 402.7193603515625
z: 0.098961241543293
visibility: 0.9994029402732849
","x: 222.18772888183594
y: 406.8639831542969
z: -0.09896621853113174
visibility: 0.9998619556427002
","x: 252.43603515625
y: 448.2199401855469
z: 0.15831999480724335
visibility: 0.4286702275276184
","x: 253.31288146972656
y: 453.75958251953125
z: -0.10834045708179474
visibility: 0.9919232130050659
","x: 242.4276123046875
y: 513.8570556640625
z: 0.2108900547027588
visibility: 0.6356270909309387
","x: 238.90423583984375
y: 527.246826171875
z: -0.08823110908269882
visibility: 0.9903292655944824
","x: 236.49436950683594
y: 524.0306396484375
z: 0.21527758240699768
visibility: 0.5913146138191223
","x: 232.75843811035156
y: 538.9638671875
z: -0.0857854038476944
visibility: 0.9755371809005737
","x: 257.4841613769531
y: 525.2429809570312
z: 0.20219580829143524
visibility: 0.7446020245552063
","x: 256.3370361328125
y: 538.5050659179688
z: -0.12005193531513214
visibility: 0.9863438010215759
",5.1128246784210205,,,,,,,,,,,,,,,,,,,,,,,,,,,,,,,,,,,,,,,,,,
12,"x: 289.6495056152344
y: 379.3342590332031
z: -0.030408253893256187
visibility: 0.9999405145645142
","x: 290.4883117675781
y: 374.1011047363281
z: -0.02035832405090332
visibility: 0.9999700784683228
","x: 290.43701171875
y: 374.0987548828125
z: -0.02035331353545189
visibility: 0.9999722242355347
","x: 290.3457336425781
y: 374.1607971191406
z: -0.020364025607705116
visibility: 0.9999591112136841
","x: 289.759033203125
y: 373.1204833984375
z: -0.044704779982566833
visibility: 0.9999704360961914
","x: 289.1790771484375
y: 372.4069519042969
z: -0.04479049891233444
visibility: 0.9999775290489197
","x: 288.5274963378906
y: 371.7337341308594
z: -0.04481828585267067
visibility: 0.999978244304657
","x: 287.06500244140625
y: 371.9421691894531
z: 0.04102747514843941
visibility: 0.9999359846115112
","x: 284.8209228515625
y: 369.8233642578125
z: -0.06808661669492722
visibility: 0.9999849200248718
","x: 286.6719970703125
y: 382.7964782714844
z: -0.00539735984057188
visibility: 0.9998945593833923
","x: 285.7637023925781
y: 381.4158630371094
z: -0.03710712864995003
visibility: 0.9999354481697083
","x: 265.9860534667969
y: 376.46282958984375
z: 0.14344222843647003
visibility: 0.9991354942321777
","x: 272.6045227050781
y: 384.30230712890625
z: -0.14155741035938263
visibility: 0.9999660849571228
","x: 258.0859680175781
y: 429.0579833984375
z: 0.07669638097286224
visibility: 0.044453755021095276
","x: 262.3641052246094
y: 429.9783630371094
z: -0.0908697098493576
visibility: 0.8360207676887512
","x: 266.1505432128906
y: 426.2181091308594
z: -0.06598646938800812
visibility: 0.048183657228946686
","x: 263.5025329589844
y: 428.8875732421875
z: 0.11070121824741364
visibility: 0.5223208069801331
","x: 268.7081604003906
y: 428.55230712890625
z: -0.07668595761060715
visibility: 0.05534164607524872
","x: 261.7604064941406
y: 427.88336181640625
z: 0.12032729387283325
visibility: 0.4629781246185303
","x: 268.85711669921875
y: 425.07745361328125
z: -0.07299357652664185
visibility: 0.05947432667016983
","x: 261.41876220703125
y: 424.0757751464844
z: 0.11115044355392456
visibility: 0.469340980052948
","x: 267.5386657714844
y: 424.23193359375
z: -0.07029034197330475
visibility: 0.0661083236336708
","x: 260.0435485839844
y: 426.1712341308594
z: 0.11387945711612701
visibility: 0.47448232769966125
","x: 218.98512268066406
y: 402.2012023925781
z: 0.09904666990041733
visibility: 0.9994539022445679
","x: 222.341796875
y: 406.4471130371094
z: -0.09907905757427216
visibility: 0.9998725652694702
","x: 252.26498413085938
y: 448.2232971191406
z: 0.17575307190418243
visibility: 0.41624715924263
","x: 254.26168823242188
y: 453.7951354980469
z: -0.11129210144281387
visibility: 0.9918408393859863
","x: 242.3853759765625
y: 513.3466186523438
z: 0.2336585968732834
visibility: 0.6324259638786316
","x: 239.00680541992188
y: 525.807373046875
z: -0.0951220691204071
visibility: 0.9903706312179565
","x: 235.84521484375
y: 523.7698974609375
z: 0.23879024386405945
visibility: 0.5956287384033203
","x: 232.7844696044922
y: 537.7125244140625
z: -0.0938609391450882
visibility: 0.9758321642875671
","x: 257.5461730957031
y: 525.378173828125
z: 0.2222241461277008
visibility: 0.7435153126716614
","x: 257.0169677734375
y: 536.493408203125
z: -0.13211461901664734
visibility: 0.9865005016326904
",5.239130020141602,,,,,,,,,,,,,,,,,,,,,,,,,,,,,,,,,,,,,,,,,,
13,"x: 289.6495056152344
y: 379.3342590332031
z: -0.030408253893256187
visibility: 0.9999405145645142
","x: 290.4883117675781
y: 374.1011047363281
z: -0.02035832405090332
visibility: 0.9999700784683228
","x: 290.43701171875
y: 374.0987548828125
z: -0.02035331353545189
visibility: 0.9999722242355347
","x: 290.3457336425781
y: 374.1607971191406
z: -0.020364025607705116
visibility: 0.9999591112136841
","x: 289.759033203125
y: 373.1204833984375
z: -0.044704779982566833
visibility: 0.9999704360961914
","x: 289.1790771484375
y: 372.4069519042969
z: -0.04479049891233444
visibility: 0.9999775290489197
","x: 288.5274963378906
y: 371.7337341308594
z: -0.04481828585267067
visibility: 0.999978244304657
","x: 287.06500244140625
y: 371.9421691894531
z: 0.04102747514843941
visibility: 0.9999359846115112
","x: 284.8209228515625
y: 369.8233642578125
z: -0.06808661669492722
visibility: 0.9999849200248718
","x: 286.6719970703125
y: 382.7964782714844
z: -0.00539735984057188
visibility: 0.9998945593833923
","x: 285.7637023925781
y: 381.4158630371094
z: -0.03710712864995003
visibility: 0.9999354481697083
","x: 265.9860534667969
y: 376.46282958984375
z: 0.14344222843647003
visibility: 0.9991354942321777
","x: 272.6045227050781
y: 384.30230712890625
z: -0.14155741035938263
visibility: 0.9999660849571228
","x: 258.0859680175781
y: 429.0579833984375
z: 0.07669638097286224
visibility: 0.044453755021095276
","x: 262.3641052246094
y: 429.9783630371094
z: -0.0908697098493576
visibility: 0.8360207676887512
","x: 266.1505432128906
y: 426.2181091308594
z: -0.06598646938800812
visibility: 0.048183657228946686
","x: 263.5025329589844
y: 428.8875732421875
z: 0.11070121824741364
visibility: 0.5223208069801331
","x: 268.7081604003906
y: 428.55230712890625
z: -0.07668595761060715
visibility: 0.05534164607524872
","x: 261.7604064941406
y: 427.88336181640625
z: 0.12032729387283325
visibility: 0.4629781246185303
","x: 268.85711669921875
y: 425.07745361328125
z: -0.07299357652664185
visibility: 0.05947432667016983
","x: 261.41876220703125
y: 424.0757751464844
z: 0.11115044355392456
visibility: 0.469340980052948
","x: 267.5386657714844
y: 424.23193359375
z: -0.07029034197330475
visibility: 0.0661083236336708
","x: 260.0435485839844
y: 426.1712341308594
z: 0.11387945711612701
visibility: 0.47448232769966125
","x: 218.98512268066406
y: 402.2012023925781
z: 0.09904666990041733
visibility: 0.9994539022445679
","x: 222.341796875
y: 406.4471130371094
z: -0.09907905757427216
visibility: 0.9998725652694702
","x: 252.26498413085938
y: 448.2232971191406
z: 0.17575307190418243
visibility: 0.41624715924263
","x: 254.26168823242188
y: 453.7951354980469
z: -0.11129210144281387
visibility: 0.9918408393859863
","x: 242.3853759765625
y: 513.3466186523438
z: 0.2336585968732834
visibility: 0.6324259638786316
","x: 239.00680541992188
y: 525.807373046875
z: -0.0951220691204071
visibility: 0.9903706312179565
","x: 235.84521484375
y: 523.7698974609375
z: 0.23879024386405945
visibility: 0.5956287384033203
","x: 232.7844696044922
y: 537.7125244140625
z: -0.0938609391450882
visibility: 0.9758321642875671
","x: 257.5461730957031
y: 525.378173828125
z: 0.2222241461277008
visibility: 0.7435153126716614
","x: 257.0169677734375
y: 536.493408203125
z: -0.13211461901664734
visibility: 0.9865005016326904
",5.239130020141602,,,,,,,,,,,,,,,,,,,,,,,,,,,,,,,,,,,,,,,,,,
14,"x: 288.62841796875
y: 356.8516845703125
z: 0.021035190671682358
visibility: 0.9998753666877747
","x: 290.48236083984375
y: 356.1888122558594
z: 0.031220991164445877
visibility: 0.9999141097068787
","x: 290.4359130859375
y: 357.02294921875
z: 0.03118756413459778
visibility: 0.9999113082885742
","x: 290.34698486328125
y: 357.85198974609375
z: 0.031139781698584557
visibility: 0.9999164938926697
","x: 289.8529357910156
y: 352.718017578125
z: 0.00653462391346693
visibility: 0.9999240636825562
","x: 289.39288330078125
y: 350.8921813964844
z: 0.006478919647634029
visibility: 0.9999302625656128
","x: 288.88671875
y: 348.9216613769531
z: 0.006403413601219654
visibility: 0.9999501705169678
","x: 287.32611083984375
y: 355.00750732421875
z: 0.08173653483390808
visibility: 0.9998102784156799
","x: 285.82354736328125
y: 343.8333435058594
z: -0.02926643192768097
visibility: 0.9999339580535889
","x: 284.7479553222656
y: 358.57281494140625
z: 0.04201129078865051
visibility: 0.9998235106468201
","x: 284.4794616699219
y: 355.0440979003906
z: 0.00947574619203806
visibility: 0.9998906254768372
","x: 266.8724670410156
y: 356.13055419921875
z: 0.16393791139125824
visibility: 0.9990836977958679
","x: 272.22265625
y: 340.20721435546875
z: -0.10802669823169708
visibility: 0.9999673962593079
","x: 258.0582580566406
y: 400.577880859375
z: 0.19871491193771362
visibility: 0.05376259982585907
","x: 262.4400329589844
y: 387.17340087890625
z: -0.1138574630022049
visibility: 0.8507979512214661
","x: 260.4767761230469
y: 428.6192626953125
z: 0.15513482689857483
visibility: 0.06222396343946457
","x: 263.2746887207031
y: 429.1141052246094
z: -0.0718243420124054
visibility: 0.5656960010528564
","x: 258.57916259765625
y: 433.6598205566406
z: 0.1604430377483368
visibility: 0.06726245582103729
","x: 261.3342590332031
y: 434.1795349121094
z: -0.08490614593029022
visibility: 0.5091721415519714
","x: 262.0198669433594
y: 430.7557678222656
z: 0.13818129897117615
visibility: 0.07184214890003204
","x: 260.2713317871094
y: 431.8880615234375
z: -0.07282941043376923
visibility: 0.5140820741653442
","x: 262.7901611328125
y: 429.561767578125
z: 0.14382466673851013
visibility: 0.07859764993190765
","x: 259.1856994628906
y: 431.22705078125
z: -0.06451313942670822
visibility: 0.5146799683570862
","x: 227.42123413085938
y: 384.1482849121094
z: 0.08853248506784439
visibility: 0.9991722106933594
","x: 226.70645141601562
y: 381.23712158203125
z: -0.08838843554258347
visibility: 0.9997894167900085
","x: 251.1434783935547
y: 444.8802490234375
z: 0.09235818684101105
visibility: 0.40478256344795227
","x: 248.87034606933594
y: 451.267578125
z: -0.10785440355539322
visibility: 0.9905696511268616
","x: 242.28057861328125
y: 513.306396484375
z: 0.12672486901283264
visibility: 0.6084396839141846
","x: 238.99673461914062
y: 525.4603881835938
z: -0.10225788503885269
visibility: 0.9897267818450928
","x: 235.91677856445312
y: 523.476318359375
z: 0.1280263066291809
visibility: 0.5837300419807434
","x: 232.7832794189453
y: 537.923583984375
z: -0.10371877253055573
visibility: 0.9758179187774658
","x: 257.7297058105469
y: 525.1806030273438
z: 0.09086646139621735
visibility: 0.7192235589027405
","x: 256.9975280761719
y: 536.111328125
z: -0.15782637894153595
visibility: 0.9853332042694092
",5.397706508636475,,,,,,,,,,,,,,,,,,,,,,,,,,,,,,,,,,,,,,,,,,
15,"x: 288.62841796875
y: 356.8516845703125
z: 0.021035190671682358
visibility: 0.9998753666877747
","x: 290.48236083984375
y: 356.1888122558594
z: 0.031220991164445877
visibility: 0.9999141097068787
","x: 290.4359130859375
y: 357.02294921875
z: 0.03118756413459778
visibility: 0.9999113082885742
","x: 290.34698486328125
y: 357.85198974609375
z: 0.031139781698584557
visibility: 0.9999164938926697
","x: 289.8529357910156
y: 352.718017578125
z: 0.00653462391346693
visibility: 0.9999240636825562
","x: 289.39288330078125
y: 350.8921813964844
z: 0.006478919647634029
visibility: 0.9999302625656128
","x: 288.88671875
y: 348.9216613769531
z: 0.006403413601219654
visibility: 0.9999501705169678
","x: 287.32611083984375
y: 355.00750732421875
z: 0.08173653483390808
visibility: 0.9998102784156799
","x: 285.82354736328125
y: 343.8333435058594
z: -0.02926643192768097
visibility: 0.9999339580535889
","x: 284.7479553222656
y: 358.57281494140625
z: 0.04201129078865051
visibility: 0.9998235106468201
","x: 284.4794616699219
y: 355.0440979003906
z: 0.00947574619203806
visibility: 0.9998906254768372
","x: 266.8724670410156
y: 356.13055419921875
z: 0.16393791139125824
visibility: 0.9990836977958679
","x: 272.22265625
y: 340.20721435546875
z: -0.10802669823169708
visibility: 0.9999673962593079
","x: 258.0582580566406
y: 400.577880859375
z: 0.19871491193771362
visibility: 0.05376259982585907
","x: 262.4400329589844
y: 387.17340087890625
z: -0.1138574630022049
visibility: 0.8507979512214661
","x: 260.4767761230469
y: 428.6192626953125
z: 0.15513482689857483
visibility: 0.06222396343946457
","x: 263.2746887207031
y: 429.1141052246094
z: -0.0718243420124054
visibility: 0.5656960010528564
","x: 258.57916259765625
y: 433.6598205566406
z: 0.1604430377483368
visibility: 0.06726245582103729
","x: 261.3342590332031
y: 434.1795349121094
z: -0.08490614593029022
visibility: 0.5091721415519714
","x: 262.0198669433594
y: 430.7557678222656
z: 0.13818129897117615
visibility: 0.07184214890003204
","x: 260.2713317871094
y: 431.8880615234375
z: -0.07282941043376923
visibility: 0.5140820741653442
","x: 262.7901611328125
y: 429.561767578125
z: 0.14382466673851013
visibility: 0.07859764993190765
","x: 259.1856994628906
y: 431.22705078125
z: -0.06451313942670822
visibility: 0.5146799683570862
","x: 227.42123413085938
y: 384.1482849121094
z: 0.08853248506784439
visibility: 0.9991722106933594
","x: 226.70645141601562
y: 381.23712158203125
z: -0.08838843554258347
visibility: 0.9997894167900085
","x: 251.1434783935547
y: 444.8802490234375
z: 0.09235818684101105
visibility: 0.40478256344795227
","x: 248.87034606933594
y: 451.267578125
z: -0.10785440355539322
visibility: 0.9905696511268616
","x: 242.28057861328125
y: 513.306396484375
z: 0.12672486901283264
visibility: 0.6084396839141846
","x: 238.99673461914062
y: 525.4603881835938
z: -0.10225788503885269
visibility: 0.9897267818450928
","x: 235.91677856445312
y: 523.476318359375
z: 0.1280263066291809
visibility: 0.5837300419807434
","x: 232.7832794189453
y: 537.923583984375
z: -0.10371877253055573
visibility: 0.9758179187774658
","x: 257.7297058105469
y: 525.1806030273438
z: 0.09086646139621735
visibility: 0.7192235589027405
","x: 256.9975280761719
y: 536.111328125
z: -0.15782637894153595
visibility: 0.9853332042694092
",5.397706508636475,,,,,,,,,,,,,,,,,,,,,,,,,,,,,,,,,,,,,,,,,,
16,"x: 288.4533996582031
y: 344.230224609375
z: -0.03980759158730507
visibility: 0.9997819066047668
","x: 290.6560974121094
y: 342.6794738769531
z: -0.02561776340007782
visibility: 0.9998339414596558
","x: 290.6742248535156
y: 343.5811767578125
z: -0.02566049061715603
visibility: 0.9998113512992859
","x: 290.6521911621094
y: 344.4295654296875
z: -0.025711581110954285
visibility: 0.999837338924408
","x: 289.9255676269531
y: 338.6869812011719
z: -0.049922406673431396
visibility: 0.999863862991333
","x: 289.4239501953125
y: 336.8670654296875
z: -0.049986012279987335
visibility: 0.9998655915260315
","x: 288.8604431152344
y: 335.02880859375
z: -0.050033777952194214
visibility: 0.9999082684516907
","x: 288.1842346191406
y: 342.048828125
z: 0.04374955594539642
visibility: 0.9995494484901428
","x: 285.9138488769531
y: 331.45025634765625
z: -0.06469796597957611
visibility: 0.9998529553413391
","x: 284.6672668457031
y: 347.5823669433594
z: -0.012121140956878662
visibility: 0.9996804594993591
","x: 284.134765625
y: 342.5780944824219
z: -0.04376517981290817
visibility: 0.9998058676719666
","x: 270.51336669921875
y: 345.76971435546875
z: 0.14667803049087524
visibility: 0.9990115761756897
","x: 271.9728088378906
y: 332.6400451660156
z: -0.1352853775024414
visibility: 0.9999634027481079
","x: 261.59796142578125
y: 387.94537353515625
z: 0.1835261881351471
visibility: 0.06432775408029556
","x: 262.16876220703125
y: 381.66644287109375
z: -0.1559654176235199
visibility: 0.8632370233535767
","x: 260.07305908203125
y: 425.169189453125
z: 0.12790782749652863
visibility: 0.07291799038648605
","x: 261.7283630371094
y: 422.1736145019531
z: -0.10252648591995239
visibility: 0.5997673869132996
","x: 257.2605895996094
y: 432.7637023925781
z: 0.12967266142368317
visibility: 0.07705529034137726
","x: 259.16986083984375
y: 432.8599548339844
z: -0.11787674576044083
visibility: 0.5437580943107605
","x: 260.1595153808594
y: 432.2989196777344
z: 0.10612541437149048
visibility: 0.08228447288274765
","x: 259.1856689453125
y: 431.8511657714844
z: -0.11219300329685211
visibility: 0.5476526021957397
","x: 261.71575927734375
y: 430.5115051269531
z: 0.11555580794811249
visibility: 0.08875463902950287
","x: 258.99468994140625
y: 430.0220947265625
z: -0.09777654707431793
visibility: 0.5426977276802063
","x: 231.48257446289062
y: 379.5613098144531
z: 0.08929858356714249
visibility: 0.9987749457359314
","x: 228.64842224121094
y: 378.1650390625
z: -0.08914045244455338
visibility: 0.9996394515037537
","x: 249.4540252685547
y: 444.94696044921875
z: 0.0995895117521286
visibility: 0.4010174572467804
","x: 247.20899963378906
y: 450.8924865722656
z: -0.11047722399234772
visibility: 0.9893585443496704
","x: 242.34100341796875
y: 513.105224609375
z: 0.1469345986843109
visibility: 0.5933487415313721
","x: 239.13143920898438
y: 525.3816528320312
z: -0.09986662864685059
visibility: 0.9894402623176575
","x: 236.60281372070312
y: 523.4041748046875
z: 0.14878246188163757
visibility: 0.5765606164932251
","x: 232.95326232910156
y: 537.4119873046875
z: -0.10094290971755981
visibility: 0.9758068323135376
","x: 257.79071044921875
y: 525.2457275390625
z: 0.11124911159276962
visibility: 0.7009280323982239
","x: 256.69921875
y: 536.3257446289062
z: -0.15690985321998596
visibility: 0.9845629930496216
",5.539221286773682,,,,,,,,,,,,,,,,,,,,,,,,,,,,,,,,,,,,,,,,,,
17,"x: 288.4533996582031
y: 344.230224609375
z: -0.03980759158730507
visibility: 0.9997819066047668
","x: 290.6560974121094
y: 342.6794738769531
z: -0.02561776340007782
visibility: 0.9998339414596558
","x: 290.6742248535156
y: 343.5811767578125
z: -0.02566049061715603
visibility: 0.9998113512992859
","x: 290.6521911621094
y: 344.4295654296875
z: -0.025711581110954285
visibility: 0.999837338924408
","x: 289.9255676269531
y: 338.6869812011719
z: -0.049922406673431396
visibility: 0.999863862991333
","x: 289.4239501953125
y: 336.8670654296875
z: -0.049986012279987335
visibility: 0.9998655915260315
","x: 288.8604431152344
y: 335.02880859375
z: -0.050033777952194214
visibility: 0.9999082684516907
","x: 288.1842346191406
y: 342.048828125
z: 0.04374955594539642
visibility: 0.9995494484901428
","x: 285.9138488769531
y: 331.45025634765625
z: -0.06469796597957611
visibility: 0.9998529553413391
","x: 284.6672668457031
y: 347.5823669433594
z: -0.012121140956878662
visibility: 0.9996804594993591
","x: 284.134765625
y: 342.5780944824219
z: -0.04376517981290817
visibility: 0.9998058676719666
","x: 270.51336669921875
y: 345.76971435546875
z: 0.14667803049087524
visibility: 0.9990115761756897
","x: 271.9728088378906
y: 332.6400451660156
z: -0.1352853775024414
visibility: 0.9999634027481079
","x: 261.59796142578125
y: 387.94537353515625
z: 0.1835261881351471
visibility: 0.06432775408029556
","x: 262.16876220703125
y: 381.66644287109375
z: -0.1559654176235199
visibility: 0.8632370233535767
","x: 260.07305908203125
y: 425.169189453125
z: 0.12790782749652863
visibility: 0.07291799038648605
","x: 261.7283630371094
y: 422.1736145019531
z: -0.10252648591995239
visibility: 0.5997673869132996
","x: 257.2605895996094
y: 432.7637023925781
z: 0.12967266142368317
visibility: 0.07705529034137726
","x: 259.16986083984375
y: 432.8599548339844
z: -0.11787674576044083
visibility: 0.5437580943107605
","x: 260.1595153808594
y: 432.2989196777344
z: 0.10612541437149048
visibility: 0.08228447288274765
","x: 259.1856689453125
y: 431.8511657714844
z: -0.11219300329685211
visibility: 0.5476526021957397
","x: 261.71575927734375
y: 430.5115051269531
z: 0.11555580794811249
visibility: 0.08875463902950287
","x: 258.99468994140625
y: 430.0220947265625
z: -0.09777654707431793
visibility: 0.5426977276802063
","x: 231.48257446289062
y: 379.5613098144531
z: 0.08929858356714249
visibility: 0.9987749457359314
","x: 228.64842224121094
y: 378.1650390625
z: -0.08914045244455338
visibility: 0.9996394515037537
","x: 249.4540252685547
y: 444.94696044921875
z: 0.0995895117521286
visibility: 0.4010174572467804
","x: 247.20899963378906
y: 450.8924865722656
z: -0.11047722399234772
visibility: 0.9893585443496704
","x: 242.34100341796875
y: 513.105224609375
z: 0.1469345986843109
visibility: 0.5933487415313721
","x: 239.13143920898438
y: 525.3816528320312
z: -0.09986662864685059
visibility: 0.9894402623176575
","x: 236.60281372070312
y: 523.4041748046875
z: 0.14878246188163757
visibility: 0.5765606164932251
","x: 232.95326232910156
y: 537.4119873046875
z: -0.10094290971755981
visibility: 0.9758068323135376
","x: 257.79071044921875
y: 525.2457275390625
z: 0.11124911159276962
visibility: 0.7009280323982239
","x: 256.69921875
y: 536.3257446289062
z: -0.15690985321998596
visibility: 0.9845629930496216
",5.539221286773682,,,,,,,,,,,,,,,,,,,,,,,,,,,,,,,,,,,,,,,,,,
18,"x: 293.56402587890625
y: 360.3477783203125
z: -0.1386650800704956
visibility: 0.9998010993003845
","x: 295.2650451660156
y: 356.3114013671875
z: -0.11960910260677338
visibility: 0.9998488426208496
","x: 295.3492431640625
y: 356.65570068359375
z: -0.11963297426700592
visibility: 0.9998287558555603
","x: 295.4269104003906
y: 356.8665771484375
z: -0.11966098845005035
visibility: 0.999850869178772
","x: 294.2931823730469
y: 353.7772216796875
z: -0.14394548535346985
visibility: 0.9998757243156433
","x: 293.6304016113281
y: 352.30120849609375
z: -0.1440502554178238
visibility: 0.9998778104782104
","x: 292.8721008300781
y: 350.50177001953125
z: -0.14407584071159363
visibility: 0.9999160766601562
","x: 292.6086730957031
y: 354.56854248046875
z: -0.023749230429530144
visibility: 0.9995903372764587
","x: 288.68505859375
y: 343.62451171875
z: -0.13046656548976898
visibility: 0.999866783618927
","x: 290.5173645019531
y: 363.61669921875
z: -0.10115320980548859
visibility: 0.9997060894966125
","x: 288.9531555175781
y: 360.8470458984375
z: -0.13214907050132751
visibility: 0.9998214840888977
","x: 270.6361083984375
y: 357.5185546875
z: 0.11734642833471298
visibility: 0.9990604519844055
","x: 272.25244140625
y: 355.205322265625
z: -0.18867573142051697
visibility: 0.999964714050293
","x: 261.22760009765625
y: 408.2319641113281
z: 0.14672771096229553
visibility: 0.06280681490898132
","x: 260.3240966796875
y: 410.17034912109375
z: -0.1599111109972
visibility: 0.8661755323410034
","x: 259.5715026855469
y: 434.07208251953125
z: 0.06471031904220581
visibility: 0.07067378610372543
","x: 260.85931396484375
y: 440.8511657714844
z: -0.04220002517104149
visibility: 0.608021080493927
","x: 257.6559143066406
y: 439.5274353027344
z: 0.05915757268667221
visibility: 0.07476268708705902
","x: 258.8777770996094
y: 445.19415283203125
z: -0.052450746297836304
visibility: 0.5510839819908142
","x: 259.53570556640625
y: 440.511962890625
z: 0.034063663333654404
visibility: 0.08009782433509827
","x: 259.09136962890625
y: 444.22808837890625
z: -0.054123200476169586
visibility: 0.5552681088447571
","x: 260.1859436035156
y: 435.3495788574219
z: 0.04935707896947861
visibility: 0.08640682697296143
","x: 258.69732666015625
y: 441.2436218261719
z: -0.03890926390886307
visibility: 0.5486326813697815
","x: 230.4730682373047
y: 395.615478515625
z: 0.09303908795118332
visibility: 0.9988038539886475
","x: 228.50706481933594
y: 395.59991455078125
z: -0.09279066324234009
visibility: 0.999652087688446
","x: 253.33883666992188
y: 447.0243835449219
z: 0.1489725410938263
visibility: 0.4064646065235138
","x: 253.2145538330078
y: 453.0357360839844
z: -0.11165021359920502
visibility: 0.98939049243927
","x: 242.34793090820312
y: 512.9467163085938
z: 0.24079756438732147
visibility: 0.5955123901367188
","x: 238.8873748779297
y: 525.4677124023438
z: -0.03614896535873413
visibility: 0.9891448616981506
","x: 236.30381774902344
y: 523.3275756835938
z: 0.2471829652786255
visibility: 0.5813307166099548
","x: 232.67059326171875
y: 536.9268798828125
z: -0.029728908091783524
visibility: 0.9756540656089783
","x: 258.29754638671875
y: 527.2828369140625
z: 0.2189532071352005
visibility: 0.7044159770011902
","x: 256.70654296875
y: 536.4410400390625
z: -0.07394342124462128
visibility: 0.9844741821289062
",5.680794954299927,,,,,,,,,,,,,,,,,,,,,,,,,,,,,,,,,,,,,,,,,,
19,"x: 293.56402587890625
y: 360.3477783203125
z: -0.1386650800704956
visibility: 0.9998010993003845
","x: 295.2650451660156
y: 356.3114013671875
z: -0.11960910260677338
visibility: 0.9998488426208496
","x: 295.3492431640625
y: 356.65570068359375
z: -0.11963297426700592
visibility: 0.9998287558555603
","x: 295.4269104003906
y: 356.8665771484375
z: -0.11966098845005035
visibility: 0.999850869178772
","x: 294.2931823730469
y: 353.7772216796875
z: -0.14394548535346985
visibility: 0.9998757243156433
","x: 293.6304016113281
y: 352.30120849609375
z: -0.1440502554178238
visibility: 0.9998778104782104
","x: 292.8721008300781
y: 350.50177001953125
z: -0.14407584071159363
visibility: 0.9999160766601562
","x: 292.6086730957031
y: 354.56854248046875
z: -0.023749230429530144
visibility: 0.9995903372764587
","x: 288.68505859375
y: 343.62451171875
z: -0.13046656548976898
visibility: 0.999866783618927
","x: 290.5173645019531
y: 363.61669921875
z: -0.10115320980548859
visibility: 0.9997060894966125
","x: 288.9531555175781
y: 360.8470458984375
z: -0.13214907050132751
visibility: 0.9998214840888977
","x: 270.6361083984375
y: 357.5185546875
z: 0.11734642833471298
visibility: 0.9990604519844055
","x: 272.25244140625
y: 355.205322265625
z: -0.18867573142051697
visibility: 0.999964714050293
","x: 261.22760009765625
y: 408.2319641113281
z: 0.14672771096229553
visibility: 0.06280681490898132
","x: 260.3240966796875
y: 410.17034912109375
z: -0.1599111109972
visibility: 0.8661755323410034
","x: 259.5715026855469
y: 434.07208251953125
z: 0.06471031904220581
visibility: 0.07067378610372543
","x: 260.85931396484375
y: 440.8511657714844
z: -0.04220002517104149
visibility: 0.608021080493927
","x: 257.6559143066406
y: 439.5274353027344
z: 0.05915757268667221
visibility: 0.07476268708705902
","x: 258.8777770996094
y: 445.19415283203125
z: -0.052450746297836304
visibility: 0.5510839819908142
","x: 259.53570556640625
y: 440.511962890625
z: 0.034063663333654404
visibility: 0.08009782433509827
","x: 259.09136962890625
y: 444.22808837890625
z: -0.054123200476169586
visibility: 0.5552681088447571
","x: 260.1859436035156
y: 435.3495788574219
z: 0.04935707896947861
visibility: 0.08640682697296143
","x: 258.69732666015625
y: 441.2436218261719
z: -0.03890926390886307
visibility: 0.5486326813697815
","x: 230.4730682373047
y: 395.615478515625
z: 0.09303908795118332
visibility: 0.9988038539886475
","x: 228.50706481933594
y: 395.59991455078125
z: -0.09279066324234009
visibility: 0.999652087688446
","x: 253.33883666992188
y: 447.0243835449219
z: 0.1489725410938263
visibility: 0.4064646065235138
","x: 253.2145538330078
y: 453.0357360839844
z: -0.11165021359920502
visibility: 0.98939049243927
","x: 242.34793090820312
y: 512.9467163085938
z: 0.24079756438732147
visibility: 0.5955123901367188
","x: 238.8873748779297
y: 525.4677124023438
z: -0.03614896535873413
visibility: 0.9891448616981506
","x: 236.30381774902344
y: 523.3275756835938
z: 0.2471829652786255
visibility: 0.5813307166099548
","x: 232.67059326171875
y: 536.9268798828125
z: -0.029728908091783524
visibility: 0.9756540656089783
","x: 258.29754638671875
y: 527.2828369140625
z: 0.2189532071352005
visibility: 0.7044159770011902
","x: 256.70654296875
y: 536.4410400390625
z: -0.07394342124462128
visibility: 0.9844741821289062
",5.680794954299927,,,,,,,,,,,,,,,,,,,,,,,,,,,,,,,,,,,,,,,,,,
20,"x: 292.6417541503906
y: 375.13555908203125
z: -0.1685875952243805
visibility: 0.9998206496238708
","x: 294.7605895996094
y: 372.31829833984375
z: -0.14798833429813385
visibility: 0.9998638033866882
","x: 294.9964599609375
y: 373.0505065917969
z: -0.14796733856201172
visibility: 0.9998456835746765
","x: 295.23291015625
y: 373.6859436035156
z: -0.14797347784042358
visibility: 0.9998653531074524
","x: 293.4991455078125
y: 369.7200927734375
z: -0.16868746280670166
visibility: 0.999888002872467
","x: 292.7757873535156
y: 368.4628601074219
z: -0.16877758502960205
visibility: 0.9998899102210999
","x: 291.98223876953125
y: 367.0694274902344
z: -0.1687566339969635
visibility: 0.9999243021011353
","x: 292.9005432128906
y: 374.0615234375
z: -0.039982862770557404
visibility: 0.9996306896209717
","x: 288.3865661621094
y: 365.2073974609375
z: -0.13081184029579163
visibility: 0.9998800158500671
","x: 289.91119384765625
y: 380.1766662597656
z: -0.1266985535621643
visibility: 0.9997337460517883
","x: 288.17919921875
y: 376.4898986816406
z: -0.15275049209594727
visibility: 0.9998382329940796
","x: 271.755126953125
y: 374.9613037109375
z: 0.11116224527359009
visibility: 0.9991179704666138
","x: 273.6366882324219
y: 377.50189208984375
z: -0.1797049641609192
visibility: 0.999966025352478
","x: 260.960693359375
y: 422.9980773925781
z: 0.113941989839077
visibility: 0.060418058186769485
","x: 260.3494567871094
y: 429.003173828125
z: -0.12247313559055328
visibility: 0.8581831455230713
","x: 259.1217956542969
y: 438.29888916015625
z: -0.010412963107228279
visibility: 0.06820298731327057
","x: 260.54888916015625
y: 443.6610412597656
z: 0.05725182220339775
visibility: 0.5944002866744995
","x: 258.2095642089844
y: 444.4332275390625
z: -0.019409213215112686
visibility: 0.07248314470052719
","x: 259.0435485839844
y: 448.48126220703125
z: 0.06262106448411942
visibility: 0.5355976223945618
","x: 259.4818420410156
y: 442.0768737792969
z: -0.028613239526748657
visibility: 0.07777271419763565
","x: 259.3838195800781
y: 445.270751953125
z: 0.04934065788984299
visibility: 0.5408357381820679
","x: 259.57110595703125
y: 439.18280029296875
z: -0.01978270150721073
visibility: 0.08379204571247101
","x: 259.1645202636719
y: 442.08111572265625
z: 0.058384351432323456
visibility: 0.5379403829574585
","x: 227.89938354492188
y: 402.9028015136719
z: 0.09328506886959076
visibility: 0.9988645911216736
","x: 227.2290496826172
y: 407.0137023925781
z: -0.09294246882200241
visibility: 0.9996686577796936
","x: 256.03662109375
y: 448.07672119140625
z: 0.1517554521560669
visibility: 0.39950108528137207
","x: 257.1907958984375
y: 453.8945007324219
z: -0.12281382083892822
visibility: 0.9889910817146301
","x: 242.7839813232422
y: 512.4494018554688
z: 0.23231716454029083
visibility: 0.5837458968162537
","x: 239.0065155029297
y: 525.4210815429688
z: -0.05185697600245476
visibility: 0.9883830547332764
","x: 236.34921264648438
y: 522.9107666015625
z: 0.23692230880260468
visibility: 0.5757803916931152
","x: 232.49127197265625
y: 536.8238525390625
z: -0.047344282269477844
visibility: 0.9751110672950745
","x: 258.44024658203125
y: 527.4293212890625
z: 0.21596813201904297
visibility: 0.6955535411834717
","x: 256.6285400390625
y: 536.796875
z: -0.07678620517253876
visibility: 0.9839484095573425
",5.8054468631744385,,,,,,,,,,,,,,,,,,,,,,,,,,,,,,,,,,,,,,,,,,
21,"x: 292.6417541503906
y: 375.13555908203125
z: -0.1685875952243805
visibility: 0.9998206496238708
","x: 294.7605895996094
y: 372.31829833984375
z: -0.14798833429813385
visibility: 0.9998638033866882
","x: 294.9964599609375
y: 373.0505065917969
z: -0.14796733856201172
visibility: 0.9998456835746765
","x: 295.23291015625
y: 373.6859436035156
z: -0.14797347784042358
visibility: 0.9998653531074524
","x: 293.4991455078125
y: 369.7200927734375
z: -0.16868746280670166
visibility: 0.999888002872467
","x: 292.7757873535156
y: 368.4628601074219
z: -0.16877758502960205
visibility: 0.9998899102210999
","x: 291.98223876953125
y: 367.0694274902344
z: -0.1687566339969635
visibility: 0.9999243021011353
","x: 292.9005432128906
y: 374.0615234375
z: -0.039982862770557404
visibility: 0.9996306896209717
","x: 288.3865661621094
y: 365.2073974609375
z: -0.13081184029579163
visibility: 0.9998800158500671
","x: 289.91119384765625
y: 380.1766662597656
z: -0.1266985535621643
visibility: 0.9997337460517883
","x: 288.17919921875
y: 376.4898986816406
z: -0.15275049209594727
visibility: 0.9998382329940796
","x: 271.755126953125
y: 374.9613037109375
z: 0.11116224527359009
visibility: 0.9991179704666138
","x: 273.6366882324219
y: 377.50189208984375
z: -0.1797049641609192
visibility: 0.999966025352478
","x: 260.960693359375
y: 422.9980773925781
z: 0.113941989839077
visibility: 0.060418058186769485
","x: 260.3494567871094
y: 429.003173828125
z: -0.12247313559055328
visibility: 0.8581831455230713
","x: 259.1217956542969
y: 438.29888916015625
z: -0.010412963107228279
visibility: 0.06820298731327057
","x: 260.54888916015625
y: 443.6610412597656
z: 0.05725182220339775
visibility: 0.5944002866744995
","x: 258.2095642089844
y: 444.4332275390625
z: -0.019409213215112686
visibility: 0.07248314470052719
","x: 259.0435485839844
y: 448.48126220703125
z: 0.06262106448411942
visibility: 0.5355976223945618
","x: 259.4818420410156
y: 442.0768737792969
z: -0.028613239526748657
visibility: 0.07777271419763565
","x: 259.3838195800781
y: 445.270751953125
z: 0.04934065788984299
visibility: 0.5408357381820679
","x: 259.57110595703125
y: 439.18280029296875
z: -0.01978270150721073
visibility: 0.08379204571247101
","x: 259.1645202636719
y: 442.08111572265625
z: 0.058384351432323456
visibility: 0.5379403829574585
","x: 227.89938354492188
y: 402.9028015136719
z: 0.09328506886959076
visibility: 0.9988645911216736
","x: 227.2290496826172
y: 407.0137023925781
z: -0.09294246882200241
visibility: 0.9996686577796936
","x: 256.03662109375
y: 448.07672119140625
z: 0.1517554521560669
visibility: 0.39950108528137207
","x: 257.1907958984375
y: 453.8945007324219
z: -0.12281382083892822
visibility: 0.9889910817146301
","x: 242.7839813232422
y: 512.4494018554688
z: 0.23231716454029083
visibility: 0.5837458968162537
","x: 239.0065155029297
y: 525.4210815429688
z: -0.05185697600245476
visibility: 0.9883830547332764
","x: 236.34921264648438
y: 522.9107666015625
z: 0.23692230880260468
visibility: 0.5757803916931152
","x: 232.49127197265625
y: 536.8238525390625
z: -0.047344282269477844
visibility: 0.9751110672950745
","x: 258.44024658203125
y: 527.4293212890625
z: 0.21596813201904297
visibility: 0.6955535411834717
","x: 256.6285400390625
y: 536.796875
z: -0.07678620517253876
visibility: 0.9839484095573425
",5.8054468631744385,,,,,,,,,,,,,,,,,,,,,,,,,,,,,,,,,,,,,,,,,,
22,"x: 293.03033447265625
y: 365.9237060546875
z: -0.13051512837409973
visibility: 0.9998070001602173
","x: 295.1301574707031
y: 364.86614990234375
z: -0.11479119956493378
visibility: 0.9998605847358704
","x: 295.3257141113281
y: 366.14752197265625
z: -0.11475314944982529
visibility: 0.9998441934585571
","x: 295.5157470703125
y: 367.4962158203125
z: -0.11471323668956757
visibility: 0.9998540282249451
","x: 294.0145263671875
y: 360.55517578125
z: -0.13804256916046143
visibility: 0.9998855590820312
","x: 293.34405517578125
y: 358.4725341796875
z: -0.13814422488212585
visibility: 0.9998904466629028
","x: 292.59576416015625
y: 356.367919921875
z: -0.13813281059265137
visibility: 0.9999220371246338
","x: 293.23382568359375
y: 366.4109802246094
z: -0.02463618665933609
visibility: 0.9996228218078613
","x: 289.0176086425781
y: 352.36669921875
z: -0.1257873773574829
visibility: 0.999884307384491
","x: 289.8810729980469
y: 370.40478515625
z: -0.09456001222133636
visibility: 0.9996952414512634
","x: 288.5307922363281
y: 366.0373229980469
z: -0.12416353076696396
visibility: 0.9998160004615784
","x: 272.658935546875
y: 370.388427734375
z: 0.11544380336999893
visibility: 0.9990760087966919
","x: 274.1049499511719
y: 360.21307373046875
z: -0.17660923302173615
visibility: 0.9999610781669617
","x: 264.0244140625
y: 419.23992919921875
z: 0.13370849192142487
visibility: 0.05850489065051079
","x: 260.47857666015625
y: 417.1929931640625
z: -0.12628720700740814
visibility: 0.8589335680007935
","x: 258.88433837890625
y: 438.70849609375
z: 0.054704297333955765
visibility: 0.06352533400058746
","x: 260.3415832519531
y: 439.57861328125
z: 0.014244450256228447
visibility: 0.5872373580932617
","x: 258.1758728027344
y: 445.1095275878906
z: 0.05150028318166733
visibility: 0.06750593334436417
","x: 258.56536865234375
y: 445.971435546875
z: 0.011841476894915104
visibility: 0.524423360824585
","x: 259.212646484375
y: 444.1402587890625
z: 0.0334419310092926
visibility: 0.07251960039138794
","x: 259.2689208984375
y: 444.2052001953125
z: 0.007754122372716665
visibility: 0.530015230178833
","x: 259.3794860839844
y: 440.6285400390625
z: 0.04298242926597595
visibility: 0.0782950147986412
","x: 259.0058288574219
y: 440.4918212890625
z: 0.017061157152056694
visibility: 0.5271286368370056
","x: 228.1703338623047
y: 392.765625
z: 0.09354473650455475
visibility: 0.998848557472229
","x: 228.07456970214844
y: 393.937744140625
z: -0.09329890459775925
visibility: 0.9996428489685059
","x: 255.43438720703125
y: 448.1039733886719
z: 0.10928528010845184
visibility: 0.39322516322135925
","x: 256.50885009765625
y: 452.9810791015625
z: -0.10654791444540024
visibility: 0.9855883121490479
","x: 242.8043975830078
y: 514.6985473632812
z: 0.14860719442367554
visibility: 0.5721633434295654
","x: 239.4014434814453
y: 525.4539794921875
z: -0.054601650685071945
visibility: 0.9871461391448975
","x: 236.42788696289062
y: 524.400634765625
z: 0.14976027607917786
visibility: 0.5686485767364502
","x: 232.88531494140625
y: 536.9140014648438
z: -0.051619164645671844
visibility: 0.9739407896995544
","x: 258.6746520996094
y: 528.884033203125
z: 0.11792656034231186
visibility: 0.6833633184432983
","x: 257.267822265625
y: 540.6124267578125
z: -0.08962556719779968
visibility: 0.9824893474578857
",5.9309399127960205,,,,,,,,,,,,,,,,,,,,,,,,,,,,,,,,,,,,,,,,,,
23,"x: 293.03033447265625
y: 365.9237060546875
z: -0.13051512837409973
visibility: 0.9998070001602173
","x: 295.1301574707031
y: 364.86614990234375
z: -0.11479119956493378
visibility: 0.9998605847358704
","x: 295.3257141113281
y: 366.14752197265625
z: -0.11475314944982529
visibility: 0.9998441934585571
","x: 295.5157470703125
y: 367.4962158203125
z: -0.11471323668956757
visibility: 0.9998540282249451
","x: 294.0145263671875
y: 360.55517578125
z: -0.13804256916046143
visibility: 0.9998855590820312
","x: 293.34405517578125
y: 358.4725341796875
z: -0.13814422488212585
visibility: 0.9998904466629028
","x: 292.59576416015625
y: 356.367919921875
z: -0.13813281059265137
visibility: 0.9999220371246338
","x: 293.23382568359375
y: 366.4109802246094
z: -0.02463618665933609
visibility: 0.9996228218078613
","x: 289.0176086425781
y: 352.36669921875
z: -0.1257873773574829
visibility: 0.999884307384491
","x: 289.8810729980469
y: 370.40478515625
z: -0.09456001222133636
visibility: 0.9996952414512634
","x: 288.5307922363281
y: 366.0373229980469
z: -0.12416353076696396
visibility: 0.9998160004615784
","x: 272.658935546875
y: 370.388427734375
z: 0.11544380336999893
visibility: 0.9990760087966919
","x: 274.1049499511719
y: 360.21307373046875
z: -0.17660923302173615
visibility: 0.9999610781669617
","x: 264.0244140625
y: 419.23992919921875
z: 0.13370849192142487
visibility: 0.05850489065051079
","x: 260.47857666015625
y: 417.1929931640625
z: -0.12628720700740814
visibility: 0.8589335680007935
","x: 258.88433837890625
y: 438.70849609375
z: 0.054704297333955765
visibility: 0.06352533400058746
","x: 260.3415832519531
y: 439.57861328125
z: 0.014244450256228447
visibility: 0.5872373580932617
","x: 258.1758728027344
y: 445.1095275878906
z: 0.05150028318166733
visibility: 0.06750593334436417
","x: 258.56536865234375
y: 445.971435546875
z: 0.011841476894915104
visibility: 0.524423360824585
","x: 259.212646484375
y: 444.1402587890625
z: 0.0334419310092926
visibility: 0.07251960039138794
","x: 259.2689208984375
y: 444.2052001953125
z: 0.007754122372716665
visibility: 0.530015230178833
","x: 259.3794860839844
y: 440.6285400390625
z: 0.04298242926597595
visibility: 0.0782950147986412
","x: 259.0058288574219
y: 440.4918212890625
z: 0.017061157152056694
visibility: 0.5271286368370056
","x: 228.1703338623047
y: 392.765625
z: 0.09354473650455475
visibility: 0.998848557472229
","x: 228.07456970214844
y: 393.937744140625
z: -0.09329890459775925
visibility: 0.9996428489685059
","x: 255.43438720703125
y: 448.1039733886719
z: 0.10928528010845184
visibility: 0.39322516322135925
","x: 256.50885009765625
y: 452.9810791015625
z: -0.10654791444540024
visibility: 0.9855883121490479
","x: 242.8043975830078
y: 514.6985473632812
z: 0.14860719442367554
visibility: 0.5721633434295654
","x: 239.4014434814453
y: 525.4539794921875
z: -0.054601650685071945
visibility: 0.9871461391448975
","x: 236.42788696289062
y: 524.400634765625
z: 0.14976027607917786
visibility: 0.5686485767364502
","x: 232.88531494140625
y: 536.9140014648438
z: -0.051619164645671844
visibility: 0.9739407896995544
","x: 258.6746520996094
y: 528.884033203125
z: 0.11792656034231186
visibility: 0.6833633184432983
","x: 257.267822265625
y: 540.6124267578125
z: -0.08962556719779968
visibility: 0.9824893474578857
",5.9309399127960205,,,,,,,,,,,,,,,,,,,,,,,,,,,,,,,,,,,,,,,,,,
24,"x: 292.5849609375
y: 351.27520751953125
z: -0.019044935703277588
visibility: 0.9996876120567322
","x: 294.71307373046875
y: 349.8885803222656
z: -0.006901549641042948
visibility: 0.9997714161872864
","x: 294.86822509765625
y: 350.7499694824219
z: -0.006954649928957224
visibility: 0.9997389316558838
","x: 295.01849365234375
y: 351.5850830078125
z: -0.007001643534749746
visibility: 0.999776303768158
","x: 293.7747497558594
y: 346.07012939453125
z: -0.03192754462361336
visibility: 0.9998160600662231
","x: 293.2007141113281
y: 344.15869140625
z: -0.031981851905584335
visibility: 0.9998204708099365
","x: 292.568359375
y: 342.230224609375
z: -0.03205002099275589
visibility: 0.9998804926872253
","x: 292.90484619140625
y: 348.7704772949219
z: 0.05155729502439499
visibility: 0.999394953250885
","x: 289.5798645019531
y: 337.2900695800781
z: -0.060861360281705856
visibility: 0.999821126461029
","x: 289.6319885253906
y: 353.5785217285156
z: 0.004699773155152798
visibility: 0.9995822310447693
","x: 288.1023254394531
y: 349.4646911621094
z: -0.0281082596629858
visibility: 0.999763548374176
","x: 273.7240905761719
y: 346.190185546875
z: 0.14333298802375793
visibility: 0.999073326587677
","x: 275.26568603515625
y: 340.74566650390625
z: -0.13867336511611938
visibility: 0.9999632835388184
","x: 263.1285705566406
y: 391.665771484375
z: 0.1734723150730133
visibility: 0.06480401009321213
","x: 264.43609619140625
y: 390.59771728515625
z: -0.14847439527511597
visibility: 0.8709052801132202
","x: 258.7137145996094
y: 431.60479736328125
z: 0.12055712938308716
visibility: 0.06938160955905914
","x: 260.2071228027344
y: 435.3797607421875
z: -0.08997000008821487
visibility: 0.6207413673400879
","x: 257.0861511230469
y: 438.760009765625
z: 0.12270227819681168
visibility: 0.07268810272216797
","x: 258.5216369628906
y: 444.32049560546875
z: -0.10439684242010117
visibility: 0.5594991445541382
","x: 258.3629455566406
y: 439.6160583496094
z: 0.10061798989772797
visibility: 0.07780046761035919
","x: 259.1027526855469
y: 442.8428649902344
z: -0.09725173562765121
visibility: 0.5639954209327698
","x: 258.9352111816406
y: 437.15582275390625
z: 0.10870333015918732
visibility: 0.08323947340250015
","x: 258.83624267578125
y: 439.6314697265625
z: -0.08471135795116425
visibility: 0.556903064250946
","x: 232.8819580078125
y: 378.50244140625
z: 0.09214363992214203
visibility: 0.998674750328064
","x: 232.07644653320312
y: 379.9913024902344
z: -0.09193380922079086
visibility: 0.9996063113212585
","x: 251.87533569335938
y: 445.8601379394531
z: 0.11387895047664642
visibility: 0.37539809942245483
","x: 250.81976318359375
y: 452.1114807128906
z: -0.10683361440896988
visibility: 0.9833171367645264
","x: 242.7891845703125
y: 514.6376342773438
z: 0.167408287525177
visibility: 0.5425130128860474
","x: 239.40899658203125
y: 525.3615112304688
z: -0.09571728110313416
visibility: 0.986335039138794
","x: 236.9183807373047
y: 523.8397827148438
z: 0.17005042731761932
visibility: 0.5475891828536987
","x: 233.04373168945312
y: 536.9861450195312
z: -0.09737346321344376
visibility: 0.9734258055686951
","x: 258.2343444824219
y: 528.4927978515625
z: 0.13477292656898499
visibility: 0.6513950824737549
","x: 256.91302490234375
y: 540.3711547851562
z: -0.1548692286014557
visibility: 0.9809114933013916
",6.058730363845825,,,,,,,,,,,,,,,,,,,,,,,,,,,,,,,,,,,,,,,,,,
25,"x: 292.5849609375
y: 351.27520751953125
z: -0.019044935703277588
visibility: 0.9996876120567322
","x: 294.71307373046875
y: 349.8885803222656
z: -0.006901549641042948
visibility: 0.9997714161872864
","x: 294.86822509765625
y: 350.7499694824219
z: -0.006954649928957224
visibility: 0.9997389316558838
","x: 295.01849365234375
y: 351.5850830078125
z: -0.007001643534749746
visibility: 0.999776303768158
","x: 293.7747497558594
y: 346.07012939453125
z: -0.03192754462361336
visibility: 0.9998160600662231
","x: 293.2007141113281
y: 344.15869140625
z: -0.031981851905584335
visibility: 0.9998204708099365
","x: 292.568359375
y: 342.230224609375
z: -0.03205002099275589
visibility: 0.9998804926872253
","x: 292.90484619140625
y: 348.7704772949219
z: 0.05155729502439499
visibility: 0.999394953250885
","x: 289.5798645019531
y: 337.2900695800781
z: -0.060861360281705856
visibility: 0.999821126461029
","x: 289.6319885253906
y: 353.5785217285156
z: 0.004699773155152798
visibility: 0.9995822310447693
","x: 288.1023254394531
y: 349.4646911621094
z: -0.0281082596629858
visibility: 0.999763548374176
","x: 273.7240905761719
y: 346.190185546875
z: 0.14333298802375793
visibility: 0.999073326587677
","x: 275.26568603515625
y: 340.74566650390625
z: -0.13867336511611938
visibility: 0.9999632835388184
","x: 263.1285705566406
y: 391.665771484375
z: 0.1734723150730133
visibility: 0.06480401009321213
","x: 264.43609619140625
y: 390.59771728515625
z: -0.14847439527511597
visibility: 0.8709052801132202
","x: 258.7137145996094
y: 431.60479736328125
z: 0.12055712938308716
visibility: 0.06938160955905914
","x: 260.2071228027344
y: 435.3797607421875
z: -0.08997000008821487
visibility: 0.6207413673400879
","x: 257.0861511230469
y: 438.760009765625
z: 0.12270227819681168
visibility: 0.07268810272216797
","x: 258.5216369628906
y: 444.32049560546875
z: -0.10439684242010117
visibility: 0.5594991445541382
","x: 258.3629455566406
y: 439.6160583496094
z: 0.10061798989772797
visibility: 0.07780046761035919
","x: 259.1027526855469
y: 442.8428649902344
z: -0.09725173562765121
visibility: 0.5639954209327698
","x: 258.9352111816406
y: 437.15582275390625
z: 0.10870333015918732
visibility: 0.08323947340250015
","x: 258.83624267578125
y: 439.6314697265625
z: -0.08471135795116425
visibility: 0.556903064250946
","x: 232.8819580078125
y: 378.50244140625
z: 0.09214363992214203
visibility: 0.998674750328064
","x: 232.07644653320312
y: 379.9913024902344
z: -0.09193380922079086
visibility: 0.9996063113212585
","x: 251.87533569335938
y: 445.8601379394531
z: 0.11387895047664642
visibility: 0.37539809942245483
","x: 250.81976318359375
y: 452.1114807128906
z: -0.10683361440896988
visibility: 0.9833171367645264
","x: 242.7891845703125
y: 514.6376342773438
z: 0.167408287525177
visibility: 0.5425130128860474
","x: 239.40899658203125
y: 525.3615112304688
z: -0.09571728110313416
visibility: 0.986335039138794
","x: 236.9183807373047
y: 523.8397827148438
z: 0.17005042731761932
visibility: 0.5475891828536987
","x: 233.04373168945312
y: 536.9861450195312
z: -0.09737346321344376
visibility: 0.9734258055686951
","x: 258.2343444824219
y: 528.4927978515625
z: 0.13477292656898499
visibility: 0.6513950824737549
","x: 256.91302490234375
y: 540.3711547851562
z: -0.1548692286014557
visibility: 0.9809114933013916
",6.058730363845825,,,,,,,,,,,,,,,,,,,,,,,,,,,,,,,,,,,,,,,,,,
26,"x: 294.6966857910156
y: 348.60101318359375
z: -0.03352286294102669
visibility: 0.9996922016143799
","x: 296.73138427734375
y: 346.6112976074219
z: -0.011112899519503117
visibility: 0.9997768402099609
","x: 296.88031005859375
y: 347.2889709472656
z: -0.010889561846852303
visibility: 0.999745786190033
","x: 297.0406188964844
y: 348.0396728515625
z: -0.010763944126665592
visibility: 0.9997742176055908
","x: 295.670654296875
y: 343.85498046875
z: -0.0454750582575798
visibility: 0.9998204708099365
","x: 294.9648132324219
y: 342.39202880859375
z: -0.04557410255074501
visibility: 0.9998263716697693
","x: 294.19232177734375
y: 340.8871154785156
z: -0.04584839195013046
visibility: 0.9998830556869507
","x: 294.7287902832031
y: 346.5538330078125
z: 0.03418397903442383
visibility: 0.9994099140167236
","x: 290.82171630859375
y: 337.3143310546875
z: -0.07233461737632751
visibility: 0.9998308420181274
","x: 291.4815979003906
y: 352.4446105957031
z: 0.00239893258549273
visibility: 0.9995693564414978
","x: 290.140380859375
y: 349.2794189453125
z: -0.04228873923420906
visibility: 0.9997587203979492
","x: 275.13702392578125
y: 349.854736328125
z: 0.13830125331878662
visibility: 0.9990617632865906
","x: 276.52301025390625
y: 341.9333190917969
z: -0.15533192455768585
visibility: 0.9999642968177795
","x: 264.82806396484375
y: 390.0466613769531
z: 0.17032727599143982
visibility: 0.0639980360865593
","x: 267.8684997558594
y: 389.5360107421875
z: -0.14877504110336304
visibility: 0.8788928389549255
","x: 258.8438415527344
y: 427.34228515625
z: 0.10067123174667358
visibility: 0.06658770143985748
","x: 260.70538330078125
y: 432.5302734375
z: -0.04147741198539734
visibility: 0.6383160352706909
","x: 257.3678894042969
y: 434.63201904296875
z: 0.09904860705137253
visibility: 0.06974237412214279
","x: 258.8878173828125
y: 440.0121765136719
z: -0.04997734725475311
visibility: 0.574213445186615
","x: 258.45672607421875
y: 435.0340270996094
z: 0.07792486250400543
visibility: 0.07483452558517456
","x: 259.2562561035156
y: 439.4239807128906
z: -0.05031631514430046
visibility: 0.5789190530776978
","x: 260.3188171386719
y: 434.1064758300781
z: 0.08805496990680695
visibility: 0.08011449128389359
","x: 259.31683349609375
y: 437.0732116699219
z: -0.03764059767127037
visibility: 0.570065975189209
","x: 230.88217163085938
y: 381.80120849609375
z: 0.09439071267843246
visibility: 0.998542845249176
","x: 230.52891540527344
y: 384.0373229980469
z: -0.09417886286973953
visibility: 0.9995649456977844
","x: 252.02914428710938
y: 445.1800231933594
z: 0.1165238618850708
visibility: 0.3724454939365387
","x: 250.90147399902344
y: 451.0299072265625
z: -0.10188184678554535
visibility: 0.9805898666381836
","x: 242.92501831054688
y: 514.306884765625
z: 0.16749705374240875
visibility: 0.529306948184967
","x: 239.29788208007812
y: 525.3850708007812
z: -0.04363267868757248
visibility: 0.9847831726074219
","x: 237.2258758544922
y: 523.6312255859375
z: 0.16956466436386108
visibility: 0.5396151542663574
","x: 233.04940795898438
y: 536.9949951171875
z: -0.039628081023693085
visibility: 0.9718203544616699
","x: 259.0660705566406
y: 529.185302734375
z: 0.13876071572303772
visibility: 0.639168918132782
","x: 256.9194030761719
y: 540.3002319335938
z: -0.08321548998355865
visibility: 0.9791505932807922
",6.184695720672607,,,,,,,,,,,,,,,,,,,,,,,,,,,,,,,,,,,,,,,,,,
27,"x: 294.6966857910156
y: 348.60101318359375
z: -0.03352286294102669
visibility: 0.9996922016143799
","x: 296.73138427734375
y: 346.6112976074219
z: -0.011112899519503117
visibility: 0.9997768402099609
","x: 296.88031005859375
y: 347.2889709472656
z: -0.010889561846852303
visibility: 0.999745786190033
","x: 297.0406188964844
y: 348.0396728515625
z: -0.010763944126665592
visibility: 0.9997742176055908
","x: 295.670654296875
y: 343.85498046875
z: -0.0454750582575798
visibility: 0.9998204708099365
","x: 294.9648132324219
y: 342.39202880859375
z: -0.04557410255074501
visibility: 0.9998263716697693
","x: 294.19232177734375
y: 340.8871154785156
z: -0.04584839195013046
visibility: 0.9998830556869507
","x: 294.7287902832031
y: 346.5538330078125
z: 0.03418397903442383
visibility: 0.9994099140167236
","x: 290.82171630859375
y: 337.3143310546875
z: -0.07233461737632751
visibility: 0.9998308420181274
","x: 291.4815979003906
y: 352.4446105957031
z: 0.00239893258549273
visibility: 0.9995693564414978
","x: 290.140380859375
y: 349.2794189453125
z: -0.04228873923420906
visibility: 0.9997587203979492
","x: 275.13702392578125
y: 349.854736328125
z: 0.13830125331878662
visibility: 0.9990617632865906
","x: 276.52301025390625
y: 341.9333190917969
z: -0.15533192455768585
visibility: 0.9999642968177795
","x: 264.82806396484375
y: 390.0466613769531
z: 0.17032727599143982
visibility: 0.0639980360865593
","x: 267.8684997558594
y: 389.5360107421875
z: -0.14877504110336304
visibility: 0.8788928389549255
","x: 258.8438415527344
y: 427.34228515625
z: 0.10067123174667358
visibility: 0.06658770143985748
","x: 260.70538330078125
y: 432.5302734375
z: -0.04147741198539734
visibility: 0.6383160352706909
","x: 257.3678894042969
y: 434.63201904296875
z: 0.09904860705137253
visibility: 0.06974237412214279
","x: 258.8878173828125
y: 440.0121765136719
z: -0.04997734725475311
visibility: 0.574213445186615
","x: 258.45672607421875
y: 435.0340270996094
z: 0.07792486250400543
visibility: 0.07483452558517456
","x: 259.2562561035156
y: 439.4239807128906
z: -0.05031631514430046
visibility: 0.5789190530776978
","x: 260.3188171386719
y: 434.1064758300781
z: 0.08805496990680695
visibility: 0.08011449128389359
","x: 259.31683349609375
y: 437.0732116699219
z: -0.03764059767127037
visibility: 0.570065975189209
","x: 230.88217163085938
y: 381.80120849609375
z: 0.09439071267843246
visibility: 0.998542845249176
","x: 230.52891540527344
y: 384.0373229980469
z: -0.09417886286973953
visibility: 0.9995649456977844
","x: 252.02914428710938
y: 445.1800231933594
z: 0.1165238618850708
visibility: 0.3724454939365387
","x: 250.90147399902344
y: 451.0299072265625
z: -0.10188184678554535
visibility: 0.9805898666381836
","x: 242.92501831054688
y: 514.306884765625
z: 0.16749705374240875
visibility: 0.529306948184967
","x: 239.29788208007812
y: 525.3850708007812
z: -0.04363267868757248
visibility: 0.9847831726074219
","x: 237.2258758544922
y: 523.6312255859375
z: 0.16956466436386108
visibility: 0.5396151542663574
","x: 233.04940795898438
y: 536.9949951171875
z: -0.039628081023693085
visibility: 0.9718203544616699
","x: 259.0660705566406
y: 529.185302734375
z: 0.13876071572303772
visibility: 0.639168918132782
","x: 256.9194030761719
y: 540.3002319335938
z: -0.08321548998355865
visibility: 0.9791505932807922
",6.184695720672607,,,,,,,,,,,,,,,,,,,,,,,,,,,,,,,,,,,,,,,,,,
28,"x: 296.9374084472656
y: 362.037109375
z: -0.06395327299833298
visibility: 0.9997076392173767
","x: 298.8765563964844
y: 357.2201232910156
z: -0.04041949287056923
visibility: 0.999788761138916
","x: 298.942138671875
y: 357.3553466796875
z: -0.040334176272153854
visibility: 0.9997624158859253
","x: 299.0013427734375
y: 357.4105224609375
z: -0.04032044857740402
visibility: 0.9997842311859131
","x: 297.86383056640625
y: 355.30987548828125
z: -0.06489144265651703
visibility: 0.9998282790184021
","x: 297.13165283203125
y: 353.9770202636719
z: -0.06492610275745392
visibility: 0.9998359680175781
","x: 296.3184814453125
y: 352.35205078125
z: -0.06505106389522552
visibility: 0.9998873472213745
","x: 296.0343322753906
y: 355.52789306640625
z: 0.015297974459826946
visibility: 0.999453067779541
","x: 292.4512939453125
y: 349.0276794433594
z: -0.09910070896148682
visibility: 0.999843180179596
","x: 293.60113525390625
y: 365.8717346191406
z: -0.022855104878544807
visibility: 0.9995911717414856
","x: 292.1015625
y: 364.2266540527344
z: -0.05449357628822327
visibility: 0.9997690320014954
","x: 275.9135437011719
y: 364.67633056640625
z: 0.12792271375656128
visibility: 0.9990982413291931
","x: 276.8213195800781
y: 361.69512939453125
z: -0.1727697253227234
visibility: 0.999965488910675
","x: 265.37957763671875
y: 407.681884765625
z: 0.15888993442058563
visibility: 0.06389553844928741
","x: 268.6800231933594
y: 409.41522216796875
z: -0.14570188522338867
visibility: 0.8794600963592529
","x: 259.5278015136719
y: 443.5076599121094
z: 0.082379549741745
visibility: 0.06386830657720566
","x: 260.83355712890625
y: 446.6736145019531
z: -0.02153107523918152
visibility: 0.639619767665863
","x: 258.92218017578125
y: 449.33795166015625
z: 0.08028370141983032
visibility: 0.06669767200946808
","x: 259.4884338378906
y: 449.8122863769531
z: -0.032870035618543625
visibility: 0.5754183530807495
","x: 259.7258605957031
y: 446.9818115234375
z: 0.061836518347263336
visibility: 0.07175761461257935
","x: 260.11114501953125
y: 448.62896728515625
z: -0.028940673917531967
visibility: 0.5802013278007507
","x: 260.2146911621094
y: 446.1764831542969
z: 0.07085782289505005
visibility: 0.07723216712474823
","x: 260.1515808105469
y: 447.3739318847656
z: -0.016520580276846886
visibility: 0.5699447393417358
","x: 229.45445251464844
y: 395.7304382324219
z: 0.09489114582538605
visibility: 0.9986034631729126
","x: 229.47232055664062
y: 396.1514892578125
z: -0.09468446671962738
visibility: 0.9995841979980469
","x: 255.45115661621094
y: 448.7973327636719
z: 0.149837464094162
visibility: 0.375362366437912
","x: 255.41725158691406
y: 454.5800476074219
z: -0.10167811065912247
visibility: 0.9807683825492859
","x: 243.01048278808594
y: 514.008544921875
z: 0.22818279266357422
visibility: 0.5324501991271973
","x: 239.28675842285156
y: 525.4030151367188
z: -0.016392085701227188
visibility: 0.9841518998146057
","x: 237.21713256835938
y: 523.5462036132812
z: 0.23365986347198486
visibility: 0.5426222681999207
","x: 233.04458618164062
y: 536.7163696289062
z: -0.009186605922877789
visibility: 0.9704131484031677
","x: 259.2010803222656
y: 529.8760375976562
z: 0.2113674432039261
visibility: 0.6438312530517578
","x: 256.91015625
y: 540.2244873046875
z: -0.045285649597644806
visibility: 0.978640079498291
",6.313016653060913,,,,,,,,,,,,,,,,,,,,,,,,,,,,,,,,,,,,,,,,,,
29,"x: 296.9374084472656
y: 362.037109375
z: -0.06395327299833298
visibility: 0.9997076392173767
","x: 298.8765563964844
y: 357.2201232910156
z: -0.04041949287056923
visibility: 0.999788761138916
","x: 298.942138671875
y: 357.3553466796875
z: -0.040334176272153854
visibility: 0.9997624158859253
","x: 299.0013427734375
y: 357.4105224609375
z: -0.04032044857740402
visibility: 0.9997842311859131
","x: 297.86383056640625
y: 355.30987548828125
z: -0.06489144265651703
visibility: 0.9998282790184021
","x: 297.13165283203125
y: 353.9770202636719
z: -0.06492610275745392
visibility: 0.9998359680175781
","x: 296.3184814453125
y: 352.35205078125
z: -0.06505106389522552
visibility: 0.9998873472213745
","x: 296.0343322753906
y: 355.52789306640625
z: 0.015297974459826946
visibility: 0.999453067779541
","x: 292.4512939453125
y: 349.0276794433594
z: -0.09910070896148682
visibility: 0.999843180179596
","x: 293.60113525390625
y: 365.8717346191406
z: -0.022855104878544807
visibility: 0.9995911717414856
","x: 292.1015625
y: 364.2266540527344
z: -0.05449357628822327
visibility: 0.9997690320014954
","x: 275.9135437011719
y: 364.67633056640625
z: 0.12792271375656128
visibility: 0.9990982413291931
","x: 276.8213195800781
y: 361.69512939453125
z: -0.1727697253227234
visibility: 0.999965488910675
","x: 265.37957763671875
y: 407.681884765625
z: 0.15888993442058563
visibility: 0.06389553844928741
","x: 268.6800231933594
y: 409.41522216796875
z: -0.14570188522338867
visibility: 0.8794600963592529
","x: 259.5278015136719
y: 443.5076599121094
z: 0.082379549741745
visibility: 0.06386830657720566
","x: 260.83355712890625
y: 446.6736145019531
z: -0.02153107523918152
visibility: 0.639619767665863
","x: 258.92218017578125
y: 449.33795166015625
z: 0.08028370141983032
visibility: 0.06669767200946808
","x: 259.4884338378906
y: 449.8122863769531
