uscmakers/ReverseChoreography/data/10_skeletons_keshi.csv
,NOSE,LEFT_EYE_INNER,LEFT_EYE,LEFT_EYE_OUTER,RIGHT_EYE_INNER,RIGHT_EYE,RIGHT_EYE_OUTER,LEFT_EAR,RIGHT_EAR,MOUTH_LEFT,MOUTH_RIGHT,LEFT_SHOULDER,RIGHT_SHOULDER,LEFT_ELBOW,RIGHT_ELBOW,LEFT_WRIST,RIGHT_WRIST,LEFT_PINKY,RIGHT_PINKY,LEFT_INDEX,RIGHT_INDEX,LEFT_THUMB,RIGHT_THUMB,LEFT_HIP,RIGHT_HIP,LEFT_KNEE,RIGHT_KNEE,LEFT_ANKLE,RIGHT_ANKLE,LEFT_HEEL,RIGHT_HEEL,LEFT_FOOT_INDEX,RIGHT_FOOT_INDEX,TIMESTAMP,WRIST,THUMB_CPC,THUMB_MCP,THUMB_IP,THUMB_TIP,INDEX_FINGER_MCP,INDEX_FINGER_PIP,INDEX_FINGER_DIP,INDEX_FINGER_TIP,MIDDLE_FINGER_MCP,MIDDLE_FINGER_PIP,MIDDLE_FINGER_DIP,MIDDLE_FINGER_TIP,RING_FINGER_PIP,RING_FINGER_DIP,RING_FINGER_TIP,RING_FINGER_MCP,PINKY_MCP,PINKY_PIP,PINKY_DIP,PINKY_TIP,WRIST2,THUMB_CPC2,THUMB_MCP2,THUMB_IP2,THUMB_TIP2,INDEX_FINGER_MCP2,INDEX_FINGER_PIP2,INDEX_FINGER_DIP2,INDEX_FINGER_TIP2,MIDDLE_FINGER_MCP2,MIDDLE_FINGER_PIP2,MIDDLE_FINGER_DIP2,MIDDLE_FINGER_TIP2,RING_FINGER_PIP2,RING_FINGER_DIP2,RING_FINGER_TIP2,RING_FINGER_MCP2,PINKY_MCP2,PINKY_PIP2,PINKY_DIP2,PINKY_TIP2
0,"x: 249.1569366455078
y: 250.70054626464844
z: -0.33789828419685364
visibility: 0.9999773502349854
","x: 250.81137084960938
y: 246.78077697753906
z: -0.3257710337638855
visibility: 0.9999185800552368
","x: 251.9510040283203
y: 247.2003173828125
z: -0.3257444500923157
visibility: 0.9999334812164307
","x: 253.17283630371094
y: 247.61386108398438
z: -0.3257269561290741
visibility: 0.9999169111251831
","x: 247.44778442382812
y: 246.10643005371094
z: -0.3242439329624176
visibility: 0.9998989105224609
","x: 246.24392700195312
y: 246.0684814453125
z: -0.3242917060852051
visibility: 0.9999115467071533
","x: 245.0251007080078
y: 246.18917846679688
z: -0.32428622245788574
visibility: 0.9999028444290161
","x: 255.82191467285156
y: 252.718017578125
z: -0.23177902400493622
visibility: 0.9998195767402649
","x: 242.95372009277344
y: 251.417236328125
z: -0.22871077060699463
visibility: 0.9998205304145813
","x: 251.52239990234375
y: 259.01153564453125
z: -0.3021862804889679
visibility: 0.9999499320983887
","x: 247.0246124267578
y: 258.40960693359375
z: -0.30126217007637024
visibility: 0.9999374151229858
","x: 266.2249755859375
y: 291.1777038574219
z: -0.15490785241127014
visibility: 0.9999529123306274
","x: 231.8665008544922
y: 286.2794189453125
z: -0.1338837742805481
visibility: 0.9999408721923828
","x: 271.7811584472656
y: 333.547119140625
z: -0.10125477612018585
visibility: 0.9960940480232239
","x: 222.60548400878906
y: 318.6815185546875
z: -0.04996199533343315
visibility: 0.9823805093765259
","x: 270.9707336425781
y: 374.6275634765625
z: -0.15490296483039856
visibility: 0.989628791809082
","x: 217.56698608398438
y: 349.8284912109375
z: -0.0860147625207901
visibility: 0.959184467792511
","x: 272.34912109375
y: 389.0374755859375
z: -0.1714196801185608
visibility: 0.9614041447639465
","x: 215.97607421875
y: 362.5130615234375
z: -0.0994461178779602
visibility: 0.9054816365242004
","x: 269.19207763671875
y: 388.557373046875
z: -0.19990308582782745
visibility: 0.9638529419898987
","x: 217.71664428710938
y: 362.4176025390625
z: -0.12618108093738556
visibility: 0.9105145335197449
","x: 268.03924560546875
y: 384.9319763183594
z: -0.16655945777893066
visibility: 0.9504991173744202
","x: 219.20823669433594
y: 358.98492431640625
z: -0.09688971936702728
visibility: 0.8979072570800781
","x: 254.12808227539062
y: 375.7957763671875
z: -0.0010554875480011106
visibility: 0.99968421459198
","x: 234.37989807128906
y: 371.4079284667969
z: 0.0009705157135613263
visibility: 0.9998855590820312
","x: 247.6212158203125
y: 439.4717712402344
z: 0.0448756217956543
visibility: 0.9900000691413879
","x: 229.20529174804688
y: 438.10626220703125
z: -0.033465225249528885
visibility: 0.9959436058998108
","x: 245.59164428710938
y: 501.6214294433594
z: 0.17690061032772064
visibility: 0.9919986128807068
","x: 221.50881958007812
y: 500.34429931640625
z: 0.07887585461139679
visibility: 0.9960651993751526
","x: 241.24453735351562
y: 511.3382263183594
z: 0.18308162689208984
visibility: 0.9047338366508484
","x: 224.47268676757812
y: 509.4046630859375
z: 0.08248132467269897
visibility: 0.917576789855957
","x: 252.6890106201172
y: 520.7036743164062
z: 0.07912805676460266
visibility: 0.9890674948692322
","x: 214.0363006591797
y: 520.7348022460938
z: -0.032090555876493454
visibility: 0.994948148727417
",3.807587146759033,,,,,,,,,,,,,,,,,,,,,,,,,,,,,,,,,,,,,,,,,,
1,"x: 249.1569366455078
y: 250.70054626464844
z: -0.33789828419685364
visibility: 0.9999773502349854
","x: 250.81137084960938
y: 246.78077697753906
z: -0.3257710337638855
visibility: 0.9999185800552368
","x: 251.9510040283203
y: 247.2003173828125
z: -0.3257444500923157
visibility: 0.9999334812164307
","x: 253.17283630371094
y: 247.61386108398438
z: -0.3257269561290741
visibility: 0.9999169111251831
","x: 247.44778442382812
y: 246.10643005371094
z: -0.3242439329624176
visibility: 0.9998989105224609
","x: 246.24392700195312
y: 246.0684814453125
z: -0.3242917060852051
visibility: 0.9999115467071533
","x: 245.0251007080078
y: 246.18917846679688
z: -0.32428622245788574
visibility: 0.9999028444290161
","x: 255.82191467285156
y: 252.718017578125
z: -0.23177902400493622
visibility: 0.9998195767402649
","x: 242.95372009277344
y: 251.417236328125
z: -0.22871077060699463
visibility: 0.9998205304145813
","x: 251.52239990234375
y: 259.01153564453125
z: -0.3021862804889679
visibility: 0.9999499320983887
","x: 247.0246124267578
y: 258.40960693359375
z: -0.30126217007637024
visibility: 0.9999374151229858
","x: 266.2249755859375
y: 291.1777038574219
z: -0.15490785241127014
visibility: 0.9999529123306274
","x: 231.8665008544922
y: 286.2794189453125
z: -0.1338837742805481
visibility: 0.9999408721923828
","x: 271.7811584472656
y: 333.547119140625
z: -0.10125477612018585
visibility: 0.9960940480232239
","x: 222.60548400878906
y: 318.6815185546875
z: -0.04996199533343315
visibility: 0.9823805093765259
","x: 270.9707336425781
y: 374.6275634765625
z: -0.15490296483039856
visibility: 0.989628791809082
","x: 217.56698608398438
y: 349.8284912109375
z: -0.0860147625207901
visibility: 0.959184467792511
","x: 272.34912109375
y: 389.0374755859375
z: -0.1714196801185608
visibility: 0.9614041447639465
","x: 215.97607421875
y: 362.5130615234375
z: -0.0994461178779602
visibility: 0.9054816365242004
","x: 269.19207763671875
y: 388.557373046875
z: -0.19990308582782745
visibility: 0.9638529419898987
","x: 217.71664428710938
y: 362.4176025390625
z: -0.12618108093738556
visibility: 0.9105145335197449
","x: 268.03924560546875
y: 384.9319763183594
z: -0.16655945777893066
visibility: 0.9504991173744202
","x: 219.20823669433594
y: 358.98492431640625
z: -0.09688971936702728
visibility: 0.8979072570800781
","x: 254.12808227539062
y: 375.7957763671875
z: -0.0010554875480011106
visibility: 0.99968421459198
","x: 234.37989807128906
y: 371.4079284667969
z: 0.0009705157135613263
visibility: 0.9998855590820312
","x: 247.6212158203125
y: 439.4717712402344
z: 0.0448756217956543
visibility: 0.9900000691413879
","x: 229.20529174804688
y: 438.10626220703125
z: -0.033465225249528885
visibility: 0.9959436058998108
","x: 245.59164428710938
y: 501.6214294433594
z: 0.17690061032772064
visibility: 0.9919986128807068
","x: 221.50881958007812
y: 500.34429931640625
z: 0.07887585461139679
visibility: 0.9960651993751526
","x: 241.24453735351562
y: 511.3382263183594
z: 0.18308162689208984
visibility: 0.9047338366508484
","x: 224.47268676757812
y: 509.4046630859375
z: 0.08248132467269897
visibility: 0.917576789855957
","x: 252.6890106201172
y: 520.7036743164062
z: 0.07912805676460266
visibility: 0.9890674948692322
","x: 214.0363006591797
y: 520.7348022460938
z: -0.032090555876493454
visibility: 0.994948148727417
",3.807587146759033,,,,,,,,,,,,,,,,,,,,,,,,,,,,,,,,,,,,,,,,,,
2,"x: 229.84866333007812
y: 249.48301696777344
z: -0.23063039779663086
visibility: 0.999975860118866
","x: 230.9264373779297
y: 245.4438018798828
z: -0.21520335972309113
visibility: 0.9999186396598816
","x: 231.90431213378906
y: 245.6477508544922
z: -0.2152392864227295
visibility: 0.9999319911003113
","x: 232.90805053710938
y: 245.831298828125
z: -0.21524593234062195
visibility: 0.9999161958694458
","x: 227.72308349609375
y: 245.61764526367188
z: -0.2142907828092575
visibility: 0.9998998045921326
","x: 226.37538146972656
y: 245.942138671875
z: -0.21430043876171112
visibility: 0.9999092221260071
","x: 224.989501953125
y: 246.1955108642578
z: -0.2143068015575409
visibility: 0.9998994469642639
","x: 235.02850341796875
y: 250.93605041503906
z: -0.12199588865041733
visibility: 0.9998241066932678
","x: 223.2102813720703
y: 251.94444274902344
z: -0.11770639568567276
visibility: 0.9998190999031067
","x: 232.36285400390625
y: 257.68975830078125
z: -0.19604112207889557
visibility: 0.9999516010284424
","x: 228.2847137451172
y: 258.155517578125
z: -0.1949293613433838
visibility: 0.9999405145645142
","x: 247.0054168701172
y: 288.5641784667969
z: -0.07304365932941437
visibility: 0.9999537467956543
","x: 212.076904296875
y: 286.938232421875
z: -0.07193280756473541
visibility: 0.9999358057975769
","x: 254.79754638671875
y: 329.36785888671875
z: -0.11939549446105957
visibility: 0.9955625534057617
","x: 203.72122192382812
y: 324.9180908203125
z: -0.12828375399112701
visibility: 0.9828728437423706
","x: 251.085205078125
y: 359.21954345703125
z: -0.27562814950942993
visibility: 0.9897122979164124
","x: 216.55715942382812
y: 344.0826110839844
z: -0.2876521050930023
visibility: 0.9618608951568604
","x: 249.5089569091797
y: 370.517333984375
z: -0.31820765137672424
visibility: 0.9632575511932373
","x: 217.86424255371094
y: 353.4321594238281
z: -0.32923653721809387
visibility: 0.9123700857162476
","x: 247.06381225585938
y: 367.3614196777344
z: -0.33595070242881775
visibility: 0.9655269384384155
","x: 221.4568328857422
y: 350.5433349609375
z: -0.3370733857154846
visibility: 0.9168536067008972
","x: 246.95376586914062
y: 363.7457580566406
z: -0.2858787178993225
visibility: 0.9526429176330566
","x: 221.18609619140625
y: 346.65570068359375
z: -0.2937789261341095
visibility: 0.9041485786437988
","x: 239.17645263671875
y: 375.5597229003906
z: -0.0003673182800412178
visibility: 0.9996877312660217
","x: 218.70257568359375
y: 373.00433349609375
z: 0.00034511572448536754
visibility: 0.9998775720596313
","x: 241.94378662109375
y: 439.7352294921875
z: -0.010283595882356167
visibility: 0.9904961585998535
","x: 220.71331787109375
y: 439.86376953125
z: -0.027995239943265915
visibility: 0.9959197640419006
","x: 245.59442138671875
y: 501.6147155761719
z: 0.1178557425737381
visibility: 0.9921823143959045
","x: 219.56417846679688
y: 502.5570983886719
z: 0.10054842382669449
visibility: 0.9960255026817322
","x: 241.63026428222656
y: 510.8248596191406
z: 0.12433893978595734
visibility: 0.9099594354629517
","x: 222.1076202392578
y: 512.7009887695312
z: 0.10709307342767715
visibility: 0.9184907078742981
","x: 253.536865234375
y: 520.7561645507812
z: 0.020948806777596474
visibility: 0.989210307598114
","x: 214.3153839111328
y: 522.8600463867188
z: -0.002701092278584838
visibility: 0.994532585144043
",4.418666362762451,"x: 218.16006469726562
y: 342.34552001953125
z: 0.0
","x: 221.54751586914062
y: 344.5419921875
z: 0.0008939706603996456
","x: 224.67120361328125
y: 347.95001220703125
z: 0.00021797727094963193
","x: 227.02694702148438
y: 350.233154296875
z: -0.0008059188257902861
","x: 228.94830322265625
y: 350.586669921875
z: -0.0017711836844682693
","x: 225.203369140625
y: 349.3037414550781
z: -0.0021442866418510675
","x: 227.54798889160156
y: 354.3172607421875
z: -0.004032990429550409
","x: 228.4881591796875
y: 358.2092590332031
z: -0.00476510776206851
","x: 228.9820556640625
y: 361.3188171386719
z: -0.0051322681829333305
","x: 223.6541290283203
y: 350.5811767578125
z: -0.00397729966789484
","x: 225.82785034179688
y: 356.82183837890625
z: -0.005795410368591547
","x: 226.74667358398438
y: 361.47967529296875
z: -0.006133250892162323
","x: 227.27914428710938
y: 365.0826721191406
z: -0.006463303696364164
","x: 221.79425048828125
y: 351.70379638671875
z: -0.0056855264119803905
","x: 223.47816467285156
y: 358.01837158203125
z: -0.007376649416983128
","x: 224.16845703125
y: 362.31640625
z: -0.0074266172014176846
","x: 224.6404571533203
y: 365.5946350097656
z: -0.007543493993580341
","x: 219.69622802734375
y: 352.6210021972656
z: -0.007338372524827719
","x: 220.52755737304688
y: 357.7913818359375
z: -0.008714801631867886
","x: 221.02291870117188
y: 361.1316223144531
z: -0.008845883421599865
","x: 221.46636962890625
y: 363.9053039550781
z: -0.008957138285040855
",,,,,,,,,,,,,,,,,,,,,
3,"x: 229.84866333007812
y: 249.48301696777344
z: -0.23063039779663086
visibility: 0.999975860118866
","x: 230.9264373779297
y: 245.4438018798828
z: -0.21520335972309113
visibility: 0.9999186396598816
","x: 231.90431213378906
y: 245.6477508544922
z: -0.2152392864227295
visibility: 0.9999319911003113
","x: 232.90805053710938
y: 245.831298828125
z: -0.21524593234062195
visibility: 0.9999161958694458
","x: 227.72308349609375
y: 245.61764526367188
z: -0.2142907828092575
visibility: 0.9998998045921326
","x: 226.37538146972656
y: 245.942138671875
z: -0.21430043876171112
visibility: 0.9999092221260071
","x: 224.989501953125
y: 246.1955108642578
z: -0.2143068015575409
visibility: 0.9998994469642639
","x: 235.02850341796875
y: 250.93605041503906
z: -0.12199588865041733
visibility: 0.9998241066932678
","x: 223.2102813720703
y: 251.94444274902344
z: -0.11770639568567276
visibility: 0.9998190999031067
","x: 232.36285400390625
y: 257.68975830078125
z: -0.19604112207889557
visibility: 0.9999516010284424
","x: 228.2847137451172
y: 258.155517578125
z: -0.1949293613433838
visibility: 0.9999405145645142
","x: 247.0054168701172
y: 288.5641784667969
z: -0.07304365932941437
visibility: 0.9999537467956543
","x: 212.076904296875
y: 286.938232421875
z: -0.07193280756473541
visibility: 0.9999358057975769
","x: 254.79754638671875
y: 329.36785888671875
z: -0.11939549446105957
visibility: 0.9955625534057617
","x: 203.72122192382812
y: 324.9180908203125
z: -0.12828375399112701
visibility: 0.9828728437423706
","x: 251.085205078125
y: 359.21954345703125
z: -0.27562814950942993
visibility: 0.9897122979164124
","x: 216.55715942382812
y: 344.0826110839844
z: -0.2876521050930023
visibility: 0.9618608951568604
","x: 249.5089569091797
y: 370.517333984375
z: -0.31820765137672424
visibility: 0.9632575511932373
","x: 217.86424255371094
y: 353.4321594238281
z: -0.32923653721809387
visibility: 0.9123700857162476
","x: 247.06381225585938
y: 367.3614196777344
z: -0.33595070242881775
visibility: 0.9655269384384155
","x: 221.4568328857422
y: 350.5433349609375
z: -0.3370733857154846
visibility: 0.9168536067008972
","x: 246.95376586914062
y: 363.7457580566406
z: -0.2858787178993225
visibility: 0.9526429176330566
","x: 221.18609619140625
y: 346.65570068359375
z: -0.2937789261341095
visibility: 0.9041485786437988
","x: 239.17645263671875
y: 375.5597229003906
z: -0.0003673182800412178
visibility: 0.9996877312660217
","x: 218.70257568359375
y: 373.00433349609375
z: 0.00034511572448536754
visibility: 0.9998775720596313
","x: 241.94378662109375
y: 439.7352294921875
z: -0.010283595882356167
visibility: 0.9904961585998535
","x: 220.71331787109375
y: 439.86376953125
z: -0.027995239943265915
visibility: 0.9959197640419006
","x: 245.59442138671875
y: 501.6147155761719
z: 0.1178557425737381
visibility: 0.9921823143959045
","x: 219.56417846679688
y: 502.5570983886719
z: 0.10054842382669449
visibility: 0.9960255026817322
","x: 241.63026428222656
y: 510.8248596191406
z: 0.12433893978595734
visibility: 0.9099594354629517
","x: 222.1076202392578
y: 512.7009887695312
z: 0.10709307342767715
visibility: 0.9184907078742981
","x: 253.536865234375
y: 520.7561645507812
z: 0.020948806777596474
visibility: 0.989210307598114
","x: 214.3153839111328
y: 522.8600463867188
z: -0.002701092278584838
visibility: 0.994532585144043
",4.418666362762451,"x: 218.16006469726562
y: 342.34552001953125
z: 0.0
","x: 221.54751586914062
y: 344.5419921875
z: 0.0008939706603996456
","x: 224.67120361328125
y: 347.95001220703125
z: 0.00021797727094963193
","x: 227.02694702148438
y: 350.233154296875
z: -0.0008059188257902861
","x: 228.94830322265625
y: 350.586669921875
z: -0.0017711836844682693
","x: 225.203369140625
y: 349.3037414550781
z: -0.0021442866418510675
","x: 227.54798889160156
y: 354.3172607421875
z: -0.004032990429550409
","x: 228.4881591796875
y: 358.2092590332031
z: -0.00476510776206851
","x: 228.9820556640625
y: 361.3188171386719
z: -0.0051322681829333305
","x: 223.6541290283203
y: 350.5811767578125
z: -0.00397729966789484
","x: 225.82785034179688
y: 356.82183837890625
z: -0.005795410368591547
","x: 226.74667358398438
y: 361.47967529296875
z: -0.006133250892162323
","x: 227.27914428710938
y: 365.0826721191406
z: -0.006463303696364164
","x: 221.79425048828125
y: 351.70379638671875
z: -0.0056855264119803905
","x: 223.47816467285156
y: 358.01837158203125
z: -0.007376649416983128
","x: 224.16845703125
y: 362.31640625
z: -0.0074266172014176846
","x: 224.6404571533203
y: 365.5946350097656
z: -0.007543493993580341
","x: 219.69622802734375
y: 352.6210021972656
z: -0.007338372524827719
","x: 220.52755737304688
y: 357.7913818359375
z: -0.008714801631867886
","x: 221.02291870117188
y: 361.1316223144531
z: -0.008845883421599865
","x: 221.46636962890625
y: 363.9053039550781
z: -0.008957138285040855
",,,,,,,,,,,,,,,,,,,,,
4,"x: 229.84866333007812
y: 249.48301696777344
z: -0.23063039779663086
visibility: 0.999975860118866
","x: 230.9264373779297
y: 245.4438018798828
z: -0.21520335972309113
visibility: 0.9999186396598816
","x: 231.90431213378906
y: 245.6477508544922
z: -0.2152392864227295
visibility: 0.9999319911003113
","x: 232.90805053710938
y: 245.831298828125
z: -0.21524593234062195
visibility: 0.9999161958694458
","x: 227.72308349609375
y: 245.61764526367188
z: -0.2142907828092575
visibility: 0.9998998045921326
","x: 226.37538146972656
y: 245.942138671875
z: -0.21430043876171112
visibility: 0.9999092221260071
","x: 224.989501953125
y: 246.1955108642578
z: -0.2143068015575409
visibility: 0.9998994469642639
","x: 235.02850341796875
y: 250.93605041503906
z: -0.12199588865041733
visibility: 0.9998241066932678
","x: 223.2102813720703
y: 251.94444274902344
z: -0.11770639568567276
visibility: 0.9998190999031067
","x: 232.36285400390625
y: 257.68975830078125
z: -0.19604112207889557
visibility: 0.9999516010284424
","x: 228.2847137451172
y: 258.155517578125
z: -0.1949293613433838
visibility: 0.9999405145645142
","x: 247.0054168701172
y: 288.5641784667969
z: -0.07304365932941437
visibility: 0.9999537467956543
","x: 212.076904296875
y: 286.938232421875
z: -0.07193280756473541
visibility: 0.9999358057975769
","x: 254.79754638671875
y: 329.36785888671875
z: -0.11939549446105957
visibility: 0.9955625534057617
","x: 203.72122192382812
y: 324.9180908203125
z: -0.12828375399112701
visibility: 0.9828728437423706
","x: 251.085205078125
y: 359.21954345703125
z: -0.27562814950942993
visibility: 0.9897122979164124
","x: 216.55715942382812
y: 344.0826110839844
z: -0.2876521050930023
visibility: 0.9618608951568604
","x: 249.5089569091797
y: 370.517333984375
z: -0.31820765137672424
visibility: 0.9632575511932373
","x: 217.86424255371094
y: 353.4321594238281
z: -0.32923653721809387
visibility: 0.9123700857162476
","x: 247.06381225585938
y: 367.3614196777344
z: -0.33595070242881775
visibility: 0.9655269384384155
","x: 221.4568328857422
y: 350.5433349609375
z: -0.3370733857154846
visibility: 0.9168536067008972
","x: 246.95376586914062
y: 363.7457580566406
z: -0.2858787178993225
visibility: 0.9526429176330566
","x: 221.18609619140625
y: 346.65570068359375
z: -0.2937789261341095
visibility: 0.9041485786437988
","x: 239.17645263671875
y: 375.5597229003906
z: -0.0003673182800412178
visibility: 0.9996877312660217
","x: 218.70257568359375
y: 373.00433349609375
z: 0.00034511572448536754
visibility: 0.9998775720596313
","x: 241.94378662109375
y: 439.7352294921875
z: -0.010283595882356167
visibility: 0.9904961585998535
","x: 220.71331787109375
y: 439.86376953125
z: -0.027995239943265915
visibility: 0.9959197640419006
","x: 245.59442138671875
y: 501.6147155761719
z: 0.1178557425737381
visibility: 0.9921823143959045
","x: 219.56417846679688
y: 502.5570983886719
z: 0.10054842382669449
visibility: 0.9960255026817322
","x: 241.63026428222656
y: 510.8248596191406
z: 0.12433893978595734
visibility: 0.9099594354629517
","x: 222.1076202392578
y: 512.7009887695312
z: 0.10709307342767715
visibility: 0.9184907078742981
","x: 253.536865234375
y: 520.7561645507812
z: 0.020948806777596474
visibility: 0.989210307598114
","x: 214.3153839111328
y: 522.8600463867188
z: -0.002701092278584838
visibility: 0.994532585144043
",4.418666362762451,"x: 218.16006469726562
y: 342.34552001953125
z: 0.0
","x: 221.54751586914062
y: 344.5419921875
z: 0.0008939706603996456
","x: 224.67120361328125
y: 347.95001220703125
z: 0.00021797727094963193
","x: 227.02694702148438
y: 350.233154296875
z: -0.0008059188257902861
","x: 228.94830322265625
y: 350.586669921875
z: -0.0017711836844682693
","x: 225.203369140625
y: 349.3037414550781
z: -0.0021442866418510675
","x: 227.54798889160156
y: 354.3172607421875
z: -0.004032990429550409
","x: 228.4881591796875
y: 358.2092590332031
z: -0.00476510776206851
","x: 228.9820556640625
y: 361.3188171386719
z: -0.0051322681829333305
","x: 223.6541290283203
y: 350.5811767578125
z: -0.00397729966789484
","x: 225.82785034179688
y: 356.82183837890625
z: -0.005795410368591547
","x: 226.74667358398438
y: 361.47967529296875
z: -0.006133250892162323
","x: 227.27914428710938
y: 365.0826721191406
z: -0.006463303696364164
","x: 221.79425048828125
y: 351.70379638671875
z: -0.0056855264119803905
","x: 223.47816467285156
y: 358.01837158203125
z: -0.007376649416983128
","x: 224.16845703125
y: 362.31640625
z: -0.0074266172014176846
","x: 224.6404571533203
y: 365.5946350097656
z: -0.007543493993580341
","x: 219.69622802734375
y: 352.6210021972656
z: -0.007338372524827719
","x: 220.52755737304688
y: 357.7913818359375
z: -0.008714801631867886
","x: 221.02291870117188
y: 361.1316223144531
z: -0.008845883421599865
","x: 221.46636962890625
y: 363.9053039550781
z: -0.008957138285040855
",,,,,,,,,,,,,,,,,,,,,
5,"x: 224.80059814453125
y: 249.6600341796875
z: -0.20513030886650085
visibility: 0.9999129176139832
","x: 224.24557495117188
y: 245.4668426513672
z: -0.19707775115966797
visibility: 0.9997670650482178
","x: 224.90940856933594
y: 245.70101928710938
z: -0.1971057802438736
visibility: 0.9997957944869995
","x: 225.544189453125
y: 245.7926788330078
z: -0.19714736938476562
visibility: 0.9997808337211609
","x: 221.89852905273438
y: 246.63909912109375
z: -0.19574248790740967
visibility: 0.9997223019599915
","x: 220.8607177734375
y: 247.51736450195312
z: -0.19576692581176758
visibility: 0.9997071027755737
","x: 219.7581787109375
y: 248.369384765625
z: -0.19582033157348633
visibility: 0.9996761083602905
","x: 226.50234985351562
y: 250.8585205078125
z: -0.1245097741484642
visibility: 0.9996902346611023
","x: 217.66224670410156
y: 254.559814453125
z: -0.1169380322098732
visibility: 0.9995501637458801
","x: 227.46897888183594
y: 257.6227111816406
z: -0.17580968141555786
visibility: 0.9999186992645264
","x: 224.2161865234375
y: 258.69482421875
z: -0.17375607788562775
visibility: 0.9998992085456848
","x: 242.0474090576172
y: 283.83795166015625
z: -0.08544592559337616
visibility: 0.9999529719352722
","x: 208.59024047851562
y: 288.3963623046875
z: -0.08038385212421417
visibility: 0.9999278783798218
","x: 248.52365112304688
y: 324.78192138671875
z: -0.16515178978443146
visibility: 0.9949809908866882
","x: 200.7337646484375
y: 329.3356018066406
z: -0.16026635468006134
visibility: 0.9816672801971436
","x: 244.7678985595703
y: 355.58453369140625
z: -0.3339640498161316
visibility: 0.989443302154541
","x: 215.22305297851562
y: 344.1418151855469
z: -0.31871357560157776
visibility: 0.9620020985603333
","x: 243.24148559570312
y: 368.7447814941406
z: -0.3794114589691162
visibility: 0.9646403789520264
","x: 218.20985412597656
y: 355.01898193359375
z: -0.35984963178634644
visibility: 0.9155972003936768
","x: 240.71099853515625
y: 365.73077392578125
z: -0.3940817415714264
visibility: 0.9668271541595459
","x: 221.7366485595703
y: 353.3291320800781
z: -0.36830300092697144
visibility: 0.9195734262466431
","x: 240.4532470703125
y: 361.2574768066406
z: -0.3435276448726654
visibility: 0.9540488719940186
","x: 221.05517578125
y: 349.576904296875
z: -0.3256269097328186
visibility: 0.9052051901817322
","x: 236.46865844726562
y: 373.63629150390625
z: 0.000817468564491719
visibility: 0.9996665120124817
","x: 215.14300537109375
y: 372.94781494140625
z: -0.0007959436625242233
visibility: 0.9998607039451599
","x: 240.0454864501953
y: 438.1473388671875
z: -0.027004361152648926
visibility: 0.9906707406044006
","x: 218.6803741455078
y: 440.3155212402344
z: -0.03353419154882431
visibility: 0.995496928691864
","x: 244.0401611328125
y: 500.4534606933594
z: 0.08372951298952103
visibility: 0.9920241236686707
","x: 218.46705627441406
y: 504.1410827636719
z: 0.0903456062078476
visibility: 0.9957172274589539
","x: 240.70384216308594
y: 508.4598083496094
z: 0.08834944665431976
visibility: 0.9118581414222717
","x: 221.22239685058594
y: 514.4901123046875
z: 0.09824872761964798
visibility: 0.915550172328949
","x: 250.8515167236328
y: 520.915283203125
z: -0.01795421540737152
visibility: 0.9886916875839233
","x: 215.1489715576172
y: 524.335205078125
z: -0.00990033708512783
visibility: 0.9936700463294983
",4.557399749755859,,,,,,,,,,,,,,,,,,,,,,,,,,,,,,,,,,,,,,,,,,
6,"x: 224.80059814453125
y: 249.6600341796875
z: -0.20513030886650085
visibility: 0.9999129176139832
","x: 224.24557495117188
y: 245.4668426513672
z: -0.19707775115966797
visibility: 0.9997670650482178
","x: 224.90940856933594
y: 245.70101928710938
z: -0.1971057802438736
visibility: 0.9997957944869995
","x: 225.544189453125
y: 245.7926788330078
z: -0.19714736938476562
visibility: 0.9997808337211609
","x: 221.89852905273438
y: 246.63909912109375
z: -0.19574248790740967
visibility: 0.9997223019599915
","x: 220.8607177734375
y: 247.51736450195312
z: -0.19576692581176758
visibility: 0.9997071027755737
","x: 219.7581787109375
y: 248.369384765625
z: -0.19582033157348633
visibility: 0.9996761083602905
","x: 226.50234985351562
y: 250.8585205078125
z: -0.1245097741484642
visibility: 0.9996902346611023
","x: 217.66224670410156
y: 254.559814453125
z: -0.1169380322098732
visibility: 0.9995501637458801
","x: 227.46897888183594
y: 257.6227111816406
z: -0.17580968141555786
visibility: 0.9999186992645264
","x: 224.2161865234375
y: 258.69482421875
z: -0.17375607788562775
visibility: 0.9998992085456848
","x: 242.0474090576172
y: 283.83795166015625
z: -0.08544592559337616
visibility: 0.9999529719352722
","x: 208.59024047851562
y: 288.3963623046875
z: -0.08038385212421417
visibility: 0.9999278783798218
","x: 248.52365112304688
y: 324.78192138671875
z: -0.16515178978443146
visibility: 0.9949809908866882
","x: 200.7337646484375
y: 329.3356018066406
z: -0.16026635468006134
visibility: 0.9816672801971436
","x: 244.7678985595703
y: 355.58453369140625
z: -0.3339640498161316
visibility: 0.989443302154541
","x: 215.22305297851562
y: 344.1418151855469
z: -0.31871357560157776
visibility: 0.9620020985603333
","x: 243.24148559570312
y: 368.7447814941406
z: -0.3794114589691162
visibility: 0.9646403789520264
","x: 218.20985412597656
y: 355.01898193359375
z: -0.35984963178634644
visibility: 0.9155972003936768
","x: 240.71099853515625
y: 365.73077392578125
z: -0.3940817415714264
visibility: 0.9668271541595459
","x: 221.7366485595703
y: 353.3291320800781
z: -0.36830300092697144
visibility: 0.9195734262466431
","x: 240.4532470703125
y: 361.2574768066406
z: -0.3435276448726654
visibility: 0.9540488719940186
","x: 221.05517578125
y: 349.576904296875
z: -0.3256269097328186
visibility: 0.9052051901817322
","x: 236.46865844726562
y: 373.63629150390625
z: 0.000817468564491719
visibility: 0.9996665120124817
","x: 215.14300537109375
y: 372.94781494140625
z: -0.0007959436625242233
visibility: 0.9998607039451599
","x: 240.0454864501953
y: 438.1473388671875
z: -0.027004361152648926
visibility: 0.9906707406044006
","x: 218.6803741455078
y: 440.3155212402344
z: -0.03353419154882431
visibility: 0.995496928691864
","x: 244.0401611328125
y: 500.4534606933594
z: 0.08372951298952103
visibility: 0.9920241236686707
","x: 218.46705627441406
y: 504.1410827636719
z: 0.0903456062078476
visibility: 0.9957172274589539
","x: 240.70384216308594
y: 508.4598083496094
z: 0.08834944665431976
visibility: 0.9118581414222717
","x: 221.22239685058594
y: 514.4901123046875
z: 0.09824872761964798
visibility: 0.915550172328949
","x: 250.8515167236328
y: 520.915283203125
z: -0.01795421540737152
visibility: 0.9886916875839233
","x: 215.1489715576172
y: 524.335205078125
z: -0.00990033708512783
visibility: 0.9936700463294983
",4.557399749755859,,,,,,,,,,,,,,,,,,,,,,,,,,,,,,,,,,,,,,,,,,
7,"x: 219.2695770263672
y: 245.42477416992188
z: -0.35609012842178345
visibility: 0.9999175071716309
","x: 220.18190002441406
y: 242.8682098388672
z: -0.3462774157524109
visibility: 0.9997758269309998
","x: 221.1783905029297
y: 242.88046264648438
z: -0.3462705612182617
visibility: 0.9998030662536621
","x: 222.21588134765625
y: 242.87283325195312
z: -0.34632399678230286
visibility: 0.9997892379760742
","x: 217.45315551757812
y: 244.6807861328125
z: -0.3441067337989807
visibility: 0.9997365474700928
","x: 216.50189208984375
y: 245.92648315429688
z: -0.34419041872024536
visibility: 0.9997233152389526
","x: 215.4783935546875
y: 247.17919921875
z: -0.3442381024360657
visibility: 0.9996950626373291
","x: 225.52886962890625
y: 248.52601623535156
z: -0.2590494453907013
visibility: 0.9996953010559082
","x: 214.46424865722656
y: 253.93380737304688
z: -0.2485567033290863
visibility: 0.9995721578598022
","x: 222.48866271972656
y: 252.0487823486328
z: -0.3215603828430176
visibility: 0.9999203085899353
","x: 218.6239013671875
y: 254.7655487060547
z: -0.3187951445579529
visibility: 0.999902606010437
","x: 240.85641479492188
y: 283.61029052734375
z: -0.17267943918704987
visibility: 0.9999478459358215
","x: 204.94052124023438
y: 289.1759033203125
z: -0.18075546622276306
visibility: 0.9999269843101501
","x: 248.7840576171875
y: 325.8889465332031
z: -0.14665836095809937
visibility: 0.9943758249282837
","x: 199.97634887695312
y: 332.9957275390625
z: -0.19115376472473145
visibility: 0.9820389747619629
","x: 248.8165283203125
y: 361.5895080566406
z: -0.29353082180023193
visibility: 0.9857402443885803
","x: 212.06185913085938
y: 353.731689453125
z: -0.2921476364135742
visibility: 0.9603090286254883
","x: 249.5689239501953
y: 378.63018798828125
z: -0.3651640713214874
visibility: 0.958109974861145
","x: 214.69935607910156
y: 368.21771240234375
z: -0.32360148429870605
visibility: 0.9131913185119629
","x: 247.25149536132812
y: 377.4432067871094
z: -0.33604153990745544
visibility: 0.960686981678009
","x: 218.33294677734375
y: 365.9567565917969
z: -0.3413681089878082
visibility: 0.9166554808616638
","x: 246.27816772460938
y: 373.79010009765625
z: -0.29502612352371216
visibility: 0.94685298204422
","x: 217.94183349609375
y: 361.2075500488281
z: -0.30103233456611633
visibility: 0.8999312520027161
","x: 235.57838439941406
y: 373.65301513671875
z: 0.0007774026598781347
visibility: 0.9996486902236938
","x: 214.07383728027344
y: 373.8656005859375
z: -0.0007519719656556845
visibility: 0.9998400211334229
","x: 236.83993530273438
y: 439.656982421875
z: -0.008935990743339062
visibility: 0.9906154274940491
","x: 217.8154754638672
y: 441.5036315917969
z: -0.018617354333400726
visibility: 0.9952214360237122
","x: 242.21531677246094
y: 504.53759765625
z: 0.09167809784412384
visibility: 0.9921163320541382
","x: 218.2007598876953
y: 504.8846130371094
z: 0.09510485082864761
visibility: 0.9954966306686401
","x: 239.41539001464844
y: 515.1011962890625
z: 0.09425615519285202
visibility: 0.9115756154060364
","x: 220.9368896484375
y: 514.65869140625
z: 0.10024873912334442
visibility: 0.9132235050201416
","x: 247.03640747070312
y: 524.0823974609375
z: -0.02210473269224167
visibility: 0.9887845516204834
","x: 215.498046875
y: 525.2359619140625
z: -0.011638308875262737
visibility: 0.9932831525802612
",4.72255277633667,"x: 211.1240692138672
y: 357.2744140625
z: 0.0
","x: 210.6538543701172
y: 364.04339599609375
z: 0.003717576153576374
","x: 211.58663940429688
y: 370.9883117675781
z: 0.004821872804313898
","x: 212.8863067626953
y: 375.53082275390625
z: 0.005058565177023411
","x: 214.13099670410156
y: 377.4928283691406
z: 0.005746758542954922
","x: 212.5677490234375
y: 375.83544921875
z: 0.001816565403714776
","x: 214.88674926757812
y: 383.39300537109375
z: 0.002142199082300067
","x: 215.23052978515625
y: 380.95428466796875
z: 0.003713437356054783
","x: 214.86036682128906
y: 377.7499694824219
z: 0.005056990776211023
","x: 214.13418579101562
y: 375.63116455078125
z: -0.0002654342679306865
","x: 215.8142547607422
y: 383.7029724121094
z: 0.0005114140221849084
","x: 215.7543487548828
y: 381.6191101074219
z: 0.0025849719531834126
","x: 215.36109924316406
y: 378.65576171875
z: 0.004141851328313351
","x: 215.74087524414062
y: 374.59185791015625
z: -0.0020443692337721586
","x: 217.18533325195312
y: 382.19049072265625
z: -0.0011152914958074689
","x: 216.93441772460938
y: 380.2526550292969
z: 0.0010749093489721417
","x: 216.38870239257812
y: 377.5787048339844
z: 0.002481224248185754
","x: 217.37596130371094
y: 373.00018310546875
z: -0.0036307310219854116
","x: 218.6439666748047
y: 378.9161376953125
z: -0.0027323926333338022
","x: 218.46047973632812
y: 377.844482421875
z: -0.001161884400062263
","x: 217.88235473632812
y: 375.8212890625
z: 8.169549255399033e-05
",,,,,,,,,,,,,,,,,,,,,
8,"x: 219.2695770263672
y: 245.42477416992188
z: -0.35609012842178345
visibility: 0.9999175071716309
","x: 220.18190002441406
y: 242.8682098388672
z: -0.3462774157524109
visibility: 0.9997758269309998
","x: 221.1783905029297
y: 242.88046264648438
z: -0.3462705612182617
visibility: 0.9998030662536621
","x: 222.21588134765625
y: 242.87283325195312
z: -0.34632399678230286
visibility: 0.9997892379760742
","x: 217.45315551757812
y: 244.6807861328125
z: -0.3441067337989807
visibility: 0.9997365474700928
","x: 216.50189208984375
y: 245.92648315429688
z: -0.34419041872024536
visibility: 0.9997233152389526
","x: 215.4783935546875
y: 247.17919921875
z: -0.3442381024360657
visibility: 0.9996950626373291
","x: 225.52886962890625
y: 248.52601623535156
z: -0.2590494453907013
visibility: 0.9996953010559082
","x: 214.46424865722656
y: 253.93380737304688
z: -0.2485567033290863
visibility: 0.9995721578598022
","x: 222.48866271972656
y: 252.0487823486328
z: -0.3215603828430176
visibility: 0.9999203085899353
","x: 218.6239013671875
y: 254.7655487060547
z: -0.3187951445579529
visibility: 0.999902606010437
","x: 240.85641479492188
y: 283.61029052734375
z: -0.17267943918704987
visibility: 0.9999478459358215
","x: 204.94052124023438
y: 289.1759033203125
z: -0.18075546622276306
visibility: 0.9999269843101501
","x: 248.7840576171875
y: 325.8889465332031
z: -0.14665836095809937
visibility: 0.9943758249282837
","x: 199.97634887695312
y: 332.9957275390625
z: -0.19115376472473145
visibility: 0.9820389747619629
","x: 248.8165283203125
y: 361.5895080566406
z: -0.29353082180023193
visibility: 0.9857402443885803
","x: 212.06185913085938
y: 353.731689453125
z: -0.2921476364135742
visibility: 0.9603090286254883
","x: 249.5689239501953
y: 378.63018798828125
z: -0.3651640713214874
visibility: 0.958109974861145
","x: 214.69935607910156
y: 368.21771240234375
z: -0.32360148429870605
visibility: 0.9131913185119629
","x: 247.25149536132812
y: 377.4432067871094
z: -0.33604153990745544
visibility: 0.960686981678009
","x: 218.33294677734375
y: 365.9567565917969
z: -0.3413681089878082
visibility: 0.9166554808616638
","x: 246.27816772460938
y: 373.79010009765625
z: -0.29502612352371216
visibility: 0.94685298204422
","x: 217.94183349609375
y: 361.2075500488281
z: -0.30103233456611633
visibility: 0.8999312520027161
","x: 235.57838439941406
y: 373.65301513671875
z: 0.0007774026598781347
visibility: 0.9996486902236938
","x: 214.07383728027344
y: 373.8656005859375
z: -0.0007519719656556845
visibility: 0.9998400211334229
","x: 236.83993530273438
y: 439.656982421875
z: -0.008935990743339062
visibility: 0.9906154274940491
","x: 217.8154754638672
y: 441.5036315917969
z: -0.018617354333400726
visibility: 0.9952214360237122
","x: 242.21531677246094
y: 504.53759765625
z: 0.09167809784412384
visibility: 0.9921163320541382
","x: 218.2007598876953
y: 504.8846130371094
z: 0.09510485082864761
visibility: 0.9954966306686401
","x: 239.41539001464844
y: 515.1011962890625
z: 0.09425615519285202
visibility: 0.9115756154060364
","x: 220.9368896484375
y: 514.65869140625
z: 0.10024873912334442
visibility: 0.9132235050201416
","x: 247.03640747070312
y: 524.0823974609375
z: -0.02210473269224167
visibility: 0.9887845516204834
","x: 215.498046875
y: 525.2359619140625
z: -0.011638308875262737
visibility: 0.9932831525802612
",4.72255277633667,"x: 211.1240692138672
y: 357.2744140625
z: 0.0
","x: 210.6538543701172
y: 364.04339599609375
z: 0.003717576153576374
","x: 211.58663940429688
y: 370.9883117675781
z: 0.004821872804313898
","x: 212.8863067626953
y: 375.53082275390625
z: 0.005058565177023411
","x: 214.13099670410156
y: 377.4928283691406
z: 0.005746758542954922
","x: 212.5677490234375
y: 375.83544921875
z: 0.001816565403714776
","x: 214.88674926757812
y: 383.39300537109375
z: 0.002142199082300067
","x: 215.23052978515625
y: 380.95428466796875
z: 0.003713437356054783
","x: 214.86036682128906
y: 377.7499694824219
z: 0.005056990776211023
","x: 214.13418579101562
y: 375.63116455078125
z: -0.0002654342679306865
","x: 215.8142547607422
y: 383.7029724121094
z: 0.0005114140221849084
","x: 215.7543487548828
y: 381.6191101074219
z: 0.0025849719531834126
","x: 215.36109924316406
y: 378.65576171875
z: 0.004141851328313351
","x: 215.74087524414062
y: 374.59185791015625
z: -0.0020443692337721586
","x: 217.18533325195312
y: 382.19049072265625
z: -0.0011152914958074689
","x: 216.93441772460938
y: 380.2526550292969
z: 0.0010749093489721417
","x: 216.38870239257812
y: 377.5787048339844
z: 0.002481224248185754
","x: 217.37596130371094
y: 373.00018310546875
z: -0.0036307310219854116
","x: 218.6439666748047
y: 378.9161376953125
z: -0.0027323926333338022
","x: 218.46047973632812
y: 377.844482421875
z: -0.001161884400062263
","x: 217.88235473632812
y: 375.8212890625
z: 8.169549255399033e-05
",,,,,,,,,,,,,,,,,,,,,
9,"x: 219.2695770263672
y: 245.42477416992188
z: -0.35609012842178345
visibility: 0.9999175071716309
","x: 220.18190002441406
y: 242.8682098388672
z: -0.3462774157524109
visibility: 0.9997758269309998
","x: 221.1783905029297
y: 242.88046264648438
z: -0.3462705612182617
visibility: 0.9998030662536621
","x: 222.21588134765625
y: 242.87283325195312
z: -0.34632399678230286
visibility: 0.9997892379760742
","x: 217.45315551757812
y: 244.6807861328125
z: -0.3441067337989807
visibility: 0.9997365474700928
","x: 216.50189208984375
y: 245.92648315429688
z: -0.34419041872024536
visibility: 0.9997233152389526
","x: 215.4783935546875
y: 247.17919921875
z: -0.3442381024360657
visibility: 0.9996950626373291
","x: 225.52886962890625
y: 248.52601623535156
z: -0.2590494453907013
visibility: 0.9996953010559082
","x: 214.46424865722656
y: 253.93380737304688
z: -0.2485567033290863
visibility: 0.9995721578598022
","x: 222.48866271972656
y: 252.0487823486328
z: -0.3215603828430176
visibility: 0.9999203085899353
","x: 218.6239013671875
y: 254.7655487060547
z: -0.3187951445579529
visibility: 0.999902606010437
","x: 240.85641479492188
y: 283.61029052734375
z: -0.17267943918704987
visibility: 0.9999478459358215
","x: 204.94052124023438
y: 289.1759033203125
z: -0.18075546622276306
visibility: 0.9999269843101501
","x: 248.7840576171875
y: 325.8889465332031
z: -0.14665836095809937
visibility: 0.9943758249282837
","x: 199.97634887695312
y: 332.9957275390625
z: -0.19115376472473145
visibility: 0.9820389747619629
","x: 248.8165283203125
y: 361.5895080566406
z: -0.29353082180023193
visibility: 0.9857402443885803
","x: 212.06185913085938
y: 353.731689453125
z: -0.2921476364135742
visibility: 0.9603090286254883
","x: 249.5689239501953
y: 378.63018798828125
z: -0.3651640713214874
visibility: 0.958109974861145
","x: 214.69935607910156
y: 368.21771240234375
z: -0.32360148429870605
visibility: 0.9131913185119629
","x: 247.25149536132812
y: 377.4432067871094
z: -0.33604153990745544
visibility: 0.960686981678009
","x: 218.33294677734375
y: 365.9567565917969
z: -0.3413681089878082
visibility: 0.9166554808616638
","x: 246.27816772460938
y: 373.79010009765625
z: -0.29502612352371216
visibility: 0.94685298204422
","x: 217.94183349609375
y: 361.2075500488281
z: -0.30103233456611633
visibility: 0.8999312520027161
","x: 235.57838439941406
y: 373.65301513671875
z: 0.0007774026598781347
visibility: 0.9996486902236938
","x: 214.07383728027344
y: 373.8656005859375
z: -0.0007519719656556845
visibility: 0.9998400211334229
","x: 236.83993530273438
y: 439.656982421875
z: -0.008935990743339062
visibility: 0.9906154274940491
","x: 217.8154754638672
y: 441.5036315917969
z: -0.018617354333400726
visibility: 0.9952214360237122
","x: 242.21531677246094
y: 504.53759765625
z: 0.09167809784412384
visibility: 0.9921163320541382
","x: 218.2007598876953
y: 504.8846130371094
z: 0.09510485082864761
visibility: 0.9954966306686401
","x: 239.41539001464844
y: 515.1011962890625
z: 0.09425615519285202
visibility: 0.9115756154060364
","x: 220.9368896484375
y: 514.65869140625
z: 0.10024873912334442
visibility: 0.9132235050201416
","x: 247.03640747070312
y: 524.0823974609375
z: -0.02210473269224167
visibility: 0.9887845516204834
","x: 215.498046875
y: 525.2359619140625
z: -0.011638308875262737
visibility: 0.9932831525802612
",4.72255277633667,"x: 211.1240692138672
y: 357.2744140625
z: 0.0
","x: 210.6538543701172
y: 364.04339599609375
z: 0.003717576153576374
","x: 211.58663940429688
y: 370.9883117675781
z: 0.004821872804313898
","x: 212.8863067626953
y: 375.53082275390625
z: 0.005058565177023411
","x: 214.13099670410156
y: 377.4928283691406
z: 0.005746758542954922
","x: 212.5677490234375
y: 375.83544921875
z: 0.001816565403714776
","x: 214.88674926757812
y: 383.39300537109375
z: 0.002142199082300067
","x: 215.23052978515625
y: 380.95428466796875
z: 0.003713437356054783
","x: 214.86036682128906
y: 377.7499694824219
z: 0.005056990776211023
","x: 214.13418579101562
y: 375.63116455078125
z: -0.0002654342679306865
","x: 215.8142547607422
y: 383.7029724121094
z: 0.0005114140221849084
","x: 215.7543487548828
y: 381.6191101074219
z: 0.0025849719531834126
","x: 215.36109924316406
y: 378.65576171875
z: 0.004141851328313351
","x: 215.74087524414062
y: 374.59185791015625
z: -0.0020443692337721586
","x: 217.18533325195312
y: 382.19049072265625
z: -0.0011152914958074689
","x: 216.93441772460938
y: 380.2526550292969
z: 0.0010749093489721417
","x: 216.38870239257812
y: 377.5787048339844
z: 0.002481224248185754
","x: 217.37596130371094
y: 373.00018310546875
z: -0.0036307310219854116
","x: 218.6439666748047
y: 378.9161376953125
z: -0.0027323926333338022
","x: 218.46047973632812
y: 377.844482421875
z: -0.001161884400062263
","x: 217.88235473632812
y: 375.8212890625
z: 8.169549255399033e-05
",,,,,,,,,,,,,,,,,,,,,
10,"x: 222.8271484375
y: 242.74671936035156
z: -0.26976922154426575
visibility: 0.9999244809150696
","x: 223.7662353515625
y: 240.72019958496094
z: -0.25598108768463135
visibility: 0.9997931122779846
","x: 224.87123107910156
y: 240.87429809570312
z: -0.2559840679168701
visibility: 0.9998186230659485
","x: 226.00804138183594
y: 241.04722595214844
z: -0.2559976279735565
visibility: 0.9998061060905457
","x: 220.61187744140625
y: 241.69061279296875
z: -0.257221519947052
visibility: 0.9997565150260925
","x: 219.49378967285156
y: 242.6338348388672
z: -0.25724929571151733
visibility: 0.999744713306427
","x: 218.38023376464844
y: 243.64219665527344
z: -0.25726261734962463
visibility: 0.9997171759605408
","x: 228.14730834960938
y: 246.06854248046875
z: -0.16930897533893585
visibility: 0.999717652797699
","x: 216.06045532226562
y: 250.6284942626953
z: -0.17582397162914276
visibility: 0.9995988607406616
","x: 226.13230895996094
y: 249.47572326660156
z: -0.23705220222473145
visibility: 0.9999263286590576
","x: 221.13330078125
y: 250.53262329101562
z: -0.2391047477722168
visibility: 0.9999091029167175
","x: 241.498779296875
y: 283.68389892578125
z: -0.10589750111103058
visibility: 0.9999508857727051
","x: 206.13665771484375
y: 289.3520812988281
z: -0.11208540201187134
visibility: 0.9999194741249084
","x: 250.41941833496094
y: 326.82135009765625
z: -0.05169477313756943
visibility: 0.9946277737617493
","x: 198.2662811279297
y: 330.2981872558594
z: -0.08521315455436707
visibility: 0.9813918471336365
","x: 254.25367736816406
y: 363.7149658203125
z: -0.11336348950862885
visibility: 0.9865103960037231
","x: 205.28236389160156
y: 354.4634704589844
z: -0.15028230845928192
visibility: 0.957690417766571
","x: 253.01490783691406
y: 380.82012939453125
z: -0.13246077299118042
visibility: 0.960538923740387
","x: 206.5636444091797
y: 368.15008544921875
z: -0.16917765140533447
visibility: 0.9095383882522583
","x: 249.054931640625
y: 381.0498046875
z: -0.15826687216758728
visibility: 0.963085412979126
","x: 209.2314453125
y: 366.12750244140625
z: -0.19203199446201324
visibility: 0.9130836129188538
","x: 247.38941955566406
y: 377.7156066894531
z: -0.12428885698318481
visibility: 0.9501709938049316
","x: 209.35165405273438
y: 361.5571594238281
z: -0.16028523445129395
visibility: 0.8953056931495667
","x: 236.66213989257812
y: 373.7298278808594
z: 0.000544744252692908
visibility: 0.9996472001075745
","x: 216.32827758789062
y: 375.5151062011719
z: -0.0005283054779283702
visibility: 0.999806821346283
","x: 235.67184448242188
y: 440.9420166015625
z: -0.0043669892475008965
visibility: 0.9904100298881531
","x: 218.14849853515625
y: 442.69464111328125
z: -0.009775280952453613
visibility: 0.9947127103805542
","x: 240.6223907470703
y: 508.8440246582031
z: 0.08768204599618912
visibility: 0.9922880530357361
","x: 218.20819091796875
y: 504.9713439941406
z: 0.0980384349822998
visibility: 0.9950668811798096
","x: 237.71580505371094
y: 520.8638916015625
z: 0.08956214040517807
visibility: 0.9121753573417664
","x: 220.82992553710938
y: 514.3712768554688
z: 0.10216619819402695
visibility: 0.9085756540298462
","x: 245.8778839111328
y: 527.5316772460938
z: -0.01765979826450348
visibility: 0.9889371395111084
","x: 215.61575317382812
y: 526.3224487304688
z: -0.002158815972507
visibility: 0.9926900267601013
",4.853485107421875,"x: 205.10499572753906
y: 357.6074523925781
z: 0.0
","x: 203.923095703125
y: 363.8673095703125
z: 0.004667495843023062
","x: 204.1616668701172
y: 369.99981689453125
z: 0.006820333190262318
","x: 205.03323364257812
y: 373.6939697265625
z: 0.007861108519136906
","x: 205.8199920654297
y: 375.944580078125
z: 0.008825928904116154
","x: 204.2871551513672
y: 374.0646667480469
z: 0.006482746452093124
","x: 204.59002685546875
y: 380.28662109375
z: 0.007589603308588266
","x: 205.03915405273438
y: 384.07830810546875
z: 0.008366155438125134
","x: 205.31568908691406
y: 386.5704040527344
z: 0.008991317823529243
","x: 205.7851104736328
y: 374.6871643066406
z: 0.003720973851159215
","x: 206.2409210205078
y: 381.6426086425781
z: 0.005323454272001982
","x: 206.71600341796875
y: 385.2642517089844
z: 0.006456408649682999
","x: 207.00421142578125
y: 387.7086181640625
z: 0.007093267049640417
","x: 207.6522216796875
y: 374.5375061035156
z: 0.0009747494477778673
","x: 208.26466369628906
y: 381.4439392089844
z: 0.0022709041368216276
","x: 208.7152099609375
y: 385.10028076171875
z: 0.0033021175768226385
","x: 208.9361114501953
y: 387.87274169921875
z: 0.003737454069778323
","x: 209.74514770507812
y: 373.6160888671875
z: -0.001654565567150712
","x: 210.4723663330078
y: 379.27264404296875
z: -0.0010406861547380686
","x: 210.78594970703125
y: 382.51873779296875
z: -0.0003361926064826548
","x: 210.91563415527344
y: 385.13714599609375
z: 0.00011222425382584333
",,,,,,,,,,,,,,,,,,,,,
11,"x: 222.8271484375
y: 242.74671936035156
z: -0.26976922154426575
visibility: 0.9999244809150696
","x: 223.7662353515625
y: 240.72019958496094
z: -0.25598108768463135
visibility: 0.9997931122779846
","x: 224.87123107910156
y: 240.87429809570312
z: -0.2559840679168701
visibility: 0.9998186230659485
","x: 226.00804138183594
y: 241.04722595214844
z: -0.2559976279735565
visibility: 0.9998061060905457
","x: 220.61187744140625
y: 241.69061279296875
z: -0.257221519947052
visibility: 0.9997565150260925
","x: 219.49378967285156
y: 242.6338348388672
z: -0.25724929571151733
visibility: 0.999744713306427
","x: 218.38023376464844
y: 243.64219665527344
z: -0.25726261734962463
visibility: 0.9997171759605408
","x: 228.14730834960938
y: 246.06854248046875
z: -0.16930897533893585
visibility: 0.999717652797699
","x: 216.06045532226562
y: 250.6284942626953
z: -0.17582397162914276
visibility: 0.9995988607406616
","x: 226.13230895996094
y: 249.47572326660156
z: -0.23705220222473145
visibility: 0.9999263286590576
","x: 221.13330078125
y: 250.53262329101562
z: -0.2391047477722168
visibility: 0.9999091029167175
","x: 241.498779296875
y: 283.68389892578125
z: -0.10589750111103058
visibility: 0.9999508857727051
","x: 206.13665771484375
y: 289.3520812988281
z: -0.11208540201187134
visibility: 0.9999194741249084
","x: 250.41941833496094
y: 326.82135009765625
z: -0.05169477313756943
visibility: 0.9946277737617493
","x: 198.2662811279297
y: 330.2981872558594
z: -0.08521315455436707
visibility: 0.9813918471336365
","x: 254.25367736816406
y: 363.7149658203125
z: -0.11336348950862885
visibility: 0.9865103960037231
","x: 205.28236389160156
y: 354.4634704589844
z: -0.15028230845928192
visibility: 0.957690417766571
","x: 253.01490783691406
y: 380.82012939453125
z: -0.13246077299118042
visibility: 0.960538923740387
","x: 206.5636444091797
y: 368.15008544921875
z: -0.16917765140533447
visibility: 0.9095383882522583
","x: 249.054931640625
y: 381.0498046875
z: -0.15826687216758728
visibility: 0.963085412979126
","x: 209.2314453125
y: 366.12750244140625
z: -0.19203199446201324
visibility: 0.9130836129188538
","x: 247.38941955566406
y: 377.7156066894531
z: -0.12428885698318481
visibility: 0.9501709938049316
","x: 209.35165405273438
y: 361.5571594238281
z: -0.16028523445129395
visibility: 0.8953056931495667
","x: 236.66213989257812
y: 373.7298278808594
z: 0.000544744252692908
visibility: 0.9996472001075745
","x: 216.32827758789062
y: 375.5151062011719
z: -0.0005283054779283702
visibility: 0.999806821346283
","x: 235.67184448242188
y: 440.9420166015625
z: -0.0043669892475008965
visibility: 0.9904100298881531
","x: 218.14849853515625
y: 442.69464111328125
z: -0.009775280952453613
visibility: 0.9947127103805542
","x: 240.6223907470703
y: 508.8440246582031
z: 0.08768204599618912
visibility: 0.9922880530357361
","x: 218.20819091796875
y: 504.9713439941406
z: 0.0980384349822998
visibility: 0.9950668811798096
","x: 237.71580505371094
y: 520.8638916015625
z: 0.08956214040517807
visibility: 0.9121753573417664
","x: 220.82992553710938
y: 514.3712768554688
z: 0.10216619819402695
visibility: 0.9085756540298462
","x: 245.8778839111328
y: 527.5316772460938
z: -0.01765979826450348
visibility: 0.9889371395111084
","x: 215.61575317382812
y: 526.3224487304688
z: -0.002158815972507
visibility: 0.9926900267601013
",4.853485107421875,"x: 205.10499572753906
y: 357.6074523925781
z: 0.0
","x: 203.923095703125
y: 363.8673095703125
z: 0.004667495843023062
","x: 204.1616668701172
y: 369.99981689453125
z: 0.006820333190262318
","x: 205.03323364257812
y: 373.6939697265625
z: 0.007861108519136906
","x: 205.8199920654297
y: 375.944580078125
z: 0.008825928904116154
","x: 204.2871551513672
y: 374.0646667480469
z: 0.006482746452093124
","x: 204.59002685546875
y: 380.28662109375
z: 0.007589603308588266
","x: 205.03915405273438
y: 384.07830810546875
z: 0.008366155438125134
","x: 205.31568908691406
y: 386.5704040527344
z: 0.008991317823529243
","x: 205.7851104736328
y: 374.6871643066406
z: 0.003720973851159215
","x: 206.2409210205078
y: 381.6426086425781
z: 0.005323454272001982
","x: 206.71600341796875
y: 385.2642517089844
z: 0.006456408649682999
","x: 207.00421142578125
y: 387.7086181640625
z: 0.007093267049640417
","x: 207.6522216796875
y: 374.5375061035156
z: 0.0009747494477778673
","x: 208.26466369628906
y: 381.4439392089844
z: 0.0022709041368216276
","x: 208.7152099609375
y: 385.10028076171875
z: 0.0033021175768226385
","x: 208.9361114501953
y: 387.87274169921875
z: 0.003737454069778323
","x: 209.74514770507812
y: 373.6160888671875
z: -0.001654565567150712
","x: 210.4723663330078
y: 379.27264404296875
z: -0.0010406861547380686
","x: 210.78594970703125
y: 382.51873779296875
z: -0.0003361926064826548
","x: 210.91563415527344
y: 385.13714599609375
z: 0.00011222425382584333
",,,,,,,,,,,,,,,,,,,,,
12,"x: 222.8271484375
y: 242.74671936035156
z: -0.26976922154426575
visibility: 0.9999244809150696
","x: 223.7662353515625
y: 240.72019958496094
z: -0.25598108768463135
visibility: 0.9997931122779846
","x: 224.87123107910156
y: 240.87429809570312
z: -0.2559840679168701
visibility: 0.9998186230659485
","x: 226.00804138183594
y: 241.04722595214844
z: -0.2559976279735565
visibility: 0.9998061060905457
","x: 220.61187744140625
y: 241.69061279296875
z: -0.257221519947052
visibility: 0.9997565150260925
","x: 219.49378967285156
y: 242.6338348388672
z: -0.25724929571151733
visibility: 0.999744713306427
","x: 218.38023376464844
y: 243.64219665527344
z: -0.25726261734962463
visibility: 0.9997171759605408
","x: 228.14730834960938
y: 246.06854248046875
z: -0.16930897533893585
visibility: 0.999717652797699
","x: 216.06045532226562
y: 250.6284942626953
z: -0.17582397162914276
visibility: 0.9995988607406616
","x: 226.13230895996094
y: 249.47572326660156
z: -0.23705220222473145
visibility: 0.9999263286590576
","x: 221.13330078125
y: 250.53262329101562
z: -0.2391047477722168
visibility: 0.9999091029167175
","x: 241.498779296875
y: 283.68389892578125
z: -0.10589750111103058
visibility: 0.9999508857727051
","x: 206.13665771484375
y: 289.3520812988281
z: -0.11208540201187134
visibility: 0.9999194741249084
","x: 250.41941833496094
y: 326.82135009765625
z: -0.05169477313756943
visibility: 0.9946277737617493
","x: 198.2662811279297
y: 330.2981872558594
z: -0.08521315455436707
visibility: 0.9813918471336365
","x: 254.25367736816406
y: 363.7149658203125
z: -0.11336348950862885
visibility: 0.9865103960037231
","x: 205.28236389160156
y: 354.4634704589844
z: -0.15028230845928192
visibility: 0.957690417766571
","x: 253.01490783691406
y: 380.82012939453125
z: -0.13246077299118042
visibility: 0.960538923740387
","x: 206.5636444091797
y: 368.15008544921875
z: -0.16917765140533447
visibility: 0.9095383882522583
","x: 249.054931640625
y: 381.0498046875
z: -0.15826687216758728
visibility: 0.963085412979126
","x: 209.2314453125
y: 366.12750244140625
z: -0.19203199446201324
visibility: 0.9130836129188538
","x: 247.38941955566406
y: 377.7156066894531
z: -0.12428885698318481
visibility: 0.9501709938049316
","x: 209.35165405273438
y: 361.5571594238281
z: -0.16028523445129395
visibility: 0.8953056931495667
","x: 236.66213989257812
y: 373.7298278808594
z: 0.000544744252692908
visibility: 0.9996472001075745
","x: 216.32827758789062
y: 375.5151062011719
z: -0.0005283054779283702
visibility: 0.999806821346283
","x: 235.67184448242188
y: 440.9420166015625
z: -0.0043669892475008965
visibility: 0.9904100298881531
","x: 218.14849853515625
y: 442.69464111328125
z: -0.009775280952453613
visibility: 0.9947127103805542
","x: 240.6223907470703
y: 508.8440246582031
z: 0.08768204599618912
visibility: 0.9922880530357361
","x: 218.20819091796875
y: 504.9713439941406
z: 0.0980384349822998
visibility: 0.9950668811798096
","x: 237.71580505371094
y: 520.8638916015625
z: 0.08956214040517807
visibility: 0.9121753573417664
","x: 220.82992553710938
y: 514.3712768554688
z: 0.10216619819402695
visibility: 0.9085756540298462
","x: 245.8778839111328
y: 527.5316772460938
z: -0.01765979826450348
visibility: 0.9889371395111084
","x: 215.61575317382812
y: 526.3224487304688
z: -0.002158815972507
visibility: 0.9926900267601013
",4.853485107421875,"x: 205.10499572753906
y: 357.6074523925781
z: 0.0
","x: 203.923095703125
y: 363.8673095703125
z: 0.004667495843023062
","x: 204.1616668701172
y: 369.99981689453125
z: 0.006820333190262318
","x: 205.03323364257812
y: 373.6939697265625
z: 0.007861108519136906
","x: 205.8199920654297
y: 375.944580078125
z: 0.008825928904116154
","x: 204.2871551513672
y: 374.0646667480469
z: 0.006482746452093124
","x: 204.59002685546875
y: 380.28662109375
z: 0.007589603308588266
","x: 205.03915405273438
y: 384.07830810546875
z: 0.008366155438125134
","x: 205.31568908691406
y: 386.5704040527344
z: 0.008991317823529243
","x: 205.7851104736328
y: 374.6871643066406
z: 0.003720973851159215
","x: 206.2409210205078
y: 381.6426086425781
z: 0.005323454272001982
","x: 206.71600341796875
y: 385.2642517089844
z: 0.006456408649682999
","x: 207.00421142578125
y: 387.7086181640625
z: 0.007093267049640417
","x: 207.6522216796875
y: 374.5375061035156
z: 0.0009747494477778673
","x: 208.26466369628906
y: 381.4439392089844
z: 0.0022709041368216276
","x: 208.7152099609375
y: 385.10028076171875
z: 0.0033021175768226385
","x: 208.9361114501953
y: 387.87274169921875
z: 0.003737454069778323
","x: 209.74514770507812
y: 373.6160888671875
z: -0.001654565567150712
","x: 210.4723663330078
y: 379.27264404296875
z: -0.0010406861547380686
","x: 210.78594970703125
y: 382.51873779296875
z: -0.0003361926064826548
","x: 210.91563415527344
y: 385.13714599609375
z: 0.00011222425382584333
",,,,,,,,,,,,,,,,,,,,,
13,"x: 226.96255493164062
y: 241.79168701171875
z: -0.2513360381126404
visibility: 0.999931275844574
","x: 228.22618103027344
y: 240.04486083984375
z: -0.23808805644512177
visibility: 0.9998109340667725
","x: 229.3260955810547
y: 240.29721069335938
z: -0.23808281123638153
visibility: 0.9998347163200378
","x: 230.4937744140625
y: 240.60487365722656
z: -0.23807339370250702
visibility: 0.999823272228241
","x: 225.16397094726562
y: 240.59197998046875
z: -0.2393592894077301
visibility: 0.9997761249542236
","x: 224.04075622558594
y: 241.29922485351562
z: -0.23938100039958954
visibility: 0.9997661709785461
","x: 222.8651885986328
y: 242.06103515625
z: -0.2393800914287567
visibility: 0.9997402429580688
","x: 232.7501220703125
y: 245.98928833007812
z: -0.15233257412910461
visibility: 0.9997419118881226
","x: 220.6609344482422
y: 248.58670043945312
z: -0.15988865494728088
visibility: 0.9996294975280762
","x: 229.73098754882812
y: 248.739990234375
z: -0.21921005845069885
visibility: 0.9999326467514038
","x: 225.397705078125
y: 249.5834503173828
z: -0.22150897979736328
visibility: 0.9999158382415771
","x: 245.21539306640625
y: 284.2406921386719
z: -0.09068293869495392
visibility: 0.999954879283905
","x: 209.404296875
y: 288.7983093261719
z: -0.08826185762882233
visibility: 0.9999076724052429
","x: 254.0941162109375
y: 327.3559875488281
z: -0.033845022320747375
visibility: 0.9950315952301025
","x: 200.65948486328125
y: 326.5783996582031
z: -0.00959034077823162
visibility: 0.980063259601593
","x: 257.6754150390625
y: 366.70233154296875
z: -0.08944596350193024
visibility: 0.9876436591148376
","x: 203.12481689453125
y: 352.6205139160156
z: -0.017350997775793076
visibility: 0.9561843872070312
","x: 260.5469970703125
y: 381.8081970214844
z: -0.10446691513061523
visibility: 0.9636861085891724
","x: 203.0494384765625
y: 367.0177001953125
z: -0.025938909500837326
visibility: 0.9077593088150024
","x: 257.248291015625
y: 382.7164001464844
z: -0.1344904601573944
visibility: 0.9660831093788147
","x: 206.01437377929688
y: 366.069091796875
z: -0.05080275982618332
visibility: 0.9115044474601746
","x: 255.43006896972656
y: 379.13836669921875
z: -0.10154948383569717
visibility: 0.9541829824447632
","x: 206.73385620117188
y: 360.79461669921875
z: -0.026456866413354874
visibility: 0.8937196731567383
","x: 238.78204345703125
y: 373.764892578125
z: 0.0002716080634854734
visibility: 0.9996528029441833
","x: 218.18295288085938
y: 375.8552551269531
z: -0.0002691771660465747
visibility: 0.9997884631156921
","x: 236.8224639892578
y: 441.7526550292969
z: 0.0012036911211907864
visibility: 0.990798830986023
","x: 219.51878356933594
y: 443.8732604980469
z: -0.006034344434738159
visibility: 0.9946563243865967
","x: 240.69017028808594
y: 510.4745788574219
z: 0.09462791681289673
visibility: 0.9926957488059998
","x: 217.95413208007812
y: 505.5141906738281
z: 0.10005442798137665
visibility: 0.9950078725814819
","x: 237.87884521484375
y: 521.49365234375
z: 0.09647364169359207
visibility: 0.9133469462394714
","x: 220.2191619873047
y: 514.6013793945312
z: 0.10357286781072617
visibility: 0.9064658284187317
","x: 244.33164978027344
y: 528.7745361328125
z: -0.011584300547838211
visibility: 0.9894450306892395
","x: 215.6049346923828
y: 526.7472534179688
z: 0.0003857504343613982
visibility: 0.9926648139953613
",5.010693550109863,,,,,,,,,,,,,,,,,,,,,,,,,,,,,,,,,,,,,,,,,,
14,"x: 226.96255493164062
y: 241.79168701171875
z: -0.2513360381126404
visibility: 0.999931275844574
","x: 228.22618103027344
y: 240.04486083984375
z: -0.23808805644512177
visibility: 0.9998109340667725
","x: 229.3260955810547
y: 240.29721069335938
z: -0.23808281123638153
visibility: 0.9998347163200378
","x: 230.4937744140625
y: 240.60487365722656
z: -0.23807339370250702
visibility: 0.999823272228241
","x: 225.16397094726562
y: 240.59197998046875
z: -0.2393592894077301
visibility: 0.9997761249542236
","x: 224.04075622558594
y: 241.29922485351562
z: -0.23938100039958954
visibility: 0.9997661709785461
","x: 222.8651885986328
y: 242.06103515625
z: -0.2393800914287567
visibility: 0.9997402429580688
","x: 232.7501220703125
y: 245.98928833007812
z: -0.15233257412910461
visibility: 0.9997419118881226
","x: 220.6609344482422
y: 248.58670043945312
z: -0.15988865494728088
visibility: 0.9996294975280762
","x: 229.73098754882812
y: 248.739990234375
z: -0.21921005845069885
visibility: 0.9999326467514038
","x: 225.397705078125
y: 249.5834503173828
z: -0.22150897979736328
visibility: 0.9999158382415771
","x: 245.21539306640625
y: 284.2406921386719
z: -0.09068293869495392
visibility: 0.999954879283905
","x: 209.404296875
y: 288.7983093261719
z: -0.08826185762882233
visibility: 0.9999076724052429
","x: 254.0941162109375
y: 327.3559875488281
z: -0.033845022320747375
visibility: 0.9950315952301025
","x: 200.65948486328125
y: 326.5783996582031
z: -0.00959034077823162
visibility: 0.980063259601593
","x: 257.6754150390625
y: 366.70233154296875
z: -0.08944596350193024
visibility: 0.9876436591148376
","x: 203.12481689453125
y: 352.6205139160156
z: -0.017350997775793076
visibility: 0.9561843872070312
","x: 260.5469970703125
y: 381.8081970214844
z: -0.10446691513061523
visibility: 0.9636861085891724
","x: 203.0494384765625
y: 367.0177001953125
z: -0.025938909500837326
visibility: 0.9077593088150024
","x: 257.248291015625
y: 382.7164001464844
z: -0.1344904601573944
visibility: 0.9660831093788147
","x: 206.01437377929688
y: 366.069091796875
z: -0.05080275982618332
visibility: 0.9115044474601746
","x: 255.43006896972656
y: 379.13836669921875
z: -0.10154948383569717
visibility: 0.9541829824447632
","x: 206.73385620117188
y: 360.79461669921875
z: -0.026456866413354874
visibility: 0.8937196731567383
","x: 238.78204345703125
y: 373.764892578125
z: 0.0002716080634854734
visibility: 0.9996528029441833
","x: 218.18295288085938
y: 375.8552551269531
z: -0.0002691771660465747
visibility: 0.9997884631156921
","x: 236.8224639892578
y: 441.7526550292969
z: 0.0012036911211907864
visibility: 0.990798830986023
","x: 219.51878356933594
y: 443.8732604980469
z: -0.006034344434738159
visibility: 0.9946563243865967
","x: 240.69017028808594
y: 510.4745788574219
z: 0.09462791681289673
visibility: 0.9926957488059998
","x: 217.95413208007812
y: 505.5141906738281
z: 0.10005442798137665
visibility: 0.9950078725814819
","x: 237.87884521484375
y: 521.49365234375
z: 0.09647364169359207
visibility: 0.9133469462394714
","x: 220.2191619873047
y: 514.6013793945312
z: 0.10357286781072617
visibility: 0.9064658284187317
","x: 244.33164978027344
y: 528.7745361328125
z: -0.011584300547838211
visibility: 0.9894450306892395
","x: 215.6049346923828
y: 526.7472534179688
z: 0.0003857504343613982
visibility: 0.9926648139953613
",5.010693550109863,,,,,,,,,,,,,,,,,,,,,,,,,,,,,,,,,,,,,,,,,,
15,"x: 228.75694274902344
y: 242.0850830078125
z: -0.26692628860473633
visibility: 0.999934732913971
","x: 229.53921508789062
y: 240.02197265625
z: -0.253642201423645
visibility: 0.9998185038566589
","x: 230.41932678222656
y: 240.38038635253906
z: -0.2536376714706421
visibility: 0.9998422265052795
","x: 231.60618591308594
y: 240.764404296875
z: -0.25362786650657654
visibility: 0.9998296499252319
","x: 226.87228393554688
y: 240.1732177734375
z: -0.25551992654800415
visibility: 0.9997837543487549
","x: 225.92958068847656
y: 240.7437744140625
z: -0.2555617690086365
visibility: 0.9997784495353699
","x: 224.989013671875
y: 241.4447021484375
z: -0.2555754780769348
visibility: 0.9997544288635254
","x: 234.79176330566406
y: 246.32261657714844
z: -0.16316989064216614
visibility: 0.9997482895851135
","x: 223.0446319580078
y: 248.2793426513672
z: -0.17321014404296875
visibility: 0.9996493458747864
","x: 231.9598388671875
y: 249.4794464111328
z: -0.23276153206825256
visibility: 0.9999357461929321
","x: 227.7952880859375
y: 249.92007446289062
z: -0.23586337268352509
visibility: 0.9999188780784607
","x: 247.7308807373047
y: 284.6156005859375
z: -0.09304734319448471
visibility: 0.9999555349349976
","x: 212.38967895507812
y: 288.6498718261719
z: -0.09887557476758957
visibility: 0.9998964071273804
","x: 255.96823120117188
y: 327.761962890625
z: -0.026338249444961548
visibility: 0.9947916269302368
","x: 203.89151000976562
y: 326.30548095703125
z: -0.019141195341944695
visibility: 0.9784963130950928
","x: 258.22113037109375
y: 366.8045349121094
z: -0.07727572321891785
visibility: 0.9863032698631287
","x: 206.18267822265625
y: 353.6097412109375
z: -0.02535717748105526
visibility: 0.9506892561912537
","x: 259.4319152832031
y: 382.33282470703125
z: -0.0913589745759964
visibility: 0.9600220322608948
","x: 206.62307739257812
y: 367.122802734375
z: -0.034644827246665955
visibility: 0.8996075987815857
","x: 256.743896484375
y: 382.8604736328125
z: -0.11919678747653961
visibility: 0.9627784490585327
","x: 209.28009033203125
y: 365.684326171875
z: -0.05743749812245369
visibility: 0.9033239483833313
","x: 255.59197998046875
y: 379.1490478515625
z: -0.08848951756954193
visibility: 0.9505340456962585
","x: 209.80931091308594
y: 360.8838195800781
z: -0.03319600969552994
visibility: 0.8848494291305542
","x: 240.36512756347656
y: 375.679443359375
z: 0.0014856148045510054
visibility: 0.9996402263641357
","x: 219.79920959472656
y: 376.311767578125
z: -0.001526850857771933
visibility: 0.9997580051422119
","x: 238.11688232421875
y: 443.54736328125
z: 0.004720350261777639
visibility: 0.991062581539154
","x: 219.77130126953125
y: 444.6090393066406
z: -0.003795841708779335
visibility: 0.9945364594459534
","x: 240.56256103515625
y: 510.7635803222656
z: 0.10862648487091064
visibility: 0.9928938150405884
","x: 217.795166015625
y: 505.374267578125
z: 0.12692096829414368
visibility: 0.9948602318763733
","x: 237.84060668945312
y: 521.6570434570312
z: 0.11397723853588104
visibility: 0.9137730598449707
","x: 219.8531036376953
y: 513.97265625
z: 0.1331668496131897
visibility: 0.9036213755607605
","x: 243.70062255859375
y: 529.0674438476562
z: 0.009138931520283222
visibility: 0.9896335601806641
","x: 215.6044464111328
y: 526.9783935546875
z: 0.02992437407374382
visibility: 0.9924818277359009
",5.16884970664978,,,,,,,,,,,,,,,,,,,,,,,,,,,,,,,,,,,,,,,,,,
16,"x: 228.75694274902344
y: 242.0850830078125
z: -0.26692628860473633
visibility: 0.999934732913971
","x: 229.53921508789062
y: 240.02197265625
z: -0.253642201423645
visibility: 0.9998185038566589
","x: 230.41932678222656
y: 240.38038635253906
z: -0.2536376714706421
visibility: 0.9998422265052795
","x: 231.60618591308594
y: 240.764404296875
z: -0.25362786650657654
visibility: 0.9998296499252319
","x: 226.87228393554688
y: 240.1732177734375
z: -0.25551992654800415
visibility: 0.9997837543487549
","x: 225.92958068847656
y: 240.7437744140625
z: -0.2555617690086365
visibility: 0.9997784495353699
","x: 224.989013671875
y: 241.4447021484375
z: -0.2555754780769348
visibility: 0.9997544288635254
","x: 234.79176330566406
y: 246.32261657714844
z: -0.16316989064216614
visibility: 0.9997482895851135
","x: 223.0446319580078
y: 248.2793426513672
z: -0.17321014404296875
visibility: 0.9996493458747864
","x: 231.9598388671875
y: 249.4794464111328
z: -0.23276153206825256
visibility: 0.9999357461929321
","x: 227.7952880859375
y: 249.92007446289062
z: -0.23586337268352509
visibility: 0.9999188780784607
","x: 247.7308807373047
y: 284.6156005859375
z: -0.09304734319448471
visibility: 0.9999555349349976
","x: 212.38967895507812
y: 288.6498718261719
z: -0.09887557476758957
visibility: 0.9998964071273804
","x: 255.96823120117188
y: 327.761962890625
z: -0.026338249444961548
visibility: 0.9947916269302368
","x: 203.89151000976562
y: 326.30548095703125
z: -0.019141195341944695
visibility: 0.9784963130950928
","x: 258.22113037109375
y: 366.8045349121094
z: -0.07727572321891785
visibility: 0.9863032698631287
","x: 206.18267822265625
y: 353.6097412109375
z: -0.02535717748105526
visibility: 0.9506892561912537
","x: 259.4319152832031
y: 382.33282470703125
z: -0.0913589745759964
visibility: 0.9600220322608948
","x: 206.62307739257812
y: 367.122802734375
z: -0.034644827246665955
visibility: 0.8996075987815857
","x: 256.743896484375
y: 382.8604736328125
z: -0.11919678747653961
visibility: 0.9627784490585327
","x: 209.28009033203125
y: 365.684326171875
z: -0.05743749812245369
visibility: 0.9033239483833313
","x: 255.59197998046875
y: 379.1490478515625
z: -0.08848951756954193
visibility: 0.9505340456962585
","x: 209.80931091308594
y: 360.8838195800781
z: -0.03319600969552994
visibility: 0.8848494291305542
","x: 240.36512756347656
y: 375.679443359375
z: 0.0014856148045510054
visibility: 0.9996402263641357
","x: 219.79920959472656
y: 376.311767578125
z: -0.001526850857771933
visibility: 0.9997580051422119
","x: 238.11688232421875
y: 443.54736328125
z: 0.004720350261777639
visibility: 0.991062581539154
","x: 219.77130126953125
y: 444.6090393066406
z: -0.003795841708779335
visibility: 0.9945364594459534
","x: 240.56256103515625
y: 510.7635803222656
z: 0.10862648487091064
visibility: 0.9928938150405884
","x: 217.795166015625
y: 505.374267578125
z: 0.12692096829414368
visibility: 0.9948602318763733
","x: 237.84060668945312
y: 521.6570434570312
z: 0.11397723853588104
visibility: 0.9137730598449707
","x: 219.8531036376953
y: 513.97265625
z: 0.1331668496131897
visibility: 0.9036213755607605
","x: 243.70062255859375
y: 529.0674438476562
z: 0.009138931520283222
visibility: 0.9896335601806641
","x: 215.6044464111328
y: 526.9783935546875
z: 0.02992437407374382
visibility: 0.9924818277359009
",5.16884970664978,,,,,,,,,,,,,,,,,,,,,,,,,,,,,,,,,,,,,,,,,,
17,"x: 230.995361328125
y: 242.60379028320312
z: -0.2379341423511505
visibility: 0.9999338984489441
","x: 232.13694763183594
y: 240.45623779296875
z: -0.22584089636802673
visibility: 0.999811053276062
","x: 232.83047485351562
y: 240.77481079101562
z: -0.22585049271583557
visibility: 0.9998328685760498
","x: 233.74085998535156
y: 241.08102416992188
z: -0.22584788501262665
visibility: 0.999821126461029
","x: 230.06878662109375
y: 240.56842041015625
z: -0.2245343029499054
visibility: 0.9997795224189758
","x: 229.1858673095703
y: 241.08953857421875
z: -0.22457151114940643
visibility: 0.9997748732566833
","x: 228.11590576171875
y: 241.71762084960938
z: -0.22461068630218506
visibility: 0.9997521042823792
","x: 236.48812866210938
y: 246.80355834960938
z: -0.14173364639282227
visibility: 0.9997301697731018
","x: 226.0040283203125
y: 248.22592163085938
z: -0.13682836294174194
visibility: 0.9996270537376404
","x: 232.36544799804688
y: 249.7819366455078
z: -0.2057645320892334
visibility: 0.9999353885650635
","x: 229.31640625
y: 250.185546875
z: -0.20450159907341003
visibility: 0.9999163746833801
","x: 249.05953979492188
y: 284.729736328125
z: -0.08222652971744537
visibility: 0.9999561905860901
","x: 213.56314086914062
y: 288.19488525390625
z: -0.06355451047420502
visibility: 0.9998931884765625
","x: 262.6003723144531
y: 325.6431579589844
z: -0.041081011295318604
visibility: 0.9948070645332336
","x: 205.26950073242188
y: 323.48797607421875
z: -0.021420393139123917
visibility: 0.9786776900291443
","x: 259.1938171386719
y: 359.1592712402344
z: -0.1177372932434082
visibility: 0.98624587059021
","x: 204.5439453125
y: 348.007080078125
z: -0.08960030972957611
visibility: 0.9529010057449341
","x: 259.16949462890625
y: 373.4094543457031
z: -0.13860300183296204
visibility: 0.9605648517608643
","x: 204.46710205078125
y: 357.3770751953125
z: -0.10300140082836151
visibility: 0.9047345519065857
","x: 256.62591552734375
y: 369.8486633300781
z: -0.16340067982673645
visibility: 0.9632697105407715
","x: 206.96693420410156
y: 354.7613220214844
z: -0.12384357303380966
visibility: 0.9083079695701599
","x: 256.0386657714844
y: 364.8445129394531
z: -0.12764844298362732
visibility: 0.9508015513420105
","x: 207.6101531982422
y: 351.49578857421875
z: -0.09794103354215622
visibility: 0.8899531364440918
","x: 241.09388732910156
y: 377.75750732421875
z: -0.0011868647998198867
visibility: 0.999661922454834
","x: 220.44436645507812
y: 376.40362548828125
z: 0.0011665517231449485
visibility: 0.9997515082359314
","x: 238.77484130859375
y: 443.9688720703125
z: -0.0810454934835434
visibility: 0.9915738701820374
","x: 218.96365356445312
y: 444.3218688964844
z: 0.020585641264915466
visibility: 0.9945532083511353
","x: 240.17523193359375
y: 510.1976013183594
z: 0.007409481797367334
visibility: 0.9932600855827332
","x: 216.0904998779297
y: 504.8335266113281
z: 0.16681553423404694
visibility: 0.994670033454895
","x: 237.5409698486328
y: 521.3045043945312
z: 0.010006858967244625
visibility: 0.9174906611442566
","x: 218.36056518554688
y: 512.5037841796875
z: 0.17497166991233826
visibility: 0.9030256867408752
","x: 243.47373962402344
y: 529.7145385742188
z: -0.10285864025354385
visibility: 0.990180253982544
","x: 212.94039916992188
y: 526.7598876953125
z: 0.07823211699724197
visibility: 0.9922329783439636
",5.308893442153931,,,,,,,,,,,,,,,,,,,,,,"x: 259.2554016113281
y: 360.2874450683594
z: 0.0
","x: 256.2373962402344
y: 361.1146240234375
z: -0.0024576818104833364
","x: 253.9243927001953
y: 365.00152587890625
z: -0.003739455481991172
","x: 252.45611572265625
y: 369.8471374511719
z: -0.004294606391340494
","x: 251.2679901123047
y: 373.4881896972656
z: -0.004553733393549919
","x: 256.21575927734375
y: 371.21563720703125
z: -0.005778549239039421
","x: 253.95709228515625
y: 378.5711364746094
z: -0.0065867239609360695
","x: 252.2474365234375
y: 380.3242492675781
z: -0.005703002214431763
","x: 251.2242431640625
y: 380.3143310546875
z: -0.004775757901370525
","x: 257.97686767578125
y: 372.9570007324219
z: -0.004921159707009792
","x: 255.41473388671875
y: 380.33343505859375
z: -0.005642164498567581
","x: 253.3981475830078
y: 381.5047607421875
z: -0.004314583260565996
","x: 252.2627716064453
y: 380.97314453125
z: -0.0031522419303655624
","x: 259.0563659667969
y: 373.61865234375
z: -0.003977600485086441
","x: 256.7865905761719
y: 380.13897705078125
z: -0.004930228926241398
","x: 254.83416748046875
y: 381.3518981933594
z: -0.004082696046680212
","x: 253.60548400878906
y: 381.1128234863281
z: -0.0032731513492763042
","x: 259.6153259277344
y: 373.4976501464844
z: -0.0031722388230264187
","x: 257.9678955078125
y: 379.2731018066406
z: -0.004329910967499018
","x: 256.3348388671875
y: 380.7933044433594
z: -0.004141009878367186
","x: 255.17337036132812
y: 380.880126953125
z: -0.0036063294392079115
"
18,"x: 230.995361328125
y: 242.60379028320312
z: -0.2379341423511505
visibility: 0.9999338984489441
","x: 232.13694763183594
y: 240.45623779296875
z: -0.22584089636802673
visibility: 0.999811053276062
","x: 232.83047485351562
y: 240.77481079101562
z: -0.22585049271583557
visibility: 0.9998328685760498
","x: 233.74085998535156
y: 241.08102416992188
z: -0.22584788501262665
visibility: 0.999821126461029
","x: 230.06878662109375
y: 240.56842041015625
z: -0.2245343029499054
visibility: 0.9997795224189758
","x: 229.1858673095703
y: 241.08953857421875
z: -0.22457151114940643
visibility: 0.9997748732566833
","x: 228.11590576171875
y: 241.71762084960938
z: -0.22461068630218506
visibility: 0.9997521042823792
","x: 236.48812866210938
y: 246.80355834960938
z: -0.14173364639282227
visibility: 0.9997301697731018
","x: 226.0040283203125
y: 248.22592163085938
z: -0.13682836294174194
visibility: 0.9996270537376404
","x: 232.36544799804688
y: 249.7819366455078
z: -0.2057645320892334
visibility: 0.9999353885650635
","x: 229.31640625
y: 250.185546875
z: -0.20450159907341003
visibility: 0.9999163746833801
","x: 249.05953979492188
y: 284.729736328125
z: -0.08222652971744537
visibility: 0.9999561905860901
","x: 213.56314086914062
y: 288.19488525390625
z: -0.06355451047420502
visibility: 0.9998931884765625
","x: 262.6003723144531
y: 325.6431579589844
z: -0.041081011295318604
visibility: 0.9948070645332336
","x: 205.26950073242188
y: 323.48797607421875
z: -0.021420393139123917
visibility: 0.9786776900291443
","x: 259.1938171386719
y: 359.1592712402344
z: -0.1177372932434082
visibility: 0.98624587059021
","x: 204.5439453125
y: 348.007080078125
z: -0.08960030972957611
visibility: 0.9529010057449341
","x: 259.16949462890625
y: 373.4094543457031
z: -0.13860300183296204
visibility: 0.9605648517608643
","x: 204.46710205078125
y: 357.3770751953125
z: -0.10300140082836151
visibility: 0.9047345519065857
","x: 256.62591552734375
y: 369.8486633300781
z: -0.16340067982673645
visibility: 0.9632697105407715
","x: 206.96693420410156
y: 354.7613220214844
z: -0.12384357303380966
visibility: 0.9083079695701599
","x: 256.0386657714844
y: 364.8445129394531
z: -0.12764844298362732
visibility: 0.9508015513420105
","x: 207.6101531982422
y: 351.49578857421875
z: -0.09794103354215622
visibility: 0.8899531364440918
","x: 241.09388732910156
y: 377.75750732421875
z: -0.0011868647998198867
visibility: 0.999661922454834
","x: 220.44436645507812
y: 376.40362548828125
z: 0.0011665517231449485
visibility: 0.9997515082359314
","x: 238.77484130859375
y: 443.9688720703125
z: -0.0810454934835434
visibility: 0.9915738701820374
","x: 218.96365356445312
y: 444.3218688964844
z: 0.020585641264915466
visibility: 0.9945532083511353
","x: 240.17523193359375
y: 510.1976013183594
z: 0.007409481797367334
visibility: 0.9932600855827332
","x: 216.0904998779297
y: 504.8335266113281
z: 0.16681553423404694
visibility: 0.994670033454895
","x: 237.5409698486328
y: 521.3045043945312
z: 0.010006858967244625
visibility: 0.9174906611442566
","x: 218.36056518554688
y: 512.5037841796875
z: 0.17497166991233826
visibility: 0.9030256867408752
","x: 243.47373962402344
y: 529.7145385742188
z: -0.10285864025354385
visibility: 0.990180253982544
","x: 212.94039916992188
y: 526.7598876953125
z: 0.07823211699724197
visibility: 0.9922329783439636
",5.308893442153931,,,,,,,,,,,,,,,,,,,,,,"x: 259.2554016113281
y: 360.2874450683594
z: 0.0
","x: 256.2373962402344
y: 361.1146240234375
z: -0.0024576818104833364
","x: 253.9243927001953
y: 365.00152587890625
z: -0.003739455481991172
","x: 252.45611572265625
y: 369.8471374511719
z: -0.004294606391340494
","x: 251.2679901123047
y: 373.4881896972656
z: -0.004553733393549919
","x: 256.21575927734375
y: 371.21563720703125
z: -0.005778549239039421
","x: 253.95709228515625
y: 378.5711364746094
z: -0.0065867239609360695
","x: 252.2474365234375
y: 380.3242492675781
z: -0.005703002214431763
","x: 251.2242431640625
y: 380.3143310546875
z: -0.004775757901370525
","x: 257.97686767578125
y: 372.9570007324219
z: -0.004921159707009792
","x: 255.41473388671875
y: 380.33343505859375
z: -0.005642164498567581
","x: 253.3981475830078
y: 381.5047607421875
z: -0.004314583260565996
","x: 252.2627716064453
y: 380.97314453125
z: -0.0031522419303655624
","x: 259.0563659667969
y: 373.61865234375
z: -0.003977600485086441
","x: 256.7865905761719
y: 380.13897705078125
z: -0.004930228926241398
","x: 254.83416748046875
y: 381.3518981933594
z: -0.004082696046680212
","x: 253.60548400878906
y: 381.1128234863281
z: -0.0032731513492763042
","x: 259.6153259277344
y: 373.4976501464844
z: -0.0031722388230264187
","x: 257.9678955078125
y: 379.2731018066406
z: -0.004329910967499018
","x: 256.3348388671875
y: 380.7933044433594
z: -0.004141009878367186
","x: 255.17337036132812
y: 380.880126953125
z: -0.0036063294392079115
"
19,"x: 230.995361328125
y: 242.60379028320312
z: -0.2379341423511505
visibility: 0.9999338984489441
","x: 232.13694763183594
y: 240.45623779296875
z: -0.22584089636802673
visibility: 0.999811053276062
","x: 232.83047485351562
y: 240.77481079101562
z: -0.22585049271583557
visibility: 0.9998328685760498
","x: 233.74085998535156
y: 241.08102416992188
z: -0.22584788501262665
visibility: 0.999821126461029
","x: 230.06878662109375
y: 240.56842041015625
z: -0.2245343029499054
visibility: 0.9997795224189758
","x: 229.1858673095703
y: 241.08953857421875
z: -0.22457151114940643
visibility: 0.9997748732566833
","x: 228.11590576171875
y: 241.71762084960938
z: -0.22461068630218506
visibility: 0.9997521042823792
","x: 236.48812866210938
y: 246.80355834960938
z: -0.14173364639282227
visibility: 0.9997301697731018
","x: 226.0040283203125
y: 248.22592163085938
z: -0.13682836294174194
visibility: 0.9996270537376404
","x: 232.36544799804688
y: 249.7819366455078
z: -0.2057645320892334
visibility: 0.9999353885650635
","x: 229.31640625
y: 250.185546875
z: -0.20450159907341003
visibility: 0.9999163746833801
","x: 249.05953979492188
y: 284.729736328125
z: -0.08222652971744537
visibility: 0.9999561905860901
","x: 213.56314086914062
y: 288.19488525390625
z: -0.06355451047420502
visibility: 0.9998931884765625
","x: 262.6003723144531
y: 325.6431579589844
z: -0.041081011295318604
visibility: 0.9948070645332336
","x: 205.26950073242188
y: 323.48797607421875
z: -0.021420393139123917
visibility: 0.9786776900291443
","x: 259.1938171386719
y: 359.1592712402344
z: -0.1177372932434082
visibility: 0.98624587059021
","x: 204.5439453125
y: 348.007080078125
z: -0.08960030972957611
visibility: 0.9529010057449341
","x: 259.16949462890625
y: 373.4094543457031
z: -0.13860300183296204
visibility: 0.9605648517608643
","x: 204.46710205078125
y: 357.3770751953125
z: -0.10300140082836151
visibility: 0.9047345519065857
","x: 256.62591552734375
y: 369.8486633300781
z: -0.16340067982673645
visibility: 0.9632697105407715
","x: 206.96693420410156
y: 354.7613220214844
z: -0.12384357303380966
visibility: 0.9083079695701599
","x: 256.0386657714844
y: 364.8445129394531
z: -0.12764844298362732
visibility: 0.9508015513420105
","x: 207.6101531982422
y: 351.49578857421875
z: -0.09794103354215622
visibility: 0.8899531364440918
","x: 241.09388732910156
y: 377.75750732421875
z: -0.0011868647998198867
visibility: 0.999661922454834
","x: 220.44436645507812
y: 376.40362548828125
z: 0.0011665517231449485
visibility: 0.9997515082359314
","x: 238.77484130859375
y: 443.9688720703125
z: -0.0810454934835434
visibility: 0.9915738701820374
","x: 218.96365356445312
y: 444.3218688964844
z: 0.020585641264915466
visibility: 0.9945532083511353
","x: 240.17523193359375
y: 510.1976013183594
z: 0.007409481797367334
visibility: 0.9932600855827332
","x: 216.0904998779297
y: 504.8335266113281
z: 0.16681553423404694
visibility: 0.994670033454895
","x: 237.5409698486328
y: 521.3045043945312
z: 0.010006858967244625
visibility: 0.9174906611442566
","x: 218.36056518554688
y: 512.5037841796875
z: 0.17497166991233826
visibility: 0.9030256867408752
","x: 243.47373962402344
y: 529.7145385742188
z: -0.10285864025354385
visibility: 0.990180253982544
","x: 212.94039916992188
y: 526.7598876953125
z: 0.07823211699724197
visibility: 0.9922329783439636
",5.308893442153931,,,,,,,,,,,,,,,,,,,,,,"x: 259.2554016113281
y: 360.2874450683594
z: 0.0
","x: 256.2373962402344
y: 361.1146240234375
z: -0.0024576818104833364
","x: 253.9243927001953
y: 365.00152587890625
z: -0.003739455481991172
","x: 252.45611572265625
y: 369.8471374511719
z: -0.004294606391340494
","x: 251.2679901123047
y: 373.4881896972656
z: -0.004553733393549919
","x: 256.21575927734375
y: 371.21563720703125
z: -0.005778549239039421
","x: 253.95709228515625
y: 378.5711364746094
z: -0.0065867239609360695
","x: 252.2474365234375
y: 380.3242492675781
z: -0.005703002214431763
","x: 251.2242431640625
y: 380.3143310546875
z: -0.004775757901370525
","x: 257.97686767578125
y: 372.9570007324219
z: -0.004921159707009792
","x: 255.41473388671875
y: 380.33343505859375
z: -0.005642164498567581
","x: 253.3981475830078
y: 381.5047607421875
z: -0.004314583260565996
","x: 252.2627716064453
y: 380.97314453125
z: -0.0031522419303655624
","x: 259.0563659667969
y: 373.61865234375
z: -0.003977600485086441
","x: 256.7865905761719
y: 380.13897705078125
z: -0.004930228926241398
","x: 254.83416748046875
y: 381.3518981933594
z: -0.004082696046680212
","x: 253.60548400878906
y: 381.1128234863281
z: -0.0032731513492763042
","x: 259.6153259277344
y: 373.4976501464844
z: -0.0031722388230264187
","x: 257.9678955078125
y: 379.2731018066406
z: -0.004329910967499018
","x: 256.3348388671875
y: 380.7933044433594
z: -0.004141009878367186
","x: 255.17337036132812
y: 380.880126953125
z: -0.0036063294392079115
"
20,"x: 232.4718017578125
y: 242.36865234375
z: -0.2491925060749054
visibility: 0.9999303817749023
","x: 233.87754821777344
y: 240.07508850097656
z: -0.2368461638689041
visibility: 0.9997929334640503
","x: 234.54116821289062
y: 240.56405639648438
z: -0.2368493527173996
visibility: 0.9998178482055664
","x: 235.30868530273438
y: 241.03518676757812
z: -0.2368314266204834
visibility: 0.9998010396957397
","x: 231.8023681640625
y: 239.82907104492188
z: -0.2363136261701584
visibility: 0.9997641444206238
","x: 230.82884216308594
y: 240.250732421875
z: -0.2363615334033966
visibility: 0.999768853187561
","x: 229.64300537109375
y: 240.72659301757812
z: -0.23639312386512756
visibility: 0.9997500777244568
","x: 237.37022399902344
y: 246.98782348632812
z: -0.14982393383979797
visibility: 0.9996976256370544
","x: 227.20802307128906
y: 246.9849395751953
z: -0.14878837764263153
visibility: 0.9996036887168884
","x: 232.43484497070312
y: 250.00408935546875
z: -0.21615374088287354
visibility: 0.9999277591705322
","x: 230.34535217285156
y: 249.9659423828125
z: -0.21595101058483124
visibility: 0.9999043941497803
","x: 249.59603881835938
y: 284.1640625
z: -0.08388939499855042
visibility: 0.9999439716339111
","x: 213.8415985107422
y: 286.8237609863281
z: -0.06742987781763077
visibility: 0.9998658299446106
","x: 265.405029296875
y: 322.0306701660156
z: -0.025916269049048424
visibility: 0.9949694275856018
","x: 205.9097900390625
y: 320.47052001953125
z: 0.0006957674631848931
visibility: 0.9784185290336609
","x: 261.974853515625
y: 355.9118957519531
z: -0.08199559152126312
visibility: 0.9862814545631409
","x: 200.77723693847656
y: 345.4314880371094
z: -0.057700734585523605
visibility: 0.9544481635093689
","x: 260.22808837890625
y: 371.27862548828125
z: -0.09671519696712494
visibility: 0.9599128365516663
","x: 199.2039031982422
y: 354.00091552734375
z: -0.07430944591760635
visibility: 0.9079046249389648
","x: 257.59344482421875
y: 367.63812255859375
z: -0.12431442737579346
visibility: 0.9627256393432617
","x: 201.2657470703125
y: 351.4843444824219
z: -0.09934157133102417
visibility: 0.9116111397743225
","x: 257.6177978515625
y: 362.5717468261719
z: -0.09274621307849884
visibility: 0.9503465890884399
","x: 202.59730529785156
y: 348.8201904296875
z: -0.06824766099452972
visibility: 0.89373379945755
","x: 241.57029724121094
y: 377.61358642578125
z: -0.002768270205706358
visibility: 0.9995030164718628
","x: 220.8442840576172
y: 375.9396667480469
z: 0.0027278312481939793
visibility: 0.9996734857559204
","x: 238.75633239746094
y: 444.6280517578125
z: -0.07081583142280579
visibility: 0.9917042255401611
","x: 218.35263061523438
y: 444.2924499511719
z: -0.01130538247525692
visibility: 0.9946779608726501
","x: 240.0061492919922
y: 509.83050537109375
z: 0.07057268917560577
visibility: 0.9933501482009888
","x: 212.50973510742188
y: 509.8348388671875
z: 0.07047485560178757
visibility: 0.9948539137840271
","x: 237.46116638183594
y: 520.9551391601562
z: 0.07314950972795486
visibility: 0.9171349406242371
","x: 214.42758178710938
y: 519.7052612304688
z: 0.07144902646541595
visibility: 0.9052591919898987
","x: 243.45394897460938
y: 529.7911987304688
z: -0.03368610143661499
visibility: 0.9902493953704834
","x: 208.9669189453125
y: 528.7042236328125
z: -0.03176988661289215
visibility: 0.9923994541168213
",5.419041872024536,,,,,,,,,,,,,,,,,,,,,,,,,,,,,,,,,,,,,,,,,,
21,"x: 232.4718017578125
y: 242.36865234375
z: -0.2491925060749054
visibility: 0.9999303817749023
","x: 233.87754821777344
y: 240.07508850097656
z: -0.2368461638689041
visibility: 0.9997929334640503
","x: 234.54116821289062
y: 240.56405639648438
z: -0.2368493527173996
visibility: 0.9998178482055664
","x: 235.30868530273438
y: 241.03518676757812
z: -0.2368314266204834
visibility: 0.9998010396957397
","x: 231.8023681640625
y: 239.82907104492188
z: -0.2363136261701584
visibility: 0.9997641444206238
","x: 230.82884216308594
y: 240.250732421875
z: -0.2363615334033966
visibility: 0.999768853187561
","x: 229.64300537109375
y: 240.72659301757812
z: -0.23639312386512756
visibility: 0.9997500777244568
","x: 237.37022399902344
y: 246.98782348632812
z: -0.14982393383979797
visibility: 0.9996976256370544
","x: 227.20802307128906
y: 246.9849395751953
z: -0.14878837764263153
visibility: 0.9996036887168884
","x: 232.43484497070312
y: 250.00408935546875
z: -0.21615374088287354
visibility: 0.9999277591705322
","x: 230.34535217285156
y: 249.9659423828125
z: -0.21595101058483124
visibility: 0.9999043941497803
","x: 249.59603881835938
y: 284.1640625
z: -0.08388939499855042
visibility: 0.9999439716339111
","x: 213.8415985107422
y: 286.8237609863281
z: -0.06742987781763077
visibility: 0.9998658299446106
","x: 265.405029296875
y: 322.0306701660156
z: -0.025916269049048424
visibility: 0.9949694275856018
","x: 205.9097900390625
y: 320.47052001953125
z: 0.0006957674631848931
visibility: 0.9784185290336609
","x: 261.974853515625
y: 355.9118957519531
z: -0.08199559152126312
visibility: 0.9862814545631409
","x: 200.77723693847656
y: 345.4314880371094
z: -0.057700734585523605
visibility: 0.9544481635093689
","x: 260.22808837890625
y: 371.27862548828125
z: -0.09671519696712494
visibility: 0.9599128365516663
","x: 199.2039031982422
y: 354.00091552734375
z: -0.07430944591760635
visibility: 0.9079046249389648
","x: 257.59344482421875
y: 367.63812255859375
z: -0.12431442737579346
visibility: 0.9627256393432617
","x: 201.2657470703125
y: 351.4843444824219
z: -0.09934157133102417
visibility: 0.9116111397743225
","x: 257.6177978515625
y: 362.5717468261719
z: -0.09274621307849884
visibility: 0.9503465890884399
","x: 202.59730529785156
y: 348.8201904296875
z: -0.06824766099452972
visibility: 0.89373379945755
","x: 241.57029724121094
y: 377.61358642578125
z: -0.002768270205706358
visibility: 0.9995030164718628
","x: 220.8442840576172
y: 375.9396667480469
z: 0.0027278312481939793
visibility: 0.9996734857559204
","x: 238.75633239746094
y: 444.6280517578125
z: -0.07081583142280579
visibility: 0.9917042255401611
","x: 218.35263061523438
y: 444.2924499511719
z: -0.01130538247525692
visibility: 0.9946779608726501
","x: 240.0061492919922
y: 509.83050537109375
z: 0.07057268917560577
visibility: 0.9933501482009888
","x: 212.50973510742188
y: 509.8348388671875
z: 0.07047485560178757
visibility: 0.9948539137840271
","x: 237.46116638183594
y: 520.9551391601562
z: 0.07314950972795486
visibility: 0.9171349406242371
","x: 214.42758178710938
y: 519.7052612304688
z: 0.07144902646541595
visibility: 0.9052591919898987
","x: 243.45394897460938
y: 529.7911987304688
z: -0.03368610143661499
visibility: 0.9902493953704834
","x: 208.9669189453125
y: 528.7042236328125
z: -0.03176988661289215
visibility: 0.9923994541168213
",5.419041872024536,,,,,,,,,,,,,,,,,,,,,,,,,,,,,,,,,,,,,,,,,,
22,"x: 232.75367736816406
y: 242.37107849121094
z: -0.24284791946411133
visibility: 0.9999339580535889
","x: 234.08766174316406
y: 240.00718688964844
z: -0.2286718636751175
visibility: 0.9998041987419128
","x: 234.93841552734375
y: 240.5262908935547
z: -0.22870388627052307
visibility: 0.9998264312744141
","x: 235.97637939453125
y: 241.02745056152344
z: -0.2287137508392334
visibility: 0.9998115301132202
","x: 231.87066650390625
y: 239.5252227783203
z: -0.22891588509082794
visibility: 0.9997782111167908
","x: 230.9013671875
y: 239.75457763671875
z: -0.22896508872509003
visibility: 0.9997822642326355
","x: 229.72286987304688
y: 239.96995544433594
z: -0.22898074984550476
visibility: 0.9997650384902954
","x: 237.73887634277344
y: 246.86209106445312
z: -0.13720396161079407
visibility: 0.9997132420539856
","x: 227.33795166015625
y: 245.54379272460938
z: -0.14036792516708374
visibility: 0.999617874622345
","x: 233.49783325195312
y: 250.16375732421875
z: -0.20860955119132996
visibility: 0.9999299645423889
","x: 230.8153076171875
y: 249.6612548828125
z: -0.20961692929267883
visibility: 0.9999076128005981
","x: 250.0824432373047
y: 284.370849609375
z: -0.07943525165319443
visibility: 0.9999421238899231
","x: 214.34341430664062
y: 286.7693176269531
z: -0.06222756579518318
visibility: 0.9998442530632019
","x: 266.34039306640625
y: 320.1921081542969
z: -0.047736141830682755
visibility: 0.9952130317687988
","x: 203.9374542236328
y: 319.9019775390625
z: -0.053750209510326385
visibility: 0.9763746857643127
","x: 266.0843200683594
y: 356.31982421875
z: -0.11789841949939728
visibility: 0.9868952035903931
","x: 194.72914123535156
y: 337.7145080566406
z: -0.21095597743988037
visibility: 0.9538664221763611
","x: 266.2436218261719
y: 370.40911865234375
z: -0.14410313963890076
visibility: 0.9615321755409241
","x: 192.11550903320312
y: 343.30926513671875
z: -0.24244904518127441
visibility: 0.9090080857276917
","x: 262.529541015625
y: 368.6172790527344
z: -0.1653660237789154
visibility: 0.9642857909202576
","x: 193.76800537109375
y: 340.783447265625
z: -0.2656385600566864
visibility: 0.9132020473480225
","x: 261.8434753417969
y: 363.6973571777344
z: -0.12602081894874573
visibility: 0.9524625539779663
","x: 195.37380981445312
y: 339.01129150390625
z: -0.22408327460289001
visibility: 0.8955252766609192
","x: 241.6177978515625
y: 378.5360412597656
z: -0.0027874880470335484
visibility: 0.999458372592926
","x: 220.15464782714844
y: 375.89739990234375
z: 0.0027560931630432606
visibility: 0.9996531009674072
","x: 238.72166442871094
y: 445.16351318359375
z: -0.009110001847147942
visibility: 0.9913182854652405
","x: 216.81735229492188
y: 444.4794006347656
z: -0.052974503487348557
visibility: 0.9945205450057983
","x: 240.02294921875
y: 509.8099060058594
z: 0.07222498208284378
visibility: 0.9929413199424744
","x: 210.87460327148438
y: 513.3272094726562
z: 0.02146283909678459
visibility: 0.994685709476471
","x: 237.440185546875
y: 521.11865234375
z: 0.08035916835069656
visibility: 0.9139554500579834
","x: 212.20242309570312
y: 524.441162109375
z: 0.021694103255867958
visibility: 0.9019582271575928
","x: 244.1795196533203
y: 529.982177734375
z: -0.027148693799972534
visibility: 0.9896379709243774
","x: 208.62327575683594
y: 529.7132568359375
z: -0.08955523371696472
visibility: 0.9919955730438232
",5.514997959136963,,,,,,,,,,,,,,,,,,,,,,,,,,,,,,,,,,,,,,,,,,
23,"x: 232.75367736816406
y: 242.37107849121094
z: -0.24284791946411133
visibility: 0.9999339580535889
","x: 234.08766174316406
y: 240.00718688964844
z: -0.2286718636751175
visibility: 0.9998041987419128
","x: 234.93841552734375
y: 240.5262908935547
z: -0.22870388627052307
visibility: 0.9998264312744141
","x: 235.97637939453125
y: 241.02745056152344
z: -0.2287137508392334
visibility: 0.9998115301132202
","x: 231.87066650390625
y: 239.5252227783203
z: -0.22891588509082794
visibility: 0.9997782111167908
","x: 230.9013671875
y: 239.75457763671875
z: -0.22896508872509003
visibility: 0.9997822642326355
","x: 229.72286987304688
y: 239.96995544433594
z: -0.22898074984550476
visibility: 0.9997650384902954
","x: 237.73887634277344
y: 246.86209106445312
z: -0.13720396161079407
visibility: 0.9997132420539856
","x: 227.33795166015625
y: 245.54379272460938
z: -0.14036792516708374
visibility: 0.999617874622345
","x: 233.49783325195312
y: 250.16375732421875
z: -0.20860955119132996
visibility: 0.9999299645423889
","x: 230.8153076171875
y: 249.6612548828125
z: -0.20961692929267883
visibility: 0.9999076128005981
","x: 250.0824432373047
y: 284.370849609375
z: -0.07943525165319443
visibility: 0.9999421238899231
","x: 214.34341430664062
y: 286.7693176269531
z: -0.06222756579518318
visibility: 0.9998442530632019
","x: 266.34039306640625
y: 320.1921081542969
z: -0.047736141830682755
visibility: 0.9952130317687988
","x: 203.9374542236328
y: 319.9019775390625
z: -0.053750209510326385
visibility: 0.9763746857643127
","x: 266.0843200683594
y: 356.31982421875
z: -0.11789841949939728
visibility: 0.9868952035903931
","x: 194.72914123535156
y: 337.7145080566406
z: -0.21095597743988037
visibility: 0.9538664221763611
","x: 266.2436218261719
y: 370.40911865234375
z: -0.14410313963890076
visibility: 0.9615321755409241
","x: 192.11550903320312
y: 343.30926513671875
z: -0.24244904518127441
visibility: 0.9090080857276917
","x: 262.529541015625
y: 368.6172790527344
z: -0.1653660237789154
visibility: 0.9642857909202576
","x: 193.76800537109375
y: 340.783447265625
z: -0.2656385600566864
visibility: 0.9132020473480225
","x: 261.8434753417969
y: 363.6973571777344
z: -0.12602081894874573
visibility: 0.9524625539779663
","x: 195.37380981445312
y: 339.01129150390625
z: -0.22408327460289001
visibility: 0.8955252766609192
","x: 241.6177978515625
y: 378.5360412597656
z: -0.0027874880470335484
visibility: 0.999458372592926
","x: 220.15464782714844
y: 375.89739990234375
z: 0.0027560931630432606
visibility: 0.9996531009674072
","x: 238.72166442871094
y: 445.16351318359375
z: -0.009110001847147942
visibility: 0.9913182854652405
","x: 216.81735229492188
y: 444.4794006347656
z: -0.052974503487348557
visibility: 0.9945205450057983
","x: 240.02294921875
y: 509.8099060058594
z: 0.07222498208284378
visibility: 0.9929413199424744
","x: 210.87460327148438
y: 513.3272094726562
z: 0.02146283909678459
visibility: 0.994685709476471
","x: 237.440185546875
y: 521.11865234375
z: 0.08035916835069656
visibility: 0.9139554500579834
","x: 212.20242309570312
y: 524.441162109375
z: 0.021694103255867958
visibility: 0.9019582271575928
","x: 244.1795196533203
y: 529.982177734375
z: -0.027148693799972534
visibility: 0.9896379709243774
","x: 208.62327575683594
y: 529.7132568359375
z: -0.08955523371696472
visibility: 0.9919955730438232
",5.514997959136963,,,,,,,,,,,,,,,,,,,,,,,,,,,,,,,,,,,,,,,,,,
24,"x: 231.9869384765625
y: 242.64743041992188
z: -0.2800946831703186
visibility: 0.9999380111694336
","x: 233.6265869140625
y: 240.18328857421875
z: -0.26684901118278503
visibility: 0.9998168349266052
","x: 234.68910217285156
y: 240.68243408203125
z: -0.2669278085231781
visibility: 0.9998380541801453
","x: 235.8496856689453
y: 241.16738891601562
z: -0.2670031785964966
visibility: 0.9998247027397156
","x: 230.73483276367188
y: 239.77430725097656
z: -0.2657355070114136
visibility: 0.9997884631156921
","x: 229.63206481933594
y: 240.0174102783203
z: -0.2657898962497711
visibility: 0.9997913241386414
","x: 228.40492248535156
y: 240.24447631835938
z: -0.2657918334007263
visibility: 0.9997707009315491
","x: 237.62234497070312
y: 246.99008178710938
z: -0.1729988157749176
