uscmakers/ReverseChoreography/data/10_tik_tok_kesha.csv
,NOSE,LEFT_EYE_INNER,LEFT_EYE,LEFT_EYE_OUTER,RIGHT_EYE_INNER,RIGHT_EYE,RIGHT_EYE_OUTER,LEFT_EAR,RIGHT_EAR,MOUTH_LEFT,MOUTH_RIGHT,LEFT_SHOULDER,RIGHT_SHOULDER,LEFT_ELBOW,RIGHT_ELBOW,LEFT_WRIST,RIGHT_WRIST,LEFT_PINKY,RIGHT_PINKY,LEFT_INDEX,RIGHT_INDEX,LEFT_THUMB,RIGHT_THUMB,LEFT_HIP,RIGHT_HIP,LEFT_KNEE,RIGHT_KNEE,LEFT_ANKLE,RIGHT_ANKLE,LEFT_HEEL,RIGHT_HEEL,LEFT_FOOT_INDEX,RIGHT_FOOT_INDEX,TIMESTAMP,WRIST,THUMB_CPC,THUMB_MCP,THUMB_IP,THUMB_TIP,INDEX_FINGER_MCP,INDEX_FINGER_PIP,INDEX_FINGER_DIP,INDEX_FINGER_TIP,MIDDLE_FINGER_MCP,MIDDLE_FINGER_PIP,MIDDLE_FINGER_DIP,MIDDLE_FINGER_TIP,RING_FINGER_PIP,RING_FINGER_DIP,RING_FINGER_TIP,RING_FINGER_MCP,PINKY_MCP,PINKY_PIP,PINKY_DIP,PINKY_TIP,WRIST2,THUMB_CPC2,THUMB_MCP2,THUMB_IP2,THUMB_TIP2,INDEX_FINGER_MCP2,INDEX_FINGER_PIP2,INDEX_FINGER_DIP2,INDEX_FINGER_TIP2,MIDDLE_FINGER_MCP2,MIDDLE_FINGER_PIP2,MIDDLE_FINGER_DIP2,MIDDLE_FINGER_TIP2,RING_FINGER_PIP2,RING_FINGER_DIP2,RING_FINGER_TIP2,RING_FINGER_MCP2,PINKY_MCP2,PINKY_PIP2,PINKY_DIP2,PINKY_TIP2
0,"x: 239.8824462890625
y: 255.72479248046875
z: -0.2391531765460968
visibility: 0.9999527931213379
","x: 241.14427185058594
y: 251.91265869140625
z: -0.22310948371887207
visibility: 0.999890923500061
","x: 242.1861114501953
y: 252.31964111328125
z: -0.22310277819633484
visibility: 0.9998732805252075
","x: 243.30404663085938
y: 252.74024963378906
z: -0.22308950126171112
visibility: 0.9998743534088135
","x: 238.1287078857422
y: 250.8348388671875
z: -0.22572752833366394
visibility: 0.999889612197876
","x: 236.78675842285156
y: 250.69732666015625
z: -0.2257421910762787
visibility: 0.9998711347579956
","x: 235.39561462402344
y: 250.54302978515625
z: -0.2257125824689865
visibility: 0.9998729228973389
","x: 245.04501342773438
y: 257.220703125
z: -0.12210867553949356
visibility: 0.9997509121894836
","x: 232.19944763183594
y: 254.8921356201172
z: -0.13719286024570465
visibility: 0.9997219443321228
","x: 241.4730224609375
y: 263.6749572753906
z: -0.20128211379051208
visibility: 0.9999147653579712
","x: 236.95956420898438
y: 262.70758056640625
z: -0.20566019415855408
visibility: 0.999935507774353
","x: 252.79672241210938
y: 291.81048583984375
z: -0.06408188492059708
visibility: 0.9999306201934814
","x: 220.39794921875
y: 288.3726806640625
z: -0.07699570059776306
visibility: 0.9998296499252319
","x: 263.360107421875
y: 327.7174072265625
z: -0.07930286228656769
visibility: 0.9940165281295776
","x: 211.1769561767578
y: 325.6849365234375
z: -0.12965600192546844
visibility: 0.9887691736221313
","x: 256.0172424316406
y: 349.8837890625
z: -0.20792320370674133
visibility: 0.9935005307197571
","x: 219.3836669921875
y: 343.42034912109375
z: -0.2901282012462616
visibility: 0.9763594269752502
","x: 253.84068298339844
y: 359.4162292480469
z: -0.2460186779499054
visibility: 0.9824215769767761
","x: 221.17982482910156
y: 354.1688537597656
z: -0.33080849051475525
visibility: 0.9516890645027161
","x: 251.3914794921875
y: 356.2527770996094
z: -0.26348963379859924
visibility: 0.9830089211463928
","x: 224.65347290039062
y: 351.4862365722656
z: -0.33961376547813416
visibility: 0.9514249563217163
","x: 251.44944763183594
y: 353.0525207519531
z: -0.21718983352184296
visibility: 0.9743173122406006
","x: 224.77239990234375
y: 348.13800048828125
z: -0.296833872795105
visibility: 0.9342009425163269
","x: 245.150390625
y: 376.08990478515625
z: 0.005325905978679657
visibility: 0.9995480179786682
","x: 225.9729766845703
y: 376.2808532714844
z: -0.005286635830998421
visibility: 0.9997045397758484
","x: 246.6844024658203
y: 435.92108154296875
z: 0.020900752395391464
visibility: 0.9902454614639282
","x: 226.3226776123047
y: 438.8052062988281
z: -0.01868305914103985
visibility: 0.9921994805335999
","x: 247.30511474609375
y: 491.1539306640625
z: 0.15263620018959045
visibility: 0.984255313873291
","x: 225.5927734375
y: 498.69061279296875
z: 0.09980329126119614
visibility: 0.9911713004112244
","x: 245.0997772216797
y: 501.6714172363281
z: 0.1602284163236618
visibility: 0.8937240839004517
","x: 227.82676696777344
y: 507.0965576171875
z: 0.10553009808063507
visibility: 0.8702926635742188
","x: 251.73731994628906
y: 511.854248046875
z: 0.06338358670473099
visibility: 0.9796259999275208
","x: 223.62359619140625
y: 514.4690551757812
z: -0.0018644544761627913
visibility: 0.9839882254600525
",3.9666130542755127,,,,,,,,,,,,,,,,,,,,,,,,,,,,,,,,,,,,,,,,,,
1,"x: 239.8824462890625
y: 255.72479248046875
z: -0.2391531765460968
visibility: 0.9999527931213379
","x: 241.14427185058594
y: 251.91265869140625
z: -0.22310948371887207
visibility: 0.999890923500061
","x: 242.1861114501953
y: 252.31964111328125
z: -0.22310277819633484
visibility: 0.9998732805252075
","x: 243.30404663085938
y: 252.74024963378906
z: -0.22308950126171112
visibility: 0.9998743534088135
","x: 238.1287078857422
y: 250.8348388671875
z: -0.22572752833366394
visibility: 0.999889612197876
","x: 236.78675842285156
y: 250.69732666015625
z: -0.2257421910762787
visibility: 0.9998711347579956
","x: 235.39561462402344
y: 250.54302978515625
z: -0.2257125824689865
visibility: 0.9998729228973389
","x: 245.04501342773438
y: 257.220703125
z: -0.12210867553949356
visibility: 0.9997509121894836
","x: 232.19944763183594
y: 254.8921356201172
z: -0.13719286024570465
visibility: 0.9997219443321228
","x: 241.4730224609375
y: 263.6749572753906
z: -0.20128211379051208
visibility: 0.9999147653579712
","x: 236.95956420898438
y: 262.70758056640625
z: -0.20566019415855408
visibility: 0.999935507774353
","x: 252.79672241210938
y: 291.81048583984375
z: -0.06408188492059708
visibility: 0.9999306201934814
","x: 220.39794921875
y: 288.3726806640625
z: -0.07699570059776306
visibility: 0.9998296499252319
","x: 263.360107421875
y: 327.7174072265625
z: -0.07930286228656769
visibility: 0.9940165281295776
","x: 211.1769561767578
y: 325.6849365234375
z: -0.12965600192546844
visibility: 0.9887691736221313
","x: 256.0172424316406
y: 349.8837890625
z: -0.20792320370674133
visibility: 0.9935005307197571
","x: 219.3836669921875
y: 343.42034912109375
z: -0.2901282012462616
visibility: 0.9763594269752502
","x: 253.84068298339844
y: 359.4162292480469
z: -0.2460186779499054
visibility: 0.9824215769767761
","x: 221.17982482910156
y: 354.1688537597656
z: -0.33080849051475525
visibility: 0.9516890645027161
","x: 251.3914794921875
y: 356.2527770996094
z: -0.26348963379859924
visibility: 0.9830089211463928
","x: 224.65347290039062
y: 351.4862365722656
z: -0.33961376547813416
visibility: 0.9514249563217163
","x: 251.44944763183594
y: 353.0525207519531
z: -0.21718983352184296
visibility: 0.9743173122406006
","x: 224.77239990234375
y: 348.13800048828125
z: -0.296833872795105
visibility: 0.9342009425163269
","x: 245.150390625
y: 376.08990478515625
z: 0.005325905978679657
visibility: 0.9995480179786682
","x: 225.9729766845703
y: 376.2808532714844
z: -0.005286635830998421
visibility: 0.9997045397758484
","x: 246.6844024658203
y: 435.92108154296875
z: 0.020900752395391464
visibility: 0.9902454614639282
","x: 226.3226776123047
y: 438.8052062988281
z: -0.01868305914103985
visibility: 0.9921994805335999
","x: 247.30511474609375
y: 491.1539306640625
z: 0.15263620018959045
visibility: 0.984255313873291
","x: 225.5927734375
y: 498.69061279296875
z: 0.09980329126119614
visibility: 0.9911713004112244
","x: 245.0997772216797
y: 501.6714172363281
z: 0.1602284163236618
visibility: 0.8937240839004517
","x: 227.82676696777344
y: 507.0965576171875
z: 0.10553009808063507
visibility: 0.8702926635742188
","x: 251.73731994628906
y: 511.854248046875
z: 0.06338358670473099
visibility: 0.9796259999275208
","x: 223.62359619140625
y: 514.4690551757812
z: -0.0018644544761627913
visibility: 0.9839882254600525
",3.9666130542755127,,,,,,,,,,,,,,,,,,,,,,,,,,,,,,,,,,,,,,,,,,
2,"x: 250.5282440185547
y: 258.2369689941406
z: -0.21019506454467773
visibility: 0.999953031539917
","x: 251.67489624023438
y: 253.33224487304688
z: -0.19398728013038635
visibility: 0.9998871088027954
","x: 252.6394805908203
y: 253.52027893066406
z: -0.19398348033428192
visibility: 0.9998694658279419
","x: 253.4102783203125
y: 253.70675659179688
z: -0.19394993782043457
visibility: 0.9998686909675598
","x: 248.22987365722656
y: 253.03550720214844
z: -0.1978873908519745
visibility: 0.9998863339424133
","x: 246.78346252441406
y: 253.087158203125
z: -0.19790522754192352
visibility: 0.9998700618743896
","x: 245.41665649414062
y: 253.19688415527344
z: -0.19792389869689941
visibility: 0.9998698830604553
","x: 254.408203125
y: 257.5683898925781
z: -0.10092344135046005
visibility: 0.9997037053108215
","x: 242.9794921875
y: 256.942626953125
z: -0.12011124938726425
visibility: 0.9997232556343079
","x: 252.15969848632812
y: 265.15142822265625
z: -0.1752971112728119
visibility: 0.9999090433120728
","x: 247.6832275390625
y: 265.036865234375
z: -0.18074540793895721
visibility: 0.9999321103096008
","x: 262.4149475097656
y: 293.05133056640625
z: -0.02983907423913479
visibility: 0.9999220967292786
","x: 233.06134033203125
y: 289.09954833984375
z: -0.08692742884159088
visibility: 0.9998246431350708
","x: 269.65191650390625
y: 331.19329833984375
z: -0.004455150105059147
visibility: 0.9923229813575745
","x: 228.52931213378906
y: 329.3216247558594
z: -0.12005095183849335
visibility: 0.9889768362045288
","x: 270.841552734375
y: 356.6219787597656
z: -0.09154967218637466
visibility: 0.992296576499939
","x: 249.4279022216797
y: 343.4170227050781
z: -0.20029893517494202
visibility: 0.9770077466964722
","x: 272.81268310546875
y: 369.51171875
z: -0.11663778126239777
visibility: 0.9801506400108337
","x: 254.3885955810547
y: 352.1236877441406
z: -0.22613434493541718
visibility: 0.952947199344635
","x: 270.4206848144531
y: 368.073974609375
z: -0.13562093675136566
visibility: 0.9809648394584656
","x: 255.98680114746094
y: 348.1640930175781
z: -0.2346004694700241
visibility: 0.9525850415229797
","x: 269.1323547363281
y: 363.1072998046875
z: -0.10096164792776108
visibility: 0.9723049402236938
","x: 255.0940704345703
y: 345.828857421875
z: -0.203484445810318
visibility: 0.9354329109191895
","x: 254.6839141845703
y: 376.0894470214844
z: 0.02197686955332756
visibility: 0.9995086193084717
","x: 236.85049438476562
y: 373.6788635253906
z: -0.0220117699354887
visibility: 0.9996314644813538
","x: 249.0059814453125
y: 435.9234924316406
z: 0.01944866217672825
visibility: 0.9831715822219849
","x: 240.0088653564453
y: 437.09375
z: -0.019163738936185837
visibility: 0.9895945191383362
","x: 247.0452117919922
y: 493.5351257324219
z: 0.10591655969619751
visibility: 0.981330156326294
","x: 235.640380859375
y: 494.3717956542969
z: 0.08929942548274994
visibility: 0.9882105588912964
","x: 244.4167938232422
y: 502.569580078125
z: 0.10895643383264542
visibility: 0.8947560787200928
","x: 234.17921447753906
y: 503.445068359375
z: 0.09464991837739944
visibility: 0.8600680828094482
","x: 252.73947143554688
y: 512.023193359375
z: 0.027560193091630936
visibility: 0.97707200050354
","x: 238.25924682617188
y: 511.60400390625
z: -0.0008473947527818382
visibility: 0.9804267287254333
",4.644806623458862,"x: 250.0003662109375
y: 341.30120849609375
z: 0.0
","x: 253.84735107421875
y: 340.95758056640625
z: 0.0016992994351312518
","x: 257.28485107421875
y: 342.84906005859375
z: 0.001822451245971024
","x: 259.6199645996094
y: 345.4754638671875
z: 0.0013625427382066846
","x: 261.0367431640625
y: 347.71954345703125
z: 0.0010435673175379634
","x: 258.5664978027344
y: 343.5401916503906
z: 0.00024012994254007936
","x: 261.5083312988281
y: 348.0283203125
z: -0.0007161936373449862
","x: 262.6102294921875
y: 351.44866943359375
z: -0.0008857905631884933
","x: 263.1203308105469
y: 353.8747863769531
z: -0.0008025594870559871
","x: 257.55633544921875
y: 345.6620788574219
z: -0.001478899153880775
","x: 260.42822265625
y: 350.1875
z: -0.002377535216510296
","x: 261.3168640136719
y: 353.3077697753906
z: -0.0021564937196671963
","x: 261.5669250488281
y: 355.27862548828125
z: -0.0019142532255500555
","x: 256.1559143066406
y: 347.8446044921875
z: -0.003077356843277812
","x: 258.6788635253906
y: 352.1436767578125
z: -0.00398247642442584
","x: 259.4346923828125
y: 354.62457275390625
z: -0.003538678400218487
","x: 259.64190673828125
y: 356.0116882324219
z: -0.0031462956685572863
","x: 254.49380493164062
y: 349.87115478515625
z: -0.004638470243662596
","x: 256.1507263183594
y: 353.7444763183594
z: -0.005373591091483831
","x: 256.66998291015625
y: 355.84161376953125
z: -0.0050498684868216515
","x: 256.8663330078125
y: 357.1279296875
z: -0.004651278257369995
",,,,,,,,,,,,,,,,,,,,,
3,"x: 250.5282440185547
y: 258.2369689941406
z: -0.21019506454467773
visibility: 0.999953031539917
","x: 251.67489624023438
y: 253.33224487304688
z: -0.19398728013038635
visibility: 0.9998871088027954
","x: 252.6394805908203
y: 253.52027893066406
z: -0.19398348033428192
visibility: 0.9998694658279419
","x: 253.4102783203125
y: 253.70675659179688
z: -0.19394993782043457
visibility: 0.9998686909675598
","x: 248.22987365722656
y: 253.03550720214844
z: -0.1978873908519745
visibility: 0.9998863339424133
","x: 246.78346252441406
y: 253.087158203125
z: -0.19790522754192352
visibility: 0.9998700618743896
","x: 245.41665649414062
y: 253.19688415527344
z: -0.19792389869689941
visibility: 0.9998698830604553
","x: 254.408203125
y: 257.5683898925781
z: -0.10092344135046005
visibility: 0.9997037053108215
","x: 242.9794921875
y: 256.942626953125
z: -0.12011124938726425
visibility: 0.9997232556343079
","x: 252.15969848632812
y: 265.15142822265625
z: -0.1752971112728119
visibility: 0.9999090433120728
","x: 247.6832275390625
y: 265.036865234375
z: -0.18074540793895721
visibility: 0.9999321103096008
","x: 262.4149475097656
y: 293.05133056640625
z: -0.02983907423913479
visibility: 0.9999220967292786
","x: 233.06134033203125
y: 289.09954833984375
z: -0.08692742884159088
visibility: 0.9998246431350708
","x: 269.65191650390625
y: 331.19329833984375
z: -0.004455150105059147
visibility: 0.9923229813575745
","x: 228.52931213378906
y: 329.3216247558594
z: -0.12005095183849335
visibility: 0.9889768362045288
","x: 270.841552734375
y: 356.6219787597656
z: -0.09154967218637466
visibility: 0.992296576499939
","x: 249.4279022216797
y: 343.4170227050781
z: -0.20029893517494202
visibility: 0.9770077466964722
","x: 272.81268310546875
y: 369.51171875
z: -0.11663778126239777
visibility: 0.9801506400108337
","x: 254.3885955810547
y: 352.1236877441406
z: -0.22613434493541718
visibility: 0.952947199344635
","x: 270.4206848144531
y: 368.073974609375
z: -0.13562093675136566
visibility: 0.9809648394584656
","x: 255.98680114746094
y: 348.1640930175781
z: -0.2346004694700241
visibility: 0.9525850415229797
","x: 269.1323547363281
y: 363.1072998046875
z: -0.10096164792776108
visibility: 0.9723049402236938
","x: 255.0940704345703
y: 345.828857421875
z: -0.203484445810318
visibility: 0.9354329109191895
","x: 254.6839141845703
y: 376.0894470214844
z: 0.02197686955332756
visibility: 0.9995086193084717
","x: 236.85049438476562
y: 373.6788635253906
z: -0.0220117699354887
visibility: 0.9996314644813538
","x: 249.0059814453125
y: 435.9234924316406
z: 0.01944866217672825
visibility: 0.9831715822219849
","x: 240.0088653564453
y: 437.09375
z: -0.019163738936185837
visibility: 0.9895945191383362
","x: 247.0452117919922
y: 493.5351257324219
z: 0.10591655969619751
visibility: 0.981330156326294
","x: 235.640380859375
y: 494.3717956542969
z: 0.08929942548274994
visibility: 0.9882105588912964
","x: 244.4167938232422
y: 502.569580078125
z: 0.10895643383264542
visibility: 0.8947560787200928
","x: 234.17921447753906
y: 503.445068359375
z: 0.09464991837739944
visibility: 0.8600680828094482
","x: 252.73947143554688
y: 512.023193359375
z: 0.027560193091630936
visibility: 0.97707200050354
","x: 238.25924682617188
y: 511.60400390625
z: -0.0008473947527818382
visibility: 0.9804267287254333
",4.644806623458862,"x: 250.0003662109375
y: 341.30120849609375
z: 0.0
","x: 253.84735107421875
y: 340.95758056640625
z: 0.0016992994351312518
","x: 257.28485107421875
y: 342.84906005859375
z: 0.001822451245971024
","x: 259.6199645996094
y: 345.4754638671875
z: 0.0013625427382066846
","x: 261.0367431640625
y: 347.71954345703125
z: 0.0010435673175379634
","x: 258.5664978027344
y: 343.5401916503906
z: 0.00024012994254007936
","x: 261.5083312988281
y: 348.0283203125
z: -0.0007161936373449862
","x: 262.6102294921875
y: 351.44866943359375
z: -0.0008857905631884933
","x: 263.1203308105469
y: 353.8747863769531
z: -0.0008025594870559871
","x: 257.55633544921875
y: 345.6620788574219
z: -0.001478899153880775
","x: 260.42822265625
y: 350.1875
z: -0.002377535216510296
","x: 261.3168640136719
y: 353.3077697753906
z: -0.0021564937196671963
","x: 261.5669250488281
y: 355.27862548828125
z: -0.0019142532255500555
","x: 256.1559143066406
y: 347.8446044921875
z: -0.003077356843277812
","x: 258.6788635253906
y: 352.1436767578125
z: -0.00398247642442584
","x: 259.4346923828125
y: 354.62457275390625
z: -0.003538678400218487
","x: 259.64190673828125
y: 356.0116882324219
z: -0.0031462956685572863
","x: 254.49380493164062
y: 349.87115478515625
z: -0.004638470243662596
","x: 256.1507263183594
y: 353.7444763183594
z: -0.005373591091483831
","x: 256.66998291015625
y: 355.84161376953125
z: -0.0050498684868216515
","x: 256.8663330078125
y: 357.1279296875
z: -0.004651278257369995
",,,,,,,,,,,,,,,,,,,,,
4,"x: 250.5282440185547
y: 258.2369689941406
z: -0.21019506454467773
visibility: 0.999953031539917
","x: 251.67489624023438
y: 253.33224487304688
z: -0.19398728013038635
visibility: 0.9998871088027954
","x: 252.6394805908203
y: 253.52027893066406
z: -0.19398348033428192
visibility: 0.9998694658279419
","x: 253.4102783203125
y: 253.70675659179688
z: -0.19394993782043457
visibility: 0.9998686909675598
","x: 248.22987365722656
y: 253.03550720214844
z: -0.1978873908519745
visibility: 0.9998863339424133
","x: 246.78346252441406
y: 253.087158203125
z: -0.19790522754192352
visibility: 0.9998700618743896
","x: 245.41665649414062
y: 253.19688415527344
z: -0.19792389869689941
visibility: 0.9998698830604553
","x: 254.408203125
y: 257.5683898925781
z: -0.10092344135046005
visibility: 0.9997037053108215
","x: 242.9794921875
y: 256.942626953125
z: -0.12011124938726425
visibility: 0.9997232556343079
","x: 252.15969848632812
y: 265.15142822265625
z: -0.1752971112728119
visibility: 0.9999090433120728
","x: 247.6832275390625
y: 265.036865234375
z: -0.18074540793895721
visibility: 0.9999321103096008
","x: 262.4149475097656
y: 293.05133056640625
z: -0.02983907423913479
visibility: 0.9999220967292786
","x: 233.06134033203125
y: 289.09954833984375
z: -0.08692742884159088
visibility: 0.9998246431350708
","x: 269.65191650390625
y: 331.19329833984375
z: -0.004455150105059147
visibility: 0.9923229813575745
","x: 228.52931213378906
y: 329.3216247558594
z: -0.12005095183849335
visibility: 0.9889768362045288
","x: 270.841552734375
y: 356.6219787597656
z: -0.09154967218637466
visibility: 0.992296576499939
","x: 249.4279022216797
y: 343.4170227050781
z: -0.20029893517494202
visibility: 0.9770077466964722
","x: 272.81268310546875
y: 369.51171875
z: -0.11663778126239777
visibility: 0.9801506400108337
","x: 254.3885955810547
y: 352.1236877441406
z: -0.22613434493541718
visibility: 0.952947199344635
","x: 270.4206848144531
y: 368.073974609375
z: -0.13562093675136566
visibility: 0.9809648394584656
","x: 255.98680114746094
y: 348.1640930175781
z: -0.2346004694700241
visibility: 0.9525850415229797
","x: 269.1323547363281
y: 363.1072998046875
z: -0.10096164792776108
visibility: 0.9723049402236938
","x: 255.0940704345703
y: 345.828857421875
z: -0.203484445810318
visibility: 0.9354329109191895
","x: 254.6839141845703
y: 376.0894470214844
z: 0.02197686955332756
visibility: 0.9995086193084717
","x: 236.85049438476562
y: 373.6788635253906
z: -0.0220117699354887
visibility: 0.9996314644813538
","x: 249.0059814453125
y: 435.9234924316406
z: 0.01944866217672825
visibility: 0.9831715822219849
","x: 240.0088653564453
y: 437.09375
z: -0.019163738936185837
visibility: 0.9895945191383362
","x: 247.0452117919922
y: 493.5351257324219
z: 0.10591655969619751
visibility: 0.981330156326294
","x: 235.640380859375
y: 494.3717956542969
z: 0.08929942548274994
visibility: 0.9882105588912964
","x: 244.4167938232422
y: 502.569580078125
z: 0.10895643383264542
visibility: 0.8947560787200928
","x: 234.17921447753906
y: 503.445068359375
z: 0.09464991837739944
visibility: 0.8600680828094482
","x: 252.73947143554688
y: 512.023193359375
z: 0.027560193091630936
visibility: 0.97707200050354
","x: 238.25924682617188
y: 511.60400390625
z: -0.0008473947527818382
visibility: 0.9804267287254333
",4.644806623458862,"x: 250.0003662109375
y: 341.30120849609375
z: 0.0
","x: 253.84735107421875
y: 340.95758056640625
z: 0.0016992994351312518
","x: 257.28485107421875
y: 342.84906005859375
z: 0.001822451245971024
","x: 259.6199645996094
y: 345.4754638671875
z: 0.0013625427382066846
","x: 261.0367431640625
y: 347.71954345703125
z: 0.0010435673175379634
","x: 258.5664978027344
y: 343.5401916503906
z: 0.00024012994254007936
","x: 261.5083312988281
y: 348.0283203125
z: -0.0007161936373449862
","x: 262.6102294921875
y: 351.44866943359375
z: -0.0008857905631884933
","x: 263.1203308105469
y: 353.8747863769531
z: -0.0008025594870559871
","x: 257.55633544921875
y: 345.6620788574219
z: -0.001478899153880775
","x: 260.42822265625
y: 350.1875
z: -0.002377535216510296
","x: 261.3168640136719
y: 353.3077697753906
z: -0.0021564937196671963
","x: 261.5669250488281
y: 355.27862548828125
z: -0.0019142532255500555
","x: 256.1559143066406
y: 347.8446044921875
z: -0.003077356843277812
","x: 258.6788635253906
y: 352.1436767578125
z: -0.00398247642442584
","x: 259.4346923828125
y: 354.62457275390625
z: -0.003538678400218487
","x: 259.64190673828125
y: 356.0116882324219
z: -0.0031462956685572863
","x: 254.49380493164062
y: 349.87115478515625
z: -0.004638470243662596
","x: 256.1507263183594
y: 353.7444763183594
z: -0.005373591091483831
","x: 256.66998291015625
y: 355.84161376953125
z: -0.0050498684868216515
","x: 256.8663330078125
y: 357.1279296875
z: -0.004651278257369995
",,,,,,,,,,,,,,,,,,,,,
5,"x: 252.21633911132812
y: 259.27728271484375
z: -0.2559226155281067
visibility: 0.9999545812606812
","x: 253.664306640625
y: 254.2630157470703
z: -0.24130602180957794
visibility: 0.999891459941864
","x: 254.72108459472656
y: 254.48486328125
z: -0.24130423367023468
visibility: 0.9998745918273926
","x: 255.69613647460938
y: 254.6898193359375
z: -0.24129807949066162
visibility: 0.9998734593391418
","x: 250.26846313476562
y: 253.94024658203125
z: -0.24465692043304443
visibility: 0.9998899102210999
","x: 249.04803466796875
y: 254.03623962402344
z: -0.24469199776649475
visibility: 0.9998747706413269
","x: 247.6306610107422
y: 254.2091522216797
z: -0.24471238255500793
visibility: 0.9998739957809448
","x: 256.733154296875
y: 258.5320129394531
z: -0.1433413177728653
visibility: 0.9997008442878723
","x: 245.1617431640625
y: 258.5414733886719
z: -0.15914210677146912
visibility: 0.9997375011444092
","x: 253.9807891845703
y: 266.3585205078125
z: -0.21814875304698944
visibility: 0.9999110102653503
","x: 249.5889434814453
y: 266.17596435546875
z: -0.2226339876651764
visibility: 0.9999328851699829
","x: 264.5583190917969
y: 293.2491455078125
z: -0.04926259443163872
visibility: 0.9999210834503174
","x: 234.96766662597656
y: 289.4317932128906
z: -0.11891768127679825
visibility: 0.9998270273208618
","x: 270.4624328613281
y: 331.3138427734375
z: -0.021701360121369362
visibility: 0.9908044338226318
","x: 230.85269165039062
y: 331.3447570800781
z: -0.13026967644691467
visibility: 0.988970935344696
","x: 267.4700622558594
y: 353.1709289550781
z: -0.18341252207756042
visibility: 0.9911285638809204
","x: 250.91383361816406
y: 343.0426330566406
z: -0.21802929043769836
visibility: 0.9766806364059448
","x: 265.88995361328125
y: 362.84356689453125
z: -0.2140274941921234
visibility: 0.9780464172363281
","x: 256.2334289550781
y: 350.9316711425781
z: -0.24747340381145477
visibility: 0.9524183869361877
","x: 264.7392272949219
y: 357.76629638671875
z: -0.22851693630218506
visibility: 0.9790350794792175
","x: 257.76763916015625
y: 346.79461669921875
z: -0.2558043599128723
visibility: 0.9519617557525635
","x: 264.8874206542969
y: 354.18804931640625
z: -0.19244974851608276
visibility: 0.9698469638824463
","x: 256.20916748046875
y: 344.04058837890625
z: -0.2212425023317337
visibility: 0.9338449239730835
","x: 255.86480712890625
y: 374.59405517578125
z: 0.025352055206894875
visibility: 0.9995054006576538
","x: 238.48414611816406
y: 370.7200622558594
z: -0.025418544188141823
visibility: 0.9996038675308228
","x: 250.8328857421875
y: 435.8496398925781
z: 0.029011979699134827
visibility: 0.9782752990722656
","x: 241.9040069580078
y: 435.9065246582031
z: -0.022734928876161575
visibility: 0.9891107082366943
","x: 247.4522705078125
y: 493.3807067871094
z: 0.11502628028392792
visibility: 0.9796720147132874
","x: 235.98483276367188
y: 487.9473571777344
z: 0.09966091811656952
visibility: 0.9865822792053223
","x: 244.45596313476562
y: 501.6251220703125
z: 0.12268682569265366
visibility: 0.8961358666419983
","x: 234.82521057128906
y: 492.8262023925781
z: 0.10838828235864639
visibility: 0.8508185148239136
","x: 252.72177124023438
y: 512.1495361328125
z: 0.05553870648145676
visibility: 0.9755086898803711
","x: 238.04364013671875
y: 508.9239196777344
z: 0.024374816566705704
visibility: 0.9783757925033569
",4.803107261657715,,,,,,,,,,,,,,,,,,,,,,,,,,,,,,,,,,,,,,,,,,
6,"x: 252.21633911132812
y: 259.27728271484375
z: -0.2559226155281067
visibility: 0.9999545812606812
","x: 253.664306640625
y: 254.2630157470703
z: -0.24130602180957794
visibility: 0.999891459941864
","x: 254.72108459472656
y: 254.48486328125
z: -0.24130423367023468
visibility: 0.9998745918273926
","x: 255.69613647460938
y: 254.6898193359375
z: -0.24129807949066162
visibility: 0.9998734593391418
","x: 250.26846313476562
y: 253.94024658203125
z: -0.24465692043304443
visibility: 0.9998899102210999
","x: 249.04803466796875
y: 254.03623962402344
z: -0.24469199776649475
visibility: 0.9998747706413269
","x: 247.6306610107422
y: 254.2091522216797
z: -0.24471238255500793
visibility: 0.9998739957809448
","x: 256.733154296875
y: 258.5320129394531
z: -0.1433413177728653
visibility: 0.9997008442878723
","x: 245.1617431640625
y: 258.5414733886719
z: -0.15914210677146912
visibility: 0.9997375011444092
","x: 253.9807891845703
y: 266.3585205078125
z: -0.21814875304698944
visibility: 0.9999110102653503
","x: 249.5889434814453
y: 266.17596435546875
z: -0.2226339876651764
visibility: 0.9999328851699829
","x: 264.5583190917969
y: 293.2491455078125
z: -0.04926259443163872
visibility: 0.9999210834503174
","x: 234.96766662597656
y: 289.4317932128906
z: -0.11891768127679825
visibility: 0.9998270273208618
","x: 270.4624328613281
y: 331.3138427734375
z: -0.021701360121369362
visibility: 0.9908044338226318
","x: 230.85269165039062
y: 331.3447570800781
z: -0.13026967644691467
visibility: 0.988970935344696
","x: 267.4700622558594
y: 353.1709289550781
z: -0.18341252207756042
visibility: 0.9911285638809204
","x: 250.91383361816406
y: 343.0426330566406
z: -0.21802929043769836
visibility: 0.9766806364059448
","x: 265.88995361328125
y: 362.84356689453125
z: -0.2140274941921234
visibility: 0.9780464172363281
","x: 256.2334289550781
y: 350.9316711425781
z: -0.24747340381145477
visibility: 0.9524183869361877
","x: 264.7392272949219
y: 357.76629638671875
z: -0.22851693630218506
visibility: 0.9790350794792175
","x: 257.76763916015625
y: 346.79461669921875
z: -0.2558043599128723
visibility: 0.9519617557525635
","x: 264.8874206542969
y: 354.18804931640625
z: -0.19244974851608276
visibility: 0.9698469638824463
","x: 256.20916748046875
y: 344.04058837890625
z: -0.2212425023317337
visibility: 0.9338449239730835
","x: 255.86480712890625
y: 374.59405517578125
z: 0.025352055206894875
visibility: 0.9995054006576538
","x: 238.48414611816406
y: 370.7200622558594
z: -0.025418544188141823
visibility: 0.9996038675308228
","x: 250.8328857421875
y: 435.8496398925781
z: 0.029011979699134827
visibility: 0.9782752990722656
","x: 241.9040069580078
y: 435.9065246582031
z: -0.022734928876161575
visibility: 0.9891107082366943
","x: 247.4522705078125
y: 493.3807067871094
z: 0.11502628028392792
visibility: 0.9796720147132874
","x: 235.98483276367188
y: 487.9473571777344
z: 0.09966091811656952
visibility: 0.9865822792053223
","x: 244.45596313476562
y: 501.6251220703125
z: 0.12268682569265366
visibility: 0.8961358666419983
","x: 234.82521057128906
y: 492.8262023925781
z: 0.10838828235864639
visibility: 0.8508185148239136
","x: 252.72177124023438
y: 512.1495361328125
z: 0.05553870648145676
visibility: 0.9755086898803711
","x: 238.04364013671875
y: 508.9239196777344
z: 0.024374816566705704
visibility: 0.9783757925033569
",4.803107261657715,,,,,,,,,,,,,,,,,,,,,,,,,,,,,,,,,,,,,,,,,,
7,"x: 251.5674591064453
y: 257.91619873046875
z: -0.2504284977912903
visibility: 0.9999548196792603
","x: 253.0955352783203
y: 252.91635131835938
z: -0.23534424602985382
visibility: 0.9998934268951416
","x: 254.16160583496094
y: 253.14659118652344
z: -0.23534217476844788
visibility: 0.9998764991760254
","x: 255.180908203125
y: 253.3950958251953
z: -0.23533782362937927
visibility: 0.9998746514320374
","x: 249.88668823242188
y: 252.73171997070312
z: -0.23842880129814148
visibility: 0.9998933672904968
","x: 248.53440856933594
y: 252.78831481933594
z: -0.23846621811389923
visibility: 0.9998797178268433
","x: 247.16983032226562
y: 252.9885711669922
z: -0.2384759932756424
visibility: 0.9998787641525269
","x: 256.6563720703125
y: 257.3607177734375
z: -0.13742980360984802
visibility: 0.9996883273124695
","x: 244.564697265625
y: 257.37408447265625
z: -0.1526239961385727
visibility: 0.9997527599334717
","x: 253.18096923828125
y: 265.1028137207031
z: -0.21318332850933075
visibility: 0.9999128580093384
","x: 249.16525268554688
y: 264.962158203125
z: -0.21751956641674042
visibility: 0.9999347925186157
","x: 265.60357666015625
y: 292.431396484375
z: -0.05162815377116203
visibility: 0.9999210834503174
","x: 234.1670379638672
y: 288.70916748046875
z: -0.10394879430532455
visibility: 0.9998354911804199
","x: 275.23956298828125
y: 330.29412841796875
z: -0.07767877727746964
visibility: 0.9906317591667175
","x: 225.26901245117188
y: 329.806396484375
z: -0.13643889129161835
visibility: 0.989555299282074
","x: 265.9456481933594
y: 337.1918029785156
z: -0.24863600730895996
visibility: 0.990806519985199
","x: 241.15419006347656
y: 331.8765869140625
z: -0.22986659407615662
visibility: 0.9777941107749939
","x: 263.2952880859375
y: 344.8041076660156
z: -0.2844502627849579
visibility: 0.9769994616508484
","x: 245.40579223632812
y: 335.9736633300781
z: -0.2775558531284332
visibility: 0.9541258811950684
","x: 261.6412353515625
y: 340.5134582519531
z: -0.29077762365341187
visibility: 0.9780106544494629
","x: 248.0183563232422
y: 331.918212890625
z: -0.2869011461734772
visibility: 0.953460156917572
","x: 261.9347229003906
y: 338.1750183105469
z: -0.2537115216255188
visibility: 0.9679846167564392
","x: 247.1884307861328
y: 330.1327819824219
z: -0.247048020362854
visibility: 0.9350267052650452
","x: 256.5546875
y: 372.2869567871094
z: 0.02763376012444496
visibility: 0.9995136857032776
","x: 238.90370178222656
y: 367.7360534667969
z: -0.027740711346268654
visibility: 0.9995953440666199
","x: 250.7723846435547
y: 435.35296630859375
z: 0.022550802677869797
visibility: 0.9733700156211853
","x: 241.0745391845703
y: 431.637451171875
z: -0.03078869916498661
visibility: 0.9885121583938599
","x: 247.5807647705078
y: 493.465576171875
z: 0.1233476847410202
visibility: 0.9784966707229614
","x: 233.93936157226562
y: 479.84393310546875
z: 0.10045790672302246
visibility: 0.9854803085327148
","x: 244.4886932373047
y: 501.62591552734375
z: 0.12930186092853546
visibility: 0.8987377882003784
","x: 233.47071838378906
y: 485.55596923828125
z: 0.10951337963342667
visibility: 0.8456429839134216
","x: 253.4171142578125
y: 512.9030151367188
z: 0.04974762350320816
visibility: 0.9742948412895203
","x: 234.01116943359375
y: 502.5465393066406
z: 0.024811815470457077
visibility: 0.9769343137741089
",4.942412376403809,,,,,,,,,,,,,,,,,,,,,,,,,,,,,,,,,,,,,,,,,,
8,"x: 251.5674591064453
y: 257.91619873046875
z: -0.2504284977912903
visibility: 0.9999548196792603
","x: 253.0955352783203
y: 252.91635131835938
z: -0.23534424602985382
visibility: 0.9998934268951416
","x: 254.16160583496094
y: 253.14659118652344
z: -0.23534217476844788
visibility: 0.9998764991760254
","x: 255.180908203125
y: 253.3950958251953
z: -0.23533782362937927
visibility: 0.9998746514320374
","x: 249.88668823242188
y: 252.73171997070312
z: -0.23842880129814148
visibility: 0.9998933672904968
","x: 248.53440856933594
y: 252.78831481933594
z: -0.23846621811389923
visibility: 0.9998797178268433
","x: 247.16983032226562
y: 252.9885711669922
z: -0.2384759932756424
visibility: 0.9998787641525269
","x: 256.6563720703125
y: 257.3607177734375
z: -0.13742980360984802
visibility: 0.9996883273124695
","x: 244.564697265625
y: 257.37408447265625
z: -0.1526239961385727
visibility: 0.9997527599334717
","x: 253.18096923828125
y: 265.1028137207031
z: -0.21318332850933075
visibility: 0.9999128580093384
","x: 249.16525268554688
y: 264.962158203125
z: -0.21751956641674042
visibility: 0.9999347925186157
","x: 265.60357666015625
y: 292.431396484375
z: -0.05162815377116203
visibility: 0.9999210834503174
","x: 234.1670379638672
y: 288.70916748046875
z: -0.10394879430532455
visibility: 0.9998354911804199
","x: 275.23956298828125
y: 330.29412841796875
z: -0.07767877727746964
visibility: 0.9906317591667175
","x: 225.26901245117188
y: 329.806396484375
z: -0.13643889129161835
visibility: 0.989555299282074
","x: 265.9456481933594
y: 337.1918029785156
z: -0.24863600730895996
visibility: 0.990806519985199
","x: 241.15419006347656
y: 331.8765869140625
z: -0.22986659407615662
visibility: 0.9777941107749939
","x: 263.2952880859375
y: 344.8041076660156
z: -0.2844502627849579
visibility: 0.9769994616508484
","x: 245.40579223632812
y: 335.9736633300781
z: -0.2775558531284332
visibility: 0.9541258811950684
","x: 261.6412353515625
y: 340.5134582519531
z: -0.29077762365341187
visibility: 0.9780106544494629
","x: 248.0183563232422
y: 331.918212890625
z: -0.2869011461734772
visibility: 0.953460156917572
","x: 261.9347229003906
y: 338.1750183105469
z: -0.2537115216255188
visibility: 0.9679846167564392
","x: 247.1884307861328
y: 330.1327819824219
z: -0.247048020362854
visibility: 0.9350267052650452
","x: 256.5546875
y: 372.2869567871094
z: 0.02763376012444496
visibility: 0.9995136857032776
","x: 238.90370178222656
y: 367.7360534667969
z: -0.027740711346268654
visibility: 0.9995953440666199
","x: 250.7723846435547
y: 435.35296630859375
z: 0.022550802677869797
visibility: 0.9733700156211853
","x: 241.0745391845703
y: 431.637451171875
z: -0.03078869916498661
visibility: 0.9885121583938599
","x: 247.5807647705078
y: 493.465576171875
z: 0.1233476847410202
visibility: 0.9784966707229614
","x: 233.93936157226562
y: 479.84393310546875
z: 0.10045790672302246
visibility: 0.9854803085327148
","x: 244.4886932373047
y: 501.62591552734375
z: 0.12930186092853546
visibility: 0.8987377882003784
","x: 233.47071838378906
y: 485.55596923828125
z: 0.10951337963342667
visibility: 0.8456429839134216
","x: 253.4171142578125
y: 512.9030151367188
z: 0.04974762350320816
visibility: 0.9742948412895203
","x: 234.01116943359375
y: 502.5465393066406
z: 0.024811815470457077
visibility: 0.9769343137741089
",4.942412376403809,,,,,,,,,,,,,,,,,,,,,,,,,,,,,,,,,,,,,,,,,,
9,"x: 251.43991088867188
y: 257.3302917480469
z: -0.1865072101354599
visibility: 0.9999524354934692
","x: 252.6203155517578
y: 252.01373291015625
z: -0.1700153350830078
visibility: 0.9998924136161804
","x: 253.59335327148438
y: 252.14511108398438
z: -0.17003843188285828
visibility: 0.9998753070831299
","x: 254.69862365722656
y: 252.3277587890625
z: -0.17002800107002258
visibility: 0.9998725056648254
","x: 249.43508911132812
y: 252.03045654296875
z: -0.1754174381494522
visibility: 0.9998926520347595
","x: 248.0843963623047
y: 252.18186950683594
z: -0.17543460428714752
visibility: 0.999879777431488
","x: 246.5690460205078
y: 252.45458984375
z: -0.17545880377292633
visibility: 0.9998791813850403
","x: 256.04638671875
y: 255.94993591308594
z: -0.06987445801496506
visibility: 0.9996697902679443
","x: 243.95098876953125
y: 256.59893798828125
z: -0.09400153160095215
visibility: 0.9997656345367432
","x: 252.8721160888672
y: 264.31134033203125
z: -0.14851152896881104
visibility: 0.9999116659164429
","x: 248.98619079589844
y: 264.317626953125
z: -0.15542374551296234
visibility: 0.9999354481697083
","x: 264.4276428222656
y: 290.968994140625
z: 0.009049337357282639
visibility: 0.9999120831489563
","x: 233.2659149169922
y: 287.1063232421875
z: -0.06330190598964691
visibility: 0.9998452067375183
","x: 272.2591247558594
y: 330.21722412109375
z: -0.05597936362028122
visibility: 0.9852039813995361
","x: 225.7139129638672
y: 329.71875
z: -0.09706584364175797
visibility: 0.9896783232688904
","x: 264.7667541503906
y: 327.4073791503906
z: -0.24653120338916779
visibility: 0.9855282306671143
","x: 244.96817016601562
y: 333.2821350097656
z: -0.18499399721622467
visibility: 0.97721928358078
","x: 262.6762390136719
y: 328.6252136230469
z: -0.28564125299453735
visibility: 0.9685542583465576
","x: 250.05694580078125
y: 334.5372009277344
z: -0.2128022164106369
visibility: 0.9521312713623047
","x: 261.62982177734375
y: 323.8983459472656
z: -0.2893015146255493
visibility: 0.9698050022125244
","x: 250.8456268310547
y: 330.2249755859375
z: -0.216380313038826
visibility: 0.9509427547454834
","x: 261.526123046875
y: 323.10589599609375
z: -0.2525520920753479
visibility: 0.9568970203399658
","x: 249.8677215576172
y: 329.56048583984375
z: -0.18651774525642395
visibility: 0.9303927421569824
","x: 255.49313354492188
y: 371.34112548828125
z: 0.03594184294342995
visibility: 0.9994285702705383
","x: 237.67115783691406
y: 367.785888671875
z: -0.03599195554852486
visibility: 0.9995158314704895
","x: 250.44833374023438
y: 435.3898620605469
z: 0.026954520493745804
visibility: 0.9667844772338867
","x: 238.7252655029297
y: 432.6574401855469
z: -0.055056095123291016
visibility: 0.9886891841888428
","x: 247.57752990722656
y: 494.67718505859375
z: 0.12589329481124878
visibility: 0.9778196215629578
","x: 232.26531982421875
y: 488.2392883300781
z: 0.04341702535748482
visibility: 0.9857286810874939
","x: 244.5118408203125
y: 502.4931335449219
z: 0.1303282529115677
visibility: 0.9020126461982727
","x: 230.9997100830078
y: 496.982421875
z: 0.04764806851744652
visibility: 0.8482978940010071
","x: 253.90342712402344
y: 514.2034912109375
z: 0.04486827924847603
visibility: 0.9738983511924744
","x: 232.89707946777344
y: 510.27899169921875
z: -0.05152465030550957
visibility: 0.9772199988365173
",5.081616163253784,,,,,,,,,,,,,,,,,,,,,,,,,,,,,,,,,,,,,,,,,,
10,"x: 251.43991088867188
y: 257.3302917480469
z: -0.1865072101354599
visibility: 0.9999524354934692
","x: 252.6203155517578
y: 252.01373291015625
z: -0.1700153350830078
visibility: 0.9998924136161804
","x: 253.59335327148438
y: 252.14511108398438
z: -0.17003843188285828
visibility: 0.9998753070831299
","x: 254.69862365722656
y: 252.3277587890625
z: -0.17002800107002258
visibility: 0.9998725056648254
","x: 249.43508911132812
y: 252.03045654296875
z: -0.1754174381494522
visibility: 0.9998926520347595
","x: 248.0843963623047
y: 252.18186950683594
z: -0.17543460428714752
visibility: 0.999879777431488
","x: 246.5690460205078
y: 252.45458984375
z: -0.17545880377292633
visibility: 0.9998791813850403
","x: 256.04638671875
y: 255.94993591308594
z: -0.06987445801496506
visibility: 0.9996697902679443
","x: 243.95098876953125
y: 256.59893798828125
z: -0.09400153160095215
visibility: 0.9997656345367432
","x: 252.8721160888672
y: 264.31134033203125
z: -0.14851152896881104
visibility: 0.9999116659164429
","x: 248.98619079589844
y: 264.317626953125
z: -0.15542374551296234
visibility: 0.9999354481697083
","x: 264.4276428222656
y: 290.968994140625
z: 0.009049337357282639
visibility: 0.9999120831489563
","x: 233.2659149169922
y: 287.1063232421875
z: -0.06330190598964691
visibility: 0.9998452067375183
","x: 272.2591247558594
y: 330.21722412109375
z: -0.05597936362028122
visibility: 0.9852039813995361
","x: 225.7139129638672
y: 329.71875
z: -0.09706584364175797
visibility: 0.9896783232688904
","x: 264.7667541503906
y: 327.4073791503906
z: -0.24653120338916779
visibility: 0.9855282306671143
","x: 244.96817016601562
y: 333.2821350097656
z: -0.18499399721622467
visibility: 0.97721928358078
","x: 262.6762390136719
y: 328.6252136230469
z: -0.28564125299453735
visibility: 0.9685542583465576
","x: 250.05694580078125
y: 334.5372009277344
z: -0.2128022164106369
visibility: 0.9521312713623047
","x: 261.62982177734375
y: 323.8983459472656
z: -0.2893015146255493
visibility: 0.9698050022125244
","x: 250.8456268310547
y: 330.2249755859375
z: -0.216380313038826
visibility: 0.9509427547454834
","x: 261.526123046875
y: 323.10589599609375
z: -0.2525520920753479
visibility: 0.9568970203399658
","x: 249.8677215576172
y: 329.56048583984375
z: -0.18651774525642395
visibility: 0.9303927421569824
","x: 255.49313354492188
y: 371.34112548828125
z: 0.03594184294342995
visibility: 0.9994285702705383
","x: 237.67115783691406
y: 367.785888671875
z: -0.03599195554852486
visibility: 0.9995158314704895
","x: 250.44833374023438
y: 435.3898620605469
z: 0.026954520493745804
visibility: 0.9667844772338867
","x: 238.7252655029297
y: 432.6574401855469
z: -0.055056095123291016
visibility: 0.9886891841888428
","x: 247.57752990722656
y: 494.67718505859375
z: 0.12589329481124878
visibility: 0.9778196215629578
","x: 232.26531982421875
y: 488.2392883300781
z: 0.04341702535748482
visibility: 0.9857286810874939
","x: 244.5118408203125
y: 502.4931335449219
z: 0.1303282529115677
visibility: 0.9020126461982727
","x: 230.9997100830078
y: 496.982421875
z: 0.04764806851744652
visibility: 0.8482978940010071
","x: 253.90342712402344
y: 514.2034912109375
z: 0.04486827924847603
visibility: 0.9738983511924744
","x: 232.89707946777344
y: 510.27899169921875
z: -0.05152465030550957
visibility: 0.9772199988365173
",5.081616163253784,,,,,,,,,,,,,,,,,,,,,,,,,,,,,,,,,,,,,,,,,,
11,"x: 250.55322265625
y: 257.8625793457031
z: -0.2100917547941208
visibility: 0.9999566674232483
","x: 251.7171173095703
y: 252.5706787109375
z: -0.19405046105384827
visibility: 0.999901294708252
","x: 252.6422882080078
y: 252.61741638183594
z: -0.1940634697675705
visibility: 0.9998858571052551
","x: 253.5812225341797
y: 252.6527099609375
z: -0.19406229257583618
visibility: 0.9998831748962402
","x: 248.4652557373047
y: 252.94183349609375
z: -0.19770868122577667
visibility: 0.9999008774757385
","x: 247.04348754882812
y: 253.23870849609375
z: -0.1977221667766571
visibility: 0.9998888969421387
","x: 245.63186645507812
y: 253.6355743408203
z: -0.1977224200963974
visibility: 0.9998873472213745
","x: 255.04525756835938
y: 256.50885009765625
z: -0.09168890118598938
visibility: 0.9997000098228455
","x: 242.99563598632812
y: 258.44940185546875
z: -0.11382739245891571
visibility: 0.9997819066047668
","x: 252.43057250976562
y: 264.64892578125
z: -0.17247290909290314
visibility: 0.9999191761016846
","x: 248.1163787841797
y: 264.8952331542969
z: -0.1781286746263504
visibility: 0.999940037727356
","x: 263.466064453125
y: 295.30914306640625
z: -0.009992771781980991
visibility: 0.9999186992645264
","x: 232.91903686523438
y: 290.99468994140625
z: -0.07119773328304291
visibility: 0.9998438358306885
","x: 273.40924072265625
y: 330.54644775390625
z: -0.010991926304996014
visibility: 0.9835651516914368
","x: 223.72142028808594
y: 329.31622314453125
z: -0.10229498147964478
visibility: 0.98862624168396
","x: 289.2275085449219
y: 344.0272521972656
z: -0.1015399843454361
visibility: 0.9849570989608765
","x: 216.90798950195312
y: 348.8465881347656
z: -0.20766572654247284
visibility: 0.9728893041610718
","x: 296.3800354003906
y: 336.43280029296875
z: -0.12198247015476227
visibility: 0.9674951434135437
","x: 212.11471557617188
y: 356.6141357421875
z: -0.2327839881181717
visibility: 0.9445281028747559
","x: 296.83111572265625
y: 338.27008056640625
z: -0.15023769438266754
visibility: 0.9694728255271912
","x: 213.20179748535156
y: 355.8612365722656
z: -0.2525038421154022
visibility: 0.9446947574615479
","x: 293.6822204589844
y: 341.8154296875
z: -0.11616994440555573
visibility: 0.9573211073875427
","x: 215.59413146972656
y: 353.61627197265625
z: -0.21839578449726105
visibility: 0.9249395132064819
","x: 254.5883026123047
y: 377.9971008300781
z: 0.026269417256116867
visibility: 0.9994688630104065
","x: 236.57391357421875
y: 374.36700439453125
z: -0.026234980672597885
visibility: 0.999518096446991
","x: 255.3983154296875
y: 435.92236328125
z: -0.08800162374973297
visibility: 0.9696323275566101
","x: 237.13043212890625
y: 437.4144287109375
z: -0.029611194506287575
visibility: 0.9890822768211365
","x: 248.03907775878906
y: 490.27227783203125
z: 0.06583613157272339
visibility: 0.9791668653488159
","x: 231.81320190429688
y: 493.9745788574219
z: 0.12095489352941513
visibility: 0.9860824942588806
","x: 244.7055206298828
y: 494.81585693359375
z: 0.07659696787595749
visibility: 0.9066320061683655
","x: 230.65283203125
y: 502.329345703125
z: 0.12988680601119995
visibility: 0.8449336886405945
","x: 253.06130981445312
y: 514.1292114257812
z: -0.0165978092700243
visibility: 0.9756156802177429
","x: 232.2273712158203
y: 514.7947387695312
z: 0.030575115233659744
visibility: 0.9778642058372498
",5.207279443740845,,,,,,,,,,,,,,,,,,,,,,,,,,,,,,,,,,,,,,,,,,
12,"x: 250.55322265625
y: 257.8625793457031
z: -0.2100917547941208
visibility: 0.9999566674232483
","x: 251.7171173095703
y: 252.5706787109375
z: -0.19405046105384827
visibility: 0.999901294708252
","x: 252.6422882080078
y: 252.61741638183594
z: -0.1940634697675705
visibility: 0.9998858571052551
","x: 253.5812225341797
y: 252.6527099609375
z: -0.19406229257583618
visibility: 0.9998831748962402
","x: 248.4652557373047
y: 252.94183349609375
z: -0.19770868122577667
visibility: 0.9999008774757385
","x: 247.04348754882812
y: 253.23870849609375
z: -0.1977221667766571
visibility: 0.9998888969421387
","x: 245.63186645507812
y: 253.6355743408203
z: -0.1977224200963974
visibility: 0.9998873472213745
","x: 255.04525756835938
y: 256.50885009765625
z: -0.09168890118598938
visibility: 0.9997000098228455
","x: 242.99563598632812
y: 258.44940185546875
z: -0.11382739245891571
visibility: 0.9997819066047668
","x: 252.43057250976562
y: 264.64892578125
z: -0.17247290909290314
visibility: 0.9999191761016846
","x: 248.1163787841797
y: 264.8952331542969
z: -0.1781286746263504
visibility: 0.999940037727356
","x: 263.466064453125
y: 295.30914306640625
z: -0.009992771781980991
visibility: 0.9999186992645264
","x: 232.91903686523438
y: 290.99468994140625
z: -0.07119773328304291
visibility: 0.9998438358306885
","x: 273.40924072265625
y: 330.54644775390625
z: -0.010991926304996014
visibility: 0.9835651516914368
","x: 223.72142028808594
y: 329.31622314453125
z: -0.10229498147964478
visibility: 0.98862624168396
","x: 289.2275085449219
y: 344.0272521972656
z: -0.1015399843454361
visibility: 0.9849570989608765
","x: 216.90798950195312
y: 348.8465881347656
z: -0.20766572654247284
visibility: 0.9728893041610718
","x: 296.3800354003906
y: 336.43280029296875
z: -0.12198247015476227
visibility: 0.9674951434135437
","x: 212.11471557617188
y: 356.6141357421875
z: -0.2327839881181717
visibility: 0.9445281028747559
","x: 296.83111572265625
y: 338.27008056640625
z: -0.15023769438266754
visibility: 0.9694728255271912
","x: 213.20179748535156
y: 355.8612365722656
z: -0.2525038421154022
visibility: 0.9446947574615479
","x: 293.6822204589844
y: 341.8154296875
z: -0.11616994440555573
visibility: 0.9573211073875427
","x: 215.59413146972656
y: 353.61627197265625
z: -0.21839578449726105
visibility: 0.9249395132064819
","x: 254.5883026123047
y: 377.9971008300781
z: 0.026269417256116867
visibility: 0.9994688630104065
","x: 236.57391357421875
y: 374.36700439453125
z: -0.026234980672597885
visibility: 0.999518096446991
","x: 255.3983154296875
y: 435.92236328125
z: -0.08800162374973297
visibility: 0.9696323275566101
","x: 237.13043212890625
y: 437.4144287109375
z: -0.029611194506287575
visibility: 0.9890822768211365
","x: 248.03907775878906
y: 490.27227783203125
z: 0.06583613157272339
visibility: 0.9791668653488159
","x: 231.81320190429688
y: 493.9745788574219
z: 0.12095489352941513
visibility: 0.9860824942588806
","x: 244.7055206298828
y: 494.81585693359375
z: 0.07659696787595749
visibility: 0.9066320061683655
","x: 230.65283203125
y: 502.329345703125
z: 0.12988680601119995
visibility: 0.8449336886405945
","x: 253.06130981445312
y: 514.1292114257812
z: -0.0165978092700243
visibility: 0.9756156802177429
","x: 232.2273712158203
y: 514.7947387695312
z: 0.030575115233659744
visibility: 0.9778642058372498
",5.207279443740845,,,,,,,,,,,,,,,,,,,,,,,,,,,,,,,,,,,,,,,,,,
13,"x: 250.55174255371094
y: 264.46905517578125
z: -0.1607046127319336
visibility: 0.9999464154243469
","x: 251.73829650878906
y: 259.4659729003906
z: -0.14328709244728088
visibility: 0.9998884201049805
","x: 252.55496215820312
y: 259.47247314453125
z: -0.1433163732290268
visibility: 0.999870777130127
","x: 253.55235290527344
y: 259.5834655761719
z: -0.14337581396102905
visibility: 0.9998703598976135
","x: 248.55242919921875
y: 259.711181640625
z: -0.1478434056043625
visibility: 0.9998825788497925
","x: 247.22557067871094
y: 259.9377746582031
z: -0.14783115684986115
visibility: 0.999864935874939
","x: 245.8266143798828
y: 260.26080322265625
z: -0.14786496758460999
visibility: 0.9998668432235718
","x: 255.06065368652344
y: 263.1012878417969
z: -0.05245067924261093
visibility: 0.9996978640556335
","x: 243.4158935546875
y: 264.44708251953125
z: -0.07034903019666672
visibility: 0.9997413754463196
","x: 252.30828857421875
y: 271.8268127441406
z: -0.12685471773147583
visibility: 0.9999158978462219
","x: 248.23033142089844
y: 271.9317932128906
z: -0.13204188644886017
visibility: 0.9999354481697083
","x: 262.6018981933594
y: 301.3692932128906
z: 0.008481701835989952
visibility: 0.999847412109375
","x: 233.8932342529297
y: 298.1204528808594
z: -0.060356996953487396
visibility: 0.9997981786727905
","x: 269.7164306640625
y: 338.8373107910156
z: -0.026593437418341637
visibility: 0.9475226402282715
","x: 232.1652374267578
y: 341.98919677734375
z: -0.09930209815502167
visibility: 0.9859756231307983
","x: 277.0448303222656
y: 343.370849609375
z: -0.1342383623123169
visibility: 0.9443667531013489
","x: 252.39169311523438
y: 354.0516662597656
z: -0.15947325527668
visibility: 0.9641000032424927
","x: 278.93865966796875
y: 343.10858154296875
z: -0.17264601588249207
visibility: 0.9288551211357117
","x: 257.8224792480469
y: 359.73516845703125
z: -0.18155956268310547
visibility: 0.9319721460342407
","x: 277.9900817871094
y: 341.3037109375
z: -0.20564933121204376
visibility: 0.9315418601036072
","x: 258.9576110839844
y: 355.6185607910156
z: -0.18416623771190643
visibility: 0.931606113910675
","x: 277.2122497558594
y: 341.876220703125
z: -0.153776615858078
visibility: 0.9168350100517273
","x: 258.6304626464844
y: 354.6322326660156
z: -0.16027095913887024
visibility: 0.9062144160270691
","x: 253.8987579345703
y: 379.2477722167969
z: 0.0238390751183033
visibility: 0.9995001554489136
","x: 235.911865234375
y: 376.67181396484375
z: -0.023819508031010628
visibility: 0.9995279312133789
","x: 267.06304931640625
y: 415.55401611328125
z: -0.1999674290418625
visibility: 0.9723990559577942
","x: 236.37982177734375
y: 441.832763671875
z: -0.04238537698984146
visibility: 0.9894385933876038
","x: 249.6138153076172
y: 448.14019775390625
z: 0.030739566311240196
visibility: 0.9783360958099365
","x: 231.26202392578125
y: 497.1715087890625
z: 0.1327178180217743
visibility: 0.986426830291748
","x: 245.71871948242188
y: 446.7975158691406
z: 0.05196910351514816
visibility: 0.9038538336753845
","x: 229.23068237304688
y: 504.5385437011719
z: 0.14643128216266632
visibility: 0.8428313732147217
","x: 252.7182159423828
y: 478.4518127441406
z: -0.014512097463011742
visibility: 0.9744901061058044
","x: 231.76495361328125
y: 516.4943237304688
z: 0.05561766028404236
visibility: 0.9777718782424927
",5.348272085189819,,,,,,,,,,,,,,,,,,,,,,,,,,,,,,,,,,,,,,,,,,
14,"x: 250.55174255371094
y: 264.46905517578125
z: -0.1607046127319336
visibility: 0.9999464154243469
","x: 251.73829650878906
y: 259.4659729003906
z: -0.14328709244728088
visibility: 0.9998884201049805
","x: 252.55496215820312
y: 259.47247314453125
z: -0.1433163732290268
visibility: 0.999870777130127
","x: 253.55235290527344
y: 259.5834655761719
z: -0.14337581396102905
visibility: 0.9998703598976135
","x: 248.55242919921875
y: 259.711181640625
z: -0.1478434056043625
visibility: 0.9998825788497925
","x: 247.22557067871094
y: 259.9377746582031
z: -0.14783115684986115
visibility: 0.999864935874939
","x: 245.8266143798828
y: 260.26080322265625
z: -0.14786496758460999
visibility: 0.9998668432235718
","x: 255.06065368652344
y: 263.1012878417969
z: -0.05245067924261093
visibility: 0.9996978640556335
","x: 243.4158935546875
y: 264.44708251953125
z: -0.07034903019666672
visibility: 0.9997413754463196
","x: 252.30828857421875
y: 271.8268127441406
z: -0.12685471773147583
visibility: 0.9999158978462219
","x: 248.23033142089844
y: 271.9317932128906
z: -0.13204188644886017
visibility: 0.9999354481697083
","x: 262.6018981933594
y: 301.3692932128906
z: 0.008481701835989952
visibility: 0.999847412109375
","x: 233.8932342529297
y: 298.1204528808594
z: -0.060356996953487396
visibility: 0.9997981786727905
","x: 269.7164306640625
y: 338.8373107910156
z: -0.026593437418341637
visibility: 0.9475226402282715
","x: 232.1652374267578
y: 341.98919677734375
z: -0.09930209815502167
visibility: 0.9859756231307983
","x: 277.0448303222656
y: 343.370849609375
z: -0.1342383623123169
visibility: 0.9443667531013489
","x: 252.39169311523438
y: 354.0516662597656
z: -0.15947325527668
visibility: 0.9641000032424927
","x: 278.93865966796875
y: 343.10858154296875
z: -0.17264601588249207
visibility: 0.9288551211357117
","x: 257.8224792480469
y: 359.73516845703125
z: -0.18155956268310547
visibility: 0.9319721460342407
","x: 277.9900817871094
y: 341.3037109375
z: -0.20564933121204376
visibility: 0.9315418601036072
","x: 258.9576110839844
y: 355.6185607910156
z: -0.18416623771190643
visibility: 0.931606113910675
","x: 277.2122497558594
y: 341.876220703125
z: -0.153776615858078
visibility: 0.9168350100517273
","x: 258.6304626464844
y: 354.6322326660156
z: -0.16027095913887024
visibility: 0.9062144160270691
","x: 253.8987579345703
y: 379.2477722167969
z: 0.0238390751183033
visibility: 0.9995001554489136
","x: 235.911865234375
y: 376.67181396484375
z: -0.023819508031010628
visibility: 0.9995279312133789
","x: 267.06304931640625
y: 415.55401611328125
z: -0.1999674290418625
visibility: 0.9723990559577942
","x: 236.37982177734375
y: 441.832763671875
z: -0.04238537698984146
visibility: 0.9894385933876038
","x: 249.6138153076172
y: 448.14019775390625
z: 0.030739566311240196
visibility: 0.9783360958099365
","x: 231.26202392578125
y: 497.1715087890625
z: 0.1327178180217743
visibility: 0.986426830291748
","x: 245.71871948242188
y: 446.7975158691406
z: 0.05196910351514816
visibility: 0.9038538336753845
","x: 229.23068237304688
y: 504.5385437011719
z: 0.14643128216266632
visibility: 0.8428313732147217
","x: 252.7182159423828
y: 478.4518127441406
z: -0.014512097463011742
visibility: 0.9744901061058044
","x: 231.76495361328125
y: 516.4943237304688
z: 0.05561766028404236
visibility: 0.9777718782424927
",5.348272085189819,,,,,,,,,,,,,,,,,,,,,,,,,,,,,,,,,,,,,,,,,,
15,"x: 253.9619140625
y: 262.5066833496094
z: -0.11310982704162598
visibility: 0.9999126195907593
","x: 255.2200164794922
y: 258.3374328613281
z: -0.09729186445474625
visibility: 0.9998519420623779
","x: 256.13201904296875
y: 258.1022033691406
z: -0.09731818735599518
visibility: 0.9998237490653992
","x: 257.0931396484375
y: 257.999755859375
z: -0.09734483063220978
visibility: 0.9998239874839783
","x: 252.27267456054688
y: 259.15338134765625
z: -0.10227330029010773
visibility: 0.999836802482605
","x: 251.1068878173828
y: 259.5141906738281
z: -0.10228754580020905
visibility: 0.9998205304145813
","x: 249.77403259277344
y: 259.87713623046875
z: -0.10233239084482193
visibility: 0.9998282194137573
","x: 258.2698974609375
y: 260.4819030761719
z: -0.007447965443134308
visibility: 0.9996694922447205
","x: 247.13270568847656
y: 263.13409423828125
z: -0.027161825448274612
visibility: 0.9997192621231079
","x: 255.46388244628906
y: 268.6130065917969
z: -0.0789211317896843
visibility: 0.9998992085456848
","x: 251.81092834472656
y: 269.356201171875
z: -0.08490006625652313
visibility: 0.9999208450317383
","x: 265.1016540527344
y: 292.7545471191406
z: 0.04475361853837967
visibility: 0.999482274055481
","x: 237.8213653564453
y: 289.48846435546875
z: -0.05263497680425644
visibility: 0.9997937083244324
","x: 271.9562683105469
y: 320.1357421875
z: -0.05613555759191513
visibility: 0.9062024354934692
","x: 244.43089294433594
y: 322.29449462890625
z: -0.14323389530181885
visibility: 0.9863438606262207
","x: 274.01812744140625
y: 316.775146484375
z: -0.23896841704845428
visibility: 0.8926099538803101
","x: 267.1286315917969
y: 319.648193359375
z: -0.2017914354801178
visibility: 0.9640595316886902
","x: 275.0673828125
y: 317.13824462890625
z: -0.2760200798511505
visibility: 0.8784056305885315
","x: 272.25927734375
y: 319.0293273925781
z: -0.22943206131458282
visibility: 0.931672215461731
","x: 274.23089599609375
y: 313.8152770996094
z: -0.2760063707828522
visibility: 0.880145788192749
","x: 272.5647888183594
y: 315.4617614746094
z: -0.2286348044872284
visibility: 0.9309694170951843
","x: 273.515869140625
y: 314.21197509765625
z: -0.2453765869140625
visibility: 0.8662339448928833
","x: 270.9088439941406
y: 315.39373779296875
z: -0.20297829806804657
visibility: 0.9040138721466064
","x: 258.65460205078125
y: 374.8367004394531
z: 0.02913951501250267
visibility: 0.9995105266571045
","x: 239.67483520507812
y: 374.14837646484375
z: -0.029111826792359352
visibility: 0.9995394945144653
","x: 276.5938720703125
y: 410.69622802734375
z: -0.1149386391043663
visibility: 0.9745079278945923
","x: 237.9040985107422
y: 440.6920166015625
z: -0.06824410706758499
visibility: 0.9903004169464111
","x: 266.2109375
y: 455.7422180175781
z: 0.07703180611133575
visibility: 0.9781882762908936
","x: 230.95372009277344
y: 497.3385314941406
z: 0.04931890591979027
visibility: 0.9874647259712219
","x: 260.392333984375
y: 461.010986328125
z: 0.0919208973646164
visibility: 0.9074498414993286
","x: 229.25975036621094
y: 504.616455078125
z: 0.057099293917417526
visibility: 0.8498316407203674
","x: 275.21417236328125
y: 485.7391357421875
z: 0.012961004860699177
visibility: 0.9742425680160522
","x: 231.6114501953125
y: 516.5910034179688
z: -0.04177214577794075
visibility: 0.9789450764656067
",5.473630666732788,,,,,,,,,,,,,,,,,,,,,,,,,,,,,,,,,,,,,,,,,,
16,"x: 253.9619140625
y: 262.5066833496094
z: -0.11310982704162598
visibility: 0.9999126195907593
","x: 255.2200164794922
y: 258.3374328613281
z: -0.09729186445474625
visibility: 0.9998519420623779
","x: 256.13201904296875
y: 258.1022033691406
z: -0.09731818735599518
visibility: 0.9998237490653992
","x: 257.0931396484375
y: 257.999755859375
z: -0.09734483063220978
visibility: 0.9998239874839783
","x: 252.27267456054688
y: 259.15338134765625
z: -0.10227330029010773
visibility: 0.999836802482605
","x: 251.1068878173828
y: 259.5141906738281
z: -0.10228754580020905
visibility: 0.9998205304145813
","x: 249.77403259277344
y: 259.87713623046875
z: -0.10233239084482193
visibility: 0.9998282194137573
","x: 258.2698974609375
y: 260.4819030761719
z: -0.007447965443134308
visibility: 0.9996694922447205
","x: 247.13270568847656
y: 263.13409423828125
z: -0.027161825448274612
visibility: 0.9997192621231079
","x: 255.46388244628906
y: 268.6130065917969
z: -0.0789211317896843
visibility: 0.9998992085456848
","x: 251.81092834472656
y: 269.356201171875
z: -0.08490006625652313
visibility: 0.9999208450317383
","x: 265.1016540527344
y: 292.7545471191406
z: 0.04475361853837967
visibility: 0.999482274055481
","x: 237.8213653564453
y: 289.48846435546875
z: -0.05263497680425644
visibility: 0.9997937083244324
","x: 271.9562683105469
y: 320.1357421875
z: -0.05613555759191513
visibility: 0.9062024354934692
","x: 244.43089294433594
y: 322.29449462890625
z: -0.14323389530181885
visibility: 0.9863438606262207
","x: 274.01812744140625
y: 316.775146484375
z: -0.23896841704845428
visibility: 0.8926099538803101
","x: 267.1286315917969
y: 319.648193359375
z: -0.2017914354801178
visibility: 0.9640595316886902
","x: 275.0673828125
y: 317.13824462890625
z: -0.2760200798511505
visibility: 0.8784056305885315
","x: 272.25927734375
y: 319.0293273925781
z: -0.22943206131458282
visibility: 0.931672215461731
","x: 274.23089599609375
y: 313.8152770996094
z: -0.2760063707828522
visibility: 0.880145788192749
","x: 272.5647888183594
y: 315.4617614746094
z: -0.2286348044872284
visibility: 0.9309694170951843
","x: 273.515869140625
y: 314.21197509765625
z: -0.2453765869140625
visibility: 0.8662339448928833
","x: 270.9088439941406
y: 315.39373779296875
z: -0.20297829806804657
visibility: 0.9040138721466064
","x: 258.65460205078125
y: 374.8367004394531
z: 0.02913951501250267
visibility: 0.9995105266571045
","x: 239.67483520507812
y: 374.14837646484375
z: -0.029111826792359352
visibility: 0.9995394945144653
","x: 276.5938720703125
y: 410.69622802734375
z: -0.1149386391043663
visibility: 0.9745079278945923
","x: 237.9040985107422
y: 440.6920166015625
z: -0.06824410706758499
visibility: 0.9903004169464111
","x: 266.2109375
y: 455.7422180175781
z: 0.07703180611133575
visibility: 0.9781882762908936
","x: 230.95372009277344
y: 497.3385314941406
z: 0.04931890591979027
visibility: 0.9874647259712219
","x: 260.392333984375
y: 461.010986328125
z: 0.0919208973646164
visibility: 0.9074498414993286
","x: 229.25975036621094
y: 504.616455078125
z: 0.057099293917417526
visibility: 0.8498316407203674
","x: 275.21417236328125
y: 485.7391357421875
z: 0.012961004860699177
visibility: 0.9742425680160522
","x: 231.6114501953125
y: 516.5910034179688
z: -0.04177214577794075
visibility: 0.9789450764656067
",5.473630666732788,,,,,,,,,,,,,,,,,,,,,,,,,,,,,,,,,,,,,,,,,,
17,"x: 257.654052734375
y: 254.2293701171875
z: -0.13404960930347443
visibility: 0.9999140501022339
","x: 259.3091125488281
y: 250.85946655273438
z: -0.11566336452960968
visibility: 0.9998559355735779
","x: 260.49005126953125
y: 251.087890625
z: -0.11567066609859467
visibility: 0.99982750415802
","x: 261.52447509765625
y: 251.30160522460938
z: -0.1156635507941246
visibility: 0.9998273253440857
","x: 255.79542541503906
y: 250.86141967773438
z: -0.11999698728322983
visibility: 0.9998413324356079
","x: 254.3855438232422
y: 251.0386505126953
z: -0.12001515924930573
visibility: 0.9998267889022827
","x: 253.05055236816406
y: 251.23416137695312
z: -0.12001238763332367
visibility: 0.9998338222503662
","x: 262.3963623046875
y: 254.30386352539062
z: -0.0175180546939373
visibility: 0.9996883869171143
","x: 250.43557739257812
y: 255.64605712890625
z: -0.035615988075733185
visibility: 0.9997402429580688
","x: 259.24432373046875
y: 260.7285461425781
z: -0.0975002720952034
visibility: 0.9999032616615295
","x: 255.04505920410156
y: 260.8526916503906
z: -0.10293147712945938
visibility: 0.9999235272407532
","x: 268.77020263671875
y: 283.5747375488281
z: 0.02091611549258232
visibility: 0.9995095133781433
","x: 242.1656494140625
y: 279.646728515625
z: -0.05415039137005806
visibility: 0.9998007416725159
","x: 287.1370849609375
y: 291.6692810058594
z: -0.14282716810703278
visibility: 0.914469838142395
","x: 239.8971405029297
y: 300.40472412109375
z: -0.22045961022377014
visibility: 0.9873751401901245
","x: 272.57830810546875
y: 287.1803894042969
z: -0.30404263734817505
visibility: 0.8987225294113159
","x: 264.1699523925781
y: 287.85491943359375
z: -0.33117055892944336
visibility: 0.9666430950164795
","x: 273.79937744140625
y: 288.09991455078125
z: -0.34252095222473145
visibility: 0.8771920204162598
","x: 268.975830078125
y: 288.201171875
z: -0.3668425679206848
visibility: 0.9358301162719727
","x: 268.974365234375
y: 286.7484130859375
z: -0.32419711351394653
visibility: 0.8771380186080933
","x: 270.11907958984375
y: 285.8486022949219
z: -0.3512691855430603
visibility: 0.9347750544548035
","x: 272.7706604003906
y: 286.96905517578125
z: -0.30213361978530884
visibility: 0.862906813621521
","x: 268.7776184082031
y: 285.703369140625
z: -0.32740920782089233
visibility: 0.9084965586662292
","x: 262.97210693359375
y: 367.9936218261719
z: 0.03090697154402733
visibility: 0.9995447397232056
","x: 243.90260314941406
y: 367.27093505859375
z: -0.030954068526625633
visibility: 0.9995644092559814
","x: 278.1964416503906
y: 415.69134521484375
z: -0.032105691730976105
visibility: 0.9764054417610168
","x: 238.60963439941406
y: 436.8167724609375
z: -0.06516891717910767
visibility: 0.9911184310913086
","x: 282.0097351074219
y: 457.4480895996094
z: 0.09938015043735504
visibility: 0.9796232581138611
","x: 230.8191375732422
y: 497.3910827636719
z: 0.038336873054504395
visibility: 0.9884798526763916
","x: 277.63446044921875
y: 473.1661682128906
z: 0.10764297097921371
visibility: 0.9123740792274475
","x: 229.20265197753906
y: 504.6112365722656
z: 0.04378672316670418
visibility: 0.8553768396377563
","x: 293.6253356933594
y: 501.3913269042969
z: 0.02449282631278038
visibility: 0.975383460521698
","x: 231.43382263183594
y: 516.6553955078125
z: -0.06273466348648071
visibility: 0.9801966547966003
",5.567747116088867,,,,,,,,,,,,,,,,,,,,,,,,,,,,,,,,,,,,,,,,,,
18,"x: 257.654052734375
y: 254.2293701171875
z: -0.13404960930347443
visibility: 0.9999140501022339
","x: 259.3091125488281
y: 250.85946655273438
z: -0.11566336452960968
visibility: 0.9998559355735779
","x: 260.49005126953125
y: 251.087890625
z: -0.11567066609859467
visibility: 0.99982750415802
","x: 261.52447509765625
y: 251.30160522460938
z: -0.1156635507941246
visibility: 0.9998273253440857
","x: 255.79542541503906
y: 250.86141967773438
z: -0.11999698728322983
visibility: 0.9998413324356079
","x: 254.3855438232422
y: 251.0386505126953
z: -0.12001515924930573
visibility: 0.9998267889022827
","x: 253.05055236816406
y: 251.23416137695312
z: -0.12001238763332367
visibility: 0.9998338222503662
","x: 262.3963623046875
y: 254.30386352539062
z: -0.0175180546939373
visibility: 0.9996883869171143
","x: 250.43557739257812
y: 255.64605712890625
z: -0.035615988075733185
visibility: 0.9997402429580688
","x: 259.24432373046875
y: 260.7285461425781
z: -0.0975002720952034
visibility: 0.9999032616615295
","x: 255.04505920410156
y: 260.8526916503906
z: -0.10293147712945938
visibility: 0.9999235272407532
","x: 268.77020263671875
y: 283.5747375488281
z: 0.02091611549258232
visibility: 0.9995095133781433
","x: 242.1656494140625
y: 279.646728515625
z: -0.05415039137005806
visibility: 0.9998007416725159
","x: 287.1370849609375
y: 291.6692810058594
z: -0.14282716810703278
visibility: 0.914469838142395
","x: 239.8971405029297
y: 300.40472412109375
z: -0.22045961022377014
visibility: 0.9873751401901245
","x: 272.57830810546875
y: 287.1803894042969
z: -0.30404263734817505
visibility: 0.8987225294113159
","x: 264.1699523925781
y: 287.85491943359375
z: -0.33117055892944336
visibility: 0.9666430950164795
","x: 273.79937744140625
y: 288.09991455078125
z: -0.34252095222473145
visibility: 0.8771920204162598
","x: 268.975830078125
y: 288.201171875
z: -0.3668425679206848
visibility: 0.9358301162719727
","x: 268.974365234375
y: 286.7484130859375
z: -0.32419711351394653
visibility: 0.8771380186080933
","x: 270.11907958984375
y: 285.8486022949219
z: -0.3512691855430603
visibility: 0.9347750544548035
","x: 272.7706604003906
y: 286.96905517578125
z: -0.30213361978530884
visibility: 0.862906813621521
","x: 268.7776184082031
y: 285.703369140625
z: -0.32740920782089233
visibility: 0.9084965586662292
","x: 262.97210693359375
y: 367.9936218261719
z: 0.03090697154402733
visibility: 0.9995447397232056
","x: 243.90260314941406
y: 367.27093505859375
z: -0.030954068526625633
visibility: 0.9995644092559814
","x: 278.1964416503906
y: 415.69134521484375
z: -0.032105691730976105
visibility: 0.9764054417610168
","x: 238.60963439941406
y: 436.8167724609375
z: -0.06516891717910767
visibility: 0.9911184310913086
","x: 282.0097351074219
y: 457.4480895996094
z: 0.09938015043735504
visibility: 0.9796232581138611
","x: 230.8191375732422
y: 497.3910827636719
z: 0.038336873054504395
visibility: 0.9884798526763916
","x: 277.63446044921875
y: 473.1661682128906
z: 0.10764297097921371
visibility: 0.9123740792274475
","x: 229.20265197753906
y: 504.6112365722656
z: 0.04378672316670418
visibility: 0.8553768396377563
","x: 293.6253356933594
y: 501.3913269042969
z: 0.02449282631278038
visibility: 0.975383460521698
","x: 231.43382263183594
y: 516.6553955078125
z: -0.06273466348648071
visibility: 0.9801966547966003
",5.567747116088867,,,,,,,,,,,,,,,,,,,,,,,,,,,,,,,,,,,,,,,,,,
19,"x: 263.0479736328125
y: 254.44207763671875
z: -0.20533016324043274
visibility: 0.9999221563339233
","x: 264.4059753417969
y: 251.08233642578125
z: -0.18659985065460205
visibility: 0.9998695850372314
","x: 265.5069580078125
y: 251.3638916015625
z: -0.1865183413028717
visibility: 0.9998435974121094
","x: 266.52947998046875
y: 251.6319580078125
z: -0.18648561835289001
visibility: 0.9998434782028198
","x: 261.3012390136719
y: 251.30947875976562
z: -0.18612778186798096
visibility: 0.9998566508293152
","x: 260.076416015625
y: 251.63418579101562
z: -0.18614758551120758
visibility: 0.9998434782028198
","x: 259.1668395996094
y: 251.97354125976562
z: -0.18609564006328583
visibility: 0.9998499751091003
","x: 268.2325439453125
y: 255.92123413085938
z: -0.09528642892837524
visibility: 0.9997177124023438
","x: 257.12225341796875
y: 256.90185546875
z: -0.09398254007101059
visibility: 0.9997658729553223
","x: 265.3841857910156
y: 260.8774108886719
z: -0.17360271513462067
visibility: 0.9999122619628906
","x: 260.89501953125
y: 261.0641174316406
z: -0.17375603318214417
visibility: 0.999930739402771
","x: 277.23016357421875
y: 284.7479248046875
z: -0.08098500221967697
visibility: 0.9995409846305847
","x: 247.82217407226562
y: 285.6433410644531
z: -0.09694256633520126
visibility: 0.9998137354850769
","x: 297.2626953125
y: 272.3878173828125
z: -0.266679048538208
visibility: 0.922658383846283
","x: 234.47840881347656
y: 288.3339538574219
z: -0.28744029998779297
visibility: 0.9884956479072571
","x: 279.4820556640625
y: 273.740478515625
z: -0.3842058479785919
visibility: 0.9022743701934814
","x: 252.6345672607422
y: 284.1853942871094
z: -0.43390387296676636
visibility: 0.9658769369125366
","x: 274.76812744140625
y: 277.270751953125
z: -0.4182446599006653
visibility: 0.8615521788597107
","x: 257.1307678222656
y: 285.4941101074219
z: -0.47176146507263184
visibility: 0.927390456199646
","x: 272.91455078125
y: 278.8834533691406
z: -0.3971376121044159
visibility: 0.8598447442054749
","x: 258.7070617675781
y: 285.89215087890625
z: -0.44802170991897583
visibility: 0.924628734588623
","x: 274.3367919921875
y: 278.635498046875
z: -0.38114088773727417
visibility: 0.8430560231208801
","x: 257.80950927734375
y: 286.0096435546875
z: -0.42901211977005005
visibility: 0.8962251543998718
","x: 271.0144958496094
y: 373.6137390136719
z: 0.01926399953663349
visibility: 0.9995812177658081
","x: 252.13243103027344
y: 371.2583923339844
z: -0.01956130377948284
visibility: 0.9995999932289124
","x: 281.55950927734375
y: 437.12408447265625
z: 0.006103952415287495
visibility: 0.97838294506073
","x: 242.66650390625
y: 439.8050231933594
z: -0.057454049587249756
visibility: 0.9918708801269531
","x: 294.2969970703125
y: 492.5226135253906
z: 0.1566580832004547
visibility: 0.9813053607940674
","x: 230.74485778808594
y: 497.70318603515625
z: 0.0493135042488575
visibility: 0.989358127117157
","x: 292.1748046875
y: 502.3095397949219
z: 0.16604961454868317
visibility: 0.9162333011627197
","x: 229.22203063964844
y: 504.6881103515625
z: 0.052306704223155975
visibility: 0.85653156042099
","x: 300.04644775390625
y: 515.753173828125
z: 0.06740052998065948
visibility: 0.9768445491790771
","x: 231.37417602539062
y: 517.2911376953125
z: -0.03284739330410957
visibility: 0.9811239242553711
",5.7077317237854,,,,,,,,,,,,,,,,,,,,,,,,,,,,,,,,,,,,,,,,,,
20,"x: 263.0479736328125
y: 254.44207763671875
z: -0.20533016324043274
visibility: 0.9999221563339233
","x: 264.4059753417969
y: 251.08233642578125
z: -0.18659985065460205
visibility: 0.9998695850372314
","x: 265.5069580078125
y: 251.3638916015625
z: -0.1865183413028717
visibility: 0.9998435974121094
","x: 266.52947998046875
y: 251.6319580078125
z: -0.18648561835289001
visibility: 0.9998434782028198
","x: 261.3012390136719
y: 251.30947875976562
z: -0.18612778186798096
visibility: 0.9998566508293152
","x: 260.076416015625
y: 251.63418579101562
z: -0.18614758551120758
visibility: 0.9998434782028198
","x: 259.1668395996094
y: 251.97354125976562
z: -0.18609564006328583
visibility: 0.9998499751091003
","x: 268.2325439453125
y: 255.92123413085938
z: -0.09528642892837524
visibility: 0.9997177124023438
","x: 257.12225341796875
y: 256.90185546875
z: -0.09398254007101059
visibility: 0.9997658729553223
","x: 265.3841857910156
y: 260.8774108886719
z: -0.17360271513462067
visibility: 0.9999122619628906
","x: 260.89501953125
y: 261.0641174316406
z: -0.17375603318214417
visibility: 0.999930739402771
","x: 277.23016357421875
y: 284.7479248046875
z: -0.08098500221967697
visibility: 0.9995409846305847
","x: 247.82217407226562
y: 285.6433410644531
z: -0.09694256633520126
visibility: 0.9998137354850769
","x: 297.2626953125
y: 272.3878173828125
z: -0.266679048538208
visibility: 0.922658383846283
","x: 234.47840881347656
y: 288.3339538574219
z: -0.28744029998779297
visibility: 0.9884956479072571
","x: 279.4820556640625
y: 273.740478515625
z: -0.3842058479785919
visibility: 0.9022743701934814
","x: 252.6345672607422
y: 284.1853942871094
z: -0.43390387296676636
visibility: 0.9658769369125366
","x: 274.76812744140625
y: 277.270751953125
z: -0.4182446599006653
visibility: 0.8615521788597107
","x: 257.1307678222656
y: 285.4941101074219
z: -0.47176146507263184
visibility: 0.927390456199646
","x: 272.91455078125
y: 278.8834533691406
z: -0.3971376121044159
visibility: 0.8598447442054749
","x: 258.7070617675781
y: 285.89215087890625
z: -0.44802170991897583
visibility: 0.924628734588623
","x: 274.3367919921875
y: 278.635498046875
z: -0.38114088773727417
visibility: 0.8430560231208801
","x: 257.80950927734375
y: 286.0096435546875
z: -0.42901211977005005
visibility: 0.8962251543998718
","x: 271.0144958496094
y: 373.6137390136719
z: 0.01926399953663349
visibility: 0.9995812177658081
","x: 252.13243103027344
y: 371.2583923339844
z: -0.01956130377948284
visibility: 0.9995999932289124
","x: 281.55950927734375
y: 437.12408447265625
z: 0.006103952415287495
visibility: 0.97838294506073
","x: 242.66650390625
y: 439.8050231933594
z: -0.057454049587249756
visibility: 0.9918708801269531
","x: 294.2969970703125
y: 492.5226135253906
z: 0.1566580832004547
visibility: 0.9813053607940674
","x: 230.74485778808594
y: 497.70318603515625
z: 0.0493135042488575
visibility: 0.989358127117157
","x: 292.1748046875
y: 502.3095397949219
z: 0.16604961454868317
visibility: 0.9162333011627197
","x: 229.22203063964844
y: 504.6881103515625
z: 0.052306704223155975
visibility: 0.85653156042099
","x: 300.04644775390625
y: 515.753173828125
z: 0.06740052998065948
visibility: 0.9768445491790771
","x: 231.37417602539062
y: 517.2911376953125
z: -0.03284739330410957
visibility: 0.9811239242553711
",5.7077317237854,,,,,,,,,,,,,,,,,,,,,,,,,,,,,,,,,,,,,,,,,,
21,"x: 262.82952880859375
y: 256.08465576171875
z: -0.19300106167793274
visibility: 0.9999208450317383
","x: 264.7244567871094
y: 252.52737426757812
z: -0.1761353760957718
visibility: 0.9998664855957031
","x: 265.8808288574219
y: 252.9097900390625
z: -0.1760881096124649
visibility: 0.9998365640640259
","x: 267.02618408203125
y: 253.20712280273438
z: -0.17605331540107727
visibility: 0.9998366832733154
","x: 261.4709777832031
y: 252.31285095214844
z: -0.17699851095676422
visibility: 0.9998553991317749
","x: 260.38470458984375
y: 252.4534912109375
z: -0.17701640725135803
visibility: 0.9998446106910706
","x: 259.238037109375
y: 252.64102172851562
z: -0.1770087033510208
visibility: 0.9998525381088257
","x: 268.8493347167969
y: 257.3323974609375
z: -0.08174242824316025
visibility: 0.9996976852416992
","x: 257.1296691894531
y: 257.31072998046875
z: -0.08628379553556442
visibility: 0.9997791051864624
","x: 264.5525207519531
y: 262.21990966796875
z: -0.15821431577205658
visibility: 0.9999119639396667
","x: 260.49462890625
y: 261.70159912109375
z: -0.15958267450332642
visibility: 0.9999327659606934
","x: 276.2677307128906
y: 285.99273681640625
z: -0.05336759611964226
visibility: 0.9995619058609009
","x: 247.27655029296875
y: 283.84918212890625
z: -0.08899935334920883
visibility: 0.9998267889022827
","x: 290.270263671875
y: 293.0361633300781
z: -0.20014896988868713
visibility: 0.9260714054107666
","x: 238.2674560546875
y: 301.8216552734375
z: -0.2297261655330658
visibility: 0.9892118573188782
","x: 277.41357421875
y: 293.7196044921875
z: -0.37975090742111206
visibility: 0.9011465907096863
","x: 262.1802062988281
y: 305.14678955078125
z: -0.35392504930496216
visibility: 0.9673037528991699
","x: 274.4947204589844
y: 296.40692138671875
z: -0.42247867584228516
visibility: 0.856906533241272
","x: 267.8840637207031
y: 308.6172180175781
z: -0.3913075923919678
visibility: 0.9301097989082336
","x: 271.7483215332031
y: 296.5039367675781
z: -0.4122069776058197
visibility: 0.85440993309021
","x: 270.0047302246094
y: 306.563232421875
z: -0.38070282340049744
visibility: 0.9272928237915039
","x: 272.6107482910156
y: 296.9116516113281
z: -0.3815489411354065
visibility: 0.8359630703926086
","x: 268.2777404785156
y: 306.0357666015625
z: -0.3521172106266022
visibility: 0.8990249633789062
","x: 270.80572509765625
y: 373.2533264160156
z: 0.019474392756819725
visibility: 0.9996172189712524
","x: 251.0135040283203
y: 371.1513671875
z: -0.019807342439889908
visibility: 0.999631404876709
","x: 285.97393798828125
y: 437.6120300292969
z: -0.010148134082555771
visibility: 0.9799688458442688
","x: 245.3187255859375
y: 439.6760559082031
z: -0.06932011246681213
visibility: 0.9925156831741333
","x: 295.79962158203125
y: 494.2320556640625
z: 0.15485066175460815
visibility: 0.982573926448822
","x: 227.70965576171875
y: 493.1020812988281
z: 0.0656619518995285
visibility: 0.9899656772613525
","x: 293.5762939453125
y: 501.9466552734375
z: 0.16645827889442444
visibility: 0.9137051105499268
","x: 223.5570526123047
y: 498.8739318847656
z: 0.07283513247966766
visibility: 0.8522428870201111
","x: 300.86090087890625
y: 516.9177856445312
z: 0.07247408479452133
visibility: 0.9776782989501953
","x: 229.26715087890625
y: 517.14599609375
z: -0.022541586309671402
visibility: 0.981785774230957
",5.8496317863464355,,,,,,,,,,,,,,,,,,,,,,,,,,,,,,,,,,,,,,,,,,
22,"x: 262.82952880859375
y: 256.08465576171875
z: -0.19300106167793274
visibility: 0.9999208450317383
","x: 264.7244567871094
y: 252.52737426757812
z: -0.1761353760957718
visibility: 0.9998664855957031
","x: 265.8808288574219
y: 252.9097900390625
z: -0.1760881096124649
visibility: 0.9998365640640259
","x: 267.02618408203125
y: 253.20712280273438
z: -0.17605331540107727
visibility: 0.9998366832733154
","x: 261.4709777832031
y: 252.31285095214844
z: -0.17699851095676422
visibility: 0.9998553991317749
","x: 260.38470458984375
y: 252.4534912109375
z: -0.17701640725135803
visibility: 0.9998446106910706
","x: 259.238037109375
y: 252.64102172851562
z: -0.1770087033510208
visibility: 0.9998525381088257
","x: 268.8493347167969
y: 257.3323974609375
z: -0.08174242824316025
visibility: 0.9996976852416992
","x: 257.1296691894531
y: 257.31072998046875
z: -0.08628379553556442
visibility: 0.9997791051864624
","x: 264.5525207519531
y: 262.21990966796875
z: -0.15821431577205658
visibility: 0.9999119639396667
","x: 260.49462890625
y: 261.70159912109375
z: -0.15958267450332642
visibility: 0.9999327659606934
","x: 276.2677307128906
y: 285.99273681640625
z: -0.05336759611964226
visibility: 0.9995619058609009
","x: 247.27655029296875
y: 283.84918212890625
z: -0.08899935334920883
visibility: 0.9998267889022827
","x: 290.270263671875
y: 293.0361633300781
z: -0.20014896988868713
visibility: 0.9260714054107666
","x: 238.2674560546875
y: 301.8216552734375
z: -0.2297261655330658
visibility: 0.9892118573188782
","x: 277.41357421875
y: 293.7196044921875
z: -0.37975090742111206
visibility: 0.9011465907096863
","x: 262.1802062988281
y: 305.14678955078125
z: -0.35392504930496216
visibility: 0.9673037528991699
","x: 274.4947204589844
y: 296.40692138671875
z: -0.42247867584228516
visibility: 0.856906533241272
","x: 267.8840637207031
y: 308.6172180175781
z: -0.3913075923919678
visibility: 0.9301097989082336
","x: 271.7483215332031
y: 296.5039367675781
z: -0.4122069776058197
visibility: 0.85440993309021
","x: 270.0047302246094
y: 306.563232421875
z: -0.38070282340049744
visibility: 0.9272928237915039
","x: 272.6107482910156
y: 296.9116516113281
z: -0.3815489411354065
visibility: 0.8359630703926086
","x: 268.2777404785156
y: 306.0357666015625
z: -0.3521172106266022
visibility: 0.8990249633789062
","x: 270.80572509765625
y: 373.2533264160156
z: 0.019474392756819725
visibility: 0.9996172189712524
","x: 251.0135040283203
y: 371.1513671875
z: -0.019807342439889908
visibility: 0.999631404876709
","x: 285.97393798828125
y: 437.6120300292969
z: -0.010148134082555771
visibility: 0.9799688458442688
","x: 245.3187255859375
y: 439.6760559082031
z: -0.06932011246681213
visibility: 0.9925156831741333
","x: 295.79962158203125
y: 494.2320556640625
z: 0.15485066175460815
visibility: 0.982573926448822
","x: 227.70965576171875
y: 493.1020812988281
z: 0.0656619518995285
visibility: 0.9899656772613525
","x: 293.5762939453125
y: 501.9466552734375
z: 0.16645827889442444
visibility: 0.9137051105499268
","x: 223.5570526123047
y: 498.8739318847656
z: 0.07283513247966766
visibility: 0.8522428870201111
","x: 300.86090087890625
y: 516.9177856445312
z: 0.07247408479452133
visibility: 0.9776782989501953
","x: 229.26715087890625
y: 517.14599609375
z: -0.022541586309671402
visibility: 0.981785774230957
",5.8496317863464355,,,,,,,,,,,,,,,,,,,,,,,,,,,,,,,,,,,,,,,,,,
23,"x: 261.88043212890625
y: 274.6788635253906
z: -0.36626410484313965
visibility: 0.999927818775177
","x: 263.6933288574219
y: 270.09490966796875
z: -0.35208413004875183
visibility: 0.9998765587806702
","x: 264.83489990234375
y: 270.6260986328125
z: -0.3520573675632477
visibility: 0.9998489618301392
","x: 266.05047607421875
y: 271.1580810546875
z: -0.3520638644695282
visibility: 0.9998477697372437
","x: 260.4173583984375
y: 269.170654296875
z: -0.35844865441322327
visibility: 0.9998673796653748
","x: 259.1827697753906
y: 269.0271301269531
z: -0.3585452437400818
visibility: 0.999858021736145
","x: 257.9193115234375
y: 268.9923095703125
z: -0.358593612909317
visibility: 0.9998651742935181
","x: 267.8236389160156
y: 274.7667236328125
z: -0.24003729224205017
visibility: 0.9996979236602783
","x: 255.3454132080078
y: 272.07586669921875
z: -0.26820236444473267
visibility: 0.9997978210449219
","x: 263.3601989746094
y: 282.24615478515625
z: -0.3210148811340332
visibility: 0.9999141693115234
","x: 259.1831359863281
y: 281.1955871582031
z: -0.3294263482093811
visibility: 0.9999366402626038
","x: 274.3261413574219
y: 303.90447998046875
z: -0.1170235425233841
visibility: 0.9995924830436707
","x: 245.55545043945312
y: 300.814208984375
z: -0.22427192330360413
visibility: 0.9998424649238586
","x: 276.5942687988281
y: 343.1408996582031
z: -0.1217266097664833
visibility: 0.9084827303886414
","x: 249.63720703125
y: 345.670166015625
z: -0.2226954996585846
visibility: 0.9899343252182007
","x: 276.97259521484375
y: 371.158203125
z: -0.237334206700325
visibility: 0.8806267976760864
","x: 263.3421936035156
y: 382.769287109375
z: -0.27618223428726196
visibility: 0.9694445729255676
","x: 273.3219909667969
y: 386.72467041015625
z: -0.26689720153808594
visibility: 0.8334152698516846
","x: 265.83050537109375
y: 395.1748352050781
z: -0.30861854553222656
visibility: 0.9343065023422241
","x: 271.22174072265625
y: 385.87103271484375
z: -0.2945517897605896
visibility: 0.8324253559112549
","x: 268.5079345703125
y: 393.38031005859375
z: -0.3249951899051666
visibility: 0.9318004250526428
","x: 271.3526611328125
y: 380.991943359375
z: -0.25184985995292664
visibility: 0.8110743761062622
","x: 267.9176330566406
y: 388.91094970703125
z: -0.28061604499816895
visibility: 0.904597282409668
","x: 269.0572509765625
y: 383.0928955078125
z: 0.02346998266875744
visibility: 0.9996405839920044
","x: 250.00888061523438
y: 383.06085205078125
z: -0.023692969232797623
visibility: 0.9996569156646729
","x: 284.33477783203125
y: 446.2139892578125
z: 0.030783062800765038
visibility: 0.9815666079521179
","x: 243.0351104736328
y: 450.0094299316406
z: -0.03535541146993637
visibility: 0.992955207824707
","x: 299.521728515625
y: 496.3516540527344
z: 0.17937619984149933
visibility: 0.9838017225265503
","x: 222.4409637451172
y: 498.1662292480469
z: 0.1170119196176529
visibility: 0.9903531074523926
","x: 299.8497314453125
y: 503.55908203125
z: 0.1894303411245346
visibility: 0.9118642210960388
","x: 217.7698974609375
y: 504.5179748535156
z: 0.1283160299062729
visibility: 0.8427379131317139
","x: 301.6280517578125
y: 517.3497314453125
z: 0.09546737372875214
visibility: 0.9785929322242737
","x: 227.8638153076172
y: 518.9898071289062
z: 0.027937939390540123
visibility: 0.9820669889450073
",5.942802667617798,,,,,,,,,,,,,,,,,,,,,,,,,,,,,,,,,,,,,,,,,,
24,"x: 261.88043212890625
y: 274.6788635253906
z: -0.36626410484313965
visibility: 0.999927818775177
","x: 263.6933288574219
y: 270.09490966796875
z: -0.35208413004875183
visibility: 0.9998765587806702
","x: 264.83489990234375
y: 270.6260986328125
z: -0.3520573675632477
visibility: 0.9998489618301392
","x: 266.05047607421875
y: 271.1580810546875
z: -0.3520638644695282
visibility: 0.9998477697372437
","x: 260.4173583984375
y: 269.170654296875
z: -0.35844865441322327
visibility: 0.9998673796653748
","x: 259.1827697753906
y: 269.0271301269531
z: -0.3585452437400818
visibility: 0.999858021736145
","x: 257.9193115234375
y: 268.9923095703125
z: -0.358593612909317
visibility: 0.9998651742935181
","x: 267.8236389160156
y: 274.7667236328125
z: -0.24003729224205017
visibility: 0.9996979236602783
","x: 255.3454132080078
y: 272.07586669921875
z: -0.26820236444473267
visibility: 0.9997978210449219
","x: 263.3601989746094
y: 282.24615478515625
z: -0.3210148811340332
visibility: 0.9999141693115234
","x: 259.1831359863281
y: 281.1955871582031
z: -0.3294263482093811
visibility: 0.9999366402626038
","x: 274.3261413574219
y: 303.90447998046875
z: -0.1170235425233841
visibility: 0.9995924830436707
","x: 245.55545043945312
y: 300.814208984375
z: -0.22427192330360413
visibility: 0.9998424649238586
","x: 276.5942687988281
y: 343.1408996582031
z: -0.1217266097664833
visibility: 0.9084827303886414
","x: 249.63720703125
y: 345.670166015625
z: -0.2226954996585846
visibility: 0.9899343252182007
","x: 276.97259521484375
y: 371.158203125
z: -0.237334206700325
visibility: 0.8806267976760864
","x: 263.3421936035156
y: 382.769287109375
z: -0.27618223428726196
visibility: 0.9694445729255676
","x: 273.3219909667969
y: 386.72467041015625
z: -0.26689720153808594
visibility: 0.8334152698516846
","x: 265.83050537109375
y: 395.1748352050781
z: -0.30861854553222656
visibility: 0.9343065023422241
","x: 271.22174072265625
y: 385.87103271484375
z: -0.2945517897605896
visibility: 0.8324253559112549
","x: 268.5079345703125
y: 393.38031005859375
z: -0.3249951899051666
visibility: 0.9318004250526428
","x: 271.3526611328125
y: 380.991943359375
z: -0.25184985995292664
visibility: 0.8110743761062622
","x: 267.9176330566406
y: 388.91094970703125
z: -0.28061604499816895
visibility: 0.904597282409668
","x: 269.0572509765625
y: 383.0928955078125
z: 0.02346998266875744
visibility: 0.9996405839920044
","x: 250.00888061523438
y: 383.06085205078125
z: -0.023692969232797623
visibility: 0.9996569156646729
","x: 284.33477783203125
y: 446.2139892578125
z: 0.030783062800765038
visibility: 0.9815666079521179
","x: 243.0351104736328
y: 450.0094299316406
z: -0.03535541146993637
visibility: 0.992955207824707
","x: 299.521728515625
y: 496.3516540527344
z: 0.17937619984149933
visibility: 0.9838017225265503
","x: 222.4409637451172
y: 498.1662292480469
z: 0.1170119196176529
visibility: 0.9903531074523926
","x: 299.8497314453125
y: 503.55908203125
z: 0.1894303411245346
visibility: 0.9118642210960388
","x: 217.7698974609375
y: 504.5179748535156
z: 0.1283160299062729
visibility: 0.8427379131317139
","x: 301.6280517578125
y: 517.3497314453125
z: 0.09546737372875214
visibility: 0.9785929322242737
","x: 227.8638153076172
y: 518.9898071289062
z: 0.027937939390540123
visibility: 0.9820669889450073
",5.942802667617798,,,,,,,,,,,,,,,,,,,,,,,,,,,,,,,,,,,,,,,,,,
25,"x: 261.8888244628906
y: 288.1661376953125
z: -0.32297787070274353
visibility: 0.9999347925186157
","x: 263.17919921875
y: 283.32037353515625
z: -0.30712443590164185
visibility: 0.999888002872467
","x: 264.24053955078125
y: 283.4024963378906
z: -0.30712562799453735
visibility: 0.99986332654953
","x: 265.3678894042969
y: 283.4683532714844
z: -0.307145357131958
visibility: 0.9998620748519897
","x: 260.10479736328125
y: 283.65625
z: -0.31219321489334106
visibility: 0.9998794794082642
","x: 258.8841857910156
y: 283.97381591796875
z: -0.3122829496860504
visibility: 0.9998713135719299
","x: 257.5345458984375
y: 284.3529968261719
z: -0.3123120069503784
visibility: 0.9998774528503418
","x: 267.4260559082031
y: 288.0729064941406
z: -0.2110309898853302
visibility: 0.9997259378433228
","x: 254.9339141845703
y: 288.98846435546875
z: -0.23396523296833038
visibility: 0.9998156428337097
","x: 263.771484375
y: 295.44989013671875
z: -0.28645017743110657
visibility: 0.9999222159385681
","x: 259.6039733886719
y: 295.4565124511719
z: -0.2933250665664673
visibility: 0.9999423623085022
","x: 277.1862487792969
y: 324.663818359375
z: -0.12801072001457214
visibility: 0.9996322393417358
","x: 245.0169219970703
y: 326.4316101074219
z: -0.1842058002948761
visibility: 0.9998548030853271
","x: 281.1309509277344
y: 370.45703125
z: -0.0940232053399086
visibility: 0.9162021279335022
","x: 243.34906005859375
y: 375.3117370605469
z: -0.18361547589302063
visibility: 0.9902273416519165
","x: 288.4570007324219
y: 405.611572265625
z: -0.16383157670497894
visibility: 0.8902769684791565
","x: 239.37586975097656
y: 414.0733337402344
z: -0.2362726926803589
visibility: 0.9701555371284485
","x: 293.59307861328125
y: 416.99688720703125
z: -0.18262122571468353
visibility: 0.8448876738548279
","x: 235.98696899414062
y: 426.6893310546875
z: -0.2624536156654358
visibility: 0.9352980852127075
","x: 293.540283203125
y: 418.1617736816406
z: -0.20894138514995575
visibility: 0.8446479439735413
","x: 238.47711181640625
y: 427.2286682128906
z: -0.2851084768772125
visibility: 0.9334351420402527
","x: 290.54046630859375
y: 414.23028564453125
z: -0.17651399970054626
visibility: 0.8245279788970947
","x: 240.6253662109375
y: 423.6422119140625
z: -0.24656566977500916
visibility: 0.907581090927124
","x: 268.9203186035156
y: 402.187255859375
z: 0.015393073670566082
visibility: 0.9996747970581055
","x: 249.5364227294922
y: 402.3835754394531
z: -0.01550836581736803
visibility: 0.9996868968009949
","x: 285.0582580566406
y: 454.6246337890625
z: -0.10094550997018814
visibility: 0.9832944273948669
","x: 242.03126525878906
y: 455.8950500488281
z: -0.07494185864925385
visibility: 0.9933843016624451
","x: 297.9867248535156
y: 500.1067810058594
z: 0.061572492122650146
visibility: 0.985209584236145
","x: 223.2130126953125
y: 498.6042785644531
z: 0.11786307394504547
visibility: 0.9908246397972107
","x: 297.72222900390625
y: 506.3634033203125
z: 0.07326041162014008
visibility: 0.9143320322036743
","x: 219.9828643798828
y: 504.7281188964844
z: 0.1330677717924118
visibility: 0.8411638736724854
","x: 301.9676513671875
y: 519.9933471679688
z: -0.026086661964654922
visibility: 0.9802401065826416
","x: 226.60621643066406
y: 519.3568115234375
z: 0.03453495353460312
visibility: 0.9827913045883179
",6.069408416748047,,,,,,,,,,,,,,,,,,,,,,,,,,,,,,,,,,,,,,,,,,
26,"x: 261.8888244628906
y: 288.1661376953125
z: -0.32297787070274353
visibility: 0.9999347925186157
","x: 263.17919921875
y: 283.32037353515625
z: -0.30712443590164185
visibility: 0.999888002872467
","x: 264.24053955078125
y: 283.4024963378906
z: -0.30712562799453735
visibility: 0.99986332654953
","x: 265.3678894042969
y: 283.4683532714844
z: -0.307145357131958
visibility: 0.9998620748519897
","x: 260.10479736328125
y: 283.65625
z: -0.31219321489334106
visibility: 0.9998794794082642
","x: 258.8841857910156
y: 283.97381591796875
z: -0.3122829496860504
visibility: 0.9998713135719299
","x: 257.5345458984375
y: 284.3529968261719
z: -0.3123120069503784
visibility: 0.9998774528503418
","x: 267.4260559082031
y: 288.0729064941406
z: -0.2110309898853302
visibility: 0.9997259378433228
","x: 254.9339141845703
y: 288.98846435546875
z: -0.23396523296833038
visibility: 0.9998156428337097
","x: 263.771484375
y: 295.44989013671875
z: -0.28645017743110657
visibility: 0.9999222159385681
","x: 259.6039733886719
y: 295.4565124511719
z: -0.2933250665664673
visibility: 0.9999423623085022
","x: 277.1862487792969
y: 324.663818359375
z: -0.12801072001457214
visibility: 0.9996322393417358
","x: 245.0169219970703
y: 326.4316101074219
z: -0.1842058002948761
visibility: 0.9998548030853271
","x: 281.1309509277344
y: 370.45703125
z: -0.0940232053399086
visibility: 0.9162021279335022
","x: 243.34906005859375
y: 375.3117370605469
z: -0.18361547589302063
visibility: 0.9902273416519165
","x: 288.4570007324219
y: 405.611572265625
z: -0.16383157670497894
visibility: 0.8902769684791565
","x: 239.37586975097656
y: 414.0733337402344
z: -0.2362726926803589
visibility: 0.9701555371284485
","x: 293.59307861328125
y: 416.99688720703125
z: -0.18262122571468353
visibility: 0.8448876738548279
","x: 235.98696899414062
y: 426.6893310546875
z: -0.2624536156654358
visibility: 0.9352980852127075
","x: 293.540283203125
y: 418.1617736816406
z: -0.20894138514995575
visibility: 0.8446479439735413
","x: 238.47711181640625
y: 427.2286682128906
z: -0.2851084768772125
visibility: 0.9334351420402527
","x: 290.54046630859375
y: 414.23028564453125
z: -0.17651399970054626
visibility: 0.8245279788970947
","x: 240.6253662109375
y: 423.6422119140625
z: -0.24656566977500916
visibility: 0.907581090927124
","x: 268.9203186035156
y: 402.187255859375
z: 0.015393073670566082
visibility: 0.9996747970581055
","x: 249.5364227294922
y: 402.3835754394531
z: -0.01550836581736803
visibility: 0.9996868968009949
","x: 285.0582580566406
y: 454.6246337890625
z: -0.10094550997018814
visibility: 0.9832944273948669
","x: 242.03126525878906
y: 455.8950500488281
z: -0.07494185864925385
visibility: 0.9933843016624451
","x: 297.9867248535156
y: 500.1067810058594
z: 0.061572492122650146
visibility: 0.985209584236145
","x: 223.2130126953125
y: 498.6042785644531
z: 0.11786307394504547
visibility: 0.9908246397972107
","x: 297.72222900390625
y: 506.3634033203125
z: 0.07326041162014008
visibility: 0.9143320322036743
","x: 219.9828643798828
y: 504.7281188964844
z: 0.1330677717924118
visibility: 0.8411638736724854
","x: 301.9676513671875
y: 519.9933471679688
z: -0.026086661964654922
visibility: 0.9802401065826416
","x: 226.60621643066406
y: 519.3568115234375
z: 0.03453495353460312
visibility: 0.9827913045883179
",6.069408416748047,,,,,,,,,,,,,,,,,,,,,,,,,,,,,,,,,,,,,,,,,,
27,"x: 260.8835754394531
y: 293.5262145996094
z: -0.34683874249458313
visibility: 0.9999412894248962
","x: 262.34234619140625
y: 289.80206298828125
z: -0.3296738862991333
visibility: 0.9998990297317505
","x: 263.46240234375
y: 289.9667663574219
z: -0.3296889662742615
visibility: 0.999876856803894
","x: 264.5482482910156
y: 290.10845947265625
z: -0.32973170280456543
visibility: 0.9998757243156433
","x: 258.9580993652344
y: 290.0693054199219
z: -0.3313690423965454
visibility: 0.9998912811279297
","x: 257.68658447265625
y: 290.44677734375
z: -0.33146876096725464
visibility: 0.9998840093612671
","x: 256.4171447753906
y: 290.8961181640625
z: -0.3314831554889679
visibility: 0.9998894929885864
","x: 266.6635437011719
y: 294.5659484863281
z: -0.23207631707191467
visibility: 0.9997529983520508
","x: 254.3171844482422
y: 296.19891357421875
z: -0.2409076690673828
visibility: 0.9998337030410767
","x: 263.2880554199219
y: 300.32696533203125
z: -0.31123173236846924
visibility: 0.9999299049377441
","x: 258.6173095703125
y: 301.9213562011719
z: -0.31392401456832886
visibility: 0.9999480247497559
","x: 277.5040283203125
y: 330.865966796875
z: -0.164682999253273
visibility: 0.9996687769889832
","x: 244.07858276367188
y: 331.53424072265625
z: -0.17067816853523254
visibility: 0.999868631362915
","x: 286.1101989746094
y: 373.2582092285156
z: -0.14068053662776947
visibility: 0.9243738055229187
","x: 234.83932495117188
y: 372.7895812988281
z: -0.15706981718540192
visibility: 0.9905388951301575
","x: 298.50042724609375
y: 409.0616149902344
z: -0.21199528872966766
visibility: 0.9005948305130005
","x: 217.82928466796875
y: 409.6181640625
z: -0.22763828933238983
visibility: 0.9711341261863708
","x: 303.9852294921875
y: 418.3349304199219
z: -0.2335183322429657
visibility: 0.8584139943122864
","x: 211.74774169921875
y: 418.31109619140625
z: -0.2509857714176178
visibility: 0.9370108246803284
","x: 303.22222900390625
y: 419.1168518066406
z: -0.25569334626197815
visibility: 0.8584932684898376
","x: 211.62986755371094
y: 419.1372985839844
z: -0.27890369296073914
visibility: 0.935755729675293
","x: 300.9781494140625
y: 416.6756896972656
z: -0.2229495346546173
visibility: 0.8399654030799866
","x: 214.32102966308594
y: 417.30364990234375
z: -0.2415323257446289
visibility: 0.9116430878639221
","x: 269.7948303222656
y: 406.6747741699219
z: 0.004044391214847565
visibility: 0.9997045397758484
","x: 249.03929138183594
y: 406.4893798828125
z: -0.004174778237938881
visibility: 0.9997162818908691
","x: 287.6058044433594
y: 455.930419921875
z: -0.0890691727399826
visibility: 0.9848008751869202
","x: 237.45526123046875
y: 455.35931396484375
z: -0.15873341262340546
visibility: 0.993922770023346
","x: 298.3692321777344
y: 500.49871826171875
z: 0.09748189151287079
visibility: 0.9865002632141113
","x: 223.35800170898438
y: 501.070556640625
z: 0.013949746266007423
visibility: 0.9915540814399719
","x: 297.9210205078125
y: 507.8420715332031
z: 0.10809890180826187
visibility: 0.9169815182685852
","x: 221.34100341796875
y: 508.1853942871094
z: 0.02657940424978733
visibility: 0.8487883806228638
","x: 301.92230224609375
y: 519.2304077148438
z: 0.013288226909935474
visibility: 0.9816682934761047
","x: 226.6529083251953
y: 519.2469482421875
z: -0.08293242752552032
visibility: 0.9840914011001587
",6.176632881164551,,,,,,,,,,,,,,,,,,,,,,,,,,,,,,,,,,,,,,,,,,
28,"x: 260.8835754394531
y: 293.5262145996094
z: -0.34683874249458313
visibility: 0.9999412894248962
","x: 262.34234619140625
y: 289.80206298828125
z: -0.3296738862991333
visibility: 0.9998990297317505
","x: 263.46240234375
y: 289.9667663574219
z: -0.3296889662742615
visibility: 0.999876856803894
","x: 264.5482482910156
y: 290.10845947265625
z: -0.32973170280456543
visibility: 0.9998757243156433
","x: 258.9580993652344
y: 290.0693054199219
z: -0.3313690423965454
visibility: 0.9998912811279297
","x: 257.68658447265625
y: 290.44677734375
z: -0.33146876096725464
visibility: 0.9998840093612671
","x: 256.4171447753906
y: 290.8961181640625
z: -0.3314831554889679
visibility: 0.9998894929885864
","x: 266.6635437011719
y: 294.5659484863281
z: -0.23207631707191467
