uscmakers/ReverseChoreography/data/10_tacones_rojos_sebastian_yatra.csv
,NOSE,LEFT_EYE_INNER,LEFT_EYE,LEFT_EYE_OUTER,RIGHT_EYE_INNER,RIGHT_EYE,RIGHT_EYE_OUTER,LEFT_EAR,RIGHT_EAR,MOUTH_LEFT,MOUTH_RIGHT,LEFT_SHOULDER,RIGHT_SHOULDER,LEFT_ELBOW,RIGHT_ELBOW,LEFT_WRIST,RIGHT_WRIST,LEFT_PINKY,RIGHT_PINKY,LEFT_INDEX,RIGHT_INDEX,LEFT_THUMB,RIGHT_THUMB,LEFT_HIP,RIGHT_HIP,LEFT_KNEE,RIGHT_KNEE,LEFT_ANKLE,RIGHT_ANKLE,LEFT_HEEL,RIGHT_HEEL,LEFT_FOOT_INDEX,RIGHT_FOOT_INDEX,TIMESTAMP,WRIST2,THUMB_CPC2,THUMB_MCP2,THUMB_IP2,THUMB_TIP2,INDEX_FINGER_MCP2,INDEX_FINGER_PIP2,INDEX_FINGER_DIP2,INDEX_FINGER_TIP2,MIDDLE_FINGER_MCP2,MIDDLE_FINGER_PIP2,MIDDLE_FINGER_DIP2,MIDDLE_FINGER_TIP2,RING_FINGER_PIP2,RING_FINGER_DIP2,RING_FINGER_TIP2,RING_FINGER_MCP2,PINKY_MCP2,PINKY_PIP2,PINKY_DIP2,PINKY_TIP2,WRIST,THUMB_CPC,THUMB_MCP,THUMB_IP,THUMB_TIP,INDEX_FINGER_MCP,INDEX_FINGER_PIP,INDEX_FINGER_DIP,INDEX_FINGER_TIP,MIDDLE_FINGER_MCP,MIDDLE_FINGER_PIP,MIDDLE_FINGER_DIP,MIDDLE_FINGER_TIP,RING_FINGER_PIP,RING_FINGER_DIP,RING_FINGER_TIP,RING_FINGER_MCP,PINKY_MCP,PINKY_PIP,PINKY_DIP,PINKY_TIP
0,"x: 272.6358642578125
y: 240.39605712890625
z: -0.2010895013809204
visibility: 0.9999771118164062
","x: 274.3139343261719
y: 236.334716796875
z: -0.1850392073392868
visibility: 0.999923586845398
","x: 275.5153503417969
y: 236.6298065185547
z: -0.18506178259849548
visibility: 0.9999276399612427
","x: 276.7474365234375
y: 236.9324951171875
z: -0.1850711703300476
visibility: 0.9998996257781982
","x: 270.8381652832031
y: 235.68101501464844
z: -0.1863735467195511
visibility: 0.9999220371246338
","x: 269.5191650390625
y: 235.69119262695312
z: -0.18637028336524963
visibility: 0.9999203681945801
","x: 268.237548828125
y: 235.75497436523438
z: -0.18641136586666107
visibility: 0.9999077320098877
","x: 278.5333251953125
y: 241.55111694335938
z: -0.08546075224876404
visibility: 0.9998136162757874
","x: 265.2603454589844
y: 241.23687744140625
z: -0.09218531847000122
visibility: 0.9999352693557739
","x: 274.6412658691406
y: 247.78729248046875
z: -0.16353337466716766
visibility: 0.9999574422836304
","x: 270.07574462890625
y: 247.63063049316406
z: -0.16557390987873077
visibility: 0.9999711513519287
","x: 286.54864501953125
y: 274.43402099609375
z: -0.03502226248383522
visibility: 0.9998893737792969
","x: 254.26339721679688
y: 280.20159912109375
z: -0.016518838703632355
visibility: 0.9998961687088013
","x: 297.4893798828125
y: 300.9372253417969
z: -0.14593861997127533
visibility: 0.9779833555221558
","x: 244.50067138671875
y: 322.83160400390625
z: 0.017693161964416504
visibility: 0.9491714239120483
","x: 285.3123474121094
y: 262.740234375
z: -0.33637306094169617
visibility: 0.9775041341781616
","x: 234.02976989746094
y: 359.9285888671875
z: -0.040451571345329285
visibility: 0.9241694211959839
","x: 283.4461364746094
y: 251.9097900390625
z: -0.37428855895996094
visibility: 0.9432264566421509
","x: 229.4093780517578
y: 373.664794921875
z: -0.05187351256608963
visibility: 0.8594223856925964
","x: 283.0860900878906
y: 249.90333557128906
z: -0.370667040348053
visibility: 0.9427275061607361
","x: 228.9005584716797
y: 376.2352294921875
z: -0.08069510012865067
visibility: 0.8703147768974304
","x: 283.2342834472656
y: 254.1363525390625
z: -0.3402668237686157
visibility: 0.9176957011222839
","x: 231.05343627929688
y: 372.3219299316406
z: -0.05280285328626633
visibility: 0.8533156514167786
","x: 281.2386169433594
y: 366.7930908203125
z: 0.0004630167386494577
visibility: 0.9997363686561584
","x: 259.8174133300781
y: 367.0082092285156
z: -0.0005577447591349483
visibility: 0.9996211528778076
","x: 278.8076171875
y: 439.86273193359375
z: -0.027775073423981667
visibility: 0.9811087250709534
","x: 260.6097412109375
y: 440.43310546875
z: -0.022525964304804802
visibility: 0.9825373291969299
","x: 276.10369873046875
y: 502.9935302734375
z: 0.11781914532184601
visibility: 0.9846442937850952
","x: 257.7939147949219
y: 504.4349365234375
z: 0.12356822192668915
visibility: 0.9851832985877991
","x: 273.3582458496094
y: 509.9881591796875
z: 0.12697340548038483
visibility: 0.8779201507568359
","x: 258.93487548828125
y: 511.3749694824219
z: 0.13170260190963745
visibility: 0.8280720710754395
","x: 278.1961669921875
y: 526.8760986328125
z: 0.025064552202820778
visibility: 0.9822982549667358
","x: 255.89097595214844
y: 529.2394409179688
z: 0.02689897082746029
visibility: 0.9795281887054443
",3.918574333190918,,,,,,,,,,,,,,,,,,,,,,,,,,,,,,,,,,,,,,,,,,
1,"x: 272.6358642578125
y: 240.39605712890625
z: -0.2010895013809204
visibility: 0.9999771118164062
","x: 274.3139343261719
y: 236.334716796875
z: -0.1850392073392868
visibility: 0.999923586845398
","x: 275.5153503417969
y: 236.6298065185547
z: -0.18506178259849548
visibility: 0.9999276399612427
","x: 276.7474365234375
y: 236.9324951171875
z: -0.1850711703300476
visibility: 0.9998996257781982
","x: 270.8381652832031
y: 235.68101501464844
z: -0.1863735467195511
visibility: 0.9999220371246338
","x: 269.5191650390625
y: 235.69119262695312
z: -0.18637028336524963
visibility: 0.9999203681945801
","x: 268.237548828125
y: 235.75497436523438
z: -0.18641136586666107
visibility: 0.9999077320098877
","x: 278.5333251953125
y: 241.55111694335938
z: -0.08546075224876404
visibility: 0.9998136162757874
","x: 265.2603454589844
y: 241.23687744140625
z: -0.09218531847000122
visibility: 0.9999352693557739
","x: 274.6412658691406
y: 247.78729248046875
z: -0.16353337466716766
visibility: 0.9999574422836304
","x: 270.07574462890625
y: 247.63063049316406
z: -0.16557390987873077
visibility: 0.9999711513519287
","x: 286.54864501953125
y: 274.43402099609375
z: -0.03502226248383522
visibility: 0.9998893737792969
","x: 254.26339721679688
y: 280.20159912109375
z: -0.016518838703632355
visibility: 0.9998961687088013
","x: 297.4893798828125
y: 300.9372253417969
z: -0.14593861997127533
visibility: 0.9779833555221558
","x: 244.50067138671875
y: 322.83160400390625
z: 0.017693161964416504
visibility: 0.9491714239120483
","x: 285.3123474121094
y: 262.740234375
z: -0.33637306094169617
visibility: 0.9775041341781616
","x: 234.02976989746094
y: 359.9285888671875
z: -0.040451571345329285
visibility: 0.9241694211959839
","x: 283.4461364746094
y: 251.9097900390625
z: -0.37428855895996094
visibility: 0.9432264566421509
","x: 229.4093780517578
y: 373.664794921875
z: -0.05187351256608963
visibility: 0.8594223856925964
","x: 283.0860900878906
y: 249.90333557128906
z: -0.370667040348053
visibility: 0.9427275061607361
","x: 228.9005584716797
y: 376.2352294921875
z: -0.08069510012865067
visibility: 0.8703147768974304
","x: 283.2342834472656
y: 254.1363525390625
z: -0.3402668237686157
visibility: 0.9176957011222839
","x: 231.05343627929688
y: 372.3219299316406
z: -0.05280285328626633
visibility: 0.8533156514167786
","x: 281.2386169433594
y: 366.7930908203125
z: 0.0004630167386494577
visibility: 0.9997363686561584
","x: 259.8174133300781
y: 367.0082092285156
z: -0.0005577447591349483
visibility: 0.9996211528778076
","x: 278.8076171875
y: 439.86273193359375
z: -0.027775073423981667
visibility: 0.9811087250709534
","x: 260.6097412109375
y: 440.43310546875
z: -0.022525964304804802
visibility: 0.9825373291969299
","x: 276.10369873046875
y: 502.9935302734375
z: 0.11781914532184601
visibility: 0.9846442937850952
","x: 257.7939147949219
y: 504.4349365234375
z: 0.12356822192668915
visibility: 0.9851832985877991
","x: 273.3582458496094
y: 509.9881591796875
z: 0.12697340548038483
visibility: 0.8779201507568359
","x: 258.93487548828125
y: 511.3749694824219
z: 0.13170260190963745
visibility: 0.8280720710754395
","x: 278.1961669921875
y: 526.8760986328125
z: 0.025064552202820778
visibility: 0.9822982549667358
","x: 255.89097595214844
y: 529.2394409179688
z: 0.02689897082746029
visibility: 0.9795281887054443
",3.918574333190918,,,,,,,,,,,,,,,,,,,,,,,,,,,,,,,,,,,,,,,,,,
2,"x: 272.477294921875
y: 241.18280029296875
z: -0.22729766368865967
visibility: 0.9999452233314514
","x: 273.8463134765625
y: 236.92483520507812
z: -0.21390216052532196
visibility: 0.9998522400856018
","x: 274.9489440917969
y: 237.1076202392578
z: -0.2139476239681244
visibility: 0.9998695254325867
","x: 276.06396484375
y: 237.35174560546875
z: -0.21398094296455383
visibility: 0.999856173992157
","x: 270.4656677246094
y: 237.21412658691406
z: -0.21229422092437744
visibility: 0.9997970461845398
","x: 269.2104187011719
y: 237.64712524414062
z: -0.21232569217681885
visibility: 0.9997788667678833
","x: 267.9935607910156
y: 238.06057739257812
z: -0.2123599797487259
visibility: 0.9997555613517761
","x: 278.1156311035156
y: 242.06179809570312
z: -0.1299934685230255
visibility: 0.9997453689575195
","x: 265.18609619140625
y: 242.72642517089844
z: -0.12206139415502548
visibility: 0.9994556903839111
","x: 274.6126708984375
y: 248.38296508789062
z: -0.1962202787399292
visibility: 0.999935507774353
","x: 270.0540771484375
y: 248.4722137451172
z: -0.1940126121044159
visibility: 0.9999058842658997
","x: 288.4710693359375
y: 277.81451416015625
z: -0.09345784783363342
visibility: 0.9998942613601685
","x: 254.69158935546875
y: 282.1399230957031
z: -0.044522278010845184
visibility: 0.9997562766075134
","x: 298.3529968261719
y: 317.638671875
z: -0.1339338719844818
visibility: 0.9795178174972534
","x: 243.82546997070312
y: 321.8592834472656
z: -0.012736380100250244
visibility: 0.9486052989959717
","x: 285.08477783203125
y: 338.8856506347656
z: -0.2689414918422699
visibility: 0.9788307547569275
","x: 227.60646057128906
y: 341.5350036621094
z: -0.10975287109613419
visibility: 0.9235822558403015
","x: 281.5429992675781
y: 347.38720703125
z: -0.303988516330719
visibility: 0.9465080499649048
","x: 220.50479125976562
y: 345.4348449707031
z: -0.1359720230102539
visibility: 0.8606696128845215
","x: 278.96734619140625
y: 341.8911437988281
z: -0.31911608576774597
visibility: 0.9461202621459961
","x: 219.54505920410156
y: 344.7325134277344
z: -0.16514535248279572
visibility: 0.871951699256897
","x: 279.7482604980469
y: 338.5098876953125
z: -0.2766176462173462
visibility: 0.9223056435585022
","x: 222.70701599121094
y: 344.6596984863281
z: -0.12532000243663788
visibility: 0.8558633327484131
","x: 281.88726806640625
y: 367.26007080078125
z: -0.0021277200430631638
visibility: 0.9996187090873718
","x: 260.26800537109375
y: 368.1204833984375
z: 0.00206715683452785
visibility: 0.9994999766349792
","x: 279.2845153808594
y: 442.032958984375
z: -0.010402830317616463
visibility: 0.9818681478500366
","x: 262.1566162109375
y: 442.4270324707031
z: -0.00467681884765625
visibility: 0.9820112586021423
","x: 277.19512939453125
y: 503.0811767578125
z: 0.12248166650533676
visibility: 0.984556257724762
","x: 263.47528076171875
y: 503.64373779296875
z: 0.12534698843955994
visibility: 0.9837782979011536
","x: 275.5186767578125
y: 509.79937744140625
z: 0.13004709780216217
visibility: 0.8671132326126099
","x: 264.61627197265625
y: 509.9761657714844
z: 0.13231077790260315
visibility: 0.8095307946205139
","x: 277.20343017578125
y: 526.8336181640625
z: 0.023555938154459
visibility: 0.9814090132713318
","x: 262.7996520996094
y: 525.9378662109375
z: 0.026579570025205612
visibility: 0.9773477911949158
",4.6300506591796875,"x: 283.7734680175781
y: 341.422607421875
z: 0.0
","x: 280.3396301269531
y: 340.8365478515625
z: -0.0007106203702278435
","x: 277.01043701171875
y: 343.7109069824219
z: -0.0019052488496527076
","x: 275.1057434082031
y: 348.0350036621094
z: -0.00280845002271235
","x: 274.0101013183594
y: 351.2923583984375
z: -0.0037449654191732407
","x: 276.6773986816406
y: 344.4928283691406
z: -0.005658338777720928
","x: 273.8724365234375
y: 350.31793212890625
z: -0.007703480310738087
","x: 272.74835205078125
y: 354.3419189453125
z: -0.007979316636919975
","x: 272.18072509765625
y: 357.39520263671875
z: -0.007975773885846138
","x: 278.38067626953125
y: 347.0870361328125
z: -0.00628628907725215
","x: 275.6741027832031
y: 354.2631530761719
z: -0.008458700031042099
","x: 274.4565124511719
y: 358.47723388671875
z: -0.008333894424140453
","x: 273.75579833984375
y: 361.3525390625
z: -0.008191211149096489
","x: 280.239013671875
y: 349.4308166503906
z: -0.006653452757745981
","x: 278.1561279296875
y: 356.3212585449219
z: -0.00885628443211317
","x: 276.98681640625
y: 359.98828125
z: -0.008844361640512943
","x: 276.10400390625
y: 362.6090087890625
z: -0.008728311397135258
","x: 282.1508483886719
y: 351.4031677246094
z: -0.00693945586681366
","x: 280.8166198730469
y: 356.6810607910156
z: -0.008901909925043583
","x: 280.0063781738281
y: 359.4447326660156
z: -0.00916986633092165
","x: 279.2030029296875
y: 361.6400451660156
z: -0.009196697734296322
",,,,,,,,,,,,,,,,,,,,,
3,"x: 272.477294921875
y: 241.18280029296875
z: -0.22729766368865967
visibility: 0.9999452233314514
","x: 273.8463134765625
y: 236.92483520507812
z: -0.21390216052532196
visibility: 0.9998522400856018
","x: 274.9489440917969
y: 237.1076202392578
z: -0.2139476239681244
visibility: 0.9998695254325867
","x: 276.06396484375
y: 237.35174560546875
z: -0.21398094296455383
visibility: 0.999856173992157
","x: 270.4656677246094
y: 237.21412658691406
z: -0.21229422092437744
visibility: 0.9997970461845398
","x: 269.2104187011719
y: 237.64712524414062
z: -0.21232569217681885
visibility: 0.9997788667678833
","x: 267.9935607910156
y: 238.06057739257812
z: -0.2123599797487259
visibility: 0.9997555613517761
","x: 278.1156311035156
y: 242.06179809570312
z: -0.1299934685230255
visibility: 0.9997453689575195
","x: 265.18609619140625
y: 242.72642517089844
z: -0.12206139415502548
visibility: 0.9994556903839111
","x: 274.6126708984375
y: 248.38296508789062
z: -0.1962202787399292
visibility: 0.999935507774353
","x: 270.0540771484375
y: 248.4722137451172
z: -0.1940126121044159
visibility: 0.9999058842658997
","x: 288.4710693359375
y: 277.81451416015625
z: -0.09345784783363342
visibility: 0.9998942613601685
","x: 254.69158935546875
y: 282.1399230957031
z: -0.044522278010845184
visibility: 0.9997562766075134
","x: 298.3529968261719
y: 317.638671875
z: -0.1339338719844818
visibility: 0.9795178174972534
","x: 243.82546997070312
y: 321.8592834472656
z: -0.012736380100250244
visibility: 0.9486052989959717
","x: 285.08477783203125
y: 338.8856506347656
z: -0.2689414918422699
visibility: 0.9788307547569275
","x: 227.60646057128906
y: 341.5350036621094
z: -0.10975287109613419
visibility: 0.9235822558403015
","x: 281.5429992675781
y: 347.38720703125
z: -0.303988516330719
visibility: 0.9465080499649048
","x: 220.50479125976562
y: 345.4348449707031
z: -0.1359720230102539
visibility: 0.8606696128845215
","x: 278.96734619140625
y: 341.8911437988281
z: -0.31911608576774597
visibility: 0.9461202621459961
","x: 219.54505920410156
y: 344.7325134277344
z: -0.16514535248279572
visibility: 0.871951699256897
","x: 279.7482604980469
y: 338.5098876953125
z: -0.2766176462173462
visibility: 0.9223056435585022
","x: 222.70701599121094
y: 344.6596984863281
z: -0.12532000243663788
visibility: 0.8558633327484131
","x: 281.88726806640625
y: 367.26007080078125
z: -0.0021277200430631638
visibility: 0.9996187090873718
","x: 260.26800537109375
y: 368.1204833984375
z: 0.00206715683452785
visibility: 0.9994999766349792
","x: 279.2845153808594
y: 442.032958984375
z: -0.010402830317616463
visibility: 0.9818681478500366
","x: 262.1566162109375
y: 442.4270324707031
z: -0.00467681884765625
visibility: 0.9820112586021423
","x: 277.19512939453125
y: 503.0811767578125
z: 0.12248166650533676
visibility: 0.984556257724762
","x: 263.47528076171875
y: 503.64373779296875
z: 0.12534698843955994
visibility: 0.9837782979011536
","x: 275.5186767578125
y: 509.79937744140625
z: 0.13004709780216217
visibility: 0.8671132326126099
","x: 264.61627197265625
y: 509.9761657714844
z: 0.13231077790260315
visibility: 0.8095307946205139
","x: 277.20343017578125
y: 526.8336181640625
z: 0.023555938154459
visibility: 0.9814090132713318
","x: 262.7996520996094
y: 525.9378662109375
z: 0.026579570025205612
visibility: 0.9773477911949158
",4.6300506591796875,"x: 283.7734680175781
y: 341.422607421875
z: 0.0
","x: 280.3396301269531
y: 340.8365478515625
z: -0.0007106203702278435
","x: 277.01043701171875
y: 343.7109069824219
z: -0.0019052488496527076
","x: 275.1057434082031
y: 348.0350036621094
z: -0.00280845002271235
","x: 274.0101013183594
y: 351.2923583984375
z: -0.0037449654191732407
","x: 276.6773986816406
y: 344.4928283691406
z: -0.005658338777720928
","x: 273.8724365234375
y: 350.31793212890625
z: -0.007703480310738087
","x: 272.74835205078125
y: 354.3419189453125
z: -0.007979316636919975
","x: 272.18072509765625
y: 357.39520263671875
z: -0.007975773885846138
","x: 278.38067626953125
y: 347.0870361328125
z: -0.00628628907725215
","x: 275.6741027832031
y: 354.2631530761719
z: -0.008458700031042099
","x: 274.4565124511719
y: 358.47723388671875
z: -0.008333894424140453
","x: 273.75579833984375
y: 361.3525390625
z: -0.008191211149096489
","x: 280.239013671875
y: 349.4308166503906
z: -0.006653452757745981
","x: 278.1561279296875
y: 356.3212585449219
z: -0.00885628443211317
","x: 276.98681640625
y: 359.98828125
z: -0.008844361640512943
","x: 276.10400390625
y: 362.6090087890625
z: -0.008728311397135258
","x: 282.1508483886719
y: 351.4031677246094
z: -0.00693945586681366
","x: 280.8166198730469
y: 356.6810607910156
z: -0.008901909925043583
","x: 280.0063781738281
y: 359.4447326660156
z: -0.00916986633092165
","x: 279.2030029296875
y: 361.6400451660156
z: -0.009196697734296322
",,,,,,,,,,,,,,,,,,,,,
4,"x: 272.477294921875
y: 241.18280029296875
z: -0.22729766368865967
visibility: 0.9999452233314514
","x: 273.8463134765625
y: 236.92483520507812
z: -0.21390216052532196
visibility: 0.9998522400856018
","x: 274.9489440917969
y: 237.1076202392578
z: -0.2139476239681244
visibility: 0.9998695254325867
","x: 276.06396484375
y: 237.35174560546875
z: -0.21398094296455383
visibility: 0.999856173992157
","x: 270.4656677246094
y: 237.21412658691406
z: -0.21229422092437744
visibility: 0.9997970461845398
","x: 269.2104187011719
y: 237.64712524414062
z: -0.21232569217681885
visibility: 0.9997788667678833
","x: 267.9935607910156
y: 238.06057739257812
z: -0.2123599797487259
visibility: 0.9997555613517761
","x: 278.1156311035156
y: 242.06179809570312
z: -0.1299934685230255
visibility: 0.9997453689575195
","x: 265.18609619140625
y: 242.72642517089844
z: -0.12206139415502548
visibility: 0.9994556903839111
","x: 274.6126708984375
y: 248.38296508789062
z: -0.1962202787399292
visibility: 0.999935507774353
","x: 270.0540771484375
y: 248.4722137451172
z: -0.1940126121044159
visibility: 0.9999058842658997
","x: 288.4710693359375
y: 277.81451416015625
z: -0.09345784783363342
visibility: 0.9998942613601685
","x: 254.69158935546875
y: 282.1399230957031
z: -0.044522278010845184
visibility: 0.9997562766075134
","x: 298.3529968261719
y: 317.638671875
z: -0.1339338719844818
visibility: 0.9795178174972534
","x: 243.82546997070312
y: 321.8592834472656
z: -0.012736380100250244
visibility: 0.9486052989959717
","x: 285.08477783203125
y: 338.8856506347656
z: -0.2689414918422699
visibility: 0.9788307547569275
","x: 227.60646057128906
y: 341.5350036621094
z: -0.10975287109613419
visibility: 0.9235822558403015
","x: 281.5429992675781
y: 347.38720703125
z: -0.303988516330719
visibility: 0.9465080499649048
","x: 220.50479125976562
y: 345.4348449707031
z: -0.1359720230102539
visibility: 0.8606696128845215
","x: 278.96734619140625
y: 341.8911437988281
z: -0.31911608576774597
visibility: 0.9461202621459961
","x: 219.54505920410156
y: 344.7325134277344
z: -0.16514535248279572
visibility: 0.871951699256897
","x: 279.7482604980469
y: 338.5098876953125
z: -0.2766176462173462
visibility: 0.9223056435585022
","x: 222.70701599121094
y: 344.6596984863281
z: -0.12532000243663788
visibility: 0.8558633327484131
","x: 281.88726806640625
y: 367.26007080078125
z: -0.0021277200430631638
visibility: 0.9996187090873718
","x: 260.26800537109375
y: 368.1204833984375
z: 0.00206715683452785
visibility: 0.9994999766349792
","x: 279.2845153808594
y: 442.032958984375
z: -0.010402830317616463
visibility: 0.9818681478500366
","x: 262.1566162109375
y: 442.4270324707031
z: -0.00467681884765625
visibility: 0.9820112586021423
","x: 277.19512939453125
y: 503.0811767578125
z: 0.12248166650533676
visibility: 0.984556257724762
","x: 263.47528076171875
y: 503.64373779296875
z: 0.12534698843955994
visibility: 0.9837782979011536
","x: 275.5186767578125
y: 509.79937744140625
z: 0.13004709780216217
visibility: 0.8671132326126099
","x: 264.61627197265625
y: 509.9761657714844
z: 0.13231077790260315
visibility: 0.8095307946205139
","x: 277.20343017578125
y: 526.8336181640625
z: 0.023555938154459
visibility: 0.9814090132713318
","x: 262.7996520996094
y: 525.9378662109375
z: 0.026579570025205612
visibility: 0.9773477911949158
",4.6300506591796875,"x: 283.7734680175781
y: 341.422607421875
z: 0.0
","x: 280.3396301269531
y: 340.8365478515625
z: -0.0007106203702278435
","x: 277.01043701171875
y: 343.7109069824219
z: -0.0019052488496527076
","x: 275.1057434082031
y: 348.0350036621094
z: -0.00280845002271235
","x: 274.0101013183594
y: 351.2923583984375
z: -0.0037449654191732407
","x: 276.6773986816406
y: 344.4928283691406
z: -0.005658338777720928
","x: 273.8724365234375
y: 350.31793212890625
z: -0.007703480310738087
","x: 272.74835205078125
y: 354.3419189453125
z: -0.007979316636919975
","x: 272.18072509765625
y: 357.39520263671875
z: -0.007975773885846138
","x: 278.38067626953125
y: 347.0870361328125
z: -0.00628628907725215
","x: 275.6741027832031
y: 354.2631530761719
z: -0.008458700031042099
","x: 274.4565124511719
y: 358.47723388671875
z: -0.008333894424140453
","x: 273.75579833984375
y: 361.3525390625
z: -0.008191211149096489
","x: 280.239013671875
y: 349.4308166503906
z: -0.006653452757745981
","x: 278.1561279296875
y: 356.3212585449219
z: -0.00885628443211317
","x: 276.98681640625
y: 359.98828125
z: -0.008844361640512943
","x: 276.10400390625
y: 362.6090087890625
z: -0.008728311397135258
","x: 282.1508483886719
y: 351.4031677246094
z: -0.00693945586681366
","x: 280.8166198730469
y: 356.6810607910156
z: -0.008901909925043583
","x: 280.0063781738281
y: 359.4447326660156
z: -0.00916986633092165
","x: 279.2030029296875
y: 361.6400451660156
z: -0.009196697734296322
",,,,,,,,,,,,,,,,,,,,,
5,"x: 272.44830322265625
y: 241.28277587890625
z: -0.3212379813194275
visibility: 0.9999457597732544
","x: 273.4969482421875
y: 237.01124572753906
z: -0.30746132135391235
visibility: 0.9998468160629272
","x: 274.4969177246094
y: 237.18324279785156
z: -0.3074735701084137
visibility: 0.9998681545257568
","x: 275.4843444824219
y: 237.4083709716797
z: -0.30751004815101624
visibility: 0.9998565912246704
","x: 270.2518310546875
y: 237.34552001953125
z: -0.30762434005737305
visibility: 0.9997844099998474
","x: 269.04010009765625
y: 237.8128662109375
z: -0.30765479803085327
visibility: 0.9997685551643372
","x: 267.8354797363281
y: 238.26651000976562
z: -0.3076823651790619
visibility: 0.9997373819351196
","x: 277.1331481933594
y: 242.1607666015625
z: -0.21544726192951202
visibility: 0.9997509717941284
","x: 265.1022033691406
y: 243.05010986328125
z: -0.21557338535785675
visibility: 0.999393105506897
","x: 274.5833435058594
y: 248.44210815429688
z: -0.2860276401042938
visibility: 0.9999363422393799
","x: 270.05780029296875
y: 248.60328674316406
z: -0.28635549545288086
visibility: 0.999902069568634
","x: 288.4651794433594
y: 279.9216003417969
z: -0.1559632122516632
visibility: 0.9999032616615295
","x: 254.91766357421875
y: 282.2246398925781
z: -0.12791253626346588
visibility: 0.9997352361679077
","x: 297.0621337890625
y: 324.46356201171875
z: -0.12144304811954498
visibility: 0.9810746908187866
","x: 245.9126434326172
y: 323.81298828125
z: -0.08283813297748566
visibility: 0.9480152726173401
","x: 296.7285461425781
y: 370.963134765625
z: -0.18358094990253448
visibility: 0.9799909591674805
","x: 237.53005981445312
y: 358.16534423828125
z: -0.14555343985557556
visibility: 0.9217829704284668
","x: 298.4392395019531
y: 384.92913818359375
z: -0.20379145443439484
visibility: 0.949505627155304
","x: 232.9716339111328
y: 365.8983154296875
z: -0.16609755158424377
visibility: 0.8590436577796936
","x: 296.45892333984375
y: 385.781005859375
z: -0.23331987857818604
visibility: 0.9494250416755676
","x: 233.4542999267578
y: 365.4217834472656
z: -0.19736067950725555
visibility: 0.8707095384597778
","x: 294.7908935546875
y: 380.802490234375
z: -0.19573548436164856
visibility: 0.9273488521575928
","x: 236.39199829101562
y: 364.4427795410156
z: -0.16026456654071808
visibility: 0.8546763062477112
","x: 281.87384033203125
y: 367.0560302734375
z: -0.00735580176115036
visibility: 0.9996278285980225
","x: 260.57720947265625
y: 368.56396484375
z: 0.007284483406692743
visibility: 0.9994804263114929
","x: 279.2586975097656
y: 439.3844909667969
z: -0.05877278000116348
visibility: 0.983372151851654
","x: 262.11566162109375
y: 442.3956298828125
z: 0.001987042836844921
visibility: 0.9828391671180725
","x: 286.20050048828125
y: 498.0633239746094
z: 0.08889319002628326
visibility: 0.9857801198959351
","x: 263.9490966796875
y: 503.26129150390625
z: 0.15167272090911865
visibility: 0.9844844937324524
","x: 287.98291015625
y: 503.4626770019531
z: 0.09720711410045624
visibility: 0.8673096895217896
","x: 264.5809326171875
y: 509.58319091796875
z: 0.1600436419248581
visibility: 0.8126057982444763
","x: 280.1761169433594
y: 526.4793090820312
z: -0.023716920986771584
visibility: 0.9827302694320679
","x: 264.1468200683594
y: 525.965087890625
z: 0.05031076818704605
visibility: 0.9783129692077637
",4.778740644454956,,,,,,,,,,,,,,,,,,,,,,,,,,,,,,,,,,,,,,,,,,
6,"x: 272.44830322265625
y: 241.28277587890625
z: -0.3212379813194275
visibility: 0.9999457597732544
","x: 273.4969482421875
y: 237.01124572753906
z: -0.30746132135391235
visibility: 0.9998468160629272
","x: 274.4969177246094
y: 237.18324279785156
z: -0.3074735701084137
visibility: 0.9998681545257568
","x: 275.4843444824219
y: 237.4083709716797
z: -0.30751004815101624
visibility: 0.9998565912246704
","x: 270.2518310546875
y: 237.34552001953125
z: -0.30762434005737305
visibility: 0.9997844099998474
","x: 269.04010009765625
y: 237.8128662109375
z: -0.30765479803085327
visibility: 0.9997685551643372
","x: 267.8354797363281
y: 238.26651000976562
z: -0.3076823651790619
visibility: 0.9997373819351196
","x: 277.1331481933594
y: 242.1607666015625
z: -0.21544726192951202
visibility: 0.9997509717941284
","x: 265.1022033691406
y: 243.05010986328125
z: -0.21557338535785675
visibility: 0.999393105506897
","x: 274.5833435058594
y: 248.44210815429688
z: -0.2860276401042938
visibility: 0.9999363422393799
","x: 270.05780029296875
y: 248.60328674316406
z: -0.28635549545288086
visibility: 0.999902069568634
","x: 288.4651794433594
y: 279.9216003417969
z: -0.1559632122516632
visibility: 0.9999032616615295
","x: 254.91766357421875
y: 282.2246398925781
z: -0.12791253626346588
visibility: 0.9997352361679077
","x: 297.0621337890625
y: 324.46356201171875
z: -0.12144304811954498
visibility: 0.9810746908187866
","x: 245.9126434326172
y: 323.81298828125
z: -0.08283813297748566
visibility: 0.9480152726173401
","x: 296.7285461425781
y: 370.963134765625
z: -0.18358094990253448
visibility: 0.9799909591674805
","x: 237.53005981445312
y: 358.16534423828125
z: -0.14555343985557556
visibility: 0.9217829704284668
","x: 298.4392395019531
y: 384.92913818359375
z: -0.20379145443439484
visibility: 0.949505627155304
","x: 232.9716339111328
y: 365.8983154296875
z: -0.16609755158424377
visibility: 0.8590436577796936
","x: 296.45892333984375
y: 385.781005859375
z: -0.23331987857818604
visibility: 0.9494250416755676
","x: 233.4542999267578
y: 365.4217834472656
z: -0.19736067950725555
visibility: 0.8707095384597778
","x: 294.7908935546875
y: 380.802490234375
z: -0.19573548436164856
visibility: 0.9273488521575928
","x: 236.39199829101562
y: 364.4427795410156
z: -0.16026456654071808
visibility: 0.8546763062477112
","x: 281.87384033203125
y: 367.0560302734375
z: -0.00735580176115036
visibility: 0.9996278285980225
","x: 260.57720947265625
y: 368.56396484375
z: 0.007284483406692743
visibility: 0.9994804263114929
","x: 279.2586975097656
y: 439.3844909667969
z: -0.05877278000116348
visibility: 0.983372151851654
","x: 262.11566162109375
y: 442.3956298828125
z: 0.001987042836844921
visibility: 0.9828391671180725
","x: 286.20050048828125
y: 498.0633239746094
z: 0.08889319002628326
visibility: 0.9857801198959351
","x: 263.9490966796875
y: 503.26129150390625
z: 0.15167272090911865
visibility: 0.9844844937324524
","x: 287.98291015625
y: 503.4626770019531
z: 0.09720711410045624
visibility: 0.8673096895217896
","x: 264.5809326171875
y: 509.58319091796875
z: 0.1600436419248581
visibility: 0.8126057982444763
","x: 280.1761169433594
y: 526.4793090820312
z: -0.023716920986771584
visibility: 0.9827302694320679
","x: 264.1468200683594
y: 525.965087890625
z: 0.05031076818704605
visibility: 0.9783129692077637
",4.778740644454956,,,,,,,,,,,,,,,,,,,,,,,,,,,,,,,,,,,,,,,,,,
7,"x: 273.32452392578125
y: 241.31472778320312
z: -0.25878235697746277
visibility: 0.9999476671218872
","x: 274.15966796875
y: 237.00628662109375
z: -0.2436908781528473
visibility: 0.999847948551178
","x: 275.0584411621094
y: 237.18136596679688
z: -0.24370846152305603
visibility: 0.9998659491539001
","x: 275.9525146484375
y: 237.41026306152344
z: -0.24372664093971252
visibility: 0.9998539090156555
","x: 271.08837890625
y: 237.30618286132812
z: -0.24543797969818115
visibility: 0.9997939467430115
","x: 269.7861022949219
y: 237.721923828125
z: -0.24545522034168243
visibility: 0.9997802972793579
","x: 268.4520568847656
y: 238.0968017578125
z: -0.24549326300621033
visibility: 0.9997512102127075
","x: 277.22064208984375
y: 242.157958984375
z: -0.14844080805778503
visibility: 0.9997184872627258
","x: 265.5361633300781
y: 242.8199462890625
z: -0.16278204321861267
visibility: 0.9994344711303711
","x: 275.12030029296875
y: 248.4600067138672
z: -0.222792387008667
visibility: 0.9999353289604187
","x: 270.7731628417969
y: 248.5897979736328
z: -0.22588948905467987
visibility: 0.9999067187309265
","x: 288.7864990234375
y: 282.32171630859375
z: -0.07957808673381805
visibility: 0.9999067783355713
","x: 255.42840576171875
y: 282.1847229003906
z: -0.11602862179279327
visibility: 0.9997547268867493
","x: 297.0853271484375
y: 323.32220458984375
z: -0.0015031906077638268
visibility: 0.9804116487503052
","x: 247.1862335205078
y: 323.97930908203125
z: -0.12829533219337463
visibility: 0.9523248672485352
","x: 309.2010803222656
y: 357.1654052734375
z: -0.08013169467449188
visibility: 0.9799333810806274
","x: 259.7476806640625
y: 357.0487060546875
z: -0.22027258574962616
visibility: 0.9278913736343384
","x: 313.786865234375
y: 367.15069580078125
z: -0.10067777335643768
visibility: 0.9502016305923462
","x: 263.51556396484375
y: 365.62213134765625
z: -0.24816158413887024
visibility: 0.86949622631073
","x: 313.5079650878906
y: 368.8040771484375
z: -0.12953242659568787
visibility: 0.9506641626358032
","x: 265.87835693359375
y: 361.96142578125
z: -0.2669444978237152
visibility: 0.8800123333930969
","x: 311.7645263671875
y: 365.9933166503906
z: -0.09379315376281738
visibility: 0.9299221634864807
","x: 265.0169372558594
y: 359.3497009277344
z: -0.22851061820983887
visibility: 0.8639771342277527
","x: 281.8923034667969
y: 368.9786376953125
z: 0.012744011357426643
visibility: 0.9996498823165894
","x: 260.7406005859375
y: 370.02386474609375
z: -0.012804025784134865
visibility: 0.9995063543319702
","x: 280.5278625488281
y: 441.95458984375
z: -0.04620525613427162
visibility: 0.9834738969802856
","x: 262.94647216796875
y: 442.9346923828125
z: 0.007629008498042822
visibility: 0.9826352596282959
","x: 283.28717041015625
y: 505.7557373046875
z: 0.053781040012836456
visibility: 0.9858664274215698
","x: 265.1046142578125
y: 503.1881103515625
z: 0.15658824145793915
visibility: 0.9833004474639893
","x: 284.181640625
y: 512.3462524414062
z: 0.05588022619485855
visibility: 0.8718466758728027
","x: 266.2244567871094
y: 509.2553405761719
z: 0.16504745185375214
visibility: 0.8039087653160095
","x: 284.3951721191406
y: 530.47314453125
z: -0.058931462466716766
visibility: 0.9828440546989441
","x: 265.05474853515625
y: 524.590087890625
z: 0.060628004372119904
visibility: 0.9775035977363586
",4.98298716545105,,,,,,,,,,,,,,,,,,,,,,"x: 260.4266052246094
y: 355.3089904785156
z: 0.0
","x: 263.9375305175781
y: 354.5660400390625
z: 0.000515309686306864
","x: 267.6683654785156
y: 356.0704345703125
z: -0.00029986942536197603
","x: 269.9512023925781
y: 359.822998046875
z: -0.0013235853984951973
","x: 270.88714599609375
y: 363.4220886230469
z: -0.0021789029706269503
","x: 268.47271728515625
y: 355.0138854980469
z: -0.004029014613479376
","x: 272.2599792480469
y: 360.73028564453125
z: -0.005755800753831863
","x: 273.1062316894531
y: 364.39739990234375
z: -0.005595022812485695
","x: 273.120849609375
y: 366.6822814941406
z: -0.005141275469213724
","x: 267.29931640625
y: 357.51416015625
z: -0.005337369162589312
","x: 270.8143310546875
y: 363.41082763671875
z: -0.007004614919424057
","x: 271.76507568359375
y: 366.93548583984375
z: -0.0062041133642196655
","x: 271.9044494628906
y: 368.99658203125
z: -0.0054634446278214455
","x: 265.84234619140625
y: 360.4051513671875
z: -0.006368649657815695
","x: 268.750732421875
y: 365.9295349121094
z: -0.007492671720683575
","x: 269.1780700683594
y: 368.3506774902344
z: -0.006005538161844015
","x: 269.0257263183594
y: 369.43463134765625
z: -0.004925062879920006
","x: 264.2703552246094
y: 363.5504150390625
z: -0.00740503566339612
","x: 266.802490234375
y: 367.9969787597656
z: -0.008081265725195408
","x: 267.2620849609375
y: 369.40509033203125
z: -0.007081637158989906
","x: 267.16119384765625
y: 369.77978515625
z: -0.006187524180859327
"
8,"x: 273.32452392578125
y: 241.31472778320312
z: -0.25878235697746277
visibility: 0.9999476671218872
","x: 274.15966796875
y: 237.00628662109375
z: -0.2436908781528473
visibility: 0.999847948551178
","x: 275.0584411621094
y: 237.18136596679688
z: -0.24370846152305603
visibility: 0.9998659491539001
","x: 275.9525146484375
y: 237.41026306152344
z: -0.24372664093971252
visibility: 0.9998539090156555
","x: 271.08837890625
y: 237.30618286132812
z: -0.24543797969818115
visibility: 0.9997939467430115
","x: 269.7861022949219
y: 237.721923828125
z: -0.24545522034168243
visibility: 0.9997802972793579
","x: 268.4520568847656
y: 238.0968017578125
z: -0.24549326300621033
visibility: 0.9997512102127075
","x: 277.22064208984375
y: 242.157958984375
z: -0.14844080805778503
visibility: 0.9997184872627258
","x: 265.5361633300781
y: 242.8199462890625
z: -0.16278204321861267
visibility: 0.9994344711303711
","x: 275.12030029296875
y: 248.4600067138672
z: -0.222792387008667
visibility: 0.9999353289604187
","x: 270.7731628417969
y: 248.5897979736328
z: -0.22588948905467987
visibility: 0.9999067187309265
","x: 288.7864990234375
y: 282.32171630859375
z: -0.07957808673381805
visibility: 0.9999067783355713
","x: 255.42840576171875
y: 282.1847229003906
z: -0.11602862179279327
visibility: 0.9997547268867493
","x: 297.0853271484375
y: 323.32220458984375
z: -0.0015031906077638268
visibility: 0.9804116487503052
","x: 247.1862335205078
y: 323.97930908203125
z: -0.12829533219337463
visibility: 0.9523248672485352
","x: 309.2010803222656
y: 357.1654052734375
z: -0.08013169467449188
visibility: 0.9799333810806274
","x: 259.7476806640625
y: 357.0487060546875
z: -0.22027258574962616
visibility: 0.9278913736343384
","x: 313.786865234375
y: 367.15069580078125
z: -0.10067777335643768
visibility: 0.9502016305923462
","x: 263.51556396484375
y: 365.62213134765625
z: -0.24816158413887024
visibility: 0.86949622631073
","x: 313.5079650878906
y: 368.8040771484375
z: -0.12953242659568787
visibility: 0.9506641626358032
","x: 265.87835693359375
y: 361.96142578125
z: -0.2669444978237152
visibility: 0.8800123333930969
","x: 311.7645263671875
y: 365.9933166503906
z: -0.09379315376281738
visibility: 0.9299221634864807
","x: 265.0169372558594
y: 359.3497009277344
z: -0.22851061820983887
visibility: 0.8639771342277527
","x: 281.8923034667969
y: 368.9786376953125
z: 0.012744011357426643
visibility: 0.9996498823165894
","x: 260.7406005859375
y: 370.02386474609375
z: -0.012804025784134865
visibility: 0.9995063543319702
","x: 280.5278625488281
y: 441.95458984375
z: -0.04620525613427162
visibility: 0.9834738969802856
","x: 262.94647216796875
y: 442.9346923828125
z: 0.007629008498042822
visibility: 0.9826352596282959
","x: 283.28717041015625
y: 505.7557373046875
z: 0.053781040012836456
visibility: 0.9858664274215698
","x: 265.1046142578125
y: 503.1881103515625
z: 0.15658824145793915
visibility: 0.9833004474639893
","x: 284.181640625
y: 512.3462524414062
z: 0.05588022619485855
visibility: 0.8718466758728027
","x: 266.2244567871094
y: 509.2553405761719
z: 0.16504745185375214
visibility: 0.8039087653160095
","x: 284.3951721191406
y: 530.47314453125
z: -0.058931462466716766
visibility: 0.9828440546989441
","x: 265.05474853515625
y: 524.590087890625
z: 0.060628004372119904
visibility: 0.9775035977363586
",4.98298716545105,,,,,,,,,,,,,,,,,,,,,,"x: 260.4266052246094
y: 355.3089904785156
z: 0.0
","x: 263.9375305175781
y: 354.5660400390625
z: 0.000515309686306864
","x: 267.6683654785156
y: 356.0704345703125
z: -0.00029986942536197603
","x: 269.9512023925781
y: 359.822998046875
z: -0.0013235853984951973
","x: 270.88714599609375
y: 363.4220886230469
z: -0.0021789029706269503
","x: 268.47271728515625
y: 355.0138854980469
z: -0.004029014613479376
","x: 272.2599792480469
y: 360.73028564453125
z: -0.005755800753831863
","x: 273.1062316894531
y: 364.39739990234375
z: -0.005595022812485695
","x: 273.120849609375
y: 366.6822814941406
z: -0.005141275469213724
","x: 267.29931640625
y: 357.51416015625
z: -0.005337369162589312
","x: 270.8143310546875
y: 363.41082763671875
z: -0.007004614919424057
","x: 271.76507568359375
y: 366.93548583984375
z: -0.0062041133642196655
","x: 271.9044494628906
y: 368.99658203125
z: -0.0054634446278214455
","x: 265.84234619140625
y: 360.4051513671875
z: -0.006368649657815695
","x: 268.750732421875
y: 365.9295349121094
z: -0.007492671720683575
","x: 269.1780700683594
y: 368.3506774902344
z: -0.006005538161844015
","x: 269.0257263183594
y: 369.43463134765625
z: -0.004925062879920006
","x: 264.2703552246094
y: 363.5504150390625
z: -0.00740503566339612
","x: 266.802490234375
y: 367.9969787597656
z: -0.008081265725195408
","x: 267.2620849609375
y: 369.40509033203125
z: -0.007081637158989906
","x: 267.16119384765625
y: 369.77978515625
z: -0.006187524180859327
"
9,"x: 273.32452392578125
y: 241.31472778320312
z: -0.25878235697746277
visibility: 0.9999476671218872
","x: 274.15966796875
y: 237.00628662109375
z: -0.2436908781528473
visibility: 0.999847948551178
","x: 275.0584411621094
y: 237.18136596679688
z: -0.24370846152305603
visibility: 0.9998659491539001
","x: 275.9525146484375
y: 237.41026306152344
z: -0.24372664093971252
visibility: 0.9998539090156555
","x: 271.08837890625
y: 237.30618286132812
z: -0.24543797969818115
visibility: 0.9997939467430115
","x: 269.7861022949219
y: 237.721923828125
z: -0.24545522034168243
visibility: 0.9997802972793579
","x: 268.4520568847656
y: 238.0968017578125
z: -0.24549326300621033
visibility: 0.9997512102127075
","x: 277.22064208984375
y: 242.157958984375
z: -0.14844080805778503
visibility: 0.9997184872627258
","x: 265.5361633300781
y: 242.8199462890625
z: -0.16278204321861267
visibility: 0.9994344711303711
","x: 275.12030029296875
y: 248.4600067138672
z: -0.222792387008667
visibility: 0.9999353289604187
","x: 270.7731628417969
y: 248.5897979736328
z: -0.22588948905467987
visibility: 0.9999067187309265
","x: 288.7864990234375
y: 282.32171630859375
z: -0.07957808673381805
visibility: 0.9999067783355713
","x: 255.42840576171875
y: 282.1847229003906
z: -0.11602862179279327
visibility: 0.9997547268867493
","x: 297.0853271484375
y: 323.32220458984375
z: -0.0015031906077638268
visibility: 0.9804116487503052
","x: 247.1862335205078
y: 323.97930908203125
z: -0.12829533219337463
visibility: 0.9523248672485352
","x: 309.2010803222656
y: 357.1654052734375
z: -0.08013169467449188
visibility: 0.9799333810806274
","x: 259.7476806640625
y: 357.0487060546875
z: -0.22027258574962616
visibility: 0.9278913736343384
","x: 313.786865234375
y: 367.15069580078125
z: -0.10067777335643768
visibility: 0.9502016305923462
","x: 263.51556396484375
y: 365.62213134765625
z: -0.24816158413887024
visibility: 0.86949622631073
","x: 313.5079650878906
y: 368.8040771484375
z: -0.12953242659568787
visibility: 0.9506641626358032
","x: 265.87835693359375
y: 361.96142578125
z: -0.2669444978237152
visibility: 0.8800123333930969
","x: 311.7645263671875
y: 365.9933166503906
z: -0.09379315376281738
visibility: 0.9299221634864807
","x: 265.0169372558594
y: 359.3497009277344
z: -0.22851061820983887
visibility: 0.8639771342277527
","x: 281.8923034667969
y: 368.9786376953125
z: 0.012744011357426643
visibility: 0.9996498823165894
","x: 260.7406005859375
y: 370.02386474609375
z: -0.012804025784134865
visibility: 0.9995063543319702
","x: 280.5278625488281
y: 441.95458984375
z: -0.04620525613427162
visibility: 0.9834738969802856
","x: 262.94647216796875
y: 442.9346923828125
z: 0.007629008498042822
visibility: 0.9826352596282959
","x: 283.28717041015625
y: 505.7557373046875
z: 0.053781040012836456
visibility: 0.9858664274215698
","x: 265.1046142578125
y: 503.1881103515625
z: 0.15658824145793915
visibility: 0.9833004474639893
","x: 284.181640625
y: 512.3462524414062
z: 0.05588022619485855
visibility: 0.8718466758728027
","x: 266.2244567871094
y: 509.2553405761719
z: 0.16504745185375214
visibility: 0.8039087653160095
","x: 284.3951721191406
y: 530.47314453125
z: -0.058931462466716766
visibility: 0.9828440546989441
","x: 265.05474853515625
y: 524.590087890625
z: 0.060628004372119904
visibility: 0.9775035977363586
",4.98298716545105,,,,,,,,,,,,,,,,,,,,,,"x: 260.4266052246094
y: 355.3089904785156
z: 0.0
","x: 263.9375305175781
y: 354.5660400390625
z: 0.000515309686306864
","x: 267.6683654785156
y: 356.0704345703125
z: -0.00029986942536197603
","x: 269.9512023925781
y: 359.822998046875
z: -0.0013235853984951973
","x: 270.88714599609375
y: 363.4220886230469
z: -0.0021789029706269503
","x: 268.47271728515625
y: 355.0138854980469
z: -0.004029014613479376
","x: 272.2599792480469
y: 360.73028564453125
z: -0.005755800753831863
","x: 273.1062316894531
y: 364.39739990234375
z: -0.005595022812485695
","x: 273.120849609375
y: 366.6822814941406
z: -0.005141275469213724
","x: 267.29931640625
y: 357.51416015625
z: -0.005337369162589312
","x: 270.8143310546875
y: 363.41082763671875
z: -0.007004614919424057
","x: 271.76507568359375
y: 366.93548583984375
z: -0.0062041133642196655
","x: 271.9044494628906
y: 368.99658203125
z: -0.0054634446278214455
","x: 265.84234619140625
y: 360.4051513671875
z: -0.006368649657815695
","x: 268.750732421875
y: 365.9295349121094
z: -0.007492671720683575
","x: 269.1780700683594
y: 368.3506774902344
z: -0.006005538161844015
","x: 269.0257263183594
y: 369.43463134765625
z: -0.004925062879920006
","x: 264.2703552246094
y: 363.5504150390625
z: -0.00740503566339612
","x: 266.802490234375
y: 367.9969787597656
z: -0.008081265725195408
","x: 267.2620849609375
y: 369.40509033203125
z: -0.007081637158989906
","x: 267.16119384765625
y: 369.77978515625
z: -0.006187524180859327
"
10,"x: 273.65167236328125
y: 244.349609375
z: -0.19152820110321045
visibility: 0.9999508261680603
","x: 274.5061950683594
y: 240.24627685546875
z: -0.1722663789987564
visibility: 0.9998578429222107
","x: 275.4090270996094
y: 240.47686767578125
z: -0.17227627336978912
visibility: 0.9998738169670105
","x: 276.3492431640625
y: 240.75564575195312
z: -0.17230847477912903
visibility: 0.9998626708984375
","x: 271.4215087890625
y: 240.22381591796875
z: -0.17567488551139832
visibility: 0.9998083114624023
","x: 270.0556640625
y: 240.49142456054688
z: -0.17567779123783112
visibility: 0.9997962117195129
","x: 268.665771484375
y: 240.77272033691406
z: -0.17566676437854767
visibility: 0.9997693300247192
","x: 277.4836730957031
y: 244.90525817871094
z: -0.07183800637722015
visibility: 0.999739408493042
","x: 265.796875
y: 245.0852813720703
z: -0.08851959556341171
visibility: 0.999477207660675
","x: 275.369140625
y: 251.3984375
z: -0.15476951003074646
visibility: 0.9999386072158813
","x: 271.0556640625
y: 251.34222412109375
z: -0.15959353744983673
visibility: 0.999911367893219
","x: 288.78326416015625
y: 285.9604187011719
z: 0.0012795343063771725
visibility: 0.9999131560325623
","x: 255.96719360351562
y: 283.19586181640625
z: -0.06589271128177643
visibility: 0.9997439980506897
","x: 299.2994384765625
y: 322.206787109375
z: 0.052626170217990875
visibility: 0.9795325994491577
","x: 249.29248046875
y: 328.0101013183594
z: -0.13012024760246277
visibility: 0.9544374942779541
","x: 318.9455261230469
y: 347.39215087890625
z: -0.023813415318727493
visibility: 0.9793148040771484
","x: 266.6498107910156
y: 326.86083984375
z: -0.2960206866264343
visibility: 0.9325150847434998
","x: 324.35198974609375
y: 353.085205078125
z: -0.039386384189128876
visibility: 0.9499481916427612
","x: 271.4198303222656
y: 323.83441162109375
z: -0.3314095735549927
visibility: 0.8773673176765442
","x: 325.2087097167969
y: 352.62249755859375
z: -0.06758254021406174
visibility: 0.951107382774353
","x: 271.15411376953125
y: 318.3128662109375
z: -0.33606159687042236
visibility: 0.8867306113243103
","x: 323.1888732910156
y: 350.93206787109375
z: -0.03688717633485794
visibility: 0.9314923286437988
","x: 270.2149353027344
y: 318.81414794921875
z: -0.301072359085083
visibility: 0.8692265748977661
","x: 282.5399169921875
y: 369.1519775390625
z: 0.010171433910727501
visibility: 0.9996804594993591
","x: 261.06463623046875
y: 370.5145568847656
z: -0.010201049968600273
visibility: 0.9995315670967102
","x: 283.1897277832031
y: 441.72607421875
z: -0.17270898818969727
visibility: 0.9845722913742065
","x: 263.7119140625
y: 443.9930725097656
z: -0.014828209765255451
visibility: 0.9825712442398071
","x: 284.9207458496094
y: 506.4465637207031
z: -0.08201979100704193
visibility: 0.9864048361778259
","x: 265.4222106933594
y: 503.2614440917969
z: 0.13315477967262268
visibility: 0.9819773435592651
","x: 283.2973937988281
y: 512.776611328125
z: -0.07961510121822357
visibility: 0.8725146651268005
","x: 266.96368408203125
y: 509.58251953125
z: 0.1419467031955719
visibility: 0.7982340455055237
","x: 285.79742431640625
y: 531.7168579101562
z: -0.2110985815525055
visibility: 0.9833957552909851
","x: 264.962158203125
y: 524.4654541015625
z: 0.03348107263445854
visibility: 0.9764499664306641
",5.123392581939697,,,,,,,,,,,,,,,,,,,,,,,,,,,,,,,,,,,,,,,,,,
11,"x: 273.65167236328125
y: 244.349609375
z: -0.19152820110321045
visibility: 0.9999508261680603
","x: 274.5061950683594
y: 240.24627685546875
z: -0.1722663789987564
visibility: 0.9998578429222107
","x: 275.4090270996094
y: 240.47686767578125
z: -0.17227627336978912
visibility: 0.9998738169670105
","x: 276.3492431640625
y: 240.75564575195312
z: -0.17230847477912903
visibility: 0.9998626708984375
","x: 271.4215087890625
y: 240.22381591796875
z: -0.17567488551139832
visibility: 0.9998083114624023
","x: 270.0556640625
y: 240.49142456054688
z: -0.17567779123783112
visibility: 0.9997962117195129
","x: 268.665771484375
y: 240.77272033691406
z: -0.17566676437854767
visibility: 0.9997693300247192
","x: 277.4836730957031
y: 244.90525817871094
z: -0.07183800637722015
visibility: 0.999739408493042
","x: 265.796875
y: 245.0852813720703
z: -0.08851959556341171
visibility: 0.999477207660675
","x: 275.369140625
y: 251.3984375
z: -0.15476951003074646
visibility: 0.9999386072158813
","x: 271.0556640625
y: 251.34222412109375
z: -0.15959353744983673
visibility: 0.999911367893219
","x: 288.78326416015625
y: 285.9604187011719
z: 0.0012795343063771725
visibility: 0.9999131560325623
","x: 255.96719360351562
y: 283.19586181640625
z: -0.06589271128177643
visibility: 0.9997439980506897
","x: 299.2994384765625
y: 322.206787109375
z: 0.052626170217990875
visibility: 0.9795325994491577
","x: 249.29248046875
y: 328.0101013183594
z: -0.13012024760246277
visibility: 0.9544374942779541
","x: 318.9455261230469
y: 347.39215087890625
z: -0.023813415318727493
visibility: 0.9793148040771484
","x: 266.6498107910156
y: 326.86083984375
z: -0.2960206866264343
visibility: 0.9325150847434998
","x: 324.35198974609375
y: 353.085205078125
z: -0.039386384189128876
visibility: 0.9499481916427612
","x: 271.4198303222656
y: 323.83441162109375
z: -0.3314095735549927
visibility: 0.8773673176765442
","x: 325.2087097167969
y: 352.62249755859375
z: -0.06758254021406174
visibility: 0.951107382774353
","x: 271.15411376953125
y: 318.3128662109375
z: -0.33606159687042236
visibility: 0.8867306113243103
","x: 323.1888732910156
y: 350.93206787109375
z: -0.03688717633485794
visibility: 0.9314923286437988
","x: 270.2149353027344
y: 318.81414794921875
z: -0.301072359085083
visibility: 0.8692265748977661
","x: 282.5399169921875
y: 369.1519775390625
z: 0.010171433910727501
visibility: 0.9996804594993591
","x: 261.06463623046875
y: 370.5145568847656
z: -0.010201049968600273
visibility: 0.9995315670967102
","x: 283.1897277832031
y: 441.72607421875
z: -0.17270898818969727
visibility: 0.9845722913742065
","x: 263.7119140625
y: 443.9930725097656
z: -0.014828209765255451
visibility: 0.9825712442398071
","x: 284.9207458496094
y: 506.4465637207031
z: -0.08201979100704193
visibility: 0.9864048361778259
","x: 265.4222106933594
y: 503.2614440917969
z: 0.13315477967262268
visibility: 0.9819773435592651
","x: 283.2973937988281
y: 512.776611328125
z: -0.07961510121822357
visibility: 0.8725146651268005
","x: 266.96368408203125
y: 509.58251953125
z: 0.1419467031955719
visibility: 0.7982340455055237
","x: 285.79742431640625
y: 531.7168579101562
z: -0.2110985815525055
visibility: 0.9833957552909851
","x: 264.962158203125
y: 524.4654541015625
z: 0.03348107263445854
visibility: 0.9764499664306641
",5.123392581939697,,,,,,,,,,,,,,,,,,,,,,,,,,,,,,,,,,,,,,,,,,
12,"x: 273.7010803222656
y: 248.61361694335938
z: -0.11417541652917862
visibility: 0.9999416470527649
","x: 274.74053955078125
y: 244.013916015625
z: -0.09562450647354126
visibility: 0.9998404383659363
","x: 275.6066589355469
y: 244.19842529296875
z: -0.09566477686166763
visibility: 0.9998527765274048
","x: 276.5306396484375
y: 244.4503631591797
z: -0.09572532773017883
visibility: 0.9998453855514526
","x: 271.7037353515625
y: 243.82562255859375
z: -0.10160639137029648
visibility: 0.9997928142547607
","x: 270.339111328125
y: 243.90664672851562
z: -0.10160000622272491
visibility: 0.9997803568840027
","x: 268.9142761230469
y: 244.07733154296875
z: -0.10160143673419952
visibility: 0.9997578859329224
","x: 277.5151672363281
y: 248.18215942382812
z: 0.0023380140773952007
visibility: 0.9997261166572571
","x: 265.8819580078125
y: 247.53053283691406
z: -0.02457868680357933
visibility: 0.9994708895683289
","x: 275.3568115234375
y: 256.3076477050781
z: -0.07769614458084106
visibility: 0.9999274015426636
","x: 271.0367431640625
y: 255.74937438964844
z: -0.08560453355312347
visibility: 0.9999018311500549
","x: 286.76727294921875
y: 288.2083740234375
z: 0.06483617424964905
visibility: 0.9999164342880249
","x: 256.751953125
y: 282.22430419921875
z: 0.006389343645423651
visibility: 0.9997092485427856
","x: 297.47064208984375
y: 319.54168701171875
z: 0.09313494712114334
visibility: 0.9724482297897339
","x: 251.10174560546875
y: 325.012451171875
z: -0.08782915771007538
visibility: 0.9495397806167603
","x: 316.2392883300781
y: 331.4938659667969
z: 0.002911228686571121
visibility: 0.9749062061309814
","x: 264.3528747558594
y: 321.1672668457031
z: -0.26326268911361694
visibility: 0.933129608631134
","x: 323.2120056152344
y: 334.5422668457031
z: -0.018797053024172783
visibility: 0.9445676207542419
","x: 263.41204833984375
y: 325.1802978515625
z: -0.30237388610839844
visibility: 0.879851758480072
","x: 323.7103576660156
y: 332.88714599609375
z: -0.04350655525922775
visibility: 0.9472677707672119
","x: 265.052734375
y: 320.01239013671875
z: -0.30946922302246094
visibility: 0.8885453939437866
","x: 321.2193603515625
y: 332.48443603515625
z: -0.010470224544405937
visibility: 0.927646279335022
","x: 267.2389831542969
y: 318.1988220214844
z: -0.27050426602363586
visibility: 0.8693842887878418
","x: 282.316650390625
y: 368.5980529785156
z: 0.008859897032380104
visibility: 0.9996869564056396
","x: 260.9784851074219
y: 370.43145751953125
z: -0.008848610334098339
visibility: 0.9994962215423584
","x: 283.47857666015625
y: 441.654296875
z: -0.10342369228601456
visibility: 0.985729992389679
","x: 263.49456787109375
y: 443.95892333984375
z: -0.029700905084609985
visibility: 0.9821392893791199
","x: 292.5948486328125
y: 506.87939453125
z: -0.003344363998621702
visibility: 0.9872130751609802
","x: 264.54754638671875
y: 503.9729309082031
z: 0.10837286710739136
visibility: 0.9816766977310181
","x: 295.5088195800781
y: 513.8731079101562
z: -0.0005014343187212944
visibility: 0.8630165457725525
","x: 266.84820556640625
y: 510.990234375
z: 0.11553405225276947
visibility: 0.7931710481643677
","x: 286.6419372558594
y: 532.6729736328125
z: -0.13096675276756287
visibility: 0.9839291572570801
","x: 264.66815185546875
y: 525.1605224609375
z: 0.0010237791575491428
visibility: 0.9763032793998718
",5.26543927192688,,,,,,,,,,,,,,,,,,,,,,,,,,,,,,,,,,,,,,,,,,
13,"x: 273.7010803222656
y: 248.61361694335938
z: -0.11417541652917862
visibility: 0.9999416470527649
","x: 274.74053955078125
y: 244.013916015625
z: -0.09562450647354126
visibility: 0.9998404383659363
","x: 275.6066589355469
y: 244.19842529296875
z: -0.09566477686166763
visibility: 0.9998527765274048
","x: 276.5306396484375
y: 244.4503631591797
z: -0.09572532773017883
visibility: 0.9998453855514526
","x: 271.7037353515625
y: 243.82562255859375
z: -0.10160639137029648
visibility: 0.9997928142547607
","x: 270.339111328125
y: 243.90664672851562
z: -0.10160000622272491
visibility: 0.9997803568840027
","x: 268.9142761230469
y: 244.07733154296875
z: -0.10160143673419952
visibility: 0.9997578859329224
","x: 277.5151672363281
y: 248.18215942382812
z: 0.0023380140773952007
visibility: 0.9997261166572571
","x: 265.8819580078125
y: 247.53053283691406
z: -0.02457868680357933
visibility: 0.9994708895683289
","x: 275.3568115234375
y: 256.3076477050781
z: -0.07769614458084106
visibility: 0.9999274015426636
","x: 271.0367431640625
y: 255.74937438964844
z: -0.08560453355312347
visibility: 0.9999018311500549
","x: 286.76727294921875
y: 288.2083740234375
z: 0.06483617424964905
visibility: 0.9999164342880249
","x: 256.751953125
y: 282.22430419921875
z: 0.006389343645423651
visibility: 0.9997092485427856
","x: 297.47064208984375
y: 319.54168701171875
z: 0.09313494712114334
visibility: 0.9724482297897339
","x: 251.10174560546875
y: 325.012451171875
z: -0.08782915771007538
visibility: 0.9495397806167603
","x: 316.2392883300781
y: 331.4938659667969
z: 0.002911228686571121
visibility: 0.9749062061309814
","x: 264.3528747558594
y: 321.1672668457031
z: -0.26326268911361694
visibility: 0.933129608631134
","x: 323.2120056152344
y: 334.5422668457031
z: -0.018797053024172783
visibility: 0.9445676207542419
","x: 263.41204833984375
y: 325.1802978515625
z: -0.30237388610839844
visibility: 0.879851758480072
","x: 323.7103576660156
y: 332.88714599609375
z: -0.04350655525922775
visibility: 0.9472677707672119
","x: 265.052734375
y: 320.01239013671875
z: -0.30946922302246094
visibility: 0.8885453939437866
","x: 321.2193603515625
y: 332.48443603515625
z: -0.010470224544405937
visibility: 0.927646279335022
","x: 267.2389831542969
y: 318.1988220214844
z: -0.27050426602363586
visibility: 0.8693842887878418
","x: 282.316650390625
y: 368.5980529785156
z: 0.008859897032380104
visibility: 0.9996869564056396
","x: 260.9784851074219
y: 370.43145751953125
z: -0.008848610334098339
visibility: 0.9994962215423584
","x: 283.47857666015625
y: 441.654296875
z: -0.10342369228601456
visibility: 0.985729992389679
","x: 263.49456787109375
y: 443.95892333984375
z: -0.029700905084609985
visibility: 0.9821392893791199
","x: 292.5948486328125
y: 506.87939453125
z: -0.003344363998621702
visibility: 0.9872130751609802
","x: 264.54754638671875
y: 503.9729309082031
z: 0.10837286710739136
visibility: 0.9816766977310181
","x: 295.5088195800781
y: 513.8731079101562
z: -0.0005014343187212944
visibility: 0.8630165457725525
","x: 266.84820556640625
y: 510.990234375
z: 0.11553405225276947
visibility: 0.7931710481643677
","x: 286.6419372558594
y: 532.6729736328125
z: -0.13096675276756287
visibility: 0.9839291572570801
","x: 264.66815185546875
y: 525.1605224609375
z: 0.0010237791575491428
visibility: 0.9763032793998718
",5.26543927192688,,,,,,,,,,,,,,,,,,,,,,,,,,,,,,,,,,,,,,,,,,
14,"x: 274.3320007324219
y: 251.20257568359375
z: -0.1181969866156578
visibility: 0.9999459385871887
","x: 275.49822998046875
y: 246.85874938964844
z: -0.1356942355632782
visibility: 0.9998524785041809
","x: 276.472900390625
y: 247.16127014160156
z: -0.13565638661384583
visibility: 0.9998617768287659
","x: 277.5043029785156
y: 247.51638793945312
z: -0.13540072739124298
visibility: 0.9998546242713928
","x: 272.3323669433594
y: 246.52955627441406
z: -0.11450449377298355
visibility: 0.9998095631599426
","x: 271.01971435546875
y: 246.63511657714844
z: -0.11473695188760757
visibility: 0.9997976422309875
","x: 269.5425109863281
y: 246.85569763183594
z: -0.114925816655159
visibility: 0.9997767210006714
","x: 278.45465087890625
y: 251.6305694580078
z: -0.05431385710835457
visibility: 0.9997441172599792
","x: 266.38372802734375
y: 250.27178955078125
z: -0.06343866139650345
visibility: 0.9995153546333313
","x: 275.8700866699219
y: 258.9134521484375
z: -0.12551595270633698
visibility: 0.999930739402771
","x: 271.5675964355469
y: 258.587890625
z: -0.11031568050384521
visibility: 0.9999067783355713
","x: 286.714111328125
y: 291.9015808105469
z: 0.03276554495096207
visibility: 0.9999160170555115
","x: 257.60540771484375
y: 282.0198974609375
z: -0.05907139927148819
visibility: 0.9997158646583557
","x: 295.3795471191406
y: 323.6557312011719
z: 0.10413613170385361
visibility: 0.9480923414230347
","x: 251.75228881835938
y: 313.08587646484375
z: -0.16644224524497986
visibility: 0.9498155117034912
","x: 315.37542724609375
y: 332.81219482421875
z: 0.03960861265659332
visibility: 0.9725942611694336
","x: 264.1185607910156
y: 327.9174499511719
z: -0.36695072054862976
visibility: 0.9366846084594727
","x: 321.3058776855469
y: 335.2662353515625
z: 0.025942500680685043
visibility: 0.9432941675186157
","x: 261.46881103515625
y: 335.3899841308594
z: -0.4087483882904053
visibility: 0.8871580362319946
","x: 322.4390869140625
y: 332.3614196777344
z: -0.0073959059081971645
visibility: 0.9468899369239807
","x: 258.77728271484375
y: 333.29949951171875
z: -0.4223649501800537
visibility: 0.895261824131012
","x: 319.8341979980469
y: 331.60150146484375
z: 0.02339784987270832
visibility: 0.928149938583374
","x: 261.4514465332031
y: 330.7320556640625
z: -0.37825366854667664
visibility: 0.8766650557518005
","x: 282.55743408203125
y: 371.1700439453125
z: 0.024817217141389847
visibility: 0.9997100234031677
","x: 261.1119384765625
y: 371.89501953125
z: -0.024843093007802963
visibility: 0.9995282888412476
","x: 287.4018249511719
y: 442.7574157714844
z: -0.08698230981826782
visibility: 0.9868984222412109
","x: 261.02056884765625
y: 445.75311279296875
z: -0.046958260238170624
visibility: 0.9833371043205261
","x: 290.441162109375
y: 496.7489929199219
z: 0.11789091676473618
visibility: 0.9872709512710571
","x: 264.0760192871094
y: 499.51837158203125
z: 0.15224483609199524
visibility: 0.9818482398986816
","x: 286.086669921875
y: 502.1025085449219
z: 0.13324064016342163
visibility: 0.8674691915512085
","x: 265.8302307128906
y: 504.3165283203125
z: 0.16906718909740448
visibility: 0.7893505096435547
","x: 288.6817321777344
y: 524.6322021484375
z: 0.04476455971598625
visibility: 0.9840744733810425
","x: 264.146240234375
y: 524.4542846679688
z: 0.07875702530145645
visibility: 0.9767552614212036
",5.4024341106414795,,,,,,,,,,,,,,,,,,,,,,,,,,,,,,,,,,,,,,,,,,
15,"x: 274.3320007324219
y: 251.20257568359375
z: -0.1181969866156578
visibility: 0.9999459385871887
","x: 275.49822998046875
y: 246.85874938964844
z: -0.1356942355632782
visibility: 0.9998524785041809
","x: 276.472900390625
y: 247.16127014160156
z: -0.13565638661384583
visibility: 0.9998617768287659
","x: 277.5043029785156
y: 247.51638793945312
z: -0.13540072739124298
visibility: 0.9998546242713928
","x: 272.3323669433594
y: 246.52955627441406
z: -0.11450449377298355
visibility: 0.9998095631599426
","x: 271.01971435546875
y: 246.63511657714844
z: -0.11473695188760757
visibility: 0.9997976422309875
","x: 269.5425109863281
y: 246.85569763183594
z: -0.114925816655159
visibility: 0.9997767210006714
","x: 278.45465087890625
y: 251.6305694580078
z: -0.05431385710835457
visibility: 0.9997441172599792
","x: 266.38372802734375
y: 250.27178955078125
z: -0.06343866139650345
visibility: 0.9995153546333313
","x: 275.8700866699219
y: 258.9134521484375
z: -0.12551595270633698
visibility: 0.999930739402771
","x: 271.5675964355469
y: 258.587890625
z: -0.11031568050384521
visibility: 0.9999067783355713
","x: 286.714111328125
y: 291.9015808105469
z: 0.03276554495096207
visibility: 0.9999160170555115
","x: 257.60540771484375
y: 282.0198974609375
z: -0.05907139927148819
visibility: 0.9997158646583557
","x: 295.3795471191406
y: 323.6557312011719
z: 0.10413613170385361
visibility: 0.9480923414230347
","x: 251.75228881835938
y: 313.08587646484375
z: -0.16644224524497986
visibility: 0.9498155117034912
","x: 315.37542724609375
y: 332.81219482421875
z: 0.03960861265659332
visibility: 0.9725942611694336
","x: 264.1185607910156
y: 327.9174499511719
z: -0.36695072054862976
visibility: 0.9366846084594727
","x: 321.3058776855469
y: 335.2662353515625
z: 0.025942500680685043
visibility: 0.9432941675186157
","x: 261.46881103515625
y: 335.3899841308594
z: -0.4087483882904053
visibility: 0.8871580362319946
","x: 322.4390869140625
y: 332.3614196777344
z: -0.0073959059081971645
visibility: 0.9468899369239807
","x: 258.77728271484375
y: 333.29949951171875
z: -0.4223649501800537
visibility: 0.895261824131012
","x: 319.8341979980469
y: 331.60150146484375
z: 0.02339784987270832
visibility: 0.928149938583374
","x: 261.4514465332031
y: 330.7320556640625
z: -0.37825366854667664
visibility: 0.8766650557518005
","x: 282.55743408203125
y: 371.1700439453125
z: 0.024817217141389847
visibility: 0.9997100234031677
","x: 261.1119384765625
y: 371.89501953125
z: -0.024843093007802963
visibility: 0.9995282888412476
","x: 287.4018249511719
y: 442.7574157714844
z: -0.08698230981826782
visibility: 0.9868984222412109
","x: 261.02056884765625
y: 445.75311279296875
z: -0.046958260238170624
visibility: 0.9833371043205261
","x: 290.441162109375
y: 496.7489929199219
z: 0.11789091676473618
visibility: 0.9872709512710571
","x: 264.0760192871094
y: 499.51837158203125
z: 0.15224483609199524
visibility: 0.9818482398986816
","x: 286.086669921875
y: 502.1025085449219
z: 0.13324064016342163
visibility: 0.8674691915512085
","x: 265.8302307128906
y: 504.3165283203125
z: 0.16906718909740448
visibility: 0.7893505096435547
","x: 288.6817321777344
y: 524.6322021484375
z: 0.04476455971598625
visibility: 0.9840744733810425
","x: 264.146240234375
y: 524.4542846679688
z: 0.07875702530145645
visibility: 0.9767552614212036
",5.4024341106414795,,,,,,,,,,,,,,,,,,,,,,,,,,,,,,,,,,,,,,,,,,
16,"x: 275.4154052734375
y: 254.3070831298828
z: -0.27514511346817017
visibility: 0.9999488592147827
","x: 276.8540344238281
y: 249.37445068359375
z: -0.2630442976951599
visibility: 0.9998594522476196
","x: 278.00140380859375
y: 249.46112060546875
z: -0.2630593776702881
visibility: 0.9998688697814941
","x: 279.17718505859375
y: 249.5771026611328
z: -0.2630921006202698
visibility: 0.9998616576194763
","x: 273.50390625
y: 249.46165466308594
z: -0.2629668712615967
visibility: 0.9998166561126709
","x: 272.1857604980469
y: 249.6528778076172
z: -0.263021856546402
visibility: 0.9998055696487427
","x: 270.8612365722656
y: 249.88970947265625
z: -0.2630547285079956
visibility: 0.9997812509536743
","x: 280.513671875
y: 253.18289184570312
z: -0.16902466118335724
visibility: 0.9997573494911194
","x: 268.21917724609375
y: 252.98269653320312
z: -0.17618902027606964
visibility: 0.9995330572128296
","x: 277.0362854003906
y: 261.7525634765625
z: -0.24099934101104736
visibility: 0.9999316930770874
","x: 272.8621826171875
y: 261.86199951171875
z: -0.24215714633464813
visibility: 0.9999085068702698
","x: 291.6410827636719
y: 293.1536865234375
z: -0.0829630047082901
visibility: 0.9999147653579712
","x: 258.82958984375
y: 284.04656982421875
z: -0.12500077486038208
visibility: 0.999728262424469
","x: 297.6693420410156
y: 334.1330261230469
z: -0.01690724678337574
visibility: 0.9489891529083252
","x: 251.57125854492188
y: 318.3718566894531
z: -0.11998434364795685
visibility: 0.9537479877471924
","x: 315.3713073730469
y: 364.3121643066406
z: -0.09084910154342651
visibility: 0.971969723701477
","x: 239.575927734375
y: 350.402587890625
z: -0.277736634016037
visibility: 0.939213752746582
","x: 321.1275634765625
y: 370.89794921875
z: -0.11264415085315704
visibility: 0.9421940445899963
","x: 234.82608032226562
y: 358.30755615234375
z: -0.268510639667511
visibility: 0.8907393217086792
","x: 322.31622314453125
y: 369.72760009765625
z: -0.13324150443077087
visibility: 0.9464163780212402
","x: 234.05397033691406
y: 359.2028503417969
z: -0.37590548396110535
visibility: 0.8988140821456909
","x: 319.9798889160156
y: 368.0589599609375
z: -0.10145381838083267
visibility: 0.9290647506713867
","x: 235.99688720703125
y: 357.46575927734375
z: -0.3493598699569702
visibility: 0.8810802698135376
","x: 282.582275390625
y: 376.80950927734375
z: 0.024260062724351883
visibility: 0.9997177720069885
","x: 261.1650695800781
y: 375.6866149902344
z: -0.024240579456090927
visibility: 0.9995301961898804
","x: 289.0908508300781
y: 445.6385498046875
z: -0.11760026216506958
visibility: 0.9871399998664856
","x: 261.6492614746094
y: 446.7621154785156
z: -0.05032739043235779
visibility: 0.9844682812690735
","x: 276.9259033203125
y: 496.46612548828125
z: 0.02940819226205349
visibility: 0.9868758916854858
","x: 261.0391845703125
y: 505.08782958984375
z: 0.08724625408649445
visibility: 0.9826889634132385
","x: 271.3306884765625
y: 503.6824035644531
z: 0.039862364530563354
visibility: 0.8763357400894165
","x: 261.10272216796875
y: 514.3657836914062
z: 0.0946059376001358
visibility: 0.7943640947341919
","x: 287.6259765625
y: 521.2156982421875
z: -0.049024783074855804
visibility: 0.9842240214347839
","x: 263.9682312011719
y: 523.5213012695312
z: -0.014320951886475086
visibility: 0.977418065071106
",5.527828216552734,,,,,,,,,,,,,,,,,,,,,,,,,,,,,,,,,,,,,,,,,,
17,"x: 275.4154052734375
y: 254.3070831298828
z: -0.27514511346817017
visibility: 0.9999488592147827
","x: 276.8540344238281
y: 249.37445068359375
z: -0.2630442976951599
visibility: 0.9998594522476196
","x: 278.00140380859375
y: 249.46112060546875
z: -0.2630593776702881
visibility: 0.9998688697814941
","x: 279.17718505859375
y: 249.5771026611328
z: -0.2630921006202698
visibility: 0.9998616576194763
","x: 273.50390625
y: 249.46165466308594
z: -0.2629668712615967
visibility: 0.9998166561126709
","x: 272.1857604980469
y: 249.6528778076172
z: -0.263021856546402
visibility: 0.9998055696487427
","x: 270.8612365722656
y: 249.88970947265625
z: -0.2630547285079956
visibility: 0.9997812509536743
","x: 280.513671875
y: 253.18289184570312
z: -0.16902466118335724
visibility: 0.9997573494911194
","x: 268.21917724609375
y: 252.98269653320312
z: -0.17618902027606964
visibility: 0.9995330572128296
","x: 277.0362854003906
y: 261.7525634765625
z: -0.24099934101104736
visibility: 0.9999316930770874
","x: 272.8621826171875
y: 261.86199951171875
z: -0.24215714633464813
visibility: 0.9999085068702698
","x: 291.6410827636719
y: 293.1536865234375
z: -0.0829630047082901
visibility: 0.9999147653579712
","x: 258.82958984375
y: 284.04656982421875
z: -0.12500077486038208
visibility: 0.999728262424469
","x: 297.6693420410156
y: 334.1330261230469
z: -0.01690724678337574
visibility: 0.9489891529083252
","x: 251.57125854492188
y: 318.3718566894531
z: -0.11998434364795685
visibility: 0.9537479877471924
","x: 315.3713073730469
y: 364.3121643066406
z: -0.09084910154342651
visibility: 0.971969723701477
","x: 239.575927734375
y: 350.402587890625
z: -0.277736634016037
visibility: 0.939213752746582
","x: 321.1275634765625
y: 370.89794921875
z: -0.11264415085315704
visibility: 0.9421940445899963
","x: 234.82608032226562
y: 358.30755615234375
z: -0.268510639667511
visibility: 0.8907393217086792
","x: 322.31622314453125
y: 369.72760009765625
z: -0.13324150443077087
visibility: 0.9464163780212402
","x: 234.05397033691406
y: 359.2028503417969
z: -0.37590548396110535
visibility: 0.8988140821456909
","x: 319.9798889160156
y: 368.0589599609375
z: -0.10145381838083267
visibility: 0.9290647506713867
","x: 235.99688720703125
y: 357.46575927734375
z: -0.3493598699569702
visibility: 0.8810802698135376
","x: 282.582275390625
y: 376.80950927734375
z: 0.024260062724351883
visibility: 0.9997177720069885
","x: 261.1650695800781
y: 375.6866149902344
z: -0.024240579456090927
visibility: 0.9995301961898804
","x: 289.0908508300781
y: 445.6385498046875
z: -0.11760026216506958
visibility: 0.9871399998664856
","x: 261.6492614746094
y: 446.7621154785156
z: -0.05032739043235779
visibility: 0.9844682812690735
","x: 276.9259033203125
y: 496.46612548828125
z: 0.02940819226205349
visibility: 0.9868758916854858
","x: 261.0391845703125
y: 505.08782958984375
z: 0.08724625408649445
visibility: 0.9826889634132385
","x: 271.3306884765625
y: 503.6824035644531
z: 0.039862364530563354
visibility: 0.8763357400894165
","x: 261.10272216796875
y: 514.3657836914062
z: 0.0946059376001358
visibility: 0.7943640947341919
","x: 287.6259765625
y: 521.2156982421875
z: -0.049024783074855804
visibility: 0.9842240214347839
","x: 263.9682312011719
y: 523.5213012695312
z: -0.014320951886475086
visibility: 0.977418065071106
",5.527828216552734,,,,,,,,,,,,,,,,,,,,,,,,,,,,,,,,,,,,,,,,,,
18,"x: 278.1600341796875
y: 256.0815124511719
z: -0.3245595097541809
visibility: 0.9999527931213379
","x: 279.4227294921875
y: 251.1937255859375
z: -0.30787575244903564
visibility: 0.999869704246521
","x: 280.44873046875
y: 251.4458465576172
z: -0.3078889846801758
visibility: 0.9998785853385925
","x: 281.4693603515625
y: 251.69696044921875
z: -0.30791252851486206
visibility: 0.9998714327812195
","x: 276.33795166015625
y: 250.6973876953125
z: -0.31177470088005066
visibility: 0.9998304843902588
","x: 275.07940673828125
y: 250.67608642578125
z: -0.31184935569763184
visibility: 0.9998210668563843
","x: 273.8131103515625
y: 250.72340393066406
z: -0.31187668442726135
visibility: 0.999797523021698
","x: 282.40374755859375
y: 254.8858642578125
z: -0.20138868689537048
visibility: 0.9997687935829163
","x: 270.99102783203125
y: 254.0888214111328
z: -0.22124052047729492
visibility: 0.9995718598365784
","x: 279.3571472167969
y: 263.56817626953125
z: -0.28432080149650574
visibility: 0.9999352097511292
","x: 275.63763427734375
y: 262.9285888671875
z: -0.29002881050109863
visibility: 0.9999147653579712
","x: 294.0017395019531
y: 293.11602783203125
z: -0.10533015429973602
visibility: 0.9999204874038696
","x: 259.94805908203125
y: 289.420166015625
z: -0.1639937311410904
visibility: 0.9997523427009583
","x: 297.7564392089844
y: 337.4697570800781
z: -0.0553753562271595
visibility: 0.951088547706604
","x: 250.69398498535156
y: 330.45849609375
z: -0.13267990946769714
visibility: 0.9575870037078857
","x: 311.4312438964844
y: 380.3836364746094
z: -0.11180933564901352
visibility: 0.9723239541053772
","x: 238.5941619873047
y: 368.407958984375
z: -0.2590326964855194
visibility: 0.942804217338562
","x: 320.8845520019531
y: 390.4287109375
z: -0.12608546018600464
visibility: 0.9430027604103088
","x: 234.13978576660156
y: 379.8228759765625
z: -0.24353447556495667
visibility: 0.8965051770210266
","x: 319.2203674316406
y: 391.5812683105469
z: -0.16586074233055115
visibility: 0.9474151134490967
","x: 234.13653564453125
y: 381.5902099609375
z: -0.30123284459114075
visibility: 0.9043272137641907
","x: 315.6462707519531
y: 388.3169860839844
z: -0.13074693083763123
visibility: 0.9313421845436096
","x: 235.96592712402344
y: 378.68670654296875
z: -0.2830671966075897
visibility: 0.8878133893013
","x: 283.5452880859375
y: 376.899658203125
z: 0.03687869757413864
visibility: 0.9997268915176392
","x: 263.5420837402344
y: 375.33319091796875
z: -0.03696770966053009
visibility: 0.9995608925819397
","x: 288.1158142089844
y: 445.849609375
z: 0.007122945971786976
visibility: 0.9828488230705261
","x: 272.26171875
y: 444.83203125
z: -0.13250087201595306
visibility: 0.9853088855743408
","x: 273.1108703613281
y: 497.25665283203125
z: 0.1797497272491455
visibility: 0.9837896823883057
","x: 261.0303039550781
y: 501.862060546875
z: 0.017553657293319702
visibility: 0.9826470017433167
","x: 267.79510498046875
y: 504.2713928222656
z: 0.19198009371757507
visibility: 0.8752511739730835
","x: 258.99359130859375
y: 509.6896057128906
z: 0.028126981109380722
visibility: 0.7929863929748535
","x: 284.6773376464844
y: 519.6517333984375
z: 0.12045017629861832
visibility: 0.9815969467163086
","x: 266.4302978515625
y: 521.10546875
z: -0.06224343180656433
visibility: 0.9777048230171204
",5.6555681228637695,,,,,,,,,,,,,,,,,,,,,,,,,,,,,,,,,,,,,,,,,,
19,"x: 278.1600341796875
y: 256.0815124511719
z: -0.3245595097541809
visibility: 0.9999527931213379
","x: 279.4227294921875
y: 251.1937255859375
z: -0.30787575244903564
visibility: 0.999869704246521
","x: 280.44873046875
y: 251.4458465576172
z: -0.3078889846801758
visibility: 0.9998785853385925
","x: 281.4693603515625
y: 251.69696044921875
z: -0.30791252851486206
visibility: 0.9998714327812195
","x: 276.33795166015625
y: 250.6973876953125
z: -0.31177470088005066
visibility: 0.9998304843902588
","x: 275.07940673828125
y: 250.67608642578125
z: -0.31184935569763184
visibility: 0.9998210668563843
","x: 273.8131103515625
y: 250.72340393066406
z: -0.31187668442726135
visibility: 0.999797523021698
","x: 282.40374755859375
y: 254.8858642578125
z: -0.20138868689537048
visibility: 0.9997687935829163
","x: 270.99102783203125
y: 254.0888214111328
z: -0.22124052047729492
visibility: 0.9995718598365784
","x: 279.3571472167969
y: 263.56817626953125
z: -0.28432080149650574
visibility: 0.9999352097511292
","x: 275.63763427734375
y: 262.9285888671875
z: -0.29002881050109863
visibility: 0.9999147653579712
","x: 294.0017395019531
y: 293.11602783203125
z: -0.10533015429973602
visibility: 0.9999204874038696
","x: 259.94805908203125
y: 289.420166015625
z: -0.1639937311410904
visibility: 0.9997523427009583
","x: 297.7564392089844
y: 337.4697570800781
z: -0.0553753562271595
visibility: 0.951088547706604
","x: 250.69398498535156
y: 330.45849609375
z: -0.13267990946769714
visibility: 0.9575870037078857
","x: 311.4312438964844
y: 380.3836364746094
z: -0.11180933564901352
visibility: 0.9723239541053772
","x: 238.5941619873047
y: 368.407958984375
z: -0.2590326964855194
visibility: 0.942804217338562
","x: 320.8845520019531
y: 390.4287109375
z: -0.12608546018600464
visibility: 0.9430027604103088
","x: 234.13978576660156
y: 379.8228759765625
z: -0.24353447556495667
visibility: 0.8965051770210266
","x: 319.2203674316406
y: 391.5812683105469
z: -0.16586074233055115
visibility: 0.9474151134490967
","x: 234.13653564453125
y: 381.5902099609375
z: -0.30123284459114075
visibility: 0.9043272137641907
","x: 315.6462707519531
y: 388.3169860839844
z: -0.13074693083763123
visibility: 0.9313421845436096
","x: 235.96592712402344
y: 378.68670654296875
z: -0.2830671966075897
visibility: 0.8878133893013
","x: 283.5452880859375
y: 376.899658203125
z: 0.03687869757413864
visibility: 0.9997268915176392
","x: 263.5420837402344
y: 375.33319091796875
z: -0.03696770966053009
visibility: 0.9995608925819397
","x: 288.1158142089844
y: 445.849609375
z: 0.007122945971786976
visibility: 0.9828488230705261
","x: 272.26171875
y: 444.83203125
z: -0.13250087201595306
visibility: 0.9853088855743408
","x: 273.1108703613281
y: 497.25665283203125
z: 0.1797497272491455
visibility: 0.9837896823883057
","x: 261.0303039550781
y: 501.862060546875
z: 0.017553657293319702
visibility: 0.9826470017433167
","x: 267.79510498046875
y: 504.2713928222656
z: 0.19198009371757507
visibility: 0.8752511739730835
","x: 258.99359130859375
y: 509.6896057128906
z: 0.028126981109380722
visibility: 0.7929863929748535
","x: 284.6773376464844
y: 519.6517333984375
z: 0.12045017629861832
visibility: 0.9815969467163086
","x: 266.4302978515625
y: 521.10546875
z: -0.06224343180656433
visibility: 0.9777048230171204
",5.6555681228637695,,,,,,,,,,,,,,,,,,,,,,,,,,,,,,,,,,,,,,,,,,
20,"x: 278.8480529785156
y: 255.08587646484375
z: -0.2982976734638214
visibility: 0.9999494552612305
","x: 280.2829284667969
y: 250.300048828125
z: -0.2831222414970398
visibility: 0.9998572468757629
","x: 281.3412170410156
y: 250.60116577148438
z: -0.28316253423690796
visibility: 0.9998698234558105
","x: 282.41748046875
y: 250.9432373046875
z: -0.28319093585014343
visibility: 0.9998617172241211
","x: 277.20025634765625
y: 249.90374755859375
z: -0.28504279255867004
visibility: 0.9998133778572083
","x: 275.9738464355469
y: 249.99366760253906
z: -0.28509384393692017
visibility: 0.9998049139976501
","x: 274.69049072265625
y: 250.12454223632812
z: -0.28512540459632874
visibility: 0.9997704029083252
","x: 283.7355041503906
y: 254.9888458251953
z: -0.18449442088603973
visibility: 0.9997172355651855
","x: 271.86944580078125
y: 254.2613067626953
z: -0.19429878890514374
visibility: 0.999559223651886
","x: 280.36651611328125
y: 262.58135986328125
z: -0.26120802760124207
visibility: 0.9999305009841919
","x: 276.521484375
y: 261.9065246582031
z: -0.2639843821525574
visibility: 0.9999110102653503
","x: 294.2743835449219
y: 291.980712890625
z: -0.10391119867563248
visibility: 0.9999269843101501
","x: 260.826171875
y: 291.6333312988281
z: -0.13783866167068481
visibility: 0.9997725486755371
","x: 296.9374694824219
y: 333.66717529296875
z: -0.1006752997636795
visibility: 0.9528646469116211
","x: 252.4693145751953
y: 335.083740234375
z: -0.11817549169063568
visibility: 0.9605657458305359
","x: 299.5260009765625
y: 369.531005859375
z: -0.22611603140830994
visibility: 0.972466766834259
","x: 239.41494750976562
y: 373.04217529296875
z: -0.16317152976989746
visibility: 0.9449448585510254
","x: 301.8041687011719
y: 380.73175048828125
z: -0.25469523668289185
visibility: 0.9444332718849182
","x: 236.69390869140625
y: 382.3351745605469
z: -0.1813700646162033
visibility: 0.9003661870956421
","x: 299.98162841796875
y: 380.0998229980469
z: -0.2810869812965393
visibility: 0.9488421082496643
","x: 236.86170959472656
y: 383.4212951660156
z: -0.21611134707927704
visibility: 0.9080067276954651
","x: 298.0745849609375
y: 376.4847106933594
z: -0.23914441466331482
visibility: 0.9336082935333252
","x: 238.5093994140625
y: 381.4058837890625
z: -0.17812904715538025
visibility: 0.8926560878753662
","x: 283.5923767089844
y: 376.0076599121094
z: 0.03932688757777214
visibility: 0.9997503757476807
","x: 264.07745361328125
y: 375.10076904296875
z: -0.039381057024002075
visibility: 0.9995948672294617
","x: 289.3572692871094
y: 442.4095153808594
z: -0.005192931275814772
visibility: 0.9782839417457581
","x: 279.12969970703125
y: 435.32952880859375
z: -0.15722700953483582
visibility: 0.9860436320304871
","x: 273.6756286621094
y: 497.6168518066406
z: 0.16140320897102356
visibility: 0.9813035130500793
","x: 261.11309814453125
y: 469.2117004394531
z: 0.06689698994159698
visibility: 0.9779546856880188
","x: 268.87139892578125
y: 504.6388244628906
z: 0.17333045601844788
visibility: 0.8761060237884521
","x: 257.2940673828125
y: 468.6944274902344
z: 0.08171767741441727
visibility: 0.7797921895980835
","x: 284.46380615234375
y: 519.876220703125
z: 0.10415452718734741
visibility: 0.9793553948402405
","x: 265.9710388183594
y: 497.51690673828125
z: 0.02685992792248726
visibility: 0.9747581481933594
",5.781461477279663,,,,,,,,,,,,,,,,,,,,,,,,,,,,,,,,,,,,,,,,,,
21,"x: 278.8480529785156
y: 255.08587646484375
z: -0.2982976734638214
visibility: 0.9999494552612305
","x: 280.2829284667969
y: 250.300048828125
z: -0.2831222414970398
visibility: 0.9998572468757629
","x: 281.3412170410156
y: 250.60116577148438
z: -0.28316253423690796
visibility: 0.9998698234558105
","x: 282.41748046875
y: 250.9432373046875
z: -0.28319093585014343
visibility: 0.9998617172241211
","x: 277.20025634765625
y: 249.90374755859375
z: -0.28504279255867004
visibility: 0.9998133778572083
","x: 275.9738464355469
y: 249.99366760253906
z: -0.28509384393692017
visibility: 0.9998049139976501
","x: 274.69049072265625
y: 250.12454223632812
z: -0.28512540459632874
visibility: 0.9997704029083252
","x: 283.7355041503906
y: 254.9888458251953
z: -0.18449442088603973
visibility: 0.9997172355651855
","x: 271.86944580078125
y: 254.2613067626953
z: -0.19429878890514374
visibility: 0.999559223651886
","x: 280.36651611328125
y: 262.58135986328125
z: -0.26120802760124207
visibility: 0.9999305009841919
","x: 276.521484375
y: 261.9065246582031
z: -0.2639843821525574
visibility: 0.9999110102653503
","x: 294.2743835449219
y: 291.980712890625
z: -0.10391119867563248
visibility: 0.9999269843101501
","x: 260.826171875
y: 291.6333312988281
z: -0.13783866167068481
visibility: 0.9997725486755371
","x: 296.9374694824219
y: 333.66717529296875
z: -0.1006752997636795
visibility: 0.9528646469116211
","x: 252.4693145751953
y: 335.083740234375
z: -0.11817549169063568
visibility: 0.9605657458305359
","x: 299.5260009765625
y: 369.531005859375
z: -0.22611603140830994
visibility: 0.972466766834259
","x: 239.41494750976562
y: 373.04217529296875
z: -0.16317152976989746
visibility: 0.9449448585510254
","x: 301.8041687011719
y: 380.73175048828125
z: -0.25469523668289185
visibility: 0.9444332718849182
","x: 236.69390869140625
y: 382.3351745605469
z: -0.1813700646162033
visibility: 0.9003661870956421
","x: 299.98162841796875
y: 380.0998229980469
z: -0.2810869812965393
visibility: 0.9488421082496643
","x: 236.86170959472656
y: 383.4212951660156
z: -0.21611134707927704
visibility: 0.9080067276954651
","x: 298.0745849609375
y: 376.4847106933594
z: -0.23914441466331482
visibility: 0.9336082935333252
","x: 238.5093994140625
y: 381.4058837890625
z: -0.17812904715538025
visibility: 0.8926560878753662
","x: 283.5923767089844
y: 376.0076599121094
z: 0.03932688757777214
visibility: 0.9997503757476807
","x: 264.07745361328125
y: 375.10076904296875
z: -0.039381057024002075
visibility: 0.9995948672294617
","x: 289.3572692871094
y: 442.4095153808594
z: -0.005192931275814772
visibility: 0.9782839417457581
","x: 279.12969970703125
y: 435.32952880859375
z: -0.15722700953483582
visibility: 0.9860436320304871
","x: 273.6756286621094
y: 497.6168518066406
z: 0.16140320897102356
visibility: 0.9813035130500793
","x: 261.11309814453125
y: 469.2117004394531
z: 0.06689698994159698
visibility: 0.9779546856880188
","x: 268.87139892578125
y: 504.6388244628906
z: 0.17333045601844788
visibility: 0.8761060237884521
","x: 257.2940673828125
y: 468.6944274902344
z: 0.08171767741441727
visibility: 0.7797921895980835
","x: 284.46380615234375
y: 519.876220703125
z: 0.10415452718734741
visibility: 0.9793553948402405
","x: 265.9710388183594
y: 497.51690673828125
z: 0.02685992792248726
visibility: 0.9747581481933594
",5.781461477279663,,,,,,,,,,,,,,,,,,,,,,,,,,,,,,,,,,,,,,,,,,
22,"x: 279.20770263671875
y: 253.95123291015625
z: -0.2846824824810028
visibility: 0.9999083876609802
","x: 280.4738464355469
y: 249.20648193359375
z: -0.2700499892234802
visibility: 0.9997843503952026
","x: 281.4526672363281
y: 249.48294067382812
z: -0.27012282609939575
visibility: 0.9998016357421875
","x: 282.46002197265625
y: 249.79150390625
z: -0.2701740860939026
visibility: 0.9997965097427368
","x: 277.455078125
y: 248.87158203125
z: -0.26939526200294495
visibility: 0.9997267127037048
","x: 276.1447448730469
y: 248.9998016357422
z: -0.2694232761859894
visibility: 0.9996991157531738
","x: 274.7518005371094
y: 249.18089294433594
z: -0.2694590985774994
visibility: 0.9996554255485535
","x: 283.957275390625
y: 253.90707397460938
z: -0.17296525835990906
visibility: 0.9995926022529602
","x: 271.87933349609375
y: 253.62596130371094
z: -0.169409841299057
visibility: 0.9994057416915894
","x: 280.8729553222656
y: 261.4092712402344
z: -0.24790354073047638
visibility: 0.9998988509178162
","x: 276.9924011230469
y: 260.91717529296875
z: -0.24657079577445984
visibility: 0.9998816251754761
","x: 294.5780944824219
y: 291.3990478515625
z: -0.1028950959444046
visibility: 0.9999197721481323
","x: 262.1587219238281
y: 291.14312744140625
z: -0.11388673633337021
visibility: 0.9997730255126953
","x: 297.99932861328125
y: 332.0350646972656
z: -0.14440999925136566
visibility: 0.9453563690185547
","x: 252.4346923828125
y: 332.2552185058594
z: -0.041605014353990555
visibility: 0.9598388075828552
","x: 295.6829528808594
y: 365.67974853515625
z: -0.3181423544883728
visibility: 0.958787202835083
","x: 239.11019897460938
y: 365.5079650878906
z: -0.11021453142166138
visibility: 0.9408187866210938
","x: 295.8156433105469
y: 364.32977294921875
z: -0.35594087839126587
visibility: 0.9298458695411682
","x: 234.33071899414062
y: 375.1253662109375
z: -0.13078352808952332
visibility: 0.8956641554832458
","x: 293.6169738769531
y: 372.12786865234375
z: -0.376695454120636
visibility: 0.9350394606590271
","x: 234.1923065185547
y: 374.79443359375
z: -0.16224005818367004
visibility: 0.9039145112037659
","x: 293.0748291015625
y: 375.2834777832031
z: -0.33041876554489136
visibility: 0.9165061116218567
","x: 235.99339294433594
y: 372.0797119140625
z: -0.12467871606349945
visibility: 0.8886021375656128
","x: 286.09039306640625
y: 372.32318115234375
z: 0.035475634038448334
visibility: 0.9996562600135803
","x: 266.3690490722656
y: 372.467041015625
z: -0.0351778008043766
visibility: 0.9995183348655701
","x: 290.0303039550781
y: 442.41717529296875
z: -0.026756366714835167
visibility: 0.971577525138855
","x: 278.54248046875
y: 434.97503662109375
z: -0.0982283502817154
visibility: 0.9846208095550537
","x: 275.0860290527344
y: 495.048095703125
z: 0.1351141631603241
visibility: 0.9740828275680542
","x: 270.3703918457031
y: 476.1202392578125
z: 0.02033368870615959
visibility: 0.9763965606689453
","x: 270.9177551269531
y: 502.3422546386719
z: 0.1692417711019516
visibility: 0.8647899031639099
","x: 267.0138244628906
y: 483.6125183105469
z: 0.025405293330550194
visibility: 0.7762847542762756
","x: 283.76605224609375
y: 518.44091796875
z: 0.08694346249103546
visibility: 0.9709597229957581
","x: 275.2979431152344
y: 502.1832275390625
z: -0.08166734129190445
visibility: 0.9726310968399048
",5.907352924346924,,,,,,,,,,,,,,,,,,,,,,,,,,,,,,,,,,,,,,,,,,
23,"x: 279.20770263671875
y: 253.95123291015625
z: -0.2846824824810028
visibility: 0.9999083876609802
","x: 280.4738464355469
y: 249.20648193359375
z: -0.2700499892234802
visibility: 0.9997843503952026
","x: 281.4526672363281
y: 249.48294067382812
z: -0.27012282609939575
visibility: 0.9998016357421875
","x: 282.46002197265625
y: 249.79150390625
z: -0.2701740860939026
visibility: 0.9997965097427368
","x: 277.455078125
y: 248.87158203125
z: -0.26939526200294495
visibility: 0.9997267127037048
","x: 276.1447448730469
y: 248.9998016357422
z: -0.2694232761859894
visibility: 0.9996991157531738
","x: 274.7518005371094
y: 249.18089294433594
z: -0.2694590985774994
visibility: 0.9996554255485535
","x: 283.957275390625
y: 253.90707397460938
z: -0.17296525835990906
visibility: 0.9995926022529602
","x: 271.87933349609375
y: 253.62596130371094
z: -0.169409841299057
visibility: 0.9994057416915894
","x: 280.8729553222656
y: 261.4092712402344
z: -0.24790354073047638
visibility: 0.9998988509178162
","x: 276.9924011230469
y: 260.91717529296875
z: -0.24657079577445984
visibility: 0.9998816251754761
","x: 294.5780944824219
y: 291.3990478515625
z: -0.1028950959444046
visibility: 0.9999197721481323
","x: 262.1587219238281
y: 291.14312744140625
z: -0.11388673633337021
visibility: 0.9997730255126953
","x: 297.99932861328125
y: 332.0350646972656
z: -0.14440999925136566
visibility: 0.9453563690185547
","x: 252.4346923828125
y: 332.2552185058594
z: -0.041605014353990555
visibility: 0.9598388075828552
","x: 295.6829528808594
y: 365.67974853515625
z: -0.3181423544883728
visibility: 0.958787202835083
","x: 239.11019897460938
y: 365.5079650878906
z: -0.11021453142166138
visibility: 0.9408187866210938
","x: 295.8156433105469
y: 364.32977294921875
z: -0.35594087839126587
visibility: 0.9298458695411682
","x: 234.33071899414062
y: 375.1253662109375
z: -0.13078352808952332
visibility: 0.8956641554832458
","x: 293.6169738769531
y: 372.12786865234375
z: -0.376695454120636
visibility: 0.9350394606590271
","x: 234.1923065185547
y: 374.79443359375
z: -0.16224005818367004
visibility: 0.9039145112037659
","x: 293.0748291015625
y: 375.2834777832031
z: -0.33041876554489136
visibility: 0.9165061116218567
","x: 235.99339294433594
y: 372.0797119140625
z: -0.12467871606349945
visibility: 0.8886021375656128
","x: 286.09039306640625
y: 372.32318115234375
z: 0.035475634038448334
visibility: 0.9996562600135803
","x: 266.3690490722656
y: 372.467041015625
z: -0.0351778008043766
visibility: 0.9995183348655701
","x: 290.0303039550781
y: 442.41717529296875
z: -0.026756366714835167
visibility: 0.971577525138855
","x: 278.54248046875
y: 434.97503662109375
z: -0.0982283502817154
visibility: 0.9846208095550537
","x: 275.0860290527344
y: 495.048095703125
z: 0.1351141631603241
visibility: 0.9740828275680542
","x: 270.3703918457031
y: 476.1202392578125
z: 0.02033368870615959
visibility: 0.9763965606689453
","x: 270.9177551269531
y: 502.3422546386719
z: 0.1692417711019516
visibility: 0.8647899031639099
","x: 267.0138244628906
y: 483.6125183105469
z: 0.025405293330550194
visibility: 0.7762847542762756
","x: 283.76605224609375
y: 518.44091796875
z: 0.08694346249103546
visibility: 0.9709597229957581
","x: 275.2979431152344
y: 502.1832275390625
z: -0.08166734129190445
visibility: 0.9726310968399048
",5.907352924346924,,,,,,,,,,,,,,,,,,,,,,,,,,,,,,,,,,,,,,,,,,
24,"x: 279.0133361816406
y: 253.2991180419922
z: -0.27135100960731506
visibility: 0.9999111890792847
","x: 280.3850402832031
y: 248.71482849121094
z: -0.2543850541114807
visibility: 0.9997908473014832
","x: 281.4509582519531
y: 248.96165466308594
z: -0.2544223368167877
visibility: 0.9998084902763367
","x: 282.5685729980469
y: 249.24684143066406
z: -0.25446659326553345
visibility: 0.9998006224632263
","x: 276.984619140625
y: 248.45306396484375
z: -0.26027220487594604
visibility: 0.9997308254241943
","x: 275.5991516113281
y: 248.53359985351562
z: -0.2603408992290497
visibility: 0.9997015595436096
","x: 274.18701171875
y: 248.67095947265625
z: -0.26037710905075073
visibility: 0.9996544122695923
","x: 284.3555908203125
y: 253.33413696289062
z: -0.15454094111919403
visibility: 0.9996155500411987
","x: 271.36065673828125
y: 252.98703002929688
z: -0.148075133562088
visibility: 0.9994322657585144
","x: 280.8968811035156
y: 260.7382507324219
z: -0.23382142186164856
visibility: 0.9999035596847534
","x: 276.4633483886719
y: 260.3795166015625
z: -0.24275712668895721
visibility: 0.9998869895935059
","x: 294.3664855957031
y: 290.66448974609375
z: -0.08644051849842072
visibility: 0.9999212026596069
","x: 261.5382385253906
y: 290.03497314453125
z: -0.062203146517276764
visibility: 0.9997736215591431
","x: 300.8158264160156
y: 331.5289611816406
z: -0.17546463012695312
visibility: 0.9477694630622864
","x: 245.5771942138672
y: 317.9656066894531
z: -0.012653736397624016
visibility: 0.9625221490859985
","x: 298.1294250488281
y: 324.67803955078125
z: -0.39471203088760376
visibility: 0.9608277678489685
","x: 225.41384887695312
y: 339.37054443359375
z: -0.06178561970591545
visibility: 0.9435847997665405
","x: 299.6563720703125
y: 318.1570739746094
z: -0.4355943202972412
visibility: 0.9329079985618591
","x: 219.67178344726562
y: 341.69781494140625
z: -0.074837826192379
visibility: 0.898857593536377
","x: 298.4845886230469
y: 313.8780822753906
z: -0.44539380073547363
visibility: 0.9378573894500732
","x: 219.55979919433594
y: 341.1491394042969
z: -0.10051630437374115
visibility: 0.9072663187980652
","x: 297.0650634765625
y: 316.56414794921875
z: -0.4040864408016205
visibility: 0.9196756482124329
","x: 221.320068359375
y: 341.37127685546875
z: -0.07369605451822281
visibility: 0.8930268883705139
","x: 288.8491516113281
y: 372.427978515625
z: 0.010109465569257736
visibility: 0.9994952082633972
","x: 267.28887939453125
y: 373.6872863769531
z: -0.009963090531527996
visibility: 0.9993411302566528
","x: 290.5920104980469
y: 443.16607666015625
z: -0.05141078308224678
visibility: 0.9726065397262573
","x: 275.38623046875
y: 438.9581604003906
z: -0.06482874602079391
visibility: 0.9837334752082825
","x: 282.7305908203125
y: 494.6755676269531
z: 0.12081090360879898
visibility: 0.9719588160514832
","x: 272.1487731933594
y: 499.4272155761719
z: 0.032123006880283356
visibility: 0.9749270677566528
","x: 280.9587707519531
y: 499.0262451171875
z: 0.13615350425243378
visibility: 0.8516557812690735
","x: 271.1988830566406
y: 507.34844970703125
z: 0.05130152031779289
visibility: 0.7638868093490601
","x: 283.6315612792969
y: 519.40966796875
z: 0.037043698132038116
visibility: 0.9681952595710754
","x: 275.9627990722656
y: 522.58544921875
z: -0.03456521034240723
visibility: 0.9699055552482605
",6.033594846725464,,,,,,,,,,,,,,,,,,,,,,,,,,,,,,,,,,,,,,,,,,
25,"x: 279.0133361816406
y: 253.2991180419922
z: -0.27135100960731506
visibility: 0.9999111890792847
","x: 280.3850402832031
y: 248.71482849121094
z: -0.2543850541114807
visibility: 0.9997908473014832
","x: 281.4509582519531
y: 248.96165466308594
z: -0.2544223368167877
visibility: 0.9998084902763367
","x: 282.5685729980469
y: 249.24684143066406
z: -0.25446659326553345
visibility: 0.9998006224632263
","x: 276.984619140625
y: 248.45306396484375
z: -0.26027220487594604
visibility: 0.9997308254241943
","x: 275.5991516113281
y: 248.53359985351562
z: -0.2603408992290497
visibility: 0.9997015595436096
","x: 274.18701171875
y: 248.67095947265625
z: -0.26037710905075073
visibility: 0.9996544122695923
","x: 284.3555908203125
y: 253.33413696289062
z: -0.15454094111919403
visibility: 0.9996155500411987
","x: 271.36065673828125
y: 252.98703002929688
z: -0.148075133562088
visibility: 0.9994322657585144
","x: 280.8968811035156
y: 260.7382507324219
z: -0.23382142186164856
visibility: 0.9999035596847534
","x: 276.4633483886719
y: 260.3795166015625
z: -0.24275712668895721
visibility: 0.9998869895935059
","x: 294.3664855957031
y: 290.66448974609375
z: -0.08644051849842072
visibility: 0.9999212026596069
","x: 261.5382385253906
y: 290.03497314453125
z: -0.062203146517276764
visibility: 0.9997736215591431
","x: 300.8158264160156
y: 331.5289611816406
z: -0.17546463012695312
visibility: 0.9477694630622864
","x: 245.5771942138672
y: 317.9656066894531
z: -0.012653736397624016
visibility: 0.9625221490859985
","x: 298.1294250488281
y: 324.67803955078125
z: -0.39471203088760376
visibility: 0.9608277678489685
","x: 225.41384887695312
y: 339.37054443359375
z: -0.06178561970591545
visibility: 0.9435847997665405
","x: 299.6563720703125
y: 318.1570739746094
z: -0.4355943202972412
visibility: 0.9329079985618591
","x: 219.67178344726562
y: 341.69781494140625
z: -0.074837826192379
visibility: 0.898857593536377
","x: 298.4845886230469
y: 313.8780822753906
z: -0.44539380073547363
visibility: 0.9378573894500732
","x: 219.55979919433594
y: 341.1491394042969
z: -0.10051630437374115
visibility: 0.9072663187980652
","x: 297.0650634765625
y: 316.56414794921875
z: -0.4040864408016205
visibility: 0.9196756482124329
","x: 221.320068359375
y: 341.37127685546875
z: -0.07369605451822281
visibility: 0.8930268883705139
","x: 288.8491516113281
y: 372.427978515625
z: 0.010109465569257736
visibility: 0.9994952082633972
","x: 267.28887939453125
y: 373.6872863769531
z: -0.009963090531527996
visibility: 0.9993411302566528
","x: 290.5920104980469
y: 443.16607666015625
z: -0.05141078308224678
visibility: 0.9726065397262573
","x: 275.38623046875
y: 438.9581604003906
z: -0.06482874602079391
visibility: 0.9837334752082825
","x: 282.7305908203125
y: 494.6755676269531
z: 0.12081090360879898
visibility: 0.9719588160514832
","x: 272.1487731933594
y: 499.4272155761719
z: 0.032123006880283356
visibility: 0.9749270677566528
","x: 280.9587707519531
y: 499.0262451171875
z: 0.13615350425243378
visibility: 0.8516557812690735
","x: 271.1988830566406
y: 507.34844970703125
z: 0.05130152031779289
visibility: 0.7638868093490601
","x: 283.6315612792969
y: 519.40966796875
z: 0.037043698132038116
visibility: 0.9681952595710754
","x: 275.9627990722656
y: 522.58544921875
z: -0.03456521034240723
visibility: 0.9699055552482605
",6.033594846725464,,,,,,,,,,,,,,,,,,,,,,,,,,,,,,,,,,,,,,,,,,
26,"x: 278.8570861816406
y: 252.86582946777344
z: -0.21796295046806335
visibility: 0.999902606010437
","x: 280.3021545410156
y: 248.25259399414062
z: -0.20618052780628204
visibility: 0.999761164188385
","x: 281.36083984375
y: 248.5000457763672
z: -0.20621755719184875
visibility: 0.9997852444648743
","x: 282.49273681640625
y: 248.78115844726562
z: -0.2062363624572754
visibility: 0.999771237373352
","x: 276.8418884277344
y: 247.9814910888672
z: -0.20541393756866455
visibility: 0.9996792078018188
","x: 275.4830627441406
y: 248.07705688476562
z: -0.2054367959499359
visibility: 0.9996447563171387
","x: 274.11981201171875
y: 248.23098754882812
z: -0.20547766983509064
visibility: 0.9995977878570557
","x: 284.3424072265625
y: 252.88983154296875
z: -0.12418855726718903
visibility: 0.9995982050895691
","x: 271.4642333984375
y: 252.56944274902344
z: -0.11571631580591202
visibility: 0.9993816018104553
","x: 280.8107604980469
y: 260.30621337890625
z: -0.18646253645420074
visibility: 0.9998993873596191
","x: 276.2591247558594
y: 259.9833068847656
z: -0.1853986382484436
visibility: 0.9998830556869507
","x: 294.25250244140625
y: 290.7305603027344
z: -0.07824584096670151
visibility: 0.9999186992645264
","x: 261.45013427734375
y: 289.87640380859375
z: -0.04117702692747116
visibility: 0.9997773170471191
","x: 300.86383056640625
y: 326.80584716796875
z: -0.17896422743797302
visibility: 0.9492095708847046
","x: 243.00973510742188
y: 310.310791015625
z: -0.015714522451162338
visibility: 0.965592622756958
","x: 298.88330078125
y: 308.7601318359375
z: -0.3869761526584625
visibility: 0.9615351557731628
","x: 220.43759155273438
y: 321.9502258300781
z: -0.07238814234733582
visibility: 0.9478920698165894
","x: 301.24658203125
y: 303.407958984375
z: -0.4236810803413391
visibility: 0.9338812232017517
","x: 213.09112548828125
y: 321.86468505859375
z: -0.08639754354953766
visibility: 0.9052727222442627
","x: 300.41131591796875
y: 299.59075927734375
z: -0.42988353967666626
visibility: 0.9386807680130005
","x: 212.5928497314453
y: 320.4689025878906
z: -0.10924316942691803
visibility: 0.9134820103645325
","x: 299.11077880859375
y: 303.1918640136719
z: -0.3950054347515106
visibility: 0.9209275841712952
","x: 214.60226440429688
y: 321.43914794921875
z: -0.08409653604030609
visibility: 0.9005826711654663
","x: 288.5774230957031
y: 372.2532958984375
z: -0.002643896732479334
visibility: 0.9993759989738464
","x: 267.1062316894531
y: 374.0453796386719
z: 0.002687952946871519
visibility: 0.9991796612739563
","x: 289.82208251953125
y: 440.6416320800781
z: -0.07367376983165741
visibility: 0.9736640453338623
","x: 273.6275329589844
y: 441.2401123046875
z: -0.0499592088162899
visibility: 0.9822834730148315
","x: 287.6703186035156
y: 495.0072937011719
z: 0.07412610203027725
visibility: 0.9715315103530884
","x: 271.72552490234375
y: 506.2327575683594
z: 0.059639763087034225
visibility: 0.9732012748718262
","x: 287.8136901855469
y: 499.803955078125
z: 0.08478396385908127
visibility: 0.8268601298332214
","x: 272.04150390625
y: 514.1597900390625
z: 0.06815828382968903
visibility: 0.7507883310317993
","x: 282.97393798828125
y: 519.97314453125
