uscmakers/ReverseChoreography/data/10_thats_what_i_like_bruno_mars.csv
,NOSE,LEFT_EYE_INNER,LEFT_EYE,LEFT_EYE_OUTER,RIGHT_EYE_INNER,RIGHT_EYE,RIGHT_EYE_OUTER,LEFT_EAR,RIGHT_EAR,MOUTH_LEFT,MOUTH_RIGHT,LEFT_SHOULDER,RIGHT_SHOULDER,LEFT_ELBOW,RIGHT_ELBOW,LEFT_WRIST,RIGHT_WRIST,LEFT_PINKY,RIGHT_PINKY,LEFT_INDEX,RIGHT_INDEX,LEFT_THUMB,RIGHT_THUMB,LEFT_HIP,RIGHT_HIP,LEFT_KNEE,RIGHT_KNEE,LEFT_ANKLE,RIGHT_ANKLE,LEFT_HEEL,RIGHT_HEEL,LEFT_FOOT_INDEX,RIGHT_FOOT_INDEX,TIMESTAMP,WRIST2,THUMB_CPC2,THUMB_MCP2,THUMB_IP2,THUMB_TIP2,INDEX_FINGER_MCP2,INDEX_FINGER_PIP2,INDEX_FINGER_DIP2,INDEX_FINGER_TIP2,MIDDLE_FINGER_MCP2,MIDDLE_FINGER_PIP2,MIDDLE_FINGER_DIP2,MIDDLE_FINGER_TIP2,RING_FINGER_PIP2,RING_FINGER_DIP2,RING_FINGER_TIP2,RING_FINGER_MCP2,PINKY_MCP2,PINKY_PIP2,PINKY_DIP2,PINKY_TIP2,WRIST,THUMB_CPC,THUMB_MCP,THUMB_IP,THUMB_TIP,INDEX_FINGER_MCP,INDEX_FINGER_PIP,INDEX_FINGER_DIP,INDEX_FINGER_TIP,MIDDLE_FINGER_MCP,MIDDLE_FINGER_PIP,MIDDLE_FINGER_DIP,MIDDLE_FINGER_TIP,RING_FINGER_PIP,RING_FINGER_DIP,RING_FINGER_TIP,RING_FINGER_MCP,PINKY_MCP,PINKY_PIP,PINKY_DIP,PINKY_TIP
0,"x: 256.14801025390625
y: 259.0558166503906
z: -0.3141976594924927
visibility: 0.9999039173126221
","x: 258.51513671875
y: 255.1854248046875
z: -0.3111517131328583
visibility: 0.9996577501296997
","x: 259.61676025390625
y: 255.44036865234375
z: -0.31115320324897766
visibility: 0.9997493624687195
","x: 260.745849609375
y: 255.68450927734375
z: -0.3111763298511505
visibility: 0.9997350573539734
","x: 255.85882568359375
y: 254.7565460205078
z: -0.3004767894744873
visibility: 0.9995437264442444
","x: 255.13941955566406
y: 254.7838592529297
z: -0.30051669478416443
visibility: 0.9996020197868347
","x: 254.40061950683594
y: 254.7617950439453
z: -0.30053433775901794
visibility: 0.999548614025116
","x: 264.0757141113281
y: 259.83282470703125
z: -0.2559896409511566
visibility: 0.9996647834777832
","x: 254.85537719726562
y: 258.19232177734375
z: -0.2063906490802765
visibility: 0.9988247752189636
","x: 258.39569091796875
y: 266.167236328125
z: -0.2913978397846222
visibility: 0.9998574256896973
","x: 254.5706787109375
y: 265.5164794921875
z: -0.27734437584877014
visibility: 0.9997616410255432
","x: 276.24139404296875
y: 298.29290771484375
z: -0.2146006077528
visibility: 0.9999723434448242
","x: 244.1421356201172
y: 298.20428466796875
z: -0.09987246245145798
visibility: 0.9999333620071411
","x: 281.01220703125
y: 347.7275390625
z: -0.20050711929798126
visibility: 0.9965368509292603
","x: 237.71487426757812
y: 343.38055419921875
z: -0.025964345782995224
visibility: 0.9279107451438904
","x: 281.4815979003906
y: 385.69866943359375
z: -0.2554994523525238
visibility: 0.9847684502601624
","x: 231.78700256347656
y: 379.253662109375
z: -0.09360386431217194
visibility: 0.9502529501914978
","x: 282.7010192871094
y: 399.218994140625
z: -0.2813417315483093
visibility: 0.9612547755241394
","x: 229.5635986328125
y: 392.7796630859375
z: -0.11170549690723419
visibility: 0.9027228355407715
","x: 281.02044677734375
y: 397.91485595703125
z: -0.3057824373245239
visibility: 0.9633991122245789
","x: 230.17002868652344
y: 393.78271484375
z: -0.14579150080680847
visibility: 0.9107473492622375
","x: 279.9199523925781
y: 394.0299987792969
z: -0.26560911536216736
visibility: 0.9482972621917725
","x: 231.7548828125
y: 389.3742370605469
z: -0.1095401868224144
visibility: 0.8986099362373352
","x: 269.9901428222656
y: 379.2674560546875
z: -0.03143874183297157
visibility: 0.999852180480957
","x: 249.91896057128906
y: 378.8563537597656
z: 0.031418874859809875
visibility: 0.999914288520813
","x: 276.3875732421875
y: 447.3739929199219
z: -0.03824048489332199
visibility: 0.9989197254180908
","x: 239.21055603027344
y: 442.4291687011719
z: 0.0007586117135360837
visibility: 0.9987201690673828
","x: 288.2981262207031
y: 503.4305419921875
z: 0.1066143736243248
visibility: 0.9990390539169312
","x: 231.10791015625
y: 502.9844665527344
z: 0.1259041428565979
visibility: 0.9991732239723206
","x: 288.4468078613281
y: 510.5718994140625
z: 0.11328300088644028
visibility: 0.9370378255844116
","x: 233.70172119140625
y: 511.5855712890625
z: 0.1313326060771942
visibility: 0.9795010685920715
","x: 289.0560302734375
y: 524.9730834960938
z: -0.0027060944121330976
visibility: 0.9973949193954468
","x: 221.0106201171875
y: 519.0224609375
z: 0.03274427726864815
visibility: 0.9982966780662537
",4.11767053604126,,,,,,,,,,,,,,,,,,,,,,,,,,,,,,,,,,,,,,,,,,
1,"x: 256.14801025390625
y: 259.0558166503906
z: -0.3141976594924927
visibility: 0.9999039173126221
","x: 258.51513671875
y: 255.1854248046875
z: -0.3111517131328583
visibility: 0.9996577501296997
","x: 259.61676025390625
y: 255.44036865234375
z: -0.31115320324897766
visibility: 0.9997493624687195
","x: 260.745849609375
y: 255.68450927734375
z: -0.3111763298511505
visibility: 0.9997350573539734
","x: 255.85882568359375
y: 254.7565460205078
z: -0.3004767894744873
visibility: 0.9995437264442444
","x: 255.13941955566406
y: 254.7838592529297
z: -0.30051669478416443
visibility: 0.9996020197868347
","x: 254.40061950683594
y: 254.7617950439453
z: -0.30053433775901794
visibility: 0.999548614025116
","x: 264.0757141113281
y: 259.83282470703125
z: -0.2559896409511566
visibility: 0.9996647834777832
","x: 254.85537719726562
y: 258.19232177734375
z: -0.2063906490802765
visibility: 0.9988247752189636
","x: 258.39569091796875
y: 266.167236328125
z: -0.2913978397846222
visibility: 0.9998574256896973
","x: 254.5706787109375
y: 265.5164794921875
z: -0.27734437584877014
visibility: 0.9997616410255432
","x: 276.24139404296875
y: 298.29290771484375
z: -0.2146006077528
visibility: 0.9999723434448242
","x: 244.1421356201172
y: 298.20428466796875
z: -0.09987246245145798
visibility: 0.9999333620071411
","x: 281.01220703125
y: 347.7275390625
z: -0.20050711929798126
visibility: 0.9965368509292603
","x: 237.71487426757812
y: 343.38055419921875
z: -0.025964345782995224
visibility: 0.9279107451438904
","x: 281.4815979003906
y: 385.69866943359375
z: -0.2554994523525238
visibility: 0.9847684502601624
","x: 231.78700256347656
y: 379.253662109375
z: -0.09360386431217194
visibility: 0.9502529501914978
","x: 282.7010192871094
y: 399.218994140625
z: -0.2813417315483093
visibility: 0.9612547755241394
","x: 229.5635986328125
y: 392.7796630859375
z: -0.11170549690723419
visibility: 0.9027228355407715
","x: 281.02044677734375
y: 397.91485595703125
z: -0.3057824373245239
visibility: 0.9633991122245789
","x: 230.17002868652344
y: 393.78271484375
z: -0.14579150080680847
visibility: 0.9107473492622375
","x: 279.9199523925781
y: 394.0299987792969
z: -0.26560911536216736
visibility: 0.9482972621917725
","x: 231.7548828125
y: 389.3742370605469
z: -0.1095401868224144
visibility: 0.8986099362373352
","x: 269.9901428222656
y: 379.2674560546875
z: -0.03143874183297157
visibility: 0.999852180480957
","x: 249.91896057128906
y: 378.8563537597656
z: 0.031418874859809875
visibility: 0.999914288520813
","x: 276.3875732421875
y: 447.3739929199219
z: -0.03824048489332199
visibility: 0.9989197254180908
","x: 239.21055603027344
y: 442.4291687011719
z: 0.0007586117135360837
visibility: 0.9987201690673828
","x: 288.2981262207031
y: 503.4305419921875
z: 0.1066143736243248
visibility: 0.9990390539169312
","x: 231.10791015625
y: 502.9844665527344
z: 0.1259041428565979
visibility: 0.9991732239723206
","x: 288.4468078613281
y: 510.5718994140625
z: 0.11328300088644028
visibility: 0.9370378255844116
","x: 233.70172119140625
y: 511.5855712890625
z: 0.1313326060771942
visibility: 0.9795010685920715
","x: 289.0560302734375
y: 524.9730834960938
z: -0.0027060944121330976
visibility: 0.9973949193954468
","x: 221.0106201171875
y: 519.0224609375
z: 0.03274427726864815
visibility: 0.9982966780662537
",4.11767053604126,,,,,,,,,,,,,,,,,,,,,,,,,,,,,,,,,,,,,,,,,,
2,"x: 255.7725372314453
y: 267.2280578613281
z: -0.28827977180480957
visibility: 0.9999085664749146
","x: 257.0088806152344
y: 261.7250671386719
z: -0.2783059775829315
visibility: 0.9996801614761353
","x: 258.1321716308594
y: 261.555908203125
z: -0.2783293128013611
visibility: 0.999762773513794
","x: 259.2644348144531
y: 261.4016418457031
z: -0.2783908545970917
visibility: 0.9997500777244568
","x: 253.71434020996094
y: 262.8585205078125
z: -0.27745863795280457
visibility: 0.9995748996734619
","x: 252.53477478027344
y: 263.685546875
z: -0.27747583389282227
visibility: 0.9996236562728882
","x: 251.3175506591797
y: 264.5782775878906
z: -0.27747875452041626
visibility: 0.9995713829994202
","x: 261.4904479980469
y: 263.20672607421875
z: -0.1904841810464859
visibility: 0.9996826648712158
","x: 249.53907775878906
y: 268.1506652832031
z: -0.18349985778331757
visibility: 0.9989148378372192
","x: 258.24017333984375
y: 273.37237548828125
z: -0.2524193823337555
visibility: 0.9998676776885986
","x: 253.91378784179688
y: 275.6544189453125
z: -0.2505555748939514
visibility: 0.9997780919075012
","x: 273.9309997558594
y: 296.66900634765625
z: -0.12806259095668793
visibility: 0.9999743103981018
","x: 240.1266632080078
y: 301.43267822265625
z: -0.10890904814004898
visibility: 0.9999355673789978
","x: 278.81451416015625
y: 345.2568054199219
z: -0.18797944486141205
visibility: 0.9964936375617981
","x: 240.79830932617188
y: 346.10125732421875
z: -0.11141052097082138
visibility: 0.9323287606239319
","x: 262.2253112792969
y: 350.82232666015625
z: -0.33388203382492065
visibility: 0.9855366349220276
","x: 254.31100463867188
y: 379.3565368652344
z: -0.1895495057106018
visibility: 0.9486286640167236
","x: 256.99560546875
y: 352.15521240234375
z: -0.37703296542167664
visibility: 0.9631519913673401
","x: 257.63397216796875
y: 390.8665771484375
z: -0.21961243450641632
visibility: 0.9005622267723083
","x: 255.75308227539062
y: 346.6726379394531
z: -0.3808833658695221
visibility: 0.9650527238845825
","x: 259.8113708496094
y: 388.61700439453125
z: -0.23389777541160583
visibility: 0.9072893261909485
","x: 256.97686767578125
y: 346.307861328125
z: -0.33827248215675354
visibility: 0.9499306082725525
","x: 259.26531982421875
y: 384.84613037109375
z: -0.19630968570709229
visibility: 0.8920662999153137
","x: 269.76812744140625
y: 382.651611328125
z: -0.010200380347669125
visibility: 0.9998581409454346
","x: 248.96255493164062
y: 382.5777587890625
z: 0.010209200903773308
visibility: 0.9999122619628906
","x: 282.9883117675781
y: 447.3908996582031
z: -0.03534158319234848
visibility: 0.9987990260124207
","x: 238.94677734375
y: 448.5007019042969
z: 0.01994052715599537
visibility: 0.9985182881355286
","x: 294.6641540527344
y: 505.8872985839844
z: 0.08581323176622391
visibility: 0.998820960521698
","x: 231.06280517578125
y: 504.2379455566406
z: 0.1534866839647293
visibility: 0.9989537000656128
","x: 292.82659912109375
y: 514.846923828125
z: 0.09138467162847519
visibility: 0.9384247064590454
","x: 233.7063446044922
y: 512.9308471679688
z: 0.16114994883537292
visibility: 0.9765096306800842
","x: 300.96331787109375
y: 526.2516479492188
z: -0.013183574192225933
visibility: 0.9967554807662964
","x: 220.20249938964844
y: 520.7864990234375
z: 0.06714978069067001
visibility: 0.9975963234901428
",4.670497417449951,,,,,,,,,,,,,,,,,,,,,,,,,,,,,,,,,,,,,,,,,,
3,"x: 255.7725372314453
y: 267.2280578613281
z: -0.28827977180480957
visibility: 0.9999085664749146
","x: 257.0088806152344
y: 261.7250671386719
z: -0.2783059775829315
visibility: 0.9996801614761353
","x: 258.1321716308594
y: 261.555908203125
z: -0.2783293128013611
visibility: 0.999762773513794
","x: 259.2644348144531
y: 261.4016418457031
z: -0.2783908545970917
visibility: 0.9997500777244568
","x: 253.71434020996094
y: 262.8585205078125
z: -0.27745863795280457
visibility: 0.9995748996734619
","x: 252.53477478027344
y: 263.685546875
z: -0.27747583389282227
visibility: 0.9996236562728882
","x: 251.3175506591797
y: 264.5782775878906
z: -0.27747875452041626
visibility: 0.9995713829994202
","x: 261.4904479980469
y: 263.20672607421875
z: -0.1904841810464859
visibility: 0.9996826648712158
","x: 249.53907775878906
y: 268.1506652832031
z: -0.18349985778331757
visibility: 0.9989148378372192
","x: 258.24017333984375
y: 273.37237548828125
z: -0.2524193823337555
visibility: 0.9998676776885986
","x: 253.91378784179688
y: 275.6544189453125
z: -0.2505555748939514
visibility: 0.9997780919075012
","x: 273.9309997558594
y: 296.66900634765625
z: -0.12806259095668793
visibility: 0.9999743103981018
","x: 240.1266632080078
y: 301.43267822265625
z: -0.10890904814004898
visibility: 0.9999355673789978
","x: 278.81451416015625
y: 345.2568054199219
z: -0.18797944486141205
visibility: 0.9964936375617981
","x: 240.79830932617188
y: 346.10125732421875
z: -0.11141052097082138
visibility: 0.9323287606239319
","x: 262.2253112792969
y: 350.82232666015625
z: -0.33388203382492065
visibility: 0.9855366349220276
","x: 254.31100463867188
y: 379.3565368652344
z: -0.1895495057106018
visibility: 0.9486286640167236
","x: 256.99560546875
y: 352.15521240234375
z: -0.37703296542167664
visibility: 0.9631519913673401
","x: 257.63397216796875
y: 390.8665771484375
z: -0.21961243450641632
visibility: 0.9005622267723083
","x: 255.75308227539062
y: 346.6726379394531
z: -0.3808833658695221
visibility: 0.9650527238845825
","x: 259.8113708496094
y: 388.61700439453125
z: -0.23389777541160583
visibility: 0.9072893261909485
","x: 256.97686767578125
y: 346.307861328125
z: -0.33827248215675354
visibility: 0.9499306082725525
","x: 259.26531982421875
y: 384.84613037109375
z: -0.19630968570709229
visibility: 0.8920662999153137
","x: 269.76812744140625
y: 382.651611328125
z: -0.010200380347669125
visibility: 0.9998581409454346
","x: 248.96255493164062
y: 382.5777587890625
z: 0.010209200903773308
visibility: 0.9999122619628906
","x: 282.9883117675781
y: 447.3908996582031
z: -0.03534158319234848
visibility: 0.9987990260124207
","x: 238.94677734375
y: 448.5007019042969
z: 0.01994052715599537
visibility: 0.9985182881355286
","x: 294.6641540527344
y: 505.8872985839844
z: 0.08581323176622391
visibility: 0.998820960521698
","x: 231.06280517578125
y: 504.2379455566406
z: 0.1534866839647293
visibility: 0.9989537000656128
","x: 292.82659912109375
y: 514.846923828125
z: 0.09138467162847519
visibility: 0.9384247064590454
","x: 233.7063446044922
y: 512.9308471679688
z: 0.16114994883537292
visibility: 0.9765096306800842
","x: 300.96331787109375
y: 526.2516479492188
z: -0.013183574192225933
visibility: 0.9967554807662964
","x: 220.20249938964844
y: 520.7864990234375
z: 0.06714978069067001
visibility: 0.9975963234901428
",4.670497417449951,,,,,,,,,,,,,,,,,,,,,,,,,,,,,,,,,,,,,,,,,,
4,"x: 260.7515869140625
y: 268.2452392578125
z: -0.23398415744304657
visibility: 0.999914824962616
","x: 262.1061096191406
y: 263.0102844238281
z: -0.21928992867469788
visibility: 0.9997086524963379
","x: 263.2554931640625
y: 262.8731994628906
z: -0.21931211650371552
visibility: 0.999782383441925
","x: 264.5071716308594
y: 262.7899169921875
z: -0.21934518218040466
visibility: 0.9997710585594177
","x: 258.885009765625
y: 264.115966796875
z: -0.22058610618114471
visibility: 0.9996129870414734
","x: 257.6456604003906
y: 264.7863464355469
z: -0.2206117808818817
visibility: 0.9996563196182251
","x: 256.33160400390625
y: 265.47418212890625
z: -0.22062186896800995
visibility: 0.9996091723442078
","x: 266.6615905761719
y: 265.5844421386719
z: -0.1244284138083458
visibility: 0.9997044801712036
","x: 254.28045654296875
y: 269.26715087890625
z: -0.12616898119449615
visibility: 0.9990161657333374
","x: 263.39898681640625
y: 274.74908447265625
z: -0.19745448231697083
visibility: 0.9998785853385925
","x: 258.9328918457031
y: 276.7147521972656
z: -0.19810423254966736
visibility: 0.9997974634170532
","x: 277.7926940917969
y: 299.95416259765625
z: -0.05522174388170242
visibility: 0.9999709129333496
","x: 246.24559020996094
y: 304.84637451171875
z: -0.10615356266498566
visibility: 0.9999348521232605
","x: 283.3927917480469
y: 341.15185546875
z: -0.13905100524425507
visibility: 0.9870919585227966
","x: 252.1328887939453
y: 350.93768310546875
z: -0.1472834050655365
visibility: 0.9377444982528687
","x: 280.5030517578125
y: 346.8038635253906
z: -0.3276057839393616
visibility: 0.9745644330978394
","x: 277.42669677734375
y: 371.9361572265625
z: -0.23135919868946075
visibility: 0.9512044191360474
","x: 279.05072021484375
y: 354.22625732421875
z: -0.3708340525627136
visibility: 0.9514281153678894
","x: 283.4117431640625
y: 378.7947082519531
z: -0.26373645663261414
visibility: 0.905616283416748
","x: 276.6023254394531
y: 345.3010559082031
z: -0.3785015642642975
visibility: 0.9536346793174744
","x: 284.51641845703125
y: 372.4290771484375
z: -0.2696163058280945
visibility: 0.9114446043968201
","x: 276.4540710449219
y: 342.8402099609375
z: -0.33551913499832153
visibility: 0.9357750415802002
","x: 282.7495422363281
y: 369.42242431640625
z: -0.23395578563213348
visibility: 0.894524097442627
","x: 271.1999206542969
y: 388.0350036621094
z: 0.006249322090297937
visibility: 0.9998711347579956
","x: 249.8563995361328
y: 386.4279479980469
z: -0.006261400878429413
visibility: 0.9999170899391174
","x: 285.9808044433594
y: 448.5245056152344
z: -0.09346197545528412
visibility: 0.9987540245056152
","x: 240.32305908203125
y: 452.8326721191406
z: 0.019098514690995216
visibility: 0.9984773993492126
","x: 297.2646789550781
y: 508.579833984375
z: 0.021525103598833084
visibility: 0.9987359642982483
","x: 228.03253173828125
y: 502.2069091796875
z: 0.19866104423999786
visibility: 0.9982773065567017
","x: 294.9477844238281
y: 518.714599609375
z: 0.028610533103346825
visibility: 0.9406418800354004
","x: 228.6100616455078
y: 508.4971923828125
z: 0.2147960364818573
visibility: 0.960289716720581
","x: 303.7891845703125
y: 530.1766357421875
z: -0.07259190827608109
visibility: 0.9965351223945618
","x: 220.21554565429688
y: 521.5134887695312
z: 0.13754922151565552
visibility: 0.9960708022117615
",4.806461334228516,,,,,,,,,,,,,,,,,,,,,,,,,,,,,,,,,,,,,,,,,,
5,"x: 260.7515869140625
y: 268.2452392578125
z: -0.23398415744304657
visibility: 0.999914824962616
","x: 262.1061096191406
y: 263.0102844238281
z: -0.21928992867469788
visibility: 0.9997086524963379
","x: 263.2554931640625
y: 262.8731994628906
z: -0.21931211650371552
visibility: 0.999782383441925
","x: 264.5071716308594
y: 262.7899169921875
z: -0.21934518218040466
visibility: 0.9997710585594177
","x: 258.885009765625
y: 264.115966796875
z: -0.22058610618114471
visibility: 0.9996129870414734
","x: 257.6456604003906
y: 264.7863464355469
z: -0.2206117808818817
visibility: 0.9996563196182251
","x: 256.33160400390625
y: 265.47418212890625
z: -0.22062186896800995
visibility: 0.9996091723442078
","x: 266.6615905761719
y: 265.5844421386719
z: -0.1244284138083458
visibility: 0.9997044801712036
","x: 254.28045654296875
y: 269.26715087890625
z: -0.12616898119449615
visibility: 0.9990161657333374
","x: 263.39898681640625
y: 274.74908447265625
z: -0.19745448231697083
visibility: 0.9998785853385925
","x: 258.9328918457031
y: 276.7147521972656
z: -0.19810423254966736
visibility: 0.9997974634170532
","x: 277.7926940917969
y: 299.95416259765625
z: -0.05522174388170242
visibility: 0.9999709129333496
","x: 246.24559020996094
y: 304.84637451171875
z: -0.10615356266498566
visibility: 0.9999348521232605
","x: 283.3927917480469
y: 341.15185546875
z: -0.13905100524425507
visibility: 0.9870919585227966
","x: 252.1328887939453
y: 350.93768310546875
z: -0.1472834050655365
visibility: 0.9377444982528687
","x: 280.5030517578125
y: 346.8038635253906
z: -0.3276057839393616
visibility: 0.9745644330978394
","x: 277.42669677734375
y: 371.9361572265625
z: -0.23135919868946075
visibility: 0.9512044191360474
","x: 279.05072021484375
y: 354.22625732421875
z: -0.3708340525627136
visibility: 0.9514281153678894
","x: 283.4117431640625
y: 378.7947082519531
z: -0.26373645663261414
visibility: 0.905616283416748
","x: 276.6023254394531
y: 345.3010559082031
z: -0.3785015642642975
visibility: 0.9536346793174744
","x: 284.51641845703125
y: 372.4290771484375
z: -0.2696163058280945
visibility: 0.9114446043968201
","x: 276.4540710449219
y: 342.8402099609375
z: -0.33551913499832153
visibility: 0.9357750415802002
","x: 282.7495422363281
y: 369.42242431640625
z: -0.23395578563213348
visibility: 0.894524097442627
","x: 271.1999206542969
y: 388.0350036621094
z: 0.006249322090297937
visibility: 0.9998711347579956
","x: 249.8563995361328
y: 386.4279479980469
z: -0.006261400878429413
visibility: 0.9999170899391174
","x: 285.9808044433594
y: 448.5245056152344
z: -0.09346197545528412
visibility: 0.9987540245056152
","x: 240.32305908203125
y: 452.8326721191406
z: 0.019098514690995216
visibility: 0.9984773993492126
","x: 297.2646789550781
y: 508.579833984375
z: 0.021525103598833084
visibility: 0.9987359642982483
","x: 228.03253173828125
y: 502.2069091796875
z: 0.19866104423999786
visibility: 0.9982773065567017
","x: 294.9477844238281
y: 518.714599609375
z: 0.028610533103346825
visibility: 0.9406418800354004
","x: 228.6100616455078
y: 508.4971923828125
z: 0.2147960364818573
visibility: 0.960289716720581
","x: 303.7891845703125
y: 530.1766357421875
z: -0.07259190827608109
visibility: 0.9965351223945618
","x: 220.21554565429688
y: 521.5134887695312
z: 0.13754922151565552
visibility: 0.9960708022117615
",4.806461334228516,,,,,,,,,,,,,,,,,,,,,,,,,,,,,,,,,,,,,,,,,,
6,"x: 263.1038513183594
y: 268.84686279296875
z: -0.21458153426647186
visibility: 0.9999156594276428
","x: 264.0112609863281
y: 263.68402099609375
z: -0.19616766273975372
visibility: 0.9997294545173645
","x: 264.9736328125
y: 263.524658203125
z: -0.1962106078863144
visibility: 0.9997945427894592
","x: 265.97979736328125
y: 263.4020690917969
z: -0.19624857604503632
visibility: 0.9997844099998474
","x: 261.036865234375
y: 265.0274658203125
z: -0.20043408870697021
visibility: 0.999640941619873
","x: 259.9059143066406
y: 265.8087158203125
z: -0.2004624307155609
visibility: 0.9996803402900696
","x: 258.713134765625
y: 266.591796875
z: -0.20049771666526794
visibility: 0.9996378421783447
","x: 268.06451416015625
y: 267.128173828125
z: -0.09029323607683182
visibility: 0.9997106194496155
","x: 256.3160705566406
y: 271.0650939941406
z: -0.10605932772159576
visibility: 0.9991025924682617
","x: 265.82574462890625
y: 275.5927734375
z: -0.17459793388843536
visibility: 0.9998826384544373
","x: 261.6849060058594
y: 278.1088562011719
z: -0.17924952507019043
visibility: 0.9998092651367188
","x: 279.5140380859375
y: 300.3689880371094
z: -0.004977055825293064
visibility: 0.9999639987945557
","x: 249.1421661376953
y: 306.79583740234375
z: -0.09795738756656647
visibility: 0.9999157190322876
","x: 289.89556884765625
y: 332.6352233886719
z: -0.056925129145383835
visibility: 0.9771846532821655
","x: 251.99700927734375
y: 352.69891357421875
z: -0.1544249951839447
visibility: 0.9427824020385742
","x: 291.00604248046875
y: 343.3282775878906
z: -0.24073581397533417
visibility: 0.9649633169174194
","x: 277.48321533203125
y: 363.2419128417969
z: -0.2502524256706238
visibility: 0.9542031288146973
","x: 292.0597839355469
y: 349.2236328125
z: -0.2831181585788727
visibility: 0.9402161836624146
","x: 283.1712341308594
y: 366.6449279785156
z: -0.2855361998081207
visibility: 0.9114149808883667
","x: 289.1027526855469
y: 346.0966491699219
z: -0.2922437787055969
visibility: 0.9427765011787415
","x: 283.5802917480469
y: 359.6389465332031
z: -0.2887042164802551
visibility: 0.9164431691169739
","x: 288.073486328125
y: 344.6893310546875
z: -0.24986863136291504
visibility: 0.9228512048721313
","x: 281.57965087890625
y: 357.94171142578125
z: -0.25170576572418213
visibility: 0.8979225754737854
","x: 271.19854736328125
y: 390.02301025390625
z: 0.02257877215743065
visibility: 0.9998782873153687
","x: 249.99569702148438
y: 386.6360168457031
z: -0.02259919047355652
visibility: 0.9999067187309265
","x: 286.1968078613281
y: 448.49267578125
z: -0.0758252888917923
visibility: 0.9983410239219666
","x: 239.65635681152344
y: 452.54656982421875
z: -0.03772355988621712
visibility: 0.9982943534851074
","x: 296.8302001953125
y: 509.0303039550781
z: 0.050247758626937866
visibility: 0.9984736442565918
","x: 220.9751434326172
y: 502.24383544921875
z: 0.10580992698669434
visibility: 0.9978909492492676
","x: 294.19000244140625
y: 519.05419921875
z: 0.057776063680648804
visibility: 0.942722499370575
","x: 218.90748596191406
y: 508.6222839355469
z: 0.11698411405086517
visibility: 0.945551335811615
","x: 303.7962951660156
y: 531.8720092773438
z: -0.0434853732585907
visibility: 0.9958963394165039
","x: 220.23521423339844
y: 523.3910522460938
z: 0.01947302743792534
visibility: 0.9949638247489929
",4.9508216381073,,,,,,,,,,,,,,,,,,,,,,,,,,,,,,,,,,,,,,,,,,
7,"x: 263.1038513183594
y: 268.84686279296875
z: -0.21458153426647186
visibility: 0.9999156594276428
","x: 264.0112609863281
y: 263.68402099609375
z: -0.19616766273975372
visibility: 0.9997294545173645
","x: 264.9736328125
y: 263.524658203125
z: -0.1962106078863144
visibility: 0.9997945427894592
","x: 265.97979736328125
y: 263.4020690917969
z: -0.19624857604503632
visibility: 0.9997844099998474
","x: 261.036865234375
y: 265.0274658203125
z: -0.20043408870697021
visibility: 0.999640941619873
","x: 259.9059143066406
y: 265.8087158203125
z: -0.2004624307155609
visibility: 0.9996803402900696
","x: 258.713134765625
y: 266.591796875
z: -0.20049771666526794
visibility: 0.9996378421783447
","x: 268.06451416015625
y: 267.128173828125
z: -0.09029323607683182
visibility: 0.9997106194496155
","x: 256.3160705566406
y: 271.0650939941406
z: -0.10605932772159576
visibility: 0.9991025924682617
","x: 265.82574462890625
y: 275.5927734375
z: -0.17459793388843536
visibility: 0.9998826384544373
","x: 261.6849060058594
y: 278.1088562011719
z: -0.17924952507019043
visibility: 0.9998092651367188
","x: 279.5140380859375
y: 300.3689880371094
z: -0.004977055825293064
visibility: 0.9999639987945557
","x: 249.1421661376953
y: 306.79583740234375
z: -0.09795738756656647
visibility: 0.9999157190322876
","x: 289.89556884765625
y: 332.6352233886719
z: -0.056925129145383835
visibility: 0.9771846532821655
","x: 251.99700927734375
y: 352.69891357421875
z: -0.1544249951839447
visibility: 0.9427824020385742
","x: 291.00604248046875
y: 343.3282775878906
z: -0.24073581397533417
visibility: 0.9649633169174194
","x: 277.48321533203125
y: 363.2419128417969
z: -0.2502524256706238
visibility: 0.9542031288146973
","x: 292.0597839355469
y: 349.2236328125
z: -0.2831181585788727
visibility: 0.9402161836624146
","x: 283.1712341308594
y: 366.6449279785156
z: -0.2855361998081207
visibility: 0.9114149808883667
","x: 289.1027526855469
y: 346.0966491699219
z: -0.2922437787055969
visibility: 0.9427765011787415
","x: 283.5802917480469
y: 359.6389465332031
z: -0.2887042164802551
visibility: 0.9164431691169739
","x: 288.073486328125
y: 344.6893310546875
z: -0.24986863136291504
visibility: 0.9228512048721313
","x: 281.57965087890625
y: 357.94171142578125
z: -0.25170576572418213
visibility: 0.8979225754737854
","x: 271.19854736328125
y: 390.02301025390625
z: 0.02257877215743065
visibility: 0.9998782873153687
","x: 249.99569702148438
y: 386.6360168457031
z: -0.02259919047355652
visibility: 0.9999067187309265
","x: 286.1968078613281
y: 448.49267578125
z: -0.0758252888917923
visibility: 0.9983410239219666
","x: 239.65635681152344
y: 452.54656982421875
z: -0.03772355988621712
visibility: 0.9982943534851074
","x: 296.8302001953125
y: 509.0303039550781
z: 0.050247758626937866
visibility: 0.9984736442565918
","x: 220.9751434326172
y: 502.24383544921875
z: 0.10580992698669434
visibility: 0.9978909492492676
","x: 294.19000244140625
y: 519.05419921875
z: 0.057776063680648804
visibility: 0.942722499370575
","x: 218.90748596191406
y: 508.6222839355469
z: 0.11698411405086517
visibility: 0.945551335811615
","x: 303.7962951660156
y: 531.8720092773438
z: -0.0434853732585907
visibility: 0.9958963394165039
","x: 220.23521423339844
y: 523.3910522460938
z: 0.01947302743792534
visibility: 0.9949638247489929
",4.9508216381073,,,,,,,,,,,,,,,,,,,,,,,,,,,,,,,,,,,,,,,,,,
8,"x: 267.99560546875
y: 271.464599609375
z: -0.47561994194984436
visibility: 0.999923825263977
","x: 268.9903564453125
y: 265.8600769042969
z: -0.46243032813072205
visibility: 0.9997556805610657
","x: 270.0381774902344
y: 265.8896789550781
z: -0.46241408586502075
visibility: 0.9998140931129456
","x: 271.0139465332031
y: 265.900146484375
z: -0.46247047185897827
visibility: 0.9998050332069397
","x: 265.64697265625
y: 266.3381042480469
z: -0.46706968545913696
visibility: 0.9996761679649353
","x: 264.2888488769531
y: 266.817138671875
z: -0.46717891097068787
visibility: 0.9997116327285767
","x: 262.84344482421875
y: 267.3689880371094
z: -0.4672284722328186
visibility: 0.9996734857559204
","x: 272.2518615722656
y: 268.62603759765625
z: -0.35164669156074524
visibility: 0.9997358322143555
","x: 259.71893310546875
y: 271.37835693359375
z: -0.3728764057159424
visibility: 0.9991914629936218
","x: 270.1851501464844
y: 277.7835388183594
z: -0.43112698197364807
visibility: 0.999893844127655
","x: 265.9283142089844
y: 279.7984619140625
z: -0.43745046854019165
visibility: 0.9998279213905334
","x: 282.8542785644531
y: 300.56689453125
z: -0.23210999369621277
visibility: 0.9999669790267944
","x: 250.23822021484375
y: 305.699462890625
z: -0.29956987500190735
visibility: 0.9999232888221741
","x: 288.0841064453125
y: 341.6611328125
z: -0.1929818093776703
visibility: 0.9785595536231995
","x: 251.178466796875
y: 352.0978088378906
z: -0.2956083416938782
visibility: 0.9481459259986877
","x: 284.4131774902344
y: 381.31304931640625
z: -0.2826750874519348
visibility: 0.966619074344635
","x: 265.1125793457031
y: 386.0684814453125
z: -0.36475124955177307
visibility: 0.9576151371002197
","x: 281.1206970214844
y: 394.8268127441406
z: -0.3159274458885193
visibility: 0.9421340227127075
","x: 268.4749755859375
y: 397.49407958984375
z: -0.4020467698574066
visibility: 0.9175150394439697
","x: 278.4614562988281
y: 392.97723388671875
z: -0.33963751792907715
visibility: 0.9444207549095154
","x: 270.52099609375
y: 394.95172119140625
z: -0.4186100363731384
visibility: 0.9218352437019348
","x: 278.55413818359375
y: 388.541748046875
z: -0.29436710476875305
visibility: 0.9247070550918579
","x: 269.7269592285156
y: 390.2771301269531
z: -0.37187549471855164
visibility: 0.9030736088752747
","x: 273.7572021484375
y: 388.64447021484375
z: 0.015361817553639412
visibility: 0.9998888969421387
","x: 252.1060791015625
y: 384.5854187011719
z: -0.015487222000956535
visibility: 0.999914288520813
","x: 285.8879699707031
y: 451.61810302734375
z: 0.027831310406327248
visibility: 0.9982283711433411
","x: 238.9727325439453
y: 452.4787902832031
z: -0.040788404643535614
visibility: 0.9982892274856567
","x: 296.3851013183594
y: 510.7059020996094
z: 0.22223468124866486
visibility: 0.9983078837394714
","x: 222.38491821289062
y: 500.2057189941406
z: 0.1415087878704071
visibility: 0.997829020023346
","x: 293.93560791015625
y: 519.9452514648438
z: 0.23596732318401337
visibility: 0.9431092143058777
","x: 221.8772735595703
y: 506.49676513671875
z: 0.15827178955078125
visibility: 0.9409762620925903
","x: 303.3369140625
y: 532.0818481445312
z: 0.13338719308376312
visibility: 0.9954208731651306
","x: 219.78726196289062
y: 523.0775756835938
z: 0.049444135278463364
visibility: 0.9947498440742493
",5.0625810623168945,,,,,,,,,,,,,,,,,,,,,,,,,,,,,,,,,,,,,,,,,,
9,"x: 267.99560546875
y: 271.464599609375
z: -0.47561994194984436
visibility: 0.999923825263977
","x: 268.9903564453125
y: 265.8600769042969
z: -0.46243032813072205
visibility: 0.9997556805610657
","x: 270.0381774902344
y: 265.8896789550781
z: -0.46241408586502075
visibility: 0.9998140931129456
","x: 271.0139465332031
y: 265.900146484375
z: -0.46247047185897827
visibility: 0.9998050332069397
","x: 265.64697265625
y: 266.3381042480469
z: -0.46706968545913696
visibility: 0.9996761679649353
","x: 264.2888488769531
y: 266.817138671875
z: -0.46717891097068787
visibility: 0.9997116327285767
","x: 262.84344482421875
y: 267.3689880371094
z: -0.4672284722328186
visibility: 0.9996734857559204
","x: 272.2518615722656
y: 268.62603759765625
z: -0.35164669156074524
visibility: 0.9997358322143555
","x: 259.71893310546875
y: 271.37835693359375
z: -0.3728764057159424
visibility: 0.9991914629936218
","x: 270.1851501464844
y: 277.7835388183594
z: -0.43112698197364807
visibility: 0.999893844127655
","x: 265.9283142089844
y: 279.7984619140625
z: -0.43745046854019165
visibility: 0.9998279213905334
","x: 282.8542785644531
y: 300.56689453125
z: -0.23210999369621277
visibility: 0.9999669790267944
","x: 250.23822021484375
y: 305.699462890625
z: -0.29956987500190735
visibility: 0.9999232888221741
","x: 288.0841064453125
y: 341.6611328125
z: -0.1929818093776703
visibility: 0.9785595536231995
","x: 251.178466796875
y: 352.0978088378906
z: -0.2956083416938782
visibility: 0.9481459259986877
","x: 284.4131774902344
y: 381.31304931640625
z: -0.2826750874519348
visibility: 0.966619074344635
","x: 265.1125793457031
y: 386.0684814453125
z: -0.36475124955177307
visibility: 0.9576151371002197
","x: 281.1206970214844
y: 394.8268127441406
z: -0.3159274458885193
visibility: 0.9421340227127075
","x: 268.4749755859375
y: 397.49407958984375
z: -0.4020467698574066
visibility: 0.9175150394439697
","x: 278.4614562988281
y: 392.97723388671875
z: -0.33963751792907715
visibility: 0.9444207549095154
","x: 270.52099609375
y: 394.95172119140625
z: -0.4186100363731384
visibility: 0.9218352437019348
","x: 278.55413818359375
y: 388.541748046875
z: -0.29436710476875305
visibility: 0.9247070550918579
","x: 269.7269592285156
y: 390.2771301269531
z: -0.37187549471855164
visibility: 0.9030736088752747
","x: 273.7572021484375
y: 388.64447021484375
z: 0.015361817553639412
visibility: 0.9998888969421387
","x: 252.1060791015625
y: 384.5854187011719
z: -0.015487222000956535
visibility: 0.999914288520813
","x: 285.8879699707031
y: 451.61810302734375
z: 0.027831310406327248
visibility: 0.9982283711433411
","x: 238.9727325439453
y: 452.4787902832031
z: -0.040788404643535614
visibility: 0.9982892274856567
","x: 296.3851013183594
y: 510.7059020996094
z: 0.22223468124866486
visibility: 0.9983078837394714
","x: 222.38491821289062
y: 500.2057189941406
z: 0.1415087878704071
visibility: 0.997829020023346
","x: 293.93560791015625
y: 519.9452514648438
z: 0.23596732318401337
visibility: 0.9431092143058777
","x: 221.8772735595703
y: 506.49676513671875
z: 0.15827178955078125
visibility: 0.9409762620925903
","x: 303.3369140625
y: 532.0818481445312
z: 0.13338719308376312
visibility: 0.9954208731651306
","x: 219.78726196289062
y: 523.0775756835938
z: 0.049444135278463364
visibility: 0.9947498440742493
",5.0625810623168945,,,,,,,,,,,,,,,,,,,,,,,,,,,,,,,,,,,,,,,,,,
10,"x: 269.6239013671875
y: 270.2551574707031
z: -0.3943476676940918
visibility: 0.9999305009841919
","x: 271.2316589355469
y: 264.59075927734375
z: -0.37949734926223755
visibility: 0.9997771978378296
","x: 272.4346618652344
y: 264.6534118652344
z: -0.37950775027275085
visibility: 0.9998293519020081
","x: 273.56793212890625
y: 264.7421875
z: -0.37954503297805786
visibility: 0.9998210668563843
","x: 267.92608642578125
y: 265.1467590332031
z: -0.3808754086494446
visibility: 0.9997058510780334
","x: 266.6998596191406
y: 265.6899719238281
z: -0.38095158338546753
visibility: 0.9997376799583435
","x: 265.4211120605469
y: 266.28399658203125
z: -0.38099241256713867
visibility: 0.9997037053108215
","x: 275.65771484375
y: 268.0191955566406
z: -0.2765836715698242
visibility: 0.9997522234916687
","x: 263.395751953125
y: 269.8028259277344
z: -0.28104665875434875
visibility: 0.9992691278457642
","x: 271.8565673828125
y: 276.33013916015625
z: -0.35411307215690613
visibility: 0.9999027252197266
","x: 267.7566833496094
y: 278.45635986328125
z: -0.3557979166507721
visibility: 0.9998438358306885
","x: 285.0370178222656
y: 302.2646484375
z: -0.19918522238731384
visibility: 0.9999681711196899
","x: 251.9188232421875
y: 305.075927734375
z: -0.20841626822948456
visibility: 0.9999290108680725
","x: 286.389404296875
y: 346.34844970703125
z: -0.217138409614563
visibility: 0.9784044027328491
","x: 250.95101928710938
y: 351.8045349121094
z: -0.221485897898674
visibility: 0.9521155953407288
","x: 269.64501953125
y: 381.9476318359375
z: -0.33579036593437195
visibility: 0.9652649164199829
","x: 258.95550537109375
y: 383.4183044433594
z: -0.3337904214859009
visibility: 0.9588505625724792
","x: 265.66180419921875
y: 394.42913818359375
z: -0.3758857548236847
visibility: 0.9398549199104309
","x: 261.1951904296875
y: 395.7052917480469
z: -0.3749557435512543
visibility: 0.9203743934631348
","x: 262.9547424316406
y: 391.5835876464844
z: -0.3943310081958771
visibility: 0.9418231844902039
","x: 262.712158203125
y: 393.7698974609375
z: -0.392498254776001
visibility: 0.9239403605461121
","x: 264.294921875
y: 387.05145263671875
z: -0.34613484144210815
visibility: 0.9199835062026978
","x: 262.58135986328125
y: 388.72760009765625
z: -0.343302458524704
visibility: 0.9042794108390808
","x: 275.86907958984375
y: 387.5866394042969
z: 0.00574130704626441
visibility: 0.9998983144760132
","x: 254.11004638671875
y: 383.97100830078125
z: -0.005833381321281195
visibility: 0.9999215006828308
","x: 286.3914794921875
y: 453.75592041015625
z: 0.001774373697116971
visibility: 0.998217761516571
","x: 237.94650268554688
y: 446.33551025390625
z: -0.06395585834980011
visibility: 0.9983468055725098
","x: 296.3584289550781
y: 512.0869140625
z: 0.18530835211277008
visibility: 0.9982525110244751
","x: 227.53048706054688
y: 487.8355407714844
z: 0.1535460352897644
visibility: 0.9977329969406128
","x: 294.1685485839844
y: 520.9993896484375
z: 0.1972006857395172
visibility: 0.9436506032943726
","x: 229.85736083984375
y: 493.5672607421875
z: 0.1717519909143448
visibility: 0.9409756064414978
","x: 302.8824768066406
y: 532.6866455078125
z: 0.08623087406158447
visibility: 0.9952611923217773
","x: 220.48379516601562
y: 511.7811279296875
z: 0.07342389225959778
visibility: 0.9946280717849731
",5.156581878662109,,,,,,,,,,,,,,,,,,,,,,,,,,,,,,,,,,,,,,,,,,
11,"x: 269.6239013671875
y: 270.2551574707031
z: -0.3943476676940918
visibility: 0.9999305009841919
","x: 271.2316589355469
y: 264.59075927734375
z: -0.37949734926223755
visibility: 0.9997771978378296
","x: 272.4346618652344
y: 264.6534118652344
z: -0.37950775027275085
visibility: 0.9998293519020081
","x: 273.56793212890625
y: 264.7421875
z: -0.37954503297805786
visibility: 0.9998210668563843
","x: 267.92608642578125
y: 265.1467590332031
z: -0.3808754086494446
visibility: 0.9997058510780334
","x: 266.6998596191406
y: 265.6899719238281
z: -0.38095158338546753
visibility: 0.9997376799583435
","x: 265.4211120605469
y: 266.28399658203125
z: -0.38099241256713867
visibility: 0.9997037053108215
","x: 275.65771484375
y: 268.0191955566406
z: -0.2765836715698242
visibility: 0.9997522234916687
","x: 263.395751953125
y: 269.8028259277344
z: -0.28104665875434875
visibility: 0.9992691278457642
","x: 271.8565673828125
y: 276.33013916015625
z: -0.35411307215690613
visibility: 0.9999027252197266
","x: 267.7566833496094
y: 278.45635986328125
z: -0.3557979166507721
visibility: 0.9998438358306885
","x: 285.0370178222656
y: 302.2646484375
z: -0.19918522238731384
visibility: 0.9999681711196899
","x: 251.9188232421875
y: 305.075927734375
z: -0.20841626822948456
visibility: 0.9999290108680725
","x: 286.389404296875
y: 346.34844970703125
z: -0.217138409614563
visibility: 0.9784044027328491
","x: 250.95101928710938
y: 351.8045349121094
z: -0.221485897898674
visibility: 0.9521155953407288
","x: 269.64501953125
y: 381.9476318359375
z: -0.33579036593437195
visibility: 0.9652649164199829
","x: 258.95550537109375
y: 383.4183044433594
z: -0.3337904214859009
visibility: 0.9588505625724792
","x: 265.66180419921875
y: 394.42913818359375
z: -0.3758857548236847
visibility: 0.9398549199104309
","x: 261.1951904296875
y: 395.7052917480469
z: -0.3749557435512543
visibility: 0.9203743934631348
","x: 262.9547424316406
y: 391.5835876464844
z: -0.3943310081958771
visibility: 0.9418231844902039
","x: 262.712158203125
y: 393.7698974609375
z: -0.392498254776001
visibility: 0.9239403605461121
","x: 264.294921875
y: 387.05145263671875
z: -0.34613484144210815
visibility: 0.9199835062026978
","x: 262.58135986328125
y: 388.72760009765625
z: -0.343302458524704
visibility: 0.9042794108390808
","x: 275.86907958984375
y: 387.5866394042969
z: 0.00574130704626441
visibility: 0.9998983144760132
","x: 254.11004638671875
y: 383.97100830078125
z: -0.005833381321281195
visibility: 0.9999215006828308
","x: 286.3914794921875
y: 453.75592041015625
z: 0.001774373697116971
visibility: 0.998217761516571
","x: 237.94650268554688
y: 446.33551025390625
z: -0.06395585834980011
visibility: 0.9983468055725098
","x: 296.3584289550781
y: 512.0869140625
z: 0.18530835211277008
visibility: 0.9982525110244751
","x: 227.53048706054688
y: 487.8355407714844
z: 0.1535460352897644
visibility: 0.9977329969406128
","x: 294.1685485839844
y: 520.9993896484375
z: 0.1972006857395172
visibility: 0.9436506032943726
","x: 229.85736083984375
y: 493.5672607421875
z: 0.1717519909143448
visibility: 0.9409756064414978
","x: 302.8824768066406
y: 532.6866455078125
z: 0.08623087406158447
visibility: 0.9952611923217773
","x: 220.48379516601562
y: 511.7811279296875
z: 0.07342389225959778
visibility: 0.9946280717849731
",5.156581878662109,,,,,,,,,,,,,,,,,,,,,,,,,,,,,,,,,,,,,,,,,,
12,"x: 266.4143981933594
y: 258.1189270019531
z: -0.23025378584861755
visibility: 0.9999369382858276
","x: 268.06463623046875
y: 253.5640869140625
z: -0.21407441794872284
visibility: 0.999798595905304
","x: 269.2003479003906
y: 253.772216796875
z: -0.21411439776420593
visibility: 0.9998454451560974
","x: 270.31317138671875
y: 254.0438995361328
z: -0.21414604783058167
visibility: 0.9998378753662109
","x: 265.04620361328125
y: 253.55630493164062
z: -0.21223406493663788
visibility: 0.9997342228889465
","x: 263.9397888183594
y: 253.8695526123047
z: -0.2122502624988556
visibility: 0.9997626543045044
","x: 262.7535095214844
y: 254.24032592773438
z: -0.2122056782245636
visibility: 0.9997318387031555
","x: 272.8145751953125
y: 257.5774841308594
z: -0.11136381328105927
visibility: 0.9997760057449341
","x: 261.7773742675781
y: 258.58306884765625
z: -0.1027837023139
visibility: 0.9993400573730469
","x: 268.7218933105469
y: 265.18670654296875
z: -0.19148023426532745
visibility: 0.9999121427536011
","x: 264.7678527832031
y: 265.5704040527344
z: -0.18931926786899567
visibility: 0.9998590350151062
","x: 282.7304382324219
y: 291.88677978515625
z: -0.07405214011669159
visibility: 0.9999707341194153
","x: 249.10079956054688
y: 293.2143859863281
z: -0.020584233105182648
visibility: 0.9999323487281799
","x: 282.1469421386719
y: 333.2978515625
z: -0.18380482494831085
visibility: 0.9803037047386169
","x: 235.5252685546875
y: 326.857666015625
z: -0.09325404465198517
visibility: 0.9541836977005005
","x: 259.0322570800781
y: 329.2401428222656
z: -0.3478749990463257
visibility: 0.9684792160987854
","x: 236.35977172851562
y: 333.49188232421875
z: -0.29456067085266113
visibility: 0.9601573348045349
","x: 253.4707794189453
y: 333.77728271484375
z: -0.3968222439289093
visibility: 0.945220947265625
","x: 236.36940002441406
y: 338.54132080078125
z: -0.3408704400062561
visibility: 0.9239387512207031
","x: 251.57684326171875
y: 328.34625244140625
z: -0.4019688069820404
visibility: 0.9469984173774719
","x: 238.2919921875
y: 335.32305908203125
z: -0.3524630665779114
visibility: 0.9271833300590515
","x: 252.78265380859375
y: 326.99224853515625
z: -0.35319674015045166
visibility: 0.926619827747345
","x: 239.40316772460938
y: 333.6579895019531
z: -0.3044820725917816
visibility: 0.9075994491577148
","x: 275.1953430175781
y: 383.88470458984375
z: 0.004236278124153614
visibility: 0.9999050498008728
","x: 251.88658142089844
y: 381.7991943359375
z: -0.0043155234307050705
visibility: 0.999925434589386
","x: 285.2236328125
y: 451.21820068359375
z: -0.015950065106153488
visibility: 0.9983195662498474
","x: 237.37510681152344
y: 446.2955322265625
z: -0.03026914969086647
visibility: 0.998407781124115
","x: 296.73895263671875
y: 511.31884765625
z: 0.14869360625743866
visibility: 0.9983009099960327
","x: 224.31591796875
y: 499.8303527832031
z: 0.14878307282924652
visibility: 0.9978709816932678
","x: 294.96331787109375
y: 519.9708862304688
z: 0.15902800858020782
visibility: 0.9455125331878662
","x: 225.5345916748047
y: 509.5544128417969
z: 0.16268032789230347
visibility: 0.943634569644928
","x: 302.0046691894531
y: 532.354248046875
z: 0.04763224720954895
visibility: 0.995373010635376
","x: 217.71534729003906
y: 517.2114868164062
z: 0.05286642909049988
visibility: 0.9948344230651855
",5.300961017608643,"x: 258.0858459472656
y: 323.9870910644531
z: 0.0
","x: 254.4010772705078
y: 321.5794677734375
z: 0.0026533042546361685
","x: 250.7023162841797
y: 320.5272216796875
z: 0.0024336366914212704
","x: 248.3520965576172
y: 321.26898193359375
z: 0.001429410302080214
","x: 246.81996154785156
y: 322.2475891113281
z: 0.0007990080630406737
","x: 249.0415496826172
y: 319.93280029296875
z: -0.0007191614131443202
","x: 244.77796936035156
y: 323.4930725097656
z: -0.0021006751339882612
","x: 245.7845916748047
y: 325.1499938964844
z: -0.0016978277126327157
","x: 247.3623809814453
y: 324.66986083984375
z: -0.0012112322729080915
","x: 249.54949951171875
y: 322.2741394042969
z: -0.0032605428714305162
","x: 245.3221893310547
y: 326.7187194824219
z: -0.003839045763015747
","x: 246.39865112304688
y: 327.62451171875
z: -0.002483706921339035
","x: 247.89373779296875
y: 326.69024658203125
z: -0.0016453685238957405
","x: 250.4811553955078
y: 325.2292175292969
z: -0.005659356713294983
","x: 246.8148651123047
y: 329.9056701660156
z: -0.006103312596678734
","x: 247.94468688964844
y: 330.391357421875
z: -0.00455942377448082
","x: 249.16156005859375
y: 329.25238037109375
z: -0.0036730309948325157
","x: 251.6750030517578
y: 328.604248046875
z: -0.007882555946707726
","x: 249.10523986816406
y: 332.80181884765625
z: -0.008388984017074108
","x: 249.93939208984375
y: 332.9384765625
z: -0.007388681638985872
","x: 250.9641876220703
y: 331.9398498535156
z: -0.006583886221051216
",,,,,,,,,,,,,,,,,,,,,
13,"x: 266.4143981933594
y: 258.1189270019531
z: -0.23025378584861755
visibility: 0.9999369382858276
","x: 268.06463623046875
y: 253.5640869140625
z: -0.21407441794872284
visibility: 0.999798595905304
","x: 269.2003479003906
y: 253.772216796875
z: -0.21411439776420593
visibility: 0.9998454451560974
","x: 270.31317138671875
y: 254.0438995361328
z: -0.21414604783058167
visibility: 0.9998378753662109
","x: 265.04620361328125
y: 253.55630493164062
z: -0.21223406493663788
visibility: 0.9997342228889465
","x: 263.9397888183594
y: 253.8695526123047
z: -0.2122502624988556
visibility: 0.9997626543045044
","x: 262.7535095214844
y: 254.24032592773438
z: -0.2122056782245636
visibility: 0.9997318387031555
","x: 272.8145751953125
y: 257.5774841308594
z: -0.11136381328105927
visibility: 0.9997760057449341
","x: 261.7773742675781
y: 258.58306884765625
z: -0.1027837023139
visibility: 0.9993400573730469
","x: 268.7218933105469
y: 265.18670654296875
z: -0.19148023426532745
visibility: 0.9999121427536011
","x: 264.7678527832031
y: 265.5704040527344
z: -0.18931926786899567
visibility: 0.9998590350151062
","x: 282.7304382324219
y: 291.88677978515625
z: -0.07405214011669159
visibility: 0.9999707341194153
","x: 249.10079956054688
y: 293.2143859863281
z: -0.020584233105182648
visibility: 0.9999323487281799
","x: 282.1469421386719
y: 333.2978515625
z: -0.18380482494831085
visibility: 0.9803037047386169
","x: 235.5252685546875
y: 326.857666015625
z: -0.09325404465198517
visibility: 0.9541836977005005
","x: 259.0322570800781
y: 329.2401428222656
z: -0.3478749990463257
visibility: 0.9684792160987854
","x: 236.35977172851562
y: 333.49188232421875
z: -0.29456067085266113
visibility: 0.9601573348045349
","x: 253.4707794189453
y: 333.77728271484375
z: -0.3968222439289093
visibility: 0.945220947265625
","x: 236.36940002441406
y: 338.54132080078125
z: -0.3408704400062561
visibility: 0.9239387512207031
","x: 251.57684326171875
y: 328.34625244140625
z: -0.4019688069820404
visibility: 0.9469984173774719
","x: 238.2919921875
y: 335.32305908203125
z: -0.3524630665779114
visibility: 0.9271833300590515
","x: 252.78265380859375
y: 326.99224853515625
z: -0.35319674015045166
visibility: 0.926619827747345
","x: 239.40316772460938
y: 333.6579895019531
z: -0.3044820725917816
visibility: 0.9075994491577148
","x: 275.1953430175781
y: 383.88470458984375
z: 0.004236278124153614
visibility: 0.9999050498008728
","x: 251.88658142089844
y: 381.7991943359375
z: -0.0043155234307050705
visibility: 0.999925434589386
","x: 285.2236328125
y: 451.21820068359375
z: -0.015950065106153488
visibility: 0.9983195662498474
","x: 237.37510681152344
y: 446.2955322265625
z: -0.03026914969086647
visibility: 0.998407781124115
","x: 296.73895263671875
y: 511.31884765625
z: 0.14869360625743866
visibility: 0.9983009099960327
","x: 224.31591796875
y: 499.8303527832031
z: 0.14878307282924652
visibility: 0.9978709816932678
","x: 294.96331787109375
y: 519.9708862304688
z: 0.15902800858020782
visibility: 0.9455125331878662
","x: 225.5345916748047
y: 509.5544128417969
z: 0.16268032789230347
visibility: 0.943634569644928
","x: 302.0046691894531
y: 532.354248046875
z: 0.04763224720954895
visibility: 0.995373010635376
","x: 217.71534729003906
y: 517.2114868164062
z: 0.05286642909049988
visibility: 0.9948344230651855
",5.300961017608643,"x: 258.0858459472656
y: 323.9870910644531
z: 0.0
","x: 254.4010772705078
y: 321.5794677734375
z: 0.0026533042546361685
","x: 250.7023162841797
y: 320.5272216796875
z: 0.0024336366914212704
","x: 248.3520965576172
y: 321.26898193359375
z: 0.001429410302080214
","x: 246.81996154785156
y: 322.2475891113281
z: 0.0007990080630406737
","x: 249.0415496826172
y: 319.93280029296875
z: -0.0007191614131443202
","x: 244.77796936035156
y: 323.4930725097656
z: -0.0021006751339882612
","x: 245.7845916748047
y: 325.1499938964844
z: -0.0016978277126327157
","x: 247.3623809814453
y: 324.66986083984375
z: -0.0012112322729080915
","x: 249.54949951171875
y: 322.2741394042969
z: -0.0032605428714305162
","x: 245.3221893310547
y: 326.7187194824219
z: -0.003839045763015747
","x: 246.39865112304688
y: 327.62451171875
z: -0.002483706921339035
","x: 247.89373779296875
y: 326.69024658203125
z: -0.0016453685238957405
","x: 250.4811553955078
y: 325.2292175292969
z: -0.005659356713294983
","x: 246.8148651123047
y: 329.9056701660156
z: -0.006103312596678734
","x: 247.94468688964844
y: 330.391357421875
z: -0.00455942377448082
","x: 249.16156005859375
y: 329.25238037109375
z: -0.0036730309948325157
","x: 251.6750030517578
y: 328.604248046875
z: -0.007882555946707726
","x: 249.10523986816406
y: 332.80181884765625
z: -0.008388984017074108
","x: 249.93939208984375
y: 332.9384765625
z: -0.007388681638985872
","x: 250.9641876220703
y: 331.9398498535156
z: -0.006583886221051216
",,,,,,,,,,,,,,,,,,,,,
14,"x: 266.4143981933594
y: 258.1189270019531
z: -0.23025378584861755
visibility: 0.9999369382858276
","x: 268.06463623046875
y: 253.5640869140625
z: -0.21407441794872284
visibility: 0.999798595905304
","x: 269.2003479003906
y: 253.772216796875
z: -0.21411439776420593
visibility: 0.9998454451560974
","x: 270.31317138671875
y: 254.0438995361328
z: -0.21414604783058167
visibility: 0.9998378753662109
","x: 265.04620361328125
y: 253.55630493164062
z: -0.21223406493663788
visibility: 0.9997342228889465
","x: 263.9397888183594
y: 253.8695526123047
z: -0.2122502624988556
visibility: 0.9997626543045044
","x: 262.7535095214844
y: 254.24032592773438
z: -0.2122056782245636
visibility: 0.9997318387031555
","x: 272.8145751953125
y: 257.5774841308594
z: -0.11136381328105927
visibility: 0.9997760057449341
","x: 261.7773742675781
y: 258.58306884765625
z: -0.1027837023139
visibility: 0.9993400573730469
","x: 268.7218933105469
y: 265.18670654296875
z: -0.19148023426532745
visibility: 0.9999121427536011
","x: 264.7678527832031
y: 265.5704040527344
z: -0.18931926786899567
visibility: 0.9998590350151062
","x: 282.7304382324219
y: 291.88677978515625
z: -0.07405214011669159
visibility: 0.9999707341194153
","x: 249.10079956054688
y: 293.2143859863281
z: -0.020584233105182648
visibility: 0.9999323487281799
","x: 282.1469421386719
y: 333.2978515625
z: -0.18380482494831085
visibility: 0.9803037047386169
","x: 235.5252685546875
y: 326.857666015625
z: -0.09325404465198517
visibility: 0.9541836977005005
","x: 259.0322570800781
y: 329.2401428222656
z: -0.3478749990463257
visibility: 0.9684792160987854
","x: 236.35977172851562
y: 333.49188232421875
z: -0.29456067085266113
visibility: 0.9601573348045349
","x: 253.4707794189453
y: 333.77728271484375
z: -0.3968222439289093
visibility: 0.945220947265625
","x: 236.36940002441406
y: 338.54132080078125
z: -0.3408704400062561
visibility: 0.9239387512207031
","x: 251.57684326171875
y: 328.34625244140625
z: -0.4019688069820404
visibility: 0.9469984173774719
","x: 238.2919921875
y: 335.32305908203125
z: -0.3524630665779114
visibility: 0.9271833300590515
","x: 252.78265380859375
y: 326.99224853515625
z: -0.35319674015045166
visibility: 0.926619827747345
","x: 239.40316772460938
y: 333.6579895019531
z: -0.3044820725917816
visibility: 0.9075994491577148
","x: 275.1953430175781
y: 383.88470458984375
z: 0.004236278124153614
visibility: 0.9999050498008728
","x: 251.88658142089844
y: 381.7991943359375
z: -0.0043155234307050705
visibility: 0.999925434589386
","x: 285.2236328125
y: 451.21820068359375
z: -0.015950065106153488
visibility: 0.9983195662498474
","x: 237.37510681152344
y: 446.2955322265625
z: -0.03026914969086647
visibility: 0.998407781124115
","x: 296.73895263671875
y: 511.31884765625
z: 0.14869360625743866
visibility: 0.9983009099960327
","x: 224.31591796875
y: 499.8303527832031
z: 0.14878307282924652
visibility: 0.9978709816932678
","x: 294.96331787109375
y: 519.9708862304688
z: 0.15902800858020782
visibility: 0.9455125331878662
","x: 225.5345916748047
y: 509.5544128417969
z: 0.16268032789230347
visibility: 0.943634569644928
","x: 302.0046691894531
y: 532.354248046875
z: 0.04763224720954895
visibility: 0.995373010635376
","x: 217.71534729003906
y: 517.2114868164062
z: 0.05286642909049988
visibility: 0.9948344230651855
",5.300961017608643,"x: 258.0858459472656
y: 323.9870910644531
z: 0.0
","x: 254.4010772705078
y: 321.5794677734375
z: 0.0026533042546361685
","x: 250.7023162841797
y: 320.5272216796875
z: 0.0024336366914212704
","x: 248.3520965576172
y: 321.26898193359375
z: 0.001429410302080214
","x: 246.81996154785156
y: 322.2475891113281
z: 0.0007990080630406737
","x: 249.0415496826172
y: 319.93280029296875
z: -0.0007191614131443202
","x: 244.77796936035156
y: 323.4930725097656
z: -0.0021006751339882612
","x: 245.7845916748047
y: 325.1499938964844
z: -0.0016978277126327157
","x: 247.3623809814453
y: 324.66986083984375
z: -0.0012112322729080915
","x: 249.54949951171875
y: 322.2741394042969
z: -0.0032605428714305162
","x: 245.3221893310547
y: 326.7187194824219
z: -0.003839045763015747
","x: 246.39865112304688
y: 327.62451171875
z: -0.002483706921339035
","x: 247.89373779296875
y: 326.69024658203125
z: -0.0016453685238957405
","x: 250.4811553955078
y: 325.2292175292969
z: -0.005659356713294983
","x: 246.8148651123047
y: 329.9056701660156
z: -0.006103312596678734
","x: 247.94468688964844
y: 330.391357421875
z: -0.00455942377448082
","x: 249.16156005859375
y: 329.25238037109375
z: -0.0036730309948325157
","x: 251.6750030517578
y: 328.604248046875
z: -0.007882555946707726
","x: 249.10523986816406
y: 332.80181884765625
z: -0.008388984017074108
","x: 249.93939208984375
y: 332.9384765625
z: -0.007388681638985872
","x: 250.9641876220703
y: 331.9398498535156
z: -0.006583886221051216
",,,,,,,,,,,,,,,,,,,,,
15,"x: 257.4624938964844
y: 257.5912780761719
z: -0.18255309760570526
visibility: 0.9999427795410156
","x: 259.3247375488281
y: 253.04705810546875
z: -0.16527192294597626
visibility: 0.999817967414856
","x: 260.58685302734375
y: 253.1410369873047
z: -0.1652957946062088
visibility: 0.9998600482940674
","x: 261.9165344238281
y: 253.28683471679688
z: -0.16533342003822327
visibility: 0.9998531341552734
","x: 255.82891845703125
y: 253.24209594726562
z: -0.16403935849666595
visibility: 0.9997598528862
","x: 254.5216064453125
y: 253.51473999023438
z: -0.16405004262924194
visibility: 0.999785304069519
","x: 253.24342346191406
y: 253.76808166503906
z: -0.16399773955345154
visibility: 0.9997572898864746
","x: 264.6925964355469
y: 257.36260986328125
z: -0.06680367887020111
visibility: 0.9997977018356323
","x: 251.54969787597656
y: 257.6076965332031
z: -0.060108162462711334
visibility: 0.9994041919708252
","x: 259.60687255859375
y: 264.920166015625
z: -0.14607089757919312
visibility: 0.9999206066131592
","x: 255.2482452392578
y: 265.51129150390625
z: -0.14440703392028809
visibility: 0.9998725056648254
","x: 275.5917053222656
y: 288.8119812011719
z: -0.030220145359635353
visibility: 0.9999725222587585
","x: 240.0157012939453
y: 295.0628967285156
z: -0.005195194389671087
visibility: 0.9999290108680725
","x: 287.1790771484375
y: 321.04345703125
z: -0.16356782615184784
visibility: 0.9821141362190247
","x: 232.4877166748047
y: 329.7223205566406
z: -0.1048024520277977
visibility: 0.9525615572929382
","x: 266.5588073730469
y: 304.184326171875
z: -0.33221229910850525
visibility: 0.9711543321609497
","x: 232.5054168701172
y: 323.0849609375
z: -0.3075454831123352
visibility: 0.9583724737167358
","x: 261.0417785644531
y: 303.40374755859375
z: -0.37441596388816833
visibility: 0.9488710165023804
","x: 232.7809295654297
y: 318.713134765625
z: -0.35177260637283325
visibility: 0.9214839339256287
","x: 259.4380798339844
y: 299.36822509765625
z: -0.3700907528400421
visibility: 0.9503408074378967
","x: 234.25218200683594
y: 314.3182678222656
z: -0.3526334762573242
visibility: 0.9240036010742188
","x: 260.6510009765625
y: 300.09539794921875
z: -0.33266782760620117
visibility: 0.9305621385574341
","x: 234.89791870117188
y: 316.892578125
z: -0.3134410083293915
visibility: 0.9026719927787781
","x: 270.9708557128906
y: 383.48382568359375
z: 0.0012457033153623343
visibility: 0.9999123811721802
","x: 247.38790893554688
y: 382.4031982421875
z: -0.001290112384594977
visibility: 0.9999295473098755
","x: 281.60675048828125
y: 451.0479736328125
z: -0.041740063577890396
visibility: 0.9984021782875061
","x: 234.14756774902344
y: 447.99334716796875
z: -0.02622641995549202
visibility: 0.9984235167503357
","x: 296.3000793457031
y: 511.4931945800781
z: 0.12748855352401733
visibility: 0.9983338713645935
","x: 221.30360412597656
y: 505.1744384765625
z: 0.14203019440174103
visibility: 0.9979804754257202
","x: 294.5830993652344
y: 520.2759399414062
z: 0.1412731260061264
visibility: 0.9469899535179138
","x: 223.35040283203125
y: 514.6728515625
z: 0.1539105325937271
visibility: 0.9458767175674438
","x: 301.7286071777344
y: 532.1856689453125
z: 0.03854771703481674
visibility: 0.9954692721366882
","x: 212.09307861328125
y: 525.1373901367188
z: 0.04642945155501366
visibility: 0.9949666857719421
",5.455547332763672,,,,,,,,,,,,,,,,,,,,,,,,,,,,,,,,,,,,,,,,,,
16,"x: 257.4624938964844
y: 257.5912780761719
z: -0.18255309760570526
visibility: 0.9999427795410156
","x: 259.3247375488281
y: 253.04705810546875
z: -0.16527192294597626
visibility: 0.999817967414856
","x: 260.58685302734375
y: 253.1410369873047
z: -0.1652957946062088
visibility: 0.9998600482940674
","x: 261.9165344238281
y: 253.28683471679688
z: -0.16533342003822327
visibility: 0.9998531341552734
","x: 255.82891845703125
y: 253.24209594726562
z: -0.16403935849666595
visibility: 0.9997598528862
","x: 254.5216064453125
y: 253.51473999023438
z: -0.16405004262924194
visibility: 0.999785304069519
","x: 253.24342346191406
y: 253.76808166503906
z: -0.16399773955345154
visibility: 0.9997572898864746
","x: 264.6925964355469
y: 257.36260986328125
z: -0.06680367887020111
visibility: 0.9997977018356323
","x: 251.54969787597656
y: 257.6076965332031
z: -0.060108162462711334
visibility: 0.9994041919708252
","x: 259.60687255859375
y: 264.920166015625
z: -0.14607089757919312
visibility: 0.9999206066131592
","x: 255.2482452392578
y: 265.51129150390625
z: -0.14440703392028809
visibility: 0.9998725056648254
","x: 275.5917053222656
y: 288.8119812011719
z: -0.030220145359635353
visibility: 0.9999725222587585
","x: 240.0157012939453
y: 295.0628967285156
z: -0.005195194389671087
visibility: 0.9999290108680725
","x: 287.1790771484375
y: 321.04345703125
z: -0.16356782615184784
visibility: 0.9821141362190247
","x: 232.4877166748047
y: 329.7223205566406
z: -0.1048024520277977
visibility: 0.9525615572929382
","x: 266.5588073730469
y: 304.184326171875
z: -0.33221229910850525
visibility: 0.9711543321609497
","x: 232.5054168701172
y: 323.0849609375
z: -0.3075454831123352
visibility: 0.9583724737167358
","x: 261.0417785644531
y: 303.40374755859375
z: -0.37441596388816833
visibility: 0.9488710165023804
","x: 232.7809295654297
y: 318.713134765625
z: -0.35177260637283325
visibility: 0.9214839339256287
","x: 259.4380798339844
y: 299.36822509765625
z: -0.3700907528400421
visibility: 0.9503408074378967
","x: 234.25218200683594
y: 314.3182678222656
z: -0.3526334762573242
visibility: 0.9240036010742188
","x: 260.6510009765625
y: 300.09539794921875
z: -0.33266782760620117
visibility: 0.9305621385574341
","x: 234.89791870117188
y: 316.892578125
z: -0.3134410083293915
visibility: 0.9026719927787781
","x: 270.9708557128906
y: 383.48382568359375
z: 0.0012457033153623343
visibility: 0.9999123811721802
","x: 247.38790893554688
y: 382.4031982421875
z: -0.001290112384594977
visibility: 0.9999295473098755
","x: 281.60675048828125
y: 451.0479736328125
z: -0.041740063577890396
visibility: 0.9984021782875061
","x: 234.14756774902344
y: 447.99334716796875
z: -0.02622641995549202
visibility: 0.9984235167503357
","x: 296.3000793457031
y: 511.4931945800781
z: 0.12748855352401733
visibility: 0.9983338713645935
","x: 221.30360412597656
y: 505.1744384765625
z: 0.14203019440174103
visibility: 0.9979804754257202
","x: 294.5830993652344
y: 520.2759399414062
z: 0.1412731260061264
visibility: 0.9469899535179138
","x: 223.35040283203125
y: 514.6728515625
z: 0.1539105325937271
visibility: 0.9458767175674438
","x: 301.7286071777344
y: 532.1856689453125
z: 0.03854771703481674
visibility: 0.9954692721366882
","x: 212.09307861328125
y: 525.1373901367188
z: 0.04642945155501366
visibility: 0.9949666857719421
",5.455547332763672,,,,,,,,,,,,,,,,,,,,,,,,,,,,,,,,,,,,,,,,,,
17,"x: 257.4779357910156
y: 258.0765075683594
z: -0.1597868800163269
visibility: 0.9999419450759888
","x: 259.3819274902344
y: 253.8856658935547
z: -0.14481942355632782
visibility: 0.9998255968093872
","x: 260.6268310546875
y: 254.0135040283203
z: -0.14484646916389465
visibility: 0.9998614192008972
","x: 261.9038391113281
y: 254.1763458251953
z: -0.14483317732810974
visibility: 0.9998538494110107
","x: 255.75662231445312
y: 253.9482421875
z: -0.14073844254016876
visibility: 0.9997716546058655
","x: 254.54701232910156
y: 254.17086791992188
z: -0.14074738323688507
visibility: 0.9997909069061279
","x: 253.3212432861328
y: 254.36097717285156
z: -0.1407223343849182
visibility: 0.9997646808624268
","x: 264.14617919921875
y: 257.67047119140625
z: -0.054498009383678436
visibility: 0.9998032450675964
","x: 251.5720672607422
y: 257.5934753417969
z: -0.03630468621850014
visibility: 0.9994397759437561
","x: 259.83502197265625
y: 265.01336669921875
z: -0.12596753239631653
visibility: 0.999920666217804
","x: 255.01239013671875
y: 265.301025390625
z: -0.12095121294260025
visibility: 0.9998776316642761
","x: 272.91888427734375
y: 285.8580322265625
z: -0.05202730745077133
visibility: 0.999971866607666
","x: 240.84140014648438
y: 292.0870056152344
z: 0.021850386634469032
visibility: 0.9999196529388428
","x: 266.9793395996094
y: 315.9640197753906
z: -0.1807452142238617
visibility: 0.9817668795585632
","x: 224.3500518798828
y: 315.3553466796875
z: -0.09449547529220581
visibility: 0.9530079960823059
","x: 243.5688934326172
y: 318.48626708984375
z: -0.34099042415618896
visibility: 0.9727446436882019
","x: 230.95791625976562
y: 321.29486083984375
z: -0.28718411922454834
visibility: 0.9539880156517029
","x: 238.9551239013672
y: 325.2514953613281
z: -0.38702157139778137
visibility: 0.9516994953155518
","x: 231.55023193359375
y: 327.1460266113281
z: -0.32967740297317505
visibility: 0.9157863259315491
","x: 236.02745056152344
y: 322.833251953125
z: -0.3878270387649536
visibility: 0.9529759883880615
","x: 234.60940551757812
y: 325.83953857421875
z: -0.3304346203804016
visibility: 0.9177566170692444
","x: 238.2337188720703
y: 320.40386962890625
z: -0.34485384821891785
visibility: 0.9330105185508728
","x: 234.7192840576172
y: 324.275634765625
z: -0.29312634468078613
visibility: 0.8949114680290222
","x: 270.4726257324219
y: 382.9417419433594
z: -0.0029365145601332188
visibility: 0.9999171495437622
","x: 247.35116577148438
y: 382.3799133300781
z: 0.0027618277817964554
visibility: 0.999932050704956
","x: 282.46478271484375
y: 450.9176330566406
z: -0.03579534590244293
visibility: 0.99845951795578
","x: 232.2861328125
y: 447.1138916015625
z: -0.026238733902573586
visibility: 0.9984952211380005
","x: 297.41241455078125
y: 511.6705322265625
z: 0.1267973631620407
visibility: 0.9983656406402588
","x: 218.152587890625
y: 504.7767333984375
z: 0.12010053545236588
visibility: 0.9980868697166443
","x: 295.5955810546875
y: 520.52783203125
z: 0.13780590891838074
visibility: 0.9474391341209412
","x: 219.49432373046875
y: 513.8345947265625
z: 0.12914712727069855
visibility: 0.9472149610519409
","x: 302.64825439453125
y: 531.9737548828125
z: 0.031090974807739258
visibility: 0.9954522848129272
","x: 211.3478546142578
y: 528.250732421875
z: 0.02121402882039547
visibility: 0.9951146245002747
",5.614494323730469,"x: 239.63116455078125
y: 313.6847839355469
z: 0.0
","x: 236.12628173828125
y: 317.07440185546875
z: 0.0006901594460941851
","x: 232.4296417236328
y: 322.0099182128906
z: -0.0016220301622524858
","x: 229.96774291992188
y: 326.1370849609375
z: -0.0043219649232923985
","x: 228.19418334960938
y: 330.1107177734375
z: -0.007054378744214773
","x: 231.18984985351562
y: 322.11285400390625
z: -0.008341868408024311
","x: 229.76063537597656
y: 332.4229736328125
z: -0.012826750986278057
","x: 230.08592224121094
y: 338.6650085449219
z: -0.014420194551348686
","x: 230.555419921875
y: 343.18011474609375
z: -0.015209289267659187
","x: 233.03517150878906
y: 321.41448974609375
z: -0.011194710619747639
","x: 231.90274047851562
y: 332.6559143066406
z: -0.016017913818359375
","x: 232.35977172851562
y: 339.92291259765625
z: -0.01639794372022152
","x: 232.9464111328125
y: 345.1183776855469
z: -0.01656859926879406
","x: 235.46572875976562
y: 321.013916015625
z: -0.01364659983664751
","x: 234.04498291015625
y: 331.1062316894531
z: -0.01764455996453762
","x: 234.30567932128906
y: 337.9552917480469
z: -0.016752222552895546
","x: 234.7350616455078
y: 342.7920227050781
z: -0.016136206686496735
","x: 238.13015747070312
y: 320.9961242675781
z: -0.015947410836815834
","x: 237.08480834960938
y: 328.46466064453125
z: -0.019059505313634872
","x: 236.7696533203125
y: 333.425048828125
z: -0.018641799688339233
","x: 236.78097534179688
y: 337.2047119140625
z: -0.0181781854480505
",,,,,,,,,,,,,,,,,,,,,
18,"x: 257.4779357910156
y: 258.0765075683594
z: -0.1597868800163269
visibility: 0.9999419450759888
","x: 259.3819274902344
y: 253.8856658935547
z: -0.14481942355632782
visibility: 0.9998255968093872
","x: 260.6268310546875
y: 254.0135040283203
z: -0.14484646916389465
visibility: 0.9998614192008972
","x: 261.9038391113281
y: 254.1763458251953
z: -0.14483317732810974
visibility: 0.9998538494110107
","x: 255.75662231445312
y: 253.9482421875
z: -0.14073844254016876
visibility: 0.9997716546058655
","x: 254.54701232910156
y: 254.17086791992188
z: -0.14074738323688507
visibility: 0.9997909069061279
","x: 253.3212432861328
y: 254.36097717285156
z: -0.1407223343849182
visibility: 0.9997646808624268
","x: 264.14617919921875
y: 257.67047119140625
z: -0.054498009383678436
visibility: 0.9998032450675964
","x: 251.5720672607422
y: 257.5934753417969
z: -0.03630468621850014
visibility: 0.9994397759437561
","x: 259.83502197265625
y: 265.01336669921875
z: -0.12596753239631653
visibility: 0.999920666217804
","x: 255.01239013671875
y: 265.301025390625
z: -0.12095121294260025
visibility: 0.9998776316642761
","x: 272.91888427734375
y: 285.8580322265625
z: -0.05202730745077133
visibility: 0.999971866607666
","x: 240.84140014648438
y: 292.0870056152344
z: 0.021850386634469032
visibility: 0.9999196529388428
","x: 266.9793395996094
y: 315.9640197753906
z: -0.1807452142238617
visibility: 0.9817668795585632
","x: 224.3500518798828
y: 315.3553466796875
z: -0.09449547529220581
visibility: 0.9530079960823059
","x: 243.5688934326172
y: 318.48626708984375
z: -0.34099042415618896
visibility: 0.9727446436882019
","x: 230.95791625976562
y: 321.29486083984375
z: -0.28718411922454834
visibility: 0.9539880156517029
","x: 238.9551239013672
y: 325.2514953613281
z: -0.38702157139778137
visibility: 0.9516994953155518
","x: 231.55023193359375
y: 327.1460266113281
z: -0.32967740297317505
visibility: 0.9157863259315491
","x: 236.02745056152344
y: 322.833251953125
z: -0.3878270387649536
visibility: 0.9529759883880615
","x: 234.60940551757812
y: 325.83953857421875
z: -0.3304346203804016
visibility: 0.9177566170692444
","x: 238.2337188720703
y: 320.40386962890625
z: -0.34485384821891785
visibility: 0.9330105185508728
","x: 234.7192840576172
y: 324.275634765625
z: -0.29312634468078613
visibility: 0.8949114680290222
","x: 270.4726257324219
y: 382.9417419433594
z: -0.0029365145601332188
visibility: 0.9999171495437622
","x: 247.35116577148438
y: 382.3799133300781
z: 0.0027618277817964554
visibility: 0.999932050704956
","x: 282.46478271484375
y: 450.9176330566406
z: -0.03579534590244293
visibility: 0.99845951795578
","x: 232.2861328125
y: 447.1138916015625
z: -0.026238733902573586
visibility: 0.9984952211380005
","x: 297.41241455078125
y: 511.6705322265625
z: 0.1267973631620407
visibility: 0.9983656406402588
","x: 218.152587890625
y: 504.7767333984375
z: 0.12010053545236588
visibility: 0.9980868697166443
","x: 295.5955810546875
y: 520.52783203125
z: 0.13780590891838074
visibility: 0.9474391341209412
","x: 219.49432373046875
y: 513.8345947265625
z: 0.12914712727069855
visibility: 0.9472149610519409
","x: 302.64825439453125
y: 531.9737548828125
z: 0.031090974807739258
visibility: 0.9954522848129272
","x: 211.3478546142578
y: 528.250732421875
z: 0.02121402882039547
visibility: 0.9951146245002747
",5.614494323730469,"x: 239.63116455078125
y: 313.6847839355469
z: 0.0
","x: 236.12628173828125
y: 317.07440185546875
z: 0.0006901594460941851
","x: 232.4296417236328
y: 322.0099182128906
z: -0.0016220301622524858
","x: 229.96774291992188
y: 326.1370849609375
z: -0.0043219649232923985
","x: 228.19418334960938
y: 330.1107177734375
z: -0.007054378744214773
","x: 231.18984985351562
y: 322.11285400390625
z: -0.008341868408024311
","x: 229.76063537597656
y: 332.4229736328125
z: -0.012826750986278057
","x: 230.08592224121094
y: 338.6650085449219
z: -0.014420194551348686
","x: 230.555419921875
y: 343.18011474609375
z: -0.015209289267659187
","x: 233.03517150878906
y: 321.41448974609375
z: -0.011194710619747639
","x: 231.90274047851562
y: 332.6559143066406
z: -0.016017913818359375
","x: 232.35977172851562
y: 339.92291259765625
z: -0.01639794372022152
","x: 232.9464111328125
y: 345.1183776855469
z: -0.01656859926879406
","x: 235.46572875976562
y: 321.013916015625
z: -0.01364659983664751
","x: 234.04498291015625
y: 331.1062316894531
z: -0.01764455996453762
","x: 234.30567932128906
y: 337.9552917480469
z: -0.016752222552895546
","x: 234.7350616455078
y: 342.7920227050781
z: -0.016136206686496735
","x: 238.13015747070312
y: 320.9961242675781
z: -0.015947410836815834
","x: 237.08480834960938
y: 328.46466064453125
z: -0.019059505313634872
","x: 236.7696533203125
y: 333.425048828125
z: -0.018641799688339233
","x: 236.78097534179688
y: 337.2047119140625
z: -0.0181781854480505
",,,,,,,,,,,,,,,,,,,,,
19,"x: 257.4779357910156
y: 258.0765075683594
z: -0.1597868800163269
visibility: 0.9999419450759888
","x: 259.3819274902344
y: 253.8856658935547
z: -0.14481942355632782
visibility: 0.9998255968093872
","x: 260.6268310546875
y: 254.0135040283203
z: -0.14484646916389465
visibility: 0.9998614192008972
","x: 261.9038391113281
y: 254.1763458251953
z: -0.14483317732810974
visibility: 0.9998538494110107
","x: 255.75662231445312
y: 253.9482421875
z: -0.14073844254016876
visibility: 0.9997716546058655
","x: 254.54701232910156
y: 254.17086791992188
z: -0.14074738323688507
visibility: 0.9997909069061279
","x: 253.3212432861328
y: 254.36097717285156
z: -0.1407223343849182
visibility: 0.9997646808624268
","x: 264.14617919921875
y: 257.67047119140625
z: -0.054498009383678436
visibility: 0.9998032450675964
","x: 251.5720672607422
y: 257.5934753417969
z: -0.03630468621850014
visibility: 0.9994397759437561
","x: 259.83502197265625
y: 265.01336669921875
z: -0.12596753239631653
visibility: 0.999920666217804
","x: 255.01239013671875
y: 265.301025390625
z: -0.12095121294260025
visibility: 0.9998776316642761
","x: 272.91888427734375
y: 285.8580322265625
z: -0.05202730745077133
visibility: 0.999971866607666
","x: 240.84140014648438
y: 292.0870056152344
z: 0.021850386634469032
visibility: 0.9999196529388428
","x: 266.9793395996094
y: 315.9640197753906
z: -0.1807452142238617
visibility: 0.9817668795585632
","x: 224.3500518798828
y: 315.3553466796875
z: -0.09449547529220581
visibility: 0.9530079960823059
","x: 243.5688934326172
y: 318.48626708984375
z: -0.34099042415618896
visibility: 0.9727446436882019
","x: 230.95791625976562
y: 321.29486083984375
z: -0.28718411922454834
visibility: 0.9539880156517029
","x: 238.9551239013672
y: 325.2514953613281
z: -0.38702157139778137
visibility: 0.9516994953155518
","x: 231.55023193359375
y: 327.1460266113281
z: -0.32967740297317505
visibility: 0.9157863259315491
","x: 236.02745056152344
y: 322.833251953125
z: -0.3878270387649536
visibility: 0.9529759883880615
","x: 234.60940551757812
y: 325.83953857421875
z: -0.3304346203804016
visibility: 0.9177566170692444
","x: 238.2337188720703
y: 320.40386962890625
z: -0.34485384821891785
visibility: 0.9330105185508728
","x: 234.7192840576172
y: 324.275634765625
z: -0.29312634468078613
visibility: 0.8949114680290222
","x: 270.4726257324219
y: 382.9417419433594
z: -0.0029365145601332188
visibility: 0.9999171495437622
","x: 247.35116577148438
y: 382.3799133300781
z: 0.0027618277817964554
visibility: 0.999932050704956
","x: 282.46478271484375
y: 450.9176330566406
z: -0.03579534590244293
visibility: 0.99845951795578
","x: 232.2861328125
y: 447.1138916015625
z: -0.026238733902573586
visibility: 0.9984952211380005
","x: 297.41241455078125
y: 511.6705322265625
z: 0.1267973631620407
visibility: 0.9983656406402588
","x: 218.152587890625
y: 504.7767333984375
z: 0.12010053545236588
visibility: 0.9980868697166443
","x: 295.5955810546875
y: 520.52783203125
z: 0.13780590891838074
visibility: 0.9474391341209412
","x: 219.49432373046875
y: 513.8345947265625
z: 0.12914712727069855
visibility: 0.9472149610519409
","x: 302.64825439453125
y: 531.9737548828125
z: 0.031090974807739258
visibility: 0.9954522848129272
","x: 211.3478546142578
y: 528.250732421875
z: 0.02121402882039547
visibility: 0.9951146245002747
",5.614494323730469,"x: 239.63116455078125
y: 313.6847839355469
z: 0.0
","x: 236.12628173828125
y: 317.07440185546875
z: 0.0006901594460941851
","x: 232.4296417236328
y: 322.0099182128906
z: -0.0016220301622524858
","x: 229.96774291992188
y: 326.1370849609375
z: -0.0043219649232923985
","x: 228.19418334960938
y: 330.1107177734375
z: -0.007054378744214773
","x: 231.18984985351562
y: 322.11285400390625
z: -0.008341868408024311
","x: 229.76063537597656
y: 332.4229736328125
z: -0.012826750986278057
","x: 230.08592224121094
y: 338.6650085449219
z: -0.014420194551348686
","x: 230.555419921875
y: 343.18011474609375
z: -0.015209289267659187
","x: 233.03517150878906
y: 321.41448974609375
z: -0.011194710619747639
","x: 231.90274047851562
y: 332.6559143066406
z: -0.016017913818359375
","x: 232.35977172851562
y: 339.92291259765625
z: -0.01639794372022152
","x: 232.9464111328125
y: 345.1183776855469
z: -0.01656859926879406
","x: 235.46572875976562
y: 321.013916015625
z: -0.01364659983664751
","x: 234.04498291015625
y: 331.1062316894531
z: -0.01764455996453762
","x: 234.30567932128906
y: 337.9552917480469
z: -0.016752222552895546
","x: 234.7350616455078
y: 342.7920227050781
z: -0.016136206686496735
","x: 238.13015747070312
y: 320.9961242675781
z: -0.015947410836815834
","x: 237.08480834960938
y: 328.46466064453125
z: -0.019059505313634872
","x: 236.7696533203125
y: 333.425048828125
z: -0.018641799688339233
","x: 236.78097534179688
y: 337.2047119140625
z: -0.0181781854480505
",,,,,,,,,,,,,,,,,,,,,
20,"x: 255.89231872558594
y: 275.4921875
z: -0.2971310317516327
visibility: 0.9999255537986755
","x: 258.248291015625
y: 271.732421875
z: -0.28736740350723267
visibility: 0.9997442364692688
","x: 259.57830810546875
y: 272.4728698730469
z: -0.28734031319618225
visibility: 0.9997868537902832
","x: 260.9427795410156
y: 273.1896667480469
z: -0.287330687046051
visibility: 0.9997608065605164
","x: 254.1721954345703
y: 270.19415283203125
z: -0.2884769141674042
visibility: 0.9996991157531738
","x: 252.8353271484375
y: 269.92376708984375
z: -0.28854459524154663
visibility: 0.9997332692146301
","x: 251.46600341796875
y: 269.57373046875
z: -0.2886106073856354
visibility: 0.9997095465660095
","x: 262.4022216796875
y: 275.7275695800781
z: -0.1974448710680008
visibility: 0.9995307922363281
","x: 248.79432678222656
y: 271.3964538574219
z: -0.20137503743171692
visibility: 0.9993066191673279
","x: 257.7184753417969
y: 283.18597412109375
z: -0.2596653997898102
visibility: 0.9998741745948792
","x: 252.77166748046875
y: 281.79547119140625
z: -0.26142412424087524
visibility: 0.9998480081558228
","x: 269.0343933105469
y: 303.6787109375
z: -0.13908566534519196
visibility: 0.9999626874923706
","x: 236.90524291992188
y: 302.61688232421875
z: -0.12570293247699738
visibility: 0.9999207258224487
","x: 257.8972473144531
y: 344.2745666503906
z: -0.14301535487174988
visibility: 0.9760919213294983
","x: 228.42495727539062
y: 343.3863525390625
z: -0.11922542750835419
visibility: 0.9542651176452637
","x: 241.86068725585938
y: 381.2478332519531
z: -0.21650464832782745
visibility: 0.9575701951980591
","x: 236.97726440429688
y: 375.9843444824219
z: -0.20955435931682587
visibility: 0.9493604898452759
","x: 239.68212890625
y: 395.8184509277344
z: -0.24735383689403534
visibility: 0.9318065047264099
","x: 242.03329467773438
y: 391.2340087890625
z: -0.2415369302034378
visibility: 0.9096047282218933
","x: 237.1112518310547
y: 395.04620361328125
z: -0.2643352150917053
visibility: 0.9334651231765747
","x: 245.67623901367188
y: 389.6461486816406
z: -0.2571537494659424
visibility: 0.9116094708442688
","x: 237.7135467529297
y: 389.6076965332031
z: -0.2248224914073944
visibility: 0.9090407490730286
","x: 245.01788330078125
y: 384.3453674316406
z: -0.21662680804729462
visibility: 0.8874980211257935
","x: 267.3309020996094
y: 394.781005859375
z: -0.005200501997023821
visibility: 0.9999091625213623
","x: 245.94068908691406
y: 395.6632995605469
z: 0.005006043706089258
visibility: 0.9999233484268188
","x: 279.8410339355469
y: 458.3245544433594
z: -0.023027773946523666
visibility: 0.998558759689331
","x: 230.89736938476562
y: 458.15142822265625
z: 0.013675970956683159
visibility: 0.9984742403030396
","x: 300.5477600097656
y: 507.4715881347656
z: 0.14318399131298065
visibility: 0.9984597563743591
","x: 217.1650390625
y: 509.4928283691406
z: 0.18716159462928772
visibility: 0.998106837272644
","x: 302.9987487792969
y: 512.6694946289062
z: 0.1540694385766983
visibility: 0.9460285902023315
","x: 218.09130859375
y: 517.3093872070312
z: 0.19995732605457306
visibility: 0.9463242292404175
","x: 302.16229248046875
y: 531.6113891601562
z: 0.044802553951740265
visibility: 0.9956648349761963
","x: 210.2519073486328
y: 529.30126953125
z: 0.10232033580541611
visibility: 0.9951575994491577
",5.755484580993652,,,,,,,,,,,,,,,,,,,,,,"x: 242.3402862548828
y: 381.45465087890625
z: 0.0
","x: 237.0706329345703
y: 391.29803466796875
z: -0.0003998314787168056
","x: 234.9393768310547
y: 402.96954345703125
z: -0.001523215090855956
","x: 235.5200653076172
y: 412.20245361328125
z: -0.0027420043479651213
","x: 236.86997985839844
y: 418.6935729980469
z: -0.003606804646551609
","x: 237.97927856445312
y: 405.2060241699219
z: -0.0036287070252001286
","x: 238.62322998046875
y: 415.4815673828125
z: -0.005730811040848494
","x: 239.37319946289062
y: 417.3079833984375
z: -0.005428923759609461
","x: 239.92465209960938
y: 416.70709228515625
z: -0.004701102152466774
","x: 242.63377380371094
y: 403.2002258300781
z: -0.004846674855798483
","x: 244.0080108642578
y: 412.9055480957031
z: -0.007010964676737785
","x: 244.94711303710938
y: 415.3108215332031
z: -0.006014762446284294
","x: 245.76458740234375
y: 415.9518737792969
z: -0.004983650986105204
","x: 246.7880401611328
y: 400.84783935546875
z: -0.006051431875675917
","x: 248.76084899902344
y: 409.842529296875
z: -0.008318383246660233
","x: 250.20152282714844
y: 413.4908447265625
z: -0.007333496119827032
","x: 251.5243682861328
y: 415.6575927734375
z: -0.006431416608393192
","x: 250.2165069580078
y: 398.07708740234375
z: -0.007318973075598478
","x: 252.32090759277344
y: 405.52581787109375
z: -0.009455734863877296
","x: 253.515380859375
y: 408.73822021484375
z: -0.009247328154742718
","x: 254.70382690429688
y: 411.348876953125
z: -0.008727474138140678
"
21,"x: 255.89231872558594
y: 275.4921875
z: -0.2971310317516327
visibility: 0.9999255537986755
","x: 258.248291015625
y: 271.732421875
z: -0.28736740350723267
visibility: 0.9997442364692688
","x: 259.57830810546875
y: 272.4728698730469
z: -0.28734031319618225
visibility: 0.9997868537902832
","x: 260.9427795410156
y: 273.1896667480469
z: -0.287330687046051
visibility: 0.9997608065605164
","x: 254.1721954345703
y: 270.19415283203125
z: -0.2884769141674042
visibility: 0.9996991157531738
","x: 252.8353271484375
y: 269.92376708984375
z: -0.28854459524154663
visibility: 0.9997332692146301
","x: 251.46600341796875
y: 269.57373046875
z: -0.2886106073856354
visibility: 0.9997095465660095
","x: 262.4022216796875
y: 275.7275695800781
z: -0.1974448710680008
visibility: 0.9995307922363281
","x: 248.79432678222656
y: 271.3964538574219
z: -0.20137503743171692
visibility: 0.9993066191673279
","x: 257.7184753417969
y: 283.18597412109375
z: -0.2596653997898102
visibility: 0.9998741745948792
","x: 252.77166748046875
y: 281.79547119140625
z: -0.26142412424087524
visibility: 0.9998480081558228
","x: 269.0343933105469
y: 303.6787109375
z: -0.13908566534519196
visibility: 0.9999626874923706
","x: 236.90524291992188
y: 302.61688232421875
z: -0.12570293247699738
visibility: 0.9999207258224487
","x: 257.8972473144531
y: 344.2745666503906
z: -0.14301535487174988
visibility: 0.9760919213294983
","x: 228.42495727539062
y: 343.3863525390625
z: -0.11922542750835419
visibility: 0.9542651176452637
","x: 241.86068725585938
y: 381.2478332519531
z: -0.21650464832782745
visibility: 0.9575701951980591
","x: 236.97726440429688
y: 375.9843444824219
z: -0.20955435931682587
visibility: 0.9493604898452759
","x: 239.68212890625
y: 395.8184509277344
z: -0.24735383689403534
visibility: 0.9318065047264099
","x: 242.03329467773438
y: 391.2340087890625
z: -0.2415369302034378
visibility: 0.9096047282218933
","x: 237.1112518310547
y: 395.04620361328125
z: -0.2643352150917053
visibility: 0.9334651231765747
","x: 245.67623901367188
y: 389.6461486816406
z: -0.2571537494659424
visibility: 0.9116094708442688
","x: 237.7135467529297
y: 389.6076965332031
z: -0.2248224914073944
visibility: 0.9090407490730286
","x: 245.01788330078125
y: 384.3453674316406
z: -0.21662680804729462
visibility: 0.8874980211257935
","x: 267.3309020996094
y: 394.781005859375
z: -0.005200501997023821
visibility: 0.9999091625213623
","x: 245.94068908691406
y: 395.6632995605469
z: 0.005006043706089258
visibility: 0.9999233484268188
","x: 279.8410339355469
y: 458.3245544433594
z: -0.023027773946523666
visibility: 0.998558759689331
","x: 230.89736938476562
y: 458.15142822265625
z: 0.013675970956683159
visibility: 0.9984742403030396
","x: 300.5477600097656
y: 507.4715881347656
z: 0.14318399131298065
visibility: 0.9984597563743591
","x: 217.1650390625
y: 509.4928283691406
z: 0.18716159462928772
visibility: 0.998106837272644
","x: 302.9987487792969
y: 512.6694946289062
z: 0.1540694385766983
visibility: 0.9460285902023315
","x: 218.09130859375
y: 517.3093872070312
z: 0.19995732605457306
visibility: 0.9463242292404175
","x: 302.16229248046875
y: 531.6113891601562
z: 0.044802553951740265
visibility: 0.9956648349761963
","x: 210.2519073486328
y: 529.30126953125
z: 0.10232033580541611
visibility: 0.9951575994491577
",5.755484580993652,,,,,,,,,,,,,,,,,,,,,,"x: 242.3402862548828
y: 381.45465087890625
z: 0.0
","x: 237.0706329345703
y: 391.29803466796875
z: -0.0003998314787168056
","x: 234.9393768310547
y: 402.96954345703125
z: -0.001523215090855956
","x: 235.5200653076172
y: 412.20245361328125
z: -0.0027420043479651213
","x: 236.86997985839844
y: 418.6935729980469
z: -0.003606804646551609
","x: 237.97927856445312
y: 405.2060241699219
z: -0.0036287070252001286
","x: 238.62322998046875
y: 415.4815673828125
z: -0.005730811040848494
","x: 239.37319946289062
y: 417.3079833984375
z: -0.005428923759609461
","x: 239.92465209960938
y: 416.70709228515625
z: -0.004701102152466774
","x: 242.63377380371094
y: 403.2002258300781
z: -0.004846674855798483
","x: 244.0080108642578
y: 412.9055480957031
z: -0.007010964676737785
","x: 244.94711303710938
y: 415.3108215332031
z: -0.006014762446284294
","x: 245.76458740234375
y: 415.9518737792969
z: -0.004983650986105204
","x: 246.7880401611328
y: 400.84783935546875
z: -0.006051431875675917
","x: 248.76084899902344
y: 409.842529296875
z: -0.008318383246660233
","x: 250.20152282714844
y: 413.4908447265625
z: -0.007333496119827032
","x: 251.5243682861328
y: 415.6575927734375
z: -0.006431416608393192
","x: 250.2165069580078
y: 398.07708740234375
z: -0.007318973075598478
","x: 252.32090759277344
y: 405.52581787109375
z: -0.009455734863877296
","x: 253.515380859375
y: 408.73822021484375
z: -0.009247328154742718
","x: 254.70382690429688
y: 411.348876953125
z: -0.008727474138140678
"
22,"x: 255.89231872558594
y: 275.4921875
z: -0.2971310317516327
visibility: 0.9999255537986755
","x: 258.248291015625
y: 271.732421875
z: -0.28736740350723267
visibility: 0.9997442364692688
","x: 259.57830810546875
y: 272.4728698730469
z: -0.28734031319618225
visibility: 0.9997868537902832
","x: 260.9427795410156
y: 273.1896667480469
z: -0.287330687046051
visibility: 0.9997608065605164
","x: 254.1721954345703
y: 270.19415283203125
z: -0.2884769141674042
visibility: 0.9996991157531738
","x: 252.8353271484375
y: 269.92376708984375
z: -0.28854459524154663
visibility: 0.9997332692146301
","x: 251.46600341796875
y: 269.57373046875
z: -0.2886106073856354
visibility: 0.9997095465660095
","x: 262.4022216796875
y: 275.7275695800781
z: -0.1974448710680008
visibility: 0.9995307922363281
","x: 248.79432678222656
y: 271.3964538574219
z: -0.20137503743171692
visibility: 0.9993066191673279
","x: 257.7184753417969
y: 283.18597412109375
z: -0.2596653997898102
visibility: 0.9998741745948792
","x: 252.77166748046875
y: 281.79547119140625
z: -0.26142412424087524
visibility: 0.9998480081558228
","x: 269.0343933105469
y: 303.6787109375
z: -0.13908566534519196
visibility: 0.9999626874923706
","x: 236.90524291992188
y: 302.61688232421875
z: -0.12570293247699738
visibility: 0.9999207258224487
","x: 257.8972473144531
y: 344.2745666503906
z: -0.14301535487174988
visibility: 0.9760919213294983
","x: 228.42495727539062
y: 343.3863525390625
z: -0.11922542750835419
visibility: 0.9542651176452637
","x: 241.86068725585938
y: 381.2478332519531
z: -0.21650464832782745
visibility: 0.9575701951980591
","x: 236.97726440429688
y: 375.9843444824219
z: -0.20955435931682587
visibility: 0.9493604898452759
","x: 239.68212890625
y: 395.8184509277344
z: -0.24735383689403534
visibility: 0.9318065047264099
","x: 242.03329467773438
y: 391.2340087890625
z: -0.2415369302034378
visibility: 0.9096047282218933
","x: 237.1112518310547
y: 395.04620361328125
z: -0.2643352150917053
visibility: 0.9334651231765747
","x: 245.67623901367188
y: 389.6461486816406
z: -0.2571537494659424
visibility: 0.9116094708442688
","x: 237.7135467529297
y: 389.6076965332031
z: -0.2248224914073944
visibility: 0.9090407490730286
","x: 245.01788330078125
y: 384.3453674316406
z: -0.21662680804729462
visibility: 0.8874980211257935
","x: 267.3309020996094
y: 394.781005859375
z: -0.005200501997023821
visibility: 0.9999091625213623
","x: 245.94068908691406
y: 395.6632995605469
z: 0.005006043706089258
visibility: 0.9999233484268188
","x: 279.8410339355469
y: 458.3245544433594
z: -0.023027773946523666
visibility: 0.998558759689331
","x: 230.89736938476562
y: 458.15142822265625
z: 0.013675970956683159
visibility: 0.9984742403030396
","x: 300.5477600097656
y: 507.4715881347656
z: 0.14318399131298065
visibility: 0.9984597563743591
","x: 217.1650390625
y: 509.4928283691406
z: 0.18716159462928772
visibility: 0.998106837272644
","x: 302.9987487792969
y: 512.6694946289062
z: 0.1540694385766983
visibility: 0.9460285902023315
","x: 218.09130859375
y: 517.3093872070312
z: 0.19995732605457306
visibility: 0.9463242292404175
","x: 302.16229248046875
y: 531.6113891601562
z: 0.044802553951740265
visibility: 0.9956648349761963
","x: 210.2519073486328
y: 529.30126953125
z: 0.10232033580541611
visibility: 0.9951575994491577
",5.755484580993652,,,,,,,,,,,,,,,,,,,,,,"x: 242.3402862548828
y: 381.45465087890625
z: 0.0
","x: 237.0706329345703
y: 391.29803466796875
z: -0.0003998314787168056
","x: 234.9393768310547
y: 402.96954345703125
z: -0.001523215090855956
","x: 235.5200653076172
y: 412.20245361328125
z: -0.0027420043479651213
","x: 236.86997985839844
y: 418.6935729980469
z: -0.003606804646551609
","x: 237.97927856445312
y: 405.2060241699219
z: -0.0036287070252001286
","x: 238.62322998046875
y: 415.4815673828125
z: -0.005730811040848494
","x: 239.37319946289062
y: 417.3079833984375
z: -0.005428923759609461
","x: 239.92465209960938
y: 416.70709228515625
z: -0.004701102152466774
","x: 242.63377380371094
y: 403.2002258300781
z: -0.004846674855798483
","x: 244.0080108642578
y: 412.9055480957031
z: -0.007010964676737785
","x: 244.94711303710938
y: 415.3108215332031
z: -0.006014762446284294
","x: 245.76458740234375
y: 415.9518737792969
z: -0.004983650986105204
","x: 246.7880401611328
y: 400.84783935546875
z: -0.006051431875675917
","x: 248.76084899902344
y: 409.842529296875
z: -0.008318383246660233
","x: 250.20152282714844
y: 413.4908447265625
z: -0.007333496119827032
","x: 251.5243682861328
y: 415.6575927734375
z: -0.006431416608393192
","x: 250.2165069580078
y: 398.07708740234375
z: -0.007318973075598478
","x: 252.32090759277344
y: 405.52581787109375
z: -0.009455734863877296
","x: 253.515380859375
y: 408.73822021484375
z: -0.009247328154742718
","x: 254.70382690429688
y: 411.348876953125
z: -0.008727474138140678
"
23,"x: 254.37672424316406
y: 295.18353271484375
z: -0.4232516288757324
visibility: 0.9999257922172546
","x: 256.70556640625
y: 287.2288818359375
z: -0.41747912764549255
visibility: 0.9997360706329346
","x: 258.0999755859375
y: 287.41900634765625
z: -0.41745853424072266
visibility: 0.9997801780700684
","x: 259.489501953125
y: 287.72772216796875
z: -0.41748708486557007
visibility: 0.9997543692588806
","x: 252.87156677246094
y: 287.0335693359375
z: -0.41451483964920044
visibility: 0.9996923804283142
","x: 251.6756591796875
y: 287.11785888671875
z: -0.4146200716495514
visibility: 0.9997277855873108
","x: 250.41262817382812
y: 287.23101806640625
z: -0.41469892859458923
visibility: 0.9997073411941528
","x: 261.5078430175781
y: 289.987060546875
z: -0.3324430286884308
visibility: 0.9994741082191467
","x: 248.04685974121094
y: 288.9996643066406
z: -0.3184469938278198
visibility: 0.9992985725402832
","x: 256.3298645019531
y: 301.71124267578125
z: -0.38694629073143005
visibility: 0.9998711943626404
","x: 251.64682006835938
y: 302.17608642578125
z: -0.3832583725452423
visibility: 0.9998504519462585
","x: 270.9422607421875
y: 319.4994812011719
z: -0.25431203842163086
visibility: 0.9999644756317139
","x: 237.7337646484375
y: 315.5649108886719
z: -0.22733613848686218
visibility: 0.9999274611473083
","x: 266.3183898925781
y: 369.0079345703125
z: -0.2505245804786682
visibility: 0.9769477844238281
","x: 237.16357421875
y: 368.4999084472656
z: -0.20276816189289093
visibility: 0.9573113322257996
","x: 249.39988708496094
y: 415.99261474609375
z: -0.3155534565448761
visibility: 0.9581471681594849
","x: 248.6395721435547
y: 411.1543273925781
z: -0.26392731070518494
visibility: 0.949724018573761
","x: 249.56568908691406
y: 433.4757080078125
z: -0.34584420919418335
visibility: 0.9314230680465698
","x: 251.42140197753906
y: 425.7772521972656
z: -0.29214340448379517
visibility: 0.9095262885093689
","x: 241.95533752441406
y: 433.1601257324219
z: -0.36743712425231934
visibility: 0.9330825805664062
","x: 254.90171813964844
y: 426.8257141113281
z: -0.3143581748008728
visibility: 0.911500871181488
","x: 240.86563110351562
y: 426.91033935546875
z: -0.3247106671333313
visibility: 0.9080633521080017
","x: 254.489990234375
y: 420.96356201171875
z: -0.2729378640651703
visibility: 0.8873540759086609
","x: 266.9288635253906
y: 401.6854553222656
z: -0.005281697027385235
visibility: 0.9999091029167175
","x: 245.48329162597656
y: 400.5178527832031
z: 0.005090125370770693
visibility: 0.9999271631240845
","x: 278.7991638183594
y: 462.7479248046875
z: 0.017406096681952477
visibility: 0.998443603515625
","x: 231.9616241455078
y: 462.5378723144531
z: -0.0555168017745018
visibility: 0.9984533190727234
","x: 300.11907958984375
y: 508.41693115234375
z: 0.19583763182163239
visibility: 0.998367965221405
","x: 217.40223693847656
y: 511.5220642089844
z: 0.09217436611652374
visibility: 0.9980121850967407
","x: 301.6488342285156
y: 512.827392578125
z: 0.20760615170001984
visibility: 0.942231297492981
","x: 217.25906372070312
y: 518.8699951171875
z: 0.10237649828195572
visibility: 0.9423249959945679
","x: 302.782470703125
y: 531.564208984375
z: 0.10159926116466522
visibility: 0.9953904151916504
","x: 211.12274169921875
y: 529.2337646484375
z: -0.0056575024500489235
visibility: 0.9950639009475708
",5.865767002105713,,,,,,,,,,,,,,,,,,,,,,,,,,,,,,,,,,,,,,,,,,
24,"x: 254.37672424316406
y: 295.18353271484375
z: -0.4232516288757324
visibility: 0.9999257922172546
","x: 256.70556640625
y: 287.2288818359375
z: -0.41747912764549255
visibility: 0.9997360706329346
","x: 258.0999755859375
y: 287.41900634765625
z: -0.41745853424072266
visibility: 0.9997801780700684
","x: 259.489501953125
y: 287.72772216796875
z: -0.41748708486557007
visibility: 0.9997543692588806
","x: 252.87156677246094
y: 287.0335693359375
z: -0.41451483964920044
visibility: 0.9996923804283142
","x: 251.6756591796875
y: 287.11785888671875
z: -0.4146200716495514
visibility: 0.9997277855873108
","x: 250.41262817382812
y: 287.23101806640625
z: -0.41469892859458923
visibility: 0.9997073411941528
","x: 261.5078430175781
y: 289.987060546875
z: -0.3324430286884308
visibility: 0.9994741082191467
","x: 248.04685974121094
y: 288.9996643066406
z: -0.3184469938278198
visibility: 0.9992985725402832
","x: 256.3298645019531
y: 301.71124267578125
z: -0.38694629073143005
visibility: 0.9998711943626404
","x: 251.64682006835938
y: 302.17608642578125
z: -0.3832583725452423
visibility: 0.9998504519462585
","x: 270.9422607421875
y: 319.4994812011719
z: -0.25431203842163086
visibility: 0.9999644756317139
","x: 237.7337646484375
y: 315.5649108886719
z: -0.22733613848686218
visibility: 0.9999274611473083
","x: 266.3183898925781
y: 369.0079345703125
z: -0.2505245804786682
visibility: 0.9769477844238281
","x: 237.16357421875
y: 368.4999084472656
z: -0.20276816189289093
visibility: 0.9573113322257996
","x: 249.39988708496094
y: 415.99261474609375
z: -0.3155534565448761
visibility: 0.9581471681594849
","x: 248.6395721435547
y: 411.1543273925781
z: -0.26392731070518494
visibility: 0.949724018573761
","x: 249.56568908691406
y: 433.4757080078125
z: -0.34584420919418335
visibility: 0.9314230680465698
","x: 251.42140197753906
y: 425.7772521972656
z: -0.29214340448379517
visibility: 0.9095262885093689
","x: 241.95533752441406
y: 433.1601257324219
z: -0.36743712425231934
visibility: 0.9330825805664062
","x: 254.90171813964844
y: 426.8257141113281
z: -0.3143581748008728
visibility: 0.911500871181488
","x: 240.86563110351562
y: 426.91033935546875
z: -0.3247106671333313
visibility: 0.9080633521080017
","x: 254.489990234375
y: 420.96356201171875
z: -0.2729378640651703
visibility: 0.8873540759086609
","x: 266.9288635253906
y: 401.6854553222656
z: -0.005281697027385235
visibility: 0.9999091029167175
","x: 245.48329162597656
y: 400.5178527832031
z: 0.005090125370770693
visibility: 0.9999271631240845
","x: 278.7991638183594
y: 462.7479248046875
z: 0.017406096681952477
visibility: 0.998443603515625
","x: 231.9616241455078
y: 462.5378723144531
z: -0.0555168017745018
visibility: 0.9984533190727234
","x: 300.11907958984375
y: 508.41693115234375
z: 0.19583763182163239
visibility: 0.998367965221405
","x: 217.40223693847656
y: 511.5220642089844
z: 0.09217436611652374
visibility: 0.9980121850967407
","x: 301.6488342285156
y: 512.827392578125
z: 0.20760615170001984
visibility: 0.942231297492981
","x: 217.25906372070312
y: 518.8699951171875
z: 0.10237649828195572
visibility: 0.9423249959945679
","x: 302.782470703125
y: 531.564208984375
z: 0.10159926116466522
visibility: 0.9953904151916504
","x: 211.12274169921875
y: 529.2337646484375
z: -0.0056575024500489235
visibility: 0.9950639009475708
",5.865767002105713,,,,,,,,,,,,,,,,,,,,,,,,,,,,,,,,,,,,,,,,,,
25,"x: 258.70062255859375
y: 286.4747314453125
z: -0.3616809546947479
visibility: 0.9999326467514038
","x: 260.337890625
y: 281.8447265625
z: -0.3490602970123291
visibility: 0.9997603893280029
","x: 261.6581115722656
y: 282.1319885253906
z: -0.34904634952545166
visibility: 0.9998001456260681
","x: 262.8898620605469
y: 282.4245910644531
z: -0.3490547835826874
visibility: 0.9997768402099609
","x: 256.8302001953125
y: 281.8628234863281
z: -0.3500362038612366
visibility: 0.9997210502624512
","x: 255.6442108154297
y: 282.2774658203125
z: -0.3501247763633728
visibility: 0.9997530579566956
","x: 254.34800720214844
y: 282.6893310546875
z: -0.3501715660095215
visibility: 0.9997348785400391
","x: 264.88623046875
y: 286.11773681640625
z: -0.25913989543914795
visibility: 0.9995205402374268
","x: 251.83370971679688
y: 286.16546630859375
z: -0.26266738772392273
visibility: 0.99936443567276
","x: 260.783203125
y: 293.65008544921875
z: -0.3267347514629364
visibility: 0.9998831748962402
","x: 256.6063537597656
y: 294.32366943359375
z: -0.3279919922351837
visibility: 0.9998645782470703
","x: 276.6083068847656
y: 322.2969970703125
z: -0.1946878731250763
visibility: 0.9999670386314392
","x: 239.02804565429688
y: 319.9172058105469
z: -0.19897940754890442
visibility: 0.9999334216117859
","x: 280.5773620605469
y: 368.7646179199219
z: -0.2406618893146515
visibility: 0.9785712361335754
","x: 239.8154754638672
y: 372.4299621582031
z: -0.1896219253540039
visibility: 0.9608847498893738
","x: 277.9828796386719
y: 409.85162353515625
z: -0.28562527894973755
visibility: 0.9605797529220581
","x: 249.52734375
y: 416.2379455566406
z: -0.2608061730861664
visibility: 0.9525775909423828
","x: 277.79486083984375
y: 424.26806640625
z: -0.3181292712688446
visibility: 0.9343898296356201
","x: 251.91761779785156
y: 431.0504455566406
z: -0.2929055988788605
visibility: 0.9137954711914062
","x: 274.2158203125
y: 422.8984069824219
z: -0.3421071171760559
visibility: 0.9360756278038025
","x: 255.77084350585938
y: 430.84393310546875
z: -0.3130419850349426
visibility: 0.9156155586242676
","x: 273.3150939941406
y: 418.1753845214844
z: -0.29709142446517944
visibility: 0.9121702909469604
