uscmakers/ReverseChoreography/data/10_the_saints_andy_mineo.csv
,NOSE,LEFT_EYE_INNER,LEFT_EYE,LEFT_EYE_OUTER,RIGHT_EYE_INNER,RIGHT_EYE,RIGHT_EYE_OUTER,LEFT_EAR,RIGHT_EAR,MOUTH_LEFT,MOUTH_RIGHT,LEFT_SHOULDER,RIGHT_SHOULDER,LEFT_ELBOW,RIGHT_ELBOW,LEFT_WRIST,RIGHT_WRIST,LEFT_PINKY,RIGHT_PINKY,LEFT_INDEX,RIGHT_INDEX,LEFT_THUMB,RIGHT_THUMB,LEFT_HIP,RIGHT_HIP,LEFT_KNEE,RIGHT_KNEE,LEFT_ANKLE,RIGHT_ANKLE,LEFT_HEEL,RIGHT_HEEL,LEFT_FOOT_INDEX,RIGHT_FOOT_INDEX,TIMESTAMP,WRIST2,THUMB_CPC2,THUMB_MCP2,THUMB_IP2,THUMB_TIP2,INDEX_FINGER_MCP2,INDEX_FINGER_PIP2,INDEX_FINGER_DIP2,INDEX_FINGER_TIP2,MIDDLE_FINGER_MCP2,MIDDLE_FINGER_PIP2,MIDDLE_FINGER_DIP2,MIDDLE_FINGER_TIP2,RING_FINGER_PIP2,RING_FINGER_DIP2,RING_FINGER_TIP2,RING_FINGER_MCP2,PINKY_MCP2,PINKY_PIP2,PINKY_DIP2,PINKY_TIP2,WRIST,THUMB_CPC,THUMB_MCP,THUMB_IP,THUMB_TIP,INDEX_FINGER_MCP,INDEX_FINGER_PIP,INDEX_FINGER_DIP,INDEX_FINGER_TIP,MIDDLE_FINGER_MCP,MIDDLE_FINGER_PIP,MIDDLE_FINGER_DIP,MIDDLE_FINGER_TIP,RING_FINGER_PIP,RING_FINGER_DIP,RING_FINGER_TIP,RING_FINGER_MCP,PINKY_MCP,PINKY_PIP,PINKY_DIP,PINKY_TIP
0,"x: 293.60504150390625
y: 260.30926513671875
z: -0.17922042310237885
visibility: 0.9999830722808838
","x: 295.7063293457031
y: 256.3995666503906
z: -0.16529123485088348
visibility: 0.999919056892395
","x: 296.7099609375
y: 256.8033752441406
z: -0.16525597870349884
visibility: 0.9999227523803711
","x: 297.73492431640625
y: 257.10528564453125
z: -0.16524307429790497
visibility: 0.9999146461486816
","x: 292.6693420410156
y: 255.29415893554688
z: -0.16536837816238403
visibility: 0.9999505281448364
","x: 291.5895690917969
y: 255.13084411621094
z: -0.1653696596622467
visibility: 0.9999562501907349
","x: 290.52264404296875
y: 254.99208068847656
z: -0.16535183787345886
visibility: 0.999963641166687
","x: 298.80706787109375
y: 259.5867919921875
z: -0.0828259140253067
visibility: 0.9998574256896973
","x: 288.4335021972656
y: 257.46820068359375
z: -0.0818210244178772
visibility: 0.9999502897262573
","x: 295.0400390625
y: 266.84869384765625
z: -0.14800474047660828
visibility: 0.9999164342880249
","x: 291.140625
y: 265.6380615234375
z: -0.14797087013721466
visibility: 0.9999512434005737
","x: 305.366455078125
y: 283.7435302734375
z: -0.0537966713309288
visibility: 0.9998295307159424
","x: 277.31573486328125
y: 288.60986328125
z: -0.0030374121852219105
visibility: 0.9999126195907593
","x: 318.30072021484375
y: 268.8814697265625
z: -0.1409667730331421
visibility: 0.998065173625946
","x: 268.5255432128906
y: 323.7768859863281
z: 0.04737447202205658
visibility: 0.9846535325050354
","x: 305.25067138671875
y: 245.2534637451172
z: -0.2521899938583374
visibility: 0.9891469478607178
","x: 267.35296630859375
y: 358.2823486328125
z: 0.014677213504910469
visibility: 0.9810725450515747
","x: 301.5370178222656
y: 237.6154327392578
z: -0.28157204389572144
visibility: 0.9553949236869812
","x: 266.8406677246094
y: 371.5166931152344
z: 0.004627082496881485
visibility: 0.949026882648468
","x: 300.32427978515625
y: 238.88427734375
z: -0.27387917041778564
visibility: 0.9479206800460815
","x: 268.537353515625
y: 371.51873779296875
z: -0.01375418622046709
visibility: 0.9514022469520569
","x: 301.1182861328125
y: 242.8876495361328
z: -0.25304198265075684
visibility: 0.9310861825942993
","x: 269.2996826171875
y: 367.5811767578125
z: 0.0074995094910264015
visibility: 0.9383129477500916
","x: 299.83734130859375
y: 363.68939208984375
z: -0.02065066248178482
visibility: 0.9995524287223816
","x: 280.6788330078125
y: 363.55426025390625
z: 0.020558902993798256
visibility: 0.9996986389160156
","x: 302.67535400390625
y: 428.039306640625
z: -0.03165822848677635
visibility: 0.9972473978996277
","x: 277.4575500488281
y: 427.73846435546875
z: 0.011432426981627941
visibility: 0.9967250227928162
","x: 308.96807861328125
y: 483.3858642578125
z: 0.04969095438718796
visibility: 0.9959774613380432
","x: 270.0234375
y: 488.5682678222656
z: 0.08421362191438675
visibility: 0.9959957599639893
","x: 310.49554443359375
y: 491.0592346191406
z: 0.05186713486909866
visibility: 0.8213314414024353
","x: 270.8603210449219
y: 497.3134765625
z: 0.08559151738882065
visibility: 0.9367857575416565
","x: 302.9937744140625
y: 503.14447021484375
z: -0.054110459983348846
visibility: 0.9914003610610962
","x: 264.74554443359375
y: 503.34527587890625
z: -0.00979577749967575
visibility: 0.99222731590271
",3.590101718902588,,,,,,,,,,,,,,,,,,,,,,,,,,,,,,,,,,,,,,,,,,
1,"x: 293.60504150390625
y: 260.30926513671875
z: -0.17922042310237885
visibility: 0.9999830722808838
","x: 295.7063293457031
y: 256.3995666503906
z: -0.16529123485088348
visibility: 0.999919056892395
","x: 296.7099609375
y: 256.8033752441406
z: -0.16525597870349884
visibility: 0.9999227523803711
","x: 297.73492431640625
y: 257.10528564453125
z: -0.16524307429790497
visibility: 0.9999146461486816
","x: 292.6693420410156
y: 255.29415893554688
z: -0.16536837816238403
visibility: 0.9999505281448364
","x: 291.5895690917969
y: 255.13084411621094
z: -0.1653696596622467
visibility: 0.9999562501907349
","x: 290.52264404296875
y: 254.99208068847656
z: -0.16535183787345886
visibility: 0.999963641166687
","x: 298.80706787109375
y: 259.5867919921875
z: -0.0828259140253067
visibility: 0.9998574256896973
","x: 288.4335021972656
y: 257.46820068359375
z: -0.0818210244178772
visibility: 0.9999502897262573
","x: 295.0400390625
y: 266.84869384765625
z: -0.14800474047660828
visibility: 0.9999164342880249
","x: 291.140625
y: 265.6380615234375
z: -0.14797087013721466
visibility: 0.9999512434005737
","x: 305.366455078125
y: 283.7435302734375
z: -0.0537966713309288
visibility: 0.9998295307159424
","x: 277.31573486328125
y: 288.60986328125
z: -0.0030374121852219105
visibility: 0.9999126195907593
","x: 318.30072021484375
y: 268.8814697265625
z: -0.1409667730331421
visibility: 0.998065173625946
","x: 268.5255432128906
y: 323.7768859863281
z: 0.04737447202205658
visibility: 0.9846535325050354
","x: 305.25067138671875
y: 245.2534637451172
z: -0.2521899938583374
visibility: 0.9891469478607178
","x: 267.35296630859375
y: 358.2823486328125
z: 0.014677213504910469
visibility: 0.9810725450515747
","x: 301.5370178222656
y: 237.6154327392578
z: -0.28157204389572144
visibility: 0.9553949236869812
","x: 266.8406677246094
y: 371.5166931152344
z: 0.004627082496881485
visibility: 0.949026882648468
","x: 300.32427978515625
y: 238.88427734375
z: -0.27387917041778564
visibility: 0.9479206800460815
","x: 268.537353515625
y: 371.51873779296875
z: -0.01375418622046709
visibility: 0.9514022469520569
","x: 301.1182861328125
y: 242.8876495361328
z: -0.25304198265075684
visibility: 0.9310861825942993
","x: 269.2996826171875
y: 367.5811767578125
z: 0.0074995094910264015
visibility: 0.9383129477500916
","x: 299.83734130859375
y: 363.68939208984375
z: -0.02065066248178482
visibility: 0.9995524287223816
","x: 280.6788330078125
y: 363.55426025390625
z: 0.020558902993798256
visibility: 0.9996986389160156
","x: 302.67535400390625
y: 428.039306640625
z: -0.03165822848677635
visibility: 0.9972473978996277
","x: 277.4575500488281
y: 427.73846435546875
z: 0.011432426981627941
visibility: 0.9967250227928162
","x: 308.96807861328125
y: 483.3858642578125
z: 0.04969095438718796
visibility: 0.9959774613380432
","x: 270.0234375
y: 488.5682678222656
z: 0.08421362191438675
visibility: 0.9959957599639893
","x: 310.49554443359375
y: 491.0592346191406
z: 0.05186713486909866
visibility: 0.8213314414024353
","x: 270.8603210449219
y: 497.3134765625
z: 0.08559151738882065
visibility: 0.9367857575416565
","x: 302.9937744140625
y: 503.14447021484375
z: -0.054110459983348846
visibility: 0.9914003610610962
","x: 264.74554443359375
y: 503.34527587890625
z: -0.00979577749967575
visibility: 0.99222731590271
",3.590101718902588,,,,,,,,,,,,,,,,,,,,,,,,,,,,,,,,,,,,,,,,,,
2,"x: 287.2006530761719
y: 257.4215393066406
z: -0.12240797281265259
visibility: 0.9999814629554749
","x: 288.3091735839844
y: 252.6943359375
z: -0.10847489535808563
visibility: 0.999919593334198
","x: 289.46502685546875
y: 252.8447723388672
z: -0.10853265225887299
visibility: 0.9999222159385681
","x: 290.69012451171875
y: 253.02407836914062
z: -0.10856852680444717
visibility: 0.9999154210090637
","x: 285.32275390625
y: 252.93911743164062
z: -0.10868613421916962
visibility: 0.9999468326568604
","x: 284.1513366699219
y: 253.25462341308594
z: -0.1086757630109787
visibility: 0.9999495148658752
","x: 282.865966796875
y: 253.59091186523438
z: -0.10866019874811172
visibility: 0.9999567270278931
","x: 292.63006591796875
y: 255.96762084960938
z: -0.02770913764834404
visibility: 0.9998596906661987
","x: 280.9732666015625
y: 256.84259033203125
z: -0.028244053944945335
visibility: 0.9999389052391052
","x: 289.2004699707031
y: 263.2796936035156
z: -0.09260277450084686
visibility: 0.9999198317527771
","x: 285.37994384765625
y: 263.2501220703125
z: -0.09271284192800522
visibility: 0.9999500513076782
","x: 301.5187683105469
y: 282.79351806640625
z: 0.004782269708812237
visibility: 0.9998424053192139
","x: 272.408935546875
y: 287.8070983886719
z: 0.02593144401907921
visibility: 0.9998990297317505
","x: 311.9435119628906
y: 305.1376647949219
z: -0.04784879833459854
visibility: 0.9908004999160767
","x: 264.51116943359375
y: 320.3426818847656
z: 0.037088505923748016
visibility: 0.9745917916297913
","x: 315.0795593261719
y: 315.2172546386719
z: -0.21210570633411407
visibility: 0.9814550280570984
","x: 261.93072509765625
y: 342.2860107421875
z: -0.042926229536533356
visibility: 0.9631326794624329
","x: 317.77484130859375
y: 317.2550048828125
z: -0.24746985733509064
visibility: 0.9477527737617493
","x: 261.25445556640625
y: 349.24969482421875
z: -0.06451472640037537
visibility: 0.9260149002075195
","x: 315.1846923828125
y: 316.03643798828125
z: -0.26686444878578186
visibility: 0.9423694610595703
","x: 262.5007629394531
y: 347.61114501953125
z: -0.08280641585588455
visibility: 0.9299177527427673
","x: 314.7597351074219
y: 316.9400634765625
z: -0.22491297125816345
visibility: 0.9248080849647522
","x: 264.4029541015625
y: 344.22369384765625
z: -0.052607856690883636
visibility: 0.9166513085365295
","x: 296.6234436035156
y: 363.8086242675781
z: -0.008909637108445168
visibility: 0.9995706081390381
","x: 277.17767333984375
y: 365.385009765625
z: 0.009012939408421516
visibility: 0.9996914863586426
","x: 295.6150817871094
y: 429.9908142089844
z: -0.03271046653389931
visibility: 0.9967010021209717
","x: 274.5252990722656
y: 432.1610107421875
z: -0.010432221926748753
visibility: 0.9963863492012024
","x: 294.6755065917969
y: 485.242431640625
z: 0.06435982882976532
visibility: 0.9955583214759827
","x: 270.04913330078125
y: 488.003662109375
z: 0.08831444382667542
visibility: 0.9957702159881592
","x: 292.53570556640625
y: 493.2519836425781
z: 0.06839892268180847
visibility: 0.8302615284919739
","x: 270.93792724609375
y: 495.8586120605469
z: 0.09174438565969467
visibility: 0.9341864585876465
","x: 298.19757080078125
y: 506.25201416015625
z: -0.03351827710866928
visibility: 0.9909253716468811
","x: 264.8660888671875
y: 505.13323974609375
z: -0.006384667940437794
visibility: 0.9918272495269775
",4.180457592010498,,,,,,,,,,,,,,,,,,,,,,,,,,,,,,,,,,,,,,,,,,
3,"x: 287.2006530761719
y: 257.4215393066406
z: -0.12240797281265259
visibility: 0.9999814629554749
","x: 288.3091735839844
y: 252.6943359375
z: -0.10847489535808563
visibility: 0.999919593334198
","x: 289.46502685546875
y: 252.8447723388672
z: -0.10853265225887299
visibility: 0.9999222159385681
","x: 290.69012451171875
y: 253.02407836914062
z: -0.10856852680444717
visibility: 0.9999154210090637
","x: 285.32275390625
y: 252.93911743164062
z: -0.10868613421916962
visibility: 0.9999468326568604
","x: 284.1513366699219
y: 253.25462341308594
z: -0.1086757630109787
visibility: 0.9999495148658752
","x: 282.865966796875
y: 253.59091186523438
z: -0.10866019874811172
visibility: 0.9999567270278931
","x: 292.63006591796875
y: 255.96762084960938
z: -0.02770913764834404
visibility: 0.9998596906661987
","x: 280.9732666015625
y: 256.84259033203125
z: -0.028244053944945335
visibility: 0.9999389052391052
","x: 289.2004699707031
y: 263.2796936035156
z: -0.09260277450084686
visibility: 0.9999198317527771
","x: 285.37994384765625
y: 263.2501220703125
z: -0.09271284192800522
visibility: 0.9999500513076782
","x: 301.5187683105469
y: 282.79351806640625
z: 0.004782269708812237
visibility: 0.9998424053192139
","x: 272.408935546875
y: 287.8070983886719
z: 0.02593144401907921
visibility: 0.9998990297317505
","x: 311.9435119628906
y: 305.1376647949219
z: -0.04784879833459854
visibility: 0.9908004999160767
","x: 264.51116943359375
y: 320.3426818847656
z: 0.037088505923748016
visibility: 0.9745917916297913
","x: 315.0795593261719
y: 315.2172546386719
z: -0.21210570633411407
visibility: 0.9814550280570984
","x: 261.93072509765625
y: 342.2860107421875
z: -0.042926229536533356
visibility: 0.9631326794624329
","x: 317.77484130859375
y: 317.2550048828125
z: -0.24746985733509064
visibility: 0.9477527737617493
","x: 261.25445556640625
y: 349.24969482421875
z: -0.06451472640037537
visibility: 0.9260149002075195
","x: 315.1846923828125
y: 316.03643798828125
z: -0.26686444878578186
visibility: 0.9423694610595703
","x: 262.5007629394531
y: 347.61114501953125
z: -0.08280641585588455
visibility: 0.9299177527427673
","x: 314.7597351074219
y: 316.9400634765625
z: -0.22491297125816345
visibility: 0.9248080849647522
","x: 264.4029541015625
y: 344.22369384765625
z: -0.052607856690883636
visibility: 0.9166513085365295
","x: 296.6234436035156
y: 363.8086242675781
z: -0.008909637108445168
visibility: 0.9995706081390381
","x: 277.17767333984375
y: 365.385009765625
z: 0.009012939408421516
visibility: 0.9996914863586426
","x: 295.6150817871094
y: 429.9908142089844
z: -0.03271046653389931
visibility: 0.9967010021209717
","x: 274.5252990722656
y: 432.1610107421875
z: -0.010432221926748753
visibility: 0.9963863492012024
","x: 294.6755065917969
y: 485.242431640625
z: 0.06435982882976532
visibility: 0.9955583214759827
","x: 270.04913330078125
y: 488.003662109375
z: 0.08831444382667542
visibility: 0.9957702159881592
","x: 292.53570556640625
y: 493.2519836425781
z: 0.06839892268180847
visibility: 0.8302615284919739
","x: 270.93792724609375
y: 495.8586120605469
z: 0.09174438565969467
visibility: 0.9341864585876465
","x: 298.19757080078125
y: 506.25201416015625
z: -0.03351827710866928
visibility: 0.9909253716468811
","x: 264.8660888671875
y: 505.13323974609375
z: -0.006384667940437794
visibility: 0.9918272495269775
",4.180457592010498,,,,,,,,,,,,,,,,,,,,,,,,,,,,,,,,,,,,,,,,,,
4,"x: 288.1514892578125
y: 254.4808807373047
z: -0.17160798609256744
visibility: 0.9999763369560242
","x: 289.68280029296875
y: 250.3837890625
z: -0.15928347408771515
visibility: 0.9999094605445862
","x: 290.80096435546875
y: 250.54714965820312
z: -0.15936148166656494
visibility: 0.999911367893219
","x: 291.9066467285156
y: 250.7293701171875
z: -0.15942254662513733
visibility: 0.9999058246612549
","x: 286.54052734375
y: 250.4545440673828
z: -0.1583576500415802
visibility: 0.9999299049377441
","x: 285.4355163574219
y: 250.6197967529297
z: -0.15836220979690552
visibility: 0.9999287724494934
","x: 284.3083801269531
y: 250.71102905273438
z: -0.15837015211582184
visibility: 0.9999351501464844
","x: 293.65545654296875
y: 254.35279846191406
z: -0.07315108180046082
visibility: 0.9998450875282288
","x: 282.17218017578125
y: 254.41839599609375
z: -0.06954619288444519
visibility: 0.9998993277549744
","x: 290.09393310546875
y: 260.5740661621094
z: -0.13962098956108093
visibility: 0.9999211430549622
","x: 286.008056640625
y: 260.2895812988281
z: -0.1384846270084381
visibility: 0.9999467134475708
","x: 302.19927978515625
y: 282.8482666015625
z: -0.010602748021483421
visibility: 0.9998506307601929
","x: 272.7327880859375
y: 285.7982177734375
z: -0.013402968645095825
visibility: 0.9998842477798462
","x: 312.1277770996094
y: 308.8371887207031
z: -0.09520252048969269
visibility: 0.9871634244918823
","x: 264.01434326171875
y: 316.88262939453125
z: -0.04260660707950592
visibility: 0.9732999205589294
","x: 314.35064697265625
y: 324.06817626953125
z: -0.2767709791660309
visibility: 0.9774900674819946
","x: 260.4547424316406
y: 338.85601806640625
z: -0.17451228201389313
visibility: 0.957793653011322
","x: 315.8773498535156
y: 328.56329345703125
z: -0.31663650274276733
visibility: 0.9440926909446716
","x: 259.2831115722656
y: 347.87548828125
z: -0.20474913716316223
visibility: 0.9181773662567139
","x: 314.1145935058594
y: 327.2010803222656
z: -0.33520248532295227
visibility: 0.9402561783790588
","x: 260.72662353515625
y: 343.7586669921875
z: -0.22214791178703308
visibility: 0.9227697253227234
","x: 313.04266357421875
y: 325.0642395019531
z: -0.2891227900981903
visibility: 0.9216489791870117
","x: 262.144775390625
y: 341.24310302734375
z: -0.18496164679527283
visibility: 0.9089481830596924
","x: 296.97650146484375
y: 363.4972839355469
z: -0.004469750914722681
visibility: 0.9995747208595276
","x: 277.3197326660156
y: 364.902099609375
z: 0.004536909516900778
visibility: 0.9996778964996338
","x: 294.9151611328125
y: 430.0675048828125
z: -0.03589818626642227
visibility: 0.9963428378105164
","x: 274.44384765625
y: 431.76141357421875
z: -0.02579517289996147
visibility: 0.9962797164916992
","x: 293.33270263671875
y: 485.2530517578125
z: 0.09039439260959625
visibility: 0.9952412843704224
","x: 270.11181640625
y: 485.5967712402344
z: 0.09804841876029968
visibility: 0.9956052899360657
","x: 291.3481750488281
y: 493.20977783203125
z: 0.09768866002559662
visibility: 0.8371061682701111
","x: 271.056884765625
y: 491.86468505859375
z: 0.10454708337783813
visibility: 0.9301662445068359
","x: 297.27008056640625
y: 507.3057556152344
z: -0.002751608146354556
visibility: 0.9906004667282104
","x: 265.85687255859375
y: 506.48724365234375
z: 0.00607070978730917
visibility: 0.9914945960044861
",4.29269814491272,,,,,,,,,,,,,,,,,,,,,,,,,,,,,,,,,,,,,,,,,,
5,"x: 288.1514892578125
y: 254.4808807373047
z: -0.17160798609256744
visibility: 0.9999763369560242
","x: 289.68280029296875
y: 250.3837890625
z: -0.15928347408771515
visibility: 0.9999094605445862
","x: 290.80096435546875
y: 250.54714965820312
z: -0.15936148166656494
visibility: 0.999911367893219
","x: 291.9066467285156
y: 250.7293701171875
z: -0.15942254662513733
visibility: 0.9999058246612549
","x: 286.54052734375
y: 250.4545440673828
z: -0.1583576500415802
visibility: 0.9999299049377441
","x: 285.4355163574219
y: 250.6197967529297
z: -0.15836220979690552
visibility: 0.9999287724494934
","x: 284.3083801269531
y: 250.71102905273438
z: -0.15837015211582184
visibility: 0.9999351501464844
","x: 293.65545654296875
y: 254.35279846191406
z: -0.07315108180046082
visibility: 0.9998450875282288
","x: 282.17218017578125
y: 254.41839599609375
z: -0.06954619288444519
visibility: 0.9998993277549744
","x: 290.09393310546875
y: 260.5740661621094
z: -0.13962098956108093
visibility: 0.9999211430549622
","x: 286.008056640625
y: 260.2895812988281
z: -0.1384846270084381
visibility: 0.9999467134475708
","x: 302.19927978515625
y: 282.8482666015625
z: -0.010602748021483421
visibility: 0.9998506307601929
","x: 272.7327880859375
y: 285.7982177734375
z: -0.013402968645095825
visibility: 0.9998842477798462
","x: 312.1277770996094
y: 308.8371887207031
z: -0.09520252048969269
visibility: 0.9871634244918823
","x: 264.01434326171875
y: 316.88262939453125
z: -0.04260660707950592
visibility: 0.9732999205589294
","x: 314.35064697265625
y: 324.06817626953125
z: -0.2767709791660309
visibility: 0.9774900674819946
","x: 260.4547424316406
y: 338.85601806640625
z: -0.17451228201389313
visibility: 0.957793653011322
","x: 315.8773498535156
y: 328.56329345703125
z: -0.31663650274276733
visibility: 0.9440926909446716
","x: 259.2831115722656
y: 347.87548828125
z: -0.20474913716316223
visibility: 0.9181773662567139
","x: 314.1145935058594
y: 327.2010803222656
z: -0.33520248532295227
visibility: 0.9402561783790588
","x: 260.72662353515625
y: 343.7586669921875
z: -0.22214791178703308
visibility: 0.9227697253227234
","x: 313.04266357421875
y: 325.0642395019531
z: -0.2891227900981903
visibility: 0.9216489791870117
","x: 262.144775390625
y: 341.24310302734375
z: -0.18496164679527283
visibility: 0.9089481830596924
","x: 296.97650146484375
y: 363.4972839355469
z: -0.004469750914722681
visibility: 0.9995747208595276
","x: 277.3197326660156
y: 364.902099609375
z: 0.004536909516900778
visibility: 0.9996778964996338
","x: 294.9151611328125
y: 430.0675048828125
z: -0.03589818626642227
visibility: 0.9963428378105164
","x: 274.44384765625
y: 431.76141357421875
z: -0.02579517289996147
visibility: 0.9962797164916992
","x: 293.33270263671875
y: 485.2530517578125
z: 0.09039439260959625
visibility: 0.9952412843704224
","x: 270.11181640625
y: 485.5967712402344
z: 0.09804841876029968
visibility: 0.9956052899360657
","x: 291.3481750488281
y: 493.20977783203125
z: 0.09768866002559662
visibility: 0.8371061682701111
","x: 271.056884765625
y: 491.86468505859375
z: 0.10454708337783813
visibility: 0.9301662445068359
","x: 297.27008056640625
y: 507.3057556152344
z: -0.002751608146354556
visibility: 0.9906004667282104
","x: 265.85687255859375
y: 506.48724365234375
z: 0.00607070978730917
visibility: 0.9914945960044861
",4.29269814491272,,,,,,,,,,,,,,,,,,,,,,,,,,,,,,,,,,,,,,,,,,
6,"x: 289.0003967285156
y: 252.04481506347656
z: -0.2172718048095703
visibility: 0.9999613761901855
","x: 290.7422790527344
y: 248.061767578125
z: -0.2035161554813385
visibility: 0.999882698059082
","x: 291.8236999511719
y: 248.41993713378906
z: -0.2035573273897171
visibility: 0.999884307384491
","x: 292.90081787109375
y: 248.8005828857422
z: -0.20360060036182404
visibility: 0.9998851418495178
","x: 287.63287353515625
y: 247.7176513671875
z: -0.20339635014533997
visibility: 0.9998969435691833
","x: 286.533447265625
y: 247.8672637939453
z: -0.20341555774211884
visibility: 0.99988853931427
","x: 285.4158935546875
y: 247.9800262451172
z: -0.20344635844230652
visibility: 0.9998974204063416
","x: 294.4787902832031
y: 253.24801635742188
z: -0.1176343783736229
visibility: 0.9998078346252441
","x: 283.16363525390625
y: 252.561767578125
z: -0.1168091893196106
visibility: 0.9998005628585815
","x: 290.73712158203125
y: 258.6413269042969
z: -0.18534737825393677
visibility: 0.9999135732650757
","x: 286.75433349609375
y: 257.936767578125
z: -0.18519270420074463
visibility: 0.9999295473098755
","x: 303.2005310058594
y: 283.8106994628906
z: -0.0676068663597107
visibility: 0.9998486638069153
","x: 273.4219055175781
y: 285.9934387207031
z: -0.04532836005091667
visibility: 0.9998217225074768
","x: 313.1373596191406
y: 318.57928466796875
z: -0.10059203952550888
visibility: 0.9861496686935425
","x: 264.69366455078125
y: 317.52154541015625
z: -0.0236797034740448
visibility: 0.9653396606445312
","x: 311.49462890625
y: 334.08624267578125
z: -0.24531905353069305
visibility: 0.9735493659973145
","x: 261.0950622558594
y: 343.77630615234375
z: -0.11155766248703003
visibility: 0.932977020740509
","x: 308.5162353515625
y: 343.2200622558594
z: -0.2801288366317749
visibility: 0.9381161332130432
","x: 259.3391418457031
y: 354.4927978515625
z: -0.1359853893518448
visibility: 0.8874173760414124
","x: 306.4256896972656
y: 337.5955810546875
z: -0.31848424673080444
visibility: 0.934990406036377
","x: 262.99810791015625
y: 352.3184814453125
z: -0.1565975397825241
visibility: 0.8929449915885925
","x: 306.5204162597656
y: 334.76971435546875
z: -0.25740957260131836
visibility: 0.913329541683197
","x: 263.6712341308594
y: 349.1438293457031
z: -0.12181583791971207
visibility: 0.8766918778419495
","x: 297.2096862792969
y: 363.51220703125
z: -0.004479936324059963
visibility: 0.9995097517967224
","x: 277.7230529785156
y: 364.8697509765625
z: 0.004512342158704996
visibility: 0.9996227622032166
","x: 294.62200927734375
y: 429.9798278808594
z: -0.031087229028344154
visibility: 0.9957411885261536
","x: 274.7768249511719
y: 432.1317138671875
z: -0.015775758773088455
visibility: 0.9958425760269165
","x: 292.9682312011719
y: 485.3489990234375
z: 0.08299626410007477
visibility: 0.9948574900627136
","x: 270.7442932128906
y: 488.6639404296875
z: 0.09553160518407822
visibility: 0.9953598380088806
","x: 291.23541259765625
y: 493.1073303222656
z: 0.08803267776966095
visibility: 0.8403223752975464
","x: 271.85601806640625
y: 496.78570556640625
z: 0.10019729286432266
visibility: 0.9238324165344238
","x: 296.5563659667969
y: 508.018798828125
z: -0.016067834571003914
visibility: 0.9901689291000366
","x: 267.13580322265625
y: 511.1694641113281
z: -0.0040361639112234116
visibility: 0.9910242557525635
",4.426355600357056,"x: 307.2730712890625
y: 335.20947265625
z: 0.0
","x: 304.1190490722656
y: 334.3270568847656
z: -0.0009451794903725386
","x: 301.3384704589844
y: 336.11370849609375
z: -0.002004035748541355
","x: 299.7369384765625
y: 339.67401123046875
z: -0.002780310809612274
","x: 298.7482604980469
y: 342.7364807128906
z: -0.0035720921587198973
","x: 301.7217712402344
y: 336.821044921875
z: -0.004918948747217655
","x: 299.20672607421875
y: 342.2616882324219
z: -0.006273696199059486
","x: 297.8977966308594
y: 345.5959777832031
z: -0.006304680835455656
","x: 297.0491638183594
y: 348.0693054199219
z: -0.0061372555792331696
","x: 303.145263671875
y: 339.4878845214844
z: -0.005058867856860161
","x: 300.4346923828125
y: 344.7896728515625
z: -0.006443701218813658
","x: 298.8467102050781
y: 347.7603454589844
z: -0.006012902595102787
","x: 297.82745361328125
y: 349.7298583984375
z: -0.005671051796525717
","x: 304.4130554199219
y: 342.0477294921875
z: -0.004934542812407017
","x: 302.100830078125
y: 346.7590026855469
z: -0.006307708565145731
","x: 300.6808776855469
y: 348.9526672363281
z: -0.005851643159985542
","x: 299.65142822265625
y: 350.1005554199219
z: -0.005468529649078846
","x: 305.5270080566406
y: 344.3282775878906
z: -0.004809985868632793
","x: 303.83587646484375
y: 348.07666015625
z: -0.00591112207621336
","x: 302.6665954589844
y: 349.707275390625
z: -0.005679805763065815
","x: 301.7107849121094
y: 350.4168395996094
z: -0.005397034343332052
",,,,,,,,,,,,,,,,,,,,,
7,"x: 289.0003967285156
y: 252.04481506347656
z: -0.2172718048095703
visibility: 0.9999613761901855
","x: 290.7422790527344
y: 248.061767578125
z: -0.2035161554813385
visibility: 0.999882698059082
","x: 291.8236999511719
y: 248.41993713378906
z: -0.2035573273897171
visibility: 0.999884307384491
","x: 292.90081787109375
y: 248.8005828857422
z: -0.20360060036182404
visibility: 0.9998851418495178
","x: 287.63287353515625
y: 247.7176513671875
z: -0.20339635014533997
visibility: 0.9998969435691833
","x: 286.533447265625
y: 247.8672637939453
z: -0.20341555774211884
visibility: 0.99988853931427
","x: 285.4158935546875
y: 247.9800262451172
z: -0.20344635844230652
visibility: 0.9998974204063416
","x: 294.4787902832031
y: 253.24801635742188
z: -0.1176343783736229
visibility: 0.9998078346252441
","x: 283.16363525390625
y: 252.561767578125
z: -0.1168091893196106
visibility: 0.9998005628585815
","x: 290.73712158203125
y: 258.6413269042969
z: -0.18534737825393677
visibility: 0.9999135732650757
","x: 286.75433349609375
y: 257.936767578125
z: -0.18519270420074463
visibility: 0.9999295473098755
","x: 303.2005310058594
y: 283.8106994628906
z: -0.0676068663597107
visibility: 0.9998486638069153
","x: 273.4219055175781
y: 285.9934387207031
z: -0.04532836005091667
visibility: 0.9998217225074768
","x: 313.1373596191406
y: 318.57928466796875
z: -0.10059203952550888
visibility: 0.9861496686935425
","x: 264.69366455078125
y: 317.52154541015625
z: -0.0236797034740448
visibility: 0.9653396606445312
","x: 311.49462890625
y: 334.08624267578125
z: -0.24531905353069305
visibility: 0.9735493659973145
","x: 261.0950622558594
y: 343.77630615234375
z: -0.11155766248703003
visibility: 0.932977020740509
","x: 308.5162353515625
y: 343.2200622558594
z: -0.2801288366317749
visibility: 0.9381161332130432
","x: 259.3391418457031
y: 354.4927978515625
z: -0.1359853893518448
visibility: 0.8874173760414124
","x: 306.4256896972656
y: 337.5955810546875
z: -0.31848424673080444
visibility: 0.934990406036377
","x: 262.99810791015625
y: 352.3184814453125
z: -0.1565975397825241
visibility: 0.8929449915885925
","x: 306.5204162597656
y: 334.76971435546875
z: -0.25740957260131836
visibility: 0.913329541683197
","x: 263.6712341308594
y: 349.1438293457031
z: -0.12181583791971207
visibility: 0.8766918778419495
","x: 297.2096862792969
y: 363.51220703125
z: -0.004479936324059963
visibility: 0.9995097517967224
","x: 277.7230529785156
y: 364.8697509765625
z: 0.004512342158704996
visibility: 0.9996227622032166
","x: 294.62200927734375
y: 429.9798278808594
z: -0.031087229028344154
visibility: 0.9957411885261536
","x: 274.7768249511719
y: 432.1317138671875
z: -0.015775758773088455
visibility: 0.9958425760269165
","x: 292.9682312011719
y: 485.3489990234375
z: 0.08299626410007477
visibility: 0.9948574900627136
","x: 270.7442932128906
y: 488.6639404296875
z: 0.09553160518407822
visibility: 0.9953598380088806
","x: 291.23541259765625
y: 493.1073303222656
z: 0.08803267776966095
visibility: 0.8403223752975464
","x: 271.85601806640625
y: 496.78570556640625
z: 0.10019729286432266
visibility: 0.9238324165344238
","x: 296.5563659667969
y: 508.018798828125
z: -0.016067834571003914
visibility: 0.9901689291000366
","x: 267.13580322265625
y: 511.1694641113281
z: -0.0040361639112234116
visibility: 0.9910242557525635
",4.426355600357056,"x: 307.2730712890625
y: 335.20947265625
z: 0.0
","x: 304.1190490722656
y: 334.3270568847656
z: -0.0009451794903725386
","x: 301.3384704589844
y: 336.11370849609375
z: -0.002004035748541355
","x: 299.7369384765625
y: 339.67401123046875
z: -0.002780310809612274
","x: 298.7482604980469
y: 342.7364807128906
z: -0.0035720921587198973
","x: 301.7217712402344
y: 336.821044921875
z: -0.004918948747217655
","x: 299.20672607421875
y: 342.2616882324219
z: -0.006273696199059486
","x: 297.8977966308594
y: 345.5959777832031
z: -0.006304680835455656
","x: 297.0491638183594
y: 348.0693054199219
z: -0.0061372555792331696
","x: 303.145263671875
y: 339.4878845214844
z: -0.005058867856860161
","x: 300.4346923828125
y: 344.7896728515625
z: -0.006443701218813658
","x: 298.8467102050781
y: 347.7603454589844
z: -0.006012902595102787
","x: 297.82745361328125
y: 349.7298583984375
z: -0.005671051796525717
","x: 304.4130554199219
y: 342.0477294921875
z: -0.004934542812407017
","x: 302.100830078125
y: 346.7590026855469
z: -0.006307708565145731
","x: 300.6808776855469
y: 348.9526672363281
z: -0.005851643159985542
","x: 299.65142822265625
y: 350.1005554199219
z: -0.005468529649078846
","x: 305.5270080566406
y: 344.3282775878906
z: -0.004809985868632793
","x: 303.83587646484375
y: 348.07666015625
z: -0.00591112207621336
","x: 302.6665954589844
y: 349.707275390625
z: -0.005679805763065815
","x: 301.7107849121094
y: 350.4168395996094
z: -0.005397034343332052
",,,,,,,,,,,,,,,,,,,,,
8,"x: 289.0003967285156
y: 252.04481506347656
z: -0.2172718048095703
visibility: 0.9999613761901855
","x: 290.7422790527344
y: 248.061767578125
z: -0.2035161554813385
visibility: 0.999882698059082
","x: 291.8236999511719
y: 248.41993713378906
z: -0.2035573273897171
visibility: 0.999884307384491
","x: 292.90081787109375
y: 248.8005828857422
z: -0.20360060036182404
visibility: 0.9998851418495178
","x: 287.63287353515625
y: 247.7176513671875
z: -0.20339635014533997
visibility: 0.9998969435691833
","x: 286.533447265625
y: 247.8672637939453
z: -0.20341555774211884
visibility: 0.99988853931427
","x: 285.4158935546875
y: 247.9800262451172
z: -0.20344635844230652
visibility: 0.9998974204063416
","x: 294.4787902832031
y: 253.24801635742188
z: -0.1176343783736229
visibility: 0.9998078346252441
","x: 283.16363525390625
y: 252.561767578125
z: -0.1168091893196106
visibility: 0.9998005628585815
","x: 290.73712158203125
y: 258.6413269042969
z: -0.18534737825393677
visibility: 0.9999135732650757
","x: 286.75433349609375
y: 257.936767578125
z: -0.18519270420074463
visibility: 0.9999295473098755
","x: 303.2005310058594
y: 283.8106994628906
z: -0.0676068663597107
visibility: 0.9998486638069153
","x: 273.4219055175781
y: 285.9934387207031
z: -0.04532836005091667
visibility: 0.9998217225074768
","x: 313.1373596191406
y: 318.57928466796875
z: -0.10059203952550888
visibility: 0.9861496686935425
","x: 264.69366455078125
y: 317.52154541015625
z: -0.0236797034740448
visibility: 0.9653396606445312
","x: 311.49462890625
y: 334.08624267578125
z: -0.24531905353069305
visibility: 0.9735493659973145
","x: 261.0950622558594
y: 343.77630615234375
z: -0.11155766248703003
visibility: 0.932977020740509
","x: 308.5162353515625
y: 343.2200622558594
z: -0.2801288366317749
visibility: 0.9381161332130432
","x: 259.3391418457031
y: 354.4927978515625
z: -0.1359853893518448
visibility: 0.8874173760414124
","x: 306.4256896972656
y: 337.5955810546875
z: -0.31848424673080444
visibility: 0.934990406036377
","x: 262.99810791015625
y: 352.3184814453125
z: -0.1565975397825241
visibility: 0.8929449915885925
","x: 306.5204162597656
y: 334.76971435546875
z: -0.25740957260131836
visibility: 0.913329541683197
","x: 263.6712341308594
y: 349.1438293457031
z: -0.12181583791971207
visibility: 0.8766918778419495
","x: 297.2096862792969
y: 363.51220703125
z: -0.004479936324059963
visibility: 0.9995097517967224
","x: 277.7230529785156
y: 364.8697509765625
z: 0.004512342158704996
visibility: 0.9996227622032166
","x: 294.62200927734375
y: 429.9798278808594
z: -0.031087229028344154
visibility: 0.9957411885261536
","x: 274.7768249511719
y: 432.1317138671875
z: -0.015775758773088455
visibility: 0.9958425760269165
","x: 292.9682312011719
y: 485.3489990234375
z: 0.08299626410007477
visibility: 0.9948574900627136
","x: 270.7442932128906
y: 488.6639404296875
z: 0.09553160518407822
visibility: 0.9953598380088806
","x: 291.23541259765625
y: 493.1073303222656
z: 0.08803267776966095
visibility: 0.8403223752975464
","x: 271.85601806640625
y: 496.78570556640625
z: 0.10019729286432266
visibility: 0.9238324165344238
","x: 296.5563659667969
y: 508.018798828125
z: -0.016067834571003914
visibility: 0.9901689291000366
","x: 267.13580322265625
y: 511.1694641113281
z: -0.0040361639112234116
visibility: 0.9910242557525635
",4.426355600357056,"x: 307.2730712890625
y: 335.20947265625
z: 0.0
","x: 304.1190490722656
y: 334.3270568847656
z: -0.0009451794903725386
","x: 301.3384704589844
y: 336.11370849609375
z: -0.002004035748541355
","x: 299.7369384765625
y: 339.67401123046875
z: -0.002780310809612274
","x: 298.7482604980469
y: 342.7364807128906
z: -0.0035720921587198973
","x: 301.7217712402344
y: 336.821044921875
z: -0.004918948747217655
","x: 299.20672607421875
y: 342.2616882324219
z: -0.006273696199059486
","x: 297.8977966308594
y: 345.5959777832031
z: -0.006304680835455656
","x: 297.0491638183594
y: 348.0693054199219
z: -0.0061372555792331696
","x: 303.145263671875
y: 339.4878845214844
z: -0.005058867856860161
","x: 300.4346923828125
y: 344.7896728515625
z: -0.006443701218813658
","x: 298.8467102050781
y: 347.7603454589844
z: -0.006012902595102787
","x: 297.82745361328125
y: 349.7298583984375
z: -0.005671051796525717
","x: 304.4130554199219
y: 342.0477294921875
z: -0.004934542812407017
","x: 302.100830078125
y: 346.7590026855469
z: -0.006307708565145731
","x: 300.6808776855469
y: 348.9526672363281
z: -0.005851643159985542
","x: 299.65142822265625
y: 350.1005554199219
z: -0.005468529649078846
","x: 305.5270080566406
y: 344.3282775878906
z: -0.004809985868632793
","x: 303.83587646484375
y: 348.07666015625
z: -0.00591112207621336
","x: 302.6665954589844
y: 349.707275390625
z: -0.005679805763065815
","x: 301.7107849121094
y: 350.4168395996094
z: -0.005397034343332052
",,,,,,,,,,,,,,,,,,,,,
9,"x: 289.5039367675781
y: 251.96942138671875
z: -0.13942837715148926
visibility: 0.9999632835388184
","x: 291.19647216796875
y: 248.18856811523438
z: -0.12450208514928818
visibility: 0.9998905062675476
","x: 292.220947265625
y: 248.6588134765625
z: -0.12451592832803726
visibility: 0.9998912811279297
","x: 293.25372314453125
y: 249.13693237304688
z: -0.12452884018421173
visibility: 0.9998925924301147
","x: 288.1376953125
y: 247.673095703125
z: -0.12459746748209
visibility: 0.9999032020568848
","x: 287.03228759765625
y: 247.80889892578125
z: -0.1246112585067749
visibility: 0.999894917011261
","x: 285.91912841796875
y: 247.92982482910156
z: -0.12461624294519424
visibility: 0.9999035000801086
","x: 294.8684387207031
y: 253.5716094970703
z: -0.04137982055544853
visibility: 0.9998208284378052
","x: 283.4706726074219
y: 252.6616668701172
z: -0.042973075062036514
visibility: 0.999812126159668
","x: 291.2234802246094
y: 258.6856384277344
z: -0.1092633605003357
visibility: 0.9999207258224487
","x: 287.2462158203125
y: 257.80926513671875
z: -0.10981310904026031
visibility: 0.9999349117279053
","x: 303.3676452636719
y: 285.923095703125
z: -0.008719675242900848
visibility: 0.999861478805542
","x: 273.3885803222656
y: 285.9942321777344
z: 0.006037229206413031
visibility: 0.9998331665992737
","x: 313.2938537597656
y: 321.8606262207031
z: -0.06745029985904694
visibility: 0.9870959520339966
","x: 265.0697021484375
y: 318.328125
z: -0.014830118045210838
visibility: 0.9665511250495911
","x: 304.0028076171875
y: 334.1518859863281
z: -0.22710566222667694
visibility: 0.9757324457168579
","x: 266.6142272949219
y: 344.35906982421875
z: -0.14317810535430908
visibility: 0.936801016330719
","x: 299.77825927734375
y: 340.7471008300781
z: -0.26634129881858826
visibility: 0.9431707262992859
","x: 266.6562194824219
y: 355.3102111816406
z: -0.17513149976730347
visibility: 0.8934923410415649
","x: 297.7869873046875
y: 334.9013671875
z: -0.2827902138233185
visibility: 0.9403733015060425
","x: 270.7362060546875
y: 353.51953125
z: -0.1887509971857071
visibility: 0.8985720872879028
","x: 298.4277648925781
y: 332.25970458984375
z: -0.23394861817359924
visibility: 0.9200313687324524
","x: 271.2894592285156
y: 349.8451232910156
z: -0.15122900903224945
visibility: 0.8821333050727844
","x: 297.17535400390625
y: 364.0788269042969
z: -0.00336012477055192
visibility: 0.9995275139808655
","x: 277.8052062988281
y: 365.8334045410156
z: 0.003388854442164302
visibility: 0.9996384978294373
","x: 294.58404541015625
y: 430.1466064453125
z: -0.0342998132109642
visibility: 0.9955338835716248
","x: 274.97943115234375
y: 432.4779968261719
z: -0.02312861941754818
visibility: 0.995526909828186
","x: 292.7716064453125
y: 485.5877990722656
z: 0.07751360535621643
visibility: 0.994372546672821
","x: 271.3119201660156
y: 489.4974060058594
z: 0.07392819970846176
visibility: 0.9950739145278931
","x: 290.93853759765625
y: 493.38018798828125
z: 0.08039442449808121
visibility: 0.8445200324058533
","x: 272.8692932128906
y: 497.9951171875
z: 0.07696863263845444
visibility: 0.918432891368866
","x: 296.6136474609375
y: 508.4602355957031
z: -0.02392149344086647
visibility: 0.9896945953369141
","x: 267.40313720703125
y: 511.6032409667969
z: -0.021561959758400917
visibility: 0.9904813766479492
",4.552351713180542,"x: 299.5821838378906
y: 332.9388732910156
z: 0.0
","x: 296.9888610839844
y: 331.5783996582031
z: -0.00039360744995065033
","x: 294.245361328125
y: 331.4900207519531
z: -0.0015805336879566312
","x: 292.4273376464844
y: 331.7922668457031
z: -0.0028269344475120306
","x: 291.33441162109375
y: 332.2593994140625
z: -0.004181558731943369
","x: 292.50262451171875
y: 333.8673095703125
z: -0.004190393723547459
","x: 289.257568359375
y: 337.259765625
z: -0.006199611350893974
","x: 287.4378967285156
y: 339.4670104980469
z: -0.006961890496313572
","x: 286.0249938964844
y: 341.26312255859375
z: -0.007398506626486778
","x: 293.30078125
y: 336.5509338378906
z: -0.0053923288360238075
","x: 289.74212646484375
y: 341.3334655761719
z: -0.007231800351291895
","x: 287.7842102050781
y: 344.17474365234375
z: -0.007598105818033218
","x: 286.38702392578125
y: 346.47320556640625
z: -0.007983011193573475
","x: 294.60491943359375
y: 339.05755615234375
z: -0.006469939835369587
","x: 291.501953125
y: 344.1383361816406
z: -0.008205074816942215
","x: 289.73602294921875
y: 347.060302734375
z: -0.008665643632411957
","x: 288.4085388183594
y: 349.2389221191406
z: -0.009112129919230938
","x: 296.24554443359375
y: 341.30242919921875
z: -0.007554061710834503
","x: 294.3598327636719
y: 345.56646728515625
z: -0.009064774960279465
","x: 293.199462890625
y: 348.24908447265625
z: -0.009575984440743923
","x: 292.2551574707031
y: 350.3554992675781
z: -0.010021583177149296
",,,,,,,,,,,,,,,,,,,,,
10,"x: 289.5039367675781
y: 251.96942138671875
z: -0.13942837715148926
visibility: 0.9999632835388184
","x: 291.19647216796875
y: 248.18856811523438
z: -0.12450208514928818
visibility: 0.9998905062675476
","x: 292.220947265625
y: 248.6588134765625
z: -0.12451592832803726
visibility: 0.9998912811279297
","x: 293.25372314453125
y: 249.13693237304688
z: -0.12452884018421173
visibility: 0.9998925924301147
","x: 288.1376953125
y: 247.673095703125
z: -0.12459746748209
visibility: 0.9999032020568848
","x: 287.03228759765625
y: 247.80889892578125
z: -0.1246112585067749
visibility: 0.999894917011261
","x: 285.91912841796875
y: 247.92982482910156
z: -0.12461624294519424
visibility: 0.9999035000801086
","x: 294.8684387207031
y: 253.5716094970703
z: -0.04137982055544853
visibility: 0.9998208284378052
","x: 283.4706726074219
y: 252.6616668701172
z: -0.042973075062036514
visibility: 0.999812126159668
","x: 291.2234802246094
y: 258.6856384277344
z: -0.1092633605003357
visibility: 0.9999207258224487
","x: 287.2462158203125
y: 257.80926513671875
z: -0.10981310904026031
visibility: 0.9999349117279053
","x: 303.3676452636719
y: 285.923095703125
z: -0.008719675242900848
visibility: 0.999861478805542
","x: 273.3885803222656
y: 285.9942321777344
z: 0.006037229206413031
visibility: 0.9998331665992737
","x: 313.2938537597656
y: 321.8606262207031
z: -0.06745029985904694
visibility: 0.9870959520339966
","x: 265.0697021484375
y: 318.328125
z: -0.014830118045210838
visibility: 0.9665511250495911
","x: 304.0028076171875
y: 334.1518859863281
z: -0.22710566222667694
visibility: 0.9757324457168579
","x: 266.6142272949219
y: 344.35906982421875
z: -0.14317810535430908
visibility: 0.936801016330719
","x: 299.77825927734375
y: 340.7471008300781
z: -0.26634129881858826
visibility: 0.9431707262992859
","x: 266.6562194824219
y: 355.3102111816406
z: -0.17513149976730347
visibility: 0.8934923410415649
","x: 297.7869873046875
y: 334.9013671875
z: -0.2827902138233185
visibility: 0.9403733015060425
","x: 270.7362060546875
y: 353.51953125
z: -0.1887509971857071
visibility: 0.8985720872879028
","x: 298.4277648925781
y: 332.25970458984375
z: -0.23394861817359924
visibility: 0.9200313687324524
","x: 271.2894592285156
y: 349.8451232910156
z: -0.15122900903224945
visibility: 0.8821333050727844
","x: 297.17535400390625
y: 364.0788269042969
z: -0.00336012477055192
visibility: 0.9995275139808655
","x: 277.8052062988281
y: 365.8334045410156
z: 0.003388854442164302
visibility: 0.9996384978294373
","x: 294.58404541015625
y: 430.1466064453125
z: -0.0342998132109642
visibility: 0.9955338835716248
","x: 274.97943115234375
y: 432.4779968261719
z: -0.02312861941754818
visibility: 0.995526909828186
","x: 292.7716064453125
y: 485.5877990722656
z: 0.07751360535621643
visibility: 0.994372546672821
","x: 271.3119201660156
y: 489.4974060058594
z: 0.07392819970846176
visibility: 0.9950739145278931
","x: 290.93853759765625
y: 493.38018798828125
z: 0.08039442449808121
visibility: 0.8445200324058533
","x: 272.8692932128906
y: 497.9951171875
z: 0.07696863263845444
visibility: 0.918432891368866
","x: 296.6136474609375
y: 508.4602355957031
z: -0.02392149344086647
visibility: 0.9896945953369141
","x: 267.40313720703125
y: 511.6032409667969
z: -0.021561959758400917
visibility: 0.9904813766479492
",4.552351713180542,"x: 299.5821838378906
y: 332.9388732910156
z: 0.0
","x: 296.9888610839844
y: 331.5783996582031
z: -0.00039360744995065033
","x: 294.245361328125
y: 331.4900207519531
z: -0.0015805336879566312
","x: 292.4273376464844
y: 331.7922668457031
z: -0.0028269344475120306
","x: 291.33441162109375
y: 332.2593994140625
z: -0.004181558731943369
","x: 292.50262451171875
y: 333.8673095703125
z: -0.004190393723547459
","x: 289.257568359375
y: 337.259765625
z: -0.006199611350893974
","x: 287.4378967285156
y: 339.4670104980469
z: -0.006961890496313572
","x: 286.0249938964844
y: 341.26312255859375
z: -0.007398506626486778
","x: 293.30078125
y: 336.5509338378906
z: -0.0053923288360238075
","x: 289.74212646484375
y: 341.3334655761719
z: -0.007231800351291895
","x: 287.7842102050781
y: 344.17474365234375
z: -0.007598105818033218
","x: 286.38702392578125
y: 346.47320556640625
z: -0.007983011193573475
","x: 294.60491943359375
y: 339.05755615234375
z: -0.006469939835369587
","x: 291.501953125
y: 344.1383361816406
z: -0.008205074816942215
","x: 289.73602294921875
y: 347.060302734375
z: -0.008665643632411957
","x: 288.4085388183594
y: 349.2389221191406
z: -0.009112129919230938
","x: 296.24554443359375
y: 341.30242919921875
z: -0.007554061710834503
","x: 294.3598327636719
y: 345.56646728515625
z: -0.009064774960279465
","x: 293.199462890625
y: 348.24908447265625
z: -0.009575984440743923
","x: 292.2551574707031
y: 350.3554992675781
z: -0.010021583177149296
",,,,,,,,,,,,,,,,,,,,,
11,"x: 289.5039367675781
y: 251.96942138671875
z: -0.13942837715148926
visibility: 0.9999632835388184
","x: 291.19647216796875
y: 248.18856811523438
z: -0.12450208514928818
visibility: 0.9998905062675476
","x: 292.220947265625
y: 248.6588134765625
z: -0.12451592832803726
visibility: 0.9998912811279297
","x: 293.25372314453125
y: 249.13693237304688
z: -0.12452884018421173
visibility: 0.9998925924301147
","x: 288.1376953125
y: 247.673095703125
z: -0.12459746748209
visibility: 0.9999032020568848
","x: 287.03228759765625
y: 247.80889892578125
z: -0.1246112585067749
visibility: 0.999894917011261
","x: 285.91912841796875
y: 247.92982482910156
z: -0.12461624294519424
visibility: 0.9999035000801086
","x: 294.8684387207031
y: 253.5716094970703
z: -0.04137982055544853
visibility: 0.9998208284378052
","x: 283.4706726074219
y: 252.6616668701172
z: -0.042973075062036514
visibility: 0.999812126159668
","x: 291.2234802246094
y: 258.6856384277344
z: -0.1092633605003357
visibility: 0.9999207258224487
","x: 287.2462158203125
y: 257.80926513671875
z: -0.10981310904026031
visibility: 0.9999349117279053
","x: 303.3676452636719
y: 285.923095703125
z: -0.008719675242900848
visibility: 0.999861478805542
","x: 273.3885803222656
y: 285.9942321777344
z: 0.006037229206413031
visibility: 0.9998331665992737
","x: 313.2938537597656
y: 321.8606262207031
z: -0.06745029985904694
visibility: 0.9870959520339966
","x: 265.0697021484375
y: 318.328125
z: -0.014830118045210838
visibility: 0.9665511250495911
","x: 304.0028076171875
y: 334.1518859863281
z: -0.22710566222667694
visibility: 0.9757324457168579
","x: 266.6142272949219
y: 344.35906982421875
z: -0.14317810535430908
visibility: 0.936801016330719
","x: 299.77825927734375
y: 340.7471008300781
z: -0.26634129881858826
visibility: 0.9431707262992859
","x: 266.6562194824219
y: 355.3102111816406
z: -0.17513149976730347
visibility: 0.8934923410415649
","x: 297.7869873046875
y: 334.9013671875
z: -0.2827902138233185
visibility: 0.9403733015060425
","x: 270.7362060546875
y: 353.51953125
z: -0.1887509971857071
visibility: 0.8985720872879028
","x: 298.4277648925781
y: 332.25970458984375
z: -0.23394861817359924
visibility: 0.9200313687324524
","x: 271.2894592285156
y: 349.8451232910156
z: -0.15122900903224945
visibility: 0.8821333050727844
","x: 297.17535400390625
y: 364.0788269042969
z: -0.00336012477055192
visibility: 0.9995275139808655
","x: 277.8052062988281
y: 365.8334045410156
z: 0.003388854442164302
visibility: 0.9996384978294373
","x: 294.58404541015625
y: 430.1466064453125
z: -0.0342998132109642
visibility: 0.9955338835716248
","x: 274.97943115234375
y: 432.4779968261719
z: -0.02312861941754818
visibility: 0.995526909828186
","x: 292.7716064453125
y: 485.5877990722656
z: 0.07751360535621643
visibility: 0.994372546672821
","x: 271.3119201660156
y: 489.4974060058594
z: 0.07392819970846176
visibility: 0.9950739145278931
","x: 290.93853759765625
y: 493.38018798828125
z: 0.08039442449808121
visibility: 0.8445200324058533
","x: 272.8692932128906
y: 497.9951171875
z: 0.07696863263845444
visibility: 0.918432891368866
","x: 296.6136474609375
y: 508.4602355957031
z: -0.02392149344086647
visibility: 0.9896945953369141
","x: 267.40313720703125
y: 511.6032409667969
z: -0.021561959758400917
visibility: 0.9904813766479492
",4.552351713180542,"x: 299.5821838378906
y: 332.9388732910156
z: 0.0
","x: 296.9888610839844
y: 331.5783996582031
z: -0.00039360744995065033
","x: 294.245361328125
y: 331.4900207519531
z: -0.0015805336879566312
","x: 292.4273376464844
y: 331.7922668457031
z: -0.0028269344475120306
","x: 291.33441162109375
y: 332.2593994140625
z: -0.004181558731943369
","x: 292.50262451171875
y: 333.8673095703125
z: -0.004190393723547459
","x: 289.257568359375
y: 337.259765625
z: -0.006199611350893974
","x: 287.4378967285156
y: 339.4670104980469
z: -0.006961890496313572
","x: 286.0249938964844
y: 341.26312255859375
z: -0.007398506626486778
","x: 293.30078125
y: 336.5509338378906
z: -0.0053923288360238075
","x: 289.74212646484375
y: 341.3334655761719
z: -0.007231800351291895
","x: 287.7842102050781
y: 344.17474365234375
z: -0.007598105818033218
","x: 286.38702392578125
y: 346.47320556640625
z: -0.007983011193573475
","x: 294.60491943359375
y: 339.05755615234375
z: -0.006469939835369587
","x: 291.501953125
y: 344.1383361816406
z: -0.008205074816942215
","x: 289.73602294921875
y: 347.060302734375
z: -0.008665643632411957
","x: 288.4085388183594
y: 349.2389221191406
z: -0.009112129919230938
","x: 296.24554443359375
y: 341.30242919921875
z: -0.007554061710834503
","x: 294.3598327636719
y: 345.56646728515625
z: -0.009064774960279465
","x: 293.199462890625
y: 348.24908447265625
z: -0.009575984440743923
","x: 292.2551574707031
y: 350.3554992675781
z: -0.010021583177149296
",,,,,,,,,,,,,,,,,,,,,
12,"x: 289.7603454589844
y: 250.8722686767578
z: -0.11810402572154999
visibility: 0.9999291300773621
","x: 291.5070495605469
y: 246.6320037841797
z: -0.10320178419351578
visibility: 0.999843180179596
","x: 292.50250244140625
y: 246.92919921875
z: -0.10321136564016342
visibility: 0.9998257756233215
","x: 293.519287109375
y: 247.16754150390625
z: -0.10321418195962906
visibility: 0.9998215436935425
","x: 288.4512634277344
y: 246.16156005859375
z: -0.10621674358844757
visibility: 0.9998626112937927
","x: 287.3094787597656
y: 246.21890258789062
z: -0.10622584819793701
visibility: 0.9998541474342346
","x: 286.1623229980469
y: 246.18507385253906
z: -0.10624341666698456
visibility: 0.9998736381530762
","x: 294.8674011230469
y: 251.0518035888672
z: -0.01699288934469223
visibility: 0.9997273683547974
","x: 283.1792907714844
y: 250.03729248046875
z: -0.030692001804709435
visibility: 0.9997735023498535
","x: 291.48974609375
y: 257.2165222167969
z: -0.08543290942907333
visibility: 0.9998909831047058
","x: 287.51171875
y: 256.47064208984375
z: -0.08956816792488098
visibility: 0.9999187588691711
","x: 303.2581787109375
y: 284.32403564453125
z: 0.023509275168180466
visibility: 0.9998235106468201
","x: 272.4364013671875
y: 284.12646484375
z: 0.007672695908695459
visibility: 0.9998059868812561
","x: 311.2024230957031
y: 320.9012451171875
z: -0.055572886019945145
visibility: 0.9845748543739319
","x: 265.1636657714844
y: 321.2347717285156
z: -0.07114582508802414
visibility: 0.9679499268531799
","x: 296.01690673828125
y: 311.07464599609375
z: -0.2047290802001953
visibility: 0.9724841713905334
","x: 282.7249450683594
y: 311.5201110839844
z: -0.20649512112140656
visibility: 0.9408437013626099
","x: 292.052978515625
y: 309.9945373535156
z: -0.23747305572032928
visibility: 0.9361605644226074
","x: 286.5242614746094
y: 305.6796875
z: -0.2380341738462448
visibility: 0.8984481692314148
","x: 291.7342834472656
y: 307.7947082519531
z: -0.23141901195049286
visibility: 0.9327759742736816
","x: 286.4523620605469
y: 300.31304931640625
z: -0.23092177510261536
visibility: 0.9023697376251221
","x: 292.8603210449219
y: 307.20928955078125
z: -0.2051536738872528
visibility: 0.9092041850090027
","x: 285.8187255859375
y: 302.4615783691406
z: -0.20541398227214813
visibility: 0.8838586807250977
","x: 297.2708435058594
y: 363.9447021484375
z: 0.0030767940916121006
visibility: 0.9994886517524719
","x: 277.10980224609375
y: 365.6656188964844
z: -0.0030731759034097195
visibility: 0.9995874166488647
","x: 294.8024597167969
y: 430.89288330078125
z: -0.03043369948863983
visibility: 0.9952085018157959
","x: 273.90179443359375
y: 432.24951171875
z: -0.025509145110845566
visibility: 0.9950756430625916
","x: 295.3865966796875
y: 486.432373046875
z: 0.1263144612312317
visibility: 0.9935528635978699
","x: 268.21148681640625
y: 490.7130432128906
z: 0.10266181081533432
visibility: 0.9946700930595398
","x: 294.25439453125
y: 493.4107971191406
z: 0.1367252916097641
visibility: 0.8442718386650085
","x: 268.20733642578125
y: 499.61065673828125
z: 0.11099664121866226
visibility: 0.9103788137435913
","x: 296.8631896972656
y: 508.7935791015625
z: 0.04139406234025955
visibility: 0.9884016513824463
","x: 267.2581787109375
y: 510.7455749511719
z: 0.009563738480210304
visibility: 0.9896371960639954
",4.677382707595825,,,,,,,,,,,,,,,,,,,,,,,,,,,,,,,,,,,,,,,,,,
13,"x: 289.7603454589844
y: 250.8722686767578
z: -0.11810402572154999
visibility: 0.9999291300773621
","x: 291.5070495605469
y: 246.6320037841797
z: -0.10320178419351578
visibility: 0.999843180179596
","x: 292.50250244140625
y: 246.92919921875
z: -0.10321136564016342
visibility: 0.9998257756233215
","x: 293.519287109375
y: 247.16754150390625
z: -0.10321418195962906
visibility: 0.9998215436935425
","x: 288.4512634277344
y: 246.16156005859375
z: -0.10621674358844757
visibility: 0.9998626112937927
","x: 287.3094787597656
y: 246.21890258789062
z: -0.10622584819793701
visibility: 0.9998541474342346
","x: 286.1623229980469
y: 246.18507385253906
z: -0.10624341666698456
visibility: 0.9998736381530762
","x: 294.8674011230469
y: 251.0518035888672
z: -0.01699288934469223
visibility: 0.9997273683547974
","x: 283.1792907714844
y: 250.03729248046875
z: -0.030692001804709435
visibility: 0.9997735023498535
","x: 291.48974609375
y: 257.2165222167969
z: -0.08543290942907333
visibility: 0.9998909831047058
","x: 287.51171875
y: 256.47064208984375
z: -0.08956816792488098
visibility: 0.9999187588691711
","x: 303.2581787109375
y: 284.32403564453125
z: 0.023509275168180466
visibility: 0.9998235106468201
","x: 272.4364013671875
y: 284.12646484375
z: 0.007672695908695459
visibility: 0.9998059868812561
","x: 311.2024230957031
y: 320.9012451171875
z: -0.055572886019945145
visibility: 0.9845748543739319
","x: 265.1636657714844
y: 321.2347717285156
z: -0.07114582508802414
visibility: 0.9679499268531799
","x: 296.01690673828125
y: 311.07464599609375
z: -0.2047290802001953
visibility: 0.9724841713905334
","x: 282.7249450683594
y: 311.5201110839844
z: -0.20649512112140656
visibility: 0.9408437013626099
","x: 292.052978515625
y: 309.9945373535156
z: -0.23747305572032928
visibility: 0.9361605644226074
","x: 286.5242614746094
y: 305.6796875
z: -0.2380341738462448
visibility: 0.8984481692314148
","x: 291.7342834472656
y: 307.7947082519531
z: -0.23141901195049286
visibility: 0.9327759742736816
","x: 286.4523620605469
y: 300.31304931640625
z: -0.23092177510261536
visibility: 0.9023697376251221
","x: 292.8603210449219
y: 307.20928955078125
z: -0.2051536738872528
visibility: 0.9092041850090027
","x: 285.8187255859375
y: 302.4615783691406
z: -0.20541398227214813
visibility: 0.8838586807250977
","x: 297.2708435058594
y: 363.9447021484375
z: 0.0030767940916121006
visibility: 0.9994886517524719
","x: 277.10980224609375
y: 365.6656188964844
z: -0.0030731759034097195
visibility: 0.9995874166488647
","x: 294.8024597167969
y: 430.89288330078125
z: -0.03043369948863983
visibility: 0.9952085018157959
","x: 273.90179443359375
y: 432.24951171875
z: -0.025509145110845566
visibility: 0.9950756430625916
","x: 295.3865966796875
y: 486.432373046875
z: 0.1263144612312317
visibility: 0.9935528635978699
","x: 268.21148681640625
y: 490.7130432128906
z: 0.10266181081533432
visibility: 0.9946700930595398
","x: 294.25439453125
y: 493.4107971191406
z: 0.1367252916097641
visibility: 0.8442718386650085
","x: 268.20733642578125
y: 499.61065673828125
z: 0.11099664121866226
visibility: 0.9103788137435913
","x: 296.8631896972656
y: 508.7935791015625
z: 0.04139406234025955
visibility: 0.9884016513824463
","x: 267.2581787109375
y: 510.7455749511719
z: 0.009563738480210304
visibility: 0.9896371960639954
",4.677382707595825,,,,,,,,,,,,,,,,,,,,,,,,,,,,,,,,,,,,,,,,,,
14,"x: 289.9690856933594
y: 251.7032470703125
z: -0.16905614733695984
visibility: 0.999933660030365
","x: 291.6365661621094
y: 247.51028442382812
z: -0.15090662240982056
visibility: 0.9998546838760376
","x: 292.5909729003906
y: 247.8057098388672
z: -0.15095584094524384
visibility: 0.9998381733894348
","x: 293.5634460449219
y: 248.0441131591797
z: -0.1509617269039154
visibility: 0.9998341202735901
","x: 288.6203918457031
y: 247.01356506347656
z: -0.15734095871448517
visibility: 0.9998722076416016
","x: 287.46240234375
y: 247.05120849609375
z: -0.1573437750339508
visibility: 0.9998645186424255
","x: 286.2915344238281
y: 247.0124053955078
z: -0.15736141800880432
visibility: 0.9998824596405029
","x: 294.8720703125
y: 251.74896240234375
z: -0.053293626755476
visibility: 0.9997416138648987
","x: 283.1144104003906
y: 250.52694702148438
z: -0.08403857052326202
visibility: 0.9997909665107727
","x: 291.6594543457031
y: 258.0975646972656
z: -0.13450804352760315
visibility: 0.9998995065689087
","x: 287.6510925292969
y: 257.25299072265625
z: -0.1427721530199051
visibility: 0.999925434589386
","x: 302.72772216796875
y: 285.04058837890625
z: -0.006647782865911722
visibility: 0.9998363256454468
","x: 272.7386169433594
y: 286.2399597167969
z: -0.04998655244708061
visibility: 0.9998179078102112
","x: 310.5806579589844
y: 321.02252197265625
z: -0.06676840037107468
visibility: 0.9818149209022522
","x: 266.2465515136719
y: 328.0326843261719
z: -0.0951833575963974
visibility: 0.969702422618866
","x: 300.9202880859375
y: 333.7757873535156
z: -0.21243350207805634
visibility: 0.9706277251243591
","x: 282.78668212890625
y: 342.0428771972656
z: -0.2152009755373001
visibility: 0.9442479014396667
","x: 299.144775390625
y: 339.73443603515625
z: -0.26432329416275024
visibility: 0.9350088834762573
","x: 286.9127197265625
y: 344.90545654296875
z: -0.25016549229621887
visibility: 0.9040684103965759
","x: 296.18536376953125
y: 334.9829406738281
z: -0.27736976742744446
visibility: 0.9320635795593262
","x: 288.86065673828125
y: 331.03045654296875
z: -0.25706472992897034
visibility: 0.9074614644050598
","x: 295.3406982421875
y: 333.10223388671875
z: -0.2284235656261444
visibility: 0.9077330827713013
","x: 287.82891845703125
y: 330.7811279296875
z: -0.21923251450061798
visibility: 0.888150691986084
","x: 297.5139465332031
y: 366.18609619140625
z: 0.009516628459095955
visibility: 0.999522864818573
","x: 277.3316650390625
y: 369.65374755859375
z: -0.009544420056045055
visibility: 0.9996110200881958
","x: 306.32928466796875
y: 430.8055419921875
z: -0.013429041020572186
visibility: 0.995477557182312
","x: 273.83453369140625
y: 432.0834045410156
z: -0.037412289530038834
visibility: 0.9954171776771545
","x: 312.03607177734375
y: 485.0741271972656
z: 0.12427359819412231
visibility: 0.9939096570014954
","x: 266.7010803222656
y: 490.588623046875
z: 0.08750763535499573
visibility: 0.9949852824211121
","x: 310.6648864746094
y: 493.1402893066406
z: 0.1320449411869049
visibility: 0.853943943977356
","x: 265.52581787109375
y: 498.49237060546875
z: 0.09758376330137253
visibility: 0.9099356532096863
","x: 318.6985778808594
y: 506.2966613769531
z: 0.0356249138712883
visibility: 0.9888218641281128
","x: 267.89111328125
y: 510.22698974609375
z: -0.0062448917888104916
visibility: 0.9900925755500793
",4.801550626754761,,,,,,,,,,,,,,,,,,,,,,,,,,,,,,,,,,,,,,,,,,
15,"x: 289.9690856933594
y: 251.7032470703125
z: -0.16905614733695984
visibility: 0.999933660030365
","x: 291.6365661621094
y: 247.51028442382812
z: -0.15090662240982056
visibility: 0.9998546838760376
","x: 292.5909729003906
y: 247.8057098388672
z: -0.15095584094524384
visibility: 0.9998381733894348
","x: 293.5634460449219
y: 248.0441131591797
z: -0.1509617269039154
visibility: 0.9998341202735901
","x: 288.6203918457031
y: 247.01356506347656
z: -0.15734095871448517
visibility: 0.9998722076416016
","x: 287.46240234375
y: 247.05120849609375
z: -0.1573437750339508
visibility: 0.9998645186424255
","x: 286.2915344238281
y: 247.0124053955078
z: -0.15736141800880432
visibility: 0.9998824596405029
","x: 294.8720703125
y: 251.74896240234375
z: -0.053293626755476
visibility: 0.9997416138648987
","x: 283.1144104003906
y: 250.52694702148438
z: -0.08403857052326202
visibility: 0.9997909665107727
","x: 291.6594543457031
y: 258.0975646972656
z: -0.13450804352760315
visibility: 0.9998995065689087
","x: 287.6510925292969
y: 257.25299072265625
z: -0.1427721530199051
visibility: 0.999925434589386
","x: 302.72772216796875
y: 285.04058837890625
z: -0.006647782865911722
visibility: 0.9998363256454468
","x: 272.7386169433594
y: 286.2399597167969
z: -0.04998655244708061
visibility: 0.9998179078102112
","x: 310.5806579589844
y: 321.02252197265625
z: -0.06676840037107468
visibility: 0.9818149209022522
","x: 266.2465515136719
y: 328.0326843261719
z: -0.0951833575963974
visibility: 0.969702422618866
","x: 300.9202880859375
y: 333.7757873535156
z: -0.21243350207805634
visibility: 0.9706277251243591
","x: 282.78668212890625
y: 342.0428771972656
z: -0.2152009755373001
visibility: 0.9442479014396667
","x: 299.144775390625
y: 339.73443603515625
z: -0.26432329416275024
visibility: 0.9350088834762573
","x: 286.9127197265625
y: 344.90545654296875
z: -0.25016549229621887
visibility: 0.9040684103965759
","x: 296.18536376953125
y: 334.9829406738281
z: -0.27736976742744446
visibility: 0.9320635795593262
","x: 288.86065673828125
y: 331.03045654296875
z: -0.25706472992897034
visibility: 0.9074614644050598
","x: 295.3406982421875
y: 333.10223388671875
z: -0.2284235656261444
visibility: 0.9077330827713013
","x: 287.82891845703125
y: 330.7811279296875
z: -0.21923251450061798
visibility: 0.888150691986084
","x: 297.5139465332031
y: 366.18609619140625
z: 0.009516628459095955
visibility: 0.999522864818573
","x: 277.3316650390625
y: 369.65374755859375
z: -0.009544420056045055
visibility: 0.9996110200881958
","x: 306.32928466796875
y: 430.8055419921875
z: -0.013429041020572186
visibility: 0.995477557182312
","x: 273.83453369140625
y: 432.0834045410156
z: -0.037412289530038834
visibility: 0.9954171776771545
","x: 312.03607177734375
y: 485.0741271972656
z: 0.12427359819412231
visibility: 0.9939096570014954
","x: 266.7010803222656
y: 490.588623046875
z: 0.08750763535499573
visibility: 0.9949852824211121
","x: 310.6648864746094
y: 493.1402893066406
z: 0.1320449411869049
visibility: 0.853943943977356
","x: 265.52581787109375
y: 498.49237060546875
z: 0.09758376330137253
visibility: 0.9099356532096863
","x: 318.6985778808594
y: 506.2966613769531
z: 0.0356249138712883
visibility: 0.9888218641281128
","x: 267.89111328125
y: 510.22698974609375
z: -0.0062448917888104916
visibility: 0.9900925755500793
",4.801550626754761,,,,,,,,,,,,,,,,,,,,,,,,,,,,,,,,,,,,,,,,,,
16,"x: 290.4368896484375
y: 257.7234802246094
z: -0.3248499035835266
visibility: 0.9999401569366455
","x: 291.71661376953125
y: 253.1163787841797
z: -0.30925247073173523
visibility: 0.9998686909675598
","x: 292.65081787109375
y: 253.20596313476562
z: -0.309258371591568
visibility: 0.9998539090156555
","x: 293.6029357910156
y: 253.34153747558594
z: -0.3092879354953766
visibility: 0.9998501539230347
","x: 288.775390625
y: 253.12823486328125
z: -0.3135640621185303
visibility: 0.999884307384491
","x: 287.5483093261719
y: 253.28652954101562
z: -0.3136233389377594
visibility: 0.9998774528503418
","x: 286.3144836425781
y: 253.56825256347656
z: -0.3136225640773773
visibility: 0.9998934268951416
","x: 295.00732421875
y: 256.6138000488281
z: -0.20731671154499054
visibility: 0.9997663497924805
","x: 283.297119140625
y: 257.4804992675781
z: -0.22664551436901093
visibility: 0.999810516834259
","x: 291.9471435546875
y: 264.6553955078125
z: -0.2857920229434967
visibility: 0.9999092221260071
","x: 288.0644226074219
y: 264.55218505859375
z: -0.29154184460639954
visibility: 0.9999324679374695
","x: 303.5168762207031
y: 290.61419677734375
z: -0.12304415553808212
visibility: 0.9998522400856018
","x: 274.21142578125
y: 293.61090087890625
z: -0.1502854824066162
visibility: 0.9998325705528259
","x: 310.92889404296875
y: 329.5060729980469
z: -0.07847721874713898
visibility: 0.9824024438858032
","x: 266.4018859863281
y: 335.81512451171875
z: -0.1201246827840805
visibility: 0.9720304608345032
","x: 317.3725280761719
y: 368.0655517578125
z: -0.16343115270137787
visibility: 0.9719256162643433
","x: 260.973876953125
y: 372.6294250488281
z: -0.1893291473388672
visibility: 0.9480373859405518
","x: 321.117431640625
y: 376.1224670410156
z: -0.18428747355937958
visibility: 0.937422513961792
","x: 256.48388671875
y: 381.8627624511719
z: -0.21350665390491486
visibility: 0.9094235897064209
","x: 320.7288513183594
y: 376.85302734375
z: -0.2141343057155609
visibility: 0.9353510141372681
","x: 257.06549072265625
y: 383.1404113769531
z: -0.24006128311157227
visibility: 0.9129772186279297
","x: 318.80657958984375
y: 374.4744567871094
z: -0.17768093943595886
visibility: 0.9126389026641846
","x: 259.3672180175781
y: 380.6997985839844
z: -0.20188982784748077
visibility: 0.8947955965995789
","x: 300.09130859375
y: 371.3858642578125
z: 0.007171476725488901
visibility: 0.9995642900466919
","x: 279.7383117675781
y: 373.1431884765625
z: -0.007257653865963221
visibility: 0.9996351003646851
","x: 310.9602355957031
y: 438.0220947265625
z: -0.015362998470664024
visibility: 0.9958041310310364
","x: 274.2421569824219
y: 433.8331298828125
z: -0.02815878763794899
visibility: 0.9954558610916138
","x: 323.2679443359375
y: 492.13250732421875
z: 0.11346515268087387
visibility: 0.9943434596061707
","x: 265.5841064453125
y: 492.0402526855469
z: 0.139123797416687
visibility: 0.9947664141654968
","x: 323.33282470703125
y: 498.194091796875
z: 0.12161153554916382
visibility: 0.8589922189712524
","x: 263.2785949707031
y: 500.86407470703125
z: 0.15038776397705078
visibility: 0.8928253650665283
","x: 326.05615234375
y: 513.4332275390625
z: 0.014193689450621605
visibility: 0.9894261956214905
","x: 268.92266845703125
y: 510.07623291015625
z: 0.04543594270944595
visibility: 0.9895985722541809
",4.91206169128418,,,,,,,,,,,,,,,,,,,,,,,,,,,,,,,,,,,,,,,,,,
17,"x: 290.4368896484375
y: 257.7234802246094
z: -0.3248499035835266
visibility: 0.9999401569366455
","x: 291.71661376953125
y: 253.1163787841797
z: -0.30925247073173523
visibility: 0.9998686909675598
","x: 292.65081787109375
y: 253.20596313476562
z: -0.309258371591568
visibility: 0.9998539090156555
","x: 293.6029357910156
y: 253.34153747558594
z: -0.3092879354953766
visibility: 0.9998501539230347
","x: 288.775390625
y: 253.12823486328125
z: -0.3135640621185303
visibility: 0.999884307384491
","x: 287.5483093261719
y: 253.28652954101562
z: -0.3136233389377594
visibility: 0.9998774528503418
","x: 286.3144836425781
y: 253.56825256347656
z: -0.3136225640773773
visibility: 0.9998934268951416
","x: 295.00732421875
y: 256.6138000488281
z: -0.20731671154499054
visibility: 0.9997663497924805
","x: 283.297119140625
y: 257.4804992675781
z: -0.22664551436901093
visibility: 0.999810516834259
","x: 291.9471435546875
y: 264.6553955078125
z: -0.2857920229434967
visibility: 0.9999092221260071
","x: 288.0644226074219
y: 264.55218505859375
z: -0.29154184460639954
visibility: 0.9999324679374695
","x: 303.5168762207031
y: 290.61419677734375
z: -0.12304415553808212
visibility: 0.9998522400856018
","x: 274.21142578125
y: 293.61090087890625
z: -0.1502854824066162
visibility: 0.9998325705528259
","x: 310.92889404296875
y: 329.5060729980469
z: -0.07847721874713898
visibility: 0.9824024438858032
","x: 266.4018859863281
y: 335.81512451171875
z: -0.1201246827840805
visibility: 0.9720304608345032
","x: 317.3725280761719
y: 368.0655517578125
z: -0.16343115270137787
visibility: 0.9719256162643433
","x: 260.973876953125
y: 372.6294250488281
z: -0.1893291473388672
visibility: 0.9480373859405518
","x: 321.117431640625
y: 376.1224670410156
z: -0.18428747355937958
visibility: 0.937422513961792
","x: 256.48388671875
y: 381.8627624511719
z: -0.21350665390491486
visibility: 0.9094235897064209
","x: 320.7288513183594
y: 376.85302734375
z: -0.2141343057155609
visibility: 0.9353510141372681
","x: 257.06549072265625
y: 383.1404113769531
z: -0.24006128311157227
visibility: 0.9129772186279297
","x: 318.80657958984375
y: 374.4744567871094
z: -0.17768093943595886
visibility: 0.9126389026641846
","x: 259.3672180175781
y: 380.6997985839844
z: -0.20188982784748077
visibility: 0.8947955965995789
","x: 300.09130859375
y: 371.3858642578125
z: 0.007171476725488901
visibility: 0.9995642900466919
","x: 279.7383117675781
y: 373.1431884765625
z: -0.007257653865963221
visibility: 0.9996351003646851
","x: 310.9602355957031
y: 438.0220947265625
z: -0.015362998470664024
visibility: 0.9958041310310364
","x: 274.2421569824219
y: 433.8331298828125
z: -0.02815878763794899
visibility: 0.9954558610916138
","x: 323.2679443359375
y: 492.13250732421875
z: 0.11346515268087387
visibility: 0.9943434596061707
","x: 265.5841064453125
y: 492.0402526855469
z: 0.139123797416687
visibility: 0.9947664141654968
","x: 323.33282470703125
y: 498.194091796875
z: 0.12161153554916382
visibility: 0.8589922189712524
","x: 263.2785949707031
y: 500.86407470703125
z: 0.15038776397705078
visibility: 0.8928253650665283
","x: 326.05615234375
y: 513.4332275390625
z: 0.014193689450621605
visibility: 0.9894261956214905
","x: 268.92266845703125
y: 510.07623291015625
z: 0.04543594270944595
visibility: 0.9895985722541809
",4.91206169128418,,,,,,,,,,,,,,,,,,,,,,,,,,,,,,,,,,,,,,,,,,
18,"x: 298.1023864746094
y: 257.5595397949219
z: -0.32874801754951477
visibility: 0.9999457597732544
","x: 299.3293762207031
y: 253.29246520996094
z: -0.31411269307136536
visibility: 0.999879777431488
","x: 300.390380859375
y: 253.43458557128906
z: -0.3141062557697296
visibility: 0.9998668432235718
","x: 301.42266845703125
y: 253.62037658691406
z: -0.31411880254745483
visibility: 0.9998630881309509
","x: 296.08563232421875
y: 253.4063720703125
z: -0.31551477313041687
visibility: 0.9998934268951416
","x: 294.833740234375
y: 253.68081665039062
z: -0.31557586789131165
visibility: 0.9998876452445984
","x: 293.58587646484375
y: 254.017333984375
z: -0.3155813217163086
visibility: 0.9999014735221863
","x: 302.8486633300781
y: 257.56231689453125
z: -0.21670587360858917
visibility: 0.999783992767334
","x: 291.34979248046875
y: 258.34429931640625
z: -0.22289998829364777
visibility: 0.9998250603675842
","x: 300.01446533203125
y: 264.4049377441406
z: -0.2917209565639496
visibility: 0.9999175071716309
","x: 295.59100341796875
y: 264.3055419921875
z: -0.2936609387397766
visibility: 0.9999382495880127
","x: 312.3965148925781
y: 293.391845703125
z: -0.13577385246753693
visibility: 0.9998666644096375
","x: 282.7215576171875
y: 294.68463134765625
z: -0.1485433131456375
visibility: 0.9998468160629272
","x: 319.77056884765625
y: 329.10205078125
z: -0.08553542196750641
visibility: 0.9828578233718872
","x: 272.1585693359375
y: 335.9225769042969
z: -0.11584465205669403
visibility: 0.9742380976676941
","x: 326.94696044921875
y: 362.52783203125
z: -0.1704375445842743
visibility: 0.9727231860160828
","x: 263.4402770996094
y: 375.6692810058594
z: -0.1797460913658142
visibility: 0.9512624144554138
","x: 329.3379821777344
y: 373.18841552734375
z: -0.189300075173378
visibility: 0.9392368197441101
","x: 258.5498962402344
y: 384.9612731933594
z: -0.2023615539073944
visibility: 0.9132646918296814
","x: 328.7846984863281
y: 374.2418212890625
z: -0.21716637909412384
visibility: 0.9379723072052002
","x: 258.903076171875
y: 387.4589538574219
z: -0.22943739593029022
visibility: 0.9169099926948547
","x: 327.1959228515625
y: 371.57000732421875
z: -0.18298928439617157
visibility: 0.9167410731315613
","x: 262.009033203125
y: 384.33209228515625
z: -0.19251470267772675
visibility: 0.9000849723815918
","x: 307.22930908203125
y: 372.80206298828125
z: 0.008561898022890091
visibility: 0.9996060132980347
","x: 287.5646667480469
y: 373.3114013671875
z: -0.008691494353115559
visibility: 0.999665379524231
","x: 318.190185546875
y: 438.76959228515625
z: -0.029769167304039
visibility: 0.9960819482803345
","x: 285.6337890625
y: 435.63922119140625
z: -0.09280519187450409
visibility: 0.9957165122032166
","x: 323.7534484863281
y: 492.2726745605469
z: 0.14524218440055847
visibility: 0.9946679472923279
","x: 276.9110412597656
y: 476.1230773925781
z: 0.1669500470161438
visibility: 0.9933926463127136
","x: 322.7963562011719
y: 497.7044982910156
z: 0.15857838094234467
visibility: 0.8615293502807617
","x: 276.1007080078125
y: 477.0541687011719
z: 0.19078081846237183
visibility: 0.8716421127319336
","x: 327.6163330078125
y: 515.2742919921875
z: 0.0606674961745739
visibility: 0.9899013638496399
","x: 278.6093444824219
y: 504.18353271484375
z: 0.1156281977891922
visibility: 0.9885606169700623
",5.052399396896362,,,,,,,,,,,,,,,,,,,,,,,,,,,,,,,,,,,,,,,,,,
19,"x: 298.1023864746094
y: 257.5595397949219
z: -0.32874801754951477
visibility: 0.9999457597732544
","x: 299.3293762207031
y: 253.29246520996094
z: -0.31411269307136536
visibility: 0.999879777431488
","x: 300.390380859375
y: 253.43458557128906
z: -0.3141062557697296
visibility: 0.9998668432235718
","x: 301.42266845703125
y: 253.62037658691406
z: -0.31411880254745483
visibility: 0.9998630881309509
","x: 296.08563232421875
y: 253.4063720703125
z: -0.31551477313041687
visibility: 0.9998934268951416
","x: 294.833740234375
y: 253.68081665039062
z: -0.31557586789131165
visibility: 0.9998876452445984
","x: 293.58587646484375
y: 254.017333984375
z: -0.3155813217163086
visibility: 0.9999014735221863
","x: 302.8486633300781
y: 257.56231689453125
z: -0.21670587360858917
visibility: 0.999783992767334
","x: 291.34979248046875
y: 258.34429931640625
z: -0.22289998829364777
visibility: 0.9998250603675842
","x: 300.01446533203125
y: 264.4049377441406
z: -0.2917209565639496
visibility: 0.9999175071716309
","x: 295.59100341796875
y: 264.3055419921875
z: -0.2936609387397766
visibility: 0.9999382495880127
","x: 312.3965148925781
y: 293.391845703125
z: -0.13577385246753693
visibility: 0.9998666644096375
","x: 282.7215576171875
y: 294.68463134765625
z: -0.1485433131456375
visibility: 0.9998468160629272
","x: 319.77056884765625
y: 329.10205078125
z: -0.08553542196750641
visibility: 0.9828578233718872
","x: 272.1585693359375
y: 335.9225769042969
z: -0.11584465205669403
visibility: 0.9742380976676941
","x: 326.94696044921875
y: 362.52783203125
z: -0.1704375445842743
visibility: 0.9727231860160828
","x: 263.4402770996094
y: 375.6692810058594
z: -0.1797460913658142
visibility: 0.9512624144554138
","x: 329.3379821777344
y: 373.18841552734375
z: -0.189300075173378
visibility: 0.9392368197441101
","x: 258.5498962402344
y: 384.9612731933594
z: -0.2023615539073944
visibility: 0.9132646918296814
","x: 328.7846984863281
y: 374.2418212890625
z: -0.21716637909412384
visibility: 0.9379723072052002
","x: 258.903076171875
y: 387.4589538574219
z: -0.22943739593029022
visibility: 0.9169099926948547
","x: 327.1959228515625
y: 371.57000732421875
z: -0.18298928439617157
visibility: 0.9167410731315613
","x: 262.009033203125
y: 384.33209228515625
z: -0.19251470267772675
visibility: 0.9000849723815918
","x: 307.22930908203125
y: 372.80206298828125
z: 0.008561898022890091
visibility: 0.9996060132980347
","x: 287.5646667480469
y: 373.3114013671875
z: -0.008691494353115559
visibility: 0.999665379524231
","x: 318.190185546875
y: 438.76959228515625
z: -0.029769167304039
visibility: 0.9960819482803345
","x: 285.6337890625
y: 435.63922119140625
z: -0.09280519187450409
visibility: 0.9957165122032166
","x: 323.7534484863281
y: 492.2726745605469
z: 0.14524218440055847
visibility: 0.9946679472923279
","x: 276.9110412597656
y: 476.1230773925781
z: 0.1669500470161438
visibility: 0.9933926463127136
","x: 322.7963562011719
y: 497.7044982910156
z: 0.15857838094234467
visibility: 0.8615293502807617
","x: 276.1007080078125
y: 477.0541687011719
z: 0.19078081846237183
visibility: 0.8716421127319336
","x: 327.6163330078125
y: 515.2742919921875
z: 0.0606674961745739
visibility: 0.9899013638496399
","x: 278.6093444824219
y: 504.18353271484375
z: 0.1156281977891922
visibility: 0.9885606169700623
",5.052399396896362,,,,,,,,,,,,,,,,,,,,,,,,,,,,,,,,,,,,,,,,,,
20,"x: 301.8145446777344
y: 260.0158386230469
z: -0.28996601700782776
visibility: 0.999950647354126
","x: 303.370361328125
y: 256.04046630859375
z: -0.2792951464653015
visibility: 0.9998900890350342
","x: 304.59967041015625
y: 256.2125244140625
z: -0.2793702483177185
visibility: 0.9998781085014343
","x: 305.7288513183594
y: 256.4588623046875
z: -0.27936241030693054
visibility: 0.9998747110366821
","x: 299.8659362792969
y: 256.16741943359375
z: -0.2978341281414032
visibility: 0.9999027252197266
","x: 298.69732666015625
y: 256.420654296875
z: -0.2975623607635498
visibility: 0.9998975396156311
","x: 297.6020202636719
y: 256.6974792480469
z: -0.2976643443107605
visibility: 0.9999102354049683
","x: 307.466064453125
y: 260.109375
z: -0.16746337711811066
visibility: 0.9997989535331726
","x: 295.7909851074219
y: 260.56060791015625
z: -0.20502722263336182
visibility: 0.9998413324356079
","x: 304.1274719238281
y: 267.01336669921875
z: -0.2431432008743286
visibility: 0.9999251365661621
","x: 299.4416809082031
y: 266.5579528808594
z: -0.25792253017425537
visibility: 0.9999440312385559
","x: 316.7870788574219
y: 295.5020751953125
z: -0.09376882016658783
visibility: 0.999879002571106
","x: 285.63818359375
y: 295.7515869140625
z: -0.09391506016254425
visibility: 0.9998602867126465
","x: 328.1912536621094
y: 328.8922119140625
z: -0.02839311957359314
visibility: 0.9832942485809326
","x: 272.7242126464844
y: 334.6017150878906
z: -0.07130885124206543
visibility: 0.9762433767318726
","x: 323.7601623535156
y: 353.2383728027344
z: -0.11180345714092255
visibility: 0.9719687104225159
","x: 278.0343933105469
y: 373.6253356933594
z: -0.14958152174949646
visibility: 0.9527037143707275
","x: 321.0967712402344
y: 364.08624267578125
z: -0.1357422173023224
visibility: 0.9382455945014954
","x: 280.4157409667969
y: 375.1331787109375
z: -0.19314701855182648
visibility: 0.9134575724601746
","x: 319.5284729003906
y: 359.9709777832031
z: -0.15420526266098022
visibility: 0.9373739361763
","x: 283.2982482910156
y: 381.90252685546875
z: -0.19568708539009094
visibility: 0.9165565967559814
","x: 319.89971923828125
y: 356.0983581542969
z: -0.12021300941705704
visibility: 0.9153047204017639
","x: 282.798095703125
y: 382.07281494140625
z: -0.15429450571537018
visibility: 0.8994082808494568
","x: 310.0495300292969
y: 373.70440673828125
z: 0.006402181927114725
visibility: 0.9996439218521118
","x: 289.2983703613281
y: 373.0592346191406
z: -0.006499590817838907
visibility: 0.9996960163116455
","x: 322.1192932128906
y: 438.7813720703125
z: -0.06374381482601166
visibility: 0.9963300228118896
","x: 284.7622985839844
y: 428.18798828125
z: -0.1380990743637085
visibility: 0.9960599541664124
","x: 323.9068908691406
y: 492.64013671875
z: 0.08263961970806122
visibility: 0.9949924945831299
","x: 283.4814147949219
y: 449.4151306152344
z: 0.13742686808109283
visibility: 0.9914646744728088
","x: 321.6107177734375
y: 498.838134765625
z: 0.09309522062540054
visibility: 0.8677501678466797
","x: 284.7244567871094
y: 448.7333679199219
z: 0.16104856133460999
visibility: 0.8630315065383911
","x: 327.75592041015625
y: 515.6826171875
z: 0.014298766851425171
visibility: 0.9902653098106384
","x: 281.82916259765625
y: 479.2856140136719
z: 0.11327257007360458
visibility: 0.9863421320915222
",5.179347991943359,,,,,,,,,,,,,,,,,,,,,,,,,,,,,,,,,,,,,,,,,,
21,"x: 301.8145446777344
y: 260.0158386230469
z: -0.28996601700782776
visibility: 0.999950647354126
","x: 303.370361328125
y: 256.04046630859375
z: -0.2792951464653015
visibility: 0.9998900890350342
","x: 304.59967041015625
y: 256.2125244140625
z: -0.2793702483177185
visibility: 0.9998781085014343
","x: 305.7288513183594
y: 256.4588623046875
z: -0.27936241030693054
visibility: 0.9998747110366821
","x: 299.8659362792969
y: 256.16741943359375
z: -0.2978341281414032
visibility: 0.9999027252197266
","x: 298.69732666015625
y: 256.420654296875
z: -0.2975623607635498
visibility: 0.9998975396156311
","x: 297.6020202636719
y: 256.6974792480469
z: -0.2976643443107605
visibility: 0.9999102354049683
","x: 307.466064453125
y: 260.109375
z: -0.16746337711811066
visibility: 0.9997989535331726
","x: 295.7909851074219
y: 260.56060791015625
z: -0.20502722263336182
visibility: 0.9998413324356079
","x: 304.1274719238281
y: 267.01336669921875
z: -0.2431432008743286
visibility: 0.9999251365661621
","x: 299.4416809082031
y: 266.5579528808594
z: -0.25792253017425537
visibility: 0.9999440312385559
","x: 316.7870788574219
y: 295.5020751953125
z: -0.09376882016658783
visibility: 0.999879002571106
","x: 285.63818359375
y: 295.7515869140625
z: -0.09391506016254425
visibility: 0.9998602867126465
","x: 328.1912536621094
y: 328.8922119140625
z: -0.02839311957359314
visibility: 0.9832942485809326
","x: 272.7242126464844
y: 334.6017150878906
z: -0.07130885124206543
visibility: 0.9762433767318726
","x: 323.7601623535156
y: 353.2383728027344
z: -0.11180345714092255
visibility: 0.9719687104225159
","x: 278.0343933105469
y: 373.6253356933594
z: -0.14958152174949646
visibility: 0.9527037143707275
","x: 321.0967712402344
y: 364.08624267578125
z: -0.1357422173023224
visibility: 0.9382455945014954
","x: 280.4157409667969
y: 375.1331787109375
z: -0.19314701855182648
visibility: 0.9134575724601746
","x: 319.5284729003906
y: 359.9709777832031
z: -0.15420526266098022
visibility: 0.9373739361763
","x: 283.2982482910156
y: 381.90252685546875
z: -0.19568708539009094
visibility: 0.9165565967559814
","x: 319.89971923828125
y: 356.0983581542969
z: -0.12021300941705704
visibility: 0.9153047204017639
","x: 282.798095703125
y: 382.07281494140625
z: -0.15429450571537018
visibility: 0.8994082808494568
","x: 310.0495300292969
y: 373.70440673828125
z: 0.006402181927114725
visibility: 0.9996439218521118
","x: 289.2983703613281
y: 373.0592346191406
z: -0.006499590817838907
visibility: 0.9996960163116455
","x: 322.1192932128906
y: 438.7813720703125
z: -0.06374381482601166
visibility: 0.9963300228118896
","x: 284.7622985839844
y: 428.18798828125
z: -0.1380990743637085
visibility: 0.9960599541664124
","x: 323.9068908691406
y: 492.64013671875
z: 0.08263961970806122
visibility: 0.9949924945831299
","x: 283.4814147949219
y: 449.4151306152344
z: 0.13742686808109283
visibility: 0.9914646744728088
","x: 321.6107177734375
y: 498.838134765625
z: 0.09309522062540054
visibility: 0.8677501678466797
","x: 284.7244567871094
y: 448.7333679199219
z: 0.16104856133460999
visibility: 0.8630315065383911
","x: 327.75592041015625
y: 515.6826171875
z: 0.014298766851425171
visibility: 0.9902653098106384
","x: 281.82916259765625
y: 479.2856140136719
z: 0.11327257007360458
visibility: 0.9863421320915222
",5.179347991943359,,,,,,,,,,,,,,,,,,,,,,,,,,,,,,,,,,,,,,,,,,
22,"x: 300.1192932128906
y: 256.29498291015625
z: -0.19379779696464539
visibility: 0.9999529123306274
","x: 301.6642761230469
y: 251.9731903076172
z: -0.17554132640361786
visibility: 0.9998970627784729
","x: 302.76165771484375
y: 252.15826416015625
z: -0.17554250359535217
visibility: 0.9998844861984253
","x: 303.826416015625
y: 252.34945678710938
z: -0.1755506843328476
visibility: 0.999880313873291
","x: 298.2908935546875
y: 251.7410888671875
z: -0.17926420271396637
visibility: 0.9999094605445862
","x: 296.9927673339844
y: 251.8291473388672
z: -0.17926716804504395
visibility: 0.9999048113822937
","x: 295.6893005371094
y: 251.931884765625
z: -0.1792653650045395
visibility: 0.9999165534973145
","x: 305.2846984863281
y: 256.240234375
z: -0.07481663674116135
visibility: 0.9998038411140442
","x: 293.4987487792969
y: 256.2411804199219
z: -0.08773233741521835
visibility: 0.9998548626899719
","x: 301.9398193359375
y: 263.5289306640625
z: -0.15649932622909546
visibility: 0.9999298453330994
","x: 297.3966064453125
y: 263.5216369628906
z: -0.16084125638008118
visibility: 0.9999484419822693
","x: 314.52655029296875
y: 292.82037353515625
z: -0.018175389617681503
visibility: 0.9998759627342224
","x: 283.3661804199219
y: 292.08251953125
z: -0.054746150970458984
visibility: 0.9998698830604553
","x: 326.585205078125
y: 327.9565734863281
z: -0.10236053168773651
visibility: 0.9827491044998169
","x: 271.6623229980469
y: 333.5975341796875
z: -0.126938134431839
visibility: 0.9780710339546204
","x: 314.1130676269531
y: 325.60430908203125
z: -0.275342732667923
visibility: 0.9704166054725647
","x: 291.190185546875
y: 326.90716552734375
z: -0.2506137490272522
visibility: 0.9559057354927063
","x: 307.9245300292969
y: 320.6234130859375
z: -0.3129271864891052
visibility: 0.9340797066688538
","x: 296.925537109375
y: 326.9497985839844
z: -0.28477606177330017
visibility: 0.9177964925765991
","x: 306.3564453125
y: 314.7490234375
z: -0.3040451407432556
visibility: 0.9325844049453735
","x: 298.4607238769531
y: 324.83233642578125
z: -0.27565109729766846
visibility: 0.9199903607368469
","x: 308.0166320800781
y: 316.93646240234375
z: -0.27551791071891785
visibility: 0.9076835513114929
","x: 297.1546936035156
y: 324.3529052734375
z: -0.2481590211391449
visibility: 0.9010699987411499
","x: 310.5255432128906
y: 372.8870849609375
z: 0.01623176410794258
visibility: 0.9996709823608398
","x: 288.5392761230469
y: 372.5050048828125
z: -0.016315236687660217
visibility: 0.9997166395187378
","x: 320.9126892089844
y: 438.68878173828125
z: -0.05498480051755905
visibility: 0.9962843060493469
","x: 282.8206787109375
y: 429.58642578125
z: -0.0845290794968605
visibility: 0.996254563331604
","x: 321.37322998046875
y: 493.3503723144531
z: 0.08804432302713394
visibility: 0.9951421618461609
","x: 272.43096923828125
y: 481.65167236328125
z: 0.06180392578244209
visibility: 0.992180347442627
","x: 317.725341796875
y: 503.502197265625
z: 0.10038620233535767
visibility: 0.8781487345695496
","x: 271.82647705078125
y: 486.42132568359375
z: 0.070689857006073
visibility: 0.8708076477050781
","x: 330.30975341796875
y: 514.86767578125
z: 0.013964722864329815
visibility: 0.9903092980384827
","x: 268.603515625
y: 509.4814453125
z: -0.03234731778502464
visibility: 0.9871999621391296
",5.31907057762146,,,,,,,,,,,,,,,,,,,,,,"x: 292.49981689453125
y: 318.2266540527344
z: 0.0
","x: 296.6076354980469
y: 317.6232604980469
z: 0.0021214133594185114
","x: 300.2087707519531
y: 318.4396667480469
z: 0.0007751321536488831
","x: 302.5103759765625
y: 320.5653381347656
z: -0.0013066796818748116
","x: 303.48809814453125
y: 322.7061767578125
z: -0.0028979224152863026
","x: 300.99493408203125
y: 316.06097412109375
z: -0.004861337598413229
","x: 304.2777099609375
y: 322.1802062988281
z: -0.007790911011397839
","x: 302.99468994140625
y: 322.23565673828125
z: -0.007899857126176357
","x: 301.9932861328125
y: 320.5049133300781
z: -0.007669627200812101
","x: 299.3782653808594
y: 317.0009765625
z: -0.00796456541866064
","x: 301.8958435058594
y: 325.3020935058594
z: -0.011187346652150154
","x: 300.3917541503906
y: 324.50311279296875
z: -0.009671381674706936
","x: 299.4213562011719
y: 321.874755859375
z: -0.008394934237003326
","x: 297.62432861328125
y: 318.6668701171875
z: -0.010652423836290836
","x: 299.547607421875
y: 326.6816711425781
z: -0.012853258289396763
","x: 298.3564453125
y: 325.3998107910156
z: -0.009797245264053345
","x: 297.7010803222656
y: 322.81207275390625
z: -0.007772449869662523
","x: 295.9200134277344
y: 320.8619689941406
z: -0.013246506452560425
","x: 297.48785400390625
y: 327.35089111328125
z: -0.014220231212675571
","x: 296.67413330078125
y: 326.10784912109375
z: -0.011989069171249866
","x: 296.0164794921875
y: 323.6629943847656
z: -0.01031667459756136
"
23,"x: 300.1192932128906
y: 256.29498291015625
z: -0.19379779696464539
visibility: 0.9999529123306274
","x: 301.6642761230469
y: 251.9731903076172
z: -0.17554132640361786
visibility: 0.9998970627784729
","x: 302.76165771484375
y: 252.15826416015625
z: -0.17554250359535217
visibility: 0.9998844861984253
","x: 303.826416015625
y: 252.34945678710938
z: -0.1755506843328476
visibility: 0.999880313873291
","x: 298.2908935546875
y: 251.7410888671875
z: -0.17926420271396637
visibility: 0.9999094605445862
","x: 296.9927673339844
y: 251.8291473388672
z: -0.17926716804504395
visibility: 0.9999048113822937
","x: 295.6893005371094
y: 251.931884765625
z: -0.1792653650045395
visibility: 0.9999165534973145
","x: 305.2846984863281
y: 256.240234375
z: -0.07481663674116135
visibility: 0.9998038411140442
","x: 293.4987487792969
y: 256.2411804199219
z: -0.08773233741521835
visibility: 0.9998548626899719
","x: 301.9398193359375
y: 263.5289306640625
z: -0.15649932622909546
visibility: 0.9999298453330994
","x: 297.3966064453125
y: 263.5216369628906
z: -0.16084125638008118
visibility: 0.9999484419822693
","x: 314.52655029296875
y: 292.82037353515625
z: -0.018175389617681503
visibility: 0.9998759627342224
","x: 283.3661804199219
y: 292.08251953125
z: -0.054746150970458984
visibility: 0.9998698830604553
","x: 326.585205078125
y: 327.9565734863281
z: -0.10236053168773651
visibility: 0.9827491044998169
","x: 271.6623229980469
y: 333.5975341796875
z: -0.126938134431839
visibility: 0.9780710339546204
","x: 314.1130676269531
y: 325.60430908203125
z: -0.275342732667923
visibility: 0.9704166054725647
","x: 291.190185546875
y: 326.90716552734375
z: -0.2506137490272522
visibility: 0.9559057354927063
","x: 307.9245300292969
y: 320.6234130859375
z: -0.3129271864891052
visibility: 0.9340797066688538
","x: 296.925537109375
y: 326.9497985839844
z: -0.28477606177330017
visibility: 0.9177964925765991
","x: 306.3564453125
y: 314.7490234375
z: -0.3040451407432556
visibility: 0.9325844049453735
","x: 298.4607238769531
y: 324.83233642578125
z: -0.27565109729766846
visibility: 0.9199903607368469
","x: 308.0166320800781
y: 316.93646240234375
z: -0.27551791071891785
visibility: 0.9076835513114929
","x: 297.1546936035156
y: 324.3529052734375
z: -0.2481590211391449
visibility: 0.9010699987411499
","x: 310.5255432128906
y: 372.8870849609375
z: 0.01623176410794258
visibility: 0.9996709823608398
","x: 288.5392761230469
y: 372.5050048828125
z: -0.016315236687660217
visibility: 0.9997166395187378
","x: 320.9126892089844
y: 438.68878173828125
z: -0.05498480051755905
visibility: 0.9962843060493469
","x: 282.8206787109375
y: 429.58642578125
z: -0.0845290794968605
visibility: 0.996254563331604
","x: 321.37322998046875
y: 493.3503723144531
z: 0.08804432302713394
visibility: 0.9951421618461609
","x: 272.43096923828125
y: 481.65167236328125
z: 0.06180392578244209
visibility: 0.992180347442627
","x: 317.725341796875
y: 503.502197265625
z: 0.10038620233535767
visibility: 0.8781487345695496
","x: 271.82647705078125
y: 486.42132568359375
z: 0.070689857006073
visibility: 0.8708076477050781
","x: 330.30975341796875
y: 514.86767578125
z: 0.013964722864329815
visibility: 0.9903092980384827
","x: 268.603515625
y: 509.4814453125
z: -0.03234731778502464
visibility: 0.9871999621391296
",5.31907057762146,,,,,,,,,,,,,,,,,,,,,,"x: 292.49981689453125
y: 318.2266540527344
z: 0.0
","x: 296.6076354980469
y: 317.6232604980469
z: 0.0021214133594185114
","x: 300.2087707519531
y: 318.4396667480469
z: 0.0007751321536488831
","x: 302.5103759765625
y: 320.5653381347656
z: -0.0013066796818748116
","x: 303.48809814453125
y: 322.7061767578125
z: -0.0028979224152863026
","x: 300.99493408203125
y: 316.06097412109375
z: -0.004861337598413229
","x: 304.2777099609375
y: 322.1802062988281
z: -0.007790911011397839
","x: 302.99468994140625
y: 322.23565673828125
z: -0.007899857126176357
","x: 301.9932861328125
y: 320.5049133300781
z: -0.007669627200812101
","x: 299.3782653808594
y: 317.0009765625
z: -0.00796456541866064
","x: 301.8958435058594
y: 325.3020935058594
z: -0.011187346652150154
","x: 300.3917541503906
y: 324.50311279296875
z: -0.009671381674706936
","x: 299.4213562011719
y: 321.874755859375
z: -0.008394934237003326
","x: 297.62432861328125
y: 318.6668701171875
z: -0.010652423836290836
","x: 299.547607421875
y: 326.6816711425781
z: -0.012853258289396763
","x: 298.3564453125
y: 325.3998107910156
z: -0.009797245264053345
","x: 297.7010803222656
y: 322.81207275390625
z: -0.007772449869662523
","x: 295.9200134277344
y: 320.8619689941406
z: -0.013246506452560425
","x: 297.48785400390625
y: 327.35089111328125
z: -0.014220231212675571
","x: 296.67413330078125
y: 326.10784912109375
z: -0.011989069171249866
","x: 296.0164794921875
y: 323.6629943847656
z: -0.01031667459756136
"
24,"x: 300.1192932128906
y: 256.29498291015625
z: -0.19379779696464539
visibility: 0.9999529123306274
","x: 301.6642761230469
y: 251.9731903076172
z: -0.17554132640361786
visibility: 0.9998970627784729
","x: 302.76165771484375
y: 252.15826416015625
z: -0.17554250359535217
visibility: 0.9998844861984253
","x: 303.826416015625
y: 252.34945678710938
z: -0.1755506843328476
visibility: 0.999880313873291
","x: 298.2908935546875
y: 251.7410888671875
z: -0.17926420271396637
visibility: 0.9999094605445862
","x: 296.9927673339844
y: 251.8291473388672
z: -0.17926716804504395
visibility: 0.9999048113822937
","x: 295.6893005371094
y: 251.931884765625
z: -0.1792653650045395
visibility: 0.9999165534973145
","x: 305.2846984863281
y: 256.240234375
z: -0.07481663674116135
visibility: 0.9998038411140442
","x: 293.4987487792969
y: 256.2411804199219
z: -0.08773233741521835
visibility: 0.9998548626899719
","x: 301.9398193359375
y: 263.5289306640625
z: -0.15649932622909546
visibility: 0.9999298453330994
","x: 297.3966064453125
y: 263.5216369628906
z: -0.16084125638008118
visibility: 0.9999484419822693
","x: 314.52655029296875
y: 292.82037353515625
z: -0.018175389617681503
visibility: 0.9998759627342224
","x: 283.3661804199219
y: 292.08251953125
z: -0.054746150970458984
visibility: 0.9998698830604553
","x: 326.585205078125
y: 327.9565734863281
z: -0.10236053168773651
visibility: 0.9827491044998169
","x: 271.6623229980469
y: 333.5975341796875
z: -0.126938134431839
visibility: 0.9780710339546204
","x: 314.1130676269531
y: 325.60430908203125
z: -0.275342732667923
visibility: 0.9704166054725647
","x: 291.190185546875
y: 326.90716552734375
z: -0.2506137490272522
visibility: 0.9559057354927063
","x: 307.9245300292969
y: 320.6234130859375
z: -0.3129271864891052
visibility: 0.9340797066688538
","x: 296.925537109375
y: 326.9497985839844
z: -0.28477606177330017
visibility: 0.9177964925765991
","x: 306.3564453125
y: 314.7490234375
z: -0.3040451407432556
visibility: 0.9325844049453735
","x: 298.4607238769531
y: 324.83233642578125
z: -0.27565109729766846
visibility: 0.9199903607368469
","x: 308.0166320800781
y: 316.93646240234375
z: -0.27551791071891785
visibility: 0.9076835513114929
","x: 297.1546936035156
y: 324.3529052734375
z: -0.2481590211391449
visibility: 0.9010699987411499
","x: 310.5255432128906
y: 372.8870849609375
z: 0.01623176410794258
visibility: 0.9996709823608398
","x: 288.5392761230469
y: 372.5050048828125
z: -0.016315236687660217
visibility: 0.9997166395187378
","x: 320.9126892089844
y: 438.68878173828125
z: -0.05498480051755905
visibility: 0.9962843060493469
","x: 282.8206787109375
y: 429.58642578125
z: -0.0845290794968605
visibility: 0.996254563331604
","x: 321.37322998046875
y: 493.3503723144531
z: 0.08804432302713394
visibility: 0.9951421618461609
","x: 272.43096923828125
y: 481.65167236328125
z: 0.06180392578244209
visibility: 0.992180347442627
","x: 317.725341796875
y: 503.502197265625
z: 0.10038620233535767
visibility: 0.8781487345695496
","x: 271.82647705078125
y: 486.42132568359375
z: 0.070689857006073
visibility: 0.8708076477050781
","x: 330.30975341796875
y: 514.86767578125
z: 0.013964722864329815
visibility: 0.9903092980384827
","x: 268.603515625
y: 509.4814453125
z: -0.03234731778502464
visibility: 0.9871999621391296
",5.31907057762146,,,,,,,,,,,,,,,,,,,,,,"x: 292.49981689453125
y: 318.2266540527344
z: 0.0
","x: 296.6076354980469
y: 317.6232604980469
z: 0.0021214133594185114
","x: 300.2087707519531
y: 318.4396667480469
z: 0.0007751321536488831
","x: 302.5103759765625
y: 320.5653381347656
z: -0.0013066796818748116
","x: 303.48809814453125
y: 322.7061767578125
z: -0.0028979224152863026
","x: 300.99493408203125
y: 316.06097412109375
z: -0.004861337598413229
","x: 304.2777099609375
y: 322.1802062988281
z: -0.007790911011397839
","x: 302.99468994140625
y: 322.23565673828125
z: -0.007899857126176357
","x: 301.9932861328125
y: 320.5049133300781
z: -0.007669627200812101
","x: 299.3782653808594
y: 317.0009765625
z: -0.00796456541866064
","x: 301.8958435058594
y: 325.3020935058594
z: -0.011187346652150154
","x: 300.3917541503906
y: 324.50311279296875
z: -0.009671381674706936
","x: 299.4213562011719
y: 321.874755859375
z: -0.008394934237003326
","x: 297.62432861328125
y: 318.6668701171875
z: -0.010652423836290836
","x: 299.547607421875
y: 326.6816711425781
z: -0.012853258289396763
","x: 298.3564453125
y: 325.3998107910156
z: -0.009797245264053345
","x: 297.7010803222656
y: 322.81207275390625
z: -0.007772449869662523
","x: 295.9200134277344
y: 320.8619689941406
z: -0.013246506452560425
","x: 297.48785400390625
y: 327.35089111328125
z: -0.014220231212675571
","x: 296.67413330078125
y: 326.10784912109375
z: -0.011989069171249866
","x: 296.0164794921875
y: 323.6629943847656
z: -0.01031667459756136
"
25,"x: 298.5759582519531
y: 256.08282470703125
z: -0.11562864482402802
visibility: 0.9999359846115112
","x: 300.08062744140625
y: 251.7740020751953
z: -0.09951869398355484
visibility: 0.9998834133148193
","x: 301.1541748046875
y: 251.89627075195312
z: -0.09954246133565903
visibility: 0.9998681545257568
","x: 302.20294189453125
y: 252.02175903320312
z: -0.0995459109544754
visibility: 0.9998642802238464
","x: 296.8070068359375
y: 251.72994995117188
z: -0.10156204551458359
visibility: 0.9998868703842163
","x: 295.55914306640625
y: 251.83267211914062
z: -0.1015615463256836
visibility: 0.9998805522918701
","x: 294.29998779296875
y: 251.94715881347656
z: -0.10153748840093613
visibility: 0.9998846650123596
","x: 303.7065124511719
y: 256.0071105957031
z: -0.012915456667542458
visibility: 0.9998006820678711
","x: 291.96905517578125
y: 256.29290771484375
z: -0.021479977294802666
visibility: 0.9998423457145691
","x: 300.4684143066406
y: 263.1416931152344
z: -0.08350259065628052
visibility: 0.9999228715896606
","x: 295.9701232910156
y: 263.490234375
z: -0.08614970743656158
visibility: 0.999936044216156
","x: 312.7395935058594
y: 292.5744934082031
z: -0.008766911923885345
visibility: 0.9998778700828552
","x: 282.1963195800781
y: 290.16802978515625
z: -0.02601701021194458
visibility: 0.9998629689216614
","x: 315.7450256347656
y: 311.23028564453125
z: -0.18304157257080078
visibility: 0.9809674620628357
","x: 276.4831237792969
y: 315.1134338378906
z: -0.18888714909553528
visibility: 0.9750126600265503
","x: 292.1681823730469
y: 310.5081481933594
z: -0.34770044684410095
visibility: 0.9698761105537415
","x: 293.73126220703125
y: 321.32952880859375
z: -0.34552767872810364
visibility: 0.9486632347106934
","x: 286.41290283203125
y: 310.7949523925781
z: -0.3898060917854309
visibility: 0.9347985982894897
","x: 297.47845458984375
y: 323.7513732910156
z: -0.3841227889060974
visibility: 0.9098934531211853
","x: 285.15643310546875
y: 308.1086120605469
z: -0.3767879605293274
visibility: 0.9331080913543701
","x: 300.4312438964844
y: 324.8702392578125
z: -0.37630313634872437
visibility: 0.910688042640686
","x: 287.48724365234375
y: 308.2784423828125
z: -0.3474193215370178
visibility: 0.9078577756881714
","x: 299.3836669921875
y: 323.21673583984375
z: -0.3469015657901764
visibility: 0.8877126574516296
","x: 308.7804260253906
