uscmakers/ReverseChoreography/data/10_throwin_elbows_excision.csv
,NOSE,LEFT_EYE_INNER,LEFT_EYE,LEFT_EYE_OUTER,RIGHT_EYE_INNER,RIGHT_EYE,RIGHT_EYE_OUTER,LEFT_EAR,RIGHT_EAR,MOUTH_LEFT,MOUTH_RIGHT,LEFT_SHOULDER,RIGHT_SHOULDER,LEFT_ELBOW,RIGHT_ELBOW,LEFT_WRIST,RIGHT_WRIST,LEFT_PINKY,RIGHT_PINKY,LEFT_INDEX,RIGHT_INDEX,LEFT_THUMB,RIGHT_THUMB,LEFT_HIP,RIGHT_HIP,LEFT_KNEE,RIGHT_KNEE,LEFT_ANKLE,RIGHT_ANKLE,LEFT_HEEL,RIGHT_HEEL,LEFT_FOOT_INDEX,RIGHT_FOOT_INDEX,TIMESTAMP,WRIST2,THUMB_CPC2,THUMB_MCP2,THUMB_IP2,THUMB_TIP2,INDEX_FINGER_MCP2,INDEX_FINGER_PIP2,INDEX_FINGER_DIP2,INDEX_FINGER_TIP2,MIDDLE_FINGER_MCP2,MIDDLE_FINGER_PIP2,MIDDLE_FINGER_DIP2,MIDDLE_FINGER_TIP2,RING_FINGER_PIP2,RING_FINGER_DIP2,RING_FINGER_TIP2,RING_FINGER_MCP2,PINKY_MCP2,PINKY_PIP2,PINKY_DIP2,PINKY_TIP2,WRIST,THUMB_CPC,THUMB_MCP,THUMB_IP,THUMB_TIP,INDEX_FINGER_MCP,INDEX_FINGER_PIP,INDEX_FINGER_DIP,INDEX_FINGER_TIP,MIDDLE_FINGER_MCP,MIDDLE_FINGER_PIP,MIDDLE_FINGER_DIP,MIDDLE_FINGER_TIP,RING_FINGER_PIP,RING_FINGER_DIP,RING_FINGER_TIP,RING_FINGER_MCP,PINKY_MCP,PINKY_PIP,PINKY_DIP,PINKY_TIP
0,"x: 255.6671905517578
y: 250.05697631835938
z: -0.23756718635559082
visibility: 0.9999935626983643
","x: 257.93798828125
y: 245.57467651367188
z: -0.22158603370189667
visibility: 0.9999866485595703
","x: 259.3309326171875
y: 246.07470703125
z: -0.22157743573188782
visibility: 0.9999839067459106
","x: 260.55157470703125
y: 246.4720001220703
z: -0.22156652808189392
visibility: 0.9999814033508301
","x: 253.81825256347656
y: 244.786376953125
z: -0.22371914982795715
visibility: 0.9999878406524658
","x: 252.4990692138672
y: 244.7059783935547
z: -0.2237459123134613
visibility: 0.9999876022338867
","x: 251.1779022216797
y: 244.61178588867188
z: -0.2237306535243988
visibility: 0.9999880790710449
","x: 262.22100830078125
y: 250.63778686523438
z: -0.12062062323093414
visibility: 0.9999617338180542
","x: 249.1862030029297
y: 248.4742889404297
z: -0.1326371431350708
visibility: 0.9999827146530151
","x: 258.2127380371094
y: 257.2253112792969
z: -0.1996801197528839
visibility: 0.999991774559021
","x: 252.731201171875
y: 256.56597900390625
z: -0.20324885845184326
visibility: 0.9999951124191284
","x: 272.56005859375
y: 288.9432373046875
z: -0.05717775225639343
visibility: 0.9999736547470093
","x: 235.86387634277344
y: 284.8471374511719
z: -0.06541681289672852
visibility: 0.9999642372131348
","x: 285.0290832519531
y: 328.5658264160156
z: -0.13250094652175903
visibility: 0.9970724582672119
","x: 218.68190002441406
y: 321.6576843261719
z: -0.1457512527704239
visibility: 0.9975067973136902
","x: 277.3778991699219
y: 322.8843994140625
z: -0.3281848728656769
visibility: 0.9971588850021362
","x: 231.4925537109375
y: 315.1014404296875
z: -0.32620593905448914
visibility: 0.9955110549926758
","x: 273.84490966796875
y: 324.6611328125
z: -0.370041161775589
visibility: 0.990341067314148
","x: 237.1378631591797
y: 315.6540222167969
z: -0.3642297387123108
visibility: 0.9848300218582153
","x: 271.0621032714844
y: 318.6206359863281
z: -0.3724100887775421
visibility: 0.9903501868247986
","x: 239.53265380859375
y: 310.5243225097656
z: -0.3612181544303894
visibility: 0.9835471510887146
","x: 271.50189208984375
y: 317.76165771484375
z: -0.3325207233428955
visibility: 0.9832035303115845
","x: 238.5889892578125
y: 310.2429504394531
z: -0.3272417485713959
visibility: 0.9738571643829346
","x: 262.994140625
y: 379.275634765625
z: 0.003984198905527592
visibility: 0.9997052550315857
","x: 241.871337890625
y: 376.8529052734375
z: -0.004039047285914421
visibility: 0.9997978806495667
","x: 261.2833251953125
y: 448.03948974609375
z: 0.01726571097970009
visibility: 0.9958968162536621
","x: 235.4169158935547
y: 443.50469970703125
z: -0.01735411398112774
visibility: 0.9971379041671753
","x: 263.76214599609375
y: 509.6773986816406
z: 0.15997107326984406
visibility: 0.995110809803009
","x: 224.0637969970703
y: 504.4252014160156
z: 0.11262728273868561
visibility: 0.9965110421180725
","x: 261.5369567871094
y: 517.7039794921875
z: 0.16781660914421082
visibility: 0.9327119588851929
","x: 225.43324279785156
y: 512.28125
z: 0.11935991048812866
visibility: 0.9146422147750854
","x: 267.3773498535156
y: 528.721923828125
z: 0.06467875838279724
visibility: 0.9909642934799194
","x: 217.67947387695312
y: 527.6766357421875
z: 0.00905154924839735
visibility: 0.9926562905311584
",3.8046822547912598,,,,,,,,,,,,,,,,,,,,,,,,,,,,,,,,,,,,,,,,,,
1,"x: 255.6671905517578
y: 250.05697631835938
z: -0.23756718635559082
visibility: 0.9999935626983643
","x: 257.93798828125
y: 245.57467651367188
z: -0.22158603370189667
visibility: 0.9999866485595703
","x: 259.3309326171875
y: 246.07470703125
z: -0.22157743573188782
visibility: 0.9999839067459106
","x: 260.55157470703125
y: 246.4720001220703
z: -0.22156652808189392
visibility: 0.9999814033508301
","x: 253.81825256347656
y: 244.786376953125
z: -0.22371914982795715
visibility: 0.9999878406524658
","x: 252.4990692138672
y: 244.7059783935547
z: -0.2237459123134613
visibility: 0.9999876022338867
","x: 251.1779022216797
y: 244.61178588867188
z: -0.2237306535243988
visibility: 0.9999880790710449
","x: 262.22100830078125
y: 250.63778686523438
z: -0.12062062323093414
visibility: 0.9999617338180542
","x: 249.1862030029297
y: 248.4742889404297
z: -0.1326371431350708
visibility: 0.9999827146530151
","x: 258.2127380371094
y: 257.2253112792969
z: -0.1996801197528839
visibility: 0.999991774559021
","x: 252.731201171875
y: 256.56597900390625
z: -0.20324885845184326
visibility: 0.9999951124191284
","x: 272.56005859375
y: 288.9432373046875
z: -0.05717775225639343
visibility: 0.9999736547470093
","x: 235.86387634277344
y: 284.8471374511719
z: -0.06541681289672852
visibility: 0.9999642372131348
","x: 285.0290832519531
y: 328.5658264160156
z: -0.13250094652175903
visibility: 0.9970724582672119
","x: 218.68190002441406
y: 321.6576843261719
z: -0.1457512527704239
visibility: 0.9975067973136902
","x: 277.3778991699219
y: 322.8843994140625
z: -0.3281848728656769
visibility: 0.9971588850021362
","x: 231.4925537109375
y: 315.1014404296875
z: -0.32620593905448914
visibility: 0.9955110549926758
","x: 273.84490966796875
y: 324.6611328125
z: -0.370041161775589
visibility: 0.990341067314148
","x: 237.1378631591797
y: 315.6540222167969
z: -0.3642297387123108
visibility: 0.9848300218582153
","x: 271.0621032714844
y: 318.6206359863281
z: -0.3724100887775421
visibility: 0.9903501868247986
","x: 239.53265380859375
y: 310.5243225097656
z: -0.3612181544303894
visibility: 0.9835471510887146
","x: 271.50189208984375
y: 317.76165771484375
z: -0.3325207233428955
visibility: 0.9832035303115845
","x: 238.5889892578125
y: 310.2429504394531
z: -0.3272417485713959
visibility: 0.9738571643829346
","x: 262.994140625
y: 379.275634765625
z: 0.003984198905527592
visibility: 0.9997052550315857
","x: 241.871337890625
y: 376.8529052734375
z: -0.004039047285914421
visibility: 0.9997978806495667
","x: 261.2833251953125
y: 448.03948974609375
z: 0.01726571097970009
visibility: 0.9958968162536621
","x: 235.4169158935547
y: 443.50469970703125
z: -0.01735411398112774
visibility: 0.9971379041671753
","x: 263.76214599609375
y: 509.6773986816406
z: 0.15997107326984406
visibility: 0.995110809803009
","x: 224.0637969970703
y: 504.4252014160156
z: 0.11262728273868561
visibility: 0.9965110421180725
","x: 261.5369567871094
y: 517.7039794921875
z: 0.16781660914421082
visibility: 0.9327119588851929
","x: 225.43324279785156
y: 512.28125
z: 0.11935991048812866
visibility: 0.9146422147750854
","x: 267.3773498535156
y: 528.721923828125
z: 0.06467875838279724
visibility: 0.9909642934799194
","x: 217.67947387695312
y: 527.6766357421875
z: 0.00905154924839735
visibility: 0.9926562905311584
",3.8046822547912598,,,,,,,,,,,,,,,,,,,,,,,,,,,,,,,,,,,,,,,,,,
2,"x: 247.55006408691406
y: 251.70526123046875
z: -0.26373451948165894
visibility: 0.9999930262565613
","x: 249.627197265625
y: 246.91232299804688
z: -0.24887271225452423
visibility: 0.9999858736991882
","x: 251.00784301757812
y: 247.31077575683594
z: -0.24888572096824646
visibility: 0.9999833703041077
","x: 252.44554138183594
y: 247.70635986328125
z: -0.24891439080238342
visibility: 0.9999811053276062
","x: 246.03578186035156
y: 246.30899047851562
z: -0.24856500327587128
visibility: 0.9999867677688599
","x: 244.92379760742188
y: 246.25135803222656
z: -0.24857763946056366
visibility: 0.9999861717224121
","x: 243.53164672851562
y: 246.2184295654297
z: -0.24854668974876404
visibility: 0.9999861717224121
","x: 254.65086364746094
y: 252.12342834472656
z: -0.15298548340797424
visibility: 0.999961256980896
","x: 241.4445343017578
y: 250.5494842529297
z: -0.15203770995140076
visibility: 0.9999781847000122
","x: 249.526611328125
y: 259.74554443359375
z: -0.22759656608104706
visibility: 0.9999911785125732
","x: 245.08163452148438
y: 259.042236328125
z: -0.22756001353263855
visibility: 0.9999938607215881
","x: 264.08087158203125
y: 290.35675048828125
z: -0.0933588370680809
visibility: 0.999971330165863
","x: 229.44241333007812
y: 288.98486328125
z: -0.0789695680141449
visibility: 0.999942421913147
","x: 271.4045104980469
y: 332.663330078125
z: -0.14139845967292786
visibility: 0.9965212941169739
","x: 218.64425659179688
y: 329.4166564941406
z: -0.1430968940258026
visibility: 0.9929356575012207
","x: 259.99310302734375
y: 339.5740051269531
z: -0.3008628487586975
visibility: 0.9948775172233582
","x: 233.49261474609375
y: 326.431396484375
z: -0.3137653172016144
visibility: 0.9854817390441895
","x: 255.59263610839844
y: 346.43243408203125
z: -0.33831554651260376
visibility: 0.9850139617919922
","x: 238.91404724121094
y: 330.61163330078125
z: -0.3524319529533386
visibility: 0.9676976203918457
","x: 253.59823608398438
y: 340.5450744628906
z: -0.3464334011077881
visibility: 0.9849819540977478
","x: 240.7764892578125
y: 323.4090576171875
z: -0.35365384817123413
visibility: 0.9649893045425415
","x: 254.81394958496094
y: 338.0231018066406
z: -0.30614417791366577
visibility: 0.9747827053070068
","x: 239.89784240722656
y: 322.5318908691406
z: -0.31719905138015747
visibility: 0.948895275592804
","x: 255.79974365234375
y: 377.2061767578125
z: -0.0027273413725197315
visibility: 0.9997172951698303
","x: 235.0189208984375
y: 376.17987060546875
z: 0.002677893964573741
visibility: 0.9997832775115967
","x: 256.85321044921875
y: 445.52252197265625
z: -0.017611004412174225
visibility: 0.9960801601409912
","x: 234.64825439453125
y: 442.6931457519531
z: 0.0638965517282486
visibility: 0.9970593452453613
","x: 263.10919189453125
y: 509.5458679199219
z: 0.07074996083974838
visibility: 0.9953877329826355
","x: 231.7471160888672
y: 500.5341796875
z: 0.22962801158428192
visibility: 0.996393084526062
","x: 260.71038818359375
y: 517.71875
z: 0.07235442847013474
visibility: 0.9342625141143799
","x: 234.3508758544922
y: 508.8924865722656
z: 0.24011334776878357
visibility: 0.9156055450439453
","x: 267.1682434082031
y: 528.5440673828125
z: -0.04863618314266205
visibility: 0.9913687109947205
","x: 227.1698455810547
y: 520.44873046875
z: 0.14254164695739746
visibility: 0.9925716519355774
",4.408179044723511,,,,,,,,,,,,,,,,,,,,,,,,,,,,,,,,,,,,,,,,,,
3,"x: 247.55006408691406
y: 251.70526123046875
z: -0.26373451948165894
visibility: 0.9999930262565613
","x: 249.627197265625
y: 246.91232299804688
z: -0.24887271225452423
visibility: 0.9999858736991882
","x: 251.00784301757812
y: 247.31077575683594
z: -0.24888572096824646
visibility: 0.9999833703041077
","x: 252.44554138183594
y: 247.70635986328125
z: -0.24891439080238342
visibility: 0.9999811053276062
","x: 246.03578186035156
y: 246.30899047851562
z: -0.24856500327587128
visibility: 0.9999867677688599
","x: 244.92379760742188
y: 246.25135803222656
z: -0.24857763946056366
visibility: 0.9999861717224121
","x: 243.53164672851562
y: 246.2184295654297
z: -0.24854668974876404
visibility: 0.9999861717224121
","x: 254.65086364746094
y: 252.12342834472656
z: -0.15298548340797424
visibility: 0.999961256980896
","x: 241.4445343017578
y: 250.5494842529297
z: -0.15203770995140076
visibility: 0.9999781847000122
","x: 249.526611328125
y: 259.74554443359375
z: -0.22759656608104706
visibility: 0.9999911785125732
","x: 245.08163452148438
y: 259.042236328125
z: -0.22756001353263855
visibility: 0.9999938607215881
","x: 264.08087158203125
y: 290.35675048828125
z: -0.0933588370680809
visibility: 0.999971330165863
","x: 229.44241333007812
y: 288.98486328125
z: -0.0789695680141449
visibility: 0.999942421913147
","x: 271.4045104980469
y: 332.663330078125
z: -0.14139845967292786
visibility: 0.9965212941169739
","x: 218.64425659179688
y: 329.4166564941406
z: -0.1430968940258026
visibility: 0.9929356575012207
","x: 259.99310302734375
y: 339.5740051269531
z: -0.3008628487586975
visibility: 0.9948775172233582
","x: 233.49261474609375
y: 326.431396484375
z: -0.3137653172016144
visibility: 0.9854817390441895
","x: 255.59263610839844
y: 346.43243408203125
z: -0.33831554651260376
visibility: 0.9850139617919922
","x: 238.91404724121094
y: 330.61163330078125
z: -0.3524319529533386
visibility: 0.9676976203918457
","x: 253.59823608398438
y: 340.5450744628906
z: -0.3464334011077881
visibility: 0.9849819540977478
","x: 240.7764892578125
y: 323.4090576171875
z: -0.35365384817123413
visibility: 0.9649893045425415
","x: 254.81394958496094
y: 338.0231018066406
z: -0.30614417791366577
visibility: 0.9747827053070068
","x: 239.89784240722656
y: 322.5318908691406
z: -0.31719905138015747
visibility: 0.948895275592804
","x: 255.79974365234375
y: 377.2061767578125
z: -0.0027273413725197315
visibility: 0.9997172951698303
","x: 235.0189208984375
y: 376.17987060546875
z: 0.002677893964573741
visibility: 0.9997832775115967
","x: 256.85321044921875
y: 445.52252197265625
z: -0.017611004412174225
visibility: 0.9960801601409912
","x: 234.64825439453125
y: 442.6931457519531
z: 0.0638965517282486
visibility: 0.9970593452453613
","x: 263.10919189453125
y: 509.5458679199219
z: 0.07074996083974838
visibility: 0.9953877329826355
","x: 231.7471160888672
y: 500.5341796875
z: 0.22962801158428192
visibility: 0.996393084526062
","x: 260.71038818359375
y: 517.71875
z: 0.07235442847013474
visibility: 0.9342625141143799
","x: 234.3508758544922
y: 508.8924865722656
z: 0.24011334776878357
visibility: 0.9156055450439453
","x: 267.1682434082031
y: 528.5440673828125
z: -0.04863618314266205
visibility: 0.9913687109947205
","x: 227.1698455810547
y: 520.44873046875
z: 0.14254164695739746
visibility: 0.9925716519355774
",4.408179044723511,,,,,,,,,,,,,,,,,,,,,,,,,,,,,,,,,,,,,,,,,,
4,"x: 242.49281311035156
y: 251.84149169921875
z: -0.2566407322883606
visibility: 0.9999934434890747
","x: 244.43533325195312
y: 247.05584716796875
z: -0.24211867153644562
visibility: 0.9999864101409912
","x: 245.72787475585938
y: 247.43441772460938
z: -0.24213822185993195
visibility: 0.9999842047691345
","x: 247.06813049316406
y: 247.84165954589844
z: -0.24215111136436462
visibility: 0.9999821186065674
","x: 240.94583129882812
y: 246.58697509765625
z: -0.24194295704364777
visibility: 0.9999870657920837
","x: 239.7077178955078
y: 246.6013946533203
z: -0.2419528067111969
visibility: 0.9999863505363464
","x: 238.32225036621094
y: 246.65541076660156
z: -0.2419288158416748
visibility: 0.9999859929084778
","x: 249.1197052001953
y: 252.67758178710938
z: -0.15306274592876434
visibility: 0.9999629855155945
","x: 236.31454467773438
y: 251.41273498535156
z: -0.15063977241516113
visibility: 0.9999769330024719
","x: 244.4344482421875
y: 260.1485595703125
z: -0.22286610305309296
visibility: 0.9999916553497314
","x: 239.9774932861328
y: 259.50787353515625
z: -0.22259636223316193
visibility: 0.9999939203262329
","x: 258.06036376953125
y: 290.8216552734375
z: -0.1018659695982933
visibility: 0.9999734163284302
","x: 224.36297607421875
y: 290.5173034667969
z: -0.08357895910739899
visibility: 0.9999433159828186
","x: 263.40380859375
y: 334.7528381347656
z: -0.11988037824630737
visibility: 0.9965747594833374
","x: 219.12826538085938
y: 337.912109375
z: -0.0724058747291565
visibility: 0.9897900223731995
","x: 256.2755126953125
y: 357.4887390136719
z: -0.24622993171215057
visibility: 0.994661808013916
","x: 227.34756469726562
y: 368.9810485839844
z: -0.16852179169654846
visibility: 0.9797534942626953
","x: 253.26226806640625
y: 370.8453063964844
z: -0.28339025378227234
visibility: 0.9845807552337646
","x: 228.72586059570312
y: 383.2090759277344
z: -0.1998433917760849
visibility: 0.9585598707199097
","x: 250.47621154785156
y: 366.61273193359375
z: -0.3014170527458191
visibility: 0.9846158623695374
","x: 231.66082763671875
y: 381.40667724609375
z: -0.2200603038072586
visibility: 0.9561813473701477
","x: 250.81712341308594
y: 362.687255859375
z: -0.25525134801864624
visibility: 0.9743490219116211
","x: 231.82492065429688
y: 377.16741943359375
z: -0.17829450964927673
visibility: 0.9385061264038086
","x: 249.34304809570312
y: 376.5347900390625
z: -0.005517138168215752
visibility: 0.9997370839118958
","x: 229.05313110351562
y: 376.06378173828125
z: 0.00548738706856966
visibility: 0.9997905492782593
","x: 252.81460571289062
y: 442.8378601074219
z: -0.019755851477384567
visibility: 0.996181070804596
","x: 232.18788146972656
y: 442.7838439941406
z: 0.06347940117120743
visibility: 0.9967634677886963
","x: 261.95184326171875
y: 508.45623779296875
z: 0.05027715116739273
visibility: 0.9956174492835999
","x: 232.85855102539062
y: 500.1001281738281
z: 0.21278460323810577
visibility: 0.9962396025657654
","x: 259.9537353515625
y: 517.4945678710938
z: 0.05022038146853447
visibility: 0.9367855191230774
","x: 235.7772216796875
y: 508.3809814453125
z: 0.22095850110054016
visibility: 0.9171270132064819
","x: 266.6694030761719
y: 526.1742553710938
z: -0.06334023177623749
visibility: 0.9917652606964111
","x: 228.35032653808594
y: 519.0047607421875
z: 0.1255415380001068
visibility: 0.9924571514129639
",4.552425384521484,"x: 255.17564392089844
y: 359.43609619140625
z: 0.0
","x: 251.4932098388672
y: 360.68902587890625
z: -0.002832090249285102
","x: 249.08535766601562
y: 365.6217956542969
z: -0.0037309732288122177
","x: 247.89501953125
y: 371.3608093261719
z: -0.0037467768415808678
","x: 246.84075927734375
y: 375.2492980957031
z: -0.003343704156577587
","x: 252.18801879882812
y: 371.72344970703125
z: -0.005311562679708004
","x: 250.34121704101562
y: 379.20123291015625
z: -0.0058891079388558865
","x: 248.33084106445312
y: 379.9596862792969
z: -0.004850313067436218
","x: 247.10174560546875
y: 379.07379150390625
z: -0.003720576409250498
","x: 253.54925537109375
y: 373.624267578125
z: -0.003924725577235222
","x: 251.5742950439453
y: 381.3069152832031
z: -0.004442864563316107
","x: 249.15736389160156
y: 381.789794921875
z: -0.0032131606712937355
","x: 247.745361328125
y: 380.490478515625
z: -0.0020934210624545813
","x: 254.1331329345703
y: 374.3447265625
z: -0.0025142033118754625
","x: 252.35667419433594
y: 381.2713317871094
z: -0.003287995932623744
","x: 250.04193115234375
y: 381.93463134765625
z: -0.0026811750140041113
","x: 248.65061950683594
y: 381.01251220703125
z: -0.0019567799754440784
","x: 254.21925354003906
y: 374.27081298828125
z: -0.0012652513105422258
","x: 252.70660400390625
y: 379.8414611816406
z: -0.0022305126767605543
","x: 250.798583984375
y: 380.9814758300781
z: -0.002137010218575597
","x: 249.4205780029297
y: 380.5101013183594
z: -0.0016131200827658176
",,,,,,,,,,,,,,,,,,,,,
5,"x: 242.49281311035156
y: 251.84149169921875
z: -0.2566407322883606
visibility: 0.9999934434890747
","x: 244.43533325195312
y: 247.05584716796875
z: -0.24211867153644562
visibility: 0.9999864101409912
","x: 245.72787475585938
y: 247.43441772460938
z: -0.24213822185993195
visibility: 0.9999842047691345
","x: 247.06813049316406
y: 247.84165954589844
z: -0.24215111136436462
visibility: 0.9999821186065674
","x: 240.94583129882812
y: 246.58697509765625
z: -0.24194295704364777
visibility: 0.9999870657920837
","x: 239.7077178955078
y: 246.6013946533203
z: -0.2419528067111969
visibility: 0.9999863505363464
","x: 238.32225036621094
y: 246.65541076660156
z: -0.2419288158416748
visibility: 0.9999859929084778
","x: 249.1197052001953
y: 252.67758178710938
z: -0.15306274592876434
visibility: 0.9999629855155945
","x: 236.31454467773438
y: 251.41273498535156
z: -0.15063977241516113
visibility: 0.9999769330024719
","x: 244.4344482421875
y: 260.1485595703125
z: -0.22286610305309296
visibility: 0.9999916553497314
","x: 239.9774932861328
y: 259.50787353515625
z: -0.22259636223316193
visibility: 0.9999939203262329
","x: 258.06036376953125
y: 290.8216552734375
z: -0.1018659695982933
visibility: 0.9999734163284302
","x: 224.36297607421875
y: 290.5173034667969
z: -0.08357895910739899
visibility: 0.9999433159828186
","x: 263.40380859375
y: 334.7528381347656
z: -0.11988037824630737
visibility: 0.9965747594833374
","x: 219.12826538085938
y: 337.912109375
z: -0.0724058747291565
visibility: 0.9897900223731995
","x: 256.2755126953125
y: 357.4887390136719
z: -0.24622993171215057
visibility: 0.994661808013916
","x: 227.34756469726562
y: 368.9810485839844
z: -0.16852179169654846
visibility: 0.9797534942626953
","x: 253.26226806640625
y: 370.8453063964844
z: -0.28339025378227234
visibility: 0.9845807552337646
","x: 228.72586059570312
y: 383.2090759277344
z: -0.1998433917760849
visibility: 0.9585598707199097
","x: 250.47621154785156
y: 366.61273193359375
z: -0.3014170527458191
visibility: 0.9846158623695374
","x: 231.66082763671875
y: 381.40667724609375
z: -0.2200603038072586
visibility: 0.9561813473701477
","x: 250.81712341308594
y: 362.687255859375
z: -0.25525134801864624
visibility: 0.9743490219116211
","x: 231.82492065429688
y: 377.16741943359375
z: -0.17829450964927673
visibility: 0.9385061264038086
","x: 249.34304809570312
y: 376.5347900390625
z: -0.005517138168215752
visibility: 0.9997370839118958
","x: 229.05313110351562
y: 376.06378173828125
z: 0.00548738706856966
visibility: 0.9997905492782593
","x: 252.81460571289062
y: 442.8378601074219
z: -0.019755851477384567
visibility: 0.996181070804596
","x: 232.18788146972656
y: 442.7838439941406
z: 0.06347940117120743
visibility: 0.9967634677886963
","x: 261.95184326171875
y: 508.45623779296875
z: 0.05027715116739273
visibility: 0.9956174492835999
","x: 232.85855102539062
y: 500.1001281738281
z: 0.21278460323810577
visibility: 0.9962396025657654
","x: 259.9537353515625
y: 517.4945678710938
z: 0.05022038146853447
visibility: 0.9367855191230774
","x: 235.7772216796875
y: 508.3809814453125
z: 0.22095850110054016
visibility: 0.9171270132064819
","x: 266.6694030761719
y: 526.1742553710938
z: -0.06334023177623749
visibility: 0.9917652606964111
","x: 228.35032653808594
y: 519.0047607421875
z: 0.1255415380001068
visibility: 0.9924571514129639
",4.552425384521484,"x: 255.17564392089844
y: 359.43609619140625
z: 0.0
","x: 251.4932098388672
y: 360.68902587890625
z: -0.002832090249285102
","x: 249.08535766601562
y: 365.6217956542969
z: -0.0037309732288122177
","x: 247.89501953125
y: 371.3608093261719
z: -0.0037467768415808678
","x: 246.84075927734375
y: 375.2492980957031
z: -0.003343704156577587
","x: 252.18801879882812
y: 371.72344970703125
z: -0.005311562679708004
","x: 250.34121704101562
y: 379.20123291015625
z: -0.0058891079388558865
","x: 248.33084106445312
y: 379.9596862792969
z: -0.004850313067436218
","x: 247.10174560546875
y: 379.07379150390625
z: -0.003720576409250498
","x: 253.54925537109375
y: 373.624267578125
z: -0.003924725577235222
","x: 251.5742950439453
y: 381.3069152832031
z: -0.004442864563316107
","x: 249.15736389160156
y: 381.789794921875
z: -0.0032131606712937355
","x: 247.745361328125
y: 380.490478515625
z: -0.0020934210624545813
","x: 254.1331329345703
y: 374.3447265625
z: -0.0025142033118754625
","x: 252.35667419433594
y: 381.2713317871094
z: -0.003287995932623744
","x: 250.04193115234375
y: 381.93463134765625
z: -0.0026811750140041113
","x: 248.65061950683594
y: 381.01251220703125
z: -0.0019567799754440784
","x: 254.21925354003906
y: 374.27081298828125
z: -0.0012652513105422258
","x: 252.70660400390625
y: 379.8414611816406
z: -0.0022305126767605543
","x: 250.798583984375
y: 380.9814758300781
z: -0.002137010218575597
","x: 249.4205780029297
y: 380.5101013183594
z: -0.0016131200827658176
",,,,,,,,,,,,,,,,,,,,,
6,"x: 242.49281311035156
y: 251.84149169921875
z: -0.2566407322883606
visibility: 0.9999934434890747
","x: 244.43533325195312
y: 247.05584716796875
z: -0.24211867153644562
visibility: 0.9999864101409912
","x: 245.72787475585938
y: 247.43441772460938
z: -0.24213822185993195
visibility: 0.9999842047691345
","x: 247.06813049316406
y: 247.84165954589844
z: -0.24215111136436462
visibility: 0.9999821186065674
","x: 240.94583129882812
y: 246.58697509765625
z: -0.24194295704364777
visibility: 0.9999870657920837
","x: 239.7077178955078
y: 246.6013946533203
z: -0.2419528067111969
visibility: 0.9999863505363464
","x: 238.32225036621094
y: 246.65541076660156
z: -0.2419288158416748
visibility: 0.9999859929084778
","x: 249.1197052001953
y: 252.67758178710938
z: -0.15306274592876434
visibility: 0.9999629855155945
","x: 236.31454467773438
y: 251.41273498535156
z: -0.15063977241516113
visibility: 0.9999769330024719
","x: 244.4344482421875
y: 260.1485595703125
z: -0.22286610305309296
visibility: 0.9999916553497314
","x: 239.9774932861328
y: 259.50787353515625
z: -0.22259636223316193
visibility: 0.9999939203262329
","x: 258.06036376953125
y: 290.8216552734375
z: -0.1018659695982933
visibility: 0.9999734163284302
","x: 224.36297607421875
y: 290.5173034667969
z: -0.08357895910739899
visibility: 0.9999433159828186
","x: 263.40380859375
y: 334.7528381347656
z: -0.11988037824630737
visibility: 0.9965747594833374
","x: 219.12826538085938
y: 337.912109375
z: -0.0724058747291565
visibility: 0.9897900223731995
","x: 256.2755126953125
y: 357.4887390136719
z: -0.24622993171215057
visibility: 0.994661808013916
","x: 227.34756469726562
y: 368.9810485839844
z: -0.16852179169654846
visibility: 0.9797534942626953
","x: 253.26226806640625
y: 370.8453063964844
z: -0.28339025378227234
visibility: 0.9845807552337646
","x: 228.72586059570312
y: 383.2090759277344
z: -0.1998433917760849
visibility: 0.9585598707199097
","x: 250.47621154785156
y: 366.61273193359375
z: -0.3014170527458191
visibility: 0.9846158623695374
","x: 231.66082763671875
y: 381.40667724609375
z: -0.2200603038072586
visibility: 0.9561813473701477
","x: 250.81712341308594
y: 362.687255859375
z: -0.25525134801864624
visibility: 0.9743490219116211
","x: 231.82492065429688
y: 377.16741943359375
z: -0.17829450964927673
visibility: 0.9385061264038086
","x: 249.34304809570312
y: 376.5347900390625
z: -0.005517138168215752
visibility: 0.9997370839118958
","x: 229.05313110351562
y: 376.06378173828125
z: 0.00548738706856966
visibility: 0.9997905492782593
","x: 252.81460571289062
y: 442.8378601074219
z: -0.019755851477384567
visibility: 0.996181070804596
","x: 232.18788146972656
y: 442.7838439941406
z: 0.06347940117120743
visibility: 0.9967634677886963
","x: 261.95184326171875
y: 508.45623779296875
z: 0.05027715116739273
visibility: 0.9956174492835999
","x: 232.85855102539062
y: 500.1001281738281
z: 0.21278460323810577
visibility: 0.9962396025657654
","x: 259.9537353515625
y: 517.4945678710938
z: 0.05022038146853447
visibility: 0.9367855191230774
","x: 235.7772216796875
y: 508.3809814453125
z: 0.22095850110054016
visibility: 0.9171270132064819
","x: 266.6694030761719
y: 526.1742553710938
z: -0.06334023177623749
visibility: 0.9917652606964111
","x: 228.35032653808594
y: 519.0047607421875
z: 0.1255415380001068
visibility: 0.9924571514129639
",4.552425384521484,"x: 255.17564392089844
y: 359.43609619140625
z: 0.0
","x: 251.4932098388672
y: 360.68902587890625
z: -0.002832090249285102
","x: 249.08535766601562
y: 365.6217956542969
z: -0.0037309732288122177
","x: 247.89501953125
y: 371.3608093261719
z: -0.0037467768415808678
","x: 246.84075927734375
y: 375.2492980957031
z: -0.003343704156577587
","x: 252.18801879882812
y: 371.72344970703125
z: -0.005311562679708004
","x: 250.34121704101562
y: 379.20123291015625
z: -0.0058891079388558865
","x: 248.33084106445312
y: 379.9596862792969
z: -0.004850313067436218
","x: 247.10174560546875
y: 379.07379150390625
z: -0.003720576409250498
","x: 253.54925537109375
y: 373.624267578125
z: -0.003924725577235222
","x: 251.5742950439453
y: 381.3069152832031
z: -0.004442864563316107
","x: 249.15736389160156
y: 381.789794921875
z: -0.0032131606712937355
","x: 247.745361328125
y: 380.490478515625
z: -0.0020934210624545813
","x: 254.1331329345703
y: 374.3447265625
z: -0.0025142033118754625
","x: 252.35667419433594
y: 381.2713317871094
z: -0.003287995932623744
","x: 250.04193115234375
y: 381.93463134765625
z: -0.0026811750140041113
","x: 248.65061950683594
y: 381.01251220703125
z: -0.0019567799754440784
","x: 254.21925354003906
y: 374.27081298828125
z: -0.0012652513105422258
","x: 252.70660400390625
y: 379.8414611816406
z: -0.0022305126767605543
","x: 250.798583984375
y: 380.9814758300781
z: -0.002137010218575597
","x: 249.4205780029297
y: 380.5101013183594
z: -0.0016131200827658176
",,,,,,,,,,,,,,,,,,,,,
7,"x: 239.425048828125
y: 252.10462951660156
z: -0.2563146948814392
visibility: 0.9999937415122986
","x: 241.30010986328125
y: 247.32766723632812
z: -0.241236612200737
visibility: 0.9999868869781494
","x: 242.59906005859375
y: 247.69552612304688
z: -0.2412080317735672
visibility: 0.9999849200248718
","x: 243.96299743652344
y: 248.1318359375
z: -0.24121057987213135
visibility: 0.999983012676239
","x: 237.8872833251953
y: 246.89166259765625
z: -0.23882389068603516
visibility: 0.9999874234199524
","x: 236.7627410888672
y: 246.9096221923828
z: -0.23881769180297852
visibility: 0.9999866485595703
","x: 235.48382568359375
y: 246.9671630859375
z: -0.23877349495887756
visibility: 0.9999861717224121
","x: 246.1661376953125
y: 253.29481506347656
z: -0.14488515257835388
visibility: 0.9999649524688721
","x: 233.3583984375
y: 251.78463745117188
z: -0.14912772178649902
visibility: 0.9999767541885376
","x: 241.2865753173828
y: 260.4638366699219
z: -0.21769964694976807
visibility: 0.9999920725822449
","x: 236.95462036132812
y: 259.8060302734375
z: -0.2197418212890625
visibility: 0.9999940395355225
","x: 255.00970458984375
y: 292.0693054199219
z: -0.09687940776348114
visibility: 0.9999749064445496
","x: 220.42259216308594
y: 291.46832275390625
z: -0.08074627816677094
visibility: 0.9999438524246216
","x: 260.5091552734375
y: 335.12518310546875
z: -0.11539417505264282
visibility: 0.996586799621582
","x: 215.8458709716797
y: 337.36651611328125
z: -0.07951442897319794
visibility: 0.9871686697006226
","x: 251.85516357421875
y: 360.0947265625
z: -0.23989517986774445
visibility: 0.9942522048950195
","x: 220.8149871826172
y: 365.2069091796875
z: -0.20422835648059845
visibility: 0.9753828644752502
","x: 248.31773376464844
y: 373.4914855957031
z: -0.2767789661884308
visibility: 0.9836893081665039
","x: 222.11251831054688
y: 380.033935546875
z: -0.23845262825489044
visibility: 0.9518937468528748
","x: 245.44810485839844
y: 368.83843994140625
z: -0.293195515871048
visibility: 0.9837933778762817
","x: 225.30799865722656
y: 377.0257263183594
z: -0.2551242709159851
visibility: 0.9499044418334961
","x: 246.12344360351562
y: 364.87957763671875
z: -0.24824464321136475
visibility: 0.9732771515846252
","x: 225.39157104492188
y: 371.75494384765625
z: -0.2133578509092331
visibility: 0.9312562346458435
","x: 247.04612731933594
y: 375.062255859375
z: -0.007295647170394659
visibility: 0.9997466206550598
","x: 227.21507263183594
y: 375.9698791503906
z: 0.007250575814396143
visibility: 0.9997925162315369
","x: 250.50112915039062
y: 439.5186767578125
z: -0.009810940362513065
visibility: 0.9962483644485474
","x: 231.2969512939453
y: 442.7040100097656
z: 0.0385076068341732
visibility: 0.9964374303817749
","x: 259.3193054199219
y: 505.33746337890625
z: 0.08022598922252655
visibility: 0.9957708716392517
","x: 233.30227661132812
y: 500.28369140625
z: 0.1759420931339264
visibility: 0.9960601925849915
","x: 258.1436462402344
y: 515.0201416015625
z: 0.08218095451593399
visibility: 0.9370245933532715
","x: 235.60391235351562
y: 508.5158996582031
z: 0.1863945722579956
visibility: 0.9175544381141663
","x: 263.59857177734375
y: 521.416748046875
z: -0.02811391092836857
visibility: 0.9919748902320862
","x: 228.38641357421875
y: 518.682373046875
z: 0.0787082090973854
visibility: 0.9921847581863403
",4.676023006439209,,,,,,,,,,,,,,,,,,,,,,,,,,,,,,,,,,,,,,,,,,
8,"x: 239.425048828125
y: 252.10462951660156
z: -0.2563146948814392
visibility: 0.9999937415122986
","x: 241.30010986328125
y: 247.32766723632812
z: -0.241236612200737
visibility: 0.9999868869781494
","x: 242.59906005859375
y: 247.69552612304688
z: -0.2412080317735672
visibility: 0.9999849200248718
","x: 243.96299743652344
y: 248.1318359375
z: -0.24121057987213135
visibility: 0.999983012676239
","x: 237.8872833251953
y: 246.89166259765625
z: -0.23882389068603516
visibility: 0.9999874234199524
","x: 236.7627410888672
y: 246.9096221923828
z: -0.23881769180297852
visibility: 0.9999866485595703
","x: 235.48382568359375
y: 246.9671630859375
z: -0.23877349495887756
visibility: 0.9999861717224121
","x: 246.1661376953125
y: 253.29481506347656
z: -0.14488515257835388
visibility: 0.9999649524688721
","x: 233.3583984375
y: 251.78463745117188
z: -0.14912772178649902
visibility: 0.9999767541885376
","x: 241.2865753173828
y: 260.4638366699219
z: -0.21769964694976807
visibility: 0.9999920725822449
","x: 236.95462036132812
y: 259.8060302734375
z: -0.2197418212890625
visibility: 0.9999940395355225
","x: 255.00970458984375
y: 292.0693054199219
z: -0.09687940776348114
visibility: 0.9999749064445496
","x: 220.42259216308594
y: 291.46832275390625
z: -0.08074627816677094
visibility: 0.9999438524246216
","x: 260.5091552734375
y: 335.12518310546875
z: -0.11539417505264282
visibility: 0.996586799621582
","x: 215.8458709716797
y: 337.36651611328125
z: -0.07951442897319794
visibility: 0.9871686697006226
","x: 251.85516357421875
y: 360.0947265625
z: -0.23989517986774445
visibility: 0.9942522048950195
","x: 220.8149871826172
y: 365.2069091796875
z: -0.20422835648059845
visibility: 0.9753828644752502
","x: 248.31773376464844
y: 373.4914855957031
z: -0.2767789661884308
visibility: 0.9836893081665039
","x: 222.11251831054688
y: 380.033935546875
z: -0.23845262825489044
visibility: 0.9518937468528748
","x: 245.44810485839844
y: 368.83843994140625
z: -0.293195515871048
visibility: 0.9837933778762817
","x: 225.30799865722656
y: 377.0257263183594
z: -0.2551242709159851
visibility: 0.9499044418334961
","x: 246.12344360351562
y: 364.87957763671875
z: -0.24824464321136475
visibility: 0.9732771515846252
","x: 225.39157104492188
y: 371.75494384765625
z: -0.2133578509092331
visibility: 0.9312562346458435
","x: 247.04612731933594
y: 375.062255859375
z: -0.007295647170394659
visibility: 0.9997466206550598
","x: 227.21507263183594
y: 375.9698791503906
z: 0.007250575814396143
visibility: 0.9997925162315369
","x: 250.50112915039062
y: 439.5186767578125
z: -0.009810940362513065
visibility: 0.9962483644485474
","x: 231.2969512939453
y: 442.7040100097656
z: 0.0385076068341732
visibility: 0.9964374303817749
","x: 259.3193054199219
y: 505.33746337890625
z: 0.08022598922252655
visibility: 0.9957708716392517
","x: 233.30227661132812
y: 500.28369140625
z: 0.1759420931339264
visibility: 0.9960601925849915
","x: 258.1436462402344
y: 515.0201416015625
z: 0.08218095451593399
visibility: 0.9370245933532715
","x: 235.60391235351562
y: 508.5158996582031
z: 0.1863945722579956
visibility: 0.9175544381141663
","x: 263.59857177734375
y: 521.416748046875
z: -0.02811391092836857
visibility: 0.9919748902320862
","x: 228.38641357421875
y: 518.682373046875
z: 0.0787082090973854
visibility: 0.9921847581863403
",4.676023006439209,,,,,,,,,,,,,,,,,,,,,,,,,,,,,,,,,,,,,,,,,,
9,"x: 237.89833068847656
y: 251.43370056152344
z: -0.25690582394599915
visibility: 0.9999938607215881
","x: 240.06192016601562
y: 247.29373168945312
z: -0.24140024185180664
visibility: 0.999987006187439
","x: 241.3891143798828
y: 247.67581176757812
z: -0.24140825867652893
visibility: 0.9999852776527405
","x: 242.71336364746094
y: 248.1092071533203
z: -0.24142082035541534
visibility: 0.9999834895133972
","x: 236.1774139404297
y: 246.8453369140625
z: -0.2417893409729004
visibility: 0.9999873638153076
","x: 235.01022338867188
y: 246.87681579589844
z: -0.24179749190807343
visibility: 0.999986469745636
","x: 233.68426513671875
y: 246.9559326171875
z: -0.24176903069019318
visibility: 0.9999856948852539
","x: 244.67543029785156
y: 253.23448181152344
z: -0.14957241714000702
visibility: 0.9999658465385437
","x: 231.72596740722656
y: 251.62942504882812
z: -0.15662714838981628
visibility: 0.9999754428863525
","x: 240.09622192382812
y: 260.1891784667969
z: -0.2221895009279251
visibility: 0.9999921321868896
","x: 235.2355194091797
y: 259.6239013671875
z: -0.22452184557914734
visibility: 0.9999937415122986
","x: 253.1190185546875
y: 292.0354919433594
z: -0.10114152729511261
visibility: 0.9999755620956421
","x: 218.55555725097656
y: 291.55670166015625
z: -0.08698020875453949
visibility: 0.9999379515647888
","x: 258.0171203613281
y: 334.6933288574219
z: -0.11285145580768585
visibility: 0.9965359568595886
","x: 214.2002410888672
y: 336.9809265136719
z: -0.0835910513997078
visibility: 0.9837082624435425
","x: 246.62815856933594
y: 355.0771789550781
z: -0.23481199145317078
visibility: 0.993912398815155
","x: 220.726318359375
y: 361.8907165527344
z: -0.19185835123062134
visibility: 0.9665859937667847
","x: 242.99684143066406
y: 366.6315002441406
z: -0.2695734202861786
visibility: 0.9829533696174622
","x: 222.89552307128906
y: 376.01397705078125
z: -0.22235646843910217
visibility: 0.9392878413200378
","x: 239.4965057373047
y: 362.0179748535156
z: -0.28467443585395813
visibility: 0.9831209182739258
","x: 225.9871368408203
y: 372.0955810546875
z: -0.237280011177063
visibility: 0.9374653697013855
","x: 240.2593231201172
y: 358.2667236328125
z: -0.24212846159934998
visibility: 0.9723513722419739
","x: 225.87353515625
y: 366.9931640625
z: -0.1995118111371994
visibility: 0.916293740272522
","x: 245.83273315429688
y: 372.5350341796875
z: -0.005875349510461092
visibility: 0.999750018119812
","x: 225.93653869628906
y: 375.3042297363281
z: 0.005834280513226986
visibility: 0.9997857809066772
","x: 248.42694091796875
y: 436.6874694824219
z: -0.009310774505138397
visibility: 0.9959816932678223
","x: 230.89865112304688
y: 440.7718505859375
z: 0.028019379824399948
visibility: 0.9958220720291138
","x: 254.29811096191406
y: 502.476806640625
z: 0.07314108312129974
visibility: 0.9956571459770203
","x: 233.0706024169922
y: 499.3980407714844
z: 0.1350346952676773
visibility: 0.9955915212631226
","x: 252.302001953125
y: 512.25439453125
z: 0.07476574927568436
visibility: 0.9371930360794067
","x: 235.55743408203125
y: 507.9471435546875
z: 0.13927631080150604
visibility: 0.913712739944458
","x: 259.5510559082031
y: 520.6788330078125
z: -0.02953696809709072
visibility: 0.9918181896209717
","x: 228.7620391845703
y: 518.9136962890625
z: 0.043356698006391525
visibility: 0.9913939237594604
",4.81845760345459,"x: 243.7821807861328
y: 356.3734130859375
z: 0.0
","x: 240.2900848388672
y: 354.8526306152344
z: -0.0019129697466269135
","x: 236.7816162109375
y: 357.5589294433594
z: -0.0028798917774111032
","x: 234.27096557617188
y: 361.5448303222656
z: -0.0030051525682210922
","x: 232.38206481933594
y: 364.2553405761719
z: -0.0028207129798829556
","x: 237.73574829101562
y: 363.2055969238281
z: -0.006985136773437262
","x: 233.63687133789062
y: 369.41064453125
z: -0.007466469891369343
","x: 231.98428344726562
y: 369.33868408203125
z: -0.005824154708534479
","x: 231.613525390625
y: 368.3387756347656
z: -0.00429588882252574
","x: 239.19522094726562
y: 366.22705078125
z: -0.005980060901492834
","x: 234.94175720214844
y: 372.156982421875
z: -0.005975032225251198
","x: 232.9846954345703
y: 371.4355773925781
z: -0.003577800001949072
","x: 232.46121215820312
y: 369.74560546875
z: -0.0018185547087341547
","x: 240.2967529296875
y: 368.1063537597656
z: -0.0046782721765339375
","x: 236.47262573242188
y: 373.2760009765625
z: -0.004901191685348749
","x: 234.81268310546875
y: 372.213623046875
z: -0.0032230110373347998
","x: 234.4144744873047
y: 370.4942321777344
z: -0.0019883080385625362
","x: 241.0638427734375
y: 368.99676513671875
z: -0.0034187049604952335
","x: 238.1060333251953
y: 373.1039733886719
z: -0.004199655260890722
","x: 236.50924682617188
y: 372.6935119628906
z: -0.0035724793560802937
","x: 235.95693969726562
y: 371.4085693359375
z: -0.0027411680202931166
",,,,,,,,,,,,,,,,,,,,,
10,"x: 237.89833068847656
y: 251.43370056152344
z: -0.25690582394599915
visibility: 0.9999938607215881
","x: 240.06192016601562
y: 247.29373168945312
z: -0.24140024185180664
visibility: 0.999987006187439
","x: 241.3891143798828
y: 247.67581176757812
z: -0.24140825867652893
visibility: 0.9999852776527405
","x: 242.71336364746094
y: 248.1092071533203
z: -0.24142082035541534
visibility: 0.9999834895133972
","x: 236.1774139404297
y: 246.8453369140625
z: -0.2417893409729004
visibility: 0.9999873638153076
","x: 235.01022338867188
y: 246.87681579589844
z: -0.24179749190807343
visibility: 0.999986469745636
","x: 233.68426513671875
y: 246.9559326171875
z: -0.24176903069019318
visibility: 0.9999856948852539
","x: 244.67543029785156
y: 253.23448181152344
z: -0.14957241714000702
visibility: 0.9999658465385437
","x: 231.72596740722656
y: 251.62942504882812
z: -0.15662714838981628
visibility: 0.9999754428863525
","x: 240.09622192382812
y: 260.1891784667969
z: -0.2221895009279251
visibility: 0.9999921321868896
","x: 235.2355194091797
y: 259.6239013671875
z: -0.22452184557914734
visibility: 0.9999937415122986
","x: 253.1190185546875
y: 292.0354919433594
z: -0.10114152729511261
visibility: 0.9999755620956421
","x: 218.55555725097656
y: 291.55670166015625
z: -0.08698020875453949
visibility: 0.9999379515647888
","x: 258.0171203613281
y: 334.6933288574219
z: -0.11285145580768585
visibility: 0.9965359568595886
","x: 214.2002410888672
y: 336.9809265136719
z: -0.0835910513997078
visibility: 0.9837082624435425
","x: 246.62815856933594
y: 355.0771789550781
z: -0.23481199145317078
visibility: 0.993912398815155
","x: 220.726318359375
y: 361.8907165527344
z: -0.19185835123062134
visibility: 0.9665859937667847
","x: 242.99684143066406
y: 366.6315002441406
z: -0.2695734202861786
visibility: 0.9829533696174622
","x: 222.89552307128906
y: 376.01397705078125
z: -0.22235646843910217
visibility: 0.9392878413200378
","x: 239.4965057373047
y: 362.0179748535156
z: -0.28467443585395813
visibility: 0.9831209182739258
","x: 225.9871368408203
y: 372.0955810546875
z: -0.237280011177063
visibility: 0.9374653697013855
","x: 240.2593231201172
y: 358.2667236328125
z: -0.24212846159934998
visibility: 0.9723513722419739
","x: 225.87353515625
y: 366.9931640625
z: -0.1995118111371994
visibility: 0.916293740272522
","x: 245.83273315429688
y: 372.5350341796875
z: -0.005875349510461092
visibility: 0.999750018119812
","x: 225.93653869628906
y: 375.3042297363281
z: 0.005834280513226986
visibility: 0.9997857809066772
","x: 248.42694091796875
y: 436.6874694824219
z: -0.009310774505138397
visibility: 0.9959816932678223
","x: 230.89865112304688
y: 440.7718505859375
z: 0.028019379824399948
visibility: 0.9958220720291138
","x: 254.29811096191406
y: 502.476806640625
z: 0.07314108312129974
visibility: 0.9956571459770203
","x: 233.0706024169922
y: 499.3980407714844
z: 0.1350346952676773
visibility: 0.9955915212631226
","x: 252.302001953125
y: 512.25439453125
z: 0.07476574927568436
visibility: 0.9371930360794067
","x: 235.55743408203125
y: 507.9471435546875
z: 0.13927631080150604
visibility: 0.913712739944458
","x: 259.5510559082031
y: 520.6788330078125
z: -0.02953696809709072
visibility: 0.9918181896209717
","x: 228.7620391845703
y: 518.9136962890625
z: 0.043356698006391525
visibility: 0.9913939237594604
",4.81845760345459,"x: 243.7821807861328
y: 356.3734130859375
z: 0.0
","x: 240.2900848388672
y: 354.8526306152344
z: -0.0019129697466269135
","x: 236.7816162109375
y: 357.5589294433594
z: -0.0028798917774111032
","x: 234.27096557617188
y: 361.5448303222656
z: -0.0030051525682210922
","x: 232.38206481933594
y: 364.2553405761719
z: -0.0028207129798829556
","x: 237.73574829101562
y: 363.2055969238281
z: -0.006985136773437262
","x: 233.63687133789062
y: 369.41064453125
z: -0.007466469891369343
","x: 231.98428344726562
y: 369.33868408203125
z: -0.005824154708534479
","x: 231.613525390625
y: 368.3387756347656
z: -0.00429588882252574
","x: 239.19522094726562
y: 366.22705078125
z: -0.005980060901492834
","x: 234.94175720214844
y: 372.156982421875
z: -0.005975032225251198
","x: 232.9846954345703
y: 371.4355773925781
z: -0.003577800001949072
","x: 232.46121215820312
y: 369.74560546875
z: -0.0018185547087341547
","x: 240.2967529296875
y: 368.1063537597656
z: -0.0046782721765339375
","x: 236.47262573242188
y: 373.2760009765625
z: -0.004901191685348749
","x: 234.81268310546875
y: 372.213623046875
z: -0.0032230110373347998
","x: 234.4144744873047
y: 370.4942321777344
z: -0.0019883080385625362
","x: 241.0638427734375
y: 368.99676513671875
z: -0.0034187049604952335
","x: 238.1060333251953
y: 373.1039733886719
z: -0.004199655260890722
","x: 236.50924682617188
y: 372.6935119628906
z: -0.0035724793560802937
","x: 235.95693969726562
y: 371.4085693359375
z: -0.0027411680202931166
",,,,,,,,,,,,,,,,,,,,,
11,"x: 237.89833068847656
y: 251.43370056152344
z: -0.25690582394599915
visibility: 0.9999938607215881
","x: 240.06192016601562
y: 247.29373168945312
z: -0.24140024185180664
visibility: 0.999987006187439
","x: 241.3891143798828
y: 247.67581176757812
z: -0.24140825867652893
visibility: 0.9999852776527405
","x: 242.71336364746094
y: 248.1092071533203
z: -0.24142082035541534
visibility: 0.9999834895133972
","x: 236.1774139404297
y: 246.8453369140625
z: -0.2417893409729004
visibility: 0.9999873638153076
","x: 235.01022338867188
y: 246.87681579589844
z: -0.24179749190807343
visibility: 0.999986469745636
","x: 233.68426513671875
y: 246.9559326171875
z: -0.24176903069019318
visibility: 0.9999856948852539
","x: 244.67543029785156
y: 253.23448181152344
z: -0.14957241714000702
visibility: 0.9999658465385437
","x: 231.72596740722656
y: 251.62942504882812
z: -0.15662714838981628
visibility: 0.9999754428863525
","x: 240.09622192382812
y: 260.1891784667969
z: -0.2221895009279251
visibility: 0.9999921321868896
","x: 235.2355194091797
y: 259.6239013671875
z: -0.22452184557914734
visibility: 0.9999937415122986
","x: 253.1190185546875
y: 292.0354919433594
z: -0.10114152729511261
visibility: 0.9999755620956421
","x: 218.55555725097656
y: 291.55670166015625
z: -0.08698020875453949
visibility: 0.9999379515647888
","x: 258.0171203613281
y: 334.6933288574219
z: -0.11285145580768585
visibility: 0.9965359568595886
","x: 214.2002410888672
y: 336.9809265136719
z: -0.0835910513997078
visibility: 0.9837082624435425
","x: 246.62815856933594
y: 355.0771789550781
z: -0.23481199145317078
visibility: 0.993912398815155
","x: 220.726318359375
y: 361.8907165527344
z: -0.19185835123062134
visibility: 0.9665859937667847
","x: 242.99684143066406
y: 366.6315002441406
z: -0.2695734202861786
visibility: 0.9829533696174622
","x: 222.89552307128906
y: 376.01397705078125
z: -0.22235646843910217
visibility: 0.9392878413200378
","x: 239.4965057373047
y: 362.0179748535156
z: -0.28467443585395813
visibility: 0.9831209182739258
","x: 225.9871368408203
y: 372.0955810546875
z: -0.237280011177063
visibility: 0.9374653697013855
","x: 240.2593231201172
y: 358.2667236328125
z: -0.24212846159934998
visibility: 0.9723513722419739
","x: 225.87353515625
y: 366.9931640625
z: -0.1995118111371994
visibility: 0.916293740272522
","x: 245.83273315429688
y: 372.5350341796875
z: -0.005875349510461092
visibility: 0.999750018119812
","x: 225.93653869628906
y: 375.3042297363281
z: 0.005834280513226986
visibility: 0.9997857809066772
","x: 248.42694091796875
y: 436.6874694824219
z: -0.009310774505138397
visibility: 0.9959816932678223
","x: 230.89865112304688
y: 440.7718505859375
z: 0.028019379824399948
visibility: 0.9958220720291138
","x: 254.29811096191406
y: 502.476806640625
z: 0.07314108312129974
visibility: 0.9956571459770203
","x: 233.0706024169922
y: 499.3980407714844
z: 0.1350346952676773
visibility: 0.9955915212631226
","x: 252.302001953125
y: 512.25439453125
z: 0.07476574927568436
visibility: 0.9371930360794067
","x: 235.55743408203125
y: 507.9471435546875
z: 0.13927631080150604
visibility: 0.913712739944458
","x: 259.5510559082031
y: 520.6788330078125
z: -0.02953696809709072
visibility: 0.9918181896209717
","x: 228.7620391845703
y: 518.9136962890625
z: 0.043356698006391525
visibility: 0.9913939237594604
",4.81845760345459,"x: 243.7821807861328
y: 356.3734130859375
z: 0.0
","x: 240.2900848388672
y: 354.8526306152344
z: -0.0019129697466269135
","x: 236.7816162109375
y: 357.5589294433594
z: -0.0028798917774111032
","x: 234.27096557617188
y: 361.5448303222656
z: -0.0030051525682210922
","x: 232.38206481933594
y: 364.2553405761719
z: -0.0028207129798829556
","x: 237.73574829101562
y: 363.2055969238281
z: -0.006985136773437262
","x: 233.63687133789062
y: 369.41064453125
z: -0.007466469891369343
","x: 231.98428344726562
y: 369.33868408203125
z: -0.005824154708534479
","x: 231.613525390625
y: 368.3387756347656
z: -0.00429588882252574
","x: 239.19522094726562
y: 366.22705078125
z: -0.005980060901492834
","x: 234.94175720214844
y: 372.156982421875
z: -0.005975032225251198
","x: 232.9846954345703
y: 371.4355773925781
z: -0.003577800001949072
","x: 232.46121215820312
y: 369.74560546875
z: -0.0018185547087341547
","x: 240.2967529296875
y: 368.1063537597656
z: -0.0046782721765339375
","x: 236.47262573242188
y: 373.2760009765625
z: -0.004901191685348749
","x: 234.81268310546875
y: 372.213623046875
z: -0.0032230110373347998
","x: 234.4144744873047
y: 370.4942321777344
z: -0.0019883080385625362
","x: 241.0638427734375
y: 368.99676513671875
z: -0.0034187049604952335
","x: 238.1060333251953
y: 373.1039733886719
z: -0.004199655260890722
","x: 236.50924682617188
y: 372.6935119628906
z: -0.0035724793560802937
","x: 235.95693969726562
y: 371.4085693359375
z: -0.0027411680202931166
",,,,,,,,,,,,,,,,,,,,,
12,"x: 238.1992950439453
y: 248.69821166992188
z: -0.2586340308189392
visibility: 0.9999921321868896
","x: 240.1325225830078
y: 246.02163696289062
z: -0.24354596436023712
visibility: 0.9999812841415405
","x: 241.35069274902344
y: 246.52772521972656
z: -0.24356095492839813
visibility: 0.9999804496765137
","x: 242.50906372070312
y: 247.0932159423828
z: -0.24357108771800995
visibility: 0.9999786615371704
","x: 236.35650634765625
y: 245.51943969726562
z: -0.2443058043718338
visibility: 0.9999813437461853
","x: 235.05023193359375
y: 245.71336364746094
z: -0.2443229854106903
visibility: 0.9999799132347107
","x: 233.7399444580078
y: 245.97190856933594
z: -0.24431955814361572
visibility: 0.999978244304657
","x: 244.21485900878906
y: 252.61447143554688
z: -0.15557685494422913
visibility: 0.9999557137489319
","x: 231.37303161621094
y: 251.3250732421875
z: -0.16040003299713135
visibility: 0.999958872795105
","x: 240.63388061523438
y: 256.6571044921875
z: -0.22587314248085022
visibility: 0.9999899864196777
","x: 235.3388214111328
y: 256.61090087890625
z: -0.22750401496887207
visibility: 0.9999909996986389
","x: 252.96890258789062
y: 291.98358154296875
z: -0.11223679780960083
visibility: 0.9999746680259705
","x: 218.220947265625
y: 291.2082824707031
z: -0.09174048900604248
visibility: 0.999929666519165
","x: 257.7015380859375
y: 334.4125061035156
z: -0.11532433331012726
visibility: 0.9963516592979431
","x: 212.79185485839844
y: 335.603271484375
z: -0.07864914834499359
visibility: 0.9824007153511047
","x: 246.2130889892578
y: 356.72369384765625
z: -0.24364309012889862
visibility: 0.993310809135437
","x: 219.27232360839844
y: 361.4524841308594
z: -0.16919107735157013
visibility: 0.9615245461463928
","x: 242.24862670898438
y: 370.43597412109375
z: -0.27895209193229675
visibility: 0.9818037748336792
","x: 221.55043029785156
y: 375.34429931640625
z: -0.19907939434051514
visibility: 0.9309807419776917
","x: 239.1761474609375
y: 365.90252685546875
z: -0.2964620292186737
visibility: 0.9819948673248291
","x: 224.2567138671875
y: 371.6835021972656
z: -0.21533112227916718
visibility: 0.9293156862258911
","x: 239.73724365234375
y: 361.69720458984375
z: -0.2521017789840698
visibility: 0.9707801342010498
","x: 224.28375244140625
y: 366.72344970703125
z: -0.17732390761375427
visibility: 0.9065153002738953
","x: 245.61489868164062
y: 371.46417236328125
z: -0.005105925258249044
visibility: 0.9997389912605286
","x: 225.68650817871094
y: 374.62872314453125
z: 0.005059417337179184
visibility: 0.9997766017913818
","x: 248.24786376953125
y: 435.79937744140625
z: 0.0015293392352759838
visibility: 0.9958077073097229
","x: 230.78643798828125
y: 439.2376403808594
z: 0.024349521845579147
visibility: 0.995496392250061
","x: 251.8056640625
y: 497.8598327636719
z: 0.10551191866397858
visibility: 0.9954844117164612
","x: 232.82565307617188
y: 498.0577087402344
z: 0.13719291985034943
visibility: 0.99525386095047
","x: 249.30470275878906
y: 506.8057556152344
z: 0.10999079793691635
visibility: 0.9342807531356812
","x: 235.653564453125
y: 506.7135314941406
z: 0.1424185335636139
visibility: 0.9100273251533508
","x: 256.8407897949219
y: 518.1783447265625
z: 0.008821224793791771
visibility: 0.9916393756866455
","x: 228.8050079345703
y: 517.8975830078125
z: 0.04422663897275925
visibility: 0.9909487962722778
",4.973009824752808,,,,,,,,,,,,,,,,,,,,,,,,,,,,,,,,,,,,,,,,,,
13,"x: 238.1992950439453
y: 248.69821166992188
z: -0.2586340308189392
visibility: 0.9999921321868896
","x: 240.1325225830078
y: 246.02163696289062
z: -0.24354596436023712
visibility: 0.9999812841415405
","x: 241.35069274902344
y: 246.52772521972656
z: -0.24356095492839813
visibility: 0.9999804496765137
","x: 242.50906372070312
y: 247.0932159423828
z: -0.24357108771800995
visibility: 0.9999786615371704
","x: 236.35650634765625
y: 245.51943969726562
z: -0.2443058043718338
visibility: 0.9999813437461853
","x: 235.05023193359375
y: 245.71336364746094
z: -0.2443229854106903
visibility: 0.9999799132347107
","x: 233.7399444580078
y: 245.97190856933594
z: -0.24431955814361572
visibility: 0.999978244304657
","x: 244.21485900878906
y: 252.61447143554688
z: -0.15557685494422913
visibility: 0.9999557137489319
","x: 231.37303161621094
y: 251.3250732421875
z: -0.16040003299713135
visibility: 0.999958872795105
","x: 240.63388061523438
y: 256.6571044921875
z: -0.22587314248085022
visibility: 0.9999899864196777
","x: 235.3388214111328
y: 256.61090087890625
z: -0.22750401496887207
visibility: 0.9999909996986389
","x: 252.96890258789062
y: 291.98358154296875
z: -0.11223679780960083
visibility: 0.9999746680259705
","x: 218.220947265625
y: 291.2082824707031
z: -0.09174048900604248
visibility: 0.999929666519165
","x: 257.7015380859375
y: 334.4125061035156
z: -0.11532433331012726
visibility: 0.9963516592979431
","x: 212.79185485839844
y: 335.603271484375
z: -0.07864914834499359
visibility: 0.9824007153511047
","x: 246.2130889892578
y: 356.72369384765625
z: -0.24364309012889862
visibility: 0.993310809135437
","x: 219.27232360839844
y: 361.4524841308594
z: -0.16919107735157013
visibility: 0.9615245461463928
","x: 242.24862670898438
y: 370.43597412109375
z: -0.27895209193229675
visibility: 0.9818037748336792
","x: 221.55043029785156
y: 375.34429931640625
z: -0.19907939434051514
visibility: 0.9309807419776917
","x: 239.1761474609375
y: 365.90252685546875
z: -0.2964620292186737
visibility: 0.9819948673248291
","x: 224.2567138671875
y: 371.6835021972656
z: -0.21533112227916718
visibility: 0.9293156862258911
","x: 239.73724365234375
y: 361.69720458984375
z: -0.2521017789840698
visibility: 0.9707801342010498
","x: 224.28375244140625
y: 366.72344970703125
z: -0.17732390761375427
visibility: 0.9065153002738953
","x: 245.61489868164062
y: 371.46417236328125
z: -0.005105925258249044
visibility: 0.9997389912605286
","x: 225.68650817871094
y: 374.62872314453125
z: 0.005059417337179184
visibility: 0.9997766017913818
","x: 248.24786376953125
y: 435.79937744140625
z: 0.0015293392352759838
visibility: 0.9958077073097229
","x: 230.78643798828125
y: 439.2376403808594
z: 0.024349521845579147
visibility: 0.995496392250061
","x: 251.8056640625
y: 497.8598327636719
z: 0.10551191866397858
visibility: 0.9954844117164612
","x: 232.82565307617188
y: 498.0577087402344
z: 0.13719291985034943
visibility: 0.99525386095047
","x: 249.30470275878906
y: 506.8057556152344
z: 0.10999079793691635
visibility: 0.9342807531356812
","x: 235.653564453125
y: 506.7135314941406
z: 0.1424185335636139
visibility: 0.9100273251533508
","x: 256.8407897949219
y: 518.1783447265625
z: 0.008821224793791771
visibility: 0.9916393756866455
","x: 228.8050079345703
y: 517.8975830078125
z: 0.04422663897275925
visibility: 0.9909487962722778
",4.973009824752808,,,,,,,,,,,,,,,,,,,,,,,,,,,,,,,,,,,,,,,,,,
14,"x: 238.8256378173828
y: 248.79080200195312
z: -0.23673442006111145
visibility: 0.9999915361404419
","x: 240.3860626220703
y: 246.0775146484375
z: -0.22225256264209747
visibility: 0.9999784231185913
","x: 241.45791625976562
y: 246.5589599609375
z: -0.2222587764263153
visibility: 0.9999778866767883
","x: 242.50831604003906
y: 247.10472106933594
z: -0.22224846482276917
visibility: 0.9999762773513794
","x: 237.03102111816406
y: 245.61651611328125
z: -0.22402270138263702
visibility: 0.9999783635139465
","x: 235.80746459960938
y: 245.8128662109375
z: -0.2240423858165741
visibility: 0.9999765157699585
","x: 234.571044921875
y: 246.06504821777344
z: -0.2240591049194336
visibility: 0.9999745488166809
","x: 244.39283752441406
y: 252.5872802734375
z: -0.13944649696350098
visibility: 0.9999501705169678
","x: 232.1800537109375
y: 251.24960327148438
z: -0.14985063672065735
visibility: 0.9999508261680603
","x: 241.06893920898438
y: 256.6732482910156
z: -0.20566339790821075
visibility: 0.9999887943267822
","x: 236.31675720214844
y: 257.0742492675781
z: -0.208597332239151
visibility: 0.9999896287918091
","x: 254.05821228027344
y: 291.86029052734375
z: -0.10162105411291122
visibility: 0.9999743700027466
","x: 219.37344360351562
y: 290.93353271484375
z: -0.08360789716243744
visibility: 0.9999260902404785
","x: 260.33447265625
y: 332.52166748046875
z: -0.05822569131851196
visibility: 0.9961612820625305
","x: 212.06935119628906
y: 333.27606201171875
z: -0.0449347048997879
visibility: 0.9818267822265625
","x: 252.53883361816406
y: 362.9586486816406
z: -0.14516618847846985
visibility: 0.9929146766662598
","x: 215.90843200683594
y: 358.8854675292969
z: -0.116810642182827
visibility: 0.9585458636283875
","x: 249.51742553710938
y: 377.3614501953125
z: -0.17254139482975006
visibility: 0.9809971451759338
","x: 218.10964965820312
y: 372.6190490722656
z: -0.14127995073795319
visibility: 0.9254761934280396
","x: 246.57554626464844
y: 374.1214294433594
z: -0.19680938124656677
visibility: 0.9812573790550232
","x: 221.08767700195312
y: 370.28887939453125
z: -0.1621854454278946
visibility: 0.9241843819618225
","x: 247.119140625
y: 369.46307373046875
z: -0.15555109083652496
visibility: 0.969970166683197
","x: 221.2061004638672
y: 366.1649169921875
z: -0.1264188587665558
visibility: 0.9014023542404175
","x: 247.0211181640625
y: 371.38470458984375
z: -0.0037218276411294937
visibility: 0.9997096061706543
","x: 227.6210174560547
y: 374.3822021484375
z: 0.003709606360644102
visibility: 0.9997609257698059
","x: 249.16683959960938
y: 436.9659729003906
z: 0.008582456968724728
visibility: 0.9957758188247681
","x: 231.0053253173828
y: 439.2403564453125
z: 0.005694977473467588
visibility: 0.9954572319984436
","x: 253.24957275390625
y: 497.9833984375
z: 0.10689949989318848
visibility: 0.9954252243041992
","x: 232.79603576660156
y: 498.12310791015625
z: 0.11082246154546738
visibility: 0.9951607584953308
","x: 250.96173095703125
y: 507.00067138671875
z: 0.11143539845943451
visibility: 0.932957112789154
","x: 235.6444549560547
y: 506.56231689453125
z: 0.11447344720363617
visibility: 0.9087375998497009
","x: 258.52191162109375
y: 518.3272705078125
z: 0.009063242003321648
visibility: 0.991546094417572
","x: 228.43670654296875
y: 517.1344604492188
z: 0.013310840353369713
visibility: 0.9907770156860352
",5.115708351135254,,,,,,,,,,,,,,,,,,,,,,,,,,,,,,,,,,,,,,,,,,
15,"x: 238.8256378173828
y: 248.79080200195312
z: -0.23673442006111145
visibility: 0.9999915361404419
","x: 240.3860626220703
y: 246.0775146484375
z: -0.22225256264209747
visibility: 0.9999784231185913
","x: 241.45791625976562
y: 246.5589599609375
z: -0.2222587764263153
visibility: 0.9999778866767883
","x: 242.50831604003906
y: 247.10472106933594
z: -0.22224846482276917
visibility: 0.9999762773513794
","x: 237.03102111816406
y: 245.61651611328125
z: -0.22402270138263702
visibility: 0.9999783635139465
","x: 235.80746459960938
y: 245.8128662109375
z: -0.2240423858165741
visibility: 0.9999765157699585
","x: 234.571044921875
y: 246.06504821777344
z: -0.2240591049194336
visibility: 0.9999745488166809
","x: 244.39283752441406
y: 252.5872802734375
z: -0.13944649696350098
visibility: 0.9999501705169678
","x: 232.1800537109375
y: 251.24960327148438
z: -0.14985063672065735
visibility: 0.9999508261680603
","x: 241.06893920898438
y: 256.6732482910156
z: -0.20566339790821075
visibility: 0.9999887943267822
","x: 236.31675720214844
y: 257.0742492675781
z: -0.208597332239151
visibility: 0.9999896287918091
","x: 254.05821228027344
y: 291.86029052734375
z: -0.10162105411291122
visibility: 0.9999743700027466
","x: 219.37344360351562
y: 290.93353271484375
z: -0.08360789716243744
visibility: 0.9999260902404785
","x: 260.33447265625
y: 332.52166748046875
z: -0.05822569131851196
visibility: 0.9961612820625305
","x: 212.06935119628906
y: 333.27606201171875
z: -0.0449347048997879
visibility: 0.9818267822265625
","x: 252.53883361816406
y: 362.9586486816406
z: -0.14516618847846985
visibility: 0.9929146766662598
","x: 215.90843200683594
y: 358.8854675292969
z: -0.116810642182827
visibility: 0.9585458636283875
","x: 249.51742553710938
y: 377.3614501953125
z: -0.17254139482975006
visibility: 0.9809971451759338
","x: 218.10964965820312
y: 372.6190490722656
z: -0.14127995073795319
visibility: 0.9254761934280396
","x: 246.57554626464844
y: 374.1214294433594
z: -0.19680938124656677
visibility: 0.9812573790550232
","x: 221.08767700195312
y: 370.28887939453125
z: -0.1621854454278946
visibility: 0.9241843819618225
","x: 247.119140625
y: 369.46307373046875
z: -0.15555109083652496
visibility: 0.969970166683197
","x: 221.2061004638672
y: 366.1649169921875
z: -0.1264188587665558
visibility: 0.9014023542404175
","x: 247.0211181640625
y: 371.38470458984375
z: -0.0037218276411294937
visibility: 0.9997096061706543
","x: 227.6210174560547
y: 374.3822021484375
z: 0.003709606360644102
visibility: 0.9997609257698059
","x: 249.16683959960938
y: 436.9659729003906
z: 0.008582456968724728
visibility: 0.9957758188247681
","x: 231.0053253173828
y: 439.2403564453125
z: 0.005694977473467588
visibility: 0.9954572319984436
","x: 253.24957275390625
y: 497.9833984375
z: 0.10689949989318848
visibility: 0.9954252243041992
","x: 232.79603576660156
y: 498.12310791015625
z: 0.11082246154546738
visibility: 0.9951607584953308
","x: 250.96173095703125
y: 507.00067138671875
z: 0.11143539845943451
visibility: 0.932957112789154
","x: 235.6444549560547
y: 506.56231689453125
z: 0.11447344720363617
visibility: 0.9087375998497009
","x: 258.52191162109375
y: 518.3272705078125
z: 0.009063242003321648
visibility: 0.991546094417572
","x: 228.43670654296875
y: 517.1344604492188
z: 0.013310840353369713
visibility: 0.9907770156860352
",5.115708351135254,,,,,,,,,,,,,,,,,,,,,,,,,,,,,,,,,,,,,,,,,,
16,"x: 240.48300170898438
y: 248.9102020263672
z: -0.24775536358356476
visibility: 0.9999902844429016
","x: 242.17703247070312
y: 246.082763671875
z: -0.23345501720905304
visibility: 0.999972403049469
","x: 243.32957458496094
y: 246.56076049804688
z: -0.23346367478370667
visibility: 0.9999731183052063
","x: 244.4982452392578
y: 247.10426330566406
z: -0.23345914483070374
visibility: 0.9999708533287048
","x: 238.76004028320312
y: 245.63682556152344
z: -0.23409827053546906
visibility: 0.9999712109565735
","x: 237.5389404296875
y: 245.82740783691406
z: -0.23411118984222412
visibility: 0.9999696612358093
","x: 236.26922607421875
y: 246.0677947998047
z: -0.23411837220191956
visibility: 0.9999659657478333
","x: 246.53079223632812
y: 252.56195068359375
z: -0.14601564407348633
visibility: 0.9999421238899231
","x: 234.0735626220703
y: 251.24575805664062
z: -0.15103080868721008
visibility: 0.9999369978904724
","x: 242.69236755371094
y: 256.73028564453125
z: -0.21518738567829132
visibility: 0.9999871253967285
","x: 238.0744171142578
y: 257.0205383300781
z: -0.21647652983665466
visibility: 0.999986469745636
","x: 256.32366943359375
y: 291.78045654296875
z: -0.09550079703330994
visibility: 0.9999747276306152
","x: 221.22227478027344
y: 290.7412414550781
z: -0.08303742110729218
visibility: 0.9999176859855652
","x: 261.6964416503906
y: 330.56207275390625
z: -0.04254994913935661
visibility: 0.9962061643600464
","x: 212.98223876953125
y: 330.3717346191406
z: -0.03166230395436287
visibility: 0.9801000356674194
","x: 265.03436279296875
y: 362.68658447265625
z: -0.10366848856210709
visibility: 0.9925148487091064
","x: 215.07052612304688
y: 357.4133605957031
z: -0.09205720573663712
visibility: 0.9525882005691528
","x: 264.166259765625
y: 377.6963806152344
z: -0.12168671190738678
visibility: 0.9795131683349609
","x: 215.93121337890625
y: 369.8741455078125
z: -0.11227928102016449
visibility: 0.9136091470718384
","x: 261.78765869140625
y: 375.269775390625
z: -0.14757660031318665
visibility: 0.9799820184707642
","x: 218.1993865966797
y: 368.179443359375
z: -0.13494035601615906
visibility: 0.912960946559906
","x: 261.2430419921875
y: 370.2386169433594
z: -0.11421605199575424
visibility: 0.9687387943267822
","x: 218.43955993652344
y: 364.121826171875
z: -0.10254068672657013
visibility: 0.8902078866958618
","x: 248.72412109375
y: 373.4270935058594
z: -0.0035046092234551907
visibility: 0.999709963798523
","x: 228.8038787841797
y: 374.8017578125
z: 0.003482680767774582
visibility: 0.9997554421424866
","x: 250.2161407470703
y: 437.8031921386719
z: 0.007583203725516796
visibility: 0.9957773089408875
","x: 229.84222412109375
y: 439.3956298828125
z: -0.0031556393951177597
visibility: 0.9955670833587646
","x: 253.7871856689453
y: 499.0976257324219
z: 0.12789903581142426
visibility: 0.9954841732978821
","x: 232.2491912841797
y: 496.4549255371094
z: 0.11950793117284775
visibility: 0.9952794313430786
","x: 251.8189697265625
y: 507.8875732421875
z: 0.13373248279094696
visibility: 0.9324399828910828
","x: 234.9658203125
y: 504.378662109375
z: 0.1304119974374771
visibility: 0.9113988876342773
","x: 258.213623046875
y: 518.4925537109375
z: 0.02909770980477333
visibility: 0.9917016625404358
","x: 228.27792358398438
y: 516.57275390625
z: 0.03613298013806343
visibility: 0.9911284446716309
",5.2734763622283936,"x: 264.9400329589844
y: 364.4005126953125
z: 0.0
","x: 261.87860107421875
y: 369.5852355957031
z: 0.0011523972498252988
","x: 260.88494873046875
y: 375.9081726074219
z: 0.0013508802512660623
","x: 260.0071716308594
y: 380.51446533203125
z: 0.0007910831482149661
","x: 259.65692138671875
y: 383.82049560546875
z: 0.0005283369682729244
","x: 265.58660888671875
y: 382.36767578125
z: 0.0022598605137318373
","x: 264.41705322265625
y: 389.642578125
z: 0.001067840843461454
","x: 262.17498779296875
y: 391.8003845214844
z: 0.00045564613537862897
","x: 260.3700866699219
y: 392.035888671875
z: 0.0003536701260600239
","x: 266.4874572753906
y: 382.7768249511719
z: 0.0005869735032320023
","x: 265.074462890625
y: 390.5525207519531
z: -0.0006696170894429088
","x: 262.5384216308594
y: 392.1750183105469
z: -0.0010382606415078044
","x: 260.66094970703125
y: 391.6830749511719
z: -0.0010162469698116183
","x: 266.6628112792969
y: 382.4403381347656
z: -0.0013025952503085136
","x: 264.8970031738281
y: 389.5104675292969
z: -0.0025711229536682367
","x: 262.45355224609375
y: 391.006103515625
z: -0.0025431786198168993
","x: 260.62994384765625
y: 390.6866455078125
z: -0.002246781950816512
","x: 266.00115966796875
y: 381.3500671386719
z: -0.003318692557513714
","x: 264.3983459472656
y: 387.18963623046875
z: -0.004469483159482479
","x: 262.5350646972656
y: 389.24005126953125
z: -0.004462201613932848
","x: 260.9175720214844
y: 389.6378173828125
z: -0.004127082880586386
",,,,,,,,,,,,,,,,,,,,,
17,"x: 240.48300170898438
y: 248.9102020263672
z: -0.24775536358356476
visibility: 0.9999902844429016
","x: 242.17703247070312
y: 246.082763671875
z: -0.23345501720905304
visibility: 0.999972403049469
","x: 243.32957458496094
y: 246.56076049804688
z: -0.23346367478370667
visibility: 0.9999731183052063
","x: 244.4982452392578
y: 247.10426330566406
z: -0.23345914483070374
visibility: 0.9999708533287048
","x: 238.76004028320312
y: 245.63682556152344
z: -0.23409827053546906
visibility: 0.9999712109565735
","x: 237.5389404296875
y: 245.82740783691406
z: -0.23411118984222412
visibility: 0.9999696612358093
","x: 236.26922607421875
y: 246.0677947998047
z: -0.23411837220191956
visibility: 0.9999659657478333
","x: 246.53079223632812
y: 252.56195068359375
z: -0.14601564407348633
visibility: 0.9999421238899231
","x: 234.0735626220703
y: 251.24575805664062
z: -0.15103080868721008
visibility: 0.9999369978904724
","x: 242.69236755371094
y: 256.73028564453125
z: -0.21518738567829132
visibility: 0.9999871253967285
","x: 238.0744171142578
y: 257.0205383300781
z: -0.21647652983665466
visibility: 0.999986469745636
","x: 256.32366943359375
y: 291.78045654296875
z: -0.09550079703330994
visibility: 0.9999747276306152
","x: 221.22227478027344
y: 290.7412414550781
z: -0.08303742110729218
visibility: 0.9999176859855652
","x: 261.6964416503906
y: 330.56207275390625
z: -0.04254994913935661
visibility: 0.9962061643600464
","x: 212.98223876953125
y: 330.3717346191406
z: -0.03166230395436287
visibility: 0.9801000356674194
","x: 265.03436279296875
y: 362.68658447265625
z: -0.10366848856210709
visibility: 0.9925148487091064
","x: 215.07052612304688
y: 357.4133605957031
z: -0.09205720573663712
visibility: 0.9525882005691528
","x: 264.166259765625
y: 377.6963806152344
z: -0.12168671190738678
visibility: 0.9795131683349609
","x: 215.93121337890625
y: 369.8741455078125
z: -0.11227928102016449
visibility: 0.9136091470718384
","x: 261.78765869140625
y: 375.269775390625
z: -0.14757660031318665
visibility: 0.9799820184707642
","x: 218.1993865966797
y: 368.179443359375
z: -0.13494035601615906
visibility: 0.912960946559906
","x: 261.2430419921875
y: 370.2386169433594
z: -0.11421605199575424
visibility: 0.9687387943267822
","x: 218.43955993652344
y: 364.121826171875
z: -0.10254068672657013
visibility: 0.8902078866958618
","x: 248.72412109375
y: 373.4270935058594
z: -0.0035046092234551907
visibility: 0.999709963798523
","x: 228.8038787841797
y: 374.8017578125
z: 0.003482680767774582
visibility: 0.9997554421424866
","x: 250.2161407470703
y: 437.8031921386719
z: 0.007583203725516796
visibility: 0.9957773089408875
","x: 229.84222412109375
y: 439.3956298828125
z: -0.0031556393951177597
visibility: 0.9955670833587646
","x: 253.7871856689453
y: 499.0976257324219
z: 0.12789903581142426
visibility: 0.9954841732978821
","x: 232.2491912841797
y: 496.4549255371094
z: 0.11950793117284775
visibility: 0.9952794313430786
","x: 251.8189697265625
y: 507.8875732421875
z: 0.13373248279094696
visibility: 0.9324399828910828
","x: 234.9658203125
y: 504.378662109375
z: 0.1304119974374771
visibility: 0.9113988876342773
","x: 258.213623046875
y: 518.4925537109375
z: 0.02909770980477333
visibility: 0.9917016625404358
","x: 228.27792358398438
y: 516.57275390625
z: 0.03613298013806343
visibility: 0.9911284446716309
",5.2734763622283936,"x: 264.9400329589844
y: 364.4005126953125
z: 0.0
","x: 261.87860107421875
y: 369.5852355957031
z: 0.0011523972498252988
","x: 260.88494873046875
y: 375.9081726074219
z: 0.0013508802512660623
","x: 260.0071716308594
y: 380.51446533203125
z: 0.0007910831482149661
","x: 259.65692138671875
y: 383.82049560546875
z: 0.0005283369682729244
","x: 265.58660888671875
y: 382.36767578125
z: 0.0022598605137318373
","x: 264.41705322265625
y: 389.642578125
z: 0.001067840843461454
","x: 262.17498779296875
y: 391.8003845214844
z: 0.00045564613537862897
","x: 260.3700866699219
y: 392.035888671875
z: 0.0003536701260600239
","x: 266.4874572753906
y: 382.7768249511719
z: 0.0005869735032320023
","x: 265.074462890625
y: 390.5525207519531
z: -0.0006696170894429088
","x: 262.5384216308594
y: 392.1750183105469
z: -0.0010382606415078044
","x: 260.66094970703125
y: 391.6830749511719
z: -0.0010162469698116183
","x: 266.6628112792969
y: 382.4403381347656
z: -0.0013025952503085136
","x: 264.8970031738281
y: 389.5104675292969
z: -0.0025711229536682367
","x: 262.45355224609375
y: 391.006103515625
z: -0.0025431786198168993
","x: 260.62994384765625
y: 390.6866455078125
z: -0.002246781950816512
","x: 266.00115966796875
y: 381.3500671386719
z: -0.003318692557513714
","x: 264.3983459472656
y: 387.18963623046875
z: -0.004469483159482479
","x: 262.5350646972656
y: 389.24005126953125
z: -0.004462201613932848
","x: 260.9175720214844
y: 389.6378173828125
z: -0.004127082880586386
",,,,,,,,,,,,,,,,,,,,,
18,"x: 240.48300170898438
y: 248.9102020263672
z: -0.24775536358356476
visibility: 0.9999902844429016
","x: 242.17703247070312
y: 246.082763671875
z: -0.23345501720905304
visibility: 0.999972403049469
","x: 243.32957458496094
y: 246.56076049804688
z: -0.23346367478370667
visibility: 0.9999731183052063
","x: 244.4982452392578
y: 247.10426330566406
z: -0.23345914483070374
visibility: 0.9999708533287048
","x: 238.76004028320312
y: 245.63682556152344
z: -0.23409827053546906
visibility: 0.9999712109565735
","x: 237.5389404296875
y: 245.82740783691406
z: -0.23411118984222412
visibility: 0.9999696612358093
","x: 236.26922607421875
y: 246.0677947998047
z: -0.23411837220191956
visibility: 0.9999659657478333
","x: 246.53079223632812
y: 252.56195068359375
z: -0.14601564407348633
visibility: 0.9999421238899231
","x: 234.0735626220703
y: 251.24575805664062
z: -0.15103080868721008
visibility: 0.9999369978904724
","x: 242.69236755371094
y: 256.73028564453125
z: -0.21518738567829132
visibility: 0.9999871253967285
","x: 238.0744171142578
y: 257.0205383300781
z: -0.21647652983665466
visibility: 0.999986469745636
","x: 256.32366943359375
y: 291.78045654296875
z: -0.09550079703330994
visibility: 0.9999747276306152
","x: 221.22227478027344
y: 290.7412414550781
z: -0.08303742110729218
visibility: 0.9999176859855652
","x: 261.6964416503906
y: 330.56207275390625
z: -0.04254994913935661
visibility: 0.9962061643600464
","x: 212.98223876953125
y: 330.3717346191406
z: -0.03166230395436287
visibility: 0.9801000356674194
","x: 265.03436279296875
y: 362.68658447265625
z: -0.10366848856210709
visibility: 0.9925148487091064
","x: 215.07052612304688
y: 357.4133605957031
z: -0.09205720573663712
visibility: 0.9525882005691528
","x: 264.166259765625
y: 377.6963806152344
z: -0.12168671190738678
visibility: 0.9795131683349609
","x: 215.93121337890625
y: 369.8741455078125
z: -0.11227928102016449
visibility: 0.9136091470718384
","x: 261.78765869140625
y: 375.269775390625
z: -0.14757660031318665
visibility: 0.9799820184707642
","x: 218.1993865966797
y: 368.179443359375
z: -0.13494035601615906
visibility: 0.912960946559906
","x: 261.2430419921875
y: 370.2386169433594
z: -0.11421605199575424
visibility: 0.9687387943267822
","x: 218.43955993652344
y: 364.121826171875
z: -0.10254068672657013
visibility: 0.8902078866958618
","x: 248.72412109375
y: 373.4270935058594
z: -0.0035046092234551907
visibility: 0.999709963798523
","x: 228.8038787841797
y: 374.8017578125
z: 0.003482680767774582
visibility: 0.9997554421424866
","x: 250.2161407470703
y: 437.8031921386719
z: 0.007583203725516796
visibility: 0.9957773089408875
","x: 229.84222412109375
y: 439.3956298828125
z: -0.0031556393951177597
visibility: 0.9955670833587646
","x: 253.7871856689453
y: 499.0976257324219
z: 0.12789903581142426
visibility: 0.9954841732978821
","x: 232.2491912841797
y: 496.4549255371094
z: 0.11950793117284775
visibility: 0.9952794313430786
","x: 251.8189697265625
y: 507.8875732421875
z: 0.13373248279094696
visibility: 0.9324399828910828
","x: 234.9658203125
y: 504.378662109375
z: 0.1304119974374771
visibility: 0.9113988876342773
","x: 258.213623046875
y: 518.4925537109375
z: 0.02909770980477333
visibility: 0.9917016625404358
","x: 228.27792358398438
y: 516.57275390625
z: 0.03613298013806343
visibility: 0.9911284446716309
",5.2734763622283936,"x: 264.9400329589844
y: 364.4005126953125
z: 0.0
","x: 261.87860107421875
y: 369.5852355957031
z: 0.0011523972498252988
","x: 260.88494873046875
y: 375.9081726074219
z: 0.0013508802512660623
","x: 260.0071716308594
y: 380.51446533203125
z: 0.0007910831482149661
","x: 259.65692138671875
y: 383.82049560546875
z: 0.0005283369682729244
","x: 265.58660888671875
y: 382.36767578125
z: 0.0022598605137318373
","x: 264.41705322265625
y: 389.642578125
z: 0.001067840843461454
","x: 262.17498779296875
y: 391.8003845214844
z: 0.00045564613537862897
","x: 260.3700866699219
y: 392.035888671875
z: 0.0003536701260600239
","x: 266.4874572753906
y: 382.7768249511719
z: 0.0005869735032320023
","x: 265.074462890625
y: 390.5525207519531
z: -0.0006696170894429088
","x: 262.5384216308594
y: 392.1750183105469
z: -0.0010382606415078044
","x: 260.66094970703125
y: 391.6830749511719
z: -0.0010162469698116183
","x: 266.6628112792969
y: 382.4403381347656
z: -0.0013025952503085136
","x: 264.8970031738281
y: 389.5104675292969
z: -0.0025711229536682367
","x: 262.45355224609375
y: 391.006103515625
z: -0.0025431786198168993
","x: 260.62994384765625
y: 390.6866455078125
z: -0.002246781950816512
","x: 266.00115966796875
y: 381.3500671386719
z: -0.003318692557513714
","x: 264.3983459472656
y: 387.18963623046875
z: -0.004469483159482479
","x: 262.5350646972656
y: 389.24005126953125
z: -0.004462201613932848
","x: 260.9175720214844
y: 389.6378173828125
z: -0.004127082880586386
",,,,,,,,,,,,,,,,,,,,,
19,"x: 240.70077514648438
y: 249.60997009277344
z: -0.2540335953235626
visibility: 0.999990701675415
","x: 242.49972534179688
y: 246.79481506347656
z: -0.24216699600219727
visibility: 0.9999732375144958
","x: 243.6692657470703
y: 247.2047576904297
z: -0.2421412467956543
visibility: 0.9999739527702332
","x: 244.89515686035156
y: 247.687255859375
z: -0.24211576581001282
visibility: 0.9999716877937317
","x: 239.27474975585938
y: 246.4080810546875
z: -0.23916193842887878
visibility: 0.999972403049469
","x: 238.11672973632812
y: 246.5673828125
z: -0.2391829937696457
visibility: 0.9999710917472839
","x: 236.92115783691406
y: 246.77206420898438
z: -0.2391626536846161
visibility: 0.9999677538871765
","x: 247.4186553955078
y: 252.9244842529297
z: -0.15980422496795654
visibility: 0.9999446272850037
","x: 235.02919006347656
y: 251.6230926513672
z: -0.15011903643608093
visibility: 0.9999401569366455
","x: 242.9656524658203
y: 257.48382568359375
z: -0.2230764925479889
visibility: 0.9999875426292419
","x: 238.56112670898438
y: 257.5506591796875
z: -0.21969151496887207
visibility: 0.9999867677688599
","x: 257.4093933105469
y: 291.6589660644531
z: -0.1041305661201477
visibility: 0.9999749660491943
","x: 221.3434295654297
y: 290.3350524902344
z: -0.0635642558336258
visibility: 0.9999210238456726
","x: 268.5348205566406
y: 328.58599853515625
z: -0.06402631103992462
visibility: 0.9964909553527832
","x: 212.8487091064453
y: 323.7292175292969
z: 0.005402002017945051
visibility: 0.9807239770889282
","x: 264.5898742675781
y: 357.90765380859375
z: -0.12996891140937805
visibility: 0.9928194284439087
","x: 212.6892852783203
y: 354.74127197265625
z: -0.05893806740641594
visibility: 0.9550444483757019
","x: 262.2416076660156
y: 372.3525695800781
z: -0.15143324434757233
visibility: 0.9797480702400208
","x: 213.3562469482422
y: 365.57366943359375
z: -0.0775081068277359
visibility: 0.9164505004882812
","x: 259.6661376953125
y: 368.6416320800781
z: -0.1746484935283661
visibility: 0.9802370667457581
","x: 215.81092834472656
y: 362.4399108886719
z: -0.09888188540935516
visibility: 0.9160737991333008
","x: 259.5841979980469
y: 364.1215515136719
z: -0.13913622498512268
visibility: 0.969245433807373
","x: 216.1107635498047
y: 358.81781005859375
z: -0.06837470084428787
visibility: 0.8944215178489685
","x: 249.52749633789062
y: 373.4898376464844
z: -0.009145164862275124
visibility: 0.9997049570083618
","x: 229.46701049804688
y: 374.4727783203125
z: 0.00907325092703104
visibility: 0.9997652769088745
","x: 250.78720092773438
y: 438.29705810546875
z: 0.003590481821447611
visibility: 0.996012806892395
","x: 224.13107299804688
y: 438.58447265625
z: -0.002845640992745757
visibility: 0.9958982467651367
","x: 254.34140014648438
y: 499.8481750488281
z: 0.10666283220052719
visibility: 0.9957493543624878
","x: 223.31813049316406
y: 496.2530822753906
z: 0.09727894514799118
visibility: 0.9956507682800293
","x: 252.492431640625
y: 508.3520812988281
z: 0.10976221412420273
visibility: 0.9342682957649231
","x: 226.80331420898438
y: 504.466552734375
z: 0.10033917427062988
visibility: 0.9177598357200623
","x: 257.8244934082031
y: 518.9172973632812
z: 0.009251972660422325
visibility: 0.9921517372131348
","x: 215.5927276611328
y: 516.029541015625
z: 0.007430032826960087
visibility: 0.9917998909950256
",5.415877103805542,,,,,,,,,,,,,,,,,,,,,,,,,,,,,,,,,,,,,,,,,,
20,"x: 240.70077514648438
y: 249.60997009277344
z: -0.2540335953235626
visibility: 0.999990701675415
","x: 242.49972534179688
y: 246.79481506347656
z: -0.24216699600219727
visibility: 0.9999732375144958
","x: 243.6692657470703
y: 247.2047576904297
z: -0.2421412467956543
visibility: 0.9999739527702332
","x: 244.89515686035156
y: 247.687255859375
z: -0.24211576581001282
visibility: 0.9999716877937317
","x: 239.27474975585938
y: 246.4080810546875
z: -0.23916193842887878
visibility: 0.999972403049469
","x: 238.11672973632812
y: 246.5673828125
z: -0.2391829937696457
visibility: 0.9999710917472839
","x: 236.92115783691406
y: 246.77206420898438
z: -0.2391626536846161
visibility: 0.9999677538871765
","x: 247.4186553955078
y: 252.9244842529297
z: -0.15980422496795654
visibility: 0.9999446272850037
","x: 235.02919006347656
y: 251.6230926513672
z: -0.15011903643608093
visibility: 0.9999401569366455
","x: 242.9656524658203
y: 257.48382568359375
z: -0.2230764925479889
visibility: 0.9999875426292419
","x: 238.56112670898438
y: 257.5506591796875
z: -0.21969151496887207
visibility: 0.9999867677688599
","x: 257.4093933105469
y: 291.6589660644531
z: -0.1041305661201477
visibility: 0.9999749660491943
","x: 221.3434295654297
y: 290.3350524902344
z: -0.0635642558336258
visibility: 0.9999210238456726
","x: 268.5348205566406
y: 328.58599853515625
z: -0.06402631103992462
visibility: 0.9964909553527832
","x: 212.8487091064453
y: 323.7292175292969
z: 0.005402002017945051
visibility: 0.9807239770889282
","x: 264.5898742675781
y: 357.90765380859375
z: -0.12996891140937805
visibility: 0.9928194284439087
","x: 212.6892852783203
y: 354.74127197265625
z: -0.05893806740641594
visibility: 0.9550444483757019
","x: 262.2416076660156
y: 372.3525695800781
z: -0.15143324434757233
visibility: 0.9797480702400208
","x: 213.3562469482422
y: 365.57366943359375
z: -0.0775081068277359
visibility: 0.9164505004882812
","x: 259.6661376953125
y: 368.6416320800781
z: -0.1746484935283661
visibility: 0.9802370667457581
","x: 215.81092834472656
y: 362.4399108886719
z: -0.09888188540935516
visibility: 0.9160737991333008
","x: 259.5841979980469
y: 364.1215515136719
z: -0.13913622498512268
visibility: 0.969245433807373
","x: 216.1107635498047
y: 358.81781005859375
z: -0.06837470084428787
visibility: 0.8944215178489685
","x: 249.52749633789062
y: 373.4898376464844
z: -0.009145164862275124
visibility: 0.9997049570083618
","x: 229.46701049804688
y: 374.4727783203125
z: 0.00907325092703104
visibility: 0.9997652769088745
","x: 250.78720092773438
y: 438.29705810546875
z: 0.003590481821447611
visibility: 0.996012806892395
","x: 224.13107299804688
y: 438.58447265625
z: -0.002845640992745757
visibility: 0.9958982467651367
","x: 254.34140014648438
y: 499.8481750488281
z: 0.10666283220052719
visibility: 0.9957493543624878
","x: 223.31813049316406
y: 496.2530822753906
z: 0.09727894514799118
visibility: 0.9956507682800293
","x: 252.492431640625
y: 508.3520812988281
z: 0.10976221412420273
visibility: 0.9342682957649231
","x: 226.80331420898438
y: 504.466552734375
z: 0.10033917427062988
visibility: 0.9177598357200623
","x: 257.8244934082031
y: 518.9172973632812
z: 0.009251972660422325
visibility: 0.9921517372131348
","x: 215.5927276611328
y: 516.029541015625
z: 0.007430032826960087
visibility: 0.9917998909950256
",5.415877103805542,,,,,,,,,,,,,,,,,,,,,,,,,,,,,,,,,,,,,,,,,,
21,"x: 239.10107421875
y: 249.6973419189453
z: -0.3003312349319458
visibility: 0.9999904036521912
","x: 240.96051025390625
y: 247.05911254882812
z: -0.2866329848766327
visibility: 0.9999725818634033
","x: 242.12728881835938
y: 247.45947265625
z: -0.2866215407848358
visibility: 0.9999732971191406
","x: 243.3396759033203
y: 247.9420166015625
z: -0.28662869334220886
visibility: 0.9999712705612183
","x: 237.93276977539062
y: 246.86749267578125
z: -0.2850140333175659
visibility: 0.9999721646308899
","x: 236.89768981933594
y: 247.16989135742188
z: -0.2850739061832428
visibility: 0.9999709725379944
","x: 235.84884643554688
y: 247.51747131347656
z: -0.28509047627449036
visibility: 0.9999681711196899
","x: 246.13795471191406
y: 253.69329833984375
z: -0.19417238235473633
visibility: 0.9999440312385559
","x: 234.08981323242188
y: 252.996826171875
z: -0.1882389783859253
visibility: 0.9999415278434753
","x: 241.40716552734375
y: 257.50830078125
z: -0.2656114995479584
visibility: 0.9999874234199524
","x: 236.94625854492188
y: 257.7373046875
z: -0.2640690207481384
visibility: 0.9999871253967285
","x: 256.5164489746094
y: 291.6273193359375
z: -0.14043602347373962
visibility: 0.9999750256538391
","x: 221.45675659179688
y: 290.7064208984375
z: -0.10667061805725098
visibility: 0.9999256134033203
","x: 264.1609802246094
y: 332.26580810546875
z: -0.1694621741771698
visibility: 0.9965673089027405
","x: 208.826416015625
y: 324.34576416015625
z: -0.12906667590141296
visibility: 0.981728196144104
","x: 247.73826599121094
y: 357.72528076171875
z: -0.29551926255226135
visibility: 0.9928529858589172
","x: 215.48831176757812
y: 349.0819091796875
z: -0.2771403193473816
visibility: 0.9556367993354797
","x: 243.61947631835938
y: 370.922119140625
z: -0.335370272397995
visibility: 0.9799559712409973
","x: 217.4818115234375
y: 357.7439880371094
z: -0.316226989030838
visibility: 0.9167535305023193
","x: 240.4519805908203
y: 367.0251159667969
z: -0.3508370518684387
visibility: 0.9804175496101379
","x: 220.0304412841797
y: 355.52252197265625
z: -0.3296917676925659
visibility: 0.9164025187492371
","x: 241.21507263183594
y: 363.0080871582031
z: -0.3033493161201477
visibility: 0.9689987301826477
","x: 220.10235595703125
y: 353.0980224609375
z: -0.2857303023338318
visibility: 0.8939514756202698
","x: 249.28221130371094
y: 375.09100341796875
z: -0.00789631251245737
visibility: 0.9997186064720154
","x: 229.23622131347656
y: 375.62939453125
z: 0.007825435139238834
visibility: 0.9997841715812683
","x: 250.7264862060547
y: 439.576904296875
z: 0.022533651441335678
visibility: 0.9962522387504578
","x: 221.30398559570312
y: 438.6188049316406
z: -0.040293581783771515
visibility: 0.9962096214294434
","x: 253.9010772705078
y: 500.19940185546875
z: 0.15787561237812042
visibility: 0.9959997534751892
","x: 213.05181884765625
y: 499.77606201171875
z: 0.06813190877437592
visibility: 0.9959572553634644
","x: 252.1915283203125
y: 508.47314453125
z: 0.16419647634029388
visibility: 0.9342514872550964
","x: 214.37252807617188
y: 508.373779296875
z: 0.07183825224637985
visibility: 0.9204455614089966
","x: 257.720458984375
y: 518.9710693359375
z: 0.050652243196964264
visibility: 0.9925481081008911
","x: 209.19024658203125
y: 519.4715576171875
z: -0.04059816896915436
visibility: 0.992334246635437
",5.539897203445435,,,,,,,,,,,,,,,,,,,,,,,,,,,,,,,,,,,,,,,,,,
22,"x: 239.10107421875
y: 249.6973419189453
z: -0.3003312349319458
visibility: 0.9999904036521912
","x: 240.96051025390625
y: 247.05911254882812
z: -0.2866329848766327
visibility: 0.9999725818634033
","x: 242.12728881835938
y: 247.45947265625
z: -0.2866215407848358
visibility: 0.9999732971191406
","x: 243.3396759033203
y: 247.9420166015625
z: -0.28662869334220886
visibility: 0.9999712705612183
","x: 237.93276977539062
y: 246.86749267578125
z: -0.2850140333175659
visibility: 0.9999721646308899
","x: 236.89768981933594
y: 247.16989135742188
z: -0.2850739061832428
visibility: 0.9999709725379944
","x: 235.84884643554688
y: 247.51747131347656
z: -0.28509047627449036
visibility: 0.9999681711196899
","x: 246.13795471191406
y: 253.69329833984375
z: -0.19417238235473633
visibility: 0.9999440312385559
","x: 234.08981323242188
y: 252.996826171875
z: -0.1882389783859253
visibility: 0.9999415278434753
","x: 241.40716552734375
y: 257.50830078125
z: -0.2656114995479584
visibility: 0.9999874234199524
","x: 236.94625854492188
y: 257.7373046875
z: -0.2640690207481384
visibility: 0.9999871253967285
","x: 256.5164489746094
y: 291.6273193359375
z: -0.14043602347373962
visibility: 0.9999750256538391
","x: 221.45675659179688
y: 290.7064208984375
z: -0.10667061805725098
visibility: 0.9999256134033203
","x: 264.1609802246094
y: 332.26580810546875
z: -0.1694621741771698
visibility: 0.9965673089027405
","x: 208.826416015625
y: 324.34576416015625
z: -0.12906667590141296
visibility: 0.981728196144104
","x: 247.73826599121094
y: 357.72528076171875
z: -0.29551926255226135
visibility: 0.9928529858589172
","x: 215.48831176757812
y: 349.0819091796875
z: -0.2771403193473816
visibility: 0.9556367993354797
","x: 243.61947631835938
y: 370.922119140625
z: -0.335370272397995
visibility: 0.9799559712409973
","x: 217.4818115234375
y: 357.7439880371094
z: -0.316226989030838
visibility: 0.9167535305023193
","x: 240.4519805908203
y: 367.0251159667969
z: -0.3508370518684387
visibility: 0.9804175496101379
","x: 220.0304412841797
y: 355.52252197265625
z: -0.3296917676925659
visibility: 0.9164025187492371
","x: 241.21507263183594
y: 363.0080871582031
z: -0.3033493161201477
visibility: 0.9689987301826477
","x: 220.10235595703125
y: 353.0980224609375
z: -0.2857303023338318
visibility: 0.8939514756202698
","x: 249.28221130371094
y: 375.09100341796875
z: -0.00789631251245737
visibility: 0.9997186064720154
","x: 229.23622131347656
y: 375.62939453125
z: 0.007825435139238834
visibility: 0.9997841715812683
","x: 250.7264862060547
y: 439.576904296875
z: 0.022533651441335678
visibility: 0.9962522387504578
","x: 221.30398559570312
y: 438.6188049316406
z: -0.040293581783771515
visibility: 0.9962096214294434
","x: 253.9010772705078
y: 500.19940185546875
z: 0.15787561237812042
visibility: 0.9959997534751892
","x: 213.05181884765625
y: 499.77606201171875
z: 0.06813190877437592
visibility: 0.9959572553634644
","x: 252.1915283203125
y: 508.47314453125
z: 0.16419647634029388
visibility: 0.9342514872550964
","x: 214.37252807617188
y: 508.373779296875
z: 0.07183825224637985
visibility: 0.9204455614089966
","x: 257.720458984375
y: 518.9710693359375
z: 0.050652243196964264
visibility: 0.9925481081008911
","x: 209.19024658203125
y: 519.4715576171875
z: -0.04059816896915436
visibility: 0.992334246635437
",5.539897203445435,,,,,,,,,,,,,,,,,,,,,,,,,,,,,,,,,,,,,,,,,,
23,"x: 235.42684936523438
y: 255.26307678222656
z: -0.2526847720146179
visibility: 0.9999849200248718
","x: 237.34585571289062
y: 251.26336669921875
z: -0.2379273623228073
visibility: 0.9999504685401917
","x: 238.79196166992188
y: 251.58692932128906
z: -0.2379070222377777
visibility: 0.9999483823776245
","x: 240.24667358398438
y: 252.06594848632812
z: -0.23787923157215118
visibility: 0.9999444484710693
","x: 233.48007202148438
y: 251.42984008789062
z: -0.23636452853679657
visibility: 0.9999533891677856
","x: 232.3528289794922
y: 251.8643035888672
z: -0.236418679356575
visibility: 0.9999533295631409
","x: 231.2541961669922
y: 252.3485565185547
z: -0.2364940196275711
visibility: 0.999951958656311
","x: 242.6295623779297
y: 257.33233642578125
z: -0.15041527152061462
visibility: 0.9999011754989624
","x: 229.31423950195312
y: 257.5093994140625
z: -0.14233878254890442
visibility: 0.9999120831489563
","x: 238.50233459472656
y: 262.6938781738281
z: -0.21920394897460938
visibility: 0.9999765157699585
","x: 232.863037109375
y: 263.05865478515625
z: -0.21704471111297607
visibility: 0.9999803900718689
","x: 252.40370178222656
y: 294.2621765136719
z: -0.11970631778240204
visibility: 0.9999504089355469
","x: 219.93113708496094
y: 293.2065124511719
z: -0.0997457504272461
visibility: 0.9999232888221741
","x: 246.85655212402344
y: 335.43304443359375
z: -0.15087847411632538
visibility: 0.9934006333351135
","x: 221.74453735351562
y: 333.52130126953125
z: -0.13237330317497253
visibility: 0.9826498031616211
","x: 230.27073669433594
y: 373.4393615722656
z: -0.18992868065834045
visibility: 0.9874246120452881
","x: 238.76419067382812
y: 356.1191101074219
z: -0.2263633906841278
visibility: 0.9570424556732178
","x: 227.26577758789062
y: 386.92584228515625
z: -0.21977782249450684
visibility: 0.971282958984375
","x: 244.3350830078125
y: 366.57421875
z: -0.25898653268814087
visibility: 0.9188998937606812
","x: 224.58663940429688
y: 385.8406066894531
z: -0.23280878365039825
visibility: 0.971490740776062
","x: 247.5978240966797
y: 362.77886962890625
z: -0.273541122674942
visibility: 0.9184026718139648
","x: 225.48431396484375
y: 381.07354736328125
z: -0.19637632369995117
visibility: 0.9575066566467285
","x: 245.9398193359375
y: 359.851318359375
z: -0.23419666290283203
visibility: 0.8954715728759766
","x: 248.5952911376953
y: 376.3709716796875
z: -0.0044419001787900925
visibility: 0.9997276067733765
","x: 227.8746795654297
y: 377.6434020996094
z: 0.004461189266294241
visibility: 0.999798059463501
","x: 257.5816955566406
y: 438.7478332519531
z: -0.09654535353183746
visibility: 0.9964297413825989
","x: 218.79391479492188
y: 441.3887939453125
z: -0.10339406877756119
visibility: 0.9964610934257507
","x: 255.0791015625
y: 489.16162109375
z: 0.09401528537273407
visibility: 0.9958539009094238
","x: 211.89541625976562
y: 503.5010986328125
z: 0.012130148708820343
visibility: 0.9962314367294312
","x: 252.61236572265625
y: 494.8603515625
z: 0.10875382274389267
visibility: 0.9346596002578735
","x: 213.26513671875
y: 511.8658752441406
z: 0.01785614714026451
visibility: 0.9242405295372009
","x: 259.34320068359375
y: 514.1615600585938
z: 0.017820416018366814
visibility: 0.9922965168952942
","x: 207.75607299804688
y: 523.8087768554688
z: -0.08903922885656357
visibility: 0.9927407503128052
",5.679956674575806,,,,,,,,,,,,,,,,,,,,,,,,,,,,,,,,,,,,,,,,,,
24,"x: 235.42684936523438
y: 255.26307678222656
z: -0.2526847720146179
visibility: 0.9999849200248718
","x: 237.34585571289062
y: 251.26336669921875
z: -0.2379273623228073
visibility: 0.9999504685401917
","x: 238.79196166992188
y: 251.58692932128906
z: -0.2379070222377777
visibility: 0.9999483823776245
","x: 240.24667358398438
y: 252.06594848632812
z: -0.23787923157215118
visibility: 0.9999444484710693
","x: 233.48007202148438
y: 251.42984008789062
z: -0.23636452853679657
visibility: 0.9999533891677856
","x: 232.3528289794922
y: 251.8643035888672
z: -0.236418679356575
visibility: 0.9999533295631409
","x: 231.2541961669922
y: 252.3485565185547
z: -0.2364940196275711
visibility: 0.999951958656311
","x: 242.6295623779297
y: 257.33233642578125
z: -0.15041527152061462
visibility: 0.9999011754989624
","x: 229.31423950195312
y: 257.5093994140625
z: -0.14233878254890442
visibility: 0.9999120831489563
","x: 238.50233459472656
y: 262.6938781738281
z: -0.21920394897460938
visibility: 0.9999765157699585
","x: 232.863037109375
y: 263.05865478515625
z: -0.21704471111297607
visibility: 0.9999803900718689
","x: 252.40370178222656
y: 294.2621765136719
z: -0.11970631778240204
visibility: 0.9999504089355469
","x: 219.93113708496094
y: 293.2065124511719
z: -0.0997457504272461
visibility: 0.9999232888221741
","x: 246.85655212402344
y: 335.43304443359375
z: -0.15087847411632538
visibility: 0.9934006333351135
","x: 221.74453735351562
y: 333.52130126953125
z: -0.13237330317497253
visibility: 0.9826498031616211
","x: 230.27073669433594
y: 373.4393615722656
z: -0.18992868065834045
visibility: 0.9874246120452881
","x: 238.76419067382812
y: 356.1191101074219
z: -0.2263633906841278
visibility: 0.9570424556732178
","x: 227.26577758789062
y: 386.92584228515625
z: -0.21977782249450684
visibility: 0.971282958984375
","x: 244.3350830078125
y: 366.57421875
z: -0.25898653268814087
visibility: 0.9188998937606812
","x: 224.58663940429688
y: 385.8406066894531
z: -0.23280878365039825
visibility: 0.971490740776062
","x: 247.5978240966797
y: 362.77886962890625
z: -0.273541122674942
visibility: 0.9184026718139648
","x: 225.48431396484375
y: 381.07354736328125
z: -0.19637632369995117
visibility: 0.9575066566467285
","x: 245.9398193359375
y: 359.851318359375
z: -0.23419666290283203
visibility: 0.8954715728759766
","x: 248.5952911376953
y: 376.3709716796875
z: -0.0044419001787900925
visibility: 0.9997276067733765
","x: 227.8746795654297
y: 377.6434020996094
z: 0.004461189266294241
visibility: 0.999798059463501
","x: 257.5816955566406
y: 438.7478332519531
z: -0.09654535353183746
visibility: 0.9964297413825989
","x: 218.79391479492188
y: 441.3887939453125
z: -0.10339406877756119
visibility: 0.9964610934257507
","x: 255.0791015625
y: 489.16162109375
z: 0.09401528537273407
visibility: 0.9958539009094238
","x: 211.89541625976562
y: 503.5010986328125
z: 0.012130148708820343
visibility: 0.9962314367294312
","x: 252.61236572265625
y: 494.8603515625
z: 0.10875382274389267
visibility: 0.9346596002578735
","x: 213.26513671875
y: 511.8658752441406
z: 0.01785614714026451
visibility: 0.9242405295372009
","x: 259.34320068359375
y: 514.1615600585938
z: 0.017820416018366814
visibility: 0.9922965168952942
","x: 207.75607299804688
y: 523.8087768554688
z: -0.08903922885656357
visibility: 0.9927407503128052
",5.679956674575806,,,,,,,,,,,,,,,,,,,,,,,,,,,,,,,,,,,,,,,,,,
25,"x: 238.06361389160156
y: 257.32733154296875
z: -0.30053430795669556
visibility: 0.9999864101409912
","x: 239.09788513183594
y: 251.8980712890625
z: -0.28086939454078674
visibility: 0.9999553561210632
","x: 240.57275390625
y: 252.10781860351562
z: -0.2808813154697418
visibility: 0.9999534487724304
","x: 242.18931579589844
y: 252.42974853515625
z: -0.2808876037597656
visibility: 0.9999498724937439
","x: 235.32717895507812
y: 252.09613037109375
z: -0.28269726037979126
visibility: 0.9999579787254333
","x: 234.072509765625
y: 252.43099975585938
z: -0.2827482521533966
visibility: 0.9999579191207886
","x: 232.38047790527344
y: 252.83499145507812
z: -0.2827395796775818
visibility: 0.9999566078186035
","x: 244.7000274658203
y: 257.05120849609375
z: -0.1673172116279602
visibility: 0.999910831451416
","x: 229.97616577148438
y: 257.7377014160156
z: -0.17494148015975952
visibility: 0.9999207258224487
","x: 240.85023498535156
y: 264.9389343261719
z: -0.258155882358551
visibility: 0.99997878074646
","x: 236.33505249023438
y: 265.47357177734375
z: -0.2606258988380432
visibility: 0.9999822378158569
","x: 255.36981201171875
y: 294.09771728515625
z: -0.11261799186468124
visibility: 0.9999542832374573
","x: 223.66856384277344
y: 295.284912109375
z: -0.1292848140001297
visibility: 0.9999288320541382
","x: 256.8692321777344
y: 336.90045166015625
z: -0.15764783322811127
visibility: 0.9927103519439697
","x: 224.1749267578125
y: 338.4163818359375
z: -0.2065664529800415
visibility: 0.9832117557525635
","x: 250.45950317382812
y: 370.8636169433594
z: -0.3143579661846161
visibility: 0.9872786998748779
","x: 233.8310546875
y: 361.24017333984375
z: -0.3719938397407532
visibility: 0.9598872661590576
","x: 249.37437438964844
y: 385.43072509765625
z: -0.3579482436180115
visibility: 0.9713937640190125
","x: 237.8276824951172
y: 371.90911865234375
z: -0.4175230860710144
