uscmakers/ReverseChoreography/data/10_violin_concerto_no_1_in_a_minor_johann_sebastian_bach.csv
,NOSE,LEFT_EYE_INNER,LEFT_EYE,LEFT_EYE_OUTER,RIGHT_EYE_INNER,RIGHT_EYE,RIGHT_EYE_OUTER,LEFT_EAR,RIGHT_EAR,MOUTH_LEFT,MOUTH_RIGHT,LEFT_SHOULDER,RIGHT_SHOULDER,LEFT_ELBOW,RIGHT_ELBOW,LEFT_WRIST,RIGHT_WRIST,LEFT_PINKY,RIGHT_PINKY,LEFT_INDEX,RIGHT_INDEX,LEFT_THUMB,RIGHT_THUMB,LEFT_HIP,RIGHT_HIP,LEFT_KNEE,RIGHT_KNEE,LEFT_ANKLE,RIGHT_ANKLE,LEFT_HEEL,RIGHT_HEEL,LEFT_FOOT_INDEX,RIGHT_FOOT_INDEX,TIMESTAMP,WRIST2,THUMB_CPC2,THUMB_MCP2,THUMB_IP2,THUMB_TIP2,INDEX_FINGER_MCP2,INDEX_FINGER_PIP2,INDEX_FINGER_DIP2,INDEX_FINGER_TIP2,MIDDLE_FINGER_MCP2,MIDDLE_FINGER_PIP2,MIDDLE_FINGER_DIP2,MIDDLE_FINGER_TIP2,RING_FINGER_PIP2,RING_FINGER_DIP2,RING_FINGER_TIP2,RING_FINGER_MCP2,PINKY_MCP2,PINKY_PIP2,PINKY_DIP2,PINKY_TIP2,WRIST,THUMB_CPC,THUMB_MCP,THUMB_IP,THUMB_TIP,INDEX_FINGER_MCP,INDEX_FINGER_PIP,INDEX_FINGER_DIP,INDEX_FINGER_TIP,MIDDLE_FINGER_MCP,MIDDLE_FINGER_PIP,MIDDLE_FINGER_DIP,MIDDLE_FINGER_TIP,RING_FINGER_PIP,RING_FINGER_DIP,RING_FINGER_TIP,RING_FINGER_MCP,PINKY_MCP,PINKY_PIP,PINKY_DIP,PINKY_TIP
0,"x: 249.47335815429688
y: 254.3065185546875
z: -0.3183639645576477
visibility: 0.9999902248382568
","x: 251.14895629882812
y: 249.8392333984375
z: -0.30493953824043274
visibility: 0.9999532699584961
","x: 252.3421630859375
y: 250.14117431640625
z: -0.30493274331092834
visibility: 0.9999542236328125
","x: 253.5148468017578
y: 250.39324951171875
z: -0.30496692657470703
visibility: 0.9999502897262573
","x: 247.9794464111328
y: 248.86972045898438
z: -0.30668333172798157
visibility: 0.9999498128890991
","x: 246.68597412109375
y: 248.72549438476562
z: -0.3067135512828827
visibility: 0.9999433755874634
","x: 245.34982299804688
y: 248.68228149414062
z: -0.306681364774704
visibility: 0.9999195337295532
","x: 255.37356567382812
y: 252.88291931152344
z: -0.2083543837070465
visibility: 0.9998972415924072
","x: 242.69802856445312
y: 251.84500122070312
z: -0.21820692718029022
visibility: 0.9998243451118469
","x: 251.2410430908203
y: 261.63262939453125
z: -0.2808955907821655
visibility: 0.9999351501464844
","x: 246.90042114257812
y: 260.92498779296875
z: -0.28376761078834534
visibility: 0.9999134540557861
","x: 264.7227478027344
y: 284.5761413574219
z: -0.13292329013347626
visibility: 0.9999650716781616
","x: 233.54969787597656
y: 287.1255798339844
z: -0.13012608885765076
visibility: 0.9998924732208252
","x: 276.88775634765625
y: 322.41827392578125
z: -0.08428774774074554
visibility: 0.996918797492981
","x: 224.56214904785156
y: 323.1661376953125
z: -0.1010182648897171
visibility: 0.9759318828582764
","x: 291.1666259765625
y: 357.3736877441406
z: -0.1478927880525589
visibility: 0.9961407780647278
","x: 214.9233856201172
y: 351.4786071777344
z: -0.1862211972475052
visibility: 0.9761521220207214
","x: 296.30853271484375
y: 368.5855712890625
z: -0.1659264862537384
visibility: 0.9866502285003662
","x: 211.33563232421875
y: 361.93377685546875
z: -0.20574136078357697
visibility: 0.9478952884674072
","x: 296.2403564453125
y: 370.5841064453125
z: -0.1971171796321869
visibility: 0.9887720942497253
","x: 211.7064208984375
y: 362.861083984375
z: -0.23779086768627167
visibility: 0.9547579288482666
","x: 294.4801330566406
y: 367.3418884277344
z: -0.16194938123226166
visibility: 0.9864565134048462
","x: 213.27268981933594
y: 359.6348571777344
z: -0.20151594281196594
visibility: 0.9509429335594177
","x: 263.57965087890625
y: 364.0006103515625
z: -0.0010938536142930388
visibility: 0.9995908141136169
","x: 243.51052856445312
y: 369.0356140136719
z: 0.001063222298398614
visibility: 0.9996846914291382
","x: 271.265380859375
y: 429.78570556640625
z: -0.03956608101725578
visibility: 0.9896390438079834
","x: 247.45465087890625
y: 433.93701171875
z: -0.03509778901934624
visibility: 0.9907835721969604
","x: 274.5065002441406
y: 494.957275390625
z: 0.03052561543881893
visibility: 0.9907112717628479
","x: 248.08897399902344
y: 497.7822570800781
z: 0.05624781921505928
visibility: 0.9937630295753479
","x: 269.8931884765625
y: 504.951416015625
z: 0.03031366690993309
visibility: 0.9197930097579956
","x: 251.27285766601562
y: 507.790283203125
z: 0.05794786661863327
visibility: 0.9249531030654907
","x: 283.32525634765625
y: 517.7994384765625
z: -0.07125148922204971
visibility: 0.9862404465675354
","x: 240.8369903564453
y: 517.1058349609375
z: -0.04118800163269043
visibility: 0.9902060627937317
",3.4881114959716797,,,,,,,,,,,,,,,,,,,,,,,,,,,,,,,,,,,,,,,,,,
1,"x: 249.47335815429688
y: 254.3065185546875
z: -0.3183639645576477
visibility: 0.9999902248382568
","x: 251.14895629882812
y: 249.8392333984375
z: -0.30493953824043274
visibility: 0.9999532699584961
","x: 252.3421630859375
y: 250.14117431640625
z: -0.30493274331092834
visibility: 0.9999542236328125
","x: 253.5148468017578
y: 250.39324951171875
z: -0.30496692657470703
visibility: 0.9999502897262573
","x: 247.9794464111328
y: 248.86972045898438
z: -0.30668333172798157
visibility: 0.9999498128890991
","x: 246.68597412109375
y: 248.72549438476562
z: -0.3067135512828827
visibility: 0.9999433755874634
","x: 245.34982299804688
y: 248.68228149414062
z: -0.306681364774704
visibility: 0.9999195337295532
","x: 255.37356567382812
y: 252.88291931152344
z: -0.2083543837070465
visibility: 0.9998972415924072
","x: 242.69802856445312
y: 251.84500122070312
z: -0.21820692718029022
visibility: 0.9998243451118469
","x: 251.2410430908203
y: 261.63262939453125
z: -0.2808955907821655
visibility: 0.9999351501464844
","x: 246.90042114257812
y: 260.92498779296875
z: -0.28376761078834534
visibility: 0.9999134540557861
","x: 264.7227478027344
y: 284.5761413574219
z: -0.13292329013347626
visibility: 0.9999650716781616
","x: 233.54969787597656
y: 287.1255798339844
z: -0.13012608885765076
visibility: 0.9998924732208252
","x: 276.88775634765625
y: 322.41827392578125
z: -0.08428774774074554
visibility: 0.996918797492981
","x: 224.56214904785156
y: 323.1661376953125
z: -0.1010182648897171
visibility: 0.9759318828582764
","x: 291.1666259765625
y: 357.3736877441406
z: -0.1478927880525589
visibility: 0.9961407780647278
","x: 214.9233856201172
y: 351.4786071777344
z: -0.1862211972475052
visibility: 0.9761521220207214
","x: 296.30853271484375
y: 368.5855712890625
z: -0.1659264862537384
visibility: 0.9866502285003662
","x: 211.33563232421875
y: 361.93377685546875
z: -0.20574136078357697
visibility: 0.9478952884674072
","x: 296.2403564453125
y: 370.5841064453125
z: -0.1971171796321869
visibility: 0.9887720942497253
","x: 211.7064208984375
y: 362.861083984375
z: -0.23779086768627167
visibility: 0.9547579288482666
","x: 294.4801330566406
y: 367.3418884277344
z: -0.16194938123226166
visibility: 0.9864565134048462
","x: 213.27268981933594
y: 359.6348571777344
z: -0.20151594281196594
visibility: 0.9509429335594177
","x: 263.57965087890625
y: 364.0006103515625
z: -0.0010938536142930388
visibility: 0.9995908141136169
","x: 243.51052856445312
y: 369.0356140136719
z: 0.001063222298398614
visibility: 0.9996846914291382
","x: 271.265380859375
y: 429.78570556640625
z: -0.03956608101725578
visibility: 0.9896390438079834
","x: 247.45465087890625
y: 433.93701171875
z: -0.03509778901934624
visibility: 0.9907835721969604
","x: 274.5065002441406
y: 494.957275390625
z: 0.03052561543881893
visibility: 0.9907112717628479
","x: 248.08897399902344
y: 497.7822570800781
z: 0.05624781921505928
visibility: 0.9937630295753479
","x: 269.8931884765625
y: 504.951416015625
z: 0.03031366690993309
visibility: 0.9197930097579956
","x: 251.27285766601562
y: 507.790283203125
z: 0.05794786661863327
visibility: 0.9249531030654907
","x: 283.32525634765625
y: 517.7994384765625
z: -0.07125148922204971
visibility: 0.9862404465675354
","x: 240.8369903564453
y: 517.1058349609375
z: -0.04118800163269043
visibility: 0.9902060627937317
",3.4881114959716797,,,,,,,,,,,,,,,,,,,,,,,,,,,,,,,,,,,,,,,,,,
2,"x: 246.748291015625
y: 254.19496154785156
z: -0.33887362480163574
visibility: 0.9999911785125732
","x: 248.6057891845703
y: 249.76321411132812
z: -0.3185683488845825
visibility: 0.9999579191207886
","x: 249.7108612060547
y: 250.0657958984375
z: -0.3185378909111023
visibility: 0.9999587535858154
","x: 250.75283813476562
y: 250.33511352539062
z: -0.3185625672340393
visibility: 0.9999552369117737
","x: 245.1414031982422
y: 248.85263061523438
z: -0.3201192319393158
visibility: 0.9999548196792603
","x: 243.88258361816406
y: 248.70858764648438
z: -0.32020092010498047
visibility: 0.9999489784240723
","x: 242.6103057861328
y: 248.6492919921875
z: -0.32021400332450867
visibility: 0.9999275207519531
","x: 252.15505981445312
y: 252.9092559814453
z: -0.2024092674255371
visibility: 0.9999074935913086
","x: 240.1046905517578
y: 251.7585906982422
z: -0.21295540034770966
visibility: 0.9998418688774109
","x: 248.72972106933594
y: 261.4859924316406
z: -0.2932746708393097
visibility: 0.9999415874481201
","x: 244.0018310546875
y: 260.605224609375
z: -0.29667702317237854
visibility: 0.9999220967292786
","x: 262.2225341796875
y: 284.67266845703125
z: -0.13345855474472046
visibility: 0.9999672174453735
","x: 229.25656127929688
y: 286.68572998046875
z: -0.1120225340127945
visibility: 0.9998989105224609
","x: 276.067138671875
y: 318.7265319824219
z: -0.22192426025867462
visibility: 0.9971709847450256
","x: 211.85260009765625
y: 314.6029052734375
z: -0.14730067551136017
visibility: 0.978057324886322
","x: 264.47314453125
y: 336.5750427246094
z: -0.4255233407020569
visibility: 0.9962986707687378
","x: 217.96783447265625
y: 335.3548583984375
z: -0.29396480321884155
visibility: 0.9776672720909119
","x: 260.8668212890625
y: 343.8432312011719
z: -0.46667760610580444
visibility: 0.987086832523346
","x: 220.5794219970703
y: 341.4511413574219
z: -0.3205703794956207
visibility: 0.9508835077285767
","x: 258.2014465332031
y: 337.22760009765625
z: -0.4713646471500397
visibility: 0.9889897704124451
","x: 223.26092529296875
y: 338.2934875488281
z: -0.32133710384368896
visibility: 0.9569575786590576
","x: 259.2929382324219
y: 335.27911376953125
z: -0.4297821521759033
visibility: 0.9859409928321838
","x: 222.7332763671875
y: 335.9023742675781
z: -0.2951185405254364
visibility: 0.9517490863800049
","x: 259.0572204589844
y: 363.7982177734375
z: -0.005159727297723293
visibility: 0.9996228218078613
","x: 238.45770263671875
y: 366.8562316894531
z: 0.005028360988944769
visibility: 0.9997121691703796
","x: 261.6513977050781
y: 413.33734130859375
z: -0.28635749220848083
visibility: 0.9904508590698242
","x: 244.6615753173828
y: 431.7362060546875
z: -0.08594290912151337
visibility: 0.990970253944397
","x: 237.6660919189453
y: 452.3692626953125
z: -0.1708650439977646
visibility: 0.9911118745803833
","x: 248.33865356445312
y: 496.8387145996094
z: 0.041096847504377365
visibility: 0.9940353035926819
","x: 233.4051971435547
y: 450.94232177734375
z: -0.16346284747123718
visibility: 0.9267203211784363
","x: 252.3379669189453
y: 506.5570373535156
z: 0.0453026182949543
visibility: 0.9305744171142578
","x: 230.25091552734375
y: 482.9345703125
z: -0.2729538083076477
visibility: 0.9872811436653137
","x: 241.1862335205078
y: 516.5614624023438
z: -0.07112368941307068
visibility: 0.9905633330345154
",4.001156330108643,,,,,,,,,,,,,,,,,,,,,,,,,,,,,,,,,,,,,,,,,,
3,"x: 246.748291015625
y: 254.19496154785156
z: -0.33887362480163574
visibility: 0.9999911785125732
","x: 248.6057891845703
y: 249.76321411132812
z: -0.3185683488845825
visibility: 0.9999579191207886
","x: 249.7108612060547
y: 250.0657958984375
z: -0.3185378909111023
visibility: 0.9999587535858154
","x: 250.75283813476562
y: 250.33511352539062
z: -0.3185625672340393
visibility: 0.9999552369117737
","x: 245.1414031982422
y: 248.85263061523438
z: -0.3201192319393158
visibility: 0.9999548196792603
","x: 243.88258361816406
y: 248.70858764648438
z: -0.32020092010498047
visibility: 0.9999489784240723
","x: 242.6103057861328
y: 248.6492919921875
z: -0.32021400332450867
visibility: 0.9999275207519531
","x: 252.15505981445312
y: 252.9092559814453
z: -0.2024092674255371
visibility: 0.9999074935913086
","x: 240.1046905517578
y: 251.7585906982422
z: -0.21295540034770966
visibility: 0.9998418688774109
","x: 248.72972106933594
y: 261.4859924316406
z: -0.2932746708393097
visibility: 0.9999415874481201
","x: 244.0018310546875
y: 260.605224609375
z: -0.29667702317237854
visibility: 0.9999220967292786
","x: 262.2225341796875
y: 284.67266845703125
z: -0.13345855474472046
visibility: 0.9999672174453735
","x: 229.25656127929688
y: 286.68572998046875
z: -0.1120225340127945
visibility: 0.9998989105224609
","x: 276.067138671875
y: 318.7265319824219
z: -0.22192426025867462
visibility: 0.9971709847450256
","x: 211.85260009765625
y: 314.6029052734375
z: -0.14730067551136017
visibility: 0.978057324886322
","x: 264.47314453125
y: 336.5750427246094
z: -0.4255233407020569
visibility: 0.9962986707687378
","x: 217.96783447265625
y: 335.3548583984375
z: -0.29396480321884155
visibility: 0.9776672720909119
","x: 260.8668212890625
y: 343.8432312011719
z: -0.46667760610580444
visibility: 0.987086832523346
","x: 220.5794219970703
y: 341.4511413574219
z: -0.3205703794956207
visibility: 0.9508835077285767
","x: 258.2014465332031
y: 337.22760009765625
z: -0.4713646471500397
visibility: 0.9889897704124451
","x: 223.26092529296875
y: 338.2934875488281
z: -0.32133710384368896
visibility: 0.9569575786590576
","x: 259.2929382324219
y: 335.27911376953125
z: -0.4297821521759033
visibility: 0.9859409928321838
","x: 222.7332763671875
y: 335.9023742675781
z: -0.2951185405254364
visibility: 0.9517490863800049
","x: 259.0572204589844
y: 363.7982177734375
z: -0.005159727297723293
visibility: 0.9996228218078613
","x: 238.45770263671875
y: 366.8562316894531
z: 0.005028360988944769
visibility: 0.9997121691703796
","x: 261.6513977050781
y: 413.33734130859375
z: -0.28635749220848083
visibility: 0.9904508590698242
","x: 244.6615753173828
y: 431.7362060546875
z: -0.08594290912151337
visibility: 0.990970253944397
","x: 237.6660919189453
y: 452.3692626953125
z: -0.1708650439977646
visibility: 0.9911118745803833
","x: 248.33865356445312
y: 496.8387145996094
z: 0.041096847504377365
visibility: 0.9940353035926819
","x: 233.4051971435547
y: 450.94232177734375
z: -0.16346284747123718
visibility: 0.9267203211784363
","x: 252.3379669189453
y: 506.5570373535156
z: 0.0453026182949543
visibility: 0.9305744171142578
","x: 230.25091552734375
y: 482.9345703125
z: -0.2729538083076477
visibility: 0.9872811436653137
","x: 241.1862335205078
y: 516.5614624023438
z: -0.07112368941307068
visibility: 0.9905633330345154
",4.001156330108643,,,,,,,,,,,,,,,,,,,,,,,,,,,,,,,,,,,,,,,,,,
4,"x: 242.80870056152344
y: 255.68824768066406
z: -0.27334755659103394
visibility: 0.9999918341636658
","x: 244.0494384765625
y: 250.56719970703125
z: -0.25573301315307617
visibility: 0.9999617338180542
","x: 245.17007446289062
y: 250.59278869628906
z: -0.25573965907096863
visibility: 0.9999624490737915
","x: 246.22732543945312
y: 250.6521759033203
z: -0.2557785212993622
visibility: 0.999959409236908
","x: 240.61837768554688
y: 250.63900756835938
z: -0.25474604964256287
visibility: 0.999958872795105
","x: 239.47023010253906
y: 250.7508087158203
z: -0.2548178434371948
visibility: 0.9999533891677856
","x: 238.34417724609375
y: 250.94244384765625
z: -0.2548246383666992
visibility: 0.9999340772628784
","x: 247.57510375976562
y: 252.95738220214844
z: -0.1432037502527237
visibility: 0.9999164342880249
","x: 236.69227600097656
y: 254.01953125
z: -0.14244964718818665
visibility: 0.9998555779457092
","x: 245.53521728515625
y: 262.3625793457031
z: -0.23091378808021545
visibility: 0.9999472498893738
","x: 241.06263732910156
y: 262.36639404296875
z: -0.23073098063468933
visibility: 0.9999293684959412
","x: 260.492919921875
y: 284.4814758300781
z: -0.08120415359735489
visibility: 0.999969482421875
","x: 227.7581024169922
y: 288.39642333984375
z: -0.05203113704919815
visibility: 0.9998874664306641
","x: 274.9695739746094
y: 314.4534606933594
z: -0.14640168845653534
visibility: 0.9971536993980408
","x: 211.4756317138672
y: 312.77880859375
z: -0.1203927993774414
visibility: 0.9787428379058838
","x: 268.223876953125
y: 334.7883605957031
z: -0.3135695457458496
visibility: 0.9957876205444336
","x: 207.66502380371094
y: 332.25048828125
z: -0.2816963791847229
visibility: 0.9762805104255676
","x: 266.342041015625
y: 343.405029296875
z: -0.35212498903274536
visibility: 0.9856446385383606
","x: 205.80162048339844
y: 341.516845703125
z: -0.31170129776000977
visibility: 0.9489814043045044
","x: 262.6828308105469
y: 338.72760009765625
z: -0.3668481409549713
visibility: 0.9875866174697876
","x: 207.6962127685547
y: 338.35943603515625
z: -0.3252813220024109
visibility: 0.9548018574714661
","x: 262.9786376953125
y: 335.9229736328125
z: -0.3218112289905548
visibility: 0.9831492304801941
","x: 209.17465209960938
y: 335.9867858886719
z: -0.2905190587043762
visibility: 0.9474200010299683
","x: 259.10089111328125
y: 362.406005859375
z: -0.004814235493540764
visibility: 0.9996541738510132
","x: 238.64418029785156
y: 366.88067626953125
z: 0.004741978831589222
visibility: 0.9997236728668213
","x: 259.2816162109375
y: 410.3554992675781
z: -0.3166271448135376
visibility: 0.9905124306678772
","x: 244.7926483154297
y: 429.17413330078125
z: -0.022311434149742126
visibility: 0.9832428693771362
","x: 240.59434509277344
y: 467.4642333984375
z: -0.2736447751522064
visibility: 0.9894519448280334
","x: 248.06570434570312
y: 494.3974304199219
z: 0.09807657450437546
visibility: 0.9893798232078552
","x: 236.097412109375
y: 471.43194580078125
z: -0.27298441529273987
visibility: 0.9305643439292908
","x: 251.69752502441406
y: 504.38616943359375
z: 0.10214457660913467
visibility: 0.9195221662521362
","x: 237.77261352539062
y: 495.40789794921875
z: -0.39429494738578796
visibility: 0.9873182773590088
","x: 243.28611755371094
y: 513.6962280273438
z: -0.007422792259603739
visibility: 0.9832515120506287
",4.14125657081604,,,,,,,,,,,,,,,,,,,,,,,,,,,,,,,,,,,,,,,,,,
5,"x: 242.80870056152344
y: 255.68824768066406
z: -0.27334755659103394
visibility: 0.9999918341636658
","x: 244.0494384765625
y: 250.56719970703125
z: -0.25573301315307617
visibility: 0.9999617338180542
","x: 245.17007446289062
y: 250.59278869628906
z: -0.25573965907096863
visibility: 0.9999624490737915
","x: 246.22732543945312
y: 250.6521759033203
z: -0.2557785212993622
visibility: 0.999959409236908
","x: 240.61837768554688
y: 250.63900756835938
z: -0.25474604964256287
visibility: 0.999958872795105
","x: 239.47023010253906
y: 250.7508087158203
z: -0.2548178434371948
visibility: 0.9999533891677856
","x: 238.34417724609375
y: 250.94244384765625
z: -0.2548246383666992
visibility: 0.9999340772628784
","x: 247.57510375976562
y: 252.95738220214844
z: -0.1432037502527237
visibility: 0.9999164342880249
","x: 236.69227600097656
y: 254.01953125
z: -0.14244964718818665
visibility: 0.9998555779457092
","x: 245.53521728515625
y: 262.3625793457031
z: -0.23091378808021545
visibility: 0.9999472498893738
","x: 241.06263732910156
y: 262.36639404296875
z: -0.23073098063468933
visibility: 0.9999293684959412
","x: 260.492919921875
y: 284.4814758300781
z: -0.08120415359735489
visibility: 0.999969482421875
","x: 227.7581024169922
y: 288.39642333984375
z: -0.05203113704919815
visibility: 0.9998874664306641
","x: 274.9695739746094
y: 314.4534606933594
z: -0.14640168845653534
visibility: 0.9971536993980408
","x: 211.4756317138672
y: 312.77880859375
z: -0.1203927993774414
visibility: 0.9787428379058838
","x: 268.223876953125
y: 334.7883605957031
z: -0.3135695457458496
visibility: 0.9957876205444336
","x: 207.66502380371094
y: 332.25048828125
z: -0.2816963791847229
visibility: 0.9762805104255676
","x: 266.342041015625
y: 343.405029296875
z: -0.35212498903274536
visibility: 0.9856446385383606
","x: 205.80162048339844
y: 341.516845703125
z: -0.31170129776000977
visibility: 0.9489814043045044
","x: 262.6828308105469
y: 338.72760009765625
z: -0.3668481409549713
visibility: 0.9875866174697876
","x: 207.6962127685547
y: 338.35943603515625
z: -0.3252813220024109
visibility: 0.9548018574714661
","x: 262.9786376953125
y: 335.9229736328125
z: -0.3218112289905548
visibility: 0.9831492304801941
","x: 209.17465209960938
y: 335.9867858886719
z: -0.2905190587043762
visibility: 0.9474200010299683
","x: 259.10089111328125
y: 362.406005859375
z: -0.004814235493540764
visibility: 0.9996541738510132
","x: 238.64418029785156
y: 366.88067626953125
z: 0.004741978831589222
visibility: 0.9997236728668213
","x: 259.2816162109375
y: 410.3554992675781
z: -0.3166271448135376
visibility: 0.9905124306678772
","x: 244.7926483154297
y: 429.17413330078125
z: -0.022311434149742126
visibility: 0.9832428693771362
","x: 240.59434509277344
y: 467.4642333984375
z: -0.2736447751522064
visibility: 0.9894519448280334
","x: 248.06570434570312
y: 494.3974304199219
z: 0.09807657450437546
visibility: 0.9893798232078552
","x: 236.097412109375
y: 471.43194580078125
z: -0.27298441529273987
visibility: 0.9305643439292908
","x: 251.69752502441406
y: 504.38616943359375
z: 0.10214457660913467
visibility: 0.9195221662521362
","x: 237.77261352539062
y: 495.40789794921875
z: -0.39429494738578796
visibility: 0.9873182773590088
","x: 243.28611755371094
y: 513.6962280273438
z: -0.007422792259603739
visibility: 0.9832515120506287
",4.14125657081604,,,,,,,,,,,,,,,,,,,,,,,,,,,,,,,,,,,,,,,,,,
6,"x: 237.40322875976562
y: 259.997314453125
z: -0.31501415371894836
visibility: 0.9999773502349854
","x: 238.4615020751953
y: 254.32373046875
z: -0.30865365266799927
visibility: 0.9999269843101501
","x: 239.62364196777344
y: 253.83079528808594
z: -0.3086826205253601
visibility: 0.9999269843101501
","x: 240.788330078125
y: 253.3590850830078
z: -0.30874693393707275
visibility: 0.9999279379844666
","x: 235.33001708984375
y: 255.74972534179688
z: -0.29854151606559753
visibility: 0.9999274015426636
","x: 234.25511169433594
y: 256.2242736816406
z: -0.29866763949394226
visibility: 0.99991375207901
","x: 233.20294189453125
y: 256.69354248046875
z: -0.29872649908065796
visibility: 0.9998916387557983
","x: 243.7094268798828
y: 254.5309600830078
z: -0.2291034460067749
visibility: 0.9998899698257446
","x: 233.11386108398438
y: 258.7104187011719
z: -0.17215164005756378
visibility: 0.9997616410255432
","x: 240.55108642578125
y: 265.46453857421875
z: -0.2843136489391327
visibility: 0.999927282333374
","x: 236.8931121826172
y: 267.016357421875
z: -0.2695332467556
visibility: 0.9998827576637268
","x: 259.4021911621094
y: 283.3105773925781
z: -0.16343629360198975
visibility: 0.9999608993530273
","x: 227.09939575195312
y: 291.6034851074219
z: -0.055602021515369415
visibility: 0.9998840093612671
","x: 273.90966796875
y: 303.02691650390625
z: -0.21220119297504425
visibility: 0.9966394305229187
","x: 211.93695068359375
y: 314.25665283203125
z: -0.1255894899368286
visibility: 0.9803369045257568
","x: 272.548095703125
y: 328.07537841796875
z: -0.35503968596458435
visibility: 0.9924524426460266
","x: 193.19000244140625
y: 329.14404296875
z: -0.2579492926597595
visibility: 0.9778492450714111
","x: 274.81195068359375
y: 336.50775146484375
z: -0.386991024017334
visibility: 0.9786059856414795
","x: 186.7640838623047
y: 337.6626892089844
z: -0.2799276113510132
visibility: 0.9516434669494629
","x: 274.468994140625
y: 336.77288818359375
z: -0.4062648415565491
visibility: 0.981575608253479
","x: 186.7120361328125
y: 336.4000244140625
z: -0.3035733103752136
visibility: 0.9572508931159973
","x: 274.05560302734375
y: 334.27301025390625
z: -0.36527079343795776
visibility: 0.975692868232727
","x: 188.9273223876953
y: 333.78411865234375
z: -0.2709234952926636
visibility: 0.9501326084136963
","x: 259.20166015625
y: 362.42498779296875
z: -0.015244947746396065
visibility: 0.9996435046195984
","x: 239.1387176513672
y: 367.9444580078125
z: 0.015323927626013756
visibility: 0.9996483325958252
","x: 258.1719970703125
y: 416.157470703125
z: -0.2446119338274002
visibility: 0.9883639812469482
","x: 244.24935913085938
y: 430.9670715332031
z: -0.0024242743384093046
visibility: 0.9763512015342712
","x: 252.3677978515625
y: 483.78302001953125
z: -0.22572746872901917
visibility: 0.9881315231323242
","x: 248.16888427734375
y: 494.28302001953125
z: 0.08166791498661041
visibility: 0.9829235076904297
","x: 248.03675842285156
y: 498.23492431640625
z: -0.2302054911851883
visibility: 0.9282998442649841
","x: 251.48194885253906
y: 505.0120544433594
z: 0.092599056661129
visibility: 0.9076609015464783
","x: 253.58676147460938
y: 500.5148010253906
z: -0.35272008180618286
visibility: 0.9863532781600952
","x: 241.7671661376953
y: 511.9659118652344
z: -0.02160889469087124
visibility: 0.9771218299865723
",4.282773733139038,,,,,,,,,,,,,,,,,,,,,,,,,,,,,,,,,,,,,,,,,,
7,"x: 237.40322875976562
y: 259.997314453125
z: -0.31501415371894836
visibility: 0.9999773502349854
","x: 238.4615020751953
y: 254.32373046875
z: -0.30865365266799927
visibility: 0.9999269843101501
","x: 239.62364196777344
y: 253.83079528808594
z: -0.3086826205253601
visibility: 0.9999269843101501
","x: 240.788330078125
y: 253.3590850830078
z: -0.30874693393707275
visibility: 0.9999279379844666
","x: 235.33001708984375
y: 255.74972534179688
z: -0.29854151606559753
visibility: 0.9999274015426636
","x: 234.25511169433594
y: 256.2242736816406
z: -0.29866763949394226
visibility: 0.99991375207901
","x: 233.20294189453125
y: 256.69354248046875
z: -0.29872649908065796
visibility: 0.9998916387557983
","x: 243.7094268798828
y: 254.5309600830078
z: -0.2291034460067749
visibility: 0.9998899698257446
","x: 233.11386108398438
y: 258.7104187011719
z: -0.17215164005756378
visibility: 0.9997616410255432
","x: 240.55108642578125
y: 265.46453857421875
z: -0.2843136489391327
visibility: 0.999927282333374
","x: 236.8931121826172
y: 267.016357421875
z: -0.2695332467556
visibility: 0.9998827576637268
","x: 259.4021911621094
y: 283.3105773925781
z: -0.16343629360198975
visibility: 0.9999608993530273
","x: 227.09939575195312
y: 291.6034851074219
z: -0.055602021515369415
visibility: 0.9998840093612671
","x: 273.90966796875
y: 303.02691650390625
z: -0.21220119297504425
visibility: 0.9966394305229187
","x: 211.93695068359375
y: 314.25665283203125
z: -0.1255894899368286
visibility: 0.9803369045257568
","x: 272.548095703125
y: 328.07537841796875
z: -0.35503968596458435
visibility: 0.9924524426460266
","x: 193.19000244140625
y: 329.14404296875
z: -0.2579492926597595
visibility: 0.9778492450714111
","x: 274.81195068359375
y: 336.50775146484375
z: -0.386991024017334
visibility: 0.9786059856414795
","x: 186.7640838623047
y: 337.6626892089844
z: -0.2799276113510132
visibility: 0.9516434669494629
","x: 274.468994140625
y: 336.77288818359375
z: -0.4062648415565491
visibility: 0.981575608253479
","x: 186.7120361328125
y: 336.4000244140625
z: -0.3035733103752136
visibility: 0.9572508931159973
","x: 274.05560302734375
y: 334.27301025390625
z: -0.36527079343795776
visibility: 0.975692868232727
","x: 188.9273223876953
y: 333.78411865234375
z: -0.2709234952926636
visibility: 0.9501326084136963
","x: 259.20166015625
y: 362.42498779296875
z: -0.015244947746396065
visibility: 0.9996435046195984
","x: 239.1387176513672
y: 367.9444580078125
z: 0.015323927626013756
visibility: 0.9996483325958252
","x: 258.1719970703125
y: 416.157470703125
z: -0.2446119338274002
visibility: 0.9883639812469482
","x: 244.24935913085938
y: 430.9670715332031
z: -0.0024242743384093046
visibility: 0.9763512015342712
","x: 252.3677978515625
y: 483.78302001953125
z: -0.22572746872901917
visibility: 0.9881315231323242
","x: 248.16888427734375
y: 494.28302001953125
z: 0.08166791498661041
visibility: 0.9829235076904297
","x: 248.03675842285156
y: 498.23492431640625
z: -0.2302054911851883
visibility: 0.9282998442649841
","x: 251.48194885253906
y: 505.0120544433594
z: 0.092599056661129
visibility: 0.9076609015464783
","x: 253.58676147460938
y: 500.5148010253906
z: -0.35272008180618286
visibility: 0.9863532781600952
","x: 241.7671661376953
y: 511.9659118652344
z: -0.02160889469087124
visibility: 0.9771218299865723
",4.282773733139038,,,,,,,,,,,,,,,,,,,,,,,,,,,,,,,,,,,,,,,,,,
8,"x: 236.4128875732422
y: 262.9382019042969
z: -0.2863178551197052
visibility: 0.999945878982544
","x: 237.1708984375
y: 257.3583679199219
z: -0.2817493975162506
visibility: 0.9997835159301758
","x: 238.29981994628906
y: 256.6710510253906
z: -0.28178831934928894
visibility: 0.999805748462677
","x: 239.43067932128906
y: 255.95950317382812
z: -0.28185904026031494
visibility: 0.9998036623001099
","x: 234.11920166015625
y: 259.2340393066406
z: -0.2743106186389923
visibility: 0.999776303768158
","x: 233.11859130859375
y: 259.8596496582031
z: -0.2743756175041199
visibility: 0.9997288584709167
","x: 232.14599609375
y: 260.4449768066406
z: -0.2743890583515167
visibility: 0.9996587038040161
","x: 242.33831787109375
y: 256.55902099609375
z: -0.2165270298719406
visibility: 0.9997878670692444
","x: 232.27218627929688
y: 262.5876159667969
z: -0.17633216083049774
visibility: 0.9993301630020142
","x: 239.825927734375
y: 266.9405822753906
z: -0.25844961404800415
visibility: 0.9998424649238586
","x: 236.1232452392578
y: 269.028076171875
z: -0.24785487353801727
visibility: 0.999707818031311
","x: 258.6700439453125
y: 281.6119689941406
z: -0.14878572523593903
visibility: 0.9999550580978394
","x: 227.12338256835938
y: 292.6070861816406
z: -0.08767697215080261
visibility: 0.9998736381530762
","x: 274.56439208984375
y: 299.83074951171875
z: -0.17567364871501923
visibility: 0.9966148138046265
","x: 213.8507537841797
y: 315.08251953125
z: -0.08308480679988861
visibility: 0.9813905954360962
","x: 291.624267578125
y: 321.42535400390625
z: -0.29874488711357117
visibility: 0.9920704960823059
","x: 195.49745178222656
y: 332.07806396484375
z: -0.16241486370563507
visibility: 0.9789103865623474
","x: 296.1130676269531
y: 328.00604248046875
z: -0.32487770915031433
visibility: 0.9776263236999512
","x: 189.30166625976562
y: 340.03338623046875
z: -0.1784868985414505
visibility: 0.9530068635940552
","x: 296.169677734375
y: 328.2696838378906
z: -0.3509998619556427
visibility: 0.980846107006073
","x: 188.1584930419922
y: 338.9647216796875
z: -0.20560641586780548
visibility: 0.9586206078529358
","x: 294.7034606933594
y: 326.61273193359375
z: -0.31234094500541687
visibility: 0.9752463102340698
","x: 190.24664306640625
y: 336.8618469238281
z: -0.17664003372192383
visibility: 0.9519954919815063
","x: 259.24920654296875
y: 363.2183532714844
z: -0.013276511803269386
visibility: 0.9995841979980469
","x: 239.48165893554688
y: 370.4310302734375
z: 0.0133689995855093
visibility: 0.9995991587638855
","x: 258.51007080078125
y: 417.5746154785156
z: -0.2325630933046341
visibility: 0.988823413848877
","x: 244.93890380859375
y: 432.8326110839844
z: -0.016267769038677216
visibility: 0.9779019951820374
","x: 267.6111145019531
y: 483.30377197265625
z: -0.12727537751197815
visibility: 0.9885494709014893
","x: 248.4418182373047
y: 494.3445129394531
z: 0.027597570791840553
visibility: 0.9839448928833008
","x: 263.9266662597656
y: 496.11090087890625
z: -0.12759116291999817
visibility: 0.9306479096412659
","x: 252.05870056152344
y: 505.1654052734375
z: 0.026304831728339195
visibility: 0.9113669991493225
","x: 273.1679382324219
y: 502.2683410644531
z: -0.23909425735473633
visibility: 0.9868528246879578
","x: 241.72125244140625
y: 513.1831665039062
z: -0.07498930394649506
visibility: 0.9783751964569092
",4.408112525939941,,,,,,,,,,,,,,,,,,,,,,,,,,,,,,,,,,,,,,,,,,
9,"x: 236.4128875732422
y: 262.9382019042969
z: -0.2863178551197052
visibility: 0.999945878982544
","x: 237.1708984375
y: 257.3583679199219
z: -0.2817493975162506
visibility: 0.9997835159301758
","x: 238.29981994628906
y: 256.6710510253906
z: -0.28178831934928894
visibility: 0.999805748462677
","x: 239.43067932128906
y: 255.95950317382812
z: -0.28185904026031494
visibility: 0.9998036623001099
","x: 234.11920166015625
y: 259.2340393066406
z: -0.2743106186389923
visibility: 0.999776303768158
","x: 233.11859130859375
y: 259.8596496582031
z: -0.2743756175041199
visibility: 0.9997288584709167
","x: 232.14599609375
y: 260.4449768066406
z: -0.2743890583515167
visibility: 0.9996587038040161
","x: 242.33831787109375
y: 256.55902099609375
z: -0.2165270298719406
visibility: 0.9997878670692444
","x: 232.27218627929688
y: 262.5876159667969
z: -0.17633216083049774
visibility: 0.9993301630020142
","x: 239.825927734375
y: 266.9405822753906
z: -0.25844961404800415
visibility: 0.9998424649238586
","x: 236.1232452392578
y: 269.028076171875
z: -0.24785487353801727
visibility: 0.999707818031311
","x: 258.6700439453125
y: 281.6119689941406
z: -0.14878572523593903
visibility: 0.9999550580978394
","x: 227.12338256835938
y: 292.6070861816406
z: -0.08767697215080261
visibility: 0.9998736381530762
","x: 274.56439208984375
y: 299.83074951171875
z: -0.17567364871501923
visibility: 0.9966148138046265
","x: 213.8507537841797
y: 315.08251953125
z: -0.08308480679988861
visibility: 0.9813905954360962
","x: 291.624267578125
y: 321.42535400390625
z: -0.29874488711357117
visibility: 0.9920704960823059
","x: 195.49745178222656
y: 332.07806396484375
z: -0.16241486370563507
visibility: 0.9789103865623474
","x: 296.1130676269531
y: 328.00604248046875
z: -0.32487770915031433
visibility: 0.9776263236999512
","x: 189.30166625976562
y: 340.03338623046875
z: -0.1784868985414505
visibility: 0.9530068635940552
","x: 296.169677734375
y: 328.2696838378906
z: -0.3509998619556427
visibility: 0.980846107006073
","x: 188.1584930419922
y: 338.9647216796875
z: -0.20560641586780548
visibility: 0.9586206078529358
","x: 294.7034606933594
y: 326.61273193359375
z: -0.31234094500541687
visibility: 0.9752463102340698
","x: 190.24664306640625
y: 336.8618469238281
z: -0.17664003372192383
visibility: 0.9519954919815063
","x: 259.24920654296875
y: 363.2183532714844
z: -0.013276511803269386
visibility: 0.9995841979980469
","x: 239.48165893554688
y: 370.4310302734375
z: 0.0133689995855093
visibility: 0.9995991587638855
","x: 258.51007080078125
y: 417.5746154785156
z: -0.2325630933046341
visibility: 0.988823413848877
","x: 244.93890380859375
y: 432.8326110839844
z: -0.016267769038677216
visibility: 0.9779019951820374
","x: 267.6111145019531
y: 483.30377197265625
z: -0.12727537751197815
visibility: 0.9885494709014893
","x: 248.4418182373047
y: 494.3445129394531
z: 0.027597570791840553
visibility: 0.9839448928833008
","x: 263.9266662597656
y: 496.11090087890625
z: -0.12759116291999817
visibility: 0.9306479096412659
","x: 252.05870056152344
y: 505.1654052734375
z: 0.026304831728339195
visibility: 0.9113669991493225
","x: 273.1679382324219
y: 502.2683410644531
z: -0.23909425735473633
visibility: 0.9868528246879578
","x: 241.72125244140625
y: 513.1831665039062
z: -0.07498930394649506
visibility: 0.9783751964569092
",4.408112525939941,,,,,,,,,,,,,,,,,,,,,,,,,,,,,,,,,,,,,,,,,,
10,"x: 237.77316284179688
y: 263.8189392089844
z: -0.2769930362701416
visibility: 0.9999433159828186
","x: 238.47628784179688
y: 257.2606201171875
z: -0.2712212800979614
visibility: 0.9997743964195251
","x: 239.57350158691406
y: 256.51568603515625
z: -0.2712830901145935
visibility: 0.9998016357421875
","x: 240.65528869628906
y: 255.80209350585938
z: -0.2713695168495178
visibility: 0.9997971057891846
","x: 235.36473083496094
y: 259.0997619628906
z: -0.2663094103336334
visibility: 0.9997596740722656
","x: 234.34922790527344
y: 259.63140869140625
z: -0.26632824540138245
visibility: 0.9997079968452454
","x: 233.37200927734375
y: 260.142333984375
z: -0.2663012146949768
visibility: 0.9996216893196106
","x: 243.03334045410156
y: 256.3721008300781
z: -0.2001381814479828
visibility: 0.9997895359992981
","x: 233.10452270507812
y: 261.9802551269531
z: -0.17232784628868103
visibility: 0.9993043541908264
","x: 241.196044921875
y: 268.01995849609375
z: -0.24587774276733398
visibility: 0.9998421669006348
","x: 237.1684112548828
y: 270.4883117675781
z: -0.2390146255493164
visibility: 0.9996946454048157
","x: 259.26800537109375
y: 280.6120910644531
z: -0.13950593769550323
visibility: 0.999957799911499
","x: 227.79835510253906
y: 293.06268310546875
z: -0.07269604504108429
visibility: 0.9998618960380554
","x: 276.9976501464844
y: 303.0066223144531
z: -0.11805983632802963
visibility: 0.9968046545982361
","x: 221.63052368164062
y: 319.6141662597656
z: 0.017062798142433167
visibility: 0.9657124876976013
","x: 296.52056884765625
y: 327.5418701171875
z: -0.19076046347618103
visibility: 0.9923976063728333
","x: 211.4718017578125
y: 341.01300048828125
z: 0.00703017134219408
visibility: 0.965779185295105
","x: 302.0129699707031
y: 334.0742492675781
z: -0.20716531574726105
visibility: 0.9781402349472046
","x: 206.44912719726562
y: 348.5040588378906
z: 0.0034720476251095533
visibility: 0.9332919120788574
","x: 302.10467529296875
y: 334.6045227050781
z: -0.23968107998371124
visibility: 0.9813413619995117
","x: 206.9490509033203
y: 345.15966796875
z: -0.02561931684613228
visibility: 0.9409481883049011
","x: 300.137939453125
y: 332.848388671875
z: -0.20543666183948517
visibility: 0.9759405851364136
","x: 208.31753540039062
y: 344.92315673828125
z: -0.00548933632671833
visibility: 0.9349623918533325
","x: 261.7358093261719
y: 363.58941650390625
z: -0.015220093540847301
visibility: 0.9995387196540833
","x: 241.46444702148438
y: 372.1053466796875
z: 0.015352023765444756
visibility: 0.9995949268341064
","x: 269.5122985839844
y: 419.0096435546875
z: -0.045994918793439865
visibility: 0.989321231842041
","x: 245.97695922851562
y: 434.9222412109375
z: -0.02216264232993126
visibility: 0.9796748161315918
","x: 280.6606750488281
y: 481.23406982421875
z: 0.03691789507865906
visibility: 0.9890435338020325
","x: 248.80609130859375
y: 494.97613525390625
z: 0.04106469824910164
visibility: 0.9853427410125732
","x: 276.95880126953125
y: 494.4646911621094
z: 0.038163527846336365
visibility: 0.9319089651107788
","x: 252.8245849609375
y: 506.0602111816406
z: 0.04086350277066231
visibility: 0.9178771376609802
","x: 291.38641357421875
y: 501.61700439453125
z: -0.06039918586611748
visibility: 0.9871935844421387
","x: 241.36900329589844
y: 514.4159545898438
z: -0.06039418652653694
visibility: 0.9801388382911682
",4.533315658569336,,,,,,,,,,,,,,,,,,,,,,,,,,,,,,,,,,,,,,,,,,
11,"x: 237.77316284179688
y: 263.8189392089844
z: -0.2769930362701416
visibility: 0.9999433159828186
","x: 238.47628784179688
y: 257.2606201171875
z: -0.2712212800979614
visibility: 0.9997743964195251
","x: 239.57350158691406
y: 256.51568603515625
z: -0.2712830901145935
visibility: 0.9998016357421875
","x: 240.65528869628906
y: 255.80209350585938
z: -0.2713695168495178
visibility: 0.9997971057891846
","x: 235.36473083496094
y: 259.0997619628906
z: -0.2663094103336334
visibility: 0.9997596740722656
","x: 234.34922790527344
y: 259.63140869140625
z: -0.26632824540138245
visibility: 0.9997079968452454
","x: 233.37200927734375
y: 260.142333984375
z: -0.2663012146949768
visibility: 0.9996216893196106
","x: 243.03334045410156
y: 256.3721008300781
z: -0.2001381814479828
visibility: 0.9997895359992981
","x: 233.10452270507812
y: 261.9802551269531
z: -0.17232784628868103
visibility: 0.9993043541908264
","x: 241.196044921875
y: 268.01995849609375
z: -0.24587774276733398
visibility: 0.9998421669006348
","x: 237.1684112548828
y: 270.4883117675781
z: -0.2390146255493164
visibility: 0.9996946454048157
","x: 259.26800537109375
y: 280.6120910644531
z: -0.13950593769550323
visibility: 0.999957799911499
","x: 227.79835510253906
y: 293.06268310546875
z: -0.07269604504108429
visibility: 0.9998618960380554
","x: 276.9976501464844
y: 303.0066223144531
z: -0.11805983632802963
visibility: 0.9968046545982361
","x: 221.63052368164062
y: 319.6141662597656
z: 0.017062798142433167
visibility: 0.9657124876976013
","x: 296.52056884765625
y: 327.5418701171875
z: -0.19076046347618103
visibility: 0.9923976063728333
","x: 211.4718017578125
y: 341.01300048828125
z: 0.00703017134219408
visibility: 0.965779185295105
","x: 302.0129699707031
y: 334.0742492675781
z: -0.20716531574726105
visibility: 0.9781402349472046
","x: 206.44912719726562
y: 348.5040588378906
z: 0.0034720476251095533
visibility: 0.9332919120788574
","x: 302.10467529296875
y: 334.6045227050781
z: -0.23968107998371124
visibility: 0.9813413619995117
","x: 206.9490509033203
y: 345.15966796875
z: -0.02561931684613228
visibility: 0.9409481883049011
","x: 300.137939453125
y: 332.848388671875
z: -0.20543666183948517
visibility: 0.9759405851364136
","x: 208.31753540039062
y: 344.92315673828125
z: -0.00548933632671833
visibility: 0.9349623918533325
","x: 261.7358093261719
y: 363.58941650390625
z: -0.015220093540847301
visibility: 0.9995387196540833
","x: 241.46444702148438
y: 372.1053466796875
z: 0.015352023765444756
visibility: 0.9995949268341064
","x: 269.5122985839844
y: 419.0096435546875
z: -0.045994918793439865
visibility: 0.989321231842041
","x: 245.97695922851562
y: 434.9222412109375
z: -0.02216264232993126
visibility: 0.9796748161315918
","x: 280.6606750488281
y: 481.23406982421875
z: 0.03691789507865906
visibility: 0.9890435338020325
","x: 248.80609130859375
y: 494.97613525390625
z: 0.04106469824910164
visibility: 0.9853427410125732
","x: 276.95880126953125
y: 494.4646911621094
z: 0.038163527846336365
visibility: 0.9319089651107788
","x: 252.8245849609375
y: 506.0602111816406
z: 0.04086350277066231
visibility: 0.9178771376609802
","x: 291.38641357421875
y: 501.61700439453125
z: -0.06039918586611748
visibility: 0.9871935844421387
","x: 241.36900329589844
y: 514.4159545898438
z: -0.06039418652653694
visibility: 0.9801388382911682
",4.533315658569336,,,,,,,,,,,,,,,,,,,,,,,,,,,,,,,,,,,,,,,,,,
12,"x: 239.39974975585938
y: 258.9198913574219
z: -0.2752567231655121
visibility: 0.9999445080757141
","x: 240.3099365234375
y: 252.28546142578125
z: -0.26473671197891235
visibility: 0.9997797608375549
","x: 241.40206909179688
y: 251.64956665039062
z: -0.264792799949646
visibility: 0.9998050928115845
","x: 242.44085693359375
y: 251.08909606933594
z: -0.26484933495521545
visibility: 0.9998027682304382
","x: 237.18174743652344
y: 254.04119873046875
z: -0.2640131115913391
visibility: 0.999764084815979
","x: 236.1052703857422
y: 254.5540771484375
z: -0.26401758193969727
visibility: 0.999710738658905
","x: 235.05514526367188
y: 255.0821533203125
z: -0.2640060782432556
visibility: 0.999618649482727
","x: 244.4188232421875
y: 253.03871154785156
z: -0.18375222384929657
visibility: 0.9997888207435608
","x: 234.22335815429688
y: 258.04345703125
z: -0.17704132199287415
visibility: 0.9992696642875671
","x: 242.4433135986328
y: 263.97564697265625
z: -0.2431015521287918
visibility: 0.9998462796211243
","x: 238.33302307128906
y: 265.6680603027344
z: -0.2416582852602005
visibility: 0.9996960759162903
","x: 259.66485595703125
y: 280.4718933105469
z: -0.12327514588832855
visibility: 0.9999582171440125
","x: 228.51182556152344
y: 293.56793212890625
z: -0.07705217599868774
visibility: 0.9998217821121216
","x: 276.92236328125
y: 304.0585021972656
z: -0.09239926189184189
visibility: 0.9966815114021301
","x: 231.38206481933594
y: 333.90631103515625
z: -0.05190407112240791
visibility: 0.9315758943557739
","x: 293.8230285644531
y: 334.72491455078125
z: -0.1586778461933136
visibility: 0.9916402101516724
","x: 232.6479034423828
y: 372.4932556152344
z: -0.12156233936548233
visibility: 0.921104907989502
","x: 298.728515625
y: 345.2817077636719
z: -0.17657078802585602
visibility: 0.9758837819099426
","x: 229.263427734375
y: 387.2621154785156
z: -0.1384948492050171
visibility: 0.8848933577537537
","x: 297.87353515625
y: 348.6680603027344
z: -0.2076096087694168
visibility: 0.9793605208396912
","x: 232.29754638671875
y: 385.3376770019531
z: -0.16935259103775024
visibility: 0.8948558568954468
","x: 296.1807861328125
y: 345.9246826171875
z: -0.17221853137016296
visibility: 0.9738898873329163
","x: 233.80409240722656
y: 380.6076354980469
z: -0.13623005151748657
visibility: 0.8890882134437561
","x: 263.2275695800781
y: 365.6162109375
z: -0.009704330936074257
visibility: 0.9995582699775696
","x: 243.00567626953125
y: 374.9404296875
z: 0.009797381237149239
visibility: 0.9996064305305481
","x: 275.0469055175781
y: 423.2196350097656
z: -0.021247753873467445
visibility: 0.9899179935455322
","x: 246.9032440185547
y: 438.6896057128906
z: 0.014970841817557812
visibility: 0.9813173413276672
","x: 286.7672424316406
y: 482.8992004394531
z: 0.05857300013303757
visibility: 0.989741861820221
","x: 249.0891876220703
y: 496.2416076660156
z: 0.11667903512716293
visibility: 0.986624002456665
","x: 283.7429504394531
y: 495.7571105957031
z: 0.05919387936592102
visibility: 0.9344813227653503
","x: 252.85972595214844
y: 506.5022277832031
z: 0.11898239701986313
visibility: 0.9232600331306458
","x: 298.7946472167969
y: 504.0479736328125
z: -0.04085692763328552
visibility: 0.9876554608345032
","x: 241.40444946289062
y: 514.7150268554688
z: 0.025322139263153076
visibility: 0.9816796183586121
",4.658535480499268,,,,,,,,,,,,,,,,,,,,,,,,,,,,,,,,,,,,,,,,,,
13,"x: 239.39974975585938
y: 258.9198913574219
z: -0.2752567231655121
visibility: 0.9999445080757141
","x: 240.3099365234375
y: 252.28546142578125
z: -0.26473671197891235
visibility: 0.9997797608375549
","x: 241.40206909179688
y: 251.64956665039062
z: -0.264792799949646
visibility: 0.9998050928115845
","x: 242.44085693359375
y: 251.08909606933594
z: -0.26484933495521545
visibility: 0.9998027682304382
","x: 237.18174743652344
y: 254.04119873046875
z: -0.2640131115913391
visibility: 0.999764084815979
","x: 236.1052703857422
y: 254.5540771484375
z: -0.26401758193969727
visibility: 0.999710738658905
","x: 235.05514526367188
y: 255.0821533203125
z: -0.2640060782432556
visibility: 0.999618649482727
","x: 244.4188232421875
y: 253.03871154785156
z: -0.18375222384929657
visibility: 0.9997888207435608
","x: 234.22335815429688
y: 258.04345703125
z: -0.17704132199287415
visibility: 0.9992696642875671
","x: 242.4433135986328
y: 263.97564697265625
z: -0.2431015521287918
visibility: 0.9998462796211243
","x: 238.33302307128906
y: 265.6680603027344
z: -0.2416582852602005
visibility: 0.9996960759162903
","x: 259.66485595703125
y: 280.4718933105469
z: -0.12327514588832855
visibility: 0.9999582171440125
","x: 228.51182556152344
y: 293.56793212890625
z: -0.07705217599868774
visibility: 0.9998217821121216
","x: 276.92236328125
y: 304.0585021972656
z: -0.09239926189184189
visibility: 0.9966815114021301
","x: 231.38206481933594
y: 333.90631103515625
z: -0.05190407112240791
visibility: 0.9315758943557739
","x: 293.8230285644531
y: 334.72491455078125
z: -0.1586778461933136
visibility: 0.9916402101516724
","x: 232.6479034423828
y: 372.4932556152344
z: -0.12156233936548233
visibility: 0.921104907989502
","x: 298.728515625
y: 345.2817077636719
z: -0.17657078802585602
visibility: 0.9758837819099426
","x: 229.263427734375
y: 387.2621154785156
z: -0.1384948492050171
visibility: 0.8848933577537537
","x: 297.87353515625
y: 348.6680603027344
z: -0.2076096087694168
visibility: 0.9793605208396912
","x: 232.29754638671875
y: 385.3376770019531
z: -0.16935259103775024
visibility: 0.8948558568954468
","x: 296.1807861328125
y: 345.9246826171875
z: -0.17221853137016296
visibility: 0.9738898873329163
","x: 233.80409240722656
y: 380.6076354980469
z: -0.13623005151748657
visibility: 0.8890882134437561
","x: 263.2275695800781
y: 365.6162109375
z: -0.009704330936074257
visibility: 0.9995582699775696
","x: 243.00567626953125
y: 374.9404296875
z: 0.009797381237149239
visibility: 0.9996064305305481
","x: 275.0469055175781
y: 423.2196350097656
z: -0.021247753873467445
visibility: 0.9899179935455322
","x: 246.9032440185547
y: 438.6896057128906
z: 0.014970841817557812
visibility: 0.9813173413276672
","x: 286.7672424316406
y: 482.8992004394531
z: 0.05857300013303757
visibility: 0.989741861820221
","x: 249.0891876220703
y: 496.2416076660156
z: 0.11667903512716293
visibility: 0.986624002456665
","x: 283.7429504394531
y: 495.7571105957031
z: 0.05919387936592102
visibility: 0.9344813227653503
","x: 252.85972595214844
y: 506.5022277832031
z: 0.11898239701986313
visibility: 0.9232600331306458
","x: 298.7946472167969
y: 504.0479736328125
z: -0.04085692763328552
visibility: 0.9876554608345032
","x: 241.40444946289062
y: 514.7150268554688
z: 0.025322139263153076
visibility: 0.9816796183586121
",4.658535480499268,,,,,,,,,,,,,,,,,,,,,,,,,,,,,,,,,,,,,,,,,,
14,"x: 249.1749267578125
y: 255.45762634277344
z: -0.26990342140197754
visibility: 0.9999470710754395
","x: 250.02943420410156
y: 249.4208526611328
z: -0.260250061750412
visibility: 0.9997915029525757
","x: 250.96844482421875
y: 249.11497497558594
z: -0.2602708637714386
visibility: 0.9998137950897217
","x: 251.84881591796875
y: 248.86709594726562
z: -0.2602972388267517
visibility: 0.9998116493225098
","x: 246.73667907714844
y: 250.61492919921875
z: -0.2587464451789856
visibility: 0.9997771382331848
","x: 245.4774627685547
y: 251.12789916992188
z: -0.2587739825248718
visibility: 0.9997273087501526
","x: 244.2738037109375
y: 251.6948699951172
z: -0.2587938606739044
visibility: 0.9996423125267029
","x: 253.01991271972656
y: 251.738037109375
z: -0.18235774338245392
visibility: 0.9997860789299011
","x: 242.7567138671875
y: 255.4255828857422
z: -0.17592860758304596
visibility: 0.9992994666099548
","x: 251.43634033203125
y: 261.2453918457031
z: -0.23926249146461487
visibility: 0.999851405620575
","x: 247.2553253173828
y: 262.128173828125
z: -0.2375696897506714
visibility: 0.9997133612632751
","x: 265.4866943359375
y: 280.6219482421875
z: -0.1249014288187027
visibility: 0.9999518990516663
","x: 235.56063842773438
y: 293.30621337890625
z: -0.08905471861362457
visibility: 0.9998250007629395
","x: 276.1759033203125
y: 318.9371032714844
z: -0.09783287346363068
visibility: 0.995803952217102
","x: 235.19256591796875
y: 337.3936462402344
z: -0.04925575479865074
visibility: 0.9265884757041931
","x: 284.0677795410156
y: 363.9700622558594
z: -0.15484961867332458
visibility: 0.9902811646461487
","x: 234.1331787109375
y: 379.66748046875
z: -0.10967975854873657
visibility: 0.9177776575088501
","x: 284.77239990234375
y: 378.0979919433594
z: -0.17328539490699768
visibility: 0.9732761979103088
","x: 232.51258850097656
y: 392.96728515625
z: -0.12581799924373627
visibility: 0.8797277808189392
","x: 282.86749267578125
y: 379.4659118652344
z: -0.19879157841205597
visibility: 0.9767299890518188
","x: 233.7828369140625
y: 393.1413269042969
z: -0.15683874487876892
visibility: 0.8899247050285339
","x: 281.9670104980469
y: 374.4092102050781
z: -0.1653158962726593
visibility: 0.9704105854034424
","x: 235.28919982910156
y: 388.7275695800781
z: -0.12339763343334198
visibility: 0.8833150267601013
","x: 266.7134094238281
y: 367.93878173828125
z: -0.00941833108663559
visibility: 0.9995765686035156
","x: 246.8824462890625
y: 374.34588623046875
z: 0.009490400552749634
visibility: 0.9996310472488403
","x: 276.1858215332031
y: 433.875732421875
z: -0.028491467237472534
visibility: 0.989808976650238
","x: 248.78311157226562
y: 438.34893798828125
z: 0.006988251116126776
visibility: 0.9826069474220276
","x: 283.5269775390625
y: 495.6109619140625
z: 0.043739210814237595
visibility: 0.9901109337806702
","x: 249.3161163330078
y: 498.64361572265625
z: 0.08021250367164612
visibility: 0.9877281188964844
","x: 280.2452087402344
y: 507.3762512207031
z: 0.04393451288342476
visibility: 0.936330258846283
","x: 252.93417358398438
y: 508.92816162109375
z: 0.0814455896615982
visibility: 0.9274472594261169
","x: 296.0060119628906
y: 517.2296752929688
z: -0.04806233569979668
visibility: 0.9877731204032898
","x: 240.34466552734375
y: 515.1806030273438
z: 0.01682594045996666
visibility: 0.983015775680542
",4.815170764923096,,,,,,,,,,,,,,,,,,,,,,,,,,,,,,,,,,,,,,,,,,
15,"x: 249.1749267578125
y: 255.45762634277344
z: -0.26990342140197754
visibility: 0.9999470710754395
","x: 250.02943420410156
y: 249.4208526611328
z: -0.260250061750412
visibility: 0.9997915029525757
","x: 250.96844482421875
y: 249.11497497558594
z: -0.2602708637714386
visibility: 0.9998137950897217
","x: 251.84881591796875
y: 248.86709594726562
z: -0.2602972388267517
visibility: 0.9998116493225098
","x: 246.73667907714844
y: 250.61492919921875
z: -0.2587464451789856
visibility: 0.9997771382331848
","x: 245.4774627685547
y: 251.12789916992188
z: -0.2587739825248718
visibility: 0.9997273087501526
","x: 244.2738037109375
y: 251.6948699951172
z: -0.2587938606739044
visibility: 0.9996423125267029
","x: 253.01991271972656
y: 251.738037109375
z: -0.18235774338245392
visibility: 0.9997860789299011
","x: 242.7567138671875
y: 255.4255828857422
z: -0.17592860758304596
visibility: 0.9992994666099548
","x: 251.43634033203125
y: 261.2453918457031
z: -0.23926249146461487
visibility: 0.999851405620575
","x: 247.2553253173828
y: 262.128173828125
z: -0.2375696897506714
visibility: 0.9997133612632751
","x: 265.4866943359375
y: 280.6219482421875
z: -0.1249014288187027
visibility: 0.9999518990516663
","x: 235.56063842773438
y: 293.30621337890625
z: -0.08905471861362457
visibility: 0.9998250007629395
","x: 276.1759033203125
y: 318.9371032714844
z: -0.09783287346363068
visibility: 0.995803952217102
","x: 235.19256591796875
y: 337.3936462402344
z: -0.04925575479865074
visibility: 0.9265884757041931
","x: 284.0677795410156
y: 363.9700622558594
z: -0.15484961867332458
visibility: 0.9902811646461487
","x: 234.1331787109375
y: 379.66748046875
z: -0.10967975854873657
visibility: 0.9177776575088501
","x: 284.77239990234375
y: 378.0979919433594
z: -0.17328539490699768
visibility: 0.9732761979103088
","x: 232.51258850097656
y: 392.96728515625
z: -0.12581799924373627
visibility: 0.8797277808189392
","x: 282.86749267578125
y: 379.4659118652344
z: -0.19879157841205597
visibility: 0.9767299890518188
","x: 233.7828369140625
y: 393.1413269042969
z: -0.15683874487876892
visibility: 0.8899247050285339
","x: 281.9670104980469
y: 374.4092102050781
z: -0.1653158962726593
visibility: 0.9704105854034424
","x: 235.28919982910156
y: 388.7275695800781
z: -0.12339763343334198
visibility: 0.8833150267601013
","x: 266.7134094238281
y: 367.93878173828125
z: -0.00941833108663559
visibility: 0.9995765686035156
","x: 246.8824462890625
y: 374.34588623046875
z: 0.009490400552749634
visibility: 0.9996310472488403
","x: 276.1858215332031
y: 433.875732421875
z: -0.028491467237472534
visibility: 0.989808976650238
","x: 248.78311157226562
y: 438.34893798828125
z: 0.006988251116126776
visibility: 0.9826069474220276
","x: 283.5269775390625
y: 495.6109619140625
z: 0.043739210814237595
visibility: 0.9901109337806702
","x: 249.3161163330078
y: 498.64361572265625
z: 0.08021250367164612
visibility: 0.9877281188964844
","x: 280.2452087402344
y: 507.3762512207031
z: 0.04393451288342476
visibility: 0.936330258846283
","x: 252.93417358398438
y: 508.92816162109375
z: 0.0814455896615982
visibility: 0.9274472594261169
","x: 296.0060119628906
y: 517.2296752929688
z: -0.04806233569979668
visibility: 0.9877731204032898
","x: 240.34466552734375
y: 515.1806030273438
z: 0.01682594045996666
visibility: 0.983015775680542
",4.815170764923096,,,,,,,,,,,,,,,,,,,,,,,,,,,,,,,,,,,,,,,,,,
16,"x: 258.2272033691406
y: 250.85394287109375
z: -0.2591565251350403
visibility: 0.9999493956565857
","x: 259.7832336425781
y: 246.48446655273438
z: -0.24859866499900818
visibility: 0.9998015761375427
","x: 260.7984619140625
y: 246.63560485839844
z: -0.24862253665924072
visibility: 0.9998218417167664
","x: 261.8426818847656
y: 246.8083038330078
z: -0.2486390620470047
visibility: 0.9998205304145813
","x: 256.6292419433594
y: 246.59762573242188
z: -0.2474639117717743
visibility: 0.9997854232788086
","x: 255.4619140625
y: 246.82980346679688
z: -0.24749788641929626
visibility: 0.9997386336326599
","x: 254.27816772460938
y: 247.0569610595703
z: -0.2475222796201706
visibility: 0.999659538269043
","x: 263.956298828125
y: 250.7573699951172
z: -0.17362582683563232
visibility: 0.999783992767334
","x: 252.7384490966797
y: 251.5469970703125
z: -0.1701807677745819
visibility: 0.999309778213501
","x: 260.3399658203125
y: 257.47442626953125
z: -0.23063382506370544
visibility: 0.9998571872711182
","x: 256.17779541015625
y: 257.386474609375
z: -0.2296489179134369
visibility: 0.9997266530990601
","x: 276.0369567871094
y: 281.0903015136719
z: -0.1240905299782753
visibility: 0.9999499320983887
","x: 243.8751983642578
y: 292.2444763183594
z: -0.09336626529693604
visibility: 0.9998124241828918
","x: 284.00018310546875
y: 325.6976013183594
z: -0.10029430687427521
visibility: 0.9955907464027405
","x: 235.382080078125
y: 333.1903381347656
z: -0.0557369664311409
visibility: 0.9278524518013
","x: 288.12066650390625
y: 369.9258728027344
z: -0.16550108790397644
visibility: 0.9904335141181946
","x: 225.12506103515625
y: 368.2982177734375
z: -0.11552268266677856
visibility: 0.9204074144363403
","x: 288.6405334472656
y: 383.26776123046875
z: -0.1847316324710846
visibility: 0.973802924156189
","x: 222.47840881347656
y: 379.7869873046875
z: -0.13186712563037872
visibility: 0.8823209404945374
","x: 284.8804931640625
y: 385.23931884765625
z: -0.210435152053833
visibility: 0.9771310687065125
","x: 224.62466430664062
y: 379.8499755859375
z: -0.1633727103471756
visibility: 0.8926749229431152
","x: 284.14752197265625
y: 380.8470153808594
z: -0.17644332349300385
visibility: 0.9710123538970947
","x: 226.23016357421875
y: 376.7752380371094
z: -0.1302633136510849
visibility: 0.8862550258636475
","x: 270.9054260253906
y: 371.41619873046875
z: -0.005405745469033718
visibility: 0.9995970129966736
","x: 251.10325622558594
y: 373.8400573730469
z: 0.005358090158551931
visibility: 0.9996456503868103
","x: 275.6405944824219
y: 440.3176574707031
z: -0.011873922310769558
visibility: 0.9896725416183472
","x: 250.77792358398438
y: 438.0277099609375
z: -0.0018033332889899611
visibility: 0.9837703704833984
","x: 282.39190673828125
y: 499.759521484375
z: 0.0621289424598217
visibility: 0.9905496835708618
","x: 249.24124145507812
y: 498.9101867675781
z: 0.08338332176208496
visibility: 0.9886071085929871
","x: 279.0544738769531
y: 510.40081787109375
z: 0.06297215074300766
visibility: 0.9378619194030762
","x: 251.9875946044922
y: 508.93658447265625
z: 0.08555533736944199
visibility: 0.9277958273887634
","x: 294.8714294433594
y: 520.1671752929688
z: -0.027119901031255722
visibility: 0.9880715012550354
","x: 240.390869140625
y: 515.8533325195312
z: -0.0005138309788890183
visibility: 0.9840001463890076
",4.9399025440216064,,,,,,,,,,,,,,,,,,,,,,,,,,,,,,,,,,,,,,,,,,
17,"x: 258.2272033691406
y: 250.85394287109375
z: -0.2591565251350403
visibility: 0.9999493956565857
","x: 259.7832336425781
y: 246.48446655273438
z: -0.24859866499900818
visibility: 0.9998015761375427
","x: 260.7984619140625
y: 246.63560485839844
z: -0.24862253665924072
visibility: 0.9998218417167664
","x: 261.8426818847656
y: 246.8083038330078
z: -0.2486390620470047
visibility: 0.9998205304145813
","x: 256.6292419433594
y: 246.59762573242188
z: -0.2474639117717743
visibility: 0.9997854232788086
","x: 255.4619140625
y: 246.82980346679688
z: -0.24749788641929626
visibility: 0.9997386336326599
","x: 254.27816772460938
y: 247.0569610595703
z: -0.2475222796201706
visibility: 0.999659538269043
","x: 263.956298828125
y: 250.7573699951172
z: -0.17362582683563232
visibility: 0.999783992767334
","x: 252.7384490966797
y: 251.5469970703125
z: -0.1701807677745819
visibility: 0.999309778213501
","x: 260.3399658203125
y: 257.47442626953125
z: -0.23063382506370544
visibility: 0.9998571872711182
","x: 256.17779541015625
y: 257.386474609375
z: -0.2296489179134369
visibility: 0.9997266530990601
","x: 276.0369567871094
y: 281.0903015136719
z: -0.1240905299782753
visibility: 0.9999499320983887
","x: 243.8751983642578
y: 292.2444763183594
z: -0.09336626529693604
visibility: 0.9998124241828918
","x: 284.00018310546875
y: 325.6976013183594
z: -0.10029430687427521
visibility: 0.9955907464027405
","x: 235.382080078125
y: 333.1903381347656
z: -0.0557369664311409
visibility: 0.9278524518013
","x: 288.12066650390625
y: 369.9258728027344
z: -0.16550108790397644
visibility: 0.9904335141181946
","x: 225.12506103515625
y: 368.2982177734375
z: -0.11552268266677856
visibility: 0.9204074144363403
","x: 288.6405334472656
y: 383.26776123046875
z: -0.1847316324710846
visibility: 0.973802924156189
","x: 222.47840881347656
y: 379.7869873046875
z: -0.13186712563037872
visibility: 0.8823209404945374
","x: 284.8804931640625
y: 385.23931884765625
z: -0.210435152053833
visibility: 0.9771310687065125
","x: 224.62466430664062
y: 379.8499755859375
z: -0.1633727103471756
visibility: 0.8926749229431152
","x: 284.14752197265625
y: 380.8470153808594
z: -0.17644332349300385
visibility: 0.9710123538970947
","x: 226.23016357421875
y: 376.7752380371094
z: -0.1302633136510849
visibility: 0.8862550258636475
","x: 270.9054260253906
y: 371.41619873046875
z: -0.005405745469033718
visibility: 0.9995970129966736
","x: 251.10325622558594
y: 373.8400573730469
z: 0.005358090158551931
visibility: 0.9996456503868103
","x: 275.6405944824219
y: 440.3176574707031
z: -0.011873922310769558
visibility: 0.9896725416183472
","x: 250.77792358398438
y: 438.0277099609375
z: -0.0018033332889899611
visibility: 0.9837703704833984
","x: 282.39190673828125
y: 499.759521484375
z: 0.0621289424598217
visibility: 0.9905496835708618
","x: 249.24124145507812
y: 498.9101867675781
z: 0.08338332176208496
visibility: 0.9886071085929871
","x: 279.0544738769531
y: 510.40081787109375
z: 0.06297215074300766
visibility: 0.9378619194030762
","x: 251.9875946044922
y: 508.93658447265625
z: 0.08555533736944199
visibility: 0.9277958273887634
","x: 294.8714294433594
y: 520.1671752929688
z: -0.027119901031255722
visibility: 0.9880715012550354
","x: 240.390869140625
y: 515.8533325195312
z: -0.0005138309788890183
visibility: 0.9840001463890076
",4.9399025440216064,,,,,,,,,,,,,,,,,,,,,,,,,,,,,,,,,,,,,,,,,,
18,"x: 267.6767578125
y: 250.01585388183594
z: -0.2907269597053528
visibility: 0.9999520778656006
","x: 269.071533203125
y: 245.38552856445312
z: -0.28101998567581177
visibility: 0.9998113512992859
","x: 270.08428955078125
y: 245.54620361328125
z: -0.281023234128952
visibility: 0.9998294711112976
","x: 271.1368408203125
y: 245.73316955566406
z: -0.28103107213974
visibility: 0.9998281002044678
","x: 265.83489990234375
y: 245.5641326904297
z: -0.28022390604019165
visibility: 0.9997959136962891
","x: 264.6147155761719
y: 245.80303955078125
z: -0.28027668595314026
visibility: 0.999752402305603
","x: 263.4105529785156
y: 245.95822143554688
z: -0.28029578924179077
visibility: 0.9996781945228577
","x: 272.7197570800781
y: 249.64292907714844
z: -0.20356087386608124
visibility: 0.999782919883728
","x: 261.2551574707031
y: 249.51101684570312
z: -0.2016666829586029
visibility: 0.9993406534194946
","x: 269.5238952636719
y: 256.449462890625
z: -0.261637419462204
visibility: 0.9998626708984375
","x: 265.2752380371094
y: 256.50640869140625
z: -0.2610636353492737
visibility: 0.9997401237487793
","x: 283.445068359375
y: 283.7640075683594
z: -0.14316311478614807
visibility: 0.9999499320983887
","x: 252.19168090820312
y: 287.74090576171875
z: -0.12357278913259506
visibility: 0.9998166561126709
","x: 295.1669006347656
y: 323.00506591796875
z: -0.1071568951010704
visibility: 0.9955718517303467
","x: 238.23016357421875
y: 324.06011962890625
z: -0.07874878495931625
visibility: 0.9326395392417908
","x: 299.8240966796875
y: 362.0091247558594
z: -0.18271979689598083
visibility: 0.9906935691833496
","x: 222.3555450439453
y: 353.5743713378906
z: -0.13518235087394714
visibility: 0.9254278540611267
","x: 302.9244384765625
y: 374.31390380859375
z: -0.19977909326553345
visibility: 0.9741262793540955
","x: 215.86781311035156
y: 361.7126159667969
z: -0.15199223160743713
visibility: 0.8876463174819946
","x: 300.4365234375
y: 375.30267333984375
z: -0.22839458286762238
visibility: 0.9774193167686462
","x: 214.29591369628906
y: 361.9339599609375
z: -0.18188732862472534
visibility: 0.8979043364524841
","x: 299.04412841796875
y: 371.9052734375
z: -0.1949545443058014
visibility: 0.9716010093688965
","x: 218.1256103515625
y: 360.37554931640625
z: -0.1491071730852127
visibility: 0.8920062780380249
","x: 277.32049560546875
y: 372.349365234375
z: 0.0009401453426107764
visibility: 0.9996071457862854
","x: 257.67742919921875
y: 373.6856689453125
z: -0.0010483709629625082
visibility: 0.9996598958969116
","x: 278.1249084472656
y: 441.7584533691406
z: 0.02652190625667572
visibility: 0.9897795915603638
","x: 253.96803283691406
y: 440.0174560546875
z: 0.008933989331126213
visibility: 0.9849903583526611
","x: 282.298583984375
y: 499.91021728515625
z: 0.12444178014993668
visibility: 0.9908760786056519
","x: 249.22288513183594
y: 498.51885986328125
z: 0.11750160157680511
visibility: 0.9894757270812988
","x: 278.8871765136719
y: 510.2579040527344
z: 0.1278081238269806
visibility: 0.9392440319061279
","x: 251.5547332763672
y: 506.9583435058594
z: 0.12160923331975937
visibility: 0.9289287328720093
","x: 293.7618408203125
y: 519.8223266601562
z: 0.036356158554553986
visibility: 0.988294780254364
","x: 240.79481506347656
y: 515.8642578125
z: 0.029126647859811783
visibility: 0.9850691556930542
",5.066713571548462,"x: 300.7159729003906
y: 357.7908935546875
z: 0.0
","x: 298.8534851074219
y: 364.26055908203125
z: 0.000769943231716752
","x: 298.849853515625
y: 370.1064453125
z: 0.000426374637754634
","x: 298.8636474609375
y: 374.51251220703125
z: -0.0006613809382542968
","x: 299.1415100097656
y: 378.19384765625
z: -0.0015422999858856201
","x: 304.0287170410156
y: 374.06298828125
z: 0.002042280975729227
","x: 303.9846496582031
y: 380.2972106933594
z: 0.0004622965643648058
","x: 303.1302185058594
y: 383.95257568359375
z: -0.0006600471679121256
","x: 302.3168640136719
y: 387.06158447265625
z: -0.0013320399448275566
","x: 304.364501953125
y: 373.58746337890625
z: -7.07557546775206e-06
","x: 303.8606262207031
y: 380.8874816894531
z: -0.0014956817030906677
","x: 302.6213684082031
y: 384.57891845703125
z: -0.0023467172868549824
","x: 301.5706787109375
y: 387.5372314453125
z: -0.0029188061598688364
","x: 304.1413879394531
y: 372.5489501953125
z: -0.0024062958545982838
","x: 303.52764892578125
y: 379.3731994628906
z: -0.004125631880015135
","x: 302.36297607421875
y: 383.131103515625
z: -0.004697635769844055
","x: 301.332763671875
y: 386.28399658203125
z: -0.0050065419636666775
","x: 303.2142028808594
y: 371.0450744628906
z: -0.004940330050885677
","x: 302.92578125
y: 376.16156005859375
z: -0.0062356325797736645
","x: 302.30181884765625
y: 378.9733581542969
z: -0.006499606650322676
","x: 301.5816650390625
y: 381.42608642578125
z: -0.006642461754381657
",,,,,,,,,,,,,,,,,,,,,
19,"x: 267.6767578125
y: 250.01585388183594
z: -0.2907269597053528
visibility: 0.9999520778656006
","x: 269.071533203125
y: 245.38552856445312
z: -0.28101998567581177
visibility: 0.9998113512992859
","x: 270.08428955078125
y: 245.54620361328125
z: -0.281023234128952
visibility: 0.9998294711112976
","x: 271.1368408203125
y: 245.73316955566406
z: -0.28103107213974
visibility: 0.9998281002044678
","x: 265.83489990234375
y: 245.5641326904297
z: -0.28022390604019165
visibility: 0.9997959136962891
","x: 264.6147155761719
y: 245.80303955078125
z: -0.28027668595314026
visibility: 0.999752402305603
","x: 263.4105529785156
y: 245.95822143554688
z: -0.28029578924179077
visibility: 0.9996781945228577
","x: 272.7197570800781
y: 249.64292907714844
z: -0.20356087386608124
visibility: 0.999782919883728
","x: 261.2551574707031
y: 249.51101684570312
z: -0.2016666829586029
visibility: 0.9993406534194946
","x: 269.5238952636719
y: 256.449462890625
z: -0.261637419462204
visibility: 0.9998626708984375
","x: 265.2752380371094
y: 256.50640869140625
z: -0.2610636353492737
visibility: 0.9997401237487793
","x: 283.445068359375
y: 283.7640075683594
z: -0.14316311478614807
visibility: 0.9999499320983887
","x: 252.19168090820312
y: 287.74090576171875
z: -0.12357278913259506
visibility: 0.9998166561126709
","x: 295.1669006347656
y: 323.00506591796875
z: -0.1071568951010704
visibility: 0.9955718517303467
","x: 238.23016357421875
y: 324.06011962890625
z: -0.07874878495931625
visibility: 0.9326395392417908
","x: 299.8240966796875
y: 362.0091247558594
z: -0.18271979689598083
visibility: 0.9906935691833496
","x: 222.3555450439453
y: 353.5743713378906
z: -0.13518235087394714
visibility: 0.9254278540611267
","x: 302.9244384765625
y: 374.31390380859375
z: -0.19977909326553345
visibility: 0.9741262793540955
","x: 215.86781311035156
y: 361.7126159667969
z: -0.15199223160743713
visibility: 0.8876463174819946
","x: 300.4365234375
y: 375.30267333984375
z: -0.22839458286762238
visibility: 0.9774193167686462
","x: 214.29591369628906
y: 361.9339599609375
z: -0.18188732862472534
visibility: 0.8979043364524841
","x: 299.04412841796875
y: 371.9052734375
z: -0.1949545443058014
visibility: 0.9716010093688965
","x: 218.1256103515625
y: 360.37554931640625
z: -0.1491071730852127
visibility: 0.8920062780380249
","x: 277.32049560546875
y: 372.349365234375
z: 0.0009401453426107764
visibility: 0.9996071457862854
","x: 257.67742919921875
y: 373.6856689453125
z: -0.0010483709629625082
visibility: 0.9996598958969116
","x: 278.1249084472656
y: 441.7584533691406
z: 0.02652190625667572
visibility: 0.9897795915603638
","x: 253.96803283691406
y: 440.0174560546875
z: 0.008933989331126213
visibility: 0.9849903583526611
","x: 282.298583984375
y: 499.91021728515625
z: 0.12444178014993668
visibility: 0.9908760786056519
","x: 249.22288513183594
y: 498.51885986328125
z: 0.11750160157680511
visibility: 0.9894757270812988
","x: 278.8871765136719
y: 510.2579040527344
z: 0.1278081238269806
visibility: 0.9392440319061279
","x: 251.5547332763672
y: 506.9583435058594
z: 0.12160923331975937
visibility: 0.9289287328720093
","x: 293.7618408203125
y: 519.8223266601562
z: 0.036356158554553986
visibility: 0.988294780254364
","x: 240.79481506347656
y: 515.8642578125
z: 0.029126647859811783
visibility: 0.9850691556930542
",5.066713571548462,"x: 300.7159729003906
y: 357.7908935546875
z: 0.0
","x: 298.8534851074219
y: 364.26055908203125
z: 0.000769943231716752
","x: 298.849853515625
y: 370.1064453125
z: 0.000426374637754634
","x: 298.8636474609375
y: 374.51251220703125
z: -0.0006613809382542968
","x: 299.1415100097656
y: 378.19384765625
z: -0.0015422999858856201
","x: 304.0287170410156
y: 374.06298828125
z: 0.002042280975729227
","x: 303.9846496582031
y: 380.2972106933594
z: 0.0004622965643648058
","x: 303.1302185058594
y: 383.95257568359375
z: -0.0006600471679121256
","x: 302.3168640136719
y: 387.06158447265625
z: -0.0013320399448275566
","x: 304.364501953125
y: 373.58746337890625
z: -7.07557546775206e-06
","x: 303.8606262207031
y: 380.8874816894531
z: -0.0014956817030906677
","x: 302.6213684082031
y: 384.57891845703125
z: -0.0023467172868549824
","x: 301.5706787109375
y: 387.5372314453125
z: -0.0029188061598688364
","x: 304.1413879394531
y: 372.5489501953125
z: -0.0024062958545982838
","x: 303.52764892578125
y: 379.3731994628906
z: -0.004125631880015135
","x: 302.36297607421875
y: 383.131103515625
z: -0.004697635769844055
","x: 301.332763671875
y: 386.28399658203125
z: -0.0050065419636666775
","x: 303.2142028808594
y: 371.0450744628906
z: -0.004940330050885677
","x: 302.92578125
y: 376.16156005859375
z: -0.0062356325797736645
","x: 302.30181884765625
y: 378.9733581542969
z: -0.006499606650322676
","x: 301.5816650390625
y: 381.42608642578125
z: -0.006642461754381657
",,,,,,,,,,,,,,,,,,,,,
20,"x: 267.6767578125
y: 250.01585388183594
z: -0.2907269597053528
visibility: 0.9999520778656006
","x: 269.071533203125
y: 245.38552856445312
z: -0.28101998567581177
visibility: 0.9998113512992859
","x: 270.08428955078125
y: 245.54620361328125
z: -0.281023234128952
visibility: 0.9998294711112976
","x: 271.1368408203125
y: 245.73316955566406
z: -0.28103107213974
visibility: 0.9998281002044678
","x: 265.83489990234375
y: 245.5641326904297
z: -0.28022390604019165
visibility: 0.9997959136962891
","x: 264.6147155761719
y: 245.80303955078125
z: -0.28027668595314026
visibility: 0.999752402305603
","x: 263.4105529785156
y: 245.95822143554688
z: -0.28029578924179077
visibility: 0.9996781945228577
","x: 272.7197570800781
y: 249.64292907714844
z: -0.20356087386608124
visibility: 0.999782919883728
","x: 261.2551574707031
y: 249.51101684570312
z: -0.2016666829586029
visibility: 0.9993406534194946
","x: 269.5238952636719
y: 256.449462890625
z: -0.261637419462204
visibility: 0.9998626708984375
","x: 265.2752380371094
y: 256.50640869140625
z: -0.2610636353492737
visibility: 0.9997401237487793
","x: 283.445068359375
y: 283.7640075683594
z: -0.14316311478614807
visibility: 0.9999499320983887
","x: 252.19168090820312
y: 287.74090576171875
z: -0.12357278913259506
visibility: 0.9998166561126709
","x: 295.1669006347656
y: 323.00506591796875
z: -0.1071568951010704
visibility: 0.9955718517303467
","x: 238.23016357421875
y: 324.06011962890625
z: -0.07874878495931625
visibility: 0.9326395392417908
","x: 299.8240966796875
y: 362.0091247558594
z: -0.18271979689598083
visibility: 0.9906935691833496
","x: 222.3555450439453
y: 353.5743713378906
z: -0.13518235087394714
visibility: 0.9254278540611267
","x: 302.9244384765625
y: 374.31390380859375
z: -0.19977909326553345
visibility: 0.9741262793540955
","x: 215.86781311035156
y: 361.7126159667969
z: -0.15199223160743713
visibility: 0.8876463174819946
","x: 300.4365234375
y: 375.30267333984375
z: -0.22839458286762238
visibility: 0.9774193167686462
","x: 214.29591369628906
y: 361.9339599609375
z: -0.18188732862472534
visibility: 0.8979043364524841
","x: 299.04412841796875
y: 371.9052734375
z: -0.1949545443058014
visibility: 0.9716010093688965
","x: 218.1256103515625
y: 360.37554931640625
z: -0.1491071730852127
visibility: 0.8920062780380249
","x: 277.32049560546875
y: 372.349365234375
z: 0.0009401453426107764
visibility: 0.9996071457862854
","x: 257.67742919921875
y: 373.6856689453125
z: -0.0010483709629625082
visibility: 0.9996598958969116
","x: 278.1249084472656
y: 441.7584533691406
z: 0.02652190625667572
visibility: 0.9897795915603638
","x: 253.96803283691406
y: 440.0174560546875
z: 0.008933989331126213
visibility: 0.9849903583526611
","x: 282.298583984375
y: 499.91021728515625
z: 0.12444178014993668
visibility: 0.9908760786056519
","x: 249.22288513183594
y: 498.51885986328125
z: 0.11750160157680511
visibility: 0.9894757270812988
","x: 278.8871765136719
y: 510.2579040527344
z: 0.1278081238269806
visibility: 0.9392440319061279
","x: 251.5547332763672
y: 506.9583435058594
z: 0.12160923331975937
visibility: 0.9289287328720093
","x: 293.7618408203125
y: 519.8223266601562
z: 0.036356158554553986
visibility: 0.988294780254364
","x: 240.79481506347656
y: 515.8642578125
z: 0.029126647859811783
visibility: 0.9850691556930542
",5.066713571548462,"x: 300.7159729003906
y: 357.7908935546875
z: 0.0
","x: 298.8534851074219
y: 364.26055908203125
z: 0.000769943231716752
","x: 298.849853515625
y: 370.1064453125
z: 0.000426374637754634
","x: 298.8636474609375
y: 374.51251220703125
z: -0.0006613809382542968
","x: 299.1415100097656
y: 378.19384765625
z: -0.0015422999858856201
","x: 304.0287170410156
y: 374.06298828125
z: 0.002042280975729227
","x: 303.9846496582031
y: 380.2972106933594
z: 0.0004622965643648058
","x: 303.1302185058594
y: 383.95257568359375
z: -0.0006600471679121256
","x: 302.3168640136719
y: 387.06158447265625
z: -0.0013320399448275566
","x: 304.364501953125
y: 373.58746337890625
z: -7.07557546775206e-06
","x: 303.8606262207031
y: 380.8874816894531
z: -0.0014956817030906677
","x: 302.6213684082031
y: 384.57891845703125
z: -0.0023467172868549824
","x: 301.5706787109375
y: 387.5372314453125
z: -0.0029188061598688364
","x: 304.1413879394531
y: 372.5489501953125
z: -0.0024062958545982838
","x: 303.52764892578125
y: 379.3731994628906
z: -0.004125631880015135
","x: 302.36297607421875
y: 383.131103515625
z: -0.004697635769844055
","x: 301.332763671875
y: 386.28399658203125
z: -0.0050065419636666775
","x: 303.2142028808594
y: 371.0450744628906
z: -0.004940330050885677
","x: 302.92578125
y: 376.16156005859375
z: -0.0062356325797736645
","x: 302.30181884765625
y: 378.9733581542969
z: -0.006499606650322676
","x: 301.5816650390625
y: 381.42608642578125
z: -0.006642461754381657
",,,,,,,,,,,,,,,,,,,,,
21,"x: 272.3142395019531
y: 247.91970825195312
z: -0.22651472687721252
visibility: 0.9999554753303528
","x: 274.0503845214844
y: 243.69996643066406
z: -0.21523883938789368
visibility: 0.9998253583908081
","x: 275.15478515625
y: 243.78744506835938
z: -0.21525880694389343
visibility: 0.9998416304588318
","x: 276.202880859375
y: 243.87464904785156
z: -0.21528320014476776
visibility: 0.9998405575752258
","x: 270.6625061035156
y: 244.02174377441406
z: -0.21355053782463074
visibility: 0.9998098015785217
","x: 269.4537658691406
y: 244.26751708984375
z: -0.21356944739818573
visibility: 0.9997695684432983
","x: 268.35552978515625
y: 244.39990234375
z: -0.21355962753295898
visibility: 0.999700665473938
","x: 277.52947998046875
y: 247.53761291503906
z: -0.13530151546001434
visibility: 0.9997967481613159
","x: 266.98065185546875
y: 247.83016967773438
z: -0.12952177226543427
visibility: 0.9993841648101807
","x: 274.30755615234375
y: 254.646484375
z: -0.19629740715026855
visibility: 0.9998738765716553
","x: 270.0675048828125
y: 254.72938537597656
z: -0.19462384283542633
visibility: 0.9997605085372925
","x: 288.1459045410156
y: 284.9591064453125
z: -0.07661034911870956
visibility: 0.999952495098114
","x: 257.38934326171875
y: 284.374267578125
z: -0.06242581456899643
visibility: 0.9998188614845276
","x: 300.3894958496094
y: 321.72015380859375
z: -0.03903045505285263
visibility: 0.995708703994751
","x: 246.94979858398438
y: 317.57476806640625
z: -0.043169185519218445
visibility: 0.9320946931838989
","x: 306.9295959472656
y: 359.9056396484375
z: -0.09947589784860611
visibility: 0.991165280342102
","x: 234.85145568847656
y: 337.9267578125
z: -0.13974180817604065
visibility: 0.9271787405014038
","x: 309.1397399902344
y: 372.9315490722656
z: -0.1159188523888588
visibility: 0.9751404523849487
","x: 229.32362365722656
y: 345.53643798828125
z: -0.15846745669841766
visibility: 0.88984215259552
","x: 307.1621398925781
y: 374.0802307128906
z: -0.14443457126617432
visibility: 0.9783017039299011
","x: 228.7762908935547
y: 344.9853820800781
z: -0.18797537684440613
visibility: 0.9000521898269653
","x: 306.0349426269531
y: 370.3625793457031
z: -0.11157200485467911
visibility: 0.9727849364280701
","x: 231.23455810546875
y: 343.0152893066406
z: -0.15431256592273712
visibility: 0.8940732479095459
","x: 280.7816162109375
y: 371.4587707519531
z: 0.0025594369508326054
visibility: 0.9996256232261658
","x: 260.9556579589844
y: 372.0668029785156
z: -0.0026566830929368734
visibility: 0.9996721148490906
","x: 280.1423645019531
y: 441.5841979980469
z: 0.0037795715034008026
visibility: 0.990021824836731
","x: 257.56060791015625
y: 440.0765686035156
z: 0.0006483051110990345
visibility: 0.9860597252845764
","x: 281.6906433105469
y: 500.3646240234375
z: 0.1095360517501831
visibility: 0.9911450743675232
","x: 256.06732177734375
y: 496.17376708984375
z: 0.11383140087127686
visibility: 0.9901916980743408
","x: 278.435791015625
y: 510.34918212890625
z: 0.1135871633887291
visibility: 0.9401383996009827
","x: 258.469482421875
y: 503.2947998046875
z: 0.11831674724817276
visibility: 0.9291356801986694
","x: 293.6112060546875
y: 519.9220581054688
z: 0.01846344955265522
visibility: 0.9885121583938599
","x: 250.17205810546875
y: 516.3892211914062
z: 0.021642083302140236
visibility: 0.9859737157821655
",5.191347599029541,,,,,,,,,,,,,,,,,,,,,,,,,,,,,,,,,,,,,,,,,,
22,"x: 272.3142395019531
y: 247.91970825195312
z: -0.22651472687721252
visibility: 0.9999554753303528
","x: 274.0503845214844
y: 243.69996643066406
z: -0.21523883938789368
visibility: 0.9998253583908081
","x: 275.15478515625
y: 243.78744506835938
z: -0.21525880694389343
visibility: 0.9998416304588318
","x: 276.202880859375
y: 243.87464904785156
z: -0.21528320014476776
visibility: 0.9998405575752258
","x: 270.6625061035156
y: 244.02174377441406
z: -0.21355053782463074
visibility: 0.9998098015785217
","x: 269.4537658691406
y: 244.26751708984375
z: -0.21356944739818573
visibility: 0.9997695684432983
","x: 268.35552978515625
y: 244.39990234375
z: -0.21355962753295898
visibility: 0.999700665473938
","x: 277.52947998046875
y: 247.53761291503906
z: -0.13530151546001434
visibility: 0.9997967481613159
","x: 266.98065185546875
y: 247.83016967773438
z: -0.12952177226543427
visibility: 0.9993841648101807
","x: 274.30755615234375
y: 254.646484375
z: -0.19629740715026855
visibility: 0.9998738765716553
","x: 270.0675048828125
y: 254.72938537597656
z: -0.19462384283542633
visibility: 0.9997605085372925
","x: 288.1459045410156
y: 284.9591064453125
z: -0.07661034911870956
visibility: 0.999952495098114
","x: 257.38934326171875
y: 284.374267578125
z: -0.06242581456899643
visibility: 0.9998188614845276
","x: 300.3894958496094
y: 321.72015380859375
z: -0.03903045505285263
visibility: 0.995708703994751
","x: 246.94979858398438
y: 317.57476806640625
z: -0.043169185519218445
visibility: 0.9320946931838989
","x: 306.9295959472656
y: 359.9056396484375
z: -0.09947589784860611
visibility: 0.991165280342102
","x: 234.85145568847656
y: 337.9267578125
z: -0.13974180817604065
visibility: 0.9271787405014038
","x: 309.1397399902344
y: 372.9315490722656
z: -0.1159188523888588
visibility: 0.9751404523849487
","x: 229.32362365722656
y: 345.53643798828125
z: -0.15846745669841766
visibility: 0.88984215259552
","x: 307.1621398925781
y: 374.0802307128906
z: -0.14443457126617432
visibility: 0.9783017039299011
","x: 228.7762908935547
y: 344.9853820800781
z: -0.18797537684440613
visibility: 0.9000521898269653
","x: 306.0349426269531
y: 370.3625793457031
z: -0.11157200485467911
visibility: 0.9727849364280701
","x: 231.23455810546875
y: 343.0152893066406
z: -0.15431256592273712
visibility: 0.8940732479095459
","x: 280.7816162109375
y: 371.4587707519531
z: 0.0025594369508326054
visibility: 0.9996256232261658
","x: 260.9556579589844
y: 372.0668029785156
z: -0.0026566830929368734
visibility: 0.9996721148490906
","x: 280.1423645019531
y: 441.5841979980469
z: 0.0037795715034008026
visibility: 0.990021824836731
","x: 257.56060791015625
y: 440.0765686035156
z: 0.0006483051110990345
visibility: 0.9860597252845764
","x: 281.6906433105469
y: 500.3646240234375
z: 0.1095360517501831
visibility: 0.9911450743675232
","x: 256.06732177734375
y: 496.17376708984375
z: 0.11383140087127686
visibility: 0.9901916980743408
","x: 278.435791015625
y: 510.34918212890625
z: 0.1135871633887291
visibility: 0.9401383996009827
","x: 258.469482421875
y: 503.2947998046875
z: 0.11831674724817276
visibility: 0.9291356801986694
","x: 293.6112060546875
y: 519.9220581054688
z: 0.01846344955265522
visibility: 0.9885121583938599
","x: 250.17205810546875
y: 516.3892211914062
z: 0.021642083302140236
visibility: 0.9859737157821655
",5.191347599029541,,,,,,,,,,,,,,,,,,,,,,,,,,,,,,,,,,,,,,,,,,
23,"x: 272.33349609375
y: 249.13414001464844
z: -0.29301294684410095
visibility: 0.9999581575393677
","x: 274.2588195800781
y: 244.36245727539062
z: -0.28848281502723694
visibility: 0.9998360276222229
","x: 275.3893737792969
y: 244.32630920410156
z: -0.2884875535964966
visibility: 0.9998519420623779
","x: 276.5593566894531
y: 244.28025817871094
z: -0.28852495551109314
visibility: 0.9998505711555481
","x: 271.2102966308594
y: 244.7650146484375
z: -0.2810024917125702
visibility: 0.9998185038566589
","x: 270.2551574707031
y: 244.97021484375
z: -0.2810180187225342
visibility: 0.9997811913490295
","x: 269.3302307128906
y: 245.07989501953125
z: -0.2809980511665344
visibility: 0.9997143745422363
","x: 279.3556213378906
y: 247.5052490234375
z: -0.21550679206848145
visibility: 0.999810516834259
","x: 269.3099060058594
y: 248.10452270507812
z: -0.1837119460105896
visibility: 0.9994188547134399
","x: 274.4836120605469
y: 255.70901489257812
z: -0.26353639364242554
visibility: 0.9998846054077148
","x: 271.12347412109375
y: 255.86814880371094
z: -0.2541063129901886
visibility: 0.9997795224189758
","x: 290.8171081542969
y: 284.60186767578125
z: -0.14067181944847107
visibility: 0.9999563694000244
","x: 260.164306640625
y: 281.09747314453125
z: -0.0817260816693306
visibility: 0.9998297095298767
","x: 302.9654846191406
y: 321.8432922363281
z: -0.060022734105587006
visibility: 0.9960797429084778
","x: 251.60989379882812
y: 315.05841064453125
z: -0.03832250088453293
visibility: 0.9332491159439087
","x: 305.6753234863281
y: 363.4600830078125
z: -0.1469482034444809
visibility: 0.9919320344924927
","x: 243.269775390625
y: 340.2727966308594
z: -0.1127304807305336
visibility: 0.9312685132026672
","x: 306.7653503417969
y: 378.5751037597656
z: -0.16387200355529785
visibility: 0.9770697355270386
","x: 239.5740203857422
y: 349.0806884765625
z: -0.12903890013694763
visibility: 0.8953908085823059
","x: 304.69183349609375
y: 378.9063720703125
z: -0.1931447833776474
visibility: 0.9799705147743225
","x: 240.07936096191406
y: 348.9773864746094
z: -0.15887781977653503
visibility: 0.9049690961837769
","x: 303.5354309082031
y: 374.7104187011719
z: -0.15829309821128845
visibility: 0.9747905135154724
","x: 241.96978759765625
y: 346.4156799316406
z: -0.12633444368839264
visibility: 0.8984395861625671
","x: 281.8737487792969
y: 371.31689453125
z: 0.0012935722479596734
visibility: 0.999641478061676
","x: 261.8390197753906
y: 369.0421142578125
z: -0.0013599455123767257
visibility: 0.9996882081031799
","x: 280.8079833984375
y: 441.301025390625
z: 0.013336345553398132
visibility: 0.9901443719863892
","x: 262.99798583984375
y: 440.3592529296875
z: 0.005727377720177174
visibility: 0.9870628714561462
","x: 281.61199951171875
y: 499.3328552246094
z: 0.13856035470962524
visibility: 0.9912731647491455
","x: 265.5582580566406
y: 495.4388427734375
z: 0.12743240594863892
visibility: 0.9908192157745361
","x: 279.0270080566406
y: 508.70770263671875
z: 0.1444709599018097
visibility: 0.9418520331382751
","x: 268.6333923339844
y: 503.1264953613281
z: 0.1323188990354538
visibility: 0.9308903217315674
","x: 292.7270202636719
y: 519.27197265625
z: 0.047868337482213974
visibility: 0.9886247515678406
","x: 259.0651550292969
y: 516.41064453125
z: 0.033505845814943314
visibility: 0.9867833852767944
",5.315577745437622,,,,,,,,,,,,,,,,,,,,,,,,,,,,,,,,,,,,,,,,,,
24,"x: 272.33349609375
y: 249.13414001464844
z: -0.29301294684410095
visibility: 0.9999581575393677
","x: 274.2588195800781
y: 244.36245727539062
z: -0.28848281502723694
visibility: 0.9998360276222229
","x: 275.3893737792969
y: 244.32630920410156
z: -0.2884875535964966
visibility: 0.9998519420623779
","x: 276.5593566894531
y: 244.28025817871094
z: -0.28852495551109314
visibility: 0.9998505711555481
","x: 271.2102966308594
y: 244.7650146484375
z: -0.2810024917125702
visibility: 0.9998185038566589
","x: 270.2551574707031
y: 244.97021484375
z: -0.2810180187225342
visibility: 0.9997811913490295
","x: 269.3302307128906
y: 245.07989501953125
z: -0.2809980511665344
visibility: 0.9997143745422363
","x: 279.3556213378906
y: 247.5052490234375
z: -0.21550679206848145
visibility: 0.999810516834259
","x: 269.3099060058594
y: 248.10452270507812
z: -0.1837119460105896
visibility: 0.9994188547134399
","x: 274.4836120605469
y: 255.70901489257812
z: -0.26353639364242554
visibility: 0.9998846054077148
","x: 271.12347412109375
y: 255.86814880371094
z: -0.2541063129901886
visibility: 0.9997795224189758
","x: 290.8171081542969
y: 284.60186767578125
z: -0.14067181944847107
visibility: 0.9999563694000244
","x: 260.164306640625
y: 281.09747314453125
z: -0.0817260816693306
visibility: 0.9998297095298767
","x: 302.9654846191406
y: 321.8432922363281
z: -0.060022734105587006
visibility: 0.9960797429084778
","x: 251.60989379882812
y: 315.05841064453125
z: -0.03832250088453293
visibility: 0.9332491159439087
","x: 305.6753234863281
y: 363.4600830078125
z: -0.1469482034444809
visibility: 0.9919320344924927
","x: 243.269775390625
y: 340.2727966308594
z: -0.1127304807305336
visibility: 0.9312685132026672
","x: 306.7653503417969
y: 378.5751037597656
z: -0.16387200355529785
visibility: 0.9770697355270386
","x: 239.5740203857422
y: 349.0806884765625
z: -0.12903890013694763
visibility: 0.8953908085823059
","x: 304.69183349609375
y: 378.9063720703125
z: -0.1931447833776474
visibility: 0.9799705147743225
","x: 240.07936096191406
y: 348.9773864746094
z: -0.15887781977653503
visibility: 0.9049690961837769
","x: 303.5354309082031
y: 374.7104187011719
z: -0.15829309821128845
visibility: 0.9747905135154724
","x: 241.96978759765625
y: 346.4156799316406
z: -0.12633444368839264
visibility: 0.8984395861625671
","x: 281.8737487792969
y: 371.31689453125
z: 0.0012935722479596734
visibility: 0.999641478061676
","x: 261.8390197753906
y: 369.0421142578125
z: -0.0013599455123767257
visibility: 0.9996882081031799
","x: 280.8079833984375
y: 441.301025390625
z: 0.013336345553398132
visibility: 0.9901443719863892
","x: 262.99798583984375
y: 440.3592529296875
z: 0.005727377720177174
visibility: 0.9870628714561462
","x: 281.61199951171875
y: 499.3328552246094
z: 0.13856035470962524
visibility: 0.9912731647491455
","x: 265.5582580566406
y: 495.4388427734375
z: 0.12743240594863892
visibility: 0.9908192157745361
","x: 279.0270080566406
y: 508.70770263671875
z: 0.1444709599018097
visibility: 0.9418520331382751
","x: 268.6333923339844
y: 503.1264953613281
z: 0.1323188990354538
visibility: 0.9308903217315674
","x: 292.7270202636719
y: 519.27197265625
z: 0.047868337482213974
visibility: 0.9886247515678406
","x: 259.0651550292969
y: 516.41064453125
z: 0.033505845814943314
visibility: 0.9867833852767944
",5.315577745437622,,,,,,,,,,,,,,,,,,,,,,,,,,,,,,,,,,,,,,,,,,
25,"x: 272.8341979980469
y: 247.26327514648438
z: -0.31602293252944946
visibility: 0.9999608397483826
","x: 274.80438232421875
y: 243.43568420410156
z: -0.30444201827049255
visibility: 0.9998461008071899
","x: 275.9440612792969
y: 243.61550903320312
z: -0.3044417202472687
visibility: 0.9998606443405151
","x: 277.0288391113281
y: 243.78387451171875
z: -0.3044930696487427
visibility: 0.9998599290847778
","x: 271.4518737792969
y: 243.49977111816406
z: -0.30332833528518677
visibility: 0.9998305439949036
","x: 270.37103271484375
y: 243.68299865722656
z: -0.3033469319343567
visibility: 0.9997959136962891
","x: 269.3140869140625
y: 243.7826690673828
z: -0.30334287881851196
visibility: 0.9997336864471436
","x: 278.7874755859375
y: 247.725830078125
z: -0.21763603389263153
visibility: 0.999817430973053
","x: 267.8039855957031
y: 247.47857666015625
z: -0.21358302235603333
visibility: 0.999455988407135
","x: 275.1611633300781
y: 254.37547302246094
z: -0.28257304430007935
visibility: 0.999893844127655
","x: 270.7217712402344
y: 254.112060546875
z: -0.2816137969493866
visibility: 0.9997984170913696
","x: 288.7345275878906
y: 287.6567687988281
z: -0.14448295533657074
visibility: 0.9999580979347229
","x: 257.00323486328125
y: 283.403076171875
z: -0.1360665261745453
visibility: 0.9998408555984497
","x: 299.55694580078125
y: 326.7122802734375
z: -0.08435110002756119
visibility: 0.9960465431213379
","x: 250.36752319335938
y: 325.24542236328125
z: -0.08741958439350128
visibility: 0.9360259771347046
","x: 308.51800537109375
y: 367.2154235839844
z: -0.1549597829580307
visibility: 0.9917629957199097
","x: 249.2716827392578
y: 367.49932861328125
z: -0.13233879208564758
visibility: 0.9292844533920288
","x: 311.4111633300781
y: 381.733642578125
z: -0.17291489243507385
visibility: 0.9764440655708313
","x: 247.67263793945312
y: 380.30694580078125
z: -0.151577427983284
visibility: 0.890345573425293
","x: 310.65777587890625
y: 383.0131530761719
z: -0.2035530060529709
visibility: 0.9794095158576965
","x: 248.72000122070312
y: 381.08013916015625
z: -0.17547395825386047
visibility: 0.8998503684997559
","x: 309.18426513671875
y: 378.7037658691406
z: -0.1677004098892212
visibility: 0.9740256667137146
","x: 249.83436584472656
y: 376.51251220703125
z: -0.1409124881029129
visibility: 0.8915565609931946
","x: 283.26556396484375
y: 370.8134460449219
z: 0.00396715197712183
visibility: 0.9996376037597656
","x: 262.2703857421875
y: 369.07666015625
z: -0.004033926874399185
visibility: 0.9996907711029053
","x: 284.15997314453125
y: 442.0599670410156
z: 0.005023391451686621
visibility: 0.9898714423179626
","x: 267.5033264160156
y: 442.15142822265625
z: 0.0014764561783522367
visibility: 0.9874846339225769
","x: 282.9423522949219
y: 500.70269775390625
z: 0.13601012527942657
visibility: 0.990894615650177
","x: 270.7149658203125
y: 499.84539794921875
z: 0.1347959041595459
visibility: 0.9908778071403503
","x: 280.6780700683594
y: 508.7774658203125
z: 0.14310204982757568
visibility: 0.9403398036956787
","x: 272.6224670410156
y: 506.88531494140625
z: 0.1414932757616043
visibility: 0.9251651167869568
","x: 294.3645935058594
y: 520.3269653320312
z: 0.043046046048402786
visibility: 0.9881777763366699
","x: 265.37841796875
y: 520.7061157226562
z: 0.037629857659339905
visibility: 0.9867675304412842
",5.440950155258179,,,,,,,,,,,,,,,,,,,,,,,,,,,,,,,,,,,,,,,,,,
26,"x: 272.8341979980469
y: 247.26327514648438
z: -0.31602293252944946
visibility: 0.9999608397483826
","x: 274.80438232421875
y: 243.43568420410156
z: -0.30444201827049255
visibility: 0.9998461008071899
","x: 275.9440612792969
y: 243.61550903320312
z: -0.3044417202472687
visibility: 0.9998606443405151
","x: 277.0288391113281
y: 243.78387451171875
z: -0.3044930696487427
visibility: 0.9998599290847778
","x: 271.4518737792969
y: 243.49977111816406
z: -0.30332833528518677
visibility: 0.9998305439949036
","x: 270.37103271484375
y: 243.68299865722656
z: -0.3033469319343567
visibility: 0.9997959136962891
","x: 269.3140869140625
y: 243.7826690673828
z: -0.30334287881851196
visibility: 0.9997336864471436
","x: 278.7874755859375
y: 247.725830078125
z: -0.21763603389263153
visibility: 0.999817430973053
","x: 267.8039855957031
y: 247.47857666015625
z: -0.21358302235603333
visibility: 0.999455988407135
","x: 275.1611633300781
y: 254.37547302246094
z: -0.28257304430007935
visibility: 0.999893844127655
","x: 270.7217712402344
y: 254.112060546875
z: -0.2816137969493866
visibility: 0.9997984170913696
","x: 288.7345275878906
y: 287.6567687988281
z: -0.14448295533657074
visibility: 0.9999580979347229
","x: 257.00323486328125
y: 283.403076171875
z: -0.1360665261745453
visibility: 0.9998408555984497
","x: 299.55694580078125
y: 326.7122802734375
z: -0.08435110002756119
visibility: 0.9960465431213379
","x: 250.36752319335938
y: 325.24542236328125
z: -0.08741958439350128
visibility: 0.9360259771347046
","x: 308.51800537109375
y: 367.2154235839844
z: -0.1549597829580307
visibility: 0.9917629957199097
","x: 249.2716827392578
y: 367.49932861328125
z: -0.13233879208564758
visibility: 0.9292844533920288
","x: 311.4111633300781
y: 381.733642578125
z: -0.17291489243507385
visibility: 0.9764440655708313
","x: 247.67263793945312
y: 380.30694580078125
z: -0.151577427983284
visibility: 0.890345573425293
","x: 310.65777587890625
y: 383.0131530761719
z: -0.2035530060529709
visibility: 0.9794095158576965
","x: 248.72000122070312
y: 381.08013916015625
z: -0.17547395825386047
visibility: 0.8998503684997559
","x: 309.18426513671875
y: 378.7037658691406
z: -0.1677004098892212
visibility: 0.9740256667137146
","x: 249.83436584472656
y: 376.51251220703125
z: -0.1409124881029129
visibility: 0.8915565609931946
","x: 283.26556396484375
y: 370.8134460449219
z: 0.00396715197712183
visibility: 0.9996376037597656
","x: 262.2703857421875
y: 369.07666015625
z: -0.004033926874399185
visibility: 0.9996907711029053
","x: 284.15997314453125
y: 442.0599670410156
z: 0.005023391451686621
visibility: 0.9898714423179626
","x: 267.5033264160156
y: 442.15142822265625
z: 0.0014764561783522367
visibility: 0.9874846339225769
","x: 282.9423522949219
y: 500.70269775390625
z: 0.13601012527942657
visibility: 0.990894615650177
","x: 270.7149658203125
y: 499.84539794921875
z: 0.1347959041595459
visibility: 0.9908778071403503
","x: 280.6780700683594
y: 508.7774658203125
z: 0.14310204982757568
visibility: 0.9403398036956787
","x: 272.6224670410156
y: 506.88531494140625
z: 0.1414932757616043
visibility: 0.9251651167869568
","x: 294.3645935058594
y: 520.3269653320312
z: 0.043046046048402786
visibility: 0.9881777763366699
","x: 265.37841796875
y: 520.7061157226562
z: 0.037629857659339905
visibility: 0.9867675304412842
",5.440950155258179,,,,,,,,,,,,,,,,,,,,,,,,,,,,,,,,,,,,,,,,,,
27,"x: 272.7381591796875
y: 246.81430053710938
z: -0.20025300979614258
visibility: 0.9999642968177795
","x: 274.158935546875
y: 242.93975830078125
z: -0.18395233154296875
visibility: 0.999859631061554
","x: 275.13580322265625
y: 243.20547485351562
z: -0.1839672327041626
visibility: 0.9998722076416016
","x: 276.06829833984375
y: 243.4787139892578
z: -0.18401218950748444
visibility: 0.9998711943626404
","x: 271.0125732421875
y: 242.9125213623047
z: -0.18838456273078918
visibility: 0.9998461008071899
","x: 269.87225341796875
y: 243.10960388183594
z: -0.18837609887123108
visibility: 0.9998148083686829
","x: 268.7851257324219
y: 243.23971557617188
z: -0.18836507201194763
visibility: 0.9997584223747253
","x: 277.266357421875
y: 247.7090301513672
z: -0.08856087923049927
visibility: 0.9998313188552856
","x: 266.59490966796875
y: 247.2103729248047
z: -0.11025653034448624
visibility: 0.9995084404945374
","x: 274.74822998046875
y: 253.91360473632812
z: -0.16444896161556244
visibility: 0.9999035596847534
","x: 270.5191650390625
y: 253.7434539794922
z: -0.1708097904920578
visibility: 0.9998179078102112
","x: 285.70458984375
y: 287.70343017578125
z: -0.00969628244638443
visibility: 0.9999600648880005
","x: 256.1750183105469
y: 281.41375732421875
z: -0.08134180307388306
visibility: 0.9998552799224854
","x: 298.90069580078125
y: 325.0675964355469
z: 0.03637537732720375
visibility: 0.9940212368965149
","x: 248.75982666015625
y: 320.1963806152344
z: -0.12882603704929352
visibility: 0.9414617419242859
","x: 314.765380859375
y: 363.7982177734375
z: -0.04612196609377861
visibility: 0.9914846420288086
","x: 250.5630645751953
y: 366.2968444824219
z: -0.2660958468914032
visibility: 0.9350780248641968
","x: 320.49761962890625
y: 371.18182373046875
z: -0.06445668637752533
visibility: 0.9763380885124207
","x: 251.00006103515625
y: 374.6875305175781
z: -0.29954320192337036
visibility: 0.8986424207687378
","x: 320.95294189453125
y: 373.23907470703125
z: -0.09648814797401428
visibility: 0.9794265627861023
","x: 253.98602294921875
y: 376.14642333984375
z: -0.3131553530693054
visibility: 0.9072417616844177
","x: 318.428955078125
y: 369.6255798339844
z: -0.06167710945010185
visibility: 0.9740210771560669
","x: 254.8270263671875
y: 375.10211181640625
z: -0.2746346890926361
visibility: 0.8986819386482239
","x: 282.67327880859375
y: 370.62060546875
z: 0.017132563516497612
visibility: 0.9996626377105713
","x: 262.3353576660156
y: 370.7474060058594
z: -0.017131416127085686
visibility: 0.9997128248214722
","x: 291.5133361816406
y: 440.0733642578125
z: -0.04744521528482437
visibility: 0.9903598427772522
","x: 264.44427490234375
y: 439.3204040527344
z: -0.06431184709072113
visibility: 0.9884544610977173
","x: 289.2489929199219
y: 500.2516174316406
z: 0.05391037464141846
visibility: 0.9910618662834167
","x: 269.3450012207031
y: 501.0774230957031
z: 0.04592674598097801
visibility: 0.9914524555206299
","x: 284.5836181640625
y: 508.9895935058594
z: 0.05772152543067932
visibility: 0.9416565895080566
","x: 272.68817138671875
y: 509.6805419921875
z: 0.05030582472681999
visibility: 0.926834762096405
","x: 300.01666259765625
y: 524.3217163085938
z: -0.03771723806858063
visibility: 0.9883676767349243
","x: 266.6517333984375
y: 521.8299560546875
z: -0.048408396542072296
visibility: 0.9874995946884155
",5.5673441886901855,,,,,,,,,,,,,,,,,,,,,,,,,,,,,,,,,,,,,,,,,,
28,"x: 272.7381591796875
y: 246.81430053710938
z: -0.20025300979614258
visibility: 0.9999642968177795
","x: 274.158935546875
y: 242.93975830078125
z: -0.18395233154296875
visibility: 0.999859631061554
","x: 275.13580322265625
y: 243.20547485351562
z: -0.1839672327041626
visibility: 0.9998722076416016
","x: 276.06829833984375
y: 243.4787139892578
z: -0.18401218950748444
visibility: 0.9998711943626404
","x: 271.0125732421875
y: 242.9125213623047
z: -0.18838456273078918
visibility: 0.9998461008071899
","x: 269.87225341796875
