uscmakers/ReverseChoreography/data/10_woman_doja_cat.csv
,NOSE,LEFT_EYE_INNER,LEFT_EYE,LEFT_EYE_OUTER,RIGHT_EYE_INNER,RIGHT_EYE,RIGHT_EYE_OUTER,LEFT_EAR,RIGHT_EAR,MOUTH_LEFT,MOUTH_RIGHT,LEFT_SHOULDER,RIGHT_SHOULDER,LEFT_ELBOW,RIGHT_ELBOW,LEFT_WRIST,RIGHT_WRIST,LEFT_PINKY,RIGHT_PINKY,LEFT_INDEX,RIGHT_INDEX,LEFT_THUMB,RIGHT_THUMB,LEFT_HIP,RIGHT_HIP,LEFT_KNEE,RIGHT_KNEE,LEFT_ANKLE,RIGHT_ANKLE,LEFT_HEEL,RIGHT_HEEL,LEFT_FOOT_INDEX,RIGHT_FOOT_INDEX,TIMESTAMP,WRIST,THUMB_CPC,THUMB_MCP,THUMB_IP,THUMB_TIP,INDEX_FINGER_MCP,INDEX_FINGER_PIP,INDEX_FINGER_DIP,INDEX_FINGER_TIP,MIDDLE_FINGER_MCP,MIDDLE_FINGER_PIP,MIDDLE_FINGER_DIP,MIDDLE_FINGER_TIP,RING_FINGER_PIP,RING_FINGER_DIP,RING_FINGER_TIP,RING_FINGER_MCP,PINKY_MCP,PINKY_PIP,PINKY_DIP,PINKY_TIP,WRIST2,THUMB_CPC2,THUMB_MCP2,THUMB_IP2,THUMB_TIP2,INDEX_FINGER_MCP2,INDEX_FINGER_PIP2,INDEX_FINGER_DIP2,INDEX_FINGER_TIP2,MIDDLE_FINGER_MCP2,MIDDLE_FINGER_PIP2,MIDDLE_FINGER_DIP2,MIDDLE_FINGER_TIP2,RING_FINGER_PIP2,RING_FINGER_DIP2,RING_FINGER_TIP2,RING_FINGER_MCP2,PINKY_MCP2,PINKY_PIP2,PINKY_DIP2,PINKY_TIP2
0,"x: 267.45263671875
y: 227.4169158935547
z: -0.31187352538108826
visibility: 0.9999839067459106
","x: 269.779541015625
y: 222.57296752929688
z: -0.2878552973270416
visibility: 0.9999518394470215
","x: 271.1633605957031
y: 223.17752075195312
z: -0.287837952375412
visibility: 0.9999324083328247
","x: 272.5399169921875
y: 223.785888671875
z: -0.2878519594669342
visibility: 0.9999185800552368
","x: 265.5298767089844
y: 221.40113830566406
z: -0.2989330589771271
visibility: 0.9999762773513794
","x: 263.9140625
y: 221.1481475830078
z: -0.2989628314971924
visibility: 0.9999749660491943
","x: 262.1003723144531
y: 220.87791442871094
z: -0.2989947497844696
visibility: 0.9999784231185913
","x: 273.83184814453125
y: 228.86196899414062
z: -0.1452275961637497
visibility: 0.9997949004173279
","x: 258.10015869140625
y: 225.49964904785156
z: -0.19904759526252747
visibility: 0.9999779462814331
","x: 269.5252685546875
y: 237.21047973632812
z: -0.2576214075088501
visibility: 0.9999430179595947
","x: 263.4208679199219
y: 235.53753662109375
z: -0.273173451423645
visibility: 0.9999834299087524
","x: 282.05450439453125
y: 275.6934509277344
z: -0.021842846646904945
visibility: 0.9996302127838135
","x: 240.61993408203125
y: 268.2156677246094
z: -0.12786276638507843
visibility: 0.9999827146530151
","x: 286.4964904785156
y: 319.31097412109375
z: 0.09320040047168732
visibility: 0.6670412421226501
","x: 216.3589324951172
y: 304.4796142578125
z: -0.10052090883255005
visibility: 0.9967381358146667
","x: 292.45074462890625
y: 352.46014404296875
z: 0.026598727330565453
visibility: 0.6362317800521851
","x: 222.39208984375
y: 348.4475402832031
z: -0.1673222780227661
visibility: 0.9635640978813171
","x: 293.6842346191406
y: 364.7400207519531
z: 0.010278808884322643
visibility: 0.5425863265991211
","x: 226.56387329101562
y: 358.145751953125
z: -0.19356487691402435
visibility: 0.9029243588447571
","x: 292.5707092285156
y: 363.1051330566406
z: -0.02575564943253994
visibility: 0.5636274814605713
","x: 229.90969848632812
y: 356.8243103027344
z: -0.21312551200389862
visibility: 0.9026296734809875
","x: 291.3841857910156
y: 358.857421875
z: 0.01016136072576046
visibility: 0.5373296141624451
","x: 229.1688232421875
y: 353.5787353515625
z: -0.17504607141017914
visibility: 0.8808223009109497
","x: 277.20556640625
y: 384.0041809082031
z: 0.03762821853160858
visibility: 0.998762845993042
","x: 253.2253875732422
y: 386.5821838378906
z: -0.03757775202393532
visibility: 0.9997848868370056
","x: 279.34454345703125
y: 467.91766357421875
z: 0.09069833904504776
visibility: 0.9669481515884399
","x: 256.9061584472656
y: 471.81103515625
z: -0.08033647388219833
visibility: 0.9937763214111328
","x: 271.5406494140625
y: 536.654541015625
z: 0.31473052501678467
visibility: 0.9650629758834839
","x: 256.4661865234375
y: 558.049072265625
z: 0.047135863453149796
visibility: 0.9942439198493958
","x: 266.6601867675781
y: 546.6959228515625
z: 0.33033090829849243
visibility: 0.8851861357688904
","x: 255.64398193359375
y: 569.7799072265625
z: 0.05155758932232857
visibility: 0.9057926535606384
","x: 280.5859375
y: 565.7801513671875
z: 0.2249390184879303
visibility: 0.9718066453933716
","x: 260.8575439453125
y: 585.3479614257812
z: -0.0969846248626709
visibility: 0.990680992603302
",4.176913738250732,,,,,,,,,,,,,,,,,,,,,,,,,,,,,,,,,,,,,,,,,,
1,"x: 267.45263671875
y: 227.4169158935547
z: -0.31187352538108826
visibility: 0.9999839067459106
","x: 269.779541015625
y: 222.57296752929688
z: -0.2878552973270416
visibility: 0.9999518394470215
","x: 271.1633605957031
y: 223.17752075195312
z: -0.287837952375412
visibility: 0.9999324083328247
","x: 272.5399169921875
y: 223.785888671875
z: -0.2878519594669342
visibility: 0.9999185800552368
","x: 265.5298767089844
y: 221.40113830566406
z: -0.2989330589771271
visibility: 0.9999762773513794
","x: 263.9140625
y: 221.1481475830078
z: -0.2989628314971924
visibility: 0.9999749660491943
","x: 262.1003723144531
y: 220.87791442871094
z: -0.2989947497844696
visibility: 0.9999784231185913
","x: 273.83184814453125
y: 228.86196899414062
z: -0.1452275961637497
visibility: 0.9997949004173279
","x: 258.10015869140625
y: 225.49964904785156
z: -0.19904759526252747
visibility: 0.9999779462814331
","x: 269.5252685546875
y: 237.21047973632812
z: -0.2576214075088501
visibility: 0.9999430179595947
","x: 263.4208679199219
y: 235.53753662109375
z: -0.273173451423645
visibility: 0.9999834299087524
","x: 282.05450439453125
y: 275.6934509277344
z: -0.021842846646904945
visibility: 0.9996302127838135
","x: 240.61993408203125
y: 268.2156677246094
z: -0.12786276638507843
visibility: 0.9999827146530151
","x: 286.4964904785156
y: 319.31097412109375
z: 0.09320040047168732
visibility: 0.6670412421226501
","x: 216.3589324951172
y: 304.4796142578125
z: -0.10052090883255005
visibility: 0.9967381358146667
","x: 292.45074462890625
y: 352.46014404296875
z: 0.026598727330565453
visibility: 0.6362317800521851
","x: 222.39208984375
y: 348.4475402832031
z: -0.1673222780227661
visibility: 0.9635640978813171
","x: 293.6842346191406
y: 364.7400207519531
z: 0.010278808884322643
visibility: 0.5425863265991211
","x: 226.56387329101562
y: 358.145751953125
z: -0.19356487691402435
visibility: 0.9029243588447571
","x: 292.5707092285156
y: 363.1051330566406
z: -0.02575564943253994
visibility: 0.5636274814605713
","x: 229.90969848632812
y: 356.8243103027344
z: -0.21312551200389862
visibility: 0.9026296734809875
","x: 291.3841857910156
y: 358.857421875
z: 0.01016136072576046
visibility: 0.5373296141624451
","x: 229.1688232421875
y: 353.5787353515625
z: -0.17504607141017914
visibility: 0.8808223009109497
","x: 277.20556640625
y: 384.0041809082031
z: 0.03762821853160858
visibility: 0.998762845993042
","x: 253.2253875732422
y: 386.5821838378906
z: -0.03757775202393532
visibility: 0.9997848868370056
","x: 279.34454345703125
y: 467.91766357421875
z: 0.09069833904504776
visibility: 0.9669481515884399
","x: 256.9061584472656
y: 471.81103515625
z: -0.08033647388219833
visibility: 0.9937763214111328
","x: 271.5406494140625
y: 536.654541015625
z: 0.31473052501678467
visibility: 0.9650629758834839
","x: 256.4661865234375
y: 558.049072265625
z: 0.047135863453149796
visibility: 0.9942439198493958
","x: 266.6601867675781
y: 546.6959228515625
z: 0.33033090829849243
visibility: 0.8851861357688904
","x: 255.64398193359375
y: 569.7799072265625
z: 0.05155758932232857
visibility: 0.9057926535606384
","x: 280.5859375
y: 565.7801513671875
z: 0.2249390184879303
visibility: 0.9718066453933716
","x: 260.8575439453125
y: 585.3479614257812
z: -0.0969846248626709
visibility: 0.990680992603302
",4.176913738250732,,,,,,,,,,,,,,,,,,,,,,,,,,,,,,,,,,,,,,,,,,
2,"x: 272.19268798828125
y: 233.44418334960938
z: -0.2577355206012726
visibility: 0.9999822974205017
","x: 274.919189453125
y: 228.4237823486328
z: -0.2361784428358078
visibility: 0.9999475479125977
","x: 276.29864501953125
y: 229.08596801757812
z: -0.23618538677692413
visibility: 0.9999281764030457
","x: 277.64923095703125
y: 229.95164489746094
z: -0.23615220189094543
visibility: 0.9999146461486816
","x: 270.3144226074219
y: 227.244140625
z: -0.24452583491802216
visibility: 0.9999712705612183
","x: 268.5658874511719
y: 226.97044372558594
z: -0.24454572796821594
visibility: 0.9999701380729675
","x: 266.98297119140625
y: 226.59097290039062
z: -0.2445708066225052
visibility: 0.9999733567237854
","x: 278.7182922363281
y: 235.36895751953125
z: -0.10645608603954315
visibility: 0.9997482299804688
","x: 263.9468688964844
y: 230.736328125
z: -0.14948950707912445
visibility: 0.9999692440032959
","x: 273.8753356933594
y: 243.90882873535156
z: -0.20891335606575012
visibility: 0.9999366998672485
","x: 268.109375
y: 241.74493408203125
z: -0.22116370499134064
visibility: 0.9999802112579346
","x: 286.6064758300781
y: 281.0632629394531
z: 0.004494123626500368
visibility: 0.9996470808982849
","x: 247.19735717773438
y: 272.6987609863281
z: -0.09713836014270782
visibility: 0.9999808073043823
","x: 292.0499572753906
y: 327.1982116699219
z: 0.07478047162294388
visibility: 0.6906663179397583
","x: 234.8357391357422
y: 321.15423583984375
z: -0.09703874588012695
visibility: 0.996454656124115
","x: 295.04888916015625
y: 363.1376647949219
z: -0.045609861612319946
visibility: 0.6667263507843018
","x: 244.39707946777344
y: 354.9743347167969
z: -0.19906705617904663
visibility: 0.9652324318885803
","x: 295.2268371582031
y: 377.93084716796875
z: -0.07563738524913788
visibility: 0.5787268280982971
","x: 246.25291442871094
y: 368.0706481933594
z: -0.23171870410442352
visibility: 0.9086887836456299
","x: 293.9663391113281
y: 374.6342468261719
z: -0.10824908316135406
visibility: 0.5984370112419128
","x: 249.28135681152344
y: 365.58880615234375
z: -0.2507403492927551
visibility: 0.908491313457489
","x: 293.0916748046875
y: 369.35546875
z: -0.06135154888033867
visibility: 0.5727266073226929
","x: 248.91969299316406
y: 360.9248352050781
z: -0.2067289799451828
visibility: 0.887362003326416
","x: 277.88983154296875
y: 386.851806640625
z: 0.047460801899433136
visibility: 0.9987698793411255
","x: 255.727783203125
y: 386.7147521972656
z: -0.047501157969236374
visibility: 0.9997638463973999
","x: 274.2215576171875
y: 468.5258483886719
z: 0.09121237695217133
visibility: 0.9641827344894409
","x: 256.88433837890625
y: 471.7881774902344
z: -0.09613347053527832
visibility: 0.9937962889671326
","x: 269.3160400390625
y: 540.4420776367188
z: 0.2184089720249176
visibility: 0.9663766026496887
","x: 252.93170166015625
y: 553.896240234375
z: -0.0275600366294384
visibility: 0.9939097762107849
","x: 264.30181884765625
y: 553.99560546875
z: 0.22355854511260986
visibility: 0.8909621238708496
","x: 252.15036010742188
y: 567.4878540039062
z: -0.028178175911307335
visibility: 0.9005986452102661
","x: 280.2716979980469
y: 565.7056884765625
z: 0.12618406116962433
visibility: 0.972344696521759
","x: 258.6990051269531
y: 576.467041015625
z: -0.1594826877117157
visibility: 0.9899895191192627
",4.775440216064453,"x: 246.43798828125
y: 360.4791259765625
z: 0.0
","x: 250.16221618652344
y: 362.34857177734375
z: 0.001056609209626913
","x: 252.26345825195312
y: 367.7017517089844
z: 0.0011067118030041456
","x: 252.82925415039062
y: 372.48748779296875
z: 0.0008724223007448018
","x: 253.33151245117188
y: 375.83770751953125
z: 0.000813254271633923
","x: 250.68179321289062
y: 374.5450134277344
z: -0.0004922205116599798
","x: 252.26133728027344
y: 382.1296691894531
z: -0.0010298091219738126
","x: 254.0778350830078
y: 385.30157470703125
z: -0.0008045623544603586
","x: 255.6588134765625
y: 386.6291809082031
z: -0.0003824657469522208
","x: 248.6868438720703
y: 376.0339050292969
z: -0.0015468017663806677
","x: 250.35752868652344
y: 383.5084533691406
z: -0.0018815788207575679
","x: 252.22438049316406
y: 385.23541259765625
z: -0.0012274557957425714
","x: 253.60101318359375
y: 384.7970886230469
z: -0.0006666886620223522
","x: 247.16229248046875
y: 376.47467041015625
z: -0.0024964960757642984
","x: 248.6531982421875
y: 383.267333984375
z: -0.0023892950266599655
","x: 250.34506225585938
y: 383.68841552734375
z: -0.001388865290209651
","x: 251.43826293945312
y: 382.2821044921875
z: -0.000762297713663429
","x: 246.03024291992188
y: 376.10955810546875
z: -0.003517123404890299
","x: 247.3243865966797
y: 381.76116943359375
z: -0.003224721411243081
","x: 248.65977478027344
y: 382.1325988769531
z: -0.002537726191803813
","x: 249.5561065673828
y: 380.7563781738281
z: -0.0019972880836576223
","x: 300.09112548828125
y: 366.7538757324219
z: 0.0
","x: 296.44384765625
y: 368.6813659667969
z: -0.0008623237372376025
","x: 293.6933288574219
y: 373.62530517578125
z: -0.0005613124230876565
","x: 291.8687438964844
y: 378.2112121582031
z: 5.9354762925067917e-05
","x: 290.74468994140625
y: 381.472412109375
z: 0.0009686637204140425
","x: 296.1688232421875
y: 381.3500671386719
z: 7.690130587434396e-05
","x: 293.3787536621094
y: 388.42315673828125
z: 0.00045849697198718786
","x: 291.127685546875
y: 391.699951171875
z: 0.0009937449358403683
","x: 289.2612609863281
y: 393.1988830566406
z: 0.0015668695559725165
","x: 297.6672668457031
y: 383.12042236328125
z: 0.0005389397265389562
","x: 294.90728759765625
y: 390.1489562988281
z: 0.001160307670943439
","x: 292.3092956542969
y: 393.001708984375
z: 0.0016773439710959792
","x: 290.1427307128906
y: 394.2799072265625
z: 0.001998871797695756
","x: 298.4464111328125
y: 383.86260986328125
z: 0.0009023142047226429
","x: 296.0476989746094
y: 390.4642333984375
z: 0.0012026916956529021
","x: 293.80621337890625
y: 393.0923767089844
z: 0.0011506081791594625
","x: 291.8846740722656
y: 394.38189697265625
z: 0.0010585044510662556
","x: 298.6756286621094
y: 383.68280029296875
z: 0.001138479681685567
","x: 296.8915100097656
y: 389.396240234375
z: 0.0009644864476285875
","x: 295.1242370605469
y: 392.0765686035156
z: 0.0007834861753508449
","x: 293.44439697265625
y: 393.5137939453125
z: 0.0008061510743573308
"
3,"x: 272.19268798828125
y: 233.44418334960938
z: -0.2577355206012726
visibility: 0.9999822974205017
","x: 274.919189453125
y: 228.4237823486328
z: -0.2361784428358078
visibility: 0.9999475479125977
","x: 276.29864501953125
y: 229.08596801757812
z: -0.23618538677692413
visibility: 0.9999281764030457
","x: 277.64923095703125
y: 229.95164489746094
z: -0.23615220189094543
visibility: 0.9999146461486816
","x: 270.3144226074219
y: 227.244140625
z: -0.24452583491802216
visibility: 0.9999712705612183
","x: 268.5658874511719
y: 226.97044372558594
z: -0.24454572796821594
visibility: 0.9999701380729675
","x: 266.98297119140625
y: 226.59097290039062
z: -0.2445708066225052
visibility: 0.9999733567237854
","x: 278.7182922363281
y: 235.36895751953125
z: -0.10645608603954315
visibility: 0.9997482299804688
","x: 263.9468688964844
y: 230.736328125
z: -0.14948950707912445
visibility: 0.9999692440032959
","x: 273.8753356933594
y: 243.90882873535156
z: -0.20891335606575012
visibility: 0.9999366998672485
","x: 268.109375
y: 241.74493408203125
z: -0.22116370499134064
visibility: 0.9999802112579346
","x: 286.6064758300781
y: 281.0632629394531
z: 0.004494123626500368
visibility: 0.9996470808982849
","x: 247.19735717773438
y: 272.6987609863281
z: -0.09713836014270782
visibility: 0.9999808073043823
","x: 292.0499572753906
y: 327.1982116699219
z: 0.07478047162294388
visibility: 0.6906663179397583
","x: 234.8357391357422
y: 321.15423583984375
z: -0.09703874588012695
visibility: 0.996454656124115
","x: 295.04888916015625
y: 363.1376647949219
z: -0.045609861612319946
visibility: 0.6667263507843018
","x: 244.39707946777344
y: 354.9743347167969
z: -0.19906705617904663
visibility: 0.9652324318885803
","x: 295.2268371582031
y: 377.93084716796875
z: -0.07563738524913788
visibility: 0.5787268280982971
","x: 246.25291442871094
y: 368.0706481933594
z: -0.23171870410442352
visibility: 0.9086887836456299
","x: 293.9663391113281
y: 374.6342468261719
z: -0.10824908316135406
visibility: 0.5984370112419128
","x: 249.28135681152344
y: 365.58880615234375
z: -0.2507403492927551
visibility: 0.908491313457489
","x: 293.0916748046875
y: 369.35546875
z: -0.06135154888033867
visibility: 0.5727266073226929
","x: 248.91969299316406
y: 360.9248352050781
z: -0.2067289799451828
visibility: 0.887362003326416
","x: 277.88983154296875
y: 386.851806640625
z: 0.047460801899433136
visibility: 0.9987698793411255
","x: 255.727783203125
y: 386.7147521972656
z: -0.047501157969236374
visibility: 0.9997638463973999
","x: 274.2215576171875
y: 468.5258483886719
z: 0.09121237695217133
visibility: 0.9641827344894409
","x: 256.88433837890625
y: 471.7881774902344
z: -0.09613347053527832
visibility: 0.9937962889671326
","x: 269.3160400390625
y: 540.4420776367188
z: 0.2184089720249176
visibility: 0.9663766026496887
","x: 252.93170166015625
y: 553.896240234375
z: -0.0275600366294384
visibility: 0.9939097762107849
","x: 264.30181884765625
y: 553.99560546875
z: 0.22355854511260986
visibility: 0.8909621238708496
","x: 252.15036010742188
y: 567.4878540039062
z: -0.028178175911307335
visibility: 0.9005986452102661
","x: 280.2716979980469
y: 565.7056884765625
z: 0.12618406116962433
visibility: 0.972344696521759
","x: 258.6990051269531
y: 576.467041015625
z: -0.1594826877117157
visibility: 0.9899895191192627
",4.775440216064453,"x: 246.43798828125
y: 360.4791259765625
z: 0.0
","x: 250.16221618652344
y: 362.34857177734375
z: 0.001056609209626913
","x: 252.26345825195312
y: 367.7017517089844
z: 0.0011067118030041456
","x: 252.82925415039062
y: 372.48748779296875
z: 0.0008724223007448018
","x: 253.33151245117188
y: 375.83770751953125
z: 0.000813254271633923
","x: 250.68179321289062
y: 374.5450134277344
z: -0.0004922205116599798
","x: 252.26133728027344
y: 382.1296691894531
z: -0.0010298091219738126
","x: 254.0778350830078
y: 385.30157470703125
z: -0.0008045623544603586
","x: 255.6588134765625
y: 386.6291809082031
z: -0.0003824657469522208
","x: 248.6868438720703
y: 376.0339050292969
z: -0.0015468017663806677
","x: 250.35752868652344
y: 383.5084533691406
z: -0.0018815788207575679
","x: 252.22438049316406
y: 385.23541259765625
z: -0.0012274557957425714
","x: 253.60101318359375
y: 384.7970886230469
z: -0.0006666886620223522
","x: 247.16229248046875
y: 376.47467041015625
z: -0.0024964960757642984
","x: 248.6531982421875
y: 383.267333984375
z: -0.0023892950266599655
","x: 250.34506225585938
y: 383.68841552734375
z: -0.001388865290209651
","x: 251.43826293945312
y: 382.2821044921875
z: -0.000762297713663429
","x: 246.03024291992188
y: 376.10955810546875
z: -0.003517123404890299
","x: 247.3243865966797
y: 381.76116943359375
z: -0.003224721411243081
","x: 248.65977478027344
y: 382.1325988769531
z: -0.002537726191803813
","x: 249.5561065673828
y: 380.7563781738281
z: -0.0019972880836576223
","x: 300.09112548828125
y: 366.7538757324219
z: 0.0
","x: 296.44384765625
y: 368.6813659667969
z: -0.0008623237372376025
","x: 293.6933288574219
y: 373.62530517578125
z: -0.0005613124230876565
","x: 291.8687438964844
y: 378.2112121582031
z: 5.9354762925067917e-05
","x: 290.74468994140625
y: 381.472412109375
z: 0.0009686637204140425
","x: 296.1688232421875
y: 381.3500671386719
z: 7.690130587434396e-05
","x: 293.3787536621094
y: 388.42315673828125
z: 0.00045849697198718786
","x: 291.127685546875
y: 391.699951171875
z: 0.0009937449358403683
","x: 289.2612609863281
y: 393.1988830566406
z: 0.0015668695559725165
","x: 297.6672668457031
y: 383.12042236328125
z: 0.0005389397265389562
","x: 294.90728759765625
y: 390.1489562988281
z: 0.001160307670943439
","x: 292.3092956542969
y: 393.001708984375
z: 0.0016773439710959792
","x: 290.1427307128906
y: 394.2799072265625
z: 0.001998871797695756
","x: 298.4464111328125
y: 383.86260986328125
z: 0.0009023142047226429
","x: 296.0476989746094
y: 390.4642333984375
z: 0.0012026916956529021
","x: 293.80621337890625
y: 393.0923767089844
z: 0.0011506081791594625
","x: 291.8846740722656
y: 394.38189697265625
z: 0.0010585044510662556
","x: 298.6756286621094
y: 383.68280029296875
z: 0.001138479681685567
","x: 296.8915100097656
y: 389.396240234375
z: 0.0009644864476285875
","x: 295.1242370605469
y: 392.0765686035156
z: 0.0007834861753508449
","x: 293.44439697265625
y: 393.5137939453125
z: 0.0008061510743573308
"
4,"x: 272.19268798828125
y: 233.44418334960938
z: -0.2577355206012726
visibility: 0.9999822974205017
","x: 274.919189453125
y: 228.4237823486328
z: -0.2361784428358078
visibility: 0.9999475479125977
","x: 276.29864501953125
y: 229.08596801757812
z: -0.23618538677692413
visibility: 0.9999281764030457
","x: 277.64923095703125
y: 229.95164489746094
z: -0.23615220189094543
visibility: 0.9999146461486816
","x: 270.3144226074219
y: 227.244140625
z: -0.24452583491802216
visibility: 0.9999712705612183
","x: 268.5658874511719
y: 226.97044372558594
z: -0.24454572796821594
visibility: 0.9999701380729675
","x: 266.98297119140625
y: 226.59097290039062
z: -0.2445708066225052
visibility: 0.9999733567237854
","x: 278.7182922363281
y: 235.36895751953125
z: -0.10645608603954315
visibility: 0.9997482299804688
","x: 263.9468688964844
y: 230.736328125
z: -0.14948950707912445
visibility: 0.9999692440032959
","x: 273.8753356933594
y: 243.90882873535156
z: -0.20891335606575012
visibility: 0.9999366998672485
","x: 268.109375
y: 241.74493408203125
z: -0.22116370499134064
visibility: 0.9999802112579346
","x: 286.6064758300781
y: 281.0632629394531
z: 0.004494123626500368
visibility: 0.9996470808982849
","x: 247.19735717773438
y: 272.6987609863281
z: -0.09713836014270782
visibility: 0.9999808073043823
","x: 292.0499572753906
y: 327.1982116699219
z: 0.07478047162294388
visibility: 0.6906663179397583
","x: 234.8357391357422
y: 321.15423583984375
z: -0.09703874588012695
visibility: 0.996454656124115
","x: 295.04888916015625
y: 363.1376647949219
z: -0.045609861612319946
visibility: 0.6667263507843018
","x: 244.39707946777344
y: 354.9743347167969
z: -0.19906705617904663
visibility: 0.9652324318885803
","x: 295.2268371582031
y: 377.93084716796875
z: -0.07563738524913788
visibility: 0.5787268280982971
","x: 246.25291442871094
y: 368.0706481933594
z: -0.23171870410442352
visibility: 0.9086887836456299
","x: 293.9663391113281
y: 374.6342468261719
z: -0.10824908316135406
visibility: 0.5984370112419128
","x: 249.28135681152344
y: 365.58880615234375
z: -0.2507403492927551
visibility: 0.908491313457489
","x: 293.0916748046875
y: 369.35546875
z: -0.06135154888033867
visibility: 0.5727266073226929
","x: 248.91969299316406
y: 360.9248352050781
z: -0.2067289799451828
visibility: 0.887362003326416
","x: 277.88983154296875
y: 386.851806640625
z: 0.047460801899433136
visibility: 0.9987698793411255
","x: 255.727783203125
y: 386.7147521972656
z: -0.047501157969236374
visibility: 0.9997638463973999
","x: 274.2215576171875
y: 468.5258483886719
z: 0.09121237695217133
visibility: 0.9641827344894409
","x: 256.88433837890625
y: 471.7881774902344
z: -0.09613347053527832
visibility: 0.9937962889671326
","x: 269.3160400390625
y: 540.4420776367188
z: 0.2184089720249176
visibility: 0.9663766026496887
","x: 252.93170166015625
y: 553.896240234375
z: -0.0275600366294384
visibility: 0.9939097762107849
","x: 264.30181884765625
y: 553.99560546875
z: 0.22355854511260986
visibility: 0.8909621238708496
","x: 252.15036010742188
y: 567.4878540039062
z: -0.028178175911307335
visibility: 0.9005986452102661
","x: 280.2716979980469
y: 565.7056884765625
z: 0.12618406116962433
visibility: 0.972344696521759
","x: 258.6990051269531
y: 576.467041015625
z: -0.1594826877117157
visibility: 0.9899895191192627
",4.775440216064453,"x: 246.43798828125
y: 360.4791259765625
z: 0.0
","x: 250.16221618652344
y: 362.34857177734375
z: 0.001056609209626913
","x: 252.26345825195312
y: 367.7017517089844
z: 0.0011067118030041456
","x: 252.82925415039062
y: 372.48748779296875
z: 0.0008724223007448018
","x: 253.33151245117188
y: 375.83770751953125
z: 0.000813254271633923
","x: 250.68179321289062
y: 374.5450134277344
z: -0.0004922205116599798
","x: 252.26133728027344
y: 382.1296691894531
z: -0.0010298091219738126
","x: 254.0778350830078
y: 385.30157470703125
z: -0.0008045623544603586
","x: 255.6588134765625
y: 386.6291809082031
z: -0.0003824657469522208
","x: 248.6868438720703
y: 376.0339050292969
z: -0.0015468017663806677
","x: 250.35752868652344
y: 383.5084533691406
z: -0.0018815788207575679
","x: 252.22438049316406
y: 385.23541259765625
z: -0.0012274557957425714
","x: 253.60101318359375
y: 384.7970886230469
z: -0.0006666886620223522
","x: 247.16229248046875
y: 376.47467041015625
z: -0.0024964960757642984
","x: 248.6531982421875
y: 383.267333984375
z: -0.0023892950266599655
","x: 250.34506225585938
y: 383.68841552734375
z: -0.001388865290209651
","x: 251.43826293945312
y: 382.2821044921875
z: -0.000762297713663429
","x: 246.03024291992188
y: 376.10955810546875
z: -0.003517123404890299
","x: 247.3243865966797
y: 381.76116943359375
z: -0.003224721411243081
","x: 248.65977478027344
y: 382.1325988769531
z: -0.002537726191803813
","x: 249.5561065673828
y: 380.7563781738281
z: -0.0019972880836576223
","x: 300.09112548828125
y: 366.7538757324219
z: 0.0
","x: 296.44384765625
y: 368.6813659667969
z: -0.0008623237372376025
","x: 293.6933288574219
y: 373.62530517578125
z: -0.0005613124230876565
","x: 291.8687438964844
y: 378.2112121582031
z: 5.9354762925067917e-05
","x: 290.74468994140625
y: 381.472412109375
z: 0.0009686637204140425
","x: 296.1688232421875
y: 381.3500671386719
z: 7.690130587434396e-05
","x: 293.3787536621094
y: 388.42315673828125
z: 0.00045849697198718786
","x: 291.127685546875
y: 391.699951171875
z: 0.0009937449358403683
","x: 289.2612609863281
y: 393.1988830566406
z: 0.0015668695559725165
","x: 297.6672668457031
y: 383.12042236328125
z: 0.0005389397265389562
","x: 294.90728759765625
y: 390.1489562988281
z: 0.001160307670943439
","x: 292.3092956542969
y: 393.001708984375
z: 0.0016773439710959792
","x: 290.1427307128906
y: 394.2799072265625
z: 0.001998871797695756
","x: 298.4464111328125
y: 383.86260986328125
z: 0.0009023142047226429
","x: 296.0476989746094
y: 390.4642333984375
z: 0.0012026916956529021
","x: 293.80621337890625
y: 393.0923767089844
z: 0.0011506081791594625
","x: 291.8846740722656
y: 394.38189697265625
z: 0.0010585044510662556
","x: 298.6756286621094
y: 383.68280029296875
z: 0.001138479681685567
","x: 296.8915100097656
y: 389.396240234375
z: 0.0009644864476285875
","x: 295.1242370605469
y: 392.0765686035156
z: 0.0007834861753508449
","x: 293.44439697265625
y: 393.5137939453125
z: 0.0008061510743573308
"
5,"x: 272.19268798828125
y: 233.44418334960938
z: -0.2577355206012726
visibility: 0.9999822974205017
","x: 274.919189453125
y: 228.4237823486328
z: -0.2361784428358078
visibility: 0.9999475479125977
","x: 276.29864501953125
y: 229.08596801757812
z: -0.23618538677692413
visibility: 0.9999281764030457
","x: 277.64923095703125
y: 229.95164489746094
z: -0.23615220189094543
visibility: 0.9999146461486816
","x: 270.3144226074219
y: 227.244140625
z: -0.24452583491802216
visibility: 0.9999712705612183
","x: 268.5658874511719
y: 226.97044372558594
z: -0.24454572796821594
visibility: 0.9999701380729675
","x: 266.98297119140625
y: 226.59097290039062
z: -0.2445708066225052
visibility: 0.9999733567237854
","x: 278.7182922363281
y: 235.36895751953125
z: -0.10645608603954315
visibility: 0.9997482299804688
","x: 263.9468688964844
y: 230.736328125
z: -0.14948950707912445
visibility: 0.9999692440032959
","x: 273.8753356933594
y: 243.90882873535156
z: -0.20891335606575012
visibility: 0.9999366998672485
","x: 268.109375
y: 241.74493408203125
z: -0.22116370499134064
visibility: 0.9999802112579346
","x: 286.6064758300781
y: 281.0632629394531
z: 0.004494123626500368
visibility: 0.9996470808982849
","x: 247.19735717773438
y: 272.6987609863281
z: -0.09713836014270782
visibility: 0.9999808073043823
","x: 292.0499572753906
y: 327.1982116699219
z: 0.07478047162294388
visibility: 0.6906663179397583
","x: 234.8357391357422
y: 321.15423583984375
z: -0.09703874588012695
visibility: 0.996454656124115
","x: 295.04888916015625
y: 363.1376647949219
z: -0.045609861612319946
visibility: 0.6667263507843018
","x: 244.39707946777344
y: 354.9743347167969
z: -0.19906705617904663
visibility: 0.9652324318885803
","x: 295.2268371582031
y: 377.93084716796875
z: -0.07563738524913788
visibility: 0.5787268280982971
","x: 246.25291442871094
y: 368.0706481933594
z: -0.23171870410442352
visibility: 0.9086887836456299
","x: 293.9663391113281
y: 374.6342468261719
z: -0.10824908316135406
visibility: 0.5984370112419128
","x: 249.28135681152344
y: 365.58880615234375
z: -0.2507403492927551
visibility: 0.908491313457489
","x: 293.0916748046875
y: 369.35546875
z: -0.06135154888033867
visibility: 0.5727266073226929
","x: 248.91969299316406
y: 360.9248352050781
z: -0.2067289799451828
visibility: 0.887362003326416
","x: 277.88983154296875
y: 386.851806640625
z: 0.047460801899433136
visibility: 0.9987698793411255
","x: 255.727783203125
y: 386.7147521972656
z: -0.047501157969236374
visibility: 0.9997638463973999
","x: 274.2215576171875
y: 468.5258483886719
z: 0.09121237695217133
visibility: 0.9641827344894409
","x: 256.88433837890625
y: 471.7881774902344
z: -0.09613347053527832
visibility: 0.9937962889671326
","x: 269.3160400390625
y: 540.4420776367188
z: 0.2184089720249176
visibility: 0.9663766026496887
","x: 252.93170166015625
y: 553.896240234375
z: -0.0275600366294384
visibility: 0.9939097762107849
","x: 264.30181884765625
y: 553.99560546875
z: 0.22355854511260986
visibility: 0.8909621238708496
","x: 252.15036010742188
y: 567.4878540039062
z: -0.028178175911307335
visibility: 0.9005986452102661
","x: 280.2716979980469
y: 565.7056884765625
z: 0.12618406116962433
visibility: 0.972344696521759
","x: 258.6990051269531
y: 576.467041015625
z: -0.1594826877117157
visibility: 0.9899895191192627
",4.775440216064453,"x: 246.43798828125
y: 360.4791259765625
z: 0.0
","x: 250.16221618652344
y: 362.34857177734375
z: 0.001056609209626913
","x: 252.26345825195312
y: 367.7017517089844
z: 0.0011067118030041456
","x: 252.82925415039062
y: 372.48748779296875
z: 0.0008724223007448018
","x: 253.33151245117188
y: 375.83770751953125
z: 0.000813254271633923
","x: 250.68179321289062
y: 374.5450134277344
z: -0.0004922205116599798
","x: 252.26133728027344
y: 382.1296691894531
z: -0.0010298091219738126
","x: 254.0778350830078
y: 385.30157470703125
z: -0.0008045623544603586
","x: 255.6588134765625
y: 386.6291809082031
z: -0.0003824657469522208
","x: 248.6868438720703
y: 376.0339050292969
z: -0.0015468017663806677
","x: 250.35752868652344
y: 383.5084533691406
z: -0.0018815788207575679
","x: 252.22438049316406
y: 385.23541259765625
z: -0.0012274557957425714
","x: 253.60101318359375
y: 384.7970886230469
z: -0.0006666886620223522
","x: 247.16229248046875
y: 376.47467041015625
z: -0.0024964960757642984
","x: 248.6531982421875
y: 383.267333984375
z: -0.0023892950266599655
","x: 250.34506225585938
y: 383.68841552734375
z: -0.001388865290209651
","x: 251.43826293945312
y: 382.2821044921875
z: -0.000762297713663429
","x: 246.03024291992188
y: 376.10955810546875
z: -0.003517123404890299
","x: 247.3243865966797
y: 381.76116943359375
z: -0.003224721411243081
","x: 248.65977478027344
y: 382.1325988769531
z: -0.002537726191803813
","x: 249.5561065673828
y: 380.7563781738281
z: -0.0019972880836576223
","x: 300.09112548828125
y: 366.7538757324219
z: 0.0
","x: 296.44384765625
y: 368.6813659667969
z: -0.0008623237372376025
","x: 293.6933288574219
y: 373.62530517578125
z: -0.0005613124230876565
","x: 291.8687438964844
y: 378.2112121582031
z: 5.9354762925067917e-05
","x: 290.74468994140625
y: 381.472412109375
z: 0.0009686637204140425
","x: 296.1688232421875
y: 381.3500671386719
z: 7.690130587434396e-05
","x: 293.3787536621094
y: 388.42315673828125
z: 0.00045849697198718786
","x: 291.127685546875
y: 391.699951171875
z: 0.0009937449358403683
","x: 289.2612609863281
y: 393.1988830566406
z: 0.0015668695559725165
","x: 297.6672668457031
y: 383.12042236328125
z: 0.0005389397265389562
","x: 294.90728759765625
y: 390.1489562988281
z: 0.001160307670943439
","x: 292.3092956542969
y: 393.001708984375
z: 0.0016773439710959792
","x: 290.1427307128906
y: 394.2799072265625
z: 0.001998871797695756
","x: 298.4464111328125
y: 383.86260986328125
z: 0.0009023142047226429
","x: 296.0476989746094
y: 390.4642333984375
z: 0.0012026916956529021
","x: 293.80621337890625
y: 393.0923767089844
z: 0.0011506081791594625
","x: 291.8846740722656
y: 394.38189697265625
z: 0.0010585044510662556
","x: 298.6756286621094
y: 383.68280029296875
z: 0.001138479681685567
","x: 296.8915100097656
y: 389.396240234375
z: 0.0009644864476285875
","x: 295.1242370605469
y: 392.0765686035156
z: 0.0007834861753508449
","x: 293.44439697265625
y: 393.5137939453125
z: 0.0008061510743573308
"
6,"x: 272.48480224609375
y: 238.06497192382812
z: -0.2573266625404358
visibility: 0.9999817609786987
","x: 275.064697265625
y: 233.39773559570312
z: -0.2340233325958252
visibility: 0.9999470114707947
","x: 276.4354553222656
y: 234.02069091796875
z: -0.2340279072523117
visibility: 0.9999280571937561
","x: 277.7639465332031
y: 234.7909393310547
z: -0.2340010702610016
visibility: 0.9999150633811951
","x: 270.799072265625
y: 231.8610382080078
z: -0.24286170303821564
visibility: 0.9999691843986511
","x: 269.1863708496094
y: 231.46096801757812
z: -0.24286873638629913
visibility: 0.9999679327011108
","x: 267.66015625
y: 231.04774475097656
z: -0.2428772747516632
visibility: 0.9999701976776123
","x: 278.5889587402344
y: 238.99679565429688
z: -0.09623483568429947
visibility: 0.9997307062149048
","x: 264.6325378417969
y: 234.08267211914062
z: -0.14045360684394836
visibility: 0.9999650716781616
","x: 273.9985046386719
y: 247.7438507080078
z: -0.2052111178636551
visibility: 0.9999315142631531
","x: 268.6536560058594
y: 245.03323364257812
z: -0.21785369515419006
visibility: 0.9999765753746033
","x: 285.9170227050781
y: 282.0151062011719
z: 0.02469964697957039
visibility: 0.9996707439422607
","x: 248.4418487548828
y: 272.7712707519531
z: -0.09712407737970352
visibility: 0.9999749660491943
","x: 291.9665222167969
y: 326.37353515625
z: 0.07859750092029572
visibility: 0.7143768668174744
","x: 235.2939910888672
y: 321.51788330078125
z: -0.1275392770767212
visibility: 0.9961578249931335
","x: 296.9435119628906
y: 361.97454833984375
z: -0.03349610045552254
visibility: 0.6972494125366211
","x: 248.78985595703125
y: 351.93963623046875
z: -0.2560804486274719
visibility: 0.9672752618789673
","x: 298.67803955078125
y: 375.11175537109375
z: -0.06175081804394722
visibility: 0.615552544593811
","x: 251.44235229492188
y: 365.7486267089844
z: -0.291480153799057
visibility: 0.9148001074790955
","x: 296.9049377441406
y: 372.9920959472656
z: -0.09350358694791794
visibility: 0.6338688135147095
","x: 254.1746826171875
y: 361.1746520996094
z: -0.3070230484008789
visibility: 0.9146512746810913
","x: 295.3254699707031
y: 367.40618896484375
z: -0.049060191959142685
visibility: 0.6095068454742432
","x: 253.46099853515625
y: 356.5218505859375
z: -0.26260945200920105
visibility: 0.8943039774894714
","x: 275.04327392578125
y: 386.69091796875
z: 0.05700580030679703
visibility: 0.9988471269607544
","x: 254.31509399414062
y: 384.0122985839844
z: -0.057130225002765656
visibility: 0.9997372031211853
","x: 270.4427185058594
y: 467.8995056152344
z: 0.07681766897439957
visibility: 0.9622455835342407
","x: 252.04840087890625
y: 466.69964599609375
z: -0.07156964391469955
visibility: 0.9938428401947021
","x: 269.0375061035156
y: 541.0509643554688
z: 0.16849647462368011
visibility: 0.9683414101600647
","x: 241.93850708007812
y: 537.0615844726562
z: 0.02421923168003559
visibility: 0.9938940405845642
","x: 264.2361145019531
y: 553.66552734375
z: 0.17082823812961578
visibility: 0.8980786204338074
","x: 240.00033569335938
y: 545.2979736328125
z: 0.028856467455625534
visibility: 0.8998441696166992
","x: 280.34185791015625
y: 565.5767822265625
z: 0.07236815989017487
visibility: 0.9735915064811707
","x: 244.52767944335938
y: 566.9163208007812
z: -0.07841197401285172
visibility: 0.989857017993927
",4.924259424209595,,,,,,,,,,,,,,,,,,,,,,,,,,,,,,,,,,,,,,,,,,
7,"x: 272.48480224609375
y: 238.06497192382812
z: -0.2573266625404358
visibility: 0.9999817609786987
","x: 275.064697265625
y: 233.39773559570312
z: -0.2340233325958252
visibility: 0.9999470114707947
","x: 276.4354553222656
y: 234.02069091796875
z: -0.2340279072523117
visibility: 0.9999280571937561
","x: 277.7639465332031
y: 234.7909393310547
z: -0.2340010702610016
visibility: 0.9999150633811951
","x: 270.799072265625
y: 231.8610382080078
z: -0.24286170303821564
visibility: 0.9999691843986511
","x: 269.1863708496094
y: 231.46096801757812
z: -0.24286873638629913
visibility: 0.9999679327011108
","x: 267.66015625
y: 231.04774475097656
z: -0.2428772747516632
visibility: 0.9999701976776123
","x: 278.5889587402344
y: 238.99679565429688
z: -0.09623483568429947
visibility: 0.9997307062149048
","x: 264.6325378417969
y: 234.08267211914062
z: -0.14045360684394836
visibility: 0.9999650716781616
","x: 273.9985046386719
y: 247.7438507080078
z: -0.2052111178636551
visibility: 0.9999315142631531
","x: 268.6536560058594
y: 245.03323364257812
z: -0.21785369515419006
visibility: 0.9999765753746033
","x: 285.9170227050781
y: 282.0151062011719
z: 0.02469964697957039
visibility: 0.9996707439422607
","x: 248.4418487548828
y: 272.7712707519531
z: -0.09712407737970352
visibility: 0.9999749660491943
","x: 291.9665222167969
y: 326.37353515625
z: 0.07859750092029572
visibility: 0.7143768668174744
","x: 235.2939910888672
y: 321.51788330078125
z: -0.1275392770767212
visibility: 0.9961578249931335
","x: 296.9435119628906
y: 361.97454833984375
z: -0.03349610045552254
visibility: 0.6972494125366211
","x: 248.78985595703125
y: 351.93963623046875
z: -0.2560804486274719
visibility: 0.9672752618789673
","x: 298.67803955078125
y: 375.11175537109375
z: -0.06175081804394722
visibility: 0.615552544593811
","x: 251.44235229492188
y: 365.7486267089844
z: -0.291480153799057
visibility: 0.9148001074790955
","x: 296.9049377441406
y: 372.9920959472656
z: -0.09350358694791794
visibility: 0.6338688135147095
","x: 254.1746826171875
y: 361.1746520996094
z: -0.3070230484008789
visibility: 0.9146512746810913
","x: 295.3254699707031
y: 367.40618896484375
z: -0.049060191959142685
visibility: 0.6095068454742432
","x: 253.46099853515625
y: 356.5218505859375
z: -0.26260945200920105
visibility: 0.8943039774894714
","x: 275.04327392578125
y: 386.69091796875
z: 0.05700580030679703
visibility: 0.9988471269607544
","x: 254.31509399414062
y: 384.0122985839844
z: -0.057130225002765656
visibility: 0.9997372031211853
","x: 270.4427185058594
y: 467.8995056152344
z: 0.07681766897439957
visibility: 0.9622455835342407
","x: 252.04840087890625
y: 466.69964599609375
z: -0.07156964391469955
visibility: 0.9938428401947021
","x: 269.0375061035156
y: 541.0509643554688
z: 0.16849647462368011
visibility: 0.9683414101600647
","x: 241.93850708007812
y: 537.0615844726562
z: 0.02421923168003559
visibility: 0.9938940405845642
","x: 264.2361145019531
y: 553.66552734375
z: 0.17082823812961578
visibility: 0.8980786204338074
","x: 240.00033569335938
y: 545.2979736328125
z: 0.028856467455625534
visibility: 0.8998441696166992
","x: 280.34185791015625
y: 565.5767822265625
z: 0.07236815989017487
visibility: 0.9735915064811707
","x: 244.52767944335938
y: 566.9163208007812
z: -0.07841197401285172
visibility: 0.989857017993927
",4.924259424209595,,,,,,,,,,,,,,,,,,,,,,,,,,,,,,,,,,,,,,,,,,
8,"x: 271.59613037109375
y: 240.51705932617188
z: -0.23920443654060364
visibility: 0.9999786615371704
","x: 273.57110595703125
y: 235.91468811035156
z: -0.21564753353595734
visibility: 0.9999400973320007
","x: 274.75250244140625
y: 236.59942626953125
z: -0.21565060317516327
visibility: 0.9999200701713562
","x: 275.9390563964844
y: 237.31515502929688
z: -0.21562322974205017
visibility: 0.9999071359634399
","x: 269.9830017089844
y: 234.1953887939453
z: -0.22524908185005188
visibility: 0.9999626874923706
","x: 268.5260314941406
y: 233.74853515625
z: -0.22526900470256805
visibility: 0.999960720539093
","x: 267.1658630371094
y: 233.22872924804688
z: -0.2252947837114334
visibility: 0.9999624490737915
","x: 276.5732116699219
y: 241.36380004882812
z: -0.08191527426242828
visibility: 0.9996799230575562
","x: 263.4027404785156
y: 236.03880310058594
z: -0.12867629528045654
visibility: 0.9999557733535767
","x: 272.6819763183594
y: 250.47752380371094
z: -0.18912367522716522
visibility: 0.9999247193336487
","x: 267.8398132324219
y: 247.70513916015625
z: -0.20251688361167908
visibility: 0.9999728202819824
","x: 283.6374206542969
y: 285.27490234375
z: 0.019628386944532394
visibility: 0.9996910095214844
","x: 247.88504028320312
y: 273.79779052734375
z: -0.09155070036649704
visibility: 0.9999667406082153
","x: 291.18194580078125
y: 327.4219970703125
z: 0.03670145571231842
visibility: 0.7341020703315735
","x: 230.21380615234375
y: 322.0588684082031
z: -0.16363148391246796
visibility: 0.9962882995605469
","x: 296.7999572753906
y: 357.2395324707031
z: -0.12036385387182236
visibility: 0.7233968377113342
","x: 243.8560333251953
y: 335.8802795410156
z: -0.320772260427475
visibility: 0.9699134826660156
","x: 298.12060546875
y: 368.4304504394531
z: -0.1561872363090515
visibility: 0.6472383141517639
","x: 249.38111877441406
y: 337.13262939453125
z: -0.36077359318733215
visibility: 0.9216129183769226
","x: 296.3915710449219
y: 364.72760009765625
z: -0.18057574331760406
visibility: 0.6643770933151245
","x: 250.73495483398438
y: 330.5950927734375
z: -0.369823157787323
visibility: 0.9214536547660828
","x: 294.9477233886719
y: 359.7593688964844
z: -0.13434888422489166
visibility: 0.640742838382721
","x: 249.58502197265625
y: 329.7009582519531
z: -0.3255421817302704
visibility: 0.9022287130355835
","x: 270.68841552734375
y: 387.0205383300781
z: 0.05563270300626755
visibility: 0.9989576935768127
","x: 249.23521423339844
y: 383.8555603027344
z: -0.05565342307090759
visibility: 0.9997496008872986
","x: 268.9125671386719
y: 467.5325012207031
z: -0.009068874642252922
visibility: 0.9648852944374084
","x: 245.7200469970703
y: 461.0615539550781
z: 0.013800879009068012
visibility: 0.9934231042861938
","x: 268.29547119140625
y: 541.8682250976562
z: 0.0835295021533966
visibility: 0.9706405401229858
","x: 233.25665283203125
y: 509.0657043457031
z: 0.2741558849811554
visibility: 0.9911671876907349
","x: 264.1992492675781
y: 554.2825927734375
z: 0.08690042793750763
visibility: 0.9041700959205627
","x: 231.80056762695312
y: 511.7443542480469
z: 0.29568007588386536
visibility: 0.8833231925964355
","x: 279.6002502441406
y: 565.4127197265625
z: -0.027773823589086533
visibility: 0.9753446578979492
","x: 233.72735595703125
y: 544.6800537109375
z: 0.20685222744941711
visibility: 0.9874458312988281
",5.082447290420532,"x: 242.39501953125
y: 335.9412841796875
z: 0.0
","x: 243.22265625
y: 329.24578857421875
z: -0.0023371463175863028
","x: 245.70053100585938
y: 324.88397216796875
z: -0.004031856544315815
","x: 248.23736572265625
y: 322.27496337890625
z: -0.005063023883849382
","x: 249.9245147705078
y: 318.8921203613281
z: -0.005779048893600702
","x: 250.535400390625
y: 331.69866943359375
z: -0.005222581326961517
","x: 255.2858428955078
y: 327.2683410644531
z: -0.006043385248631239
","x: 257.1392517089844
y: 324.1302795410156
z: -0.00533232232555747
","x: 257.8892822265625
y: 321.8441467285156
z: -0.004554558079689741
","x: 251.52008056640625
y: 335.65484619140625
z: -0.004523367155343294
","x: 256.23199462890625
y: 330.3442077636719
z: -0.005003050900995731
","x: 257.6519470214844
y: 326.2696533203125
z: -0.003993907477706671
","x: 258.0932922363281
y: 323.3369140625
z: -0.0032585561275482178
","x: 251.8043212890625
y: 337.9568176269531
z: -0.003717836458235979
","x: 256.0411376953125
y: 332.6662902832031
z: -0.00440808292478323
","x: 257.380615234375
y: 328.56927490234375
z: -0.0040498278103768826
","x: 257.8349609375
y: 325.65191650390625
z: -0.003726088209077716
","x: 251.69720458984375
y: 339.0287780761719
z: -0.0030751980375498533
","x: 255.25193786621094
y: 334.4516296386719
z: -0.0038168474566191435
","x: 256.6231994628906
y: 330.88702392578125
z: -0.00387419480830431
","x: 257.1478576660156
y: 328.19464111328125
z: -0.0037272267509251833
","x: 299.57806396484375
y: 352.9224853515625
z: 0.0
","x: 296.7567138671875
y: 351.8643798828125
z: -0.0037265827413648367
","x: 294.1095886230469
y: 354.503173828125
z: -0.00540732778608799
","x: 292.373291015625
y: 358.659912109375
z: -0.006186619866639376
","x: 291.0567321777344
y: 361.56561279296875
z: -0.006635002791881561
","x: 296.979736328125
y: 361.1692810058594
z: -0.006349212024360895
","x: 294.3321533203125
y: 366.96746826171875
z: -0.007678408641368151
","x: 291.8670959472656
y: 369.152099609375
z: -0.007511948235332966
","x: 290.04827880859375
y: 370.2611999511719
z: -0.007096446584910154
","x: 298.2711181640625
y: 364.72369384765625
z: -0.005064908415079117
","x: 295.3363037109375
y: 371.309326171875
z: -0.006138671189546585
","x: 292.50958251953125
y: 374.0130310058594
z: -0.0058707548305392265
","x: 290.305908203125
y: 375.23699951171875
z: -0.005713792517781258
","x: 298.84893798828125
y: 367.00262451171875
z: -0.003799035446718335
","x: 296.1338195800781
y: 373.1334228515625
z: -0.005149681121110916
","x: 293.45208740234375
y: 375.435546875
z: -0.005490588955581188
","x: 291.27960205078125
y: 376.29766845703125
z: -0.005665970966219902
","x: 298.8536682128906
y: 368.2412109375
z: -0.002751151332631707
","x: 296.7442932128906
y: 373.416015625
z: -0.0040807342156767845
","x: 294.6241455078125
y: 375.4617614746094
z: -0.004537166561931372
","x: 292.7496337890625
y: 376.0662841796875
z: -0.004683089442551136
"
9,"x: 271.59613037109375
y: 240.51705932617188
z: -0.23920443654060364
visibility: 0.9999786615371704
","x: 273.57110595703125
y: 235.91468811035156
z: -0.21564753353595734
visibility: 0.9999400973320007
","x: 274.75250244140625
y: 236.59942626953125
z: -0.21565060317516327
visibility: 0.9999200701713562
","x: 275.9390563964844
y: 237.31515502929688
z: -0.21562322974205017
visibility: 0.9999071359634399
","x: 269.9830017089844
y: 234.1953887939453
z: -0.22524908185005188
visibility: 0.9999626874923706
","x: 268.5260314941406
y: 233.74853515625
z: -0.22526900470256805
visibility: 0.999960720539093
","x: 267.1658630371094
y: 233.22872924804688
z: -0.2252947837114334
visibility: 0.9999624490737915
","x: 276.5732116699219
y: 241.36380004882812
z: -0.08191527426242828
visibility: 0.9996799230575562
","x: 263.4027404785156
y: 236.03880310058594
z: -0.12867629528045654
visibility: 0.9999557733535767
","x: 272.6819763183594
y: 250.47752380371094
z: -0.18912367522716522
visibility: 0.9999247193336487
","x: 267.8398132324219
y: 247.70513916015625
z: -0.20251688361167908
visibility: 0.9999728202819824
","x: 283.6374206542969
y: 285.27490234375
z: 0.019628386944532394
visibility: 0.9996910095214844
","x: 247.88504028320312
y: 273.79779052734375
z: -0.09155070036649704
visibility: 0.9999667406082153
","x: 291.18194580078125
y: 327.4219970703125
z: 0.03670145571231842
visibility: 0.7341020703315735
","x: 230.21380615234375
y: 322.0588684082031
z: -0.16363148391246796
visibility: 0.9962882995605469
","x: 296.7999572753906
y: 357.2395324707031
z: -0.12036385387182236
visibility: 0.7233968377113342
","x: 243.8560333251953
y: 335.8802795410156
z: -0.320772260427475
visibility: 0.9699134826660156
","x: 298.12060546875
y: 368.4304504394531
z: -0.1561872363090515
visibility: 0.6472383141517639
","x: 249.38111877441406
y: 337.13262939453125
z: -0.36077359318733215
visibility: 0.9216129183769226
","x: 296.3915710449219
y: 364.72760009765625
z: -0.18057574331760406
visibility: 0.6643770933151245
","x: 250.73495483398438
y: 330.5950927734375
z: -0.369823157787323
visibility: 0.9214536547660828
","x: 294.9477233886719
y: 359.7593688964844
z: -0.13434888422489166
visibility: 0.640742838382721
","x: 249.58502197265625
y: 329.7009582519531
z: -0.3255421817302704
visibility: 0.9022287130355835
","x: 270.68841552734375
y: 387.0205383300781
z: 0.05563270300626755
visibility: 0.9989576935768127
","x: 249.23521423339844
y: 383.8555603027344
z: -0.05565342307090759
visibility: 0.9997496008872986
","x: 268.9125671386719
y: 467.5325012207031
z: -0.009068874642252922
visibility: 0.9648852944374084
","x: 245.7200469970703
y: 461.0615539550781
z: 0.013800879009068012
visibility: 0.9934231042861938
","x: 268.29547119140625
y: 541.8682250976562
z: 0.0835295021533966
visibility: 0.9706405401229858
","x: 233.25665283203125
y: 509.0657043457031
z: 0.2741558849811554
visibility: 0.9911671876907349
","x: 264.1992492675781
y: 554.2825927734375
z: 0.08690042793750763
visibility: 0.9041700959205627
","x: 231.80056762695312
y: 511.7443542480469
z: 0.29568007588386536
visibility: 0.8833231925964355
","x: 279.6002502441406
y: 565.4127197265625
z: -0.027773823589086533
visibility: 0.9753446578979492
","x: 233.72735595703125
y: 544.6800537109375
z: 0.20685222744941711
visibility: 0.9874458312988281
",5.082447290420532,"x: 242.39501953125
y: 335.9412841796875
z: 0.0
","x: 243.22265625
y: 329.24578857421875
z: -0.0023371463175863028
","x: 245.70053100585938
y: 324.88397216796875
z: -0.004031856544315815
","x: 248.23736572265625
y: 322.27496337890625
z: -0.005063023883849382
","x: 249.9245147705078
y: 318.8921203613281
z: -0.005779048893600702
","x: 250.535400390625
y: 331.69866943359375
z: -0.005222581326961517
","x: 255.2858428955078
y: 327.2683410644531
z: -0.006043385248631239
","x: 257.1392517089844
y: 324.1302795410156
z: -0.00533232232555747
","x: 257.8892822265625
y: 321.8441467285156
z: -0.004554558079689741
","x: 251.52008056640625
y: 335.65484619140625
z: -0.004523367155343294
","x: 256.23199462890625
y: 330.3442077636719
z: -0.005003050900995731
","x: 257.6519470214844
y: 326.2696533203125
z: -0.003993907477706671
","x: 258.0932922363281
y: 323.3369140625
z: -0.0032585561275482178
","x: 251.8043212890625
y: 337.9568176269531
z: -0.003717836458235979
","x: 256.0411376953125
y: 332.6662902832031
z: -0.00440808292478323
","x: 257.380615234375
y: 328.56927490234375
z: -0.0040498278103768826
","x: 257.8349609375
y: 325.65191650390625
z: -0.003726088209077716
","x: 251.69720458984375
y: 339.0287780761719
z: -0.0030751980375498533
","x: 255.25193786621094
y: 334.4516296386719
z: -0.0038168474566191435
","x: 256.6231994628906
y: 330.88702392578125
z: -0.00387419480830431
","x: 257.1478576660156
y: 328.19464111328125
z: -0.0037272267509251833
","x: 299.57806396484375
y: 352.9224853515625
z: 0.0
","x: 296.7567138671875
y: 351.8643798828125
z: -0.0037265827413648367
","x: 294.1095886230469
y: 354.503173828125
z: -0.00540732778608799
","x: 292.373291015625
y: 358.659912109375
z: -0.006186619866639376
","x: 291.0567321777344
y: 361.56561279296875
z: -0.006635002791881561
","x: 296.979736328125
y: 361.1692810058594
z: -0.006349212024360895
","x: 294.3321533203125
y: 366.96746826171875
z: -0.007678408641368151
","x: 291.8670959472656
y: 369.152099609375
z: -0.007511948235332966
","x: 290.04827880859375
y: 370.2611999511719
z: -0.007096446584910154
","x: 298.2711181640625
y: 364.72369384765625
z: -0.005064908415079117
","x: 295.3363037109375
y: 371.309326171875
z: -0.006138671189546585
","x: 292.50958251953125
y: 374.0130310058594
z: -0.0058707548305392265
","x: 290.305908203125
y: 375.23699951171875
z: -0.005713792517781258
","x: 298.84893798828125
y: 367.00262451171875
z: -0.003799035446718335
","x: 296.1338195800781
y: 373.1334228515625
z: -0.005149681121110916
","x: 293.45208740234375
y: 375.435546875
z: -0.005490588955581188
","x: 291.27960205078125
y: 376.29766845703125
z: -0.005665970966219902
","x: 298.8536682128906
y: 368.2412109375
z: -0.002751151332631707
","x: 296.7442932128906
y: 373.416015625
z: -0.0040807342156767845
","x: 294.6241455078125
y: 375.4617614746094
z: -0.004537166561931372
","x: 292.7496337890625
y: 376.0662841796875
z: -0.004683089442551136
"
10,"x: 271.59613037109375
y: 240.51705932617188
z: -0.23920443654060364
visibility: 0.9999786615371704
","x: 273.57110595703125
y: 235.91468811035156
z: -0.21564753353595734
visibility: 0.9999400973320007
","x: 274.75250244140625
y: 236.59942626953125
z: -0.21565060317516327
visibility: 0.9999200701713562
","x: 275.9390563964844
y: 237.31515502929688
z: -0.21562322974205017
visibility: 0.9999071359634399
","x: 269.9830017089844
y: 234.1953887939453
z: -0.22524908185005188
visibility: 0.9999626874923706
","x: 268.5260314941406
y: 233.74853515625
z: -0.22526900470256805
visibility: 0.999960720539093
","x: 267.1658630371094
y: 233.22872924804688
z: -0.2252947837114334
visibility: 0.9999624490737915
","x: 276.5732116699219
y: 241.36380004882812
z: -0.08191527426242828
visibility: 0.9996799230575562
","x: 263.4027404785156
y: 236.03880310058594
z: -0.12867629528045654
visibility: 0.9999557733535767
","x: 272.6819763183594
y: 250.47752380371094
z: -0.18912367522716522
visibility: 0.9999247193336487
","x: 267.8398132324219
y: 247.70513916015625
z: -0.20251688361167908
visibility: 0.9999728202819824
","x: 283.6374206542969
y: 285.27490234375
z: 0.019628386944532394
visibility: 0.9996910095214844
","x: 247.88504028320312
y: 273.79779052734375
z: -0.09155070036649704
visibility: 0.9999667406082153
","x: 291.18194580078125
y: 327.4219970703125
z: 0.03670145571231842
visibility: 0.7341020703315735
","x: 230.21380615234375
y: 322.0588684082031
z: -0.16363148391246796
visibility: 0.9962882995605469
","x: 296.7999572753906
y: 357.2395324707031
z: -0.12036385387182236
visibility: 0.7233968377113342
","x: 243.8560333251953
y: 335.8802795410156
z: -0.320772260427475
visibility: 0.9699134826660156
","x: 298.12060546875
y: 368.4304504394531
z: -0.1561872363090515
visibility: 0.6472383141517639
","x: 249.38111877441406
y: 337.13262939453125
z: -0.36077359318733215
visibility: 0.9216129183769226
","x: 296.3915710449219
y: 364.72760009765625
z: -0.18057574331760406
visibility: 0.6643770933151245
","x: 250.73495483398438
y: 330.5950927734375
z: -0.369823157787323
visibility: 0.9214536547660828
","x: 294.9477233886719
y: 359.7593688964844
z: -0.13434888422489166
visibility: 0.640742838382721
","x: 249.58502197265625
y: 329.7009582519531
z: -0.3255421817302704
visibility: 0.9022287130355835
","x: 270.68841552734375
y: 387.0205383300781
z: 0.05563270300626755
visibility: 0.9989576935768127
","x: 249.23521423339844
y: 383.8555603027344
z: -0.05565342307090759
visibility: 0.9997496008872986
","x: 268.9125671386719
y: 467.5325012207031
z: -0.009068874642252922
visibility: 0.9648852944374084
","x: 245.7200469970703
y: 461.0615539550781
z: 0.013800879009068012
visibility: 0.9934231042861938
","x: 268.29547119140625
y: 541.8682250976562
z: 0.0835295021533966
visibility: 0.9706405401229858
","x: 233.25665283203125
y: 509.0657043457031
z: 0.2741558849811554
visibility: 0.9911671876907349
","x: 264.1992492675781
y: 554.2825927734375
z: 0.08690042793750763
visibility: 0.9041700959205627
","x: 231.80056762695312
y: 511.7443542480469
z: 0.29568007588386536
visibility: 0.8833231925964355
","x: 279.6002502441406
y: 565.4127197265625
z: -0.027773823589086533
visibility: 0.9753446578979492
","x: 233.72735595703125
y: 544.6800537109375
z: 0.20685222744941711
visibility: 0.9874458312988281
",5.082447290420532,"x: 242.39501953125
y: 335.9412841796875
z: 0.0
","x: 243.22265625
y: 329.24578857421875
z: -0.0023371463175863028
","x: 245.70053100585938
y: 324.88397216796875
z: -0.004031856544315815
","x: 248.23736572265625
y: 322.27496337890625
z: -0.005063023883849382
","x: 249.9245147705078
y: 318.8921203613281
z: -0.005779048893600702
","x: 250.535400390625
y: 331.69866943359375
z: -0.005222581326961517
","x: 255.2858428955078
y: 327.2683410644531
z: -0.006043385248631239
","x: 257.1392517089844
y: 324.1302795410156
z: -0.00533232232555747
","x: 257.8892822265625
y: 321.8441467285156
z: -0.004554558079689741
","x: 251.52008056640625
y: 335.65484619140625
z: -0.004523367155343294
","x: 256.23199462890625
y: 330.3442077636719
z: -0.005003050900995731
","x: 257.6519470214844
y: 326.2696533203125
z: -0.003993907477706671
","x: 258.0932922363281
y: 323.3369140625
z: -0.0032585561275482178
","x: 251.8043212890625
y: 337.9568176269531
z: -0.003717836458235979
","x: 256.0411376953125
y: 332.6662902832031
z: -0.00440808292478323
","x: 257.380615234375
y: 328.56927490234375
z: -0.0040498278103768826
","x: 257.8349609375
y: 325.65191650390625
z: -0.003726088209077716
","x: 251.69720458984375
y: 339.0287780761719
z: -0.0030751980375498533
","x: 255.25193786621094
y: 334.4516296386719
z: -0.0038168474566191435
","x: 256.6231994628906
y: 330.88702392578125
z: -0.00387419480830431
","x: 257.1478576660156
y: 328.19464111328125
z: -0.0037272267509251833
","x: 299.57806396484375
y: 352.9224853515625
z: 0.0
","x: 296.7567138671875
y: 351.8643798828125
z: -0.0037265827413648367
","x: 294.1095886230469
y: 354.503173828125
z: -0.00540732778608799
","x: 292.373291015625
y: 358.659912109375
z: -0.006186619866639376
","x: 291.0567321777344
y: 361.56561279296875
z: -0.006635002791881561
","x: 296.979736328125
y: 361.1692810058594
z: -0.006349212024360895
","x: 294.3321533203125
y: 366.96746826171875
z: -0.007678408641368151
","x: 291.8670959472656
y: 369.152099609375
z: -0.007511948235332966
","x: 290.04827880859375
y: 370.2611999511719
z: -0.007096446584910154
","x: 298.2711181640625
y: 364.72369384765625
z: -0.005064908415079117
","x: 295.3363037109375
y: 371.309326171875
z: -0.006138671189546585
","x: 292.50958251953125
y: 374.0130310058594
z: -0.0058707548305392265
","x: 290.305908203125
y: 375.23699951171875
z: -0.005713792517781258
","x: 298.84893798828125
y: 367.00262451171875
z: -0.003799035446718335
","x: 296.1338195800781
y: 373.1334228515625
z: -0.005149681121110916
","x: 293.45208740234375
y: 375.435546875
z: -0.005490588955581188
","x: 291.27960205078125
y: 376.29766845703125
z: -0.005665970966219902
","x: 298.8536682128906
y: 368.2412109375
z: -0.002751151332631707
","x: 296.7442932128906
y: 373.416015625
z: -0.0040807342156767845
","x: 294.6241455078125
y: 375.4617614746094
z: -0.004537166561931372
","x: 292.7496337890625
y: 376.0662841796875
z: -0.004683089442551136
"
11,"x: 271.59613037109375
y: 240.51705932617188
z: -0.23920443654060364
visibility: 0.9999786615371704
","x: 273.57110595703125
y: 235.91468811035156
z: -0.21564753353595734
visibility: 0.9999400973320007
","x: 274.75250244140625
y: 236.59942626953125
z: -0.21565060317516327
visibility: 0.9999200701713562
","x: 275.9390563964844
y: 237.31515502929688
z: -0.21562322974205017
visibility: 0.9999071359634399
","x: 269.9830017089844
y: 234.1953887939453
z: -0.22524908185005188
visibility: 0.9999626874923706
","x: 268.5260314941406
y: 233.74853515625
z: -0.22526900470256805
visibility: 0.999960720539093
","x: 267.1658630371094
y: 233.22872924804688
z: -0.2252947837114334
visibility: 0.9999624490737915
","x: 276.5732116699219
y: 241.36380004882812
z: -0.08191527426242828
visibility: 0.9996799230575562
","x: 263.4027404785156
y: 236.03880310058594
z: -0.12867629528045654
visibility: 0.9999557733535767
","x: 272.6819763183594
y: 250.47752380371094
z: -0.18912367522716522
visibility: 0.9999247193336487
","x: 267.8398132324219
y: 247.70513916015625
z: -0.20251688361167908
visibility: 0.9999728202819824
","x: 283.6374206542969
y: 285.27490234375
z: 0.019628386944532394
visibility: 0.9996910095214844
","x: 247.88504028320312
y: 273.79779052734375
z: -0.09155070036649704
visibility: 0.9999667406082153
","x: 291.18194580078125
y: 327.4219970703125
z: 0.03670145571231842
visibility: 0.7341020703315735
","x: 230.21380615234375
y: 322.0588684082031
z: -0.16363148391246796
visibility: 0.9962882995605469
","x: 296.7999572753906
y: 357.2395324707031
z: -0.12036385387182236
visibility: 0.7233968377113342
","x: 243.8560333251953
y: 335.8802795410156
z: -0.320772260427475
visibility: 0.9699134826660156
","x: 298.12060546875
y: 368.4304504394531
z: -0.1561872363090515
visibility: 0.6472383141517639
","x: 249.38111877441406
y: 337.13262939453125
z: -0.36077359318733215
visibility: 0.9216129183769226
","x: 296.3915710449219
y: 364.72760009765625
z: -0.18057574331760406
visibility: 0.6643770933151245
","x: 250.73495483398438
y: 330.5950927734375
z: -0.369823157787323
visibility: 0.9214536547660828
","x: 294.9477233886719
y: 359.7593688964844
z: -0.13434888422489166
visibility: 0.640742838382721
","x: 249.58502197265625
y: 329.7009582519531
z: -0.3255421817302704
visibility: 0.9022287130355835
","x: 270.68841552734375
y: 387.0205383300781
z: 0.05563270300626755
visibility: 0.9989576935768127
","x: 249.23521423339844
y: 383.8555603027344
z: -0.05565342307090759
visibility: 0.9997496008872986
","x: 268.9125671386719
y: 467.5325012207031
z: -0.009068874642252922
visibility: 0.9648852944374084
","x: 245.7200469970703
y: 461.0615539550781
z: 0.013800879009068012
visibility: 0.9934231042861938
","x: 268.29547119140625
y: 541.8682250976562
z: 0.0835295021533966
visibility: 0.9706405401229858
","x: 233.25665283203125
y: 509.0657043457031
z: 0.2741558849811554
visibility: 0.9911671876907349
","x: 264.1992492675781
y: 554.2825927734375
z: 0.08690042793750763
visibility: 0.9041700959205627
","x: 231.80056762695312
y: 511.7443542480469
z: 0.29568007588386536
visibility: 0.8833231925964355
","x: 279.6002502441406
y: 565.4127197265625
z: -0.027773823589086533
visibility: 0.9753446578979492
","x: 233.72735595703125
y: 544.6800537109375
z: 0.20685222744941711
visibility: 0.9874458312988281
",5.082447290420532,"x: 242.39501953125
y: 335.9412841796875
z: 0.0
","x: 243.22265625
y: 329.24578857421875
z: -0.0023371463175863028
","x: 245.70053100585938
y: 324.88397216796875
z: -0.004031856544315815
","x: 248.23736572265625
y: 322.27496337890625
z: -0.005063023883849382
","x: 249.9245147705078
y: 318.8921203613281
z: -0.005779048893600702
","x: 250.535400390625
y: 331.69866943359375
z: -0.005222581326961517
","x: 255.2858428955078
y: 327.2683410644531
z: -0.006043385248631239
","x: 257.1392517089844
y: 324.1302795410156
z: -0.00533232232555747
","x: 257.8892822265625
y: 321.8441467285156
z: -0.004554558079689741
","x: 251.52008056640625
y: 335.65484619140625
z: -0.004523367155343294
","x: 256.23199462890625
y: 330.3442077636719
z: -0.005003050900995731
","x: 257.6519470214844
y: 326.2696533203125
z: -0.003993907477706671
","x: 258.0932922363281
y: 323.3369140625
z: -0.0032585561275482178
","x: 251.8043212890625
y: 337.9568176269531
z: -0.003717836458235979
","x: 256.0411376953125
y: 332.6662902832031
z: -0.00440808292478323
","x: 257.380615234375
y: 328.56927490234375
z: -0.0040498278103768826
","x: 257.8349609375
y: 325.65191650390625
z: -0.003726088209077716
","x: 251.69720458984375
y: 339.0287780761719
z: -0.0030751980375498533
","x: 255.25193786621094
y: 334.4516296386719
z: -0.0038168474566191435
","x: 256.6231994628906
y: 330.88702392578125
z: -0.00387419480830431
","x: 257.1478576660156
y: 328.19464111328125
z: -0.0037272267509251833
","x: 299.57806396484375
y: 352.9224853515625
z: 0.0
","x: 296.7567138671875
y: 351.8643798828125
z: -0.0037265827413648367
","x: 294.1095886230469
y: 354.503173828125
z: -0.00540732778608799
","x: 292.373291015625
y: 358.659912109375
z: -0.006186619866639376
","x: 291.0567321777344
y: 361.56561279296875
z: -0.006635002791881561
","x: 296.979736328125
y: 361.1692810058594
z: -0.006349212024360895
","x: 294.3321533203125
y: 366.96746826171875
z: -0.007678408641368151
","x: 291.8670959472656
y: 369.152099609375
z: -0.007511948235332966
","x: 290.04827880859375
y: 370.2611999511719
z: -0.007096446584910154
","x: 298.2711181640625
y: 364.72369384765625
z: -0.005064908415079117
","x: 295.3363037109375
y: 371.309326171875
z: -0.006138671189546585
","x: 292.50958251953125
y: 374.0130310058594
z: -0.0058707548305392265
","x: 290.305908203125
y: 375.23699951171875
z: -0.005713792517781258
","x: 298.84893798828125
y: 367.00262451171875
z: -0.003799035446718335
","x: 296.1338195800781
y: 373.1334228515625
z: -0.005149681121110916
","x: 293.45208740234375
y: 375.435546875
z: -0.005490588955581188
","x: 291.27960205078125
y: 376.29766845703125
z: -0.005665970966219902
","x: 298.8536682128906
y: 368.2412109375
z: -0.002751151332631707
","x: 296.7442932128906
y: 373.416015625
z: -0.0040807342156767845
","x: 294.6241455078125
y: 375.4617614746094
z: -0.004537166561931372
","x: 292.7496337890625
y: 376.0662841796875
z: -0.004683089442551136
"
12,"x: 264.7242431640625
y: 242.61190795898438
z: -0.2605080008506775
visibility: 0.9999749064445496
","x: 266.938720703125
y: 238.50233459472656
z: -0.2332669049501419
visibility: 0.9999257326126099
","x: 268.18853759765625
y: 239.108154296875
z: -0.23327763378620148
visibility: 0.9999042749404907
","x: 269.3667297363281
y: 239.7415771484375
z: -0.23328185081481934
visibility: 0.9998903870582581
","x: 262.8153076171875
y: 237.2289276123047
z: -0.2456902712583542
visibility: 0.999951183795929
","x: 261.1790771484375
y: 236.96527099609375
z: -0.2457047998905182
visibility: 0.9999486207962036
","x: 259.6402587890625
y: 236.68267822265625
z: -0.24573616683483124
visibility: 0.9999498724937439
","x: 269.7613220214844
y: 244.06024169921875
z: -0.12186165899038315
visibility: 0.9996014833450317
","x: 256.2622985839844
y: 240.09234619140625
z: -0.15697461366653442
visibility: 0.9999367594718933
","x: 266.3092346191406
y: 251.67860412597656
z: -0.19143451750278473
visibility: 0.9999134540557861
","x: 260.55389404296875
y: 249.8382568359375
z: -0.21585611999034882
visibility: 0.9999669194221497
","x: 276.3596496582031
y: 287.8301086425781
z: -0.033233288675546646
visibility: 0.9997090697288513
","x: 239.7579345703125
y: 278.0609436035156
z: -0.11525813490152359
visibility: 0.9999592304229736
","x: 283.6269226074219
y: 328.43145751953125
z: 0.007373549975454807
visibility: 0.7569944262504578
","x: 224.47349548339844
y: 324.9769287109375
z: -0.18464545905590057
visibility: 0.9962916374206543
","x: 295.4900817871094
y: 357.6020812988281
z: -0.11100199073553085
visibility: 0.748345136642456
","x: 239.90383911132812
y: 338.5762939453125
z: -0.3427899479866028
visibility: 0.9720655083656311
","x: 297.61212158203125
y: 370.7366638183594
z: -0.13871701061725616
visibility: 0.6769793629646301
","x: 244.7142791748047
y: 341.6169738769531
z: -0.3813469409942627
visibility: 0.9272592663764954
","x: 296.2548522949219
y: 369.86700439453125
z: -0.16734081506729126
visibility: 0.693041205406189
","x: 246.74082946777344
y: 335.478271484375
z: -0.3911580443382263
visibility: 0.9270899295806885
","x: 294.68927001953125
y: 363.9147644042969
z: -0.12546363472938538
visibility: 0.670556366443634
","x: 245.78965759277344
y: 334.385498046875
z: -0.34835973381996155
visibility: 0.9086998701095581
","x: 264.6066589355469
y: 387.955322265625
z: 0.03573184087872505
visibility: 0.9990491271018982
","x: 242.136962890625
y: 383.9489440917969
z: -0.035783957690000534
visibility: 0.9997503161430359
","x: 265.6930847167969
y: 466.245361328125
z: -0.006925681140273809
visibility: 0.9673819541931152
","x: 239.44203186035156
y: 461.7853088378906
z: 0.03222236409783363
visibility: 0.9929034113883972
","x: 268.453857421875
y: 541.9225463867188
z: 0.05772407725453377
visibility: 0.9726829528808594
","x: 231.96734619140625
y: 516.6217041015625
z: 0.2521933317184448
visibility: 0.9889721274375916
","x: 264.8030090332031
y: 554.3165283203125
z: 0.057095080614089966
visibility: 0.9077385067939758
","x: 231.89743041992188
y: 521.5076904296875
z: 0.26801973581314087
visibility: 0.8671814203262329
","x: 279.62420654296875
y: 565.14794921875
z: -0.06886032223701477
visibility: 0.9766876697540283
","x: 231.8933868408203
y: 542.2072143554688
z: 0.16369684040546417
visibility: 0.9848726391792297
",5.2238287925720215,,,,,,,,,,,,,,,,,,,,,,,,,,,,,,,,,,,,,,,,,,
13,"x: 264.7242431640625
y: 242.61190795898438
z: -0.2605080008506775
visibility: 0.9999749064445496
","x: 266.938720703125
y: 238.50233459472656
z: -0.2332669049501419
visibility: 0.9999257326126099
","x: 268.18853759765625
y: 239.108154296875
z: -0.23327763378620148
visibility: 0.9999042749404907
","x: 269.3667297363281
y: 239.7415771484375
z: -0.23328185081481934
visibility: 0.9998903870582581
","x: 262.8153076171875
y: 237.2289276123047
z: -0.2456902712583542
visibility: 0.999951183795929
","x: 261.1790771484375
y: 236.96527099609375
z: -0.2457047998905182
visibility: 0.9999486207962036
","x: 259.6402587890625
y: 236.68267822265625
z: -0.24573616683483124
visibility: 0.9999498724937439
","x: 269.7613220214844
y: 244.06024169921875
z: -0.12186165899038315
visibility: 0.9996014833450317
","x: 256.2622985839844
y: 240.09234619140625
z: -0.15697461366653442
visibility: 0.9999367594718933
","x: 266.3092346191406
y: 251.67860412597656
z: -0.19143451750278473
visibility: 0.9999134540557861
","x: 260.55389404296875
y: 249.8382568359375
z: -0.21585611999034882
visibility: 0.9999669194221497
","x: 276.3596496582031
y: 287.8301086425781
z: -0.033233288675546646
visibility: 0.9997090697288513
","x: 239.7579345703125
y: 278.0609436035156
z: -0.11525813490152359
visibility: 0.9999592304229736
","x: 283.6269226074219
y: 328.43145751953125
z: 0.007373549975454807
visibility: 0.7569944262504578
","x: 224.47349548339844
y: 324.9769287109375
z: -0.18464545905590057
visibility: 0.9962916374206543
","x: 295.4900817871094
y: 357.6020812988281
z: -0.11100199073553085
visibility: 0.748345136642456
","x: 239.90383911132812
y: 338.5762939453125
z: -0.3427899479866028
visibility: 0.9720655083656311
","x: 297.61212158203125
y: 370.7366638183594
z: -0.13871701061725616
visibility: 0.6769793629646301
","x: 244.7142791748047
y: 341.6169738769531
z: -0.3813469409942627
visibility: 0.9272592663764954
","x: 296.2548522949219
y: 369.86700439453125
z: -0.16734081506729126
visibility: 0.693041205406189
","x: 246.74082946777344
y: 335.478271484375
z: -0.3911580443382263
visibility: 0.9270899295806885
","x: 294.68927001953125
y: 363.9147644042969
z: -0.12546363472938538
visibility: 0.670556366443634
","x: 245.78965759277344
y: 334.385498046875
z: -0.34835973381996155
visibility: 0.9086998701095581
","x: 264.6066589355469
y: 387.955322265625
z: 0.03573184087872505
visibility: 0.9990491271018982
","x: 242.136962890625
y: 383.9489440917969
z: -0.035783957690000534
visibility: 0.9997503161430359
","x: 265.6930847167969
y: 466.245361328125
z: -0.006925681140273809
visibility: 0.9673819541931152
","x: 239.44203186035156
y: 461.7853088378906
z: 0.03222236409783363
visibility: 0.9929034113883972
","x: 268.453857421875
y: 541.9225463867188
z: 0.05772407725453377
visibility: 0.9726829528808594
","x: 231.96734619140625
y: 516.6217041015625
z: 0.2521933317184448
visibility: 0.9889721274375916
","x: 264.8030090332031
y: 554.3165283203125
z: 0.057095080614089966
visibility: 0.9077385067939758
","x: 231.89743041992188
y: 521.5076904296875
z: 0.26801973581314087
visibility: 0.8671814203262329
","x: 279.62420654296875
y: 565.14794921875
z: -0.06886032223701477
visibility: 0.9766876697540283
","x: 231.8933868408203
y: 542.2072143554688
z: 0.16369684040546417
visibility: 0.9848726391792297
",5.2238287925720215,,,,,,,,,,,,,,,,,,,,,,,,,,,,,,,,,,,,,,,,,,
14,"x: 255.40655517578125
y: 248.3726348876953
z: -0.29276618361473083
visibility: 0.9999738335609436
","x: 257.75689697265625
y: 244.0039825439453
z: -0.27186697721481323
visibility: 0.9999222159385681
","x: 259.0816650390625
y: 244.7399139404297
z: -0.2718815207481384
visibility: 0.9998995065689087
","x: 260.4421081542969
y: 245.53138732910156
z: -0.2718967795372009
visibility: 0.9998847246170044
","x: 253.77462768554688
y: 242.44082641601562
z: -0.276929646730423
visibility: 0.9999485015869141
","x: 252.35902404785156
y: 242.07144165039062
z: -0.2769560217857361
visibility: 0.9999450445175171
","x: 250.87583923339844
y: 241.81520080566406
z: -0.2769553065299988
visibility: 0.9999452829360962
","x: 260.8459777832031
y: 249.877685546875
z: -0.15575268864631653
visibility: 0.9995911717414856
","x: 247.03321838378906
y: 245.8852996826172
z: -0.18052445352077484
visibility: 0.9999288320541382
","x: 256.384033203125
y: 257.8333435058594
z: -0.2461245357990265
visibility: 0.9999089241027832
","x: 251.6356658935547
y: 255.73255920410156
z: -0.2547181248664856
visibility: 0.9999630451202393
","x: 268.232421875
y: 290.4610595703125
z: -0.0711551159620285
visibility: 0.9997166395187378
","x: 230.2362060546875
y: 283.6007995605469
z: -0.12424614280462265
visibility: 0.9999505281448364
","x: 277.6171875
y: 328.9992980957031
z: -0.04802904278039932
visibility: 0.7786545157432556
","x: 218.0248260498047
y: 329.32354736328125
z: -0.20228998363018036
visibility: 0.9959104657173157
","x: 287.62091064453125
y: 357.3070068359375
z: -0.1697993129491806
visibility: 0.7706812024116516
","x: 230.42259216308594
y: 340.1053161621094
z: -0.38489726185798645
visibility: 0.9739320278167725
","x: 291.5908203125
y: 370.5224609375
z: -0.19935309886932373
visibility: 0.7031697034835815
","x: 234.71217346191406
y: 343.8896179199219
z: -0.42562445998191833
visibility: 0.9324755668640137
","x: 290.7526550292969
y: 369.5283203125
z: -0.2257768213748932
visibility: 0.7182576656341553
","x: 235.28953552246094
y: 337.3815612792969
z: -0.43704405426979065
visibility: 0.9323410391807556
","x: 288.7103271484375
y: 363.82073974609375
z: -0.18348869681358337
visibility: 0.6969808340072632
","x: 234.60255432128906
y: 336.4092712402344
z: -0.3924676477909088
visibility: 0.9147782325744629
","x: 257.846435546875
y: 388.0978088378906
z: 0.017457401379942894
visibility: 0.999120831489563
","x: 234.83958435058594
y: 385.4547424316406
z: -0.017467770725488663
visibility: 0.9997478127479553
","x: 261.86962890625
y: 461.0234375
z: -0.004278998821973801
visibility: 0.9697195291519165
","x: 234.41656494140625
y: 458.24285888671875
z: 0.05704646185040474
visibility: 0.9926528334617615
","x: 266.93505859375
y: 536.3936767578125
z: 0.0760493278503418
visibility: 0.9744430780410767
","x: 231.95213317871094
y: 518.569580078125
z: 0.24471347033977509
visibility: 0.988637387752533
","x: 263.6612854003906
y: 550.887939453125
z: 0.07679153978824615
visibility: 0.9129722714424133
","x: 232.67425537109375
y: 526.679443359375
z: 0.2567881941795349
visibility: 0.8675472140312195
","x: 277.29345703125
y: 548.3692016601562
z: -0.04277466982603073
visibility: 0.9776513576507568
","x: 230.3831024169922
y: 539.9937133789062
z: 0.14633482694625854
visibility: 0.984112024307251
",5.3809778690338135,"x: 225.5510711669922
y: 340.72784423828125
z: 0.0
","x: 227.69091796875
y: 335.24505615234375
z: -0.000679766817484051
","x: 230.98594665527344
y: 331.12158203125
z: -0.0019454562570899725
","x: 233.68685913085938
y: 329.415771484375
z: -0.0028773655649274588
","x: 235.6916046142578
y: 328.9123840332031
z: -0.0034910745453089476
","x: 232.8651580810547
y: 336.297607421875
z: -0.006264043506234884
","x: 238.73106384277344
y: 334.67657470703125
z: -0.007785414811223745
","x: 240.1874542236328
y: 332.188720703125
z: -0.006271922495216131
","x: 240.27743530273438
y: 330.6377868652344
z: -0.0045469775795936584
","x: 233.5994415283203
y: 340.4638977050781
z: -0.006410805508494377
","x: 239.70755004882812
y: 338.0277099609375
z: -0.007815219461917877
","x: 240.58370971679688
y: 334.85272216796875
z: -0.00531714828684926
","x: 239.89743041992188
y: 332.82391357421875
z: -0.003023214638233185
","x: 233.9433135986328
y: 343.2900390625
z: -0.006324089132249355
","x: 239.2311248779297
y: 340.37005615234375
z: -0.007768415845930576
","x: 239.86546325683594
y: 336.994873046875
z: -0.005639318842440844
","x: 239.390380859375
y: 334.7552490234375
z: -0.0036377538926899433
","x: 234.10096740722656
y: 344.9478454589844
z: -0.0062339408323168755
","x: 237.9011688232422
y: 341.91949462890625
z: -0.007412680424749851
","x: 239.07244873046875
y: 338.966552734375
z: -0.006604790221899748
","x: 239.41551208496094
y: 336.8765563964844
z: -0.005455988924950361
",,,,,,,,,,,,,,,,,,,,,
15,"x: 255.40655517578125
y: 248.3726348876953
z: -0.29276618361473083
visibility: 0.9999738335609436
","x: 257.75689697265625
y: 244.0039825439453
z: -0.27186697721481323
visibility: 0.9999222159385681
","x: 259.0816650390625
y: 244.7399139404297
z: -0.2718815207481384
visibility: 0.9998995065689087
","x: 260.4421081542969
y: 245.53138732910156
z: -0.2718967795372009
visibility: 0.9998847246170044
","x: 253.77462768554688
y: 242.44082641601562
z: -0.276929646730423
visibility: 0.9999485015869141
","x: 252.35902404785156
y: 242.07144165039062
z: -0.2769560217857361
visibility: 0.9999450445175171
","x: 250.87583923339844
y: 241.81520080566406
z: -0.2769553065299988
visibility: 0.9999452829360962
","x: 260.8459777832031
y: 249.877685546875
z: -0.15575268864631653
visibility: 0.9995911717414856
","x: 247.03321838378906
y: 245.8852996826172
z: -0.18052445352077484
visibility: 0.9999288320541382
","x: 256.384033203125
y: 257.8333435058594
z: -0.2461245357990265
visibility: 0.9999089241027832
","x: 251.6356658935547
y: 255.73255920410156
z: -0.2547181248664856
visibility: 0.9999630451202393
","x: 268.232421875
y: 290.4610595703125
z: -0.0711551159620285
visibility: 0.9997166395187378
","x: 230.2362060546875
y: 283.6007995605469
z: -0.12424614280462265
visibility: 0.9999505281448364
","x: 277.6171875
y: 328.9992980957031
z: -0.04802904278039932
visibility: 0.7786545157432556
","x: 218.0248260498047
y: 329.32354736328125
z: -0.20228998363018036
visibility: 0.9959104657173157
","x: 287.62091064453125
y: 357.3070068359375
z: -0.1697993129491806
visibility: 0.7706812024116516
","x: 230.42259216308594
y: 340.1053161621094
z: -0.38489726185798645
visibility: 0.9739320278167725
","x: 291.5908203125
y: 370.5224609375
z: -0.19935309886932373
visibility: 0.7031697034835815
","x: 234.71217346191406
y: 343.8896179199219
z: -0.42562445998191833
visibility: 0.9324755668640137
","x: 290.7526550292969
y: 369.5283203125
z: -0.2257768213748932
visibility: 0.7182576656341553
","x: 235.28953552246094
y: 337.3815612792969
z: -0.43704405426979065
visibility: 0.9323410391807556
","x: 288.7103271484375
y: 363.82073974609375
z: -0.18348869681358337
visibility: 0.6969808340072632
","x: 234.60255432128906
y: 336.4092712402344
z: -0.3924676477909088
visibility: 0.9147782325744629
","x: 257.846435546875
y: 388.0978088378906
z: 0.017457401379942894
visibility: 0.999120831489563
","x: 234.83958435058594
y: 385.4547424316406
z: -0.017467770725488663
visibility: 0.9997478127479553
","x: 261.86962890625
y: 461.0234375
z: -0.004278998821973801
visibility: 0.9697195291519165
","x: 234.41656494140625
y: 458.24285888671875
z: 0.05704646185040474
visibility: 0.9926528334617615
","x: 266.93505859375
y: 536.3936767578125
z: 0.0760493278503418
visibility: 0.9744430780410767
","x: 231.95213317871094
y: 518.569580078125
z: 0.24471347033977509
visibility: 0.988637387752533
","x: 263.6612854003906
y: 550.887939453125
z: 0.07679153978824615
visibility: 0.9129722714424133
","x: 232.67425537109375
y: 526.679443359375
z: 0.2567881941795349
visibility: 0.8675472140312195
","x: 277.29345703125
y: 548.3692016601562
z: -0.04277466982603073
visibility: 0.9776513576507568
","x: 230.3831024169922
y: 539.9937133789062
z: 0.14633482694625854
visibility: 0.984112024307251
",5.3809778690338135,"x: 225.5510711669922
y: 340.72784423828125
z: 0.0
","x: 227.69091796875
y: 335.24505615234375
z: -0.000679766817484051
","x: 230.98594665527344
y: 331.12158203125
z: -0.0019454562570899725
","x: 233.68685913085938
y: 329.415771484375
z: -0.0028773655649274588
","x: 235.6916046142578
y: 328.9123840332031
z: -0.0034910745453089476
","x: 232.8651580810547
y: 336.297607421875
z: -0.006264043506234884
","x: 238.73106384277344
y: 334.67657470703125
z: -0.007785414811223745
","x: 240.1874542236328
y: 332.188720703125
z: -0.006271922495216131
","x: 240.27743530273438
y: 330.6377868652344
z: -0.0045469775795936584
","x: 233.5994415283203
y: 340.4638977050781
z: -0.006410805508494377
","x: 239.70755004882812
y: 338.0277099609375
z: -0.007815219461917877
","x: 240.58370971679688
y: 334.85272216796875
z: -0.00531714828684926
","x: 239.89743041992188
y: 332.82391357421875
z: -0.003023214638233185
","x: 233.9433135986328
y: 343.2900390625
z: -0.006324089132249355
","x: 239.2311248779297
y: 340.37005615234375
z: -0.007768415845930576
","x: 239.86546325683594
y: 336.994873046875
z: -0.005639318842440844
","x: 239.390380859375
y: 334.7552490234375
z: -0.0036377538926899433
","x: 234.10096740722656
y: 344.9478454589844
z: -0.0062339408323168755
","x: 237.9011688232422
y: 341.91949462890625
z: -0.007412680424749851
","x: 239.07244873046875
y: 338.966552734375
z: -0.006604790221899748
","x: 239.41551208496094
y: 336.8765563964844
z: -0.005455988924950361
",,,,,,,,,,,,,,,,,,,,,
16,"x: 255.40655517578125
y: 248.3726348876953
z: -0.29276618361473083
visibility: 0.9999738335609436
","x: 257.75689697265625
y: 244.0039825439453
z: -0.27186697721481323
visibility: 0.9999222159385681
","x: 259.0816650390625
y: 244.7399139404297
z: -0.2718815207481384
visibility: 0.9998995065689087
","x: 260.4421081542969
y: 245.53138732910156
z: -0.2718967795372009
visibility: 0.9998847246170044
","x: 253.77462768554688
y: 242.44082641601562
z: -0.276929646730423
visibility: 0.9999485015869141
","x: 252.35902404785156
y: 242.07144165039062
z: -0.2769560217857361
visibility: 0.9999450445175171
","x: 250.87583923339844
y: 241.81520080566406
z: -0.2769553065299988
visibility: 0.9999452829360962
","x: 260.8459777832031
y: 249.877685546875
z: -0.15575268864631653
visibility: 0.9995911717414856
","x: 247.03321838378906
y: 245.8852996826172
z: -0.18052445352077484
visibility: 0.9999288320541382
","x: 256.384033203125
y: 257.8333435058594
z: -0.2461245357990265
visibility: 0.9999089241027832
","x: 251.6356658935547
y: 255.73255920410156
z: -0.2547181248664856
visibility: 0.9999630451202393
","x: 268.232421875
y: 290.4610595703125
z: -0.0711551159620285
visibility: 0.9997166395187378
","x: 230.2362060546875
y: 283.6007995605469
z: -0.12424614280462265
visibility: 0.9999505281448364
","x: 277.6171875
y: 328.9992980957031
z: -0.04802904278039932
visibility: 0.7786545157432556
","x: 218.0248260498047
y: 329.32354736328125
z: -0.20228998363018036
visibility: 0.9959104657173157
","x: 287.62091064453125
y: 357.3070068359375
z: -0.1697993129491806
visibility: 0.7706812024116516
","x: 230.42259216308594
y: 340.1053161621094
z: -0.38489726185798645
visibility: 0.9739320278167725
","x: 291.5908203125
y: 370.5224609375
z: -0.19935309886932373
visibility: 0.7031697034835815
","x: 234.71217346191406
y: 343.8896179199219
z: -0.42562445998191833
visibility: 0.9324755668640137
","x: 290.7526550292969
y: 369.5283203125
z: -0.2257768213748932
visibility: 0.7182576656341553
","x: 235.28953552246094
y: 337.3815612792969
z: -0.43704405426979065
visibility: 0.9323410391807556
","x: 288.7103271484375
y: 363.82073974609375
z: -0.18348869681358337
visibility: 0.6969808340072632
","x: 234.60255432128906
y: 336.4092712402344
z: -0.3924676477909088
visibility: 0.9147782325744629
","x: 257.846435546875
y: 388.0978088378906
z: 0.017457401379942894
visibility: 0.999120831489563
","x: 234.83958435058594
y: 385.4547424316406
z: -0.017467770725488663
visibility: 0.9997478127479553
","x: 261.86962890625
y: 461.0234375
z: -0.004278998821973801
visibility: 0.9697195291519165
","x: 234.41656494140625
y: 458.24285888671875
z: 0.05704646185040474
visibility: 0.9926528334617615
","x: 266.93505859375
y: 536.3936767578125
z: 0.0760493278503418
visibility: 0.9744430780410767
","x: 231.95213317871094
y: 518.569580078125
z: 0.24471347033977509
visibility: 0.988637387752533
","x: 263.6612854003906
y: 550.887939453125
z: 0.07679153978824615
visibility: 0.9129722714424133
","x: 232.67425537109375
y: 526.679443359375
z: 0.2567881941795349
visibility: 0.8675472140312195
","x: 277.29345703125
y: 548.3692016601562
z: -0.04277466982603073
visibility: 0.9776513576507568
","x: 230.3831024169922
y: 539.9937133789062
z: 0.14633482694625854
visibility: 0.984112024307251
",5.3809778690338135,"x: 225.5510711669922
y: 340.72784423828125
z: 0.0
","x: 227.69091796875
y: 335.24505615234375
z: -0.000679766817484051
","x: 230.98594665527344
y: 331.12158203125
z: -0.0019454562570899725
","x: 233.68685913085938
y: 329.415771484375
z: -0.0028773655649274588
","x: 235.6916046142578
y: 328.9123840332031
z: -0.0034910745453089476
","x: 232.8651580810547
y: 336.297607421875
z: -0.006264043506234884
","x: 238.73106384277344
y: 334.67657470703125
z: -0.007785414811223745
","x: 240.1874542236328
y: 332.188720703125
z: -0.006271922495216131
","x: 240.27743530273438
y: 330.6377868652344
z: -0.0045469775795936584
","x: 233.5994415283203
y: 340.4638977050781
z: -0.006410805508494377
","x: 239.70755004882812
y: 338.0277099609375
z: -0.007815219461917877
","x: 240.58370971679688
y: 334.85272216796875
z: -0.00531714828684926
","x: 239.89743041992188
y: 332.82391357421875
z: -0.003023214638233185
","x: 233.9433135986328
y: 343.2900390625
z: -0.006324089132249355
","x: 239.2311248779297
y: 340.37005615234375
z: -0.007768415845930576
","x: 239.86546325683594
y: 336.994873046875
z: -0.005639318842440844
","x: 239.390380859375
y: 334.7552490234375
z: -0.0036377538926899433
","x: 234.10096740722656
y: 344.9478454589844
z: -0.0062339408323168755
","x: 237.9011688232422
y: 341.91949462890625
z: -0.007412680424749851
","x: 239.07244873046875
y: 338.966552734375
z: -0.006604790221899748
","x: 239.41551208496094
y: 336.8765563964844
z: -0.005455988924950361
",,,,,,,,,,,,,,,,,,,,,
17,"x: 251.54296875
y: 245.39161682128906
z: -0.28201016783714294
visibility: 0.9999749064445496
","x: 253.8504638671875
y: 240.8743896484375
z: -0.2651713490486145
visibility: 0.999925434589386
","x: 255.0960693359375
y: 241.48001098632812
z: -0.2651887536048889
visibility: 0.9999036192893982
","x: 256.3079833984375
y: 242.1453094482422
z: -0.2652122378349304
visibility: 0.9998893737792969
","x: 249.64720153808594
y: 239.64202880859375
z: -0.2647525668144226
visibility: 0.999950110912323
","x: 248.2862091064453
y: 239.44491577148438
z: -0.264767587184906
visibility: 0.9999467134475708
","x: 246.8886260986328
y: 239.30906677246094
z: -0.2647525668144226
visibility: 0.9999470114707947
","x: 257.881591796875
y: 246.83871459960938
z: -0.14801764488220215
visibility: 0.9996167421340942
","x: 243.81320190429688
y: 244.01034545898438
z: -0.16399580240249634
visibility: 0.9999301433563232
","x: 253.79461669921875
y: 254.70947265625
z: -0.24557285010814667
visibility: 0.9999136924743652
","x: 248.11669921875
y: 253.11944580078125
z: -0.24363651871681213
visibility: 0.9999646544456482
","x: 267.7196044921875
y: 288.73931884765625
z: -0.06445537507534027
visibility: 0.9997357726097107
","x: 228.13201904296875
y: 281.728759765625
z: -0.09859059751033783
visibility: 0.9999487400054932
","x: 277.5775146484375
y: 325.3516845703125
z: -0.03719193860888481
visibility: 0.7991287112236023
","x: 213.77572631835938
y: 325.83349609375
z: -0.169824481010437
visibility: 0.9957903623580933
","x: 285.1389465332031
y: 350.3031005859375
z: -0.1618480235338211
visibility: 0.7920509576797485
","x: 226.49427795410156
y: 338.6839599609375
z: -0.3081466853618622
visibility: 0.9753933548927307
","x: 288.09014892578125
y: 362.0069580078125
z: -0.19469481706619263
visibility: 0.7291951179504395
","x: 230.3430938720703
y: 344.24334716796875
z: -0.3445724844932556
visibility: 0.9364266395568848
","x: 286.2590637207031
y: 361.8141174316406
z: -0.22002486884593964
visibility: 0.743063747882843
","x: 232.3003387451172
y: 339.1434020996094
z: -0.3571978211402893
visibility: 0.9363179206848145
","x: 284.334716796875
y: 357.2976989746094
z: -0.17490629851818085
visibility: 0.7230194807052612
","x: 231.86141967773438
y: 337.4048156738281
z: -0.31511956453323364
visibility: 0.9194234609603882
","x: 256.9832458496094
y: 385.98956298828125
z: 0.011288085021078587
visibility: 0.999170184135437
","x: 234.26730346679688
y: 383.1968688964844
z: -0.011312313377857208
visibility: 0.9997504949569702
","x: 261.9715881347656
y: 455.05572509765625
z: 0.011683008633553982
visibility: 0.9720900058746338
","x: 233.89385986328125
y: 452.049072265625
z: 0.0417521707713604
visibility: 0.9929994344711304
","x: 258.3395690917969
y: 515.4010620117188
z: 0.1616462767124176
visibility: 0.97602778673172
","x: 231.3225555419922
y: 519.6708984375
z: 0.13517434895038605
visibility: 0.989197313785553
","x: 254.35147094726562
y: 524.6474609375
z: 0.17694908380508423
visibility: 0.9164234399795532
","x: 233.1790008544922
y: 528.9765625
z: 0.14210878312587738
visibility: 0.8709553480148315
","x: 267.61761474609375
y: 542.3563842773438
z: 0.07891620695590973
visibility: 0.9785574674606323
","x: 230.12095642089844
y: 540.3714599609375
z: 0.028268376365303993
visibility: 0.9846563935279846
",5.505211591720581,,,,,,,,,,,,,,,,,,,,,,,,,,,,,,,,,,,,,,,,,,
18,"x: 251.54296875
y: 245.39161682128906
z: -0.28201016783714294
visibility: 0.9999749064445496
","x: 253.8504638671875
y: 240.8743896484375
z: -0.2651713490486145
visibility: 0.999925434589386
","x: 255.0960693359375
y: 241.48001098632812
z: -0.2651887536048889
visibility: 0.9999036192893982
","x: 256.3079833984375
y: 242.1453094482422
z: -0.2652122378349304
visibility: 0.9998893737792969
","x: 249.64720153808594
y: 239.64202880859375
z: -0.2647525668144226
visibility: 0.999950110912323
","x: 248.2862091064453
y: 239.44491577148438
z: -0.264767587184906
visibility: 0.9999467134475708
","x: 246.8886260986328
y: 239.30906677246094
z: -0.2647525668144226
visibility: 0.9999470114707947
","x: 257.881591796875
y: 246.83871459960938
z: -0.14801764488220215
visibility: 0.9996167421340942
","x: 243.81320190429688
y: 244.01034545898438
z: -0.16399580240249634
visibility: 0.9999301433563232
","x: 253.79461669921875
y: 254.70947265625
z: -0.24557285010814667
visibility: 0.9999136924743652
","x: 248.11669921875
y: 253.11944580078125
z: -0.24363651871681213
visibility: 0.9999646544456482
","x: 267.7196044921875
y: 288.73931884765625
z: -0.06445537507534027
visibility: 0.9997357726097107
","x: 228.13201904296875
y: 281.728759765625
z: -0.09859059751033783
visibility: 0.9999487400054932
","x: 277.5775146484375
y: 325.3516845703125
z: -0.03719193860888481
visibility: 0.7991287112236023
","x: 213.77572631835938
y: 325.83349609375
z: -0.169824481010437
visibility: 0.9957903623580933
","x: 285.1389465332031
y: 350.3031005859375
z: -0.1618480235338211
visibility: 0.7920509576797485
","x: 226.49427795410156
y: 338.6839599609375
z: -0.3081466853618622
visibility: 0.9753933548927307
","x: 288.09014892578125
y: 362.0069580078125
z: -0.19469481706619263
visibility: 0.7291951179504395
","x: 230.3430938720703
y: 344.24334716796875
z: -0.3445724844932556
visibility: 0.9364266395568848
","x: 286.2590637207031
y: 361.8141174316406
z: -0.22002486884593964
visibility: 0.743063747882843
","x: 232.3003387451172
y: 339.1434020996094
z: -0.3571978211402893
visibility: 0.9363179206848145
","x: 284.334716796875
y: 357.2976989746094
z: -0.17490629851818085
visibility: 0.7230194807052612
","x: 231.86141967773438
y: 337.4048156738281
z: -0.31511956453323364
visibility: 0.9194234609603882
","x: 256.9832458496094
y: 385.98956298828125
z: 0.011288085021078587
visibility: 0.999170184135437
","x: 234.26730346679688
y: 383.1968688964844
z: -0.011312313377857208
visibility: 0.9997504949569702
","x: 261.9715881347656
y: 455.05572509765625
z: 0.011683008633553982
visibility: 0.9720900058746338
","x: 233.89385986328125
y: 452.049072265625
z: 0.0417521707713604
visibility: 0.9929994344711304
","x: 258.3395690917969
y: 515.4010620117188
z: 0.1616462767124176
visibility: 0.97602778673172
","x: 231.3225555419922
y: 519.6708984375
z: 0.13517434895038605
visibility: 0.989197313785553
","x: 254.35147094726562
y: 524.6474609375
z: 0.17694908380508423
visibility: 0.9164234399795532
","x: 233.1790008544922
y: 528.9765625
z: 0.14210878312587738
visibility: 0.8709553480148315
","x: 267.61761474609375
y: 542.3563842773438
z: 0.07891620695590973
visibility: 0.9785574674606323
","x: 230.12095642089844
y: 540.3714599609375
z: 0.028268376365303993
visibility: 0.9846563935279846
",5.505211591720581,,,,,,,,,,,,,,,,,,,,,,,,,,,,,,,,,,,,,,,,,,
19,"x: 250.90567016601562
y: 243.8955535888672
z: -0.28387555480003357
visibility: 0.9999719858169556
","x: 253.28466796875
y: 239.3489990234375
z: -0.2702215015888214
visibility: 0.9999088048934937
","x: 254.79518127441406
y: 239.9891357421875
z: -0.27021482586860657
visibility: 0.9998856782913208
","x: 256.17919921875
y: 240.6914520263672
z: -0.27022820711135864
visibility: 0.9998723864555359
","x: 248.9064178466797
y: 237.9970703125
z: -0.27038121223449707
visibility: 0.9999381899833679
","x: 247.4928741455078
y: 237.79518127441406
z: -0.2704083025455475
visibility: 0.9999350905418396
","x: 246.1616668701172
y: 237.6529541015625
z: -0.2703959345817566
visibility: 0.9999372363090515
","x: 257.86956787109375
y: 245.3626251220703
z: -0.17062555253505707
visibility: 0.9995846748352051
","x: 243.68966674804688
y: 242.18161010742188
z: -0.1805216372013092
visibility: 0.9999085068702698
","x: 253.75314331054688
y: 253.31971740722656
z: -0.24727126955986023
visibility: 0.9999112486839294
","x: 247.4897003173828
y: 251.52783203125
z: -0.24812932312488556
visibility: 0.999961256980896
","x: 268.5286560058594
y: 286.0859375
z: -0.08791288733482361
visibility: 0.9997528791427612
","x: 228.15780639648438
y: 280.6478576660156
z: -0.10302291810512543
visibility: 0.9999470710754395
","x: 279.03594970703125
y: 318.5289306640625
z: -0.019270362332463264
visibility: 0.818126916885376
","x: 214.10389709472656
y: 321.48114013671875
z: -0.07143629342317581
visibility: 0.9954848885536194
","x: 283.0906066894531
y: 348.32879638671875
z: -0.11086051166057587
visibility: 0.8096231818199158
","x: 224.59982299804688
y: 340.2639465332031
z: -0.13772544264793396
visibility: 0.9741507172584534
","x: 283.83612060546875
y: 361.13165283203125
z: -0.13921840488910675
visibility: 0.7482481598854065
","x: 226.3178253173828
y: 349.579833984375
z: -0.1621059626340866
visibility: 0.933707594871521
","x: 281.43475341796875
y: 360.42987060546875
z: -0.16894109547138214
visibility: 0.761299729347229
","x: 228.30645751953125
y: 345.77752685546875
z: -0.1812831461429596
visibility: 0.933692991733551
","x: 280.3307800292969
y: 355.66290283203125
z: -0.12533007562160492
visibility: 0.7418164014816284
","x: 228.163330078125
y: 342.5467529296875
z: -0.14589065313339233
visibility: 0.9163085222244263
","x: 258.1840515136719
y: 381.1435241699219
z: 0.006291775964200497
visibility: 0.9991726279258728
","x: 234.63047790527344
y: 379.2156677246094
z: -0.006315356586128473
visibility: 0.9997355341911316
","x: 258.87298583984375
y: 451.788818359375
z: 0.03455762565135956
visibility: 0.9740833640098572
","x: 233.5809783935547
y: 449.84423828125
z: 0.004983174614608288
visibility: 0.9933255910873413
","x: 257.2055969238281
y: 507.94696044921875
z: 0.2149212807416916
visibility: 0.9774235486984253
","x: 230.84942626953125
y: 516.6744384765625
z: 0.13953903317451477
visibility: 0.9896644353866577
","x: 253.93170166015625
y: 514.5921630859375
z: 0.2270531952381134
visibility: 0.9169495701789856
","x: 232.3069610595703
y: 524.5037231445312
z: 0.14709177613258362
visibility: 0.8741692304611206
","x: 261.71710205078125
y: 534.9639892578125
z: 0.12272827327251434
visibility: 0.9791982173919678
","x: 231.3464813232422
y: 538.9415283203125
z: 0.03284437954425812
visibility: 0.9850782155990601
",5.631873369216919,,,,,,,,,,,,,,,,,,,,,,,,,,,,,,,,,,,,,,,,,,
20,"x: 250.90567016601562
y: 243.8955535888672
z: -0.28387555480003357
visibility: 0.9999719858169556
","x: 253.28466796875
y: 239.3489990234375
z: -0.2702215015888214
visibility: 0.9999088048934937
","x: 254.79518127441406
y: 239.9891357421875
z: -0.27021482586860657
visibility: 0.9998856782913208
","x: 256.17919921875
y: 240.6914520263672
z: -0.27022820711135864
visibility: 0.9998723864555359
","x: 248.9064178466797
y: 237.9970703125
z: -0.27038121223449707
visibility: 0.9999381899833679
","x: 247.4928741455078
y: 237.79518127441406
z: -0.2704083025455475
visibility: 0.9999350905418396
","x: 246.1616668701172
y: 237.6529541015625
z: -0.2703959345817566
visibility: 0.9999372363090515
","x: 257.86956787109375
y: 245.3626251220703
z: -0.17062555253505707
visibility: 0.9995846748352051
","x: 243.68966674804688
y: 242.18161010742188
z: -0.1805216372013092
visibility: 0.9999085068702698
","x: 253.75314331054688
y: 253.31971740722656
z: -0.24727126955986023
visibility: 0.9999112486839294
","x: 247.4897003173828
y: 251.52783203125
z: -0.24812932312488556
visibility: 0.999961256980896
","x: 268.5286560058594
y: 286.0859375
z: -0.08791288733482361
visibility: 0.9997528791427612
","x: 228.15780639648438
y: 280.6478576660156
z: -0.10302291810512543
visibility: 0.9999470710754395
","x: 279.03594970703125
y: 318.5289306640625
z: -0.019270362332463264
visibility: 0.818126916885376
","x: 214.10389709472656
y: 321.48114013671875
z: -0.07143629342317581
visibility: 0.9954848885536194
","x: 283.0906066894531
y: 348.32879638671875
z: -0.11086051166057587
visibility: 0.8096231818199158
","x: 224.59982299804688
y: 340.2639465332031
z: -0.13772544264793396
visibility: 0.9741507172584534
","x: 283.83612060546875
y: 361.13165283203125
z: -0.13921840488910675
visibility: 0.7482481598854065
","x: 226.3178253173828
y: 349.579833984375
z: -0.1621059626340866
visibility: 0.933707594871521
","x: 281.43475341796875
y: 360.42987060546875
z: -0.16894109547138214
visibility: 0.761299729347229
","x: 228.30645751953125
y: 345.77752685546875
z: -0.1812831461429596
visibility: 0.933692991733551
","x: 280.3307800292969
y: 355.66290283203125
z: -0.12533007562160492
visibility: 0.7418164014816284
","x: 228.163330078125
y: 342.5467529296875
z: -0.14589065313339233
visibility: 0.9163085222244263
","x: 258.1840515136719
y: 381.1435241699219
z: 0.006291775964200497
visibility: 0.9991726279258728
","x: 234.63047790527344
y: 379.2156677246094
z: -0.006315356586128473
visibility: 0.9997355341911316
","x: 258.87298583984375
y: 451.788818359375
z: 0.03455762565135956
visibility: 0.9740833640098572
","x: 233.5809783935547
y: 449.84423828125
z: 0.004983174614608288
visibility: 0.9933255910873413
","x: 257.2055969238281
y: 507.94696044921875
z: 0.2149212807416916
visibility: 0.9774235486984253
","x: 230.84942626953125
y: 516.6744384765625
z: 0.13953903317451477
visibility: 0.9896644353866577
","x: 253.93170166015625
y: 514.5921630859375
z: 0.2270531952381134
visibility: 0.9169495701789856
","x: 232.3069610595703
y: 524.5037231445312
z: 0.14709177613258362
visibility: 0.8741692304611206
","x: 261.71710205078125
y: 534.9639892578125
z: 0.12272827327251434
visibility: 0.9791982173919678
","x: 231.3464813232422
y: 538.9415283203125
z: 0.03284437954425812
visibility: 0.9850782155990601
",5.631873369216919,,,,,,,,,,,,,,,,,,,,,,,,,,,,,,,,,,,,,,,,,,
21,"x: 251.10292053222656
y: 243.92214965820312
z: -0.2468780279159546
visibility: 0.9999733567237854
","x: 253.59060668945312
y: 239.14801025390625
z: -0.23522670567035675
visibility: 0.9999127388000488
","x: 255.069580078125
y: 239.5840606689453
z: -0.23522436618804932
visibility: 0.9998915195465088
","x: 256.3841552734375
y: 240.1173553466797
z: -0.23521287739276886
visibility: 0.9998794198036194
","x: 249.15798950195312
y: 238.53082275390625
z: -0.23455150425434113
visibility: 0.9999399185180664
","x: 247.71119689941406
y: 238.52178955078125
z: -0.23456820845603943
visibility: 0.9999367594718933
","x: 246.3246612548828
y: 238.60940551757812
z: -0.23453745245933533
visibility: 0.9999387264251709
","x: 258.48822021484375
y: 245.07211303710938
z: -0.16781319677829742
visibility: 0.9996137022972107
","x: 243.99993896484375
y: 243.6427001953125
z: -0.146663099527359
visibility: 0.9999087452888489
","x: 254.2193145751953
y: 253.1900634765625
z: -0.21312499046325684
visibility: 0.9999173283576965
","x: 247.8532257080078
y: 252.12710571289062
z: -0.21260447800159454
visibility: 0.9999625086784363
","x: 269.96160888671875
y: 285.8701171875
z: -0.07390223443508148
visibility: 0.9997745156288147
","x: 229.97821044921875
y: 282.18817138671875
z: -0.06463836133480072
visibility: 0.9999463558197021
","x: 280.0716857910156
