uscmakers/ReverseChoreography/data/10_whisper_boombox_cartel.csv
,NOSE,LEFT_EYE_INNER,LEFT_EYE,LEFT_EYE_OUTER,RIGHT_EYE_INNER,RIGHT_EYE,RIGHT_EYE_OUTER,LEFT_EAR,RIGHT_EAR,MOUTH_LEFT,MOUTH_RIGHT,LEFT_SHOULDER,RIGHT_SHOULDER,LEFT_ELBOW,RIGHT_ELBOW,LEFT_WRIST,RIGHT_WRIST,LEFT_PINKY,RIGHT_PINKY,LEFT_INDEX,RIGHT_INDEX,LEFT_THUMB,RIGHT_THUMB,LEFT_HIP,RIGHT_HIP,LEFT_KNEE,RIGHT_KNEE,LEFT_ANKLE,RIGHT_ANKLE,LEFT_HEEL,RIGHT_HEEL,LEFT_FOOT_INDEX,RIGHT_FOOT_INDEX,TIMESTAMP,WRIST2,THUMB_CPC2,THUMB_MCP2,THUMB_IP2,THUMB_TIP2,INDEX_FINGER_MCP2,INDEX_FINGER_PIP2,INDEX_FINGER_DIP2,INDEX_FINGER_TIP2,MIDDLE_FINGER_MCP2,MIDDLE_FINGER_PIP2,MIDDLE_FINGER_DIP2,MIDDLE_FINGER_TIP2,RING_FINGER_PIP2,RING_FINGER_DIP2,RING_FINGER_TIP2,RING_FINGER_MCP2,PINKY_MCP2,PINKY_PIP2,PINKY_DIP2,PINKY_TIP2,WRIST,THUMB_CPC,THUMB_MCP,THUMB_IP,THUMB_TIP,INDEX_FINGER_MCP,INDEX_FINGER_PIP,INDEX_FINGER_DIP,INDEX_FINGER_TIP,MIDDLE_FINGER_MCP,MIDDLE_FINGER_PIP,MIDDLE_FINGER_DIP,MIDDLE_FINGER_TIP,RING_FINGER_PIP,RING_FINGER_DIP,RING_FINGER_TIP,RING_FINGER_MCP,PINKY_MCP,PINKY_PIP,PINKY_DIP,PINKY_TIP
0,"x: 288.50885009765625
y: 257.1417541503906
z: -0.2862941026687622
visibility: 0.9999325275421143
","x: 289.92449951171875
y: 252.10580444335938
z: -0.2768028676509857
visibility: 0.9997437596321106
","x: 290.6927490234375
y: 252.04627990722656
z: -0.27676597237586975
visibility: 0.9997566342353821
","x: 291.4981689453125
y: 251.9353485107422
z: -0.2767968475818634
visibility: 0.9997759461402893
","x: 287.7820129394531
y: 251.77146911621094
z: -0.27444911003112793
visibility: 0.9997442364692688
","x: 286.989501953125
y: 251.54144287109375
z: -0.27451688051223755
visibility: 0.9997362494468689
","x: 286.1386413574219
y: 251.27926635742188
z: -0.2745172083377838
visibility: 0.9997513890266418
","x: 292.7213439941406
y: 253.42742919921875
z: -0.19501787424087524
visibility: 0.9997410178184509
","x: 283.7952880859375
y: 253.12216186523438
z: -0.1833329200744629
visibility: 0.9992895126342773
","x: 289.58154296875
y: 263.4239501953125
z: -0.25343966484069824
visibility: 0.9999033212661743
","x: 286.6817321777344
y: 263.0041809082031
z: -0.25036734342575073
visibility: 0.9998562335968018
","x: 304.83709716796875
y: 284.6436767578125
z: -0.14697811007499695
visibility: 0.9999852180480957
","x: 273.68536376953125
y: 288.96484375
z: -0.08675964921712875
visibility: 0.9998964071273804
","x: 317.77490234375
y: 319.65081787109375
z: -0.13618838787078857
visibility: 0.9981139898300171
","x: 267.58123779296875
y: 326.448486328125
z: -0.0708947479724884
visibility: 0.9495559334754944
","x: 315.8179626464844
y: 354.0141296386719
z: -0.22146740555763245
visibility: 0.9909355044364929
","x: 269.0093994140625
y: 353.11590576171875
z: -0.17503221333026886
visibility: 0.9561054110527039
","x: 315.4172058105469
y: 364.4987487792969
z: -0.2527012825012207
visibility: 0.9765517711639404
","x: 269.4518127441406
y: 364.1910095214844
z: -0.20136961340904236
visibility: 0.9239776134490967
","x: 312.9276428222656
y: 361.80230712890625
z: -0.2723499834537506
visibility: 0.9779350161552429
","x: 272.14794921875
y: 361.12872314453125
z: -0.22562094032764435
visibility: 0.9279758930206299
","x: 312.41278076171875
y: 358.0019836425781
z: -0.23031413555145264
visibility: 0.9679391384124756
","x: 272.85748291015625
y: 356.90679931640625
z: -0.18663613498210907
visibility: 0.9114468693733215
","x: 300.3480529785156
y: 363.0372619628906
z: -0.03480394557118416
visibility: 0.9996888637542725
","x: 281.0411682128906
y: 367.3025207519531
z: 0.03477111831307411
visibility: 0.9996496438980103
","x: 298.3773498535156
y: 431.9081115722656
z: -0.10594837367534637
visibility: 0.9943684935569763
","x: 283.9879455566406
y: 433.222412109375
z: 0.02378985658288002
visibility: 0.9602324366569519
","x: 305.72100830078125
y: 495.0787353515625
z: -0.01639365963637829
visibility: 0.9948227405548096
","x: 294.2778015136719
y: 495.6410217285156
z: 0.12443754822015762
visibility: 0.9845644235610962
","x: 307.0328369140625
y: 501.51556396484375
z: -0.013246062211692333
visibility: 0.8766335248947144
","x: 298.18109130859375
y: 502.3255920410156
z: 0.1277705281972885
visibility: 0.9295841455459595
","x: 304.7975769042969
y: 522.8402099609375
z: -0.11519934982061386
visibility: 0.9913984537124634
","x: 287.4055480957031
y: 519.0068969726562
z: 0.040432270616292953
visibility: 0.9799278974533081
",3.5811634063720703,,,,,,,,,,,,,,,,,,,,,,,,,,,,,,,,,,,,,,,,,,
1,"x: 288.50885009765625
y: 257.1417541503906
z: -0.2862941026687622
visibility: 0.9999325275421143
","x: 289.92449951171875
y: 252.10580444335938
z: -0.2768028676509857
visibility: 0.9997437596321106
","x: 290.6927490234375
y: 252.04627990722656
z: -0.27676597237586975
visibility: 0.9997566342353821
","x: 291.4981689453125
y: 251.9353485107422
z: -0.2767968475818634
visibility: 0.9997759461402893
","x: 287.7820129394531
y: 251.77146911621094
z: -0.27444911003112793
visibility: 0.9997442364692688
","x: 286.989501953125
y: 251.54144287109375
z: -0.27451688051223755
visibility: 0.9997362494468689
","x: 286.1386413574219
y: 251.27926635742188
z: -0.2745172083377838
visibility: 0.9997513890266418
","x: 292.7213439941406
y: 253.42742919921875
z: -0.19501787424087524
visibility: 0.9997410178184509
","x: 283.7952880859375
y: 253.12216186523438
z: -0.1833329200744629
visibility: 0.9992895126342773
","x: 289.58154296875
y: 263.4239501953125
z: -0.25343966484069824
visibility: 0.9999033212661743
","x: 286.6817321777344
y: 263.0041809082031
z: -0.25036734342575073
visibility: 0.9998562335968018
","x: 304.83709716796875
y: 284.6436767578125
z: -0.14697811007499695
visibility: 0.9999852180480957
","x: 273.68536376953125
y: 288.96484375
z: -0.08675964921712875
visibility: 0.9998964071273804
","x: 317.77490234375
y: 319.65081787109375
z: -0.13618838787078857
visibility: 0.9981139898300171
","x: 267.58123779296875
y: 326.448486328125
z: -0.0708947479724884
visibility: 0.9495559334754944
","x: 315.8179626464844
y: 354.0141296386719
z: -0.22146740555763245
visibility: 0.9909355044364929
","x: 269.0093994140625
y: 353.11590576171875
z: -0.17503221333026886
visibility: 0.9561054110527039
","x: 315.4172058105469
y: 364.4987487792969
z: -0.2527012825012207
visibility: 0.9765517711639404
","x: 269.4518127441406
y: 364.1910095214844
z: -0.20136961340904236
visibility: 0.9239776134490967
","x: 312.9276428222656
y: 361.80230712890625
z: -0.2723499834537506
visibility: 0.9779350161552429
","x: 272.14794921875
y: 361.12872314453125
z: -0.22562094032764435
visibility: 0.9279758930206299
","x: 312.41278076171875
y: 358.0019836425781
z: -0.23031413555145264
visibility: 0.9679391384124756
","x: 272.85748291015625
y: 356.90679931640625
z: -0.18663613498210907
visibility: 0.9114468693733215
","x: 300.3480529785156
y: 363.0372619628906
z: -0.03480394557118416
visibility: 0.9996888637542725
","x: 281.0411682128906
y: 367.3025207519531
z: 0.03477111831307411
visibility: 0.9996496438980103
","x: 298.3773498535156
y: 431.9081115722656
z: -0.10594837367534637
visibility: 0.9943684935569763
","x: 283.9879455566406
y: 433.222412109375
z: 0.02378985658288002
visibility: 0.9602324366569519
","x: 305.72100830078125
y: 495.0787353515625
z: -0.01639365963637829
visibility: 0.9948227405548096
","x: 294.2778015136719
y: 495.6410217285156
z: 0.12443754822015762
visibility: 0.9845644235610962
","x: 307.0328369140625
y: 501.51556396484375
z: -0.013246062211692333
visibility: 0.8766335248947144
","x: 298.18109130859375
y: 502.3255920410156
z: 0.1277705281972885
visibility: 0.9295841455459595
","x: 304.7975769042969
y: 522.8402099609375
z: -0.11519934982061386
visibility: 0.9913984537124634
","x: 287.4055480957031
y: 519.0068969726562
z: 0.040432270616292953
visibility: 0.9799278974533081
",3.5811634063720703,,,,,,,,,,,,,,,,,,,,,,,,,,,,,,,,,,,,,,,,,,
2,"x: 289.1342468261719
y: 254.88983154296875
z: -0.2158924639225006
visibility: 0.9999391436576843
","x: 290.84814453125
y: 249.2747344970703
z: -0.20388098061084747
visibility: 0.9997689723968506
","x: 291.79156494140625
y: 249.1996612548828
z: -0.20390522480010986
visibility: 0.9997805953025818
","x: 292.76123046875
y: 249.14773559570312
z: -0.20391039550304413
visibility: 0.9997979998588562
","x: 288.1672058105469
y: 249.38421630859375
z: -0.19842059910297394
visibility: 0.9997690916061401
","x: 287.24066162109375
y: 249.38092041015625
z: -0.19841818511486053
visibility: 0.999761700630188
","x: 286.3049011230469
y: 249.36160278320312
z: -0.19844375550746918
visibility: 0.9997753500938416
","x: 294.31829833984375
y: 251.86097717285156
z: -0.12137661129236221
visibility: 0.9997661709785461
","x: 283.96539306640625
y: 251.99795532226562
z: -0.09700991213321686
visibility: 0.9993599057197571
","x: 290.6695251464844
y: 261.4979248046875
z: -0.18467387557029724
visibility: 0.9999129176139832
","x: 287.00567626953125
y: 261.836669921875
z: -0.17781169712543488
visibility: 0.9998704791069031
","x: 307.23431396484375
y: 284.6387634277344
z: -0.0870586633682251
visibility: 0.9999866485595703
","x: 273.9367370605469
y: 287.8939514160156
z: -0.00633610924705863
visibility: 0.9999063611030579
","x: 318.4449462890625
y: 326.197998046875
z: -0.17519503831863403
visibility: 0.9981825947761536
","x: 267.5694580078125
y: 326.40631103515625
z: 0.0715206041932106
visibility: 0.953069806098938
","x: 311.8721618652344
y: 319.9758605957031
z: -0.38098031282424927
visibility: 0.9917636513710022
","x: 261.69598388671875
y: 358.80108642578125
z: 0.004420376382768154
visibility: 0.959230899810791
","x: 307.4195861816406
y: 318.599609375
z: -0.4200899600982666
visibility: 0.9786599278450012
","x: 259.7915954589844
y: 370.99444580078125
z: -0.010314106941223145
visibility: 0.9289430975914001
","x: 305.3985900878906
y: 308.53997802734375
z: -0.4233810007572174
visibility: 0.9798966646194458
","x: 260.7953186035156
y: 370.4284362792969
z: -0.03790283203125
visibility: 0.9326099753379822
","x: 306.5525817871094
y: 308.61688232421875
z: -0.38489529490470886
visibility: 0.9705954790115356
","x: 262.07745361328125
y: 366.9372863769531
z: -0.00746864452958107
visibility: 0.9168956875801086
","x: 300.4896545410156
y: 373.48779296875
z: -0.021990256384015083
visibility: 0.9997184872627258
","x: 279.9580383300781
y: 371.03143310546875
z: 0.021905530244112015
visibility: 0.9996837973594666
","x: 297.2079162597656
y: 445.8285827636719
z: -0.05452696233987808
visibility: 0.9943264722824097
","x: 267.6012878417969
y: 428.66455078125
z: -0.2152702361345291
visibility: 0.9641302824020386
","x: 296.1885070800781
y: 506.81219482421875
z: 0.11554907262325287
visibility: 0.9948210120201111
","x: 275.7444152832031
y: 469.8928527832031
z: 0.0295625738799572
visibility: 0.9838935136795044
","x: 295.1994323730469
y: 516.94775390625
z: 0.12761828303337097
visibility: 0.8814910650253296
","x: 279.8827209472656
y: 472.9664611816406
z: 0.05106016993522644
visibility: 0.9251116514205933
","x: 297.6468505859375
y: 529.1031494140625
z: 0.022247929126024246
visibility: 0.9913724064826965
","x: 272.5157775878906
y: 504.64251708984375
z: -0.019084850326180458
visibility: 0.9799293279647827
",4.3073296546936035,"x: 309.3673400878906
y: 310.1918640136719
z: 0.0
","x: 305.9277648925781
y: 305.5492858886719
z: 0.0010508284904062748
","x: 301.89520263671875
y: 303.5203552246094
z: 0.00027578772278502584
","x: 298.73321533203125
y: 303.02716064453125
z: -0.0008174270042218268
","x: 296.36572265625
y: 302.9510803222656
z: -0.0018339374801144004
","x: 300.6844177246094
y: 304.33544921875
z: -0.0029129700269550085
","x: 296.15380859375
y: 304.5718078613281
z: -0.004776705056428909
","x: 294.067626953125
y: 305.6053466796875
z: -0.004920172039419413
","x: 292.8000793457031
y: 306.59674072265625
z: -0.004770403727889061
","x: 301.2579345703125
y: 308.0864562988281
z: -0.004697556607425213
","x: 296.5364990234375
y: 309.6719970703125
z: -0.006371315568685532
","x: 294.6573791503906
y: 310.90081787109375
z: -0.005750102922320366
","x: 293.7384033203125
y: 311.98419189453125
z: -0.005233597010374069
","x: 302.1998291015625
y: 312.03302001953125
z: -0.006253265310078859
","x: 297.96429443359375
y: 314.34063720703125
z: -0.00786323007196188
","x: 296.1124267578125
y: 315.5795593261719
z: -0.006951367016881704
","x: 295.1141052246094
y: 316.2957763671875
z: -0.006258080247789621
","x: 303.3499450683594
y: 315.7221374511719
z: -0.007747700437903404
","x: 300.26812744140625
y: 318.05438232421875
z: -0.009134036488831043
","x: 298.9399108886719
y: 318.9771728515625
z: -0.008569848723709583
","x: 298.2077941894531
y: 319.4404296875
z: -0.007954098284244537
",,,,,,,,,,,,,,,,,,,,,
3,"x: 289.1342468261719
y: 254.88983154296875
z: -0.2158924639225006
visibility: 0.9999391436576843
","x: 290.84814453125
y: 249.2747344970703
z: -0.20388098061084747
visibility: 0.9997689723968506
","x: 291.79156494140625
y: 249.1996612548828
z: -0.20390522480010986
visibility: 0.9997805953025818
","x: 292.76123046875
y: 249.14773559570312
z: -0.20391039550304413
visibility: 0.9997979998588562
","x: 288.1672058105469
y: 249.38421630859375
z: -0.19842059910297394
visibility: 0.9997690916061401
","x: 287.24066162109375
y: 249.38092041015625
z: -0.19841818511486053
visibility: 0.999761700630188
","x: 286.3049011230469
y: 249.36160278320312
z: -0.19844375550746918
visibility: 0.9997753500938416
","x: 294.31829833984375
y: 251.86097717285156
z: -0.12137661129236221
visibility: 0.9997661709785461
","x: 283.96539306640625
y: 251.99795532226562
z: -0.09700991213321686
visibility: 0.9993599057197571
","x: 290.6695251464844
y: 261.4979248046875
z: -0.18467387557029724
visibility: 0.9999129176139832
","x: 287.00567626953125
y: 261.836669921875
z: -0.17781169712543488
visibility: 0.9998704791069031
","x: 307.23431396484375
y: 284.6387634277344
z: -0.0870586633682251
visibility: 0.9999866485595703
","x: 273.9367370605469
y: 287.8939514160156
z: -0.00633610924705863
visibility: 0.9999063611030579
","x: 318.4449462890625
y: 326.197998046875
z: -0.17519503831863403
visibility: 0.9981825947761536
","x: 267.5694580078125
y: 326.40631103515625
z: 0.0715206041932106
visibility: 0.953069806098938
","x: 311.8721618652344
y: 319.9758605957031
z: -0.38098031282424927
visibility: 0.9917636513710022
","x: 261.69598388671875
y: 358.80108642578125
z: 0.004420376382768154
visibility: 0.959230899810791
","x: 307.4195861816406
y: 318.599609375
z: -0.4200899600982666
visibility: 0.9786599278450012
","x: 259.7915954589844
y: 370.99444580078125
z: -0.010314106941223145
visibility: 0.9289430975914001
","x: 305.3985900878906
y: 308.53997802734375
z: -0.4233810007572174
visibility: 0.9798966646194458
","x: 260.7953186035156
y: 370.4284362792969
z: -0.03790283203125
visibility: 0.9326099753379822
","x: 306.5525817871094
y: 308.61688232421875
z: -0.38489529490470886
visibility: 0.9705954790115356
","x: 262.07745361328125
y: 366.9372863769531
z: -0.00746864452958107
visibility: 0.9168956875801086
","x: 300.4896545410156
y: 373.48779296875
z: -0.021990256384015083
visibility: 0.9997184872627258
","x: 279.9580383300781
y: 371.03143310546875
z: 0.021905530244112015
visibility: 0.9996837973594666
","x: 297.2079162597656
y: 445.8285827636719
z: -0.05452696233987808
visibility: 0.9943264722824097
","x: 267.6012878417969
y: 428.66455078125
z: -0.2152702361345291
visibility: 0.9641302824020386
","x: 296.1885070800781
y: 506.81219482421875
z: 0.11554907262325287
visibility: 0.9948210120201111
","x: 275.7444152832031
y: 469.8928527832031
z: 0.0295625738799572
visibility: 0.9838935136795044
","x: 295.1994323730469
y: 516.94775390625
z: 0.12761828303337097
visibility: 0.8814910650253296
","x: 279.8827209472656
y: 472.9664611816406
z: 0.05106016993522644
visibility: 0.9251116514205933
","x: 297.6468505859375
y: 529.1031494140625
z: 0.022247929126024246
visibility: 0.9913724064826965
","x: 272.5157775878906
y: 504.64251708984375
z: -0.019084850326180458
visibility: 0.9799293279647827
",4.3073296546936035,"x: 309.3673400878906
y: 310.1918640136719
z: 0.0
","x: 305.9277648925781
y: 305.5492858886719
z: 0.0010508284904062748
","x: 301.89520263671875
y: 303.5203552246094
z: 0.00027578772278502584
","x: 298.73321533203125
y: 303.02716064453125
z: -0.0008174270042218268
","x: 296.36572265625
y: 302.9510803222656
z: -0.0018339374801144004
","x: 300.6844177246094
y: 304.33544921875
z: -0.0029129700269550085
","x: 296.15380859375
y: 304.5718078613281
z: -0.004776705056428909
","x: 294.067626953125
y: 305.6053466796875
z: -0.004920172039419413
","x: 292.8000793457031
y: 306.59674072265625
z: -0.004770403727889061
","x: 301.2579345703125
y: 308.0864562988281
z: -0.004697556607425213
","x: 296.5364990234375
y: 309.6719970703125
z: -0.006371315568685532
","x: 294.6573791503906
y: 310.90081787109375
z: -0.005750102922320366
","x: 293.7384033203125
y: 311.98419189453125
z: -0.005233597010374069
","x: 302.1998291015625
y: 312.03302001953125
z: -0.006253265310078859
","x: 297.96429443359375
y: 314.34063720703125
z: -0.00786323007196188
","x: 296.1124267578125
y: 315.5795593261719
z: -0.006951367016881704
","x: 295.1141052246094
y: 316.2957763671875
z: -0.006258080247789621
","x: 303.3499450683594
y: 315.7221374511719
z: -0.007747700437903404
","x: 300.26812744140625
y: 318.05438232421875
z: -0.009134036488831043
","x: 298.9399108886719
y: 318.9771728515625
z: -0.008569848723709583
","x: 298.2077941894531
y: 319.4404296875
z: -0.007954098284244537
",,,,,,,,,,,,,,,,,,,,,
4,"x: 289.1342468261719
y: 254.88983154296875
z: -0.2158924639225006
visibility: 0.9999391436576843
","x: 290.84814453125
y: 249.2747344970703
z: -0.20388098061084747
visibility: 0.9997689723968506
","x: 291.79156494140625
y: 249.1996612548828
z: -0.20390522480010986
visibility: 0.9997805953025818
","x: 292.76123046875
y: 249.14773559570312
z: -0.20391039550304413
visibility: 0.9997979998588562
","x: 288.1672058105469
y: 249.38421630859375
z: -0.19842059910297394
visibility: 0.9997690916061401
","x: 287.24066162109375
y: 249.38092041015625
z: -0.19841818511486053
visibility: 0.999761700630188
","x: 286.3049011230469
y: 249.36160278320312
z: -0.19844375550746918
visibility: 0.9997753500938416
","x: 294.31829833984375
y: 251.86097717285156
z: -0.12137661129236221
visibility: 0.9997661709785461
","x: 283.96539306640625
y: 251.99795532226562
z: -0.09700991213321686
visibility: 0.9993599057197571
","x: 290.6695251464844
y: 261.4979248046875
z: -0.18467387557029724
visibility: 0.9999129176139832
","x: 287.00567626953125
y: 261.836669921875
z: -0.17781169712543488
visibility: 0.9998704791069031
","x: 307.23431396484375
y: 284.6387634277344
z: -0.0870586633682251
visibility: 0.9999866485595703
","x: 273.9367370605469
y: 287.8939514160156
z: -0.00633610924705863
visibility: 0.9999063611030579
","x: 318.4449462890625
y: 326.197998046875
z: -0.17519503831863403
visibility: 0.9981825947761536
","x: 267.5694580078125
y: 326.40631103515625
z: 0.0715206041932106
visibility: 0.953069806098938
","x: 311.8721618652344
y: 319.9758605957031
z: -0.38098031282424927
visibility: 0.9917636513710022
","x: 261.69598388671875
y: 358.80108642578125
z: 0.004420376382768154
visibility: 0.959230899810791
","x: 307.4195861816406
y: 318.599609375
z: -0.4200899600982666
visibility: 0.9786599278450012
","x: 259.7915954589844
y: 370.99444580078125
z: -0.010314106941223145
visibility: 0.9289430975914001
","x: 305.3985900878906
y: 308.53997802734375
z: -0.4233810007572174
visibility: 0.9798966646194458
","x: 260.7953186035156
y: 370.4284362792969
z: -0.03790283203125
visibility: 0.9326099753379822
","x: 306.5525817871094
y: 308.61688232421875
z: -0.38489529490470886
visibility: 0.9705954790115356
","x: 262.07745361328125
y: 366.9372863769531
z: -0.00746864452958107
visibility: 0.9168956875801086
","x: 300.4896545410156
y: 373.48779296875
z: -0.021990256384015083
visibility: 0.9997184872627258
","x: 279.9580383300781
y: 371.03143310546875
z: 0.021905530244112015
visibility: 0.9996837973594666
","x: 297.2079162597656
y: 445.8285827636719
z: -0.05452696233987808
visibility: 0.9943264722824097
","x: 267.6012878417969
y: 428.66455078125
z: -0.2152702361345291
visibility: 0.9641302824020386
","x: 296.1885070800781
y: 506.81219482421875
z: 0.11554907262325287
visibility: 0.9948210120201111
","x: 275.7444152832031
y: 469.8928527832031
z: 0.0295625738799572
visibility: 0.9838935136795044
","x: 295.1994323730469
y: 516.94775390625
z: 0.12761828303337097
visibility: 0.8814910650253296
","x: 279.8827209472656
y: 472.9664611816406
z: 0.05106016993522644
visibility: 0.9251116514205933
","x: 297.6468505859375
y: 529.1031494140625
z: 0.022247929126024246
visibility: 0.9913724064826965
","x: 272.5157775878906
y: 504.64251708984375
z: -0.019084850326180458
visibility: 0.9799293279647827
",4.3073296546936035,"x: 309.3673400878906
y: 310.1918640136719
z: 0.0
","x: 305.9277648925781
y: 305.5492858886719
z: 0.0010508284904062748
","x: 301.89520263671875
y: 303.5203552246094
z: 0.00027578772278502584
","x: 298.73321533203125
y: 303.02716064453125
z: -0.0008174270042218268
","x: 296.36572265625
y: 302.9510803222656
z: -0.0018339374801144004
","x: 300.6844177246094
y: 304.33544921875
z: -0.0029129700269550085
","x: 296.15380859375
y: 304.5718078613281
z: -0.004776705056428909
","x: 294.067626953125
y: 305.6053466796875
z: -0.004920172039419413
","x: 292.8000793457031
y: 306.59674072265625
z: -0.004770403727889061
","x: 301.2579345703125
y: 308.0864562988281
z: -0.004697556607425213
","x: 296.5364990234375
y: 309.6719970703125
z: -0.006371315568685532
","x: 294.6573791503906
y: 310.90081787109375
z: -0.005750102922320366
","x: 293.7384033203125
y: 311.98419189453125
z: -0.005233597010374069
","x: 302.1998291015625
y: 312.03302001953125
z: -0.006253265310078859
","x: 297.96429443359375
y: 314.34063720703125
z: -0.00786323007196188
","x: 296.1124267578125
y: 315.5795593261719
z: -0.006951367016881704
","x: 295.1141052246094
y: 316.2957763671875
z: -0.006258080247789621
","x: 303.3499450683594
y: 315.7221374511719
z: -0.007747700437903404
","x: 300.26812744140625
y: 318.05438232421875
z: -0.009134036488831043
","x: 298.9399108886719
y: 318.9771728515625
z: -0.008569848723709583
","x: 298.2077941894531
y: 319.4404296875
z: -0.007954098284244537
",,,,,,,,,,,,,,,,,,,,,
5,"x: 288.7437744140625
y: 252.44952392578125
z: -0.3012998700141907
visibility: 0.9999402761459351
","x: 290.7726745605469
y: 246.82395935058594
z: -0.2886814475059509
visibility: 0.999773383140564
","x: 291.7786560058594
y: 247.0070037841797
z: -0.2887018918991089
visibility: 0.9997891783714294
","x: 292.7112121582031
y: 247.21067810058594
z: -0.2887355089187622
visibility: 0.9998020529747009
","x: 287.73541259765625
y: 246.55758666992188
z: -0.2851538360118866
visibility: 0.9997597336769104
","x: 286.6876220703125
y: 246.53042602539062
z: -0.2851563096046448
visibility: 0.9997528791427612
","x: 285.64068603515625
y: 246.4716339111328
z: -0.2852078378200531
visibility: 0.9997549057006836
","x: 294.2119445800781
y: 251.22988891601562
z: -0.19138504564762115
visibility: 0.9997643232345581
","x: 283.571533203125
y: 250.31944274902344
z: -0.17461839318275452
visibility: 0.9993962049484253
","x: 290.5292053222656
y: 259.8625793457031
z: -0.26416832208633423
visibility: 0.9999181032180786
","x: 286.2178649902344
y: 259.9295959472656
z: -0.25974711775779724
visibility: 0.9998778700828552
","x: 305.81341552734375
y: 283.985107421875
z: -0.12635818123817444
visibility: 0.9999870657920837
","x: 273.30224609375
y: 284.82623291015625
z: -0.06756725907325745
visibility: 0.9999116063117981
","x: 314.2364807128906
y: 328.87506103515625
z: -0.2487095594406128
visibility: 0.9979418516159058
","x: 265.7042541503906
y: 325.04315185546875
z: -0.0023614405654370785
visibility: 0.9536632299423218
","x: 308.14605712890625
y: 299.94976806640625
z: -0.4660041928291321
visibility: 0.9922186732292175
","x: 259.6978454589844
y: 358.1531982421875
z: -0.05899921804666519
visibility: 0.9572613835334778
","x: 303.6147766113281
y: 291.79437255859375
z: -0.5085752010345459
visibility: 0.9798182845115662
","x: 258.15966796875
y: 370.12713623046875
z: -0.07295436412096024
visibility: 0.924152135848999
","x: 303.01123046875
y: 286.160888671875
z: -0.51136314868927
visibility: 0.9809155464172363
","x: 259.1354675292969
y: 369.7547607421875
z: -0.10022672265768051
visibility: 0.9277992844581604
","x: 303.8806457519531
y: 289.1506652832031
z: -0.4714135527610779
visibility: 0.9715561270713806
","x: 260.3791198730469
y: 366.2330627441406
z: -0.07047398388385773
visibility: 0.9114677906036377
","x: 298.5846252441406
y: 372.1700439453125
z: -0.014535258524119854
visibility: 0.9997401237487793
","x: 276.8238525390625
y: 370.6945495605469
z: 0.014500239863991737
visibility: 0.9997063875198364
","x: 295.4469299316406
y: 445.40667724609375
z: -0.043706685304641724
visibility: 0.9944754242897034
","x: 265.41656494140625
y: 431.6910095214844
z: -0.07968241721391678
visibility: 0.9675273895263672
","x: 293.65069580078125
y: 506.29510498046875
z: 0.14021742343902588
visibility: 0.9949208498001099
","x: 261.2684326171875
y: 478.3338928222656
z: 0.15004104375839233
visibility: 0.9848814606666565
","x: 292.1124572753906
y: 514.8936767578125
z: 0.15203677117824554
visibility: 0.8815554976463318
","x: 264.13995361328125
y: 483.4925537109375
z: 0.16834594309329987
visibility: 0.9247514009475708
","x: 296.03399658203125
y: 529.1676025390625
z: 0.033513665199279785
visibility: 0.9914095401763916
","x: 255.1228485107422
y: 508.3352355957031
z: 0.06984080374240875
visibility: 0.981141984462738
",4.445170164108276,,,,,,,,,,,,,,,,,,,,,,,,,,,,,,,,,,,,,,,,,,
6,"x: 288.7437744140625
y: 252.44952392578125
z: -0.3012998700141907
visibility: 0.9999402761459351
","x: 290.7726745605469
y: 246.82395935058594
z: -0.2886814475059509
visibility: 0.999773383140564
","x: 291.7786560058594
y: 247.0070037841797
z: -0.2887018918991089
visibility: 0.9997891783714294
","x: 292.7112121582031
y: 247.21067810058594
z: -0.2887355089187622
visibility: 0.9998020529747009
","x: 287.73541259765625
y: 246.55758666992188
z: -0.2851538360118866
visibility: 0.9997597336769104
","x: 286.6876220703125
y: 246.53042602539062
z: -0.2851563096046448
visibility: 0.9997528791427612
","x: 285.64068603515625
y: 246.4716339111328
z: -0.2852078378200531
visibility: 0.9997549057006836
","x: 294.2119445800781
y: 251.22988891601562
z: -0.19138504564762115
visibility: 0.9997643232345581
","x: 283.571533203125
y: 250.31944274902344
z: -0.17461839318275452
visibility: 0.9993962049484253
","x: 290.5292053222656
y: 259.8625793457031
z: -0.26416832208633423
visibility: 0.9999181032180786
","x: 286.2178649902344
y: 259.9295959472656
z: -0.25974711775779724
visibility: 0.9998778700828552
","x: 305.81341552734375
y: 283.985107421875
z: -0.12635818123817444
visibility: 0.9999870657920837
","x: 273.30224609375
y: 284.82623291015625
z: -0.06756725907325745
visibility: 0.9999116063117981
","x: 314.2364807128906
y: 328.87506103515625
z: -0.2487095594406128
visibility: 0.9979418516159058
","x: 265.7042541503906
y: 325.04315185546875
z: -0.0023614405654370785
visibility: 0.9536632299423218
","x: 308.14605712890625
y: 299.94976806640625
z: -0.4660041928291321
visibility: 0.9922186732292175
","x: 259.6978454589844
y: 358.1531982421875
z: -0.05899921804666519
visibility: 0.9572613835334778
","x: 303.6147766113281
y: 291.79437255859375
z: -0.5085752010345459
visibility: 0.9798182845115662
","x: 258.15966796875
y: 370.12713623046875
z: -0.07295436412096024
visibility: 0.924152135848999
","x: 303.01123046875
y: 286.160888671875
z: -0.51136314868927
visibility: 0.9809155464172363
","x: 259.1354675292969
y: 369.7547607421875
z: -0.10022672265768051
visibility: 0.9277992844581604
","x: 303.8806457519531
y: 289.1506652832031
z: -0.4714135527610779
visibility: 0.9715561270713806
","x: 260.3791198730469
y: 366.2330627441406
z: -0.07047398388385773
visibility: 0.9114677906036377
","x: 298.5846252441406
y: 372.1700439453125
z: -0.014535258524119854
visibility: 0.9997401237487793
","x: 276.8238525390625
y: 370.6945495605469
z: 0.014500239863991737
visibility: 0.9997063875198364
","x: 295.4469299316406
y: 445.40667724609375
z: -0.043706685304641724
visibility: 0.9944754242897034
","x: 265.41656494140625
y: 431.6910095214844
z: -0.07968241721391678
visibility: 0.9675273895263672
","x: 293.65069580078125
y: 506.29510498046875
z: 0.14021742343902588
visibility: 0.9949208498001099
","x: 261.2684326171875
y: 478.3338928222656
z: 0.15004104375839233
visibility: 0.9848814606666565
","x: 292.1124572753906
y: 514.8936767578125
z: 0.15203677117824554
visibility: 0.8815554976463318
","x: 264.13995361328125
y: 483.4925537109375
z: 0.16834594309329987
visibility: 0.9247514009475708
","x: 296.03399658203125
y: 529.1676025390625
z: 0.033513665199279785
visibility: 0.9914095401763916
","x: 255.1228485107422
y: 508.3352355957031
z: 0.06984080374240875
visibility: 0.981141984462738
",4.445170164108276,,,,,,,,,,,,,,,,,,,,,,,,,,,,,,,,,,,,,,,,,,
7,"x: 284.8363037109375
y: 252.63134765625
z: -0.2615850269794464
visibility: 0.9999455809593201
","x: 286.9204406738281
y: 247.3344268798828
z: -0.252771258354187
visibility: 0.9997944235801697
","x: 288.1483154296875
y: 247.49319458007812
z: -0.2527812123298645
visibility: 0.9998088479042053
","x: 289.2896728515625
y: 247.65576171875
z: -0.25281932950019836
visibility: 0.999820351600647
","x: 283.4859619140625
y: 247.01577758789062
z: -0.24754956364631653
visibility: 0.9997814893722534
","x: 282.3882751464844
y: 246.96092224121094
z: -0.24754789471626282
visibility: 0.9997749328613281
","x: 281.30816650390625
y: 246.89398193359375
z: -0.2475920468568802
visibility: 0.9997763633728027
","x: 291.3227233886719
y: 251.3125762939453
z: -0.1681441366672516
visibility: 0.9997851848602295
","x: 279.8459777832031
y: 250.2470245361328
z: -0.14661920070648193
visibility: 0.9994540214538574
","x: 287.0238037109375
y: 259.95440673828125
z: -0.22803466022014618
visibility: 0.9999257922172546
","x: 282.568603515625
y: 259.4238586425781
z: -0.22201046347618103
visibility: 0.9998894929885864
","x: 303.10772705078125
y: 284.0755615234375
z: -0.1059022769331932
visibility: 0.999987781047821
","x: 268.280517578125
y: 282.49505615234375
z: -0.05664174631237984
visibility: 0.9999198913574219
","x: 309.3535461425781
y: 332.1849365234375
z: -0.1983882039785385
visibility: 0.9980038404464722
","x: 256.5264587402344
y: 323.9805908203125
z: 0.007012339774519205
visibility: 0.957794725894928
","x: 296.2593994140625
y: 308.90008544921875
z: -0.39741891622543335
visibility: 0.9929196238517761
","x: 253.37457275390625
y: 362.3647766113281
z: -0.05503252148628235
visibility: 0.960544228553772
","x: 291.197265625
y: 302.0533142089844
z: -0.43975719809532166
visibility: 0.9815906286239624
","x: 253.10440063476562
y: 376.4588928222656
z: -0.07246853411197662
visibility: 0.9290902018547058
","x: 291.99884033203125
y: 295.11700439453125
z: -0.4438154697418213
visibility: 0.9825723171234131
","x: 255.04774475097656
y: 375.9666442871094
z: -0.09559854120016098
visibility: 0.9324749112129211
","x: 293.0865478515625
y: 296.7870788574219
z: -0.4024045467376709
visibility: 0.9738577604293823
","x: 255.8763885498047
y: 371.96771240234375
z: -0.06479142606258392
visibility: 0.916804313659668
","x: 294.9483947753906
y: 371.25189208984375
z: -0.002780273323878646
visibility: 0.9997518658638
","x: 271.180419921875
y: 371.5133972167969
z: 0.002689019776880741
visibility: 0.9997280836105347
","x: 294.3747253417969
y: 446.9924621582031
z: -0.013312791474163532
visibility: 0.9946348071098328
","x: 264.3225402832031
y: 444.3873291015625
z: -0.05093147233128548
visibility: 0.9706408977508545
","x: 293.58050537109375
y: 506.8270263671875
z: 0.14786754548549652
visibility: 0.9948387145996094
","x: 252.99139404296875
y: 504.880126953125
z: 0.11818081140518188
visibility: 0.986027181148529
","x: 291.2710876464844
y: 514.7752075195312
z: 0.1588064730167389
visibility: 0.8847134709358215
","x: 252.61697387695312
y: 511.11029052734375
z: 0.12997837364673615
visibility: 0.9189372658729553
","x: 297.87451171875
y: 530.8727416992188
z: 0.0569969117641449
visibility: 0.991115152835846
","x: 250.90811157226562
y: 530.0478515625
z: 0.01131356693804264
visibility: 0.9821644425392151
",4.592957258224487,,,,,,,,,,,,,,,,,,,,,,,,,,,,,,,,,,,,,,,,,,
8,"x: 284.8363037109375
y: 252.63134765625
z: -0.2615850269794464
visibility: 0.9999455809593201
","x: 286.9204406738281
y: 247.3344268798828
z: -0.252771258354187
visibility: 0.9997944235801697
","x: 288.1483154296875
y: 247.49319458007812
z: -0.2527812123298645
visibility: 0.9998088479042053
","x: 289.2896728515625
y: 247.65576171875
z: -0.25281932950019836
visibility: 0.999820351600647
","x: 283.4859619140625
y: 247.01577758789062
z: -0.24754956364631653
visibility: 0.9997814893722534
","x: 282.3882751464844
y: 246.96092224121094
z: -0.24754789471626282
visibility: 0.9997749328613281
","x: 281.30816650390625
y: 246.89398193359375
z: -0.2475920468568802
visibility: 0.9997763633728027
","x: 291.3227233886719
y: 251.3125762939453
z: -0.1681441366672516
visibility: 0.9997851848602295
","x: 279.8459777832031
y: 250.2470245361328
z: -0.14661920070648193
visibility: 0.9994540214538574
","x: 287.0238037109375
y: 259.95440673828125
z: -0.22803466022014618
visibility: 0.9999257922172546
","x: 282.568603515625
y: 259.4238586425781
z: -0.22201046347618103
visibility: 0.9998894929885864
","x: 303.10772705078125
y: 284.0755615234375
z: -0.1059022769331932
visibility: 0.999987781047821
","x: 268.280517578125
y: 282.49505615234375
z: -0.05664174631237984
visibility: 0.9999198913574219
","x: 309.3535461425781
y: 332.1849365234375
z: -0.1983882039785385
visibility: 0.9980038404464722
","x: 256.5264587402344
y: 323.9805908203125
z: 0.007012339774519205
visibility: 0.957794725894928
","x: 296.2593994140625
y: 308.90008544921875
z: -0.39741891622543335
visibility: 0.9929196238517761
","x: 253.37457275390625
y: 362.3647766113281
z: -0.05503252148628235
visibility: 0.960544228553772
","x: 291.197265625
y: 302.0533142089844
z: -0.43975719809532166
visibility: 0.9815906286239624
","x: 253.10440063476562
y: 376.4588928222656
z: -0.07246853411197662
visibility: 0.9290902018547058
","x: 291.99884033203125
y: 295.11700439453125
z: -0.4438154697418213
visibility: 0.9825723171234131
","x: 255.04774475097656
y: 375.9666442871094
z: -0.09559854120016098
visibility: 0.9324749112129211
","x: 293.0865478515625
y: 296.7870788574219
z: -0.4024045467376709
visibility: 0.9738577604293823
","x: 255.8763885498047
y: 371.96771240234375
z: -0.06479142606258392
visibility: 0.916804313659668
","x: 294.9483947753906
y: 371.25189208984375
z: -0.002780273323878646
visibility: 0.9997518658638
","x: 271.180419921875
y: 371.5133972167969
z: 0.002689019776880741
visibility: 0.9997280836105347
","x: 294.3747253417969
y: 446.9924621582031
z: -0.013312791474163532
visibility: 0.9946348071098328
","x: 264.3225402832031
y: 444.3873291015625
z: -0.05093147233128548
visibility: 0.9706408977508545
","x: 293.58050537109375
y: 506.8270263671875
z: 0.14786754548549652
visibility: 0.9948387145996094
","x: 252.99139404296875
y: 504.880126953125
z: 0.11818081140518188
visibility: 0.986027181148529
","x: 291.2710876464844
y: 514.7752075195312
z: 0.1588064730167389
visibility: 0.8847134709358215
","x: 252.61697387695312
y: 511.11029052734375
z: 0.12997837364673615
visibility: 0.9189372658729553
","x: 297.87451171875
y: 530.8727416992188
z: 0.0569969117641449
visibility: 0.991115152835846
","x: 250.90811157226562
y: 530.0478515625
z: 0.01131356693804264
visibility: 0.9821644425392151
",4.592957258224487,,,,,,,,,,,,,,,,,,,,,,,,,,,,,,,,,,,,,,,,,,
9,"x: 281.90753173828125
y: 251.96261596679688
z: -0.2631717920303345
visibility: 0.9999507069587708
","x: 284.02227783203125
y: 246.94837951660156
z: -0.256290465593338
visibility: 0.9998142123222351
","x: 285.1982421875
y: 247.1370086669922
z: -0.2562873065471649
visibility: 0.9998272061347961
","x: 286.3099060058594
y: 247.33419799804688
z: -0.2563207149505615
visibility: 0.9998375177383423
","x: 280.5536804199219
y: 246.36253356933594
z: -0.2516668736934662
visibility: 0.99980229139328
","x: 279.45465087890625
y: 246.13690185546875
z: -0.25170594453811646
visibility: 0.9997961521148682
","x: 278.2995910644531
y: 245.92193603515625
z: -0.25173261761665344
visibility: 0.9997971653938293
","x: 288.0050048828125
y: 250.6480712890625
z: -0.16192719340324402
visibility: 0.9998054504394531
","x: 276.4181823730469
y: 248.43588256835938
z: -0.14998018741607666
visibility: 0.9995073676109314
","x: 283.3478698730469
y: 259.16168212890625
z: -0.23177304863929749
visibility: 0.9999330043792725
","x: 279.3367004394531
y: 258.0972900390625
z: -0.22726960480213165
visibility: 0.9999002814292908
","x: 298.5286865234375
y: 283.61285400390625
z: -0.10006314516067505
visibility: 0.9999886155128479
","x: 263.8635559082031
y: 280.09552001953125
z: -0.04903336241841316
visibility: 0.9999271035194397
","x: 304.5016174316406
y: 331.11138916015625
z: -0.19185799360275269
visibility: 0.9981233477592468
","x: 250.86024475097656
y: 321.1921691894531
z: 0.0185683760792017
visibility: 0.9615360498428345
","x: 290.14166259765625
y: 304.1534729003906
z: -0.4048336446285248
visibility: 0.993591845035553
","x: 249.14559936523438
y: 361.341064453125
z: -0.049609407782554626
visibility: 0.9635895490646362
","x: 284.665771484375
y: 296.5096435546875
z: -0.45003288984298706
visibility: 0.9833059906959534
","x: 249.31170654296875
y: 376.041015625
z: -0.06738206744194031
visibility: 0.9338046908378601
","x: 285.2094421386719
y: 289.68743896484375
z: -0.4517061710357666
visibility: 0.9841853976249695
","x: 251.61647033691406
y: 375.388671875
z: -0.0906606912612915
visibility: 0.9369348287582397
","x: 286.4510803222656
y: 292.1492919921875
z: -0.4087832570075989
visibility: 0.9761670231819153
","x: 252.27879333496094
y: 371.0245056152344
z: -0.05911096930503845
visibility: 0.9218644499778748
","x: 292.1954040527344
y: 370.471435546875
z: -0.004390692338347435
visibility: 0.999760091304779
","x: 268.3796081542969
y: 371.3695068359375
z: 0.004294264130294323
visibility: 0.9997441172599792
","x: 292.8312683105469
y: 446.2835693359375
z: -0.02738053724169731
visibility: 0.9949486255645752
","x: 261.63690185546875
y: 446.14190673828125
z: -0.048784591257572174
visibility: 0.973416805267334
","x: 293.4041442871094
y: 507.0164794921875
z: 0.13620270788669586
visibility: 0.9948505163192749
","x: 251.45681762695312
y: 509.10833740234375
z: 0.11740823090076447
visibility: 0.9869999289512634
","x: 291.33099365234375
y: 514.1805419921875
z: 0.14746075868606567
visibility: 0.8861951231956482
","x: 250.93423461914062
y: 515.2537841796875
z: 0.12747454643249512
visibility: 0.9133126735687256
","x: 297.9361267089844
y: 532.5176391601562
z: 0.04064440354704857
visibility: 0.9910337328910828
","x: 250.149169921875
y: 533.58984375
z: 0.01210756879299879
visibility: 0.9829596281051636
",4.685870409011841,"x: 290.85882568359375
y: 304.4341735839844
z: 0.0
","x: 290.1047058105469
y: 297.2217102050781
z: 0.0011221570894122124
","x: 288.35003662109375
y: 291.885498046875
z: 0.0006372708594426513
","x: 286.8963928222656
y: 288.82257080078125
z: -0.000325233704643324
","x: 285.7285461425781
y: 287.119140625
z: -0.0012350219767540693
","x: 285.2108459472656
y: 289.2412109375
z: -0.0008020297391340137
","x: 282.04766845703125
y: 283.56365966796875
z: -0.002276570536196232
","x: 279.91943359375
y: 280.63037109375
z: -0.0027986832428723574
","x: 278.1915283203125
y: 278.68304443359375
z: -0.00299223349429667
","x: 283.9871520996094
y: 292.32403564453125
z: -0.0025476161390542984
","x: 280.127685546875
y: 288.1771240234375
z: -0.0034587744157761335
","x: 278.0508117675781
y: 286.5111389160156
z: -0.0029476273339241743
","x: 276.4105529785156
y: 285.7842712402344
z: -0.002631810726597905
","x: 283.12615966796875
y: 296.2274169921875
z: -0.004275772720575333
","x: 279.3913879394531
y: 293.11163330078125
z: -0.005420101806521416
","x: 277.22796630859375
y: 291.441162109375
z: -0.0050151473842561245
","x: 275.57745361328125
y: 290.4822998046875
z: -0.00473567470908165
","x: 282.65142822265625
y: 300.4434814453125
z: -0.006034215912222862
","x: 279.60333251953125
y: 298.9291687011719
z: -0.007174779195338488
","x: 277.80084228515625
y: 298.03778076171875
z: -0.006929619703441858
","x: 276.3775634765625
y: 297.5976867675781
z: -0.006632099859416485
",,,,,,,,,,,,,,,,,,,,,
10,"x: 281.90753173828125
y: 251.96261596679688
z: -0.2631717920303345
visibility: 0.9999507069587708
","x: 284.02227783203125
y: 246.94837951660156
z: -0.256290465593338
visibility: 0.9998142123222351
","x: 285.1982421875
y: 247.1370086669922
z: -0.2562873065471649
visibility: 0.9998272061347961
","x: 286.3099060058594
y: 247.33419799804688
z: -0.2563207149505615
visibility: 0.9998375177383423
","x: 280.5536804199219
y: 246.36253356933594
z: -0.2516668736934662
visibility: 0.99980229139328
","x: 279.45465087890625
y: 246.13690185546875
z: -0.25170594453811646
visibility: 0.9997961521148682
","x: 278.2995910644531
y: 245.92193603515625
z: -0.25173261761665344
visibility: 0.9997971653938293
","x: 288.0050048828125
y: 250.6480712890625
z: -0.16192719340324402
visibility: 0.9998054504394531
","x: 276.4181823730469
y: 248.43588256835938
z: -0.14998018741607666
visibility: 0.9995073676109314
","x: 283.3478698730469
y: 259.16168212890625
z: -0.23177304863929749
visibility: 0.9999330043792725
","x: 279.3367004394531
y: 258.0972900390625
z: -0.22726960480213165
visibility: 0.9999002814292908
","x: 298.5286865234375
y: 283.61285400390625
z: -0.10006314516067505
visibility: 0.9999886155128479
","x: 263.8635559082031
y: 280.09552001953125
z: -0.04903336241841316
visibility: 0.9999271035194397
","x: 304.5016174316406
y: 331.11138916015625
z: -0.19185799360275269
visibility: 0.9981233477592468
","x: 250.86024475097656
y: 321.1921691894531
z: 0.0185683760792017
visibility: 0.9615360498428345
","x: 290.14166259765625
y: 304.1534729003906
z: -0.4048336446285248
visibility: 0.993591845035553
","x: 249.14559936523438
y: 361.341064453125
z: -0.049609407782554626
visibility: 0.9635895490646362
","x: 284.665771484375
y: 296.5096435546875
z: -0.45003288984298706
visibility: 0.9833059906959534
","x: 249.31170654296875
y: 376.041015625
z: -0.06738206744194031
visibility: 0.9338046908378601
","x: 285.2094421386719
y: 289.68743896484375
z: -0.4517061710357666
visibility: 0.9841853976249695
","x: 251.61647033691406
y: 375.388671875
z: -0.0906606912612915
visibility: 0.9369348287582397
","x: 286.4510803222656
y: 292.1492919921875
z: -0.4087832570075989
visibility: 0.9761670231819153
","x: 252.27879333496094
y: 371.0245056152344
z: -0.05911096930503845
visibility: 0.9218644499778748
","x: 292.1954040527344
y: 370.471435546875
z: -0.004390692338347435
visibility: 0.999760091304779
","x: 268.3796081542969
y: 371.3695068359375
z: 0.004294264130294323
visibility: 0.9997441172599792
","x: 292.8312683105469
y: 446.2835693359375
z: -0.02738053724169731
visibility: 0.9949486255645752
","x: 261.63690185546875
y: 446.14190673828125
z: -0.048784591257572174
visibility: 0.973416805267334
","x: 293.4041442871094
y: 507.0164794921875
z: 0.13620270788669586
visibility: 0.9948505163192749
","x: 251.45681762695312
y: 509.10833740234375
z: 0.11740823090076447
visibility: 0.9869999289512634
","x: 291.33099365234375
y: 514.1805419921875
z: 0.14746075868606567
visibility: 0.8861951231956482
","x: 250.93423461914062
y: 515.2537841796875
z: 0.12747454643249512
visibility: 0.9133126735687256
","x: 297.9361267089844
y: 532.5176391601562
z: 0.04064440354704857
visibility: 0.9910337328910828
","x: 250.149169921875
y: 533.58984375
z: 0.01210756879299879
visibility: 0.9829596281051636
",4.685870409011841,"x: 290.85882568359375
y: 304.4341735839844
z: 0.0
","x: 290.1047058105469
y: 297.2217102050781
z: 0.0011221570894122124
","x: 288.35003662109375
y: 291.885498046875
z: 0.0006372708594426513
","x: 286.8963928222656
y: 288.82257080078125
z: -0.000325233704643324
","x: 285.7285461425781
y: 287.119140625
z: -0.0012350219767540693
","x: 285.2108459472656
y: 289.2412109375
z: -0.0008020297391340137
","x: 282.04766845703125
y: 283.56365966796875
z: -0.002276570536196232
","x: 279.91943359375
y: 280.63037109375
z: -0.0027986832428723574
","x: 278.1915283203125
y: 278.68304443359375
z: -0.00299223349429667
","x: 283.9871520996094
y: 292.32403564453125
z: -0.0025476161390542984
","x: 280.127685546875
y: 288.1771240234375
z: -0.0034587744157761335
","x: 278.0508117675781
y: 286.5111389160156
z: -0.0029476273339241743
","x: 276.4105529785156
y: 285.7842712402344
z: -0.002631810726597905
","x: 283.12615966796875
y: 296.2274169921875
z: -0.004275772720575333
","x: 279.3913879394531
y: 293.11163330078125
z: -0.005420101806521416
","x: 277.22796630859375
y: 291.441162109375
z: -0.0050151473842561245
","x: 275.57745361328125
y: 290.4822998046875
z: -0.00473567470908165
","x: 282.65142822265625
y: 300.4434814453125
z: -0.006034215912222862
","x: 279.60333251953125
y: 298.9291687011719
z: -0.007174779195338488
","x: 277.80084228515625
y: 298.03778076171875
z: -0.006929619703441858
","x: 276.3775634765625
y: 297.5976867675781
z: -0.006632099859416485
",,,,,,,,,,,,,,,,,,,,,
11,"x: 281.90753173828125
y: 251.96261596679688
z: -0.2631717920303345
visibility: 0.9999507069587708
","x: 284.02227783203125
y: 246.94837951660156
z: -0.256290465593338
visibility: 0.9998142123222351
","x: 285.1982421875
y: 247.1370086669922
z: -0.2562873065471649
visibility: 0.9998272061347961
","x: 286.3099060058594
y: 247.33419799804688
z: -0.2563207149505615
visibility: 0.9998375177383423
","x: 280.5536804199219
y: 246.36253356933594
z: -0.2516668736934662
visibility: 0.99980229139328
","x: 279.45465087890625
y: 246.13690185546875
z: -0.25170594453811646
visibility: 0.9997961521148682
","x: 278.2995910644531
y: 245.92193603515625
z: -0.25173261761665344
visibility: 0.9997971653938293
","x: 288.0050048828125
y: 250.6480712890625
z: -0.16192719340324402
visibility: 0.9998054504394531
","x: 276.4181823730469
y: 248.43588256835938
z: -0.14998018741607666
visibility: 0.9995073676109314
","x: 283.3478698730469
y: 259.16168212890625
z: -0.23177304863929749
visibility: 0.9999330043792725
","x: 279.3367004394531
y: 258.0972900390625
z: -0.22726960480213165
visibility: 0.9999002814292908
","x: 298.5286865234375
y: 283.61285400390625
z: -0.10006314516067505
visibility: 0.9999886155128479
","x: 263.8635559082031
y: 280.09552001953125
z: -0.04903336241841316
visibility: 0.9999271035194397
","x: 304.5016174316406
y: 331.11138916015625
z: -0.19185799360275269
visibility: 0.9981233477592468
","x: 250.86024475097656
y: 321.1921691894531
z: 0.0185683760792017
visibility: 0.9615360498428345
","x: 290.14166259765625
y: 304.1534729003906
z: -0.4048336446285248
visibility: 0.993591845035553
","x: 249.14559936523438
y: 361.341064453125
z: -0.049609407782554626
visibility: 0.9635895490646362
","x: 284.665771484375
y: 296.5096435546875
z: -0.45003288984298706
visibility: 0.9833059906959534
","x: 249.31170654296875
y: 376.041015625
z: -0.06738206744194031
visibility: 0.9338046908378601
","x: 285.2094421386719
y: 289.68743896484375
z: -0.4517061710357666
visibility: 0.9841853976249695
","x: 251.61647033691406
y: 375.388671875
z: -0.0906606912612915
visibility: 0.9369348287582397
","x: 286.4510803222656
y: 292.1492919921875
z: -0.4087832570075989
visibility: 0.9761670231819153
","x: 252.27879333496094
y: 371.0245056152344
z: -0.05911096930503845
visibility: 0.9218644499778748
","x: 292.1954040527344
y: 370.471435546875
z: -0.004390692338347435
visibility: 0.999760091304779
","x: 268.3796081542969
y: 371.3695068359375
z: 0.004294264130294323
visibility: 0.9997441172599792
","x: 292.8312683105469
y: 446.2835693359375
z: -0.02738053724169731
visibility: 0.9949486255645752
","x: 261.63690185546875
y: 446.14190673828125
z: -0.048784591257572174
visibility: 0.973416805267334
","x: 293.4041442871094
y: 507.0164794921875
z: 0.13620270788669586
visibility: 0.9948505163192749
","x: 251.45681762695312
y: 509.10833740234375
z: 0.11740823090076447
visibility: 0.9869999289512634
","x: 291.33099365234375
y: 514.1805419921875
z: 0.14746075868606567
visibility: 0.8861951231956482
","x: 250.93423461914062
y: 515.2537841796875
z: 0.12747454643249512
visibility: 0.9133126735687256
","x: 297.9361267089844
y: 532.5176391601562
z: 0.04064440354704857
visibility: 0.9910337328910828
","x: 250.149169921875
y: 533.58984375
z: 0.01210756879299879
visibility: 0.9829596281051636
",4.685870409011841,"x: 290.85882568359375
y: 304.4341735839844
z: 0.0
","x: 290.1047058105469
y: 297.2217102050781
z: 0.0011221570894122124
","x: 288.35003662109375
y: 291.885498046875
z: 0.0006372708594426513
","x: 286.8963928222656
y: 288.82257080078125
z: -0.000325233704643324
","x: 285.7285461425781
y: 287.119140625
z: -0.0012350219767540693
","x: 285.2108459472656
y: 289.2412109375
z: -0.0008020297391340137
","x: 282.04766845703125
y: 283.56365966796875
z: -0.002276570536196232
","x: 279.91943359375
y: 280.63037109375
z: -0.0027986832428723574
","x: 278.1915283203125
y: 278.68304443359375
z: -0.00299223349429667
","x: 283.9871520996094
y: 292.32403564453125
z: -0.0025476161390542984
","x: 280.127685546875
y: 288.1771240234375
z: -0.0034587744157761335
","x: 278.0508117675781
y: 286.5111389160156
z: -0.0029476273339241743
","x: 276.4105529785156
y: 285.7842712402344
z: -0.002631810726597905
","x: 283.12615966796875
y: 296.2274169921875
z: -0.004275772720575333
","x: 279.3913879394531
y: 293.11163330078125
z: -0.005420101806521416
","x: 277.22796630859375
y: 291.441162109375
z: -0.0050151473842561245
","x: 275.57745361328125
y: 290.4822998046875
z: -0.00473567470908165
","x: 282.65142822265625
y: 300.4434814453125
z: -0.006034215912222862
","x: 279.60333251953125
y: 298.9291687011719
z: -0.007174779195338488
","x: 277.80084228515625
y: 298.03778076171875
z: -0.006929619703441858
","x: 276.3775634765625
y: 297.5976867675781
z: -0.006632099859416485
",,,,,,,,,,,,,,,,,,,,,
12,"x: 279.1315002441406
y: 250.8511505126953
z: -0.3036732077598572
visibility: 0.9999544024467468
","x: 280.9416198730469
y: 245.08843994140625
z: -0.2957276701927185
visibility: 0.9998299479484558
","x: 282.0312194824219
y: 244.99490356445312
z: -0.2957216799259186
visibility: 0.9998419284820557
","x: 283.04998779296875
y: 244.96319580078125
z: -0.2957731783390045
visibility: 0.9998512864112854
","x: 277.6748352050781
y: 245.1786651611328
z: -0.2896583676338196
visibility: 0.9998185634613037
","x: 276.63885498046875
y: 245.0837860107422
z: -0.2896615266799927
visibility: 0.9998122453689575
","x: 275.57330322265625
y: 244.99755859375
z: -0.28969234228134155
visibility: 0.9998127222061157
","x: 284.561279296875
y: 247.9989776611328
z: -0.2088858187198639
visibility: 0.9998214840888977
","x: 274.2773742675781
y: 247.1097412109375
z: -0.18147708475589752
visibility: 0.9995526075363159
","x: 281.15496826171875
y: 257.1423645019531
z: -0.2687421441078186
visibility: 0.9999390840530396
","x: 276.8563537597656
y: 257.2410888671875
z: -0.26114338636398315
visibility: 0.9999094605445862
","x: 297.0663757324219
y: 282.07818603515625
z: -0.1467360109090805
visibility: 0.9999891519546509
","x: 261.6102294921875
y: 278.9583740234375
z: -0.07799128443002701
visibility: 0.9999332427978516
","x: 304.4346923828125
y: 329.54022216796875
z: -0.25129544734954834
visibility: 0.9982231259346008
","x: 246.5513916015625
y: 317.2958984375
z: 0.002108717104420066
visibility: 0.9647244215011597
","x: 285.69219970703125
y: 301.693359375
z: -0.4538154602050781
visibility: 0.9941092133522034
","x: 249.01548767089844
y: 360.7030029296875
z: -0.07467079907655716
visibility: 0.9644994735717773
","x: 278.8487854003906
y: 295.6226501464844
z: -0.49835675954818726
visibility: 0.98455810546875
","x: 249.8104248046875
y: 374.75030517578125
z: -0.09338261932134628
visibility: 0.9331198334693909
","x: 279.3718566894531
y: 289.3085632324219
z: -0.4970254898071289
visibility: 0.9853280186653137
","x: 252.2751007080078
y: 373.53863525390625
z: -0.11346405744552612
visibility: 0.9360485672950745
","x: 281.0051574707031
y: 290.8690490722656
z: -0.45619669556617737
visibility: 0.9775303602218628
","x: 252.6962127685547
y: 369.297119140625
z: -0.08323799818754196
visibility: 0.9199498295783997
","x: 289.59075927734375
y: 370.336669921875
z: -0.008109891787171364
visibility: 0.9997658729553223
","x: 265.2997741699219
y: 371.2710266113281
z: 0.00799540989100933
visibility: 0.9997569918632507
","x: 291.5888366699219
y: 445.80767822265625
z: -0.023218611255288124
visibility: 0.9951314926147461
","x: 259.1582946777344
y: 445.9471130371094
z: -0.02152213081717491
visibility: 0.9758605360984802
","x: 294.1344299316406
y: 506.982666015625
z: 0.1480024755001068
visibility: 0.9948827028274536
","x: 250.25367736816406
y: 508.93389892578125
z: 0.14312472939491272
visibility: 0.9877486824989319
","x: 292.5924072265625
y: 513.5514526367188
z: 0.16009970009326935
visibility: 0.8844701647758484
","x: 250.42962646484375
y: 515.0169677734375
z: 0.15343965590000153
visibility: 0.9075006246566772
","x: 297.9327087402344
y: 533.1583251953125
z: 0.04720263183116913
visibility: 0.9909356236457825
","x: 250.09397888183594
y: 534.2644653320312
z: 0.04012776166200638
visibility: 0.983503520488739
",4.780155420303345,"x: 285.78564453125
y: 300.1147766113281
z: 0.0
","x: 285.8590087890625
y: 293.8552551269531
z: -0.0009529243689030409
","x: 285.3910827636719
y: 288.75921630859375
z: -0.002406822284683585
","x: 285.54339599609375
y: 284.74847412109375
z: -0.004118584096431732
","x: 285.8278503417969
y: 281.64959716796875
z: -0.005856281146407127
","x: 279.2435302734375
y: 287.66217041015625
z: -0.0024806568399071693
","x: 275.5574035644531
y: 283.737548828125
z: -0.004609002266079187
","x: 273.18963623046875
y: 282.0966491699219
z: -0.0058914171531796455
","x: 271.2450866699219
y: 281.00030517578125
z: -0.006657427176833153
","x: 278.0944519042969
y: 291.2984619140625
z: -0.00374043476767838
","x: 273.9573059082031
y: 288.0238037109375
z: -0.005437106359750032
","x: 271.39581298828125
y: 286.8334655761719
z: -0.006094241514801979
","x: 269.2228088378906
y: 286.3684387207031
z: -0.006677295081317425
","x: 277.7487487792969
y: 295.52008056640625
z: -0.0051620882004499435
","x: 273.86480712890625
y: 293.449462890625
z: -0.0071524870581924915
","x: 271.4075927734375
y: 293.12261962890625
z: -0.007883990183472633
","x: 269.537109375
y: 293.28985595703125
z: -0.008327088318765163
","x: 278.01953125
y: 299.8785705566406
z: -0.006769985891878605
","x: 274.841064453125
y: 299.3997497558594
z: -0.008790310472249985
","x: 272.5382080078125
y: 299.2744140625
z: -0.009483552537858486
","x: 270.7718505859375
y: 299.38201904296875
z: -0.009811893105506897
",,,,,,,,,,,,,,,,,,,,,
13,"x: 279.1315002441406
y: 250.8511505126953
z: -0.3036732077598572
visibility: 0.9999544024467468
","x: 280.9416198730469
y: 245.08843994140625
z: -0.2957276701927185
visibility: 0.9998299479484558
","x: 282.0312194824219
y: 244.99490356445312
z: -0.2957216799259186
visibility: 0.9998419284820557
","x: 283.04998779296875
y: 244.96319580078125
z: -0.2957731783390045
visibility: 0.9998512864112854
","x: 277.6748352050781
y: 245.1786651611328
z: -0.2896583676338196
visibility: 0.9998185634613037
","x: 276.63885498046875
y: 245.0837860107422
z: -0.2896615266799927
visibility: 0.9998122453689575
","x: 275.57330322265625
y: 244.99755859375
z: -0.28969234228134155
visibility: 0.9998127222061157
","x: 284.561279296875
y: 247.9989776611328
z: -0.2088858187198639
visibility: 0.9998214840888977
","x: 274.2773742675781
y: 247.1097412109375
z: -0.18147708475589752
visibility: 0.9995526075363159
","x: 281.15496826171875
y: 257.1423645019531
z: -0.2687421441078186
visibility: 0.9999390840530396
","x: 276.8563537597656
y: 257.2410888671875
z: -0.26114338636398315
visibility: 0.9999094605445862
","x: 297.0663757324219
y: 282.07818603515625
z: -0.1467360109090805
visibility: 0.9999891519546509
","x: 261.6102294921875
y: 278.9583740234375
z: -0.07799128443002701
visibility: 0.9999332427978516
","x: 304.4346923828125
y: 329.54022216796875
z: -0.25129544734954834
visibility: 0.9982231259346008
","x: 246.5513916015625
y: 317.2958984375
z: 0.002108717104420066
visibility: 0.9647244215011597
","x: 285.69219970703125
y: 301.693359375
z: -0.4538154602050781
visibility: 0.9941092133522034
","x: 249.01548767089844
y: 360.7030029296875
z: -0.07467079907655716
visibility: 0.9644994735717773
","x: 278.8487854003906
y: 295.6226501464844
z: -0.49835675954818726
visibility: 0.98455810546875
","x: 249.8104248046875
y: 374.75030517578125
z: -0.09338261932134628
visibility: 0.9331198334693909
","x: 279.3718566894531
y: 289.3085632324219
z: -0.4970254898071289
visibility: 0.9853280186653137
","x: 252.2751007080078
y: 373.53863525390625
z: -0.11346405744552612
visibility: 0.9360485672950745
","x: 281.0051574707031
y: 290.8690490722656
z: -0.45619669556617737
visibility: 0.9775303602218628
","x: 252.6962127685547
y: 369.297119140625
z: -0.08323799818754196
visibility: 0.9199498295783997
","x: 289.59075927734375
y: 370.336669921875
z: -0.008109891787171364
visibility: 0.9997658729553223
","x: 265.2997741699219
y: 371.2710266113281
z: 0.00799540989100933
visibility: 0.9997569918632507
","x: 291.5888366699219
y: 445.80767822265625
z: -0.023218611255288124
visibility: 0.9951314926147461
","x: 259.1582946777344
y: 445.9471130371094
z: -0.02152213081717491
visibility: 0.9758605360984802
","x: 294.1344299316406
y: 506.982666015625
z: 0.1480024755001068
visibility: 0.9948827028274536
","x: 250.25367736816406
y: 508.93389892578125
z: 0.14312472939491272
visibility: 0.9877486824989319
","x: 292.5924072265625
y: 513.5514526367188
z: 0.16009970009326935
visibility: 0.8844701647758484
","x: 250.42962646484375
y: 515.0169677734375
z: 0.15343965590000153
visibility: 0.9075006246566772
","x: 297.9327087402344
y: 533.1583251953125
z: 0.04720263183116913
visibility: 0.9909356236457825
","x: 250.09397888183594
y: 534.2644653320312
z: 0.04012776166200638
visibility: 0.983503520488739
",4.780155420303345,"x: 285.78564453125
y: 300.1147766113281
z: 0.0
","x: 285.8590087890625
y: 293.8552551269531
z: -0.0009529243689030409
","x: 285.3910827636719
y: 288.75921630859375
z: -0.002406822284683585
","x: 285.54339599609375
y: 284.74847412109375
z: -0.004118584096431732
","x: 285.8278503417969
y: 281.64959716796875
z: -0.005856281146407127
","x: 279.2435302734375
y: 287.66217041015625
z: -0.0024806568399071693
","x: 275.5574035644531
y: 283.737548828125
z: -0.004609002266079187
","x: 273.18963623046875
y: 282.0966491699219
z: -0.0058914171531796455
","x: 271.2450866699219
y: 281.00030517578125
z: -0.006657427176833153
","x: 278.0944519042969
y: 291.2984619140625
z: -0.00374043476767838
","x: 273.9573059082031
y: 288.0238037109375
z: -0.005437106359750032
","x: 271.39581298828125
y: 286.8334655761719
z: -0.006094241514801979
","x: 269.2228088378906
y: 286.3684387207031
z: -0.006677295081317425
","x: 277.7487487792969
y: 295.52008056640625
z: -0.0051620882004499435
","x: 273.86480712890625
y: 293.449462890625
z: -0.0071524870581924915
","x: 271.4075927734375
y: 293.12261962890625
z: -0.007883990183472633
","x: 269.537109375
y: 293.28985595703125
z: -0.008327088318765163
","x: 278.01953125
y: 299.8785705566406
z: -0.006769985891878605
","x: 274.841064453125
y: 299.3997497558594
z: -0.008790310472249985
","x: 272.5382080078125
y: 299.2744140625
z: -0.009483552537858486
","x: 270.7718505859375
y: 299.38201904296875
z: -0.009811893105506897
",,,,,,,,,,,,,,,,,,,,,
14,"x: 279.1315002441406
y: 250.8511505126953
z: -0.3036732077598572
visibility: 0.9999544024467468
","x: 280.9416198730469
y: 245.08843994140625
z: -0.2957276701927185
visibility: 0.9998299479484558
","x: 282.0312194824219
y: 244.99490356445312
z: -0.2957216799259186
visibility: 0.9998419284820557
","x: 283.04998779296875
y: 244.96319580078125
z: -0.2957731783390045
visibility: 0.9998512864112854
","x: 277.6748352050781
y: 245.1786651611328
z: -0.2896583676338196
visibility: 0.9998185634613037
","x: 276.63885498046875
y: 245.0837860107422
z: -0.2896615266799927
visibility: 0.9998122453689575
","x: 275.57330322265625
y: 244.99755859375
z: -0.28969234228134155
visibility: 0.9998127222061157
","x: 284.561279296875
y: 247.9989776611328
z: -0.2088858187198639
visibility: 0.9998214840888977
","x: 274.2773742675781
y: 247.1097412109375
z: -0.18147708475589752
visibility: 0.9995526075363159
","x: 281.15496826171875
y: 257.1423645019531
z: -0.2687421441078186
visibility: 0.9999390840530396
","x: 276.8563537597656
y: 257.2410888671875
z: -0.26114338636398315
visibility: 0.9999094605445862
","x: 297.0663757324219
y: 282.07818603515625
z: -0.1467360109090805
visibility: 0.9999891519546509
","x: 261.6102294921875
y: 278.9583740234375
z: -0.07799128443002701
visibility: 0.9999332427978516
","x: 304.4346923828125
y: 329.54022216796875
z: -0.25129544734954834
visibility: 0.9982231259346008
","x: 246.5513916015625
y: 317.2958984375
z: 0.002108717104420066
visibility: 0.9647244215011597
","x: 285.69219970703125
y: 301.693359375
z: -0.4538154602050781
visibility: 0.9941092133522034
","x: 249.01548767089844
y: 360.7030029296875
z: -0.07467079907655716
visibility: 0.9644994735717773
","x: 278.8487854003906
y: 295.6226501464844
z: -0.49835675954818726
visibility: 0.98455810546875
","x: 249.8104248046875
y: 374.75030517578125
z: -0.09338261932134628
visibility: 0.9331198334693909
","x: 279.3718566894531
y: 289.3085632324219
z: -0.4970254898071289
visibility: 0.9853280186653137
","x: 252.2751007080078
y: 373.53863525390625
z: -0.11346405744552612
visibility: 0.9360485672950745
","x: 281.0051574707031
y: 290.8690490722656
z: -0.45619669556617737
visibility: 0.9775303602218628
","x: 252.6962127685547
y: 369.297119140625
z: -0.08323799818754196
visibility: 0.9199498295783997
","x: 289.59075927734375
y: 370.336669921875
z: -0.008109891787171364
visibility: 0.9997658729553223
","x: 265.2997741699219
y: 371.2710266113281
z: 0.00799540989100933
visibility: 0.9997569918632507
","x: 291.5888366699219
y: 445.80767822265625
z: -0.023218611255288124
visibility: 0.9951314926147461
","x: 259.1582946777344
y: 445.9471130371094
z: -0.02152213081717491
visibility: 0.9758605360984802
","x: 294.1344299316406
y: 506.982666015625
z: 0.1480024755001068
visibility: 0.9948827028274536
","x: 250.25367736816406
y: 508.93389892578125
z: 0.14312472939491272
visibility: 0.9877486824989319
","x: 292.5924072265625
y: 513.5514526367188
z: 0.16009970009326935
visibility: 0.8844701647758484
","x: 250.42962646484375
y: 515.0169677734375
z: 0.15343965590000153
visibility: 0.9075006246566772
","x: 297.9327087402344
y: 533.1583251953125
z: 0.04720263183116913
visibility: 0.9909356236457825
","x: 250.09397888183594
y: 534.2644653320312
z: 0.04012776166200638
visibility: 0.983503520488739
",4.780155420303345,"x: 285.78564453125
y: 300.1147766113281
z: 0.0
","x: 285.8590087890625
y: 293.8552551269531
z: -0.0009529243689030409
","x: 285.3910827636719
y: 288.75921630859375
z: -0.002406822284683585
","x: 285.54339599609375
y: 284.74847412109375
z: -0.004118584096431732
","x: 285.8278503417969
y: 281.64959716796875
z: -0.005856281146407127
","x: 279.2435302734375
y: 287.66217041015625
z: -0.0024806568399071693
","x: 275.5574035644531
y: 283.737548828125
z: -0.004609002266079187
","x: 273.18963623046875
y: 282.0966491699219
z: -0.0058914171531796455
","x: 271.2450866699219
y: 281.00030517578125
z: -0.006657427176833153
","x: 278.0944519042969
y: 291.2984619140625
z: -0.00374043476767838
","x: 273.9573059082031
y: 288.0238037109375
z: -0.005437106359750032
","x: 271.39581298828125
y: 286.8334655761719
z: -0.006094241514801979
","x: 269.2228088378906
y: 286.3684387207031
z: -0.006677295081317425
","x: 277.7487487792969
y: 295.52008056640625
z: -0.0051620882004499435
","x: 273.86480712890625
y: 293.449462890625
z: -0.0071524870581924915
","x: 271.4075927734375
y: 293.12261962890625
z: -0.007883990183472633
","x: 269.537109375
y: 293.28985595703125
z: -0.008327088318765163
","x: 278.01953125
y: 299.8785705566406
z: -0.006769985891878605
","x: 274.841064453125
y: 299.3997497558594
z: -0.008790310472249985
","x: 272.5382080078125
y: 299.2744140625
z: -0.009483552537858486
","x: 270.7718505859375
y: 299.38201904296875
z: -0.009811893105506897
",,,,,,,,,,,,,,,,,,,,,
15,"x: 279.0350036621094
y: 244.05653381347656
z: -0.21947088837623596
visibility: 0.9999571442604065
","x: 280.3062744140625
y: 239.2414093017578
z: -0.20485743880271912
visibility: 0.9998417496681213
","x: 281.2848815917969
y: 239.43948364257812
z: -0.20486946403980255
visibility: 0.9998528361320496
","x: 282.20587158203125
y: 239.68780517578125
z: -0.20490042865276337
visibility: 0.9998617172241211
","x: 277.1711120605469
y: 239.3505096435547
z: -0.20257103443145752
visibility: 0.9998300671577454
","x: 276.03533935546875
y: 239.5850372314453
z: -0.20255939662456512
visibility: 0.9998231530189514
","x: 274.8783874511719
y: 239.8297882080078
z: -0.20257267355918884
visibility: 0.999823272228241
","x: 282.8837585449219
y: 244.64657592773438
z: -0.11221998929977417
visibility: 0.9998320937156677
","x: 272.7126770019531
y: 243.82958984375
z: -0.10204797983169556
visibility: 0.9995850324630737
","x: 280.6269836425781
y: 251.01576232910156
z: -0.18449971079826355
visibility: 0.9999440312385559
","x: 276.47967529296875
y: 251.5956268310547
z: -0.18195585906505585
visibility: 0.9999168515205383
","x: 294.72930908203125
y: 279.2456359863281
z: -0.07150854915380478
visibility: 0.9999892115592957
","x: 259.8776550292969
y: 277.3017578125
z: -0.01834748312830925
visibility: 0.9999359846115112
","x: 302.42120361328125
y: 324.6321105957031
z: -0.15275855362415314
visibility: 0.9982498288154602
","x: 245.13536071777344
y: 311.61627197265625
z: 0.02778066135942936
visibility: 0.9670343995094299
","x: 280.87579345703125
y: 304.52703857421875
z: -0.3498513102531433
visibility: 0.9944992661476135
","x: 248.5773468017578
y: 344.3243713378906
z: -0.04600958898663521
visibility: 0.963318407535553
","x: 273.9768981933594
y: 303.94708251953125
z: -0.3992220461368561
visibility: 0.9854500889778137
","x: 248.82479858398438
y: 356.5553283691406
z: -0.0698387548327446
visibility: 0.9290043711662292
","x: 273.2850341796875
y: 296.8929443359375
z: -0.3911682367324829
visibility: 0.9861250519752502
","x: 251.5579833984375
y: 352.7151184082031
z: -0.08752159774303436
visibility: 0.9317315220832825
","x: 274.7405090332031
y: 296.9137268066406
z: -0.35018032789230347
visibility: 0.97837233543396
","x: 252.2386016845703
y: 349.1269226074219
z: -0.05429047346115112
visibility: 0.9143888354301453
","x: 288.2259826660156
y: 369.9794006347656
z: -0.007574094925075769
visibility: 0.9997716546058655
","x: 264.63970947265625
y: 371.2802429199219
z: 0.0074838912114501
visibility: 0.9997658729553223
","x: 290.4110412597656
y: 445.10986328125
z: -0.029377680271863937
visibility: 0.9953525066375732
","x: 258.8030700683594
y: 446.4990234375
z: -0.019228165969252586
visibility: 0.9780181050300598
","x: 294.1601257324219
y: 507.6385803222656
z: 0.1272074282169342
visibility: 0.9949595928192139
","x: 250.384765625
y: 509.8809509277344
z: 0.13691234588623047
visibility: 0.9884751439094543
","x: 292.4761962890625
y: 513.9581909179688
z: 0.1373724490404129
visibility: 0.8841140866279602
","x: 250.20547485351562
y: 516.4598999023438
z: 0.14611072838306427
visibility: 0.9034488201141357
","x: 298.0719299316406
y: 534.0374145507812
z: 0.02167685143649578
visibility: 0.9909883737564087
","x: 249.5361328125
y: 534.1207275390625
z: 0.03836885094642639
visibility: 0.9840611219406128
",4.903289318084717,"x: 278.7103271484375
y: 301.8902893066406
z: 0.0
","x: 275.4650573730469
y: 297.25048828125
z: 0.0012939913431182504
","x: 271.8587646484375
y: 295.32354736328125
z: 0.0007421770133078098
","x: 269.11859130859375
y: 295.37261962890625
z: -0.00019564405374694616
","x: 267.2341613769531
y: 295.91082763671875
z: -0.001145069021731615
","x: 270.4348449707031
y: 294.70343017578125
z: -0.0020256186835467815
","x: 266.5501708984375
y: 293.8874816894531
z: -0.00375274452380836
","x: 263.99432373046875
y: 294.0921325683594
z: -0.0043961238116025925
","x: 262.0503845214844
y: 294.5408935546875
z: -0.004791575949639082
","x: 270.7103271484375
y: 298.0041809082031
z: -0.0040418352000415325
","x: 266.4580383300781
y: 298.6864929199219
z: -0.0056309825740754604
","x: 264.0561828613281
y: 300.066650390625
z: -0.0057309335097670555
","x: 262.2831726074219
y: 301.4991149902344
z: -0.005905632860958576
","x: 271.3408508300781
y: 301.9233703613281
z: -0.0058626146055758
","x: 267.30950927734375
y: 303.37493896484375
z: -0.007374740671366453
","x: 265.0444030761719
y: 305.01318359375
z: -0.007235884666442871
","x: 263.3272399902344
y: 306.4216003417969
z: -0.007192943245172501
","x: 272.2489318847656
y: 306.0111083984375
z: -0.007610132917761803
","x: 269.0085144042969
y: 307.8143005371094
z: -0.009115735068917274
","x: 266.9261474609375
y: 309.17706298828125
z: -0.009173612110316753
","x: 265.1479187011719
y: 310.4031982421875
z: -0.009105593897402287
",,,,,,,,,,,,,,,,,,,,,
16,"x: 279.0350036621094
y: 244.05653381347656
z: -0.21947088837623596
visibility: 0.9999571442604065
","x: 280.3062744140625
y: 239.2414093017578
z: -0.20485743880271912
visibility: 0.9998417496681213
","x: 281.2848815917969
y: 239.43948364257812
z: -0.20486946403980255
visibility: 0.9998528361320496
","x: 282.20587158203125
y: 239.68780517578125
z: -0.20490042865276337
visibility: 0.9998617172241211
","x: 277.1711120605469
y: 239.3505096435547
z: -0.20257103443145752
visibility: 0.9998300671577454
","x: 276.03533935546875
y: 239.5850372314453
z: -0.20255939662456512
visibility: 0.9998231530189514
","x: 274.8783874511719
y: 239.8297882080078
z: -0.20257267355918884
visibility: 0.999823272228241
","x: 282.8837585449219
y: 244.64657592773438
z: -0.11221998929977417
visibility: 0.9998320937156677
","x: 272.7126770019531
y: 243.82958984375
z: -0.10204797983169556
visibility: 0.9995850324630737
","x: 280.6269836425781
y: 251.01576232910156
z: -0.18449971079826355
visibility: 0.9999440312385559
","x: 276.47967529296875
y: 251.5956268310547
z: -0.18195585906505585
visibility: 0.9999168515205383
","x: 294.72930908203125
y: 279.2456359863281
z: -0.07150854915380478
visibility: 0.9999892115592957
","x: 259.8776550292969
y: 277.3017578125
z: -0.01834748312830925
visibility: 0.9999359846115112
","x: 302.42120361328125
y: 324.6321105957031
z: -0.15275855362415314
visibility: 0.9982498288154602
","x: 245.13536071777344
y: 311.61627197265625
z: 0.02778066135942936
visibility: 0.9670343995094299
","x: 280.87579345703125
y: 304.52703857421875
z: -0.3498513102531433
visibility: 0.9944992661476135
","x: 248.5773468017578
y: 344.3243713378906
z: -0.04600958898663521
visibility: 0.963318407535553
","x: 273.9768981933594
y: 303.94708251953125
z: -0.3992220461368561
visibility: 0.9854500889778137
","x: 248.82479858398438
y: 356.5553283691406
z: -0.0698387548327446
visibility: 0.9290043711662292
","x: 273.2850341796875
y: 296.8929443359375
z: -0.3911682367324829
visibility: 0.9861250519752502
","x: 251.5579833984375
y: 352.7151184082031
z: -0.08752159774303436
visibility: 0.9317315220832825
","x: 274.7405090332031
y: 296.9137268066406
z: -0.35018032789230347
visibility: 0.97837233543396
","x: 252.2386016845703
y: 349.1269226074219
z: -0.05429047346115112
visibility: 0.9143888354301453
","x: 288.2259826660156
y: 369.9794006347656
z: -0.007574094925075769
visibility: 0.9997716546058655
","x: 264.63970947265625
y: 371.2802429199219
z: 0.0074838912114501
visibility: 0.9997658729553223
","x: 290.4110412597656
y: 445.10986328125
z: -0.029377680271863937
visibility: 0.9953525066375732
","x: 258.8030700683594
y: 446.4990234375
z: -0.019228165969252586
visibility: 0.9780181050300598
","x: 294.1601257324219
y: 507.6385803222656
z: 0.1272074282169342
visibility: 0.9949595928192139
","x: 250.384765625
y: 509.8809509277344
z: 0.13691234588623047
visibility: 0.9884751439094543
","x: 292.4761962890625
y: 513.9581909179688
z: 0.1373724490404129
visibility: 0.8841140866279602
","x: 250.20547485351562
y: 516.4598999023438
z: 0.14611072838306427
visibility: 0.9034488201141357
","x: 298.0719299316406
y: 534.0374145507812
z: 0.02167685143649578
visibility: 0.9909883737564087
","x: 249.5361328125
y: 534.1207275390625
z: 0.03836885094642639
visibility: 0.9840611219406128
",4.903289318084717,"x: 278.7103271484375
y: 301.8902893066406
z: 0.0
","x: 275.4650573730469
y: 297.25048828125
z: 0.0012939913431182504
","x: 271.8587646484375
y: 295.32354736328125
z: 0.0007421770133078098
","x: 269.11859130859375
y: 295.37261962890625
z: -0.00019564405374694616
","x: 267.2341613769531
y: 295.91082763671875
z: -0.001145069021731615
","x: 270.4348449707031
y: 294.70343017578125
z: -0.0020256186835467815
","x: 266.5501708984375
y: 293.8874816894531
z: -0.00375274452380836
","x: 263.99432373046875
y: 294.0921325683594
z: -0.0043961238116025925
","x: 262.0503845214844
y: 294.5408935546875
z: -0.004791575949639082
","x: 270.7103271484375
y: 298.0041809082031
z: -0.0040418352000415325
","x: 266.4580383300781
y: 298.6864929199219
z: -0.0056309825740754604
","x: 264.0561828613281
y: 300.066650390625
z: -0.0057309335097670555
","x: 262.2831726074219
y: 301.4991149902344
z: -0.005905632860958576
","x: 271.3408508300781
y: 301.9233703613281
z: -0.0058626146055758
","x: 267.30950927734375
y: 303.37493896484375
z: -0.007374740671366453
","x: 265.0444030761719
y: 305.01318359375
z: -0.007235884666442871
","x: 263.3272399902344
y: 306.4216003417969
z: -0.007192943245172501
","x: 272.2489318847656
y: 306.0111083984375
z: -0.007610132917761803
","x: 269.0085144042969
y: 307.8143005371094
z: -0.009115735068917274
","x: 266.9261474609375
y: 309.17706298828125
z: -0.009173612110316753
","x: 265.1479187011719
y: 310.4031982421875
z: -0.009105593897402287
",,,,,,,,,,,,,,,,,,,,,
17,"x: 279.0350036621094
y: 244.05653381347656
z: -0.21947088837623596
visibility: 0.9999571442604065
","x: 280.3062744140625
y: 239.2414093017578
z: -0.20485743880271912
visibility: 0.9998417496681213
","x: 281.2848815917969
y: 239.43948364257812
z: -0.20486946403980255
visibility: 0.9998528361320496
","x: 282.20587158203125
y: 239.68780517578125
z: -0.20490042865276337
visibility: 0.9998617172241211
","x: 277.1711120605469
y: 239.3505096435547
z: -0.20257103443145752
visibility: 0.9998300671577454
","x: 276.03533935546875
y: 239.5850372314453
z: -0.20255939662456512
visibility: 0.9998231530189514
","x: 274.8783874511719
y: 239.8297882080078
z: -0.20257267355918884
visibility: 0.999823272228241
","x: 282.8837585449219
y: 244.64657592773438
z: -0.11221998929977417
visibility: 0.9998320937156677
","x: 272.7126770019531
y: 243.82958984375
z: -0.10204797983169556
visibility: 0.9995850324630737
","x: 280.6269836425781
y: 251.01576232910156
z: -0.18449971079826355
visibility: 0.9999440312385559
","x: 276.47967529296875
y: 251.5956268310547
z: -0.18195585906505585
visibility: 0.9999168515205383
","x: 294.72930908203125
y: 279.2456359863281
z: -0.07150854915380478
visibility: 0.9999892115592957
","x: 259.8776550292969
y: 277.3017578125
z: -0.01834748312830925
visibility: 0.9999359846115112
","x: 302.42120361328125
y: 324.6321105957031
z: -0.15275855362415314
visibility: 0.9982498288154602
","x: 245.13536071777344
y: 311.61627197265625
z: 0.02778066135942936
visibility: 0.9670343995094299
","x: 280.87579345703125
y: 304.52703857421875
z: -0.3498513102531433
visibility: 0.9944992661476135
","x: 248.5773468017578
y: 344.3243713378906
z: -0.04600958898663521
visibility: 0.963318407535553
","x: 273.9768981933594
y: 303.94708251953125
z: -0.3992220461368561
visibility: 0.9854500889778137
","x: 248.82479858398438
y: 356.5553283691406
z: -0.0698387548327446
visibility: 0.9290043711662292
","x: 273.2850341796875
y: 296.8929443359375
z: -0.3911682367324829
visibility: 0.9861250519752502
","x: 251.5579833984375
y: 352.7151184082031
z: -0.08752159774303436
visibility: 0.9317315220832825
","x: 274.7405090332031
y: 296.9137268066406
z: -0.35018032789230347
visibility: 0.97837233543396
","x: 252.2386016845703
y: 349.1269226074219
z: -0.05429047346115112
visibility: 0.9143888354301453
","x: 288.2259826660156
y: 369.9794006347656
z: -0.007574094925075769
visibility: 0.9997716546058655
","x: 264.63970947265625
y: 371.2802429199219
z: 0.0074838912114501
visibility: 0.9997658729553223
","x: 290.4110412597656
y: 445.10986328125
z: -0.029377680271863937
visibility: 0.9953525066375732
","x: 258.8030700683594
y: 446.4990234375
z: -0.019228165969252586
visibility: 0.9780181050300598
","x: 294.1601257324219
y: 507.6385803222656
z: 0.1272074282169342
visibility: 0.9949595928192139
","x: 250.384765625
y: 509.8809509277344
z: 0.13691234588623047
visibility: 0.9884751439094543
","x: 292.4761962890625
y: 513.9581909179688
z: 0.1373724490404129
visibility: 0.8841140866279602
","x: 250.20547485351562
y: 516.4598999023438
z: 0.14611072838306427
visibility: 0.9034488201141357
","x: 298.0719299316406
y: 534.0374145507812
z: 0.02167685143649578
visibility: 0.9909883737564087
","x: 249.5361328125
y: 534.1207275390625
z: 0.03836885094642639
visibility: 0.9840611219406128
",4.903289318084717,"x: 278.7103271484375
y: 301.8902893066406
z: 0.0
","x: 275.4650573730469
y: 297.25048828125
z: 0.0012939913431182504
","x: 271.8587646484375
y: 295.32354736328125
z: 0.0007421770133078098
","x: 269.11859130859375
y: 295.37261962890625
z: -0.00019564405374694616
","x: 267.2341613769531
y: 295.91082763671875
z: -0.001145069021731615
","x: 270.4348449707031
y: 294.70343017578125
z: -0.0020256186835467815
","x: 266.5501708984375
y: 293.8874816894531
z: -0.00375274452380836
","x: 263.99432373046875
y: 294.0921325683594
z: -0.0043961238116025925
","x: 262.0503845214844
y: 294.5408935546875
z: -0.004791575949639082
","x: 270.7103271484375
y: 298.0041809082031
z: -0.0040418352000415325
","x: 266.4580383300781
y: 298.6864929199219
z: -0.0056309825740754604
","x: 264.0561828613281
y: 300.066650390625
z: -0.0057309335097670555
","x: 262.2831726074219
y: 301.4991149902344
z: -0.005905632860958576
","x: 271.3408508300781
y: 301.9233703613281
z: -0.0058626146055758
","x: 267.30950927734375
y: 303.37493896484375
z: -0.007374740671366453
","x: 265.0444030761719
y: 305.01318359375
z: -0.007235884666442871
","x: 263.3272399902344
y: 306.4216003417969
z: -0.007192943245172501
","x: 272.2489318847656
y: 306.0111083984375
z: -0.007610132917761803
","x: 269.0085144042969
y: 307.8143005371094
z: -0.009115735068917274
","x: 266.9261474609375
y: 309.17706298828125
z: -0.009173612110316753
","x: 265.1479187011719
y: 310.4031982421875
z: -0.009105593897402287
",,,,,,,,,,,,,,,,,,,,,
18,"x: 276.9358825683594
y: 245.8016815185547
z: -0.22950756549835205
visibility: 0.9999578595161438
","x: 278.2956848144531
y: 240.73138427734375
z: -0.21260790526866913
visibility: 0.9998499751091003
","x: 279.3547668457031
y: 240.87852478027344
z: -0.21258774399757385
visibility: 0.9998577237129211
","x: 280.3520202636719
y: 241.06149291992188
z: -0.21259848773479462
visibility: 0.9998656511306763
","x: 274.88287353515625
y: 240.5674591064453
z: -0.21399398148059845
visibility: 0.9998407959938049
","x: 273.6484680175781
y: 240.48428344726562
z: -0.21400746703147888
visibility: 0.999834418296814
","x: 272.4510803222656
y: 240.28778076171875
z: -0.21402385830879211
visibility: 0.9998353123664856
","x: 281.2469787597656
y: 245.08596801757812
z: -0.11282247304916382
visibility: 0.9998302459716797
","x: 270.530029296875
y: 245.09352111816406
z: -0.11944885551929474
visibility: 0.9996204376220703
","x: 278.6349182128906
y: 252.55709838867188
z: -0.19247348606586456
visibility: 0.9999468922615051
","x: 274.3059387207031
y: 252.81362915039062
z: -0.19449147582054138
visibility: 0.9999232888221741
","x: 291.4349670410156
y: 285.10302734375
z: -0.06221466138958931
visibility: 0.999984085559845
","x: 258.3977355957031
y: 280.3473205566406
z: -0.05183032900094986
visibility: 0.9999385476112366
","x: 304.74615478515625
y: 322.72406005859375
z: -0.1623685508966446
visibility: 0.9979195594787598
","x: 244.8463134765625
y: 319.17864990234375
z: -0.11519881337881088
visibility: 0.9694307446479797
","x: 285.59979248046875
y: 302.5422058105469
z: -0.35894519090652466
visibility: 0.9941645860671997
","x: 254.3736114501953
y: 341.9754333496094
z: -0.2414017617702484
visibility: 0.9651185870170593
","x: 278.97100830078125
y: 299.16796875
z: -0.4053637981414795
visibility: 0.9843243956565857
","x: 260.0792236328125
y: 351.8752746582031
z: -0.2770625650882721
visibility: 0.9318070411682129
","x: 277.73809814453125
y: 295.30645751953125
z: -0.3983335494995117
visibility: 0.9847754836082458
","x: 263.71685791015625
y: 349.21533203125
z: -0.28215354681015015
visibility: 0.9340417981147766
","x: 280.0674743652344
y: 296.981689453125
z: -0.36027005314826965
visibility: 0.9760045409202576
","x: 262.78033447265625
y: 345.87548828125
z: -0.24519045650959015
visibility: 0.916205108165741
","x: 286.2567443847656
y: 373.77606201171875
z: -0.00025319374981336296
visibility: 0.999778687953949
","x: 263.18701171875
y: 373.52850341796875
z: 0.00014168178313411772
visibility: 0.9997766017913818
","x: 290.0862731933594
y: 448.7921142578125
z: -0.020737241953611374
visibility: 0.9954829216003418
","x: 258.4267578125
y: 448.9403991699219
z: -0.012628001160919666
visibility: 0.9798919558525085
","x: 294.1524963378906
y: 509.63946533203125
z: 0.11823461204767227
visibility: 0.9949835538864136
","x: 251.96356201171875
y: 510.2203063964844
z: 0.1319446861743927
visibility: 0.9892398118972778
","x: 292.0771179199219
y: 517.67236328125
z: 0.1259617656469345
visibility: 0.8861968517303467
","x: 252.40451049804688
y: 516.9513549804688
z: 0.14164425432682037
visibility: 0.9035086035728455
","x: 298.46807861328125
y: 534.240478515625
z: 0.014287302270531654
visibility: 0.9909242987632751
","x: 248.3072967529297
y: 532.3885498046875
z: 0.03250496834516525
visibility: 0.9848343133926392
",5.029872894287109,,,,,,,,,,,,,,,,,,,,,,"x: 257.7886047363281
y: 338.4856872558594
z: 0.0
","x: 262.23126220703125
y: 341.88720703125
z: 0.0025629044976085424
","x: 265.7528381347656
y: 346.8124084472656
z: 0.0030390582978725433
","x: 267.49700927734375
y: 351.58941650390625
z: 0.0025833758991211653
","x: 267.9396667480469
y: 355.205810546875
z: 0.002187272533774376
","x: 267.3558349609375
y: 348.62335205078125
z: 0.002314276760444045
","x: 270.04132080078125
y: 354.036376953125
z: 0.0012254253961145878
","x: 271.5130310058594
y: 357.8907470703125
z: 0.000623508240096271
","x: 272.7912902832031
y: 361.1639099121094
z: 0.0003011013614013791
","x: 266.3310241699219
y: 349.9134826660156
z: -0.00034398408024571836
","x: 268.8828125
y: 356.8521423339844
z: -0.001215428696013987
","x: 270.29266357421875
y: 361.6570739746094
z: -0.0014907497679814696
","x: 271.6239929199219
y: 365.4488830566406
z: -0.001847158302552998
","x: 264.7217102050781
y: 350.97210693359375
z: -0.00305603863671422
","x: 266.58392333984375
y: 357.9436950683594
z: -0.004088385496288538
","x: 267.55914306640625
y: 362.26287841796875
z: -0.004251406993716955
","x: 268.4184265136719
y: 365.5979919433594
z: -0.004450778476893902
","x: 262.5663757324219
y: 351.73583984375
z: -0.0057327719405293465
","x: 263.40667724609375
y: 357.438232421875
z: -0.006488659884780645
","x: 263.6603088378906
y: 360.6512145996094
z: -0.006454202812165022
","x: 263.923095703125
y: 363.1815185546875
z: -0.006445670034736395
"
19,"x: 276.9358825683594
y: 245.8016815185547
z: -0.22950756549835205
visibility: 0.9999578595161438
","x: 278.2956848144531
y: 240.73138427734375
z: -0.21260790526866913
visibility: 0.9998499751091003
","x: 279.3547668457031
y: 240.87852478027344
z: -0.21258774399757385
visibility: 0.9998577237129211
","x: 280.3520202636719
y: 241.06149291992188
z: -0.21259848773479462
visibility: 0.9998656511306763
","x: 274.88287353515625
y: 240.5674591064453
z: -0.21399398148059845
visibility: 0.9998407959938049
","x: 273.6484680175781
y: 240.48428344726562
z: -0.21400746703147888
visibility: 0.999834418296814
","x: 272.4510803222656
y: 240.28778076171875
z: -0.21402385830879211
visibility: 0.9998353123664856
","x: 281.2469787597656
y: 245.08596801757812
z: -0.11282247304916382
visibility: 0.9998302459716797
","x: 270.530029296875
y: 245.09352111816406
z: -0.11944885551929474
visibility: 0.9996204376220703
","x: 278.6349182128906
y: 252.55709838867188
z: -0.19247348606586456
visibility: 0.9999468922615051
","x: 274.3059387207031
y: 252.81362915039062
z: -0.19449147582054138
visibility: 0.9999232888221741
","x: 291.4349670410156
y: 285.10302734375
z: -0.06221466138958931
visibility: 0.999984085559845
","x: 258.3977355957031
y: 280.3473205566406
z: -0.05183032900094986
visibility: 0.9999385476112366
","x: 304.74615478515625
y: 322.72406005859375
z: -0.1623685508966446
visibility: 0.9979195594787598
","x: 244.8463134765625
y: 319.17864990234375
z: -0.11519881337881088
visibility: 0.9694307446479797
","x: 285.59979248046875
y: 302.5422058105469
z: -0.35894519090652466
visibility: 0.9941645860671997
","x: 254.3736114501953
y: 341.9754333496094
z: -0.2414017617702484
visibility: 0.9651185870170593
","x: 278.97100830078125
y: 299.16796875
z: -0.4053637981414795
visibility: 0.9843243956565857
","x: 260.0792236328125
y: 351.8752746582031
z: -0.2770625650882721
visibility: 0.9318070411682129
","x: 277.73809814453125
y: 295.30645751953125
z: -0.3983335494995117
visibility: 0.9847754836082458
","x: 263.71685791015625
y: 349.21533203125
z: -0.28215354681015015
visibility: 0.9340417981147766
","x: 280.0674743652344
y: 296.981689453125
z: -0.36027005314826965
visibility: 0.9760045409202576
","x: 262.78033447265625
y: 345.87548828125
z: -0.24519045650959015
visibility: 0.916205108165741
","x: 286.2567443847656
y: 373.77606201171875
z: -0.00025319374981336296
visibility: 0.999778687953949
","x: 263.18701171875
y: 373.52850341796875
z: 0.00014168178313411772
visibility: 0.9997766017913818
","x: 290.0862731933594
y: 448.7921142578125
z: -0.020737241953611374
visibility: 0.9954829216003418
","x: 258.4267578125
y: 448.9403991699219
z: -0.012628001160919666
visibility: 0.9798919558525085
","x: 294.1524963378906
y: 509.63946533203125
z: 0.11823461204767227
visibility: 0.9949835538864136
","x: 251.96356201171875
y: 510.2203063964844
z: 0.1319446861743927
visibility: 0.9892398118972778
","x: 292.0771179199219
y: 517.67236328125
z: 0.1259617656469345
visibility: 0.8861968517303467
","x: 252.40451049804688
y: 516.9513549804688
z: 0.14164425432682037
visibility: 0.9035086035728455
","x: 298.46807861328125
y: 534.240478515625
z: 0.014287302270531654
visibility: 0.9909242987632751
","x: 248.3072967529297
y: 532.3885498046875
z: 0.03250496834516525
visibility: 0.9848343133926392
",5.029872894287109,,,,,,,,,,,,,,,,,,,,,,"x: 257.7886047363281
y: 338.4856872558594
z: 0.0
","x: 262.23126220703125
y: 341.88720703125
z: 0.0025629044976085424
","x: 265.7528381347656
y: 346.8124084472656
z: 0.0030390582978725433
","x: 267.49700927734375
y: 351.58941650390625
z: 0.0025833758991211653
","x: 267.9396667480469
y: 355.205810546875
z: 0.002187272533774376
","x: 267.3558349609375
y: 348.62335205078125
z: 0.002314276760444045
","x: 270.04132080078125
y: 354.036376953125
z: 0.0012254253961145878
","x: 271.5130310058594
y: 357.8907470703125
z: 0.000623508240096271
","x: 272.7912902832031
y: 361.1639099121094
z: 0.0003011013614013791
","x: 266.3310241699219
y: 349.9134826660156
z: -0.00034398408024571836
","x: 268.8828125
y: 356.8521423339844
z: -0.001215428696013987
","x: 270.29266357421875
y: 361.6570739746094
z: -0.0014907497679814696
","x: 271.6239929199219
y: 365.4488830566406
z: -0.001847158302552998
","x: 264.7217102050781
y: 350.97210693359375
z: -0.00305603863671422
","x: 266.58392333984375
y: 357.9436950683594
z: -0.004088385496288538
","x: 267.55914306640625
y: 362.26287841796875
z: -0.004251406993716955
","x: 268.4184265136719
y: 365.5979919433594
z: -0.004450778476893902
","x: 262.5663757324219
y: 351.73583984375
z: -0.0057327719405293465
","x: 263.40667724609375
y: 357.438232421875
z: -0.006488659884780645
","x: 263.6603088378906
y: 360.6512145996094
z: -0.006454202812165022
","x: 263.923095703125
y: 363.1815185546875
z: -0.006445670034736395
"
20,"x: 276.9358825683594
y: 245.8016815185547
z: -0.22950756549835205
visibility: 0.9999578595161438
","x: 278.2956848144531
y: 240.73138427734375
z: -0.21260790526866913
visibility: 0.9998499751091003
","x: 279.3547668457031
y: 240.87852478027344
z: -0.21258774399757385
visibility: 0.9998577237129211
","x: 280.3520202636719
y: 241.06149291992188
z: -0.21259848773479462
visibility: 0.9998656511306763
","x: 274.88287353515625
y: 240.5674591064453
z: -0.21399398148059845
visibility: 0.9998407959938049
","x: 273.6484680175781
y: 240.48428344726562
z: -0.21400746703147888
visibility: 0.999834418296814
","x: 272.4510803222656
y: 240.28778076171875
z: -0.21402385830879211
visibility: 0.9998353123664856
","x: 281.2469787597656
y: 245.08596801757812
z: -0.11282247304916382
visibility: 0.9998302459716797
","x: 270.530029296875
y: 245.09352111816406
z: -0.11944885551929474
visibility: 0.9996204376220703
","x: 278.6349182128906
y: 252.55709838867188
z: -0.19247348606586456
visibility: 0.9999468922615051
","x: 274.3059387207031
y: 252.81362915039062
z: -0.19449147582054138
visibility: 0.9999232888221741
","x: 291.4349670410156
y: 285.10302734375
z: -0.06221466138958931
visibility: 0.999984085559845
","x: 258.3977355957031
y: 280.3473205566406
z: -0.05183032900094986
visibility: 0.9999385476112366
","x: 304.74615478515625
y: 322.72406005859375
z: -0.1623685508966446
visibility: 0.9979195594787598
","x: 244.8463134765625
y: 319.17864990234375
z: -0.11519881337881088
visibility: 0.9694307446479797
","x: 285.59979248046875
y: 302.5422058105469
z: -0.35894519090652466
visibility: 0.9941645860671997
","x: 254.3736114501953
y: 341.9754333496094
z: -0.2414017617702484
visibility: 0.9651185870170593
","x: 278.97100830078125
y: 299.16796875
z: -0.4053637981414795
visibility: 0.9843243956565857
","x: 260.0792236328125
y: 351.8752746582031
z: -0.2770625650882721
visibility: 0.9318070411682129
","x: 277.73809814453125
y: 295.30645751953125
z: -0.3983335494995117
visibility: 0.9847754836082458
","x: 263.71685791015625
y: 349.21533203125
z: -0.28215354681015015
visibility: 0.9340417981147766
","x: 280.0674743652344
y: 296.981689453125
z: -0.36027005314826965
visibility: 0.9760045409202576
","x: 262.78033447265625
y: 345.87548828125
z: -0.24519045650959015
visibility: 0.916205108165741
","x: 286.2567443847656
y: 373.77606201171875
z: -0.00025319374981336296
visibility: 0.999778687953949
","x: 263.18701171875
y: 373.52850341796875
z: 0.00014168178313411772
visibility: 0.9997766017913818
","x: 290.0862731933594
y: 448.7921142578125
z: -0.020737241953611374
visibility: 0.9954829216003418
","x: 258.4267578125
y: 448.9403991699219
z: -0.012628001160919666
visibility: 0.9798919558525085
","x: 294.1524963378906
y: 509.63946533203125
z: 0.11823461204767227
visibility: 0.9949835538864136
","x: 251.96356201171875
y: 510.2203063964844
z: 0.1319446861743927
visibility: 0.9892398118972778
","x: 292.0771179199219
y: 517.67236328125
z: 0.1259617656469345
visibility: 0.8861968517303467
","x: 252.40451049804688
y: 516.9513549804688
z: 0.14164425432682037
visibility: 0.9035086035728455
","x: 298.46807861328125
y: 534.240478515625
z: 0.014287302270531654
visibility: 0.9909242987632751
","x: 248.3072967529297
y: 532.3885498046875
z: 0.03250496834516525
visibility: 0.9848343133926392
",5.029872894287109,,,,,,,,,,,,,,,,,,,,,,"x: 257.7886047363281
y: 338.4856872558594
z: 0.0
","x: 262.23126220703125
y: 341.88720703125
z: 0.0025629044976085424
","x: 265.7528381347656
y: 346.8124084472656
z: 0.0030390582978725433
","x: 267.49700927734375
y: 351.58941650390625
z: 0.0025833758991211653
","x: 267.9396667480469
y: 355.205810546875
z: 0.002187272533774376
","x: 267.3558349609375
y: 348.62335205078125
z: 0.002314276760444045
","x: 270.04132080078125
y: 354.036376953125
z: 0.0012254253961145878
","x: 271.5130310058594
y: 357.8907470703125
z: 0.000623508240096271
","x: 272.7912902832031
y: 361.1639099121094
z: 0.0003011013614013791
","x: 266.3310241699219
y: 349.9134826660156
z: -0.00034398408024571836
","x: 268.8828125
y: 356.8521423339844
z: -0.001215428696013987
","x: 270.29266357421875
y: 361.6570739746094
z: -0.0014907497679814696
","x: 271.6239929199219
y: 365.4488830566406
z: -0.001847158302552998
","x: 264.7217102050781
y: 350.97210693359375
z: -0.00305603863671422
","x: 266.58392333984375
y: 357.9436950683594
z: -0.004088385496288538
","x: 267.55914306640625
y: 362.26287841796875
z: -0.004251406993716955
","x: 268.4184265136719
y: 365.5979919433594
z: -0.004450778476893902
","x: 262.5663757324219
y: 351.73583984375
z: -0.0057327719405293465
","x: 263.40667724609375
y: 357.438232421875
z: -0.006488659884780645
","x: 263.6603088378906
y: 360.6512145996094
z: -0.006454202812165022
","x: 263.923095703125
y: 363.1815185546875
z: -0.006445670034736395
"
21,"x: 271.6048583984375
y: 246.22113037109375
z: -0.2436084747314453
visibility: 0.9999613761901855
","x: 273.0007019042969
y: 241.12173461914062
z: -0.2278619259595871
visibility: 0.9998639822006226
","x: 274.0480651855469
y: 241.36619567871094
z: -0.22784467041492462
visibility: 0.9998708367347717
","x: 275.0973815917969
y: 241.60406494140625
z: -0.2278718650341034
visibility: 0.9998778700828552
","x: 269.7138671875
y: 240.56698608398438
z: -0.2285166233778
visibility: 0.9998557567596436
","x: 268.4784851074219
y: 240.40652465820312
z: -0.22853943705558777
visibility: 0.9998500943183899
","x: 267.1888427734375
y: 240.1593017578125
z: -0.22854380309581757
visibility: 0.9998509883880615
","x: 275.5411682128906
y: 245.4857635498047
z: -0.12671175599098206
visibility: 0.9998460412025452
","x: 264.767822265625
y: 244.45884704589844
z: -0.13099338114261627
visibility: 0.9996575713157654
","x: 273.29071044921875
y: 253.25357055664062
z: -0.20588359236717224
visibility: 0.9999517798423767
","x: 268.8050537109375
y: 253.12928771972656
z: -0.20685341954231262
visibility: 0.9999306201934814
","x: 286.5063171386719
y: 284.9187927246094
z: -0.07159385830163956
visibility: 0.9999837875366211
","x: 252.78863525390625
y: 280.4782409667969
z: -0.06316090375185013
visibility: 0.999941349029541
","x: 303.9885559082031
y: 321.9893798828125
z: -0.18053917586803436
visibility: 0.9978391528129578
","x: 242.94125366210938
y: 324.6504211425781
z: -0.15895313024520874
visibility: 0.9714626669883728
","x: 293.25384521484375
y: 292.7594299316406
z: -0.3783557415008545
visibility: 0.9935429692268372
","x: 261.1346740722656
y: 323.3562927246094
z: -0.33522701263427734
visibility: 0.9675334095954895
","x: 288.8455505371094
y: 283.80413818359375
z: -0.4243199825286865
visibility: 0.9825212359428406
","x: 267.8583984375
y: 327.883544921875
z: -0.3767336905002594
visibility: 0.9358018040657043
","x: 286.40325927734375
y: 278.71649169921875
z: -0.4152272641658783
visibility: 0.9827067852020264
","x: 270.4342041015625
y: 323.2491760253906
z: -0.3748699128627777
visibility: 0.9376112818717957
","x: 286.15545654296875
y: 282.80633544921875
z: -0.3794986605644226
visibility: 0.972773015499115
","x: 268.5313415527344
y: 320.1324157714844
z: -0.33729588985443115
visibility: 0.9198559522628784
","x: 284.53619384765625
y: 373.6289978027344
z: -0.01665865257382393
visibility: 0.9997876882553101
","x: 261.2880554199219
y: 373.4305419921875
z: 0.016577240079641342
visibility: 0.9997832775115967
","x: 289.794677734375
y: 448.3475036621094
z: -0.05219631642103195
visibility: 0.9958152174949646
","x: 255.67823791503906
y: 449.1739501953125
z: 0.019009988754987717
visibility: 0.9811775088310242
","x: 306.6219787597656
y: 507.4163818359375
z: 0.1055363267660141
visibility: 0.9953228235244751
","x: 251.2008819580078
y: 514.96142578125
z: 0.1593281328678131
visibility: 0.9899889230728149
","x: 311.1170654296875
y: 512.38671875
z: 0.11448673158884048
visibility: 0.8835734724998474
","x: 251.96107482910156
y: 525.6901245117188
z: 0.16743624210357666
visibility: 0.9079484939575195
","x: 300.04925537109375
y: 534.3208618164062
z: -0.009303363971412182
visibility: 0.9913685321807861
","x: 246.71212768554688
y: 532.394287109375
z: 0.05920196324586868
visibility: 0.9856885075569153
",5.156562566757202,,,,,,,,,,,,,,,,,,,,,,"x: 263.96075439453125
y: 319.7164611816406
z: 0.0
","x: 266.61517333984375
y: 318.12445068359375
z: 0.0004371662507764995
","x: 269.85186767578125
y: 318.5636291503906
z: -0.00022059088223613799
","x: 272.091796875
y: 319.90838623046875
z: -0.0013762887101620436
","x: 273.7127685546875
y: 320.8031005859375
z: -0.0025654665660113096
","x: 272.7078857421875
y: 319.8663635253906
z: -0.000978655880317092
","x: 276.377685546875
y: 320.6714172363281
z: -0.003110626246780157
","x: 278.8758239746094
y: 321.6900329589844
z: -0.004462683107703924
","x: 280.7569580078125
y: 322.8592529296875
z: -0.00533484760671854
","x: 272.42218017578125
y: 322.30511474609375
z: -0.0029380673076957464
","x: 276.41583251953125
y: 324.997314453125
z: -0.004863422363996506
","x: 278.9841613769531
y: 327.78436279296875
z: -0.005919731222093105
","x: 280.9507141113281
y: 330.2510986328125
z: -0.006827862001955509
","x: 271.35955810546875
y: 324.6985168457031
z: -0.005025968886911869
","x: 274.8352355957031
y: 328.20269775390625
z: -0.007096558343619108
","x: 276.9190368652344
y: 331.16510009765625
z: -0.008095111697912216
","x: 278.5774230957031
y: 333.547607421875
z: -0.0088465865701437
","x: 269.5723876953125
y: 327.0550231933594
z: -0.007162871770560741
","x: 271.712646484375
y: 330.43548583984375
z: -0.00894597452133894
","x: 273.07366943359375
y: 332.8051452636719
z: -0.009663121774792671
","x: 274.2243957519531
y: 334.73004150390625
z: -0.010189272463321686
"
22,"x: 271.6048583984375
y: 246.22113037109375
z: -0.2436084747314453
visibility: 0.9999613761901855
","x: 273.0007019042969
y: 241.12173461914062
z: -0.2278619259595871
visibility: 0.9998639822006226
","x: 274.0480651855469
y: 241.36619567871094
z: -0.22784467041492462
visibility: 0.9998708367347717
","x: 275.0973815917969
y: 241.60406494140625
z: -0.2278718650341034
visibility: 0.9998778700828552
","x: 269.7138671875
y: 240.56698608398438
z: -0.2285166233778
visibility: 0.9998557567596436
","x: 268.4784851074219
y: 240.40652465820312
z: -0.22853943705558777
visibility: 0.9998500943183899
","x: 267.1888427734375
y: 240.1593017578125
z: -0.22854380309581757
visibility: 0.9998509883880615
","x: 275.5411682128906
y: 245.4857635498047
z: -0.12671175599098206
visibility: 0.9998460412025452
","x: 264.767822265625
y: 244.45884704589844
z: -0.13099338114261627
visibility: 0.9996575713157654
","x: 273.29071044921875
y: 253.25357055664062
z: -0.20588359236717224
visibility: 0.9999517798423767
","x: 268.8050537109375
y: 253.12928771972656
z: -0.20685341954231262
visibility: 0.9999306201934814
","x: 286.5063171386719
y: 284.9187927246094
z: -0.07159385830163956
visibility: 0.9999837875366211
","x: 252.78863525390625
y: 280.4782409667969
z: -0.06316090375185013
visibility: 0.999941349029541
","x: 303.9885559082031
y: 321.9893798828125
z: -0.18053917586803436
visibility: 0.9978391528129578
","x: 242.94125366210938
y: 324.6504211425781
z: -0.15895313024520874
visibility: 0.9714626669883728
","x: 293.25384521484375
y: 292.7594299316406
z: -0.3783557415008545
visibility: 0.9935429692268372
","x: 261.1346740722656
y: 323.3562927246094
z: -0.33522701263427734
visibility: 0.9675334095954895
","x: 288.8455505371094
y: 283.80413818359375
z: -0.4243199825286865
visibility: 0.9825212359428406
","x: 267.8583984375
y: 327.883544921875
z: -0.3767336905002594
visibility: 0.9358018040657043
","x: 286.40325927734375
y: 278.71649169921875
z: -0.4152272641658783
visibility: 0.9827067852020264
","x: 270.4342041015625
y: 323.2491760253906
z: -0.3748699128627777
visibility: 0.9376112818717957
","x: 286.15545654296875
y: 282.80633544921875
z: -0.3794986605644226
visibility: 0.972773015499115
","x: 268.5313415527344
y: 320.1324157714844
z: -0.33729588985443115
visibility: 0.9198559522628784
