uscmakers/ReverseChoreography/data/10_weve_never_met_but_can_we_have_a_cup_of_coffee_or_something_in_love_with_a_ghost.csv
,NOSE,LEFT_EYE_INNER,LEFT_EYE,LEFT_EYE_OUTER,RIGHT_EYE_INNER,RIGHT_EYE,RIGHT_EYE_OUTER,LEFT_EAR,RIGHT_EAR,MOUTH_LEFT,MOUTH_RIGHT,LEFT_SHOULDER,RIGHT_SHOULDER,LEFT_ELBOW,RIGHT_ELBOW,LEFT_WRIST,RIGHT_WRIST,LEFT_PINKY,RIGHT_PINKY,LEFT_INDEX,RIGHT_INDEX,LEFT_THUMB,RIGHT_THUMB,LEFT_HIP,RIGHT_HIP,LEFT_KNEE,RIGHT_KNEE,LEFT_ANKLE,RIGHT_ANKLE,LEFT_HEEL,RIGHT_HEEL,LEFT_FOOT_INDEX,RIGHT_FOOT_INDEX,WRIST,THUMB_CPC,THUMB_MCP,THUMB_IP,THUMB_TIP,INDEX_FINGER_MCP,INDEX_FINGER_PIP,INDEX_FINGER_DIP,INDEX_FINGER_TIP,MIDDLE_FINGER_MCP,MIDDLE_FINGER_PIP,MIDDLE_FINGER_DIP,MIDDLE_FINGER_TIP,RING_FINGER_PIP,RING_FINGER_DIP,RING_FINGER_TIP,RING_FINGER_MCP,PINKY_MCP,PINKY_PIP,PINKY_DIP,PINKY_TIP,TIMESTAMP,WRIST2,THUMB_CPC2,THUMB_MCP2,THUMB_IP2,THUMB_TIP2,INDEX_FINGER_MCP2,INDEX_FINGER_PIP2,INDEX_FINGER_DIP2,INDEX_FINGER_TIP2,MIDDLE_FINGER_MCP2,MIDDLE_FINGER_PIP2,MIDDLE_FINGER_DIP2,MIDDLE_FINGER_TIP2,RING_FINGER_PIP2,RING_FINGER_DIP2,RING_FINGER_TIP2,RING_FINGER_MCP2,PINKY_MCP2,PINKY_PIP2,PINKY_DIP2,PINKY_TIP2
0,"x: 264.6650390625
y: 239.8719482421875
z: -0.05468360334634781
visibility: 0.9998875856399536
","x: 265.8979187011719
y: 235.5797576904297
z: -0.03925417363643646
visibility: 0.9998224377632141
","x: 266.744140625
y: 235.90359497070312
z: -0.039246462285518646
visibility: 0.9997661709785461
","x: 267.6174621582031
y: 236.27505493164062
z: -0.0392225943505764
visibility: 0.9997852444648743
","x: 262.94366455078125
y: 235.30616760253906
z: -0.04027571901679039
visibility: 0.9998413324356079
","x: 261.61572265625
y: 235.39797973632812
z: -0.04028717055916786
visibility: 0.9998278617858887
","x: 260.1983947753906
y: 235.49664306640625
z: -0.04035966098308563
visibility: 0.999883770942688
","x: 269.40008544921875
y: 240.49278259277344
z: 0.04555608332157135
visibility: 0.9995028972625732
","x: 256.8559875488281
y: 240.21701049804688
z: 0.03959028795361519
visibility: 0.9998548030853271
","x: 266.59912109375
y: 246.6578826904297
z: -0.02276109904050827
visibility: 0.9998268485069275
","x: 262.5248107910156
y: 246.34341430664062
z: -0.024665547534823418
visibility: 0.9999147653579712
","x: 278.6862487792969
y: 274.2388916015625
z: 0.06915634870529175
visibility: 0.9998058676719666
","x: 247.24465942382812
y: 276.5250549316406
z: 0.05259288474917412
visibility: 0.9999215602874756
","x: 283.8020935058594
y: 304.2834167480469
z: -0.0620008185505867
visibility: 0.9839502573013306
","x: 237.34849548339844
y: 316.3485412597656
z: -0.030107909813523293
visibility: 0.9890933036804199
","x: 268.0248718261719
y: 270.63311767578125
z: -0.24125921726226807
visibility: 0.9944274425506592
","x: 250.9160614013672
y: 323.3882141113281
z: -0.14976420998573303
visibility: 0.9908233880996704
","x: 263.8067626953125
y: 261.958251953125
z: -0.2836551368236542
visibility: 0.9874628186225891
","x: 254.88536071777344
y: 329.69171142578125
z: -0.1814863085746765
visibility: 0.9778069853782654
","x: 264.2402648925781
y: 258.7185363769531
z: -0.27382564544677734
visibility: 0.9866095185279846
","x: 257.59637451171875
y: 325.2156066894531
z: -0.18197043240070343
visibility: 0.976929247379303
","x: 265.6155090332031
y: 262.63287353515625
z: -0.24221821129322052
visibility: 0.9783217310905457
","x: 256.64996337890625
y: 323.12359619140625
z: -0.15177585184574127
visibility: 0.9655463695526123
","x: 273.52020263671875
y: 360.72528076171875
z: 0.00770794739946723
visibility: 0.9996418952941895
","x: 252.2032012939453
y: 361.0096435546875
z: -0.0077568283304572105
visibility: 0.9996726512908936
","x: 269.75885009765625
y: 436.0743713378906
z: -0.036688968539237976
visibility: 0.9804638028144836
","x: 254.03160095214844
y: 436.0265808105469
z: -0.04250023514032364
visibility: 0.9792764186859131
","x: 266.4674377441406
y: 498.18212890625
z: 0.07258398830890656
visibility: 0.9717559218406677
","x: 251.93743896484375
y: 501.6415100097656
z: 0.052648551762104034
visibility: 0.9739192724227905
","x: 264.109375
y: 504.6707763671875
z: 0.0790020003914833
visibility: 0.8200477361679077
","x: 252.06887817382812
y: 509.3386535644531
z: 0.05723104625940323
visibility: 0.7242931723594666
","x: 268.0931396484375
y: 523.0777587890625
z: -0.01754825748503208
visibility: 0.9713779091835022
","x: 255.2265625
y: 524.2327880859375
z: -0.04487764462828636
visibility: 0.9628276228904724
","x: 249.7188720703125
y: 319.28326416015625
z: 0.0
","x: 253.8520965576172
y: 320.9154052734375
z: 0.0012238429626449943
","x: 257.610107421875
y: 324.9566345214844
z: 0.0006879228167235851
","x: 259.88067626953125
y: 329.1780090332031
z: -0.00015210796846076846
","x: 261.4046936035156
y: 332.43572998046875
z: -0.0008726047235541046
","x: 257.5797119140625
y: 323.11572265625
z: -0.0019640999380499125
","x: 260.0371398925781
y: 327.6519470214844
z: -0.003552607959136367
","x: 261.50994873046875
y: 330.85369873046875
z: -0.003991292789578438
","x: 262.64166259765625
y: 333.32427978515625
z: -0.00420592213049531
","x: 255.78863525390625
y: 324.69403076171875
z: -0.003809409448876977
","x: 258.3433532714844
y: 330.3546447753906
z: -0.005650862120091915
","x: 260.0338134765625
y: 334.650146484375
z: -0.005892652552574873
","x: 261.3873596191406
y: 338.1285400390625
z: -0.0061245388351380825
","x: 253.75204467773438
y: 326.531494140625
z: -0.005423926282674074
","x: 255.91607666015625
y: 332.3280334472656
z: -0.007202453911304474
","x: 257.2326354980469
y: 336.27044677734375
z: -0.007031756918877363
","x: 258.34747314453125
y: 339.3159484863281
z: -0.006896969396620989
","x: 251.69766235351562
y: 328.37237548828125
z: -0.006926053669303656
","x: 253.1211395263672
y: 333.5531921386719
z: -0.008452631533145905
","x: 254.1949920654297
y: 336.93328857421875
z: -0.008524778299033642
","x: 255.2451934814453
y: 339.79376220703125
z: -0.008477884344756603
",3.551523447036743,,,,,,,,,,,,,,,,,,,,,
1,"x: 264.6650390625
y: 239.8719482421875
z: -0.05468360334634781
visibility: 0.9998875856399536
","x: 265.8979187011719
y: 235.5797576904297
z: -0.03925417363643646
visibility: 0.9998224377632141
","x: 266.744140625
y: 235.90359497070312
z: -0.039246462285518646
visibility: 0.9997661709785461
","x: 267.6174621582031
y: 236.27505493164062
z: -0.0392225943505764
visibility: 0.9997852444648743
","x: 262.94366455078125
y: 235.30616760253906
z: -0.04027571901679039
visibility: 0.9998413324356079
","x: 261.61572265625
y: 235.39797973632812
z: -0.04028717055916786
visibility: 0.9998278617858887
","x: 260.1983947753906
y: 235.49664306640625
z: -0.04035966098308563
visibility: 0.999883770942688
","x: 269.40008544921875
y: 240.49278259277344
z: 0.04555608332157135
visibility: 0.9995028972625732
","x: 256.8559875488281
y: 240.21701049804688
z: 0.03959028795361519
visibility: 0.9998548030853271
","x: 266.59912109375
y: 246.6578826904297
z: -0.02276109904050827
visibility: 0.9998268485069275
","x: 262.5248107910156
y: 246.34341430664062
z: -0.024665547534823418
visibility: 0.9999147653579712
","x: 278.6862487792969
y: 274.2388916015625
z: 0.06915634870529175
visibility: 0.9998058676719666
","x: 247.24465942382812
y: 276.5250549316406
z: 0.05259288474917412
visibility: 0.9999215602874756
","x: 283.8020935058594
y: 304.2834167480469
z: -0.0620008185505867
visibility: 0.9839502573013306
","x: 237.34849548339844
y: 316.3485412597656
z: -0.030107909813523293
visibility: 0.9890933036804199
","x: 268.0248718261719
y: 270.63311767578125
z: -0.24125921726226807
visibility: 0.9944274425506592
","x: 250.9160614013672
y: 323.3882141113281
z: -0.14976420998573303
visibility: 0.9908233880996704
","x: 263.8067626953125
y: 261.958251953125
z: -0.2836551368236542
visibility: 0.9874628186225891
","x: 254.88536071777344
y: 329.69171142578125
z: -0.1814863085746765
visibility: 0.9778069853782654
","x: 264.2402648925781
y: 258.7185363769531
z: -0.27382564544677734
visibility: 0.9866095185279846
","x: 257.59637451171875
y: 325.2156066894531
z: -0.18197043240070343
visibility: 0.976929247379303
","x: 265.6155090332031
y: 262.63287353515625
z: -0.24221821129322052
visibility: 0.9783217310905457
","x: 256.64996337890625
y: 323.12359619140625
z: -0.15177585184574127
visibility: 0.9655463695526123
","x: 273.52020263671875
y: 360.72528076171875
z: 0.00770794739946723
visibility: 0.9996418952941895
","x: 252.2032012939453
y: 361.0096435546875
z: -0.0077568283304572105
visibility: 0.9996726512908936
","x: 269.75885009765625
y: 436.0743713378906
z: -0.036688968539237976
visibility: 0.9804638028144836
","x: 254.03160095214844
y: 436.0265808105469
z: -0.04250023514032364
visibility: 0.9792764186859131
","x: 266.4674377441406
y: 498.18212890625
z: 0.07258398830890656
visibility: 0.9717559218406677
","x: 251.93743896484375
y: 501.6415100097656
z: 0.052648551762104034
visibility: 0.9739192724227905
","x: 264.109375
y: 504.6707763671875
z: 0.0790020003914833
visibility: 0.8200477361679077
","x: 252.06887817382812
y: 509.3386535644531
z: 0.05723104625940323
visibility: 0.7242931723594666
","x: 268.0931396484375
y: 523.0777587890625
z: -0.01754825748503208
visibility: 0.9713779091835022
","x: 255.2265625
y: 524.2327880859375
z: -0.04487764462828636
visibility: 0.9628276228904724
","x: 249.7188720703125
y: 319.28326416015625
z: 0.0
","x: 253.8520965576172
y: 320.9154052734375
z: 0.0012238429626449943
","x: 257.610107421875
y: 324.9566345214844
z: 0.0006879228167235851
","x: 259.88067626953125
y: 329.1780090332031
z: -0.00015210796846076846
","x: 261.4046936035156
y: 332.43572998046875
z: -0.0008726047235541046
","x: 257.5797119140625
y: 323.11572265625
z: -0.0019640999380499125
","x: 260.0371398925781
y: 327.6519470214844
z: -0.003552607959136367
","x: 261.50994873046875
y: 330.85369873046875
z: -0.003991292789578438
","x: 262.64166259765625
y: 333.32427978515625
z: -0.00420592213049531
","x: 255.78863525390625
y: 324.69403076171875
z: -0.003809409448876977
","x: 258.3433532714844
y: 330.3546447753906
z: -0.005650862120091915
","x: 260.0338134765625
y: 334.650146484375
z: -0.005892652552574873
","x: 261.3873596191406
y: 338.1285400390625
z: -0.0061245388351380825
","x: 253.75204467773438
y: 326.531494140625
z: -0.005423926282674074
","x: 255.91607666015625
y: 332.3280334472656
z: -0.007202453911304474
","x: 257.2326354980469
y: 336.27044677734375
z: -0.007031756918877363
","x: 258.34747314453125
y: 339.3159484863281
z: -0.006896969396620989
","x: 251.69766235351562
y: 328.37237548828125
z: -0.006926053669303656
","x: 253.1211395263672
y: 333.5531921386719
z: -0.008452631533145905
","x: 254.1949920654297
y: 336.93328857421875
z: -0.008524778299033642
","x: 255.2451934814453
y: 339.79376220703125
z: -0.008477884344756603
",3.551523447036743,,,,,,,,,,,,,,,,,,,,,
2,"x: 264.6650390625
y: 239.8719482421875
z: -0.05468360334634781
visibility: 0.9998875856399536
","x: 265.8979187011719
y: 235.5797576904297
z: -0.03925417363643646
visibility: 0.9998224377632141
","x: 266.744140625
y: 235.90359497070312
z: -0.039246462285518646
visibility: 0.9997661709785461
","x: 267.6174621582031
y: 236.27505493164062
z: -0.0392225943505764
visibility: 0.9997852444648743
","x: 262.94366455078125
y: 235.30616760253906
z: -0.04027571901679039
visibility: 0.9998413324356079
","x: 261.61572265625
y: 235.39797973632812
z: -0.04028717055916786
visibility: 0.9998278617858887
","x: 260.1983947753906
y: 235.49664306640625
z: -0.04035966098308563
visibility: 0.999883770942688
","x: 269.40008544921875
y: 240.49278259277344
z: 0.04555608332157135
visibility: 0.9995028972625732
","x: 256.8559875488281
y: 240.21701049804688
z: 0.03959028795361519
visibility: 0.9998548030853271
","x: 266.59912109375
y: 246.6578826904297
z: -0.02276109904050827
visibility: 0.9998268485069275
","x: 262.5248107910156
y: 246.34341430664062
z: -0.024665547534823418
visibility: 0.9999147653579712
","x: 278.6862487792969
y: 274.2388916015625
z: 0.06915634870529175
visibility: 0.9998058676719666
","x: 247.24465942382812
y: 276.5250549316406
z: 0.05259288474917412
visibility: 0.9999215602874756
","x: 283.8020935058594
y: 304.2834167480469
z: -0.0620008185505867
visibility: 0.9839502573013306
","x: 237.34849548339844
y: 316.3485412597656
z: -0.030107909813523293
visibility: 0.9890933036804199
","x: 268.0248718261719
y: 270.63311767578125
z: -0.24125921726226807
visibility: 0.9944274425506592
","x: 250.9160614013672
y: 323.3882141113281
z: -0.14976420998573303
visibility: 0.9908233880996704
","x: 263.8067626953125
y: 261.958251953125
z: -0.2836551368236542
visibility: 0.9874628186225891
","x: 254.88536071777344
y: 329.69171142578125
z: -0.1814863085746765
visibility: 0.9778069853782654
","x: 264.2402648925781
y: 258.7185363769531
z: -0.27382564544677734
visibility: 0.9866095185279846
","x: 257.59637451171875
y: 325.2156066894531
z: -0.18197043240070343
visibility: 0.976929247379303
","x: 265.6155090332031
y: 262.63287353515625
z: -0.24221821129322052
visibility: 0.9783217310905457
","x: 256.64996337890625
y: 323.12359619140625
z: -0.15177585184574127
visibility: 0.9655463695526123
","x: 273.52020263671875
y: 360.72528076171875
z: 0.00770794739946723
visibility: 0.9996418952941895
","x: 252.2032012939453
y: 361.0096435546875
z: -0.0077568283304572105
visibility: 0.9996726512908936
","x: 269.75885009765625
y: 436.0743713378906
z: -0.036688968539237976
visibility: 0.9804638028144836
","x: 254.03160095214844
y: 436.0265808105469
z: -0.04250023514032364
visibility: 0.9792764186859131
","x: 266.4674377441406
y: 498.18212890625
z: 0.07258398830890656
visibility: 0.9717559218406677
","x: 251.93743896484375
y: 501.6415100097656
z: 0.052648551762104034
visibility: 0.9739192724227905
","x: 264.109375
y: 504.6707763671875
z: 0.0790020003914833
visibility: 0.8200477361679077
","x: 252.06887817382812
y: 509.3386535644531
z: 0.05723104625940323
visibility: 0.7242931723594666
","x: 268.0931396484375
y: 523.0777587890625
z: -0.01754825748503208
visibility: 0.9713779091835022
","x: 255.2265625
y: 524.2327880859375
z: -0.04487764462828636
visibility: 0.9628276228904724
","x: 249.7188720703125
y: 319.28326416015625
z: 0.0
","x: 253.8520965576172
y: 320.9154052734375
z: 0.0012238429626449943
","x: 257.610107421875
y: 324.9566345214844
z: 0.0006879228167235851
","x: 259.88067626953125
y: 329.1780090332031
z: -0.00015210796846076846
","x: 261.4046936035156
y: 332.43572998046875
z: -0.0008726047235541046
","x: 257.5797119140625
y: 323.11572265625
z: -0.0019640999380499125
","x: 260.0371398925781
y: 327.6519470214844
z: -0.003552607959136367
","x: 261.50994873046875
y: 330.85369873046875
z: -0.003991292789578438
","x: 262.64166259765625
y: 333.32427978515625
z: -0.00420592213049531
","x: 255.78863525390625
y: 324.69403076171875
z: -0.003809409448876977
","x: 258.3433532714844
y: 330.3546447753906
z: -0.005650862120091915
","x: 260.0338134765625
y: 334.650146484375
z: -0.005892652552574873
","x: 261.3873596191406
y: 338.1285400390625
z: -0.0061245388351380825
","x: 253.75204467773438
y: 326.531494140625
z: -0.005423926282674074
","x: 255.91607666015625
y: 332.3280334472656
z: -0.007202453911304474
","x: 257.2326354980469
y: 336.27044677734375
z: -0.007031756918877363
","x: 258.34747314453125
y: 339.3159484863281
z: -0.006896969396620989
","x: 251.69766235351562
y: 328.37237548828125
z: -0.006926053669303656
","x: 253.1211395263672
y: 333.5531921386719
z: -0.008452631533145905
","x: 254.1949920654297
y: 336.93328857421875
z: -0.008524778299033642
","x: 255.2451934814453
y: 339.79376220703125
z: -0.008477884344756603
",3.551523447036743,,,,,,,,,,,,,,,,,,,,,
3,"x: 258.47509765625
y: 242.4261474609375
z: -0.24154052138328552
visibility: 0.9998814463615417
","x: 259.98028564453125
y: 237.43727111816406
z: -0.2275833785533905
visibility: 0.9997898936271667
","x: 261.11395263671875
y: 237.69253540039062
z: -0.22755567729473114
visibility: 0.9997441172599792
","x: 262.3145751953125
y: 238.01309204101562
z: -0.2275524139404297
visibility: 0.9997614622116089
","x: 256.6410827636719
y: 237.3879852294922
z: -0.2262713611125946
visibility: 0.9997978210449219
","x: 255.40895080566406
y: 237.6674041748047
z: -0.22631366550922394
visibility: 0.999793529510498
","x: 254.03683471679688
y: 237.9291534423828
z: -0.22634091973304749
visibility: 0.9998415112495422
","x: 264.3140563964844
y: 242.70114135742188
z: -0.14085327088832855
visibility: 0.9994825124740601
","x: 252.2127685546875
y: 242.06544494628906
z: -0.13606126606464386
visibility: 0.9997194409370422
","x: 260.71478271484375
y: 250.3511962890625
z: -0.20912936329841614
visibility: 0.9998264908790588
","x: 256.3923645019531
y: 249.19390869140625
z: -0.20801076292991638
visibility: 0.9998980164527893
","x: 275.397705078125
y: 281.3876647949219
z: -0.08634445816278458
visibility: 0.999815046787262
","x: 242.16571044921875
y: 278.4875183105469
z: -0.08131196349859238
visibility: 0.99985671043396
","x: 284.49212646484375
y: 321.960205078125
z: -0.07459227740764618
visibility: 0.9848130941390991
","x: 232.89138793945312
y: 316.33465576171875
z: -0.1499318927526474
visibility: 0.9862092137336731
","x: 275.09393310546875
y: 354.4073181152344
z: -0.15173408389091492
visibility: 0.9931411147117615
","x: 246.49769592285156
y: 323.7472229003906
z: -0.3183826804161072
visibility: 0.9870781302452087
","x: 272.3650207519531
y: 367.7789611816406
z: -0.17545273900032043
visibility: 0.9840652346611023
","x: 250.460693359375
y: 331.3064270019531
z: -0.3577353060245514
visibility: 0.9722365140914917
","x: 269.29345703125
y: 364.4818420410156
z: -0.1932172179222107
visibility: 0.9833114147186279
","x: 253.36996459960938
y: 326.35546875
z: -0.3612751364707947
visibility: 0.9712398052215576
","x: 269.7093505859375
y: 359.9640197753906
z: -0.15860630571842194
visibility: 0.9742094874382019
","x: 252.7421417236328
y: 323.911865234375
z: -0.32337698340415955
visibility: 0.9581096768379211
","x: 268.0572814941406
y: 365.8299255371094
z: -0.0001487572881160304
visibility: 0.9996029138565063
","x: 247.1456298828125
y: 364.80963134765625
z: 4.329946750658564e-05
visibility: 0.9996157288551331
","x: 267.4517517089844
y: 439.3284606933594
z: -0.019111905246973038
visibility: 0.9815965890884399
","x: 251.02369689941406
y: 437.81243896484375
z: -0.007305461913347244
visibility: 0.9799035787582397
","x: 267.90509033203125
y: 498.3138427734375
z: 0.1355244666337967
visibility: 0.973369836807251
","x: 252.21055603027344
y: 498.6533203125
z: 0.12990133464336395
visibility: 0.9749022722244263
","x: 266.7174987792969
y: 504.44207763671875
z: 0.1446826457977295
visibility: 0.8177528977394104
","x: 253.4862060546875
y: 504.5476989746094
z: 0.13833898305892944
visibility: 0.7319997549057007
","x: 266.6493835449219
y: 522.69482421875
z: 0.039460718631744385
visibility: 0.972053050994873
","x: 253.5579833984375
y: 523.2138671875
z: 0.03806031867861748
visibility: 0.9641368985176086
",,,,,,,,,,,,,,,,,,,,,,4.052715063095093,,,,,,,,,,,,,,,,,,,,,
4,"x: 258.47509765625
y: 242.4261474609375
z: -0.24154052138328552
visibility: 0.9998814463615417
","x: 259.98028564453125
y: 237.43727111816406
z: -0.2275833785533905
visibility: 0.9997898936271667
","x: 261.11395263671875
y: 237.69253540039062
z: -0.22755567729473114
visibility: 0.9997441172599792
","x: 262.3145751953125
y: 238.01309204101562
z: -0.2275524139404297
visibility: 0.9997614622116089
","x: 256.6410827636719
y: 237.3879852294922
z: -0.2262713611125946
visibility: 0.9997978210449219
","x: 255.40895080566406
y: 237.6674041748047
z: -0.22631366550922394
visibility: 0.999793529510498
","x: 254.03683471679688
y: 237.9291534423828
z: -0.22634091973304749
visibility: 0.9998415112495422
","x: 264.3140563964844
y: 242.70114135742188
z: -0.14085327088832855
visibility: 0.9994825124740601
","x: 252.2127685546875
y: 242.06544494628906
z: -0.13606126606464386
visibility: 0.9997194409370422
","x: 260.71478271484375
y: 250.3511962890625
z: -0.20912936329841614
visibility: 0.9998264908790588
","x: 256.3923645019531
y: 249.19390869140625
z: -0.20801076292991638
visibility: 0.9998980164527893
","x: 275.397705078125
y: 281.3876647949219
z: -0.08634445816278458
visibility: 0.999815046787262
","x: 242.16571044921875
y: 278.4875183105469
z: -0.08131196349859238
visibility: 0.99985671043396
","x: 284.49212646484375
y: 321.960205078125
z: -0.07459227740764618
visibility: 0.9848130941390991
","x: 232.89138793945312
y: 316.33465576171875
z: -0.1499318927526474
visibility: 0.9862092137336731
","x: 275.09393310546875
y: 354.4073181152344
z: -0.15173408389091492
visibility: 0.9931411147117615
","x: 246.49769592285156
y: 323.7472229003906
z: -0.3183826804161072
visibility: 0.9870781302452087
","x: 272.3650207519531
y: 367.7789611816406
z: -0.17545273900032043
visibility: 0.9840652346611023
","x: 250.460693359375
y: 331.3064270019531
z: -0.3577353060245514
visibility: 0.9722365140914917
","x: 269.29345703125
y: 364.4818420410156
z: -0.1932172179222107
visibility: 0.9833114147186279
","x: 253.36996459960938
y: 326.35546875
z: -0.3612751364707947
visibility: 0.9712398052215576
","x: 269.7093505859375
y: 359.9640197753906
z: -0.15860630571842194
visibility: 0.9742094874382019
","x: 252.7421417236328
y: 323.911865234375
z: -0.32337698340415955
visibility: 0.9581096768379211
","x: 268.0572814941406
y: 365.8299255371094
z: -0.0001487572881160304
visibility: 0.9996029138565063
","x: 247.1456298828125
y: 364.80963134765625
z: 4.329946750658564e-05
visibility: 0.9996157288551331
","x: 267.4517517089844
y: 439.3284606933594
z: -0.019111905246973038
visibility: 0.9815965890884399
","x: 251.02369689941406
y: 437.81243896484375
z: -0.007305461913347244
visibility: 0.9799035787582397
","x: 267.90509033203125
y: 498.3138427734375
z: 0.1355244666337967
visibility: 0.973369836807251
","x: 252.21055603027344
y: 498.6533203125
z: 0.12990133464336395
visibility: 0.9749022722244263
","x: 266.7174987792969
y: 504.44207763671875
z: 0.1446826457977295
visibility: 0.8177528977394104
","x: 253.4862060546875
y: 504.5476989746094
z: 0.13833898305892944
visibility: 0.7319997549057007
","x: 266.6493835449219
y: 522.69482421875
z: 0.039460718631744385
visibility: 0.972053050994873
","x: 253.5579833984375
y: 523.2138671875
z: 0.03806031867861748
visibility: 0.9641368985176086
",,,,,,,,,,,,,,,,,,,,,,4.052715063095093,,,,,,,,,,,,,,,,,,,,,
5,"x: 256.47344970703125
y: 244.44862365722656
z: -0.2516365647315979
visibility: 0.9998877644538879
","x: 257.824462890625
y: 239.19068908691406
z: -0.23761749267578125
visibility: 0.9997921586036682
","x: 258.9745178222656
y: 239.28472900390625
z: -0.23759309947490692
visibility: 0.9997503757476807
","x: 260.1571350097656
y: 239.43472290039062
z: -0.23760190606117249
visibility: 0.9997641444206238
","x: 254.4756622314453
y: 239.4775390625
z: -0.23601296544075012
visibility: 0.9997988343238831
","x: 253.32183837890625
y: 239.84764099121094
z: -0.23606722056865692
visibility: 0.9997947216033936
","x: 252.064453125
y: 240.2243194580078
z: -0.2361123114824295
visibility: 0.9998385906219482
","x: 261.9364318847656
y: 243.47836303710938
z: -0.14803752303123474
visibility: 0.9995099902153015
","x: 250.39389038085938
y: 243.75640869140625
z: -0.1414841264486313
visibility: 0.9996873736381531
","x: 258.73468017578125
y: 251.50123596191406
z: -0.21755126118659973
visibility: 0.9998375773429871
","x: 254.47874450683594
y: 251.3213348388672
z: -0.21598513424396515
visibility: 0.9999009370803833
","x: 273.6609191894531
y: 283.31768798828125
z: -0.09078743308782578
visibility: 0.9998255968093872
","x: 239.83802795410156
y: 279.6386413574219
z: -0.08106644451618195
visibility: 0.9998481869697571
","x: 284.89312744140625
y: 321.2515869140625
z: -0.083286352455616
visibility: 0.9859226942062378
","x: 227.72044372558594
y: 316.63873291015625
z: -0.14074836671352386
visibility: 0.9856020212173462
","x: 278.5602111816406
y: 355.08343505859375
z: -0.1706957072019577
visibility: 0.9923190474510193
","x: 243.5458984375
y: 325.4010009765625
z: -0.30283448100090027
visibility: 0.9856517314910889
","x: 276.49810791015625
y: 366.52392578125
z: -0.1973310261964798
visibility: 0.9816309213638306
","x: 247.42218017578125
y: 334.56011962890625
z: -0.3389512896537781
visibility: 0.9699166417121887
","x: 274.4076232910156
y: 363.092529296875
z: -0.21216730773448944
visibility: 0.9810394644737244
","x: 250.56214904785156
y: 329.8526306152344
z: -0.34285470843315125
visibility: 0.9688830375671387
","x: 274.4214172363281
y: 358.5482177734375
z: -0.1767939031124115
visibility: 0.9713809490203857
","x: 249.96388244628906
y: 326.848388671875
z: -0.30684512853622437
visibility: 0.9546135067939758
","x: 265.8824768066406
y: 367.31939697265625
z: -0.00920127984136343
visibility: 0.9996063709259033
","x: 244.73104858398438
y: 367.090087890625
z: 0.009146640077233315
visibility: 0.9996323585510254
","x: 263.9326477050781
y: 437.6811218261719
z: -0.09906845539808273
visibility: 0.9823126196861267
","x: 249.0809783935547
y: 439.2650146484375
z: -0.020659932866692543
visibility: 0.9787708520889282
","x: 269.3493347167969
y: 474.8517150878906
z: 0.12374144792556763
visibility: 0.9721592664718628
","x: 252.20849609375
y: 498.8953857421875
z: 0.10203723609447479
visibility: 0.9757033586502075
","x: 269.577880859375
y: 476.3635559082031
z: 0.14216038584709167
visibility: 0.8152695298194885
","x: 253.45361328125
y: 504.9461669921875
z: 0.10929270833730698
visibility: 0.744770884513855
","x: 269.5409851074219
y: 504.1665954589844
z: 0.07071356475353241
visibility: 0.9711799025535583
","x: 252.78219604492188
y: 523.192626953125
z: 0.011827918700873852
visibility: 0.9648140668869019
","x: 243.30946350097656
y: 326.4224853515625
z: 0.0
","x: 246.8418731689453
y: 326.9723205566406
z: 0.0014817366609349847
","x: 250.01077270507812
y: 330.38104248046875
z: 0.0012265433324500918
","x: 251.6118621826172
y: 334.730712890625
z: 0.00047565335989929736
","x: 252.30027770996094
y: 338.2482604980469
z: -7.596211071358994e-05
","x: 251.5409393310547
y: 331.1665344238281
z: -0.0012444453313946724
","x: 254.2045440673828
y: 336.9013671875
z: -0.0028906494844704866
","x: 254.32754516601562
y: 340.58282470703125
z: -0.003014430869370699
","x: 253.67935180664062
y: 342.7518310546875
z: -0.0027591439429670572
","x: 250.10447692871094
y: 332.953125
z: -0.003140194807201624
","x: 252.5836639404297
y: 339.08831787109375
z: -0.004988175816833973
","x: 252.61221313476562
y: 342.3177490234375
z: -0.004544341936707497
","x: 252.05972290039062
y: 343.9453125
z: -0.00388890178874135
","x: 248.22015380859375
y: 334.7367858886719
z: -0.004910420160740614
","x: 250.23968505859375
y: 340.53643798828125
z: -0.006546790711581707
","x: 250.32168579101562
y: 343.53802490234375
z: -0.005598435178399086
","x: 250.07183837890625
y: 344.9930419921875
z: -0.004607663955539465
","x: 246.1431884765625
y: 336.34442138671875
z: -0.006661648862063885
","x: 247.6351318359375
y: 341.1240234375
z: -0.00813186913728714
","x: 248.27737426757812
y: 344.14044189453125
z: -0.007837633602321148
","x: 248.76699829101562
y: 346.2208251953125
z: -0.007200142368674278
",4.175432443618774,"x: 279.7677917480469
y: 357.17315673828125
z: 0.0
","x: 277.822509765625
y: 357.1907958984375
z: -0.003853121306747198
","x: 276.0382080078125
y: 359.2420959472656
z: -0.006684319116175175
","x: 274.2962951660156
y: 362.61627197265625
z: -0.008725174702703953
","x: 273.0985412597656
y: 365.8219909667969
z: -0.010423281230032444
","x: 278.4099426269531
y: 365.31494140625
z: -0.009658328257501125
","x: 275.24114990234375
y: 370.5117492675781
z: -0.012440466322004795
","x: 272.7923889160156
y: 371.0711364746094
z: -0.012620908208191395
","x: 271.13641357421875
y: 370.4359130859375
z: -0.012325095012784004
","x: 279.0580139160156
y: 368.430419921875
z: -0.008802295662462711
","x: 275.3251037597656
y: 373.51995849609375
z: -0.011381090618669987
","x: 272.6280517578125
y: 373.2152099609375
z: -0.010483083315193653
","x: 271.08880615234375
y: 371.9970397949219
z: -0.009647676721215248
","x: 279.0764465332031
y: 370.25213623046875
z: -0.007898841053247452
","x: 275.71630859375
y: 374.90625
z: -0.01047389768064022
","x: 273.2198181152344
y: 374.4325256347656
z: -0.009794791229069233
","x: 271.7667236328125
y: 373.1277160644531
z: -0.009067919105291367
","x: 278.46099853515625
y: 370.968505859375
z: -0.00718851201236248
","x: 275.7582092285156
y: 374.6002197265625
z: -0.009517074562609196
","x: 273.7508544921875
y: 374.70587158203125
z: -0.009490769356489182
","x: 272.3610534667969
y: 373.82098388671875
z: -0.009016378782689571
"
6,"x: 256.47344970703125
y: 244.44862365722656
z: -0.2516365647315979
visibility: 0.9998877644538879
","x: 257.824462890625
y: 239.19068908691406
z: -0.23761749267578125
visibility: 0.9997921586036682
","x: 258.9745178222656
y: 239.28472900390625
z: -0.23759309947490692
visibility: 0.9997503757476807
","x: 260.1571350097656
y: 239.43472290039062
z: -0.23760190606117249
visibility: 0.9997641444206238
","x: 254.4756622314453
y: 239.4775390625
z: -0.23601296544075012
visibility: 0.9997988343238831
","x: 253.32183837890625
y: 239.84764099121094
z: -0.23606722056865692
visibility: 0.9997947216033936
","x: 252.064453125
y: 240.2243194580078
z: -0.2361123114824295
visibility: 0.9998385906219482
","x: 261.9364318847656
y: 243.47836303710938
z: -0.14803752303123474
visibility: 0.9995099902153015
","x: 250.39389038085938
y: 243.75640869140625
z: -0.1414841264486313
visibility: 0.9996873736381531
","x: 258.73468017578125
y: 251.50123596191406
z: -0.21755126118659973
visibility: 0.9998375773429871
","x: 254.47874450683594
y: 251.3213348388672
z: -0.21598513424396515
visibility: 0.9999009370803833
","x: 273.6609191894531
y: 283.31768798828125
z: -0.09078743308782578
visibility: 0.9998255968093872
","x: 239.83802795410156
y: 279.6386413574219
z: -0.08106644451618195
visibility: 0.9998481869697571
","x: 284.89312744140625
y: 321.2515869140625
z: -0.083286352455616
visibility: 0.9859226942062378
","x: 227.72044372558594
y: 316.63873291015625
z: -0.14074836671352386
visibility: 0.9856020212173462
","x: 278.5602111816406
y: 355.08343505859375
z: -0.1706957072019577
visibility: 0.9923190474510193
","x: 243.5458984375
y: 325.4010009765625
z: -0.30283448100090027
visibility: 0.9856517314910889
","x: 276.49810791015625
y: 366.52392578125
z: -0.1973310261964798
visibility: 0.9816309213638306
","x: 247.42218017578125
y: 334.56011962890625
z: -0.3389512896537781
visibility: 0.9699166417121887
","x: 274.4076232910156
y: 363.092529296875
z: -0.21216730773448944
visibility: 0.9810394644737244
","x: 250.56214904785156
y: 329.8526306152344
z: -0.34285470843315125
visibility: 0.9688830375671387
","x: 274.4214172363281
y: 358.5482177734375
z: -0.1767939031124115
visibility: 0.9713809490203857
","x: 249.96388244628906
y: 326.848388671875
z: -0.30684512853622437
visibility: 0.9546135067939758
","x: 265.8824768066406
y: 367.31939697265625
z: -0.00920127984136343
visibility: 0.9996063709259033
","x: 244.73104858398438
y: 367.090087890625
z: 0.009146640077233315
visibility: 0.9996323585510254
","x: 263.9326477050781
y: 437.6811218261719
z: -0.09906845539808273
visibility: 0.9823126196861267
","x: 249.0809783935547
y: 439.2650146484375
z: -0.020659932866692543
visibility: 0.9787708520889282
","x: 269.3493347167969
y: 474.8517150878906
z: 0.12374144792556763
visibility: 0.9721592664718628
","x: 252.20849609375
y: 498.8953857421875
z: 0.10203723609447479
visibility: 0.9757033586502075
","x: 269.577880859375
y: 476.3635559082031
z: 0.14216038584709167
visibility: 0.8152695298194885
","x: 253.45361328125
y: 504.9461669921875
z: 0.10929270833730698
visibility: 0.744770884513855
","x: 269.5409851074219
y: 504.1665954589844
z: 0.07071356475353241
visibility: 0.9711799025535583
","x: 252.78219604492188
y: 523.192626953125
z: 0.011827918700873852
visibility: 0.9648140668869019
","x: 243.30946350097656
y: 326.4224853515625
z: 0.0
","x: 246.8418731689453
y: 326.9723205566406
z: 0.0014817366609349847
","x: 250.01077270507812
y: 330.38104248046875
z: 0.0012265433324500918
","x: 251.6118621826172
y: 334.730712890625
z: 0.00047565335989929736
","x: 252.30027770996094
y: 338.2482604980469
z: -7.596211071358994e-05
","x: 251.5409393310547
y: 331.1665344238281
z: -0.0012444453313946724
","x: 254.2045440673828
y: 336.9013671875
z: -0.0028906494844704866
","x: 254.32754516601562
y: 340.58282470703125
z: -0.003014430869370699
","x: 253.67935180664062
y: 342.7518310546875
z: -0.0027591439429670572
","x: 250.10447692871094
y: 332.953125
z: -0.003140194807201624
","x: 252.5836639404297
y: 339.08831787109375
z: -0.004988175816833973
","x: 252.61221313476562
y: 342.3177490234375
z: -0.004544341936707497
","x: 252.05972290039062
y: 343.9453125
z: -0.00388890178874135
","x: 248.22015380859375
y: 334.7367858886719
z: -0.004910420160740614
","x: 250.23968505859375
y: 340.53643798828125
z: -0.006546790711581707
","x: 250.32168579101562
y: 343.53802490234375
z: -0.005598435178399086
","x: 250.07183837890625
y: 344.9930419921875
z: -0.004607663955539465
","x: 246.1431884765625
y: 336.34442138671875
z: -0.006661648862063885
","x: 247.6351318359375
y: 341.1240234375
z: -0.00813186913728714
","x: 248.27737426757812
y: 344.14044189453125
z: -0.007837633602321148
","x: 248.76699829101562
y: 346.2208251953125
z: -0.007200142368674278
",4.175432443618774,"x: 279.7677917480469
y: 357.17315673828125
z: 0.0
","x: 277.822509765625
y: 357.1907958984375
z: -0.003853121306747198
","x: 276.0382080078125
y: 359.2420959472656
z: -0.006684319116175175
","x: 274.2962951660156
y: 362.61627197265625
z: -0.008725174702703953
","x: 273.0985412597656
y: 365.8219909667969
z: -0.010423281230032444
","x: 278.4099426269531
y: 365.31494140625
z: -0.009658328257501125
","x: 275.24114990234375
y: 370.5117492675781
z: -0.012440466322004795
","x: 272.7923889160156
y: 371.0711364746094
z: -0.012620908208191395
","x: 271.13641357421875
y: 370.4359130859375
z: -0.012325095012784004
","x: 279.0580139160156
y: 368.430419921875
z: -0.008802295662462711
","x: 275.3251037597656
y: 373.51995849609375
z: -0.011381090618669987
","x: 272.6280517578125
y: 373.2152099609375
z: -0.010483083315193653
","x: 271.08880615234375
y: 371.9970397949219
z: -0.009647676721215248
","x: 279.0764465332031
y: 370.25213623046875
z: -0.007898841053247452
","x: 275.71630859375
y: 374.90625
z: -0.01047389768064022
","x: 273.2198181152344
y: 374.4325256347656
z: -0.009794791229069233
","x: 271.7667236328125
y: 373.1277160644531
z: -0.009067919105291367
","x: 278.46099853515625
y: 370.968505859375
z: -0.00718851201236248
","x: 275.7582092285156
y: 374.6002197265625
z: -0.009517074562609196
","x: 273.7508544921875
y: 374.70587158203125
z: -0.009490769356489182
","x: 272.3610534667969
y: 373.82098388671875
z: -0.009016378782689571
"
7,"x: 256.47344970703125
y: 244.44862365722656
z: -0.2516365647315979
visibility: 0.9998877644538879
","x: 257.824462890625
y: 239.19068908691406
z: -0.23761749267578125
visibility: 0.9997921586036682
","x: 258.9745178222656
y: 239.28472900390625
z: -0.23759309947490692
visibility: 0.9997503757476807
","x: 260.1571350097656
y: 239.43472290039062
z: -0.23760190606117249
visibility: 0.9997641444206238
","x: 254.4756622314453
y: 239.4775390625
z: -0.23601296544075012
visibility: 0.9997988343238831
","x: 253.32183837890625
y: 239.84764099121094
z: -0.23606722056865692
visibility: 0.9997947216033936
","x: 252.064453125
y: 240.2243194580078
z: -0.2361123114824295
visibility: 0.9998385906219482
","x: 261.9364318847656
y: 243.47836303710938
z: -0.14803752303123474
visibility: 0.9995099902153015
","x: 250.39389038085938
y: 243.75640869140625
z: -0.1414841264486313
visibility: 0.9996873736381531
","x: 258.73468017578125
y: 251.50123596191406
z: -0.21755126118659973
visibility: 0.9998375773429871
","x: 254.47874450683594
y: 251.3213348388672
z: -0.21598513424396515
visibility: 0.9999009370803833
","x: 273.6609191894531
y: 283.31768798828125
z: -0.09078743308782578
visibility: 0.9998255968093872
","x: 239.83802795410156
y: 279.6386413574219
z: -0.08106644451618195
visibility: 0.9998481869697571
","x: 284.89312744140625
y: 321.2515869140625
z: -0.083286352455616
visibility: 0.9859226942062378
","x: 227.72044372558594
y: 316.63873291015625
z: -0.14074836671352386
visibility: 0.9856020212173462
","x: 278.5602111816406
y: 355.08343505859375
z: -0.1706957072019577
visibility: 0.9923190474510193
","x: 243.5458984375
y: 325.4010009765625
z: -0.30283448100090027
visibility: 0.9856517314910889
","x: 276.49810791015625
y: 366.52392578125
z: -0.1973310261964798
visibility: 0.9816309213638306
","x: 247.42218017578125
y: 334.56011962890625
z: -0.3389512896537781
visibility: 0.9699166417121887
","x: 274.4076232910156
y: 363.092529296875
z: -0.21216730773448944
visibility: 0.9810394644737244
","x: 250.56214904785156
y: 329.8526306152344
z: -0.34285470843315125
visibility: 0.9688830375671387
","x: 274.4214172363281
y: 358.5482177734375
z: -0.1767939031124115
visibility: 0.9713809490203857
","x: 249.96388244628906
y: 326.848388671875
z: -0.30684512853622437
visibility: 0.9546135067939758
","x: 265.8824768066406
y: 367.31939697265625
z: -0.00920127984136343
visibility: 0.9996063709259033
","x: 244.73104858398438
y: 367.090087890625
z: 0.009146640077233315
visibility: 0.9996323585510254
","x: 263.9326477050781
y: 437.6811218261719
z: -0.09906845539808273
visibility: 0.9823126196861267
","x: 249.0809783935547
y: 439.2650146484375
z: -0.020659932866692543
visibility: 0.9787708520889282
","x: 269.3493347167969
y: 474.8517150878906
z: 0.12374144792556763
visibility: 0.9721592664718628
","x: 252.20849609375
y: 498.8953857421875
z: 0.10203723609447479
visibility: 0.9757033586502075
","x: 269.577880859375
y: 476.3635559082031
z: 0.14216038584709167
visibility: 0.8152695298194885
","x: 253.45361328125
y: 504.9461669921875
z: 0.10929270833730698
visibility: 0.744770884513855
","x: 269.5409851074219
y: 504.1665954589844
z: 0.07071356475353241
visibility: 0.9711799025535583
","x: 252.78219604492188
y: 523.192626953125
z: 0.011827918700873852
visibility: 0.9648140668869019
","x: 243.30946350097656
y: 326.4224853515625
z: 0.0
","x: 246.8418731689453
y: 326.9723205566406
z: 0.0014817366609349847
","x: 250.01077270507812
y: 330.38104248046875
z: 0.0012265433324500918
","x: 251.6118621826172
y: 334.730712890625
z: 0.00047565335989929736
","x: 252.30027770996094
y: 338.2482604980469
z: -7.596211071358994e-05
","x: 251.5409393310547
y: 331.1665344238281
z: -0.0012444453313946724
","x: 254.2045440673828
y: 336.9013671875
z: -0.0028906494844704866
","x: 254.32754516601562
y: 340.58282470703125
z: -0.003014430869370699
","x: 253.67935180664062
y: 342.7518310546875
z: -0.0027591439429670572
","x: 250.10447692871094
y: 332.953125
z: -0.003140194807201624
","x: 252.5836639404297
y: 339.08831787109375
z: -0.004988175816833973
","x: 252.61221313476562
y: 342.3177490234375
z: -0.004544341936707497
","x: 252.05972290039062
y: 343.9453125
z: -0.00388890178874135
","x: 248.22015380859375
y: 334.7367858886719
z: -0.004910420160740614
","x: 250.23968505859375
y: 340.53643798828125
z: -0.006546790711581707
","x: 250.32168579101562
y: 343.53802490234375
z: -0.005598435178399086
","x: 250.07183837890625
y: 344.9930419921875
z: -0.004607663955539465
","x: 246.1431884765625
y: 336.34442138671875
z: -0.006661648862063885
","x: 247.6351318359375
y: 341.1240234375
z: -0.00813186913728714
","x: 248.27737426757812
y: 344.14044189453125
z: -0.007837633602321148
","x: 248.76699829101562
y: 346.2208251953125
z: -0.007200142368674278
",4.175432443618774,"x: 279.7677917480469
y: 357.17315673828125
z: 0.0
","x: 277.822509765625
y: 357.1907958984375
z: -0.003853121306747198
","x: 276.0382080078125
y: 359.2420959472656
z: -0.006684319116175175
","x: 274.2962951660156
y: 362.61627197265625
z: -0.008725174702703953
","x: 273.0985412597656
y: 365.8219909667969
z: -0.010423281230032444
","x: 278.4099426269531
y: 365.31494140625
z: -0.009658328257501125
","x: 275.24114990234375
y: 370.5117492675781
z: -0.012440466322004795
","x: 272.7923889160156
y: 371.0711364746094
z: -0.012620908208191395
","x: 271.13641357421875
y: 370.4359130859375
z: -0.012325095012784004
","x: 279.0580139160156
y: 368.430419921875
z: -0.008802295662462711
","x: 275.3251037597656
y: 373.51995849609375
z: -0.011381090618669987
","x: 272.6280517578125
y: 373.2152099609375
z: -0.010483083315193653
","x: 271.08880615234375
y: 371.9970397949219
z: -0.009647676721215248
","x: 279.0764465332031
y: 370.25213623046875
z: -0.007898841053247452
","x: 275.71630859375
y: 374.90625
z: -0.01047389768064022
","x: 273.2198181152344
y: 374.4325256347656
z: -0.009794791229069233
","x: 271.7667236328125
y: 373.1277160644531
z: -0.009067919105291367
","x: 278.46099853515625
y: 370.968505859375
z: -0.00718851201236248
","x: 275.7582092285156
y: 374.6002197265625
z: -0.009517074562609196
","x: 273.7508544921875
y: 374.70587158203125
z: -0.009490769356489182
","x: 272.3610534667969
y: 373.82098388671875
z: -0.009016378782689571
"
8,"x: 256.47344970703125
y: 244.44862365722656
z: -0.2516365647315979
visibility: 0.9998877644538879
","x: 257.824462890625
y: 239.19068908691406
z: -0.23761749267578125
visibility: 0.9997921586036682
","x: 258.9745178222656
y: 239.28472900390625
z: -0.23759309947490692
visibility: 0.9997503757476807
","x: 260.1571350097656
y: 239.43472290039062
z: -0.23760190606117249
visibility: 0.9997641444206238
","x: 254.4756622314453
y: 239.4775390625
z: -0.23601296544075012
visibility: 0.9997988343238831
","x: 253.32183837890625
y: 239.84764099121094
z: -0.23606722056865692
visibility: 0.9997947216033936
","x: 252.064453125
y: 240.2243194580078
z: -0.2361123114824295
visibility: 0.9998385906219482
","x: 261.9364318847656
y: 243.47836303710938
z: -0.14803752303123474
visibility: 0.9995099902153015
","x: 250.39389038085938
y: 243.75640869140625
z: -0.1414841264486313
visibility: 0.9996873736381531
","x: 258.73468017578125
y: 251.50123596191406
z: -0.21755126118659973
visibility: 0.9998375773429871
","x: 254.47874450683594
y: 251.3213348388672
z: -0.21598513424396515
visibility: 0.9999009370803833
","x: 273.6609191894531
y: 283.31768798828125
z: -0.09078743308782578
visibility: 0.9998255968093872
","x: 239.83802795410156
y: 279.6386413574219
z: -0.08106644451618195
visibility: 0.9998481869697571
","x: 284.89312744140625
y: 321.2515869140625
z: -0.083286352455616
visibility: 0.9859226942062378
","x: 227.72044372558594
y: 316.63873291015625
z: -0.14074836671352386
visibility: 0.9856020212173462
","x: 278.5602111816406
y: 355.08343505859375
z: -0.1706957072019577
visibility: 0.9923190474510193
","x: 243.5458984375
y: 325.4010009765625
z: -0.30283448100090027
visibility: 0.9856517314910889
","x: 276.49810791015625
y: 366.52392578125
z: -0.1973310261964798
visibility: 0.9816309213638306
","x: 247.42218017578125
y: 334.56011962890625
z: -0.3389512896537781
visibility: 0.9699166417121887
","x: 274.4076232910156
y: 363.092529296875
z: -0.21216730773448944
visibility: 0.9810394644737244
","x: 250.56214904785156
y: 329.8526306152344
z: -0.34285470843315125
visibility: 0.9688830375671387
","x: 274.4214172363281
y: 358.5482177734375
z: -0.1767939031124115
visibility: 0.9713809490203857
","x: 249.96388244628906
y: 326.848388671875
z: -0.30684512853622437
visibility: 0.9546135067939758
","x: 265.8824768066406
y: 367.31939697265625
z: -0.00920127984136343
visibility: 0.9996063709259033
","x: 244.73104858398438
y: 367.090087890625
z: 0.009146640077233315
visibility: 0.9996323585510254
","x: 263.9326477050781
y: 437.6811218261719
z: -0.09906845539808273
visibility: 0.9823126196861267
","x: 249.0809783935547
y: 439.2650146484375
z: -0.020659932866692543
visibility: 0.9787708520889282
","x: 269.3493347167969
y: 474.8517150878906
z: 0.12374144792556763
visibility: 0.9721592664718628
","x: 252.20849609375
y: 498.8953857421875
z: 0.10203723609447479
visibility: 0.9757033586502075
","x: 269.577880859375
y: 476.3635559082031
z: 0.14216038584709167
visibility: 0.8152695298194885
","x: 253.45361328125
y: 504.9461669921875
z: 0.10929270833730698
visibility: 0.744770884513855
","x: 269.5409851074219
y: 504.1665954589844
z: 0.07071356475353241
visibility: 0.9711799025535583
","x: 252.78219604492188
y: 523.192626953125
z: 0.011827918700873852
visibility: 0.9648140668869019
","x: 243.30946350097656
y: 326.4224853515625
z: 0.0
","x: 246.8418731689453
y: 326.9723205566406
z: 0.0014817366609349847
","x: 250.01077270507812
y: 330.38104248046875
z: 0.0012265433324500918
","x: 251.6118621826172
y: 334.730712890625
z: 0.00047565335989929736
","x: 252.30027770996094
y: 338.2482604980469
z: -7.596211071358994e-05
","x: 251.5409393310547
y: 331.1665344238281
z: -0.0012444453313946724
","x: 254.2045440673828
y: 336.9013671875
z: -0.0028906494844704866
","x: 254.32754516601562
y: 340.58282470703125
z: -0.003014430869370699
","x: 253.67935180664062
y: 342.7518310546875
z: -0.0027591439429670572
","x: 250.10447692871094
y: 332.953125
z: -0.003140194807201624
","x: 252.5836639404297
y: 339.08831787109375
z: -0.004988175816833973
","x: 252.61221313476562
y: 342.3177490234375
z: -0.004544341936707497
","x: 252.05972290039062
y: 343.9453125
z: -0.00388890178874135
","x: 248.22015380859375
y: 334.7367858886719
z: -0.004910420160740614
","x: 250.23968505859375
y: 340.53643798828125
z: -0.006546790711581707
","x: 250.32168579101562
y: 343.53802490234375
z: -0.005598435178399086
","x: 250.07183837890625
y: 344.9930419921875
z: -0.004607663955539465
","x: 246.1431884765625
y: 336.34442138671875
z: -0.006661648862063885
","x: 247.6351318359375
y: 341.1240234375
z: -0.00813186913728714
","x: 248.27737426757812
y: 344.14044189453125
z: -0.007837633602321148
","x: 248.76699829101562
y: 346.2208251953125
z: -0.007200142368674278
",4.175432443618774,"x: 279.7677917480469
y: 357.17315673828125
z: 0.0
","x: 277.822509765625
y: 357.1907958984375
z: -0.003853121306747198
","x: 276.0382080078125
y: 359.2420959472656
z: -0.006684319116175175
","x: 274.2962951660156
y: 362.61627197265625
z: -0.008725174702703953
","x: 273.0985412597656
y: 365.8219909667969
z: -0.010423281230032444
","x: 278.4099426269531
y: 365.31494140625
z: -0.009658328257501125
","x: 275.24114990234375
y: 370.5117492675781
z: -0.012440466322004795
","x: 272.7923889160156
y: 371.0711364746094
z: -0.012620908208191395
","x: 271.13641357421875
y: 370.4359130859375
z: -0.012325095012784004
","x: 279.0580139160156
y: 368.430419921875
z: -0.008802295662462711
","x: 275.3251037597656
y: 373.51995849609375
z: -0.011381090618669987
","x: 272.6280517578125
y: 373.2152099609375
z: -0.010483083315193653
","x: 271.08880615234375
y: 371.9970397949219
z: -0.009647676721215248
","x: 279.0764465332031
y: 370.25213623046875
z: -0.007898841053247452
","x: 275.71630859375
y: 374.90625
z: -0.01047389768064022
","x: 273.2198181152344
y: 374.4325256347656
z: -0.009794791229069233
","x: 271.7667236328125
y: 373.1277160644531
z: -0.009067919105291367
","x: 278.46099853515625
y: 370.968505859375
z: -0.00718851201236248
","x: 275.7582092285156
y: 374.6002197265625
z: -0.009517074562609196
","x: 273.7508544921875
y: 374.70587158203125
z: -0.009490769356489182
","x: 272.3610534667969
y: 373.82098388671875
z: -0.009016378782689571
"
9,"x: 255.77745056152344
y: 246.12454223632812
z: -0.2714352011680603
visibility: 0.999896764755249
","x: 257.1229553222656
y: 240.6765899658203
z: -0.2567651569843292
visibility: 0.9998071789741516
","x: 258.25555419921875
y: 240.655029296875
z: -0.256730854511261
visibility: 0.9997693300247192
","x: 259.3334655761719
y: 240.68154907226562
z: -0.2567577064037323
visibility: 0.9997819066047668
","x: 253.7257537841797
y: 241.14993286132812
z: -0.2570807933807373
visibility: 0.9998124241828918
","x: 252.60386657714844
y: 241.49029541015625
z: -0.25715288519859314
visibility: 0.9998087882995605
","x: 251.498046875
y: 241.82391357421875
z: -0.2572018504142761
visibility: 0.999848484992981
","x: 260.86236572265625
y: 244.42422485351562
z: -0.15672650933265686
visibility: 0.9995534420013428
","x: 250.08871459960938
y: 245.16297912597656
z: -0.15873414278030396
visibility: 0.9996984004974365
","x: 258.16326904296875
y: 252.9051055908203
z: -0.2325572520494461
visibility: 0.9998511672019958
","x: 253.70718383789062
y: 253.2867431640625
z: -0.23355261981487274
visibility: 0.9999069571495056
","x: 271.61480712890625
y: 283.4488525390625
z: -0.0825159102678299
visibility: 0.9998394250869751
","x: 238.9812469482422
y: 279.54180908203125
z: -0.09143660217523575
visibility: 0.9998418688774109
","x: 282.4817810058594
y: 319.5799865722656
z: -0.05861758440732956
visibility: 0.9869087338447571
","x: 228.30894470214844
y: 315.8946533203125
z: -0.16566063463687897
visibility: 0.9852862358093262
","x: 280.917236328125
y: 357.16748046875
z: -0.1343296319246292
visibility: 0.992042601108551
","x: 242.17042541503906
y: 325.30413818359375
z: -0.3473169207572937
visibility: 0.9853699803352356
","x: 281.345947265625
y: 369.26837158203125
z: -0.15658317506313324
visibility: 0.9808863401412964
","x: 245.36744689941406
y: 334.18646240234375
z: -0.3855288326740265
visibility: 0.9696699380874634
","x: 278.580078125
y: 368.6465148925781
z: -0.17970561981201172
visibility: 0.980563759803772
","x: 248.62551879882812
y: 330.02435302734375
z: -0.39136040210723877
visibility: 0.9687160849571228
","x: 277.68682861328125
y: 364.5550231933594
z: -0.14348676800727844
visibility: 0.9707851409912109
","x: 248.15826416015625
y: 326.935302734375
z: -0.3522675335407257
visibility: 0.9537118673324585
","x: 264.4516296386719
y: 366.6003112792969
z: -0.011555524542927742
visibility: 0.9996321797370911
","x: 243.24737548828125
y: 366.3460693359375
z: 0.011519409716129303
visibility: 0.9996494650840759
","x: 260.2205810546875
y: 432.46954345703125
z: -0.20007379353046417
visibility: 0.983306348323822
","x: 247.69998168945312
y: 439.0939636230469
z: -0.0294258501380682
visibility: 0.9735313653945923
","x: 265.6004333496094
y: 479.361328125
z: -0.01944311521947384
visibility: 0.9723153114318848
","x: 252.21966552734375
y: 499.5995788574219
z: 0.08812551945447922
visibility: 0.97507643699646
","x: 267.08148193359375
y: 481.5993957519531
z: -0.004501421935856342
visibility: 0.8142284750938416
","x: 253.7966766357422
y: 506.8989562988281
z: 0.09440572559833527
visibility: 0.7525095343589783
","x: 263.0926818847656
y: 508.8913269042969
z: -0.09452976286411285
visibility: 0.9715479016304016
","x: 252.25015258789062
y: 523.2491455078125
z: -0.003719387110322714
visibility: 0.9635341763496399
","x: 243.27584838867188
y: 327.115234375
z: 0.0
","x: 247.00221252441406
y: 327.2558898925781
z: 0.0019722464494407177
","x: 250.13592529296875
y: 330.37164306640625
z: 0.0019534174352884293
","x: 251.54537963867188
y: 334.4833679199219
z: 0.001358486944809556
","x: 251.81222534179688
y: 337.9862060546875
z: 0.000883599859662354
","x: 251.6739501953125
y: 331.1883544921875
z: -0.0011678021401166916
","x: 254.39199829101562
y: 336.8246154785156
z: -0.002451830543577671
","x: 254.3881072998047
y: 339.9313659667969
z: -0.001930727157741785
","x: 253.61866760253906
y: 341.1819763183594
z: -0.0011264263885095716
","x: 250.20867919921875
y: 333.75897216796875
z: -0.003155655926093459
","x: 252.87771606445312
y: 340.1646423339844
z: -0.004473704844713211
","x: 252.6623992919922
y: 342.781005859375
z: -0.003224041545763612
","x: 251.86053466796875
y: 343.33349609375
z: -0.0018850875785574317
","x: 248.3056640625
y: 336.1899108886719
z: -0.004989122040569782
","x: 250.72369384765625
y: 342.52301025390625
z: -0.006194900721311569
","x: 250.5388946533203
y: 344.526123046875
z: -0.004596719518303871
","x: 249.90704345703125
y: 344.53033447265625
z: -0.003089167643338442
","x: 246.19732666015625
y: 338.1904296875
z: -0.0067662629298865795
","x: 247.99380493164062
y: 343.5217590332031
z: -0.007920106872916222
","x: 248.5531768798828
y: 345.9815673828125
z: -0.007215805817395449
","x: 248.83334350585938
y: 346.99493408203125
z: -0.006194177083671093
",4.320091485977173,,,,,,,,,,,,,,,,,,,,,
10,"x: 255.77745056152344
y: 246.12454223632812
z: -0.2714352011680603
visibility: 0.999896764755249
","x: 257.1229553222656
y: 240.6765899658203
z: -0.2567651569843292
visibility: 0.9998071789741516
","x: 258.25555419921875
y: 240.655029296875
z: -0.256730854511261
visibility: 0.9997693300247192
","x: 259.3334655761719
y: 240.68154907226562
z: -0.2567577064037323
visibility: 0.9997819066047668
","x: 253.7257537841797
y: 241.14993286132812
z: -0.2570807933807373
visibility: 0.9998124241828918
","x: 252.60386657714844
y: 241.49029541015625
z: -0.25715288519859314
visibility: 0.9998087882995605
","x: 251.498046875
y: 241.82391357421875
z: -0.2572018504142761
visibility: 0.999848484992981
","x: 260.86236572265625
y: 244.42422485351562
z: -0.15672650933265686
visibility: 0.9995534420013428
","x: 250.08871459960938
y: 245.16297912597656
z: -0.15873414278030396
visibility: 0.9996984004974365
","x: 258.16326904296875
y: 252.9051055908203
z: -0.2325572520494461
visibility: 0.9998511672019958
","x: 253.70718383789062
y: 253.2867431640625
z: -0.23355261981487274
visibility: 0.9999069571495056
","x: 271.61480712890625
y: 283.4488525390625
z: -0.0825159102678299
visibility: 0.9998394250869751
","x: 238.9812469482422
y: 279.54180908203125
z: -0.09143660217523575
visibility: 0.9998418688774109
","x: 282.4817810058594
y: 319.5799865722656
z: -0.05861758440732956
visibility: 0.9869087338447571
","x: 228.30894470214844
y: 315.8946533203125
z: -0.16566063463687897
visibility: 0.9852862358093262
","x: 280.917236328125
y: 357.16748046875
z: -0.1343296319246292
visibility: 0.992042601108551
","x: 242.17042541503906
y: 325.30413818359375
z: -0.3473169207572937
visibility: 0.9853699803352356
","x: 281.345947265625
y: 369.26837158203125
z: -0.15658317506313324
visibility: 0.9808863401412964
","x: 245.36744689941406
y: 334.18646240234375
z: -0.3855288326740265
visibility: 0.9696699380874634
","x: 278.580078125
y: 368.6465148925781
z: -0.17970561981201172
visibility: 0.980563759803772
","x: 248.62551879882812
y: 330.02435302734375
z: -0.39136040210723877
visibility: 0.9687160849571228
","x: 277.68682861328125
y: 364.5550231933594
z: -0.14348676800727844
visibility: 0.9707851409912109
","x: 248.15826416015625
y: 326.935302734375
z: -0.3522675335407257
visibility: 0.9537118673324585
","x: 264.4516296386719
y: 366.6003112792969
z: -0.011555524542927742
visibility: 0.9996321797370911
","x: 243.24737548828125
y: 366.3460693359375
z: 0.011519409716129303
visibility: 0.9996494650840759
","x: 260.2205810546875
y: 432.46954345703125
z: -0.20007379353046417
visibility: 0.983306348323822
","x: 247.69998168945312
y: 439.0939636230469
z: -0.0294258501380682
visibility: 0.9735313653945923
","x: 265.6004333496094
y: 479.361328125
z: -0.01944311521947384
visibility: 0.9723153114318848
","x: 252.21966552734375
y: 499.5995788574219
z: 0.08812551945447922
visibility: 0.97507643699646
","x: 267.08148193359375
y: 481.5993957519531
z: -0.004501421935856342
visibility: 0.8142284750938416
","x: 253.7966766357422
y: 506.8989562988281
z: 0.09440572559833527
visibility: 0.7525095343589783
","x: 263.0926818847656
y: 508.8913269042969
z: -0.09452976286411285
visibility: 0.9715479016304016
","x: 252.25015258789062
y: 523.2491455078125
z: -0.003719387110322714
visibility: 0.9635341763496399
","x: 243.27584838867188
y: 327.115234375
z: 0.0
","x: 247.00221252441406
y: 327.2558898925781
z: 0.0019722464494407177
","x: 250.13592529296875
y: 330.37164306640625
z: 0.0019534174352884293
","x: 251.54537963867188
y: 334.4833679199219
z: 0.001358486944809556
","x: 251.81222534179688
y: 337.9862060546875
z: 0.000883599859662354
","x: 251.6739501953125
y: 331.1883544921875
z: -0.0011678021401166916
","x: 254.39199829101562
y: 336.8246154785156
z: -0.002451830543577671
","x: 254.3881072998047
y: 339.9313659667969
z: -0.001930727157741785
","x: 253.61866760253906
y: 341.1819763183594
z: -0.0011264263885095716
","x: 250.20867919921875
y: 333.75897216796875
z: -0.003155655926093459
","x: 252.87771606445312
y: 340.1646423339844
z: -0.004473704844713211
","x: 252.6623992919922
y: 342.781005859375
z: -0.003224041545763612
","x: 251.86053466796875
y: 343.33349609375
z: -0.0018850875785574317
","x: 248.3056640625
y: 336.1899108886719
z: -0.004989122040569782
","x: 250.72369384765625
y: 342.52301025390625
z: -0.006194900721311569
","x: 250.5388946533203
y: 344.526123046875
z: -0.004596719518303871
","x: 249.90704345703125
y: 344.53033447265625
z: -0.003089167643338442
","x: 246.19732666015625
y: 338.1904296875
z: -0.0067662629298865795
","x: 247.99380493164062
y: 343.5217590332031
z: -0.007920106872916222
","x: 248.5531768798828
y: 345.9815673828125
z: -0.007215805817395449
","x: 248.83334350585938
y: 346.99493408203125
z: -0.006194177083671093
",4.320091485977173,,,,,,,,,,,,,,,,,,,,,
11,"x: 255.77745056152344
y: 246.12454223632812
z: -0.2714352011680603
visibility: 0.999896764755249
","x: 257.1229553222656
y: 240.6765899658203
z: -0.2567651569843292
visibility: 0.9998071789741516
","x: 258.25555419921875
y: 240.655029296875
z: -0.256730854511261
visibility: 0.9997693300247192
","x: 259.3334655761719
y: 240.68154907226562
z: -0.2567577064037323
visibility: 0.9997819066047668
","x: 253.7257537841797
y: 241.14993286132812
z: -0.2570807933807373
visibility: 0.9998124241828918
","x: 252.60386657714844
y: 241.49029541015625
z: -0.25715288519859314
visibility: 0.9998087882995605
","x: 251.498046875
y: 241.82391357421875
z: -0.2572018504142761
visibility: 0.999848484992981
","x: 260.86236572265625
y: 244.42422485351562
z: -0.15672650933265686
visibility: 0.9995534420013428
","x: 250.08871459960938
y: 245.16297912597656
z: -0.15873414278030396
visibility: 0.9996984004974365
","x: 258.16326904296875
y: 252.9051055908203
z: -0.2325572520494461
visibility: 0.9998511672019958
","x: 253.70718383789062
y: 253.2867431640625
z: -0.23355261981487274
visibility: 0.9999069571495056
","x: 271.61480712890625
y: 283.4488525390625
z: -0.0825159102678299
visibility: 0.9998394250869751
","x: 238.9812469482422
y: 279.54180908203125
z: -0.09143660217523575
visibility: 0.9998418688774109
","x: 282.4817810058594
y: 319.5799865722656
z: -0.05861758440732956
visibility: 0.9869087338447571
","x: 228.30894470214844
y: 315.8946533203125
z: -0.16566063463687897
visibility: 0.9852862358093262
","x: 280.917236328125
y: 357.16748046875
z: -0.1343296319246292
visibility: 0.992042601108551
","x: 242.17042541503906
y: 325.30413818359375
z: -0.3473169207572937
visibility: 0.9853699803352356
","x: 281.345947265625
y: 369.26837158203125
z: -0.15658317506313324
visibility: 0.9808863401412964
","x: 245.36744689941406
y: 334.18646240234375
z: -0.3855288326740265
visibility: 0.9696699380874634
","x: 278.580078125
y: 368.6465148925781
z: -0.17970561981201172
visibility: 0.980563759803772
","x: 248.62551879882812
y: 330.02435302734375
z: -0.39136040210723877
visibility: 0.9687160849571228
","x: 277.68682861328125
y: 364.5550231933594
z: -0.14348676800727844
visibility: 0.9707851409912109
","x: 248.15826416015625
y: 326.935302734375
z: -0.3522675335407257
visibility: 0.9537118673324585
","x: 264.4516296386719
y: 366.6003112792969
z: -0.011555524542927742
visibility: 0.9996321797370911
","x: 243.24737548828125
y: 366.3460693359375
z: 0.011519409716129303
visibility: 0.9996494650840759
","x: 260.2205810546875
y: 432.46954345703125
z: -0.20007379353046417
visibility: 0.983306348323822
","x: 247.69998168945312
y: 439.0939636230469
z: -0.0294258501380682
visibility: 0.9735313653945923
","x: 265.6004333496094
y: 479.361328125
z: -0.01944311521947384
visibility: 0.9723153114318848
","x: 252.21966552734375
y: 499.5995788574219
z: 0.08812551945447922
visibility: 0.97507643699646
","x: 267.08148193359375
y: 481.5993957519531
z: -0.004501421935856342
visibility: 0.8142284750938416
","x: 253.7966766357422
y: 506.8989562988281
z: 0.09440572559833527
visibility: 0.7525095343589783
","x: 263.0926818847656
y: 508.8913269042969
z: -0.09452976286411285
visibility: 0.9715479016304016
","x: 252.25015258789062
y: 523.2491455078125
z: -0.003719387110322714
visibility: 0.9635341763496399
","x: 243.27584838867188
y: 327.115234375
z: 0.0
","x: 247.00221252441406
y: 327.2558898925781
z: 0.0019722464494407177
","x: 250.13592529296875
y: 330.37164306640625
z: 0.0019534174352884293
","x: 251.54537963867188
y: 334.4833679199219
z: 0.001358486944809556
","x: 251.81222534179688
y: 337.9862060546875
z: 0.000883599859662354
","x: 251.6739501953125
y: 331.1883544921875
z: -0.0011678021401166916
","x: 254.39199829101562
y: 336.8246154785156
z: -0.002451830543577671
","x: 254.3881072998047
y: 339.9313659667969
z: -0.001930727157741785
","x: 253.61866760253906
y: 341.1819763183594
z: -0.0011264263885095716
","x: 250.20867919921875
y: 333.75897216796875
z: -0.003155655926093459
","x: 252.87771606445312
y: 340.1646423339844
z: -0.004473704844713211
","x: 252.6623992919922
y: 342.781005859375
z: -0.003224041545763612
","x: 251.86053466796875
y: 343.33349609375
z: -0.0018850875785574317
","x: 248.3056640625
y: 336.1899108886719
z: -0.004989122040569782
","x: 250.72369384765625
y: 342.52301025390625
z: -0.006194900721311569
","x: 250.5388946533203
y: 344.526123046875
z: -0.004596719518303871
","x: 249.90704345703125
y: 344.53033447265625
z: -0.003089167643338442
","x: 246.19732666015625
y: 338.1904296875
z: -0.0067662629298865795
","x: 247.99380493164062
y: 343.5217590332031
z: -0.007920106872916222
","x: 248.5531768798828
y: 345.9815673828125
z: -0.007215805817395449
","x: 248.83334350585938
y: 346.99493408203125
z: -0.006194177083671093
",4.320091485977173,,,,,,,,,,,,,,,,,,,,,
12,"x: 255.431640625
y: 245.76336669921875
z: -0.21777740120887756
visibility: 0.9999018311500549
","x: 256.5256652832031
y: 240.6078338623047
z: -0.20262153446674347
visibility: 0.9998151659965515
","x: 257.6109619140625
y: 240.63690185546875
z: -0.2026199996471405
visibility: 0.9997804164886475
","x: 258.6452331542969
y: 240.70346069335938
z: -0.20265492796897888
visibility: 0.999792218208313
","x: 253.17068481445312
y: 241.03094482421875
z: -0.20734825730323792
visibility: 0.9998197555541992
","x: 251.9969482421875
y: 241.41653442382812
z: -0.2073962688446045
visibility: 0.9998164176940918
","x: 250.82696533203125
y: 241.818359375
z: -0.20745179057121277
visibility: 0.9998518824577332
","x: 259.95867919921875
y: 244.55125427246094
z: -0.10403990745544434
visibility: 0.9995777010917664
","x: 248.98721313476562
y: 245.40625
z: -0.12703007459640503
visibility: 0.9997124075889587
","x: 257.75958251953125
y: 252.47915649414062
z: -0.1796201914548874
visibility: 0.9998604655265808
","x: 253.3517303466797
y: 252.73802185058594
z: -0.18641403317451477
visibility: 0.9999094009399414
","x: 269.9906005859375
y: 283.1832275390625
z: -0.02909165993332863
visibility: 0.9998506307601929
","x: 237.8102569580078
y: 279.4192199707031
z: -0.09174323827028275
visibility: 0.9998417496681213
","x: 276.97662353515625
y: 321.7140197753906
z: 0.019988153129816055
visibility: 0.983307957649231
","x: 228.28549194335938
y: 315.42938232421875
z: -0.17409883439540863
visibility: 0.9846519231796265
","x: 283.1248779296875
y: 358.4791564941406
z: -0.04733368754386902
visibility: 0.9883357286453247
","x: 241.9180908203125
y: 325.183349609375
z: -0.3367849290370941
visibility: 0.9845125675201416
","x: 286.3883056640625
y: 366.91204833984375
z: -0.06319727003574371
visibility: 0.9754464030265808
","x: 245.67881774902344
y: 333.9386291503906
z: -0.375028520822525
visibility: 0.9684587717056274
","x: 286.1514587402344
y: 367.7623291015625
z: -0.0912872776389122
visibility: 0.9758853912353516
","x: 248.4791259765625
y: 329.7342529296875
z: -0.38253507018089294
visibility: 0.9675492644309998
","x: 284.54071044921875
y: 365.70123291015625
z: -0.05973175913095474
visibility: 0.965725302696228
","x: 247.96405029296875
y: 326.6952819824219
z: -0.3426544666290283
visibility: 0.9519378542900085
","x: 262.349365234375
y: 367.8961486816406
z: 0.002927841152995825
visibility: 0.9996575713157654
","x: 241.98617553710938
y: 368.54608154296875
z: -0.002908495254814625
visibility: 0.9996560215950012
","x: 258.2077331542969
y: 440.22784423828125
z: -0.08966521173715591
visibility: 0.9818065166473389
","x: 247.74098205566406
y: 441.5479736328125
z: -0.023426871746778488
visibility: 0.96601402759552
","x: 254.34991455078125
y: 501.451904296875
z: 0.03346237912774086
visibility: 0.9700867533683777
","x: 252.21934509277344
y: 494.3764953613281
z: 0.1750674843788147
visibility: 0.9511790871620178
","x: 253.41650390625
y: 509.38275146484375
z: 0.03968498483300209
visibility: 0.8019991517066956
","x: 253.7205810546875
y: 499.38409423828125
z: 0.19105160236358643
visibility: 0.7180140614509583
","x: 253.05404663085938
y: 526.8235473632812
z: -0.06372769176959991
visibility: 0.9681916236877441
","x: 251.12074279785156
y: 518.14013671875
z: 0.11026494204998016
visibility: 0.9453113675117493
","x: 242.68603515625
y: 325.62298583984375
z: 0.0
","x: 246.22702026367188
y: 326.2618408203125
z: 0.0013152551837265491
","x: 249.3345947265625
y: 329.7787170410156
z: 0.0008450946188531816
","x: 250.4342041015625
y: 334.4090270996094
z: -0.00019566719129215926
","x: 250.192626953125
y: 338.1744079589844
z: -0.0009328522719442844
","x: 250.45423889160156
y: 330.595458984375
z: -0.00218235538341105
","x: 253.3999481201172
y: 336.7676086425781
z: -0.0037061646580696106
","x: 252.56747436523438
y: 338.036865234375
z: -0.0031558661721646786
","x: 251.62405395507812
y: 337.1223449707031
z: -0.002447528997436166
","x: 248.7918701171875
y: 333.2554626464844
z: -0.004112292546778917
","x: 251.64151000976562
y: 339.8100280761719
z: -0.005687934812158346
","x: 250.63116455078125
y: 339.8163146972656
z: -0.004273967817425728
","x: 249.64920043945312
y: 337.9954528808594
z: -0.0028608425054699183
","x: 246.86122131347656
y: 335.62689208984375
z: -0.005909021943807602
","x: 249.25392150878906
y: 341.9421691894531
z: -0.007132453843951225
","x: 248.46035766601562
y: 341.3218688964844
z: -0.005054527428001165
","x: 247.63681030273438
y: 339.4648742675781
z: -0.0033183784689754248
","x: 244.83987426757812
y: 337.6380920410156
z: -0.0077186645939946175
","x: 246.9593505859375
y: 342.9515380859375
z: -0.008536012843251228
","x: 246.81756591796875
y: 342.8892517089844
z: -0.00733509287238121
","x: 246.41238403320312
y: 341.9092102050781
z: -0.0060846321284770966
",4.448293685913086,,,,,,,,,,,,,,,,,,,,,
13,"x: 255.431640625
y: 245.76336669921875
z: -0.21777740120887756
visibility: 0.9999018311500549
","x: 256.5256652832031
y: 240.6078338623047
z: -0.20262153446674347
visibility: 0.9998151659965515
","x: 257.6109619140625
y: 240.63690185546875
z: -0.2026199996471405
visibility: 0.9997804164886475
","x: 258.6452331542969
y: 240.70346069335938
z: -0.20265492796897888
visibility: 0.999792218208313
","x: 253.17068481445312
y: 241.03094482421875
z: -0.20734825730323792
visibility: 0.9998197555541992
","x: 251.9969482421875
y: 241.41653442382812
z: -0.2073962688446045
visibility: 0.9998164176940918
","x: 250.82696533203125
y: 241.818359375
z: -0.20745179057121277
visibility: 0.9998518824577332
","x: 259.95867919921875
y: 244.55125427246094
z: -0.10403990745544434
visibility: 0.9995777010917664
","x: 248.98721313476562
y: 245.40625
z: -0.12703007459640503
visibility: 0.9997124075889587
","x: 257.75958251953125
y: 252.47915649414062
z: -0.1796201914548874
visibility: 0.9998604655265808
","x: 253.3517303466797
y: 252.73802185058594
z: -0.18641403317451477
visibility: 0.9999094009399414
","x: 269.9906005859375
y: 283.1832275390625
z: -0.02909165993332863
visibility: 0.9998506307601929
","x: 237.8102569580078
y: 279.4192199707031
z: -0.09174323827028275
visibility: 0.9998417496681213
","x: 276.97662353515625
y: 321.7140197753906
z: 0.019988153129816055
visibility: 0.983307957649231
","x: 228.28549194335938
y: 315.42938232421875
z: -0.17409883439540863
visibility: 0.9846519231796265
","x: 283.1248779296875
y: 358.4791564941406
z: -0.04733368754386902
visibility: 0.9883357286453247
","x: 241.9180908203125
y: 325.183349609375
z: -0.3367849290370941
visibility: 0.9845125675201416
","x: 286.3883056640625
y: 366.91204833984375
z: -0.06319727003574371
visibility: 0.9754464030265808
","x: 245.67881774902344
y: 333.9386291503906
z: -0.375028520822525
visibility: 0.9684587717056274
","x: 286.1514587402344
y: 367.7623291015625
z: -0.0912872776389122
visibility: 0.9758853912353516
","x: 248.4791259765625
y: 329.7342529296875
z: -0.38253507018089294
visibility: 0.9675492644309998
","x: 284.54071044921875
y: 365.70123291015625
z: -0.05973175913095474
visibility: 0.965725302696228
","x: 247.96405029296875
y: 326.6952819824219
z: -0.3426544666290283
visibility: 0.9519378542900085
","x: 262.349365234375
y: 367.8961486816406
z: 0.002927841152995825
visibility: 0.9996575713157654
","x: 241.98617553710938
y: 368.54608154296875
z: -0.002908495254814625
visibility: 0.9996560215950012
","x: 258.2077331542969
y: 440.22784423828125
z: -0.08966521173715591
visibility: 0.9818065166473389
","x: 247.74098205566406
y: 441.5479736328125
z: -0.023426871746778488
visibility: 0.96601402759552
","x: 254.34991455078125
y: 501.451904296875
z: 0.03346237912774086
visibility: 0.9700867533683777
","x: 252.21934509277344
y: 494.3764953613281
z: 0.1750674843788147
visibility: 0.9511790871620178
","x: 253.41650390625
y: 509.38275146484375
z: 0.03968498483300209
visibility: 0.8019991517066956
","x: 253.7205810546875
y: 499.38409423828125
z: 0.19105160236358643
visibility: 0.7180140614509583
","x: 253.05404663085938
y: 526.8235473632812
z: -0.06372769176959991
visibility: 0.9681916236877441
","x: 251.12074279785156
y: 518.14013671875
z: 0.11026494204998016
visibility: 0.9453113675117493
","x: 242.68603515625
y: 325.62298583984375
z: 0.0
","x: 246.22702026367188
y: 326.2618408203125
z: 0.0013152551837265491
","x: 249.3345947265625
y: 329.7787170410156
z: 0.0008450946188531816
","x: 250.4342041015625
y: 334.4090270996094
z: -0.00019566719129215926
","x: 250.192626953125
y: 338.1744079589844
z: -0.0009328522719442844
","x: 250.45423889160156
y: 330.595458984375
z: -0.00218235538341105
","x: 253.3999481201172
y: 336.7676086425781
z: -0.0037061646580696106
","x: 252.56747436523438
y: 338.036865234375
z: -0.0031558661721646786
","x: 251.62405395507812
y: 337.1223449707031
z: -0.002447528997436166
","x: 248.7918701171875
y: 333.2554626464844
z: -0.004112292546778917
","x: 251.64151000976562
y: 339.8100280761719
z: -0.005687934812158346
","x: 250.63116455078125
y: 339.8163146972656
z: -0.004273967817425728
","x: 249.64920043945312
y: 337.9954528808594
z: -0.0028608425054699183
","x: 246.86122131347656
y: 335.62689208984375
z: -0.005909021943807602
","x: 249.25392150878906
y: 341.9421691894531
z: -0.007132453843951225
","x: 248.46035766601562
y: 341.3218688964844
z: -0.005054527428001165
","x: 247.63681030273438
y: 339.4648742675781
z: -0.0033183784689754248
","x: 244.83987426757812
y: 337.6380920410156
z: -0.0077186645939946175
","x: 246.9593505859375
y: 342.9515380859375
z: -0.008536012843251228
","x: 246.81756591796875
y: 342.8892517089844
z: -0.00733509287238121
","x: 246.41238403320312
y: 341.9092102050781
z: -0.0060846321284770966
",4.448293685913086,,,,,,,,,,,,,,,,,,,,,
14,"x: 255.431640625
y: 245.76336669921875
z: -0.21777740120887756
visibility: 0.9999018311500549
","x: 256.5256652832031
y: 240.6078338623047
z: -0.20262153446674347
visibility: 0.9998151659965515
","x: 257.6109619140625
y: 240.63690185546875
z: -0.2026199996471405
visibility: 0.9997804164886475
","x: 258.6452331542969
y: 240.70346069335938
z: -0.20265492796897888
visibility: 0.999792218208313
","x: 253.17068481445312
y: 241.03094482421875
z: -0.20734825730323792
visibility: 0.9998197555541992
","x: 251.9969482421875
y: 241.41653442382812
z: -0.2073962688446045
visibility: 0.9998164176940918
","x: 250.82696533203125
y: 241.818359375
z: -0.20745179057121277
visibility: 0.9998518824577332
","x: 259.95867919921875
y: 244.55125427246094
z: -0.10403990745544434
visibility: 0.9995777010917664
","x: 248.98721313476562
y: 245.40625
z: -0.12703007459640503
visibility: 0.9997124075889587
","x: 257.75958251953125
y: 252.47915649414062
z: -0.1796201914548874
visibility: 0.9998604655265808
","x: 253.3517303466797
y: 252.73802185058594
z: -0.18641403317451477
visibility: 0.9999094009399414
","x: 269.9906005859375
y: 283.1832275390625
z: -0.02909165993332863
visibility: 0.9998506307601929
","x: 237.8102569580078
y: 279.4192199707031
z: -0.09174323827028275
visibility: 0.9998417496681213
","x: 276.97662353515625
y: 321.7140197753906
z: 0.019988153129816055
visibility: 0.983307957649231
","x: 228.28549194335938
y: 315.42938232421875
z: -0.17409883439540863
visibility: 0.9846519231796265
","x: 283.1248779296875
y: 358.4791564941406
z: -0.04733368754386902
visibility: 0.9883357286453247
","x: 241.9180908203125
y: 325.183349609375
z: -0.3367849290370941
visibility: 0.9845125675201416
","x: 286.3883056640625
y: 366.91204833984375
z: -0.06319727003574371
visibility: 0.9754464030265808
","x: 245.67881774902344
y: 333.9386291503906
z: -0.375028520822525
visibility: 0.9684587717056274
","x: 286.1514587402344
y: 367.7623291015625
z: -0.0912872776389122
visibility: 0.9758853912353516
","x: 248.4791259765625
y: 329.7342529296875
z: -0.38253507018089294
visibility: 0.9675492644309998
","x: 284.54071044921875
y: 365.70123291015625
z: -0.05973175913095474
visibility: 0.965725302696228
","x: 247.96405029296875
y: 326.6952819824219
z: -0.3426544666290283
visibility: 0.9519378542900085
","x: 262.349365234375
y: 367.8961486816406
z: 0.002927841152995825
visibility: 0.9996575713157654
","x: 241.98617553710938
y: 368.54608154296875
z: -0.002908495254814625
visibility: 0.9996560215950012
","x: 258.2077331542969
y: 440.22784423828125
z: -0.08966521173715591
visibility: 0.9818065166473389
","x: 247.74098205566406
y: 441.5479736328125
z: -0.023426871746778488
visibility: 0.96601402759552
","x: 254.34991455078125
y: 501.451904296875
z: 0.03346237912774086
visibility: 0.9700867533683777
","x: 252.21934509277344
y: 494.3764953613281
z: 0.1750674843788147
visibility: 0.9511790871620178
","x: 253.41650390625
y: 509.38275146484375
z: 0.03968498483300209
visibility: 0.8019991517066956
","x: 253.7205810546875
y: 499.38409423828125
z: 0.19105160236358643
visibility: 0.7180140614509583
","x: 253.05404663085938
y: 526.8235473632812
z: -0.06372769176959991
visibility: 0.9681916236877441
","x: 251.12074279785156
y: 518.14013671875
z: 0.11026494204998016
visibility: 0.9453113675117493
","x: 242.68603515625
y: 325.62298583984375
z: 0.0
","x: 246.22702026367188
y: 326.2618408203125
z: 0.0013152551837265491
","x: 249.3345947265625
y: 329.7787170410156
z: 0.0008450946188531816
","x: 250.4342041015625
y: 334.4090270996094
z: -0.00019566719129215926
","x: 250.192626953125
y: 338.1744079589844
z: -0.0009328522719442844
","x: 250.45423889160156
y: 330.595458984375
z: -0.00218235538341105
","x: 253.3999481201172
y: 336.7676086425781
z: -0.0037061646580696106
","x: 252.56747436523438
y: 338.036865234375
z: -0.0031558661721646786
","x: 251.62405395507812
y: 337.1223449707031
z: -0.002447528997436166
","x: 248.7918701171875
y: 333.2554626464844
z: -0.004112292546778917
","x: 251.64151000976562
y: 339.8100280761719
z: -0.005687934812158346
","x: 250.63116455078125
y: 339.8163146972656
z: -0.004273967817425728
","x: 249.64920043945312
y: 337.9954528808594
z: -0.0028608425054699183
","x: 246.86122131347656
y: 335.62689208984375
z: -0.005909021943807602
","x: 249.25392150878906
y: 341.9421691894531
z: -0.007132453843951225
","x: 248.46035766601562
y: 341.3218688964844
z: -0.005054527428001165
","x: 247.63681030273438
y: 339.4648742675781
z: -0.0033183784689754248
","x: 244.83987426757812
y: 337.6380920410156
z: -0.0077186645939946175
","x: 246.9593505859375
y: 342.9515380859375
z: -0.008536012843251228
","x: 246.81756591796875
y: 342.8892517089844
z: -0.00733509287238121
","x: 246.41238403320312
y: 341.9092102050781
z: -0.0060846321284770966
",4.448293685913086,,,,,,,,,,,,,,,,,,,,,
15,"x: 255.05545043945312
y: 245.67559814453125
z: -0.21375496685504913
visibility: 0.9999058246612549
","x: 256.3753662109375
y: 240.56732177734375
z: -0.19858309626579285
visibility: 0.9998183250427246
","x: 257.5304870605469
y: 240.5869140625
z: -0.19860398769378662
visibility: 0.999785840511322
","x: 258.67626953125
y: 240.6576385498047
z: -0.19864849746227264
visibility: 0.999795138835907
","x: 252.7967529296875
y: 241.0183868408203
z: -0.20242711901664734
visibility: 0.9998242855072021
","x: 251.57887268066406
y: 241.39894104003906
z: -0.2024647444486618
visibility: 0.9998206496238708
","x: 250.36497497558594
y: 241.7667999267578
z: -0.20252712070941925
visibility: 0.9998524188995361
","x: 259.8501892089844
y: 244.6186981201172
z: -0.10370904207229614
visibility: 0.9995798468589783
","x: 248.39572143554688
y: 245.39157104492188
z: -0.12314872443675995
visibility: 0.9997251629829407
","x: 257.4502868652344
y: 252.3210906982422
z: -0.17737142741680145
visibility: 0.9998647570610046
","x: 252.6773681640625
y: 252.47483825683594
z: -0.18305757641792297
visibility: 0.9999099373817444
","x: 269.41156005859375
y: 284.79486083984375
z: -0.024433348327875137
visibility: 0.9998553395271301
","x: 236.9989776611328
y: 280.2064208984375
z: -0.08479761332273483
visibility: 0.9998446702957153
","x: 274.3851013183594
y: 326.06341552734375
z: 0.025312304496765137
visibility: 0.9754301309585571
","x: 225.47483825683594
y: 316.97332763671875
z: -0.1464960277080536
visibility: 0.9844821691513062
","x: 287.59625244140625
y: 352.1423645019531
z: -0.05417639762163162
visibility: 0.982461154460907
","x: 240.6776580810547
y: 327.2127990722656
z: -0.29190629720687866
visibility: 0.9836971163749695
","x: 292.4377136230469
y: 358.61322021484375
z: -0.07023747265338898
visibility: 0.9679971933364868
","x: 244.74766540527344
y: 335.77679443359375
z: -0.3245459198951721
visibility: 0.966974675655365
","x: 293.66253662109375
y: 358.3044738769531
z: -0.09790905565023422
visibility: 0.9696084856987
","x: 247.34109497070312
y: 331.3848571777344
z: -0.3323741555213928
visibility: 0.9661320447921753
","x: 291.5217590332031
y: 356.4884033203125
z: -0.06711395829916
visibility: 0.9589183926582336
","x: 246.57992553710938
y: 328.341796875
z: -0.2971671521663666
visibility: 0.9501782655715942
","x: 261.5737609863281
y: 370.8482360839844
z: 0.005753327161073685
visibility: 0.9996693730354309
","x: 241.29583740234375
y: 372.460693359375
z: -0.0057216486893594265
visibility: 0.9996398687362671
","x: 256.9572448730469
y: 443.71466064453125
z: -0.08153051137924194
visibility: 0.9755011200904846
","x: 247.71926879882812
y: 443.5064697265625
z: -0.006187201477587223
visibility: 0.9479417204856873
","x: 251.97532653808594
y: 511.0505676269531
z: -0.008791608735918999
visibility: 0.9632484912872314
","x: 252.13357543945312
y: 495.000244140625
z: 0.17315253615379333
visibility: 0.9119044542312622
","x: 250.5919647216797
y: 519.8540649414062
z: -0.00889965146780014
visibility: 0.7842260599136353
","x: 253.30813598632812
y: 501.1746826171875
z: 0.1868823915719986
visibility: 0.6782986521720886
","x: 251.6865692138672
y: 532.4843139648438
z: -0.11542972177267075
visibility: 0.9598215222358704
","x: 250.4854736328125
y: 517.0921020507812
z: 0.10702520608901978
visibility: 0.9143480658531189
",,,,,,,,,,,,,,,,,,,,,,4.572910308837891,,,,,,,,,,,,,,,,,,,,,
16,"x: 255.05545043945312
y: 245.67559814453125
z: -0.21375496685504913
visibility: 0.9999058246612549
","x: 256.3753662109375
y: 240.56732177734375
z: -0.19858309626579285
visibility: 0.9998183250427246
","x: 257.5304870605469
y: 240.5869140625
z: -0.19860398769378662
visibility: 0.999785840511322
","x: 258.67626953125
y: 240.6576385498047
z: -0.19864849746227264
visibility: 0.999795138835907
","x: 252.7967529296875
y: 241.0183868408203
z: -0.20242711901664734
visibility: 0.9998242855072021
","x: 251.57887268066406
y: 241.39894104003906
z: -0.2024647444486618
visibility: 0.9998206496238708
","x: 250.36497497558594
y: 241.7667999267578
z: -0.20252712070941925
visibility: 0.9998524188995361
","x: 259.8501892089844
y: 244.6186981201172
z: -0.10370904207229614
visibility: 0.9995798468589783
","x: 248.39572143554688
y: 245.39157104492188
z: -0.12314872443675995
visibility: 0.9997251629829407
","x: 257.4502868652344
y: 252.3210906982422
z: -0.17737142741680145
visibility: 0.9998647570610046
","x: 252.6773681640625
y: 252.47483825683594
z: -0.18305757641792297
visibility: 0.9999099373817444
","x: 269.41156005859375
y: 284.79486083984375
z: -0.024433348327875137
visibility: 0.9998553395271301
","x: 236.9989776611328
y: 280.2064208984375
z: -0.08479761332273483
visibility: 0.9998446702957153
","x: 274.3851013183594
y: 326.06341552734375
z: 0.025312304496765137
visibility: 0.9754301309585571
","x: 225.47483825683594
y: 316.97332763671875
z: -0.1464960277080536
visibility: 0.9844821691513062
","x: 287.59625244140625
y: 352.1423645019531
z: -0.05417639762163162
visibility: 0.982461154460907
","x: 240.6776580810547
y: 327.2127990722656
z: -0.29190629720687866
visibility: 0.9836971163749695
","x: 292.4377136230469
y: 358.61322021484375
z: -0.07023747265338898
visibility: 0.9679971933364868
","x: 244.74766540527344
y: 335.77679443359375
z: -0.3245459198951721
visibility: 0.966974675655365
","x: 293.66253662109375
y: 358.3044738769531
z: -0.09790905565023422
visibility: 0.9696084856987
","x: 247.34109497070312
y: 331.3848571777344
z: -0.3323741555213928
visibility: 0.9661320447921753
","x: 291.5217590332031
y: 356.4884033203125
z: -0.06711395829916
visibility: 0.9589183926582336
","x: 246.57992553710938
y: 328.341796875
z: -0.2971671521663666
visibility: 0.9501782655715942
","x: 261.5737609863281
y: 370.8482360839844
z: 0.005753327161073685
visibility: 0.9996693730354309
","x: 241.29583740234375
y: 372.460693359375
z: -0.0057216486893594265
visibility: 0.9996398687362671
","x: 256.9572448730469
y: 443.71466064453125
z: -0.08153051137924194
visibility: 0.9755011200904846
","x: 247.71926879882812
y: 443.5064697265625
z: -0.006187201477587223
visibility: 0.9479417204856873
","x: 251.97532653808594
y: 511.0505676269531
z: -0.008791608735918999
visibility: 0.9632484912872314
","x: 252.13357543945312
y: 495.000244140625
z: 0.17315253615379333
visibility: 0.9119044542312622
","x: 250.5919647216797
y: 519.8540649414062
z: -0.00889965146780014
visibility: 0.7842260599136353
","x: 253.30813598632812
y: 501.1746826171875
z: 0.1868823915719986
visibility: 0.6782986521720886
","x: 251.6865692138672
y: 532.4843139648438
z: -0.11542972177267075
visibility: 0.9598215222358704
","x: 250.4854736328125
y: 517.0921020507812
z: 0.10702520608901978
visibility: 0.9143480658531189
",,,,,,,,,,,,,,,,,,,,,,4.572910308837891,,,,,,,,,,,,,,,,,,,,,
17,"x: 255.38583374023438
y: 246.4330291748047
z: -0.19296792149543762
visibility: 0.9999101758003235
","x: 256.8400573730469
y: 241.16941833496094
z: -0.17006519436836243
visibility: 0.9998244643211365
","x: 258.0013122558594
y: 241.26226806640625
z: -0.17028312385082245
visibility: 0.9997934699058533
","x: 259.10760498046875
y: 241.40695190429688
z: -0.17048220336437225
visibility: 0.9998011589050293
","x: 253.20111083984375
y: 241.38510131835938
z: -0.18605783581733704
visibility: 0.9998309016227722
","x: 251.94952392578125
y: 241.674072265625
z: -0.18606692552566528
visibility: 0.9998262524604797
","x: 250.72671508789062
y: 241.97723388671875
z: -0.18613871932029724
visibility: 0.9998554587364197
","x: 259.972900390625
y: 245.2987060546875
z: -0.06137512996792793
visibility: 0.999592661857605
","x: 248.34637451171875
y: 245.51480102539062
z: -0.10569945722818375
visibility: 0.9997393488883972
","x: 257.5277099609375
y: 253.55007934570312
z: -0.14794595539569855
visibility: 0.9998711943626404
","x: 252.6930694580078
y: 253.02310180664062
z: -0.16947247087955475
visibility: 0.9999125599861145
","x: 269.42840576171875
y: 285.20477294921875
z: 0.018519025295972824
visibility: 0.9998654127120972
","x: 235.97439575195312
y: 280.0699768066406
z: -0.06118243932723999
visibility: 0.9998524188995361
","x: 274.3296203613281
y: 326.3030700683594
z: 0.052721958607435226
visibility: 0.9680817127227783
","x: 224.65992736816406
y: 316.2734069824219
z: -0.1375121921300888
visibility: 0.9847699999809265
","x: 289.3827209472656
y: 346.1580810546875
z: -0.05596698075532913
visibility: 0.9793599843978882
","x: 236.74221801757812
y: 328.6357421875
z: -0.2693328261375427
visibility: 0.9837377667427063
","x: 295.2872314453125
y: 351.10693359375
z: -0.08019931614398956
visibility: 0.9645675420761108
","x: 239.89315795898438
y: 337.27532958984375
z: -0.3033222556114197
visibility: 0.9672020077705383
","x: 296.9916687011719
y: 350.0639343261719
z: -0.1064097061753273
visibility: 0.9670429825782776
","x: 242.14044189453125
y: 332.4917297363281
z: -0.3113097846508026
visibility: 0.9665376543998718
","x: 294.64501953125
y: 349.1416015625
z: -0.06969698518514633
visibility: 0.9560247659683228
","x: 241.66683959960938
y: 329.62042236328125
z: -0.274568110704422
visibility: 0.9508735537528992
","x: 261.48077392578125
y: 371.4315185546875
z: 0.006059379782527685
visibility: 0.9996910095214844
","x: 241.06361389160156
y: 373.64013671875
z: -0.005981121677905321
visibility: 0.9996388554573059
","x: 256.2485656738281
y: 443.94293212890625
z: -0.1327030211687088
visibility: 0.9706698060035706
","x: 247.59335327148438
y: 444.4176940917969
z: -0.004415090195834637
visibility: 0.9249164462089539
","x: 250.75509643554688
y: 512.69580078125
z: -0.08445771038532257
visibility: 0.9574517607688904
","x: 251.5048065185547
y: 497.4642333984375
z: 0.17457975447177887
visibility: 0.8718093037605286
","x: 249.6041717529297
y: 522.1032104492188
z: -0.08506938815116882
visibility: 0.7750477194786072
","x: 252.27349853515625
y: 502.6375732421875
z: 0.18821293115615845
visibility: 0.6439037919044495
","x: 251.3766632080078
y: 534.118896484375
z: -0.19736193120479584
visibility: 0.9550766348838806
","x: 248.38087463378906
y: 519.2244873046875
z: 0.10448072105646133
visibility: 0.8849116563796997
",,,,,,,,,,,,,,,,,,,,,,4.697448015213013,,,,,,,,,,,,,,,,,,,,,
18,"x: 255.38583374023438
y: 246.4330291748047
z: -0.19296792149543762
visibility: 0.9999101758003235
","x: 256.8400573730469
y: 241.16941833496094
z: -0.17006519436836243
visibility: 0.9998244643211365
","x: 258.0013122558594
y: 241.26226806640625
z: -0.17028312385082245
visibility: 0.9997934699058533
","x: 259.10760498046875
y: 241.40695190429688
z: -0.17048220336437225
visibility: 0.9998011589050293
","x: 253.20111083984375
y: 241.38510131835938
z: -0.18605783581733704
visibility: 0.9998309016227722
","x: 251.94952392578125
y: 241.674072265625
z: -0.18606692552566528
visibility: 0.9998262524604797
","x: 250.72671508789062
y: 241.97723388671875
z: -0.18613871932029724
visibility: 0.9998554587364197
","x: 259.972900390625
y: 245.2987060546875
z: -0.06137512996792793
visibility: 0.999592661857605
","x: 248.34637451171875
y: 245.51480102539062
z: -0.10569945722818375
visibility: 0.9997393488883972
","x: 257.5277099609375
y: 253.55007934570312
z: -0.14794595539569855
visibility: 0.9998711943626404
","x: 252.6930694580078
y: 253.02310180664062
z: -0.16947247087955475
visibility: 0.9999125599861145
","x: 269.42840576171875
y: 285.20477294921875
z: 0.018519025295972824
visibility: 0.9998654127120972
","x: 235.97439575195312
y: 280.0699768066406
z: -0.06118243932723999
visibility: 0.9998524188995361
","x: 274.3296203613281
y: 326.3030700683594
z: 0.052721958607435226
visibility: 0.9680817127227783
","x: 224.65992736816406
y: 316.2734069824219
z: -0.1375121921300888
visibility: 0.9847699999809265
","x: 289.3827209472656
y: 346.1580810546875
z: -0.05596698075532913
visibility: 0.9793599843978882
","x: 236.74221801757812
y: 328.6357421875
z: -0.2693328261375427
visibility: 0.9837377667427063
","x: 295.2872314453125
y: 351.10693359375
z: -0.08019931614398956
visibility: 0.9645675420761108
","x: 239.89315795898438
y: 337.27532958984375
z: -0.3033222556114197
visibility: 0.9672020077705383
","x: 296.9916687011719
y: 350.0639343261719
z: -0.1064097061753273
visibility: 0.9670429825782776
","x: 242.14044189453125
y: 332.4917297363281
z: -0.3113097846508026
visibility: 0.9665376543998718
","x: 294.64501953125
y: 349.1416015625
z: -0.06969698518514633
visibility: 0.9560247659683228
","x: 241.66683959960938
y: 329.62042236328125
z: -0.274568110704422
visibility: 0.9508735537528992
","x: 261.48077392578125
y: 371.4315185546875
z: 0.006059379782527685
visibility: 0.9996910095214844
","x: 241.06361389160156
y: 373.64013671875
z: -0.005981121677905321
visibility: 0.9996388554573059
","x: 256.2485656738281
y: 443.94293212890625
z: -0.1327030211687088
visibility: 0.9706698060035706
","x: 247.59335327148438
y: 444.4176940917969
z: -0.004415090195834637
visibility: 0.9249164462089539
","x: 250.75509643554688
y: 512.69580078125
z: -0.08445771038532257
visibility: 0.9574517607688904
","x: 251.5048065185547
y: 497.4642333984375
z: 0.17457975447177887
visibility: 0.8718093037605286
","x: 249.6041717529297
y: 522.1032104492188
z: -0.08506938815116882
visibility: 0.7750477194786072
","x: 252.27349853515625
y: 502.6375732421875
z: 0.18821293115615845
visibility: 0.6439037919044495
","x: 251.3766632080078
y: 534.118896484375
z: -0.19736193120479584
visibility: 0.9550766348838806
","x: 248.38087463378906
y: 519.2244873046875
z: 0.10448072105646133
visibility: 0.8849116563796997
",,,,,,,,,,,,,,,,,,,,,,4.697448015213013,,,,,,,,,,,,,,,,,,,,,
19,"x: 254.33575439453125
y: 245.23867797851562
z: -0.16187793016433716
visibility: 0.9999126195907593
","x: 255.74615478515625
y: 239.81675720214844
z: -0.14377762377262115
visibility: 0.9998307228088379
","x: 257.0400390625
y: 239.926025390625
z: -0.14392681419849396
visibility: 0.9998018145561218
","x: 258.3151550292969
y: 240.12872314453125
z: -0.1440795361995697
visibility: 0.9998100399971008
","x: 252.11831665039062
y: 240.24212646484375
z: -0.14875724911689758
visibility: 0.9998328685760498
","x: 250.939208984375
y: 240.61126708984375
z: -0.14876708388328552
visibility: 0.9998249411582947
","x: 249.76441955566406
y: 241.01629638671875
z: -0.14882241189479828
visibility: 0.9998486042022705
","x: 259.805419921875
y: 244.67428588867188
z: -0.044439904391765594
visibility: 0.9996147155761719
","x: 247.578857421875
y: 245.3212127685547
z: -0.05952725559473038
visibility: 0.999724805355072
","x: 256.87078857421875
y: 252.52769470214844
z: -0.1231674998998642
visibility: 0.999876856803894
","x: 251.8151397705078
y: 252.08468627929688
z: -0.13016864657402039
visibility: 0.999901294708252
","x: 270.4142761230469
y: 284.45147705078125
z: 0.024906685575842857
visibility: 0.9998728036880493
","x: 237.0959014892578
y: 280.02532958984375
z: -0.031186681240797043
visibility: 0.9997643828392029
","x: 275.9591064453125
y: 324.7352294921875
z: 0.052927739918231964
visibility: 0.9528831839561462
","x: 226.36563110351562
y: 314.33062744140625
z: -0.14960020780563354
visibility: 0.9661129117012024
","x: 296.81036376953125
y: 338.3912658691406
z: -0.023517590016126633
visibility: 0.975117564201355
","x: 231.40187072753906
y: 308.54296875
z: -0.3778590261936188
visibility: 0.9710817337036133
","x: 303.2711181640625
y: 341.13861083984375
z: -0.03498227894306183
visibility: 0.9605956673622131
","x: 233.671142578125
y: 305.42694091796875
z: -0.4182531237602234
visibility: 0.9529793858528137
","x: 303.9896545410156
y: 338.99359130859375
z: -0.06330667436122894
visibility: 0.9640125632286072
","x: 234.9722442626953
y: 301.4063720703125
z: -0.42471569776535034
visibility: 0.9526163935661316
","x: 301.41156005859375
y: 338.4904479980469
z: -0.036364249885082245
visibility: 0.9521752595901489
","x: 234.34642028808594
y: 301.49151611328125
z: -0.386849969625473
visibility: 0.9348639249801636
","x: 262.1343688964844
y: 372.4626159667969
z: 0.005951661616563797
visibility: 0.9997181296348572
","x: 241.24380493164062
y: 373.2603454589844
z: -0.005886860191822052
visibility: 0.9996527433395386
","x: 255.2438507080078
y: 446.0146484375
z: -0.10820510238409042
visibility: 0.9724218845367432
","x: 241.28602600097656
y: 446.8082275390625
z: 0.0005613119574263692
visibility: 0.9261081218719482
","x: 249.7332305908203
y: 511.79925537109375
z: -0.033812448382377625
visibility: 0.9599092602729797
","x: 248.29396057128906
y: 482.73486328125
z: 0.2633843421936035
visibility: 0.8508071899414062
","x: 247.93275451660156
y: 526.1073608398438
z: -0.03158656135201454
visibility: 0.7808272838592529
","x: 250.06919860839844
y: 484.7317199707031
z: 0.2870817482471466
visibility: 0.6209219098091125
","x: 251.4432373046875
y: 536.6048583984375
z: -0.13673260807991028
visibility: 0.9569647312164307
","x: 245.0911865234375
y: 508.51416015625
z: 0.23260346055030823
visibility: 0.8718599081039429
",,,,,,,,,,,,,,,,,,,,,,4.823930501937866,,,,,,,,,,,,,,,,,,,,,
20,"x: 254.33575439453125
y: 245.23867797851562
z: -0.16187793016433716
visibility: 0.9999126195907593
","x: 255.74615478515625
y: 239.81675720214844
z: -0.14377762377262115
visibility: 0.9998307228088379
","x: 257.0400390625
y: 239.926025390625
z: -0.14392681419849396
visibility: 0.9998018145561218
","x: 258.3151550292969
y: 240.12872314453125
z: -0.1440795361995697
visibility: 0.9998100399971008
","x: 252.11831665039062
y: 240.24212646484375
z: -0.14875724911689758
visibility: 0.9998328685760498
","x: 250.939208984375
y: 240.61126708984375
z: -0.14876708388328552
visibility: 0.9998249411582947
","x: 249.76441955566406
y: 241.01629638671875
z: -0.14882241189479828
visibility: 0.9998486042022705
","x: 259.805419921875
y: 244.67428588867188
z: -0.044439904391765594
visibility: 0.9996147155761719
","x: 247.578857421875
y: 245.3212127685547
z: -0.05952725559473038
visibility: 0.999724805355072
","x: 256.87078857421875
y: 252.52769470214844
z: -0.1231674998998642
visibility: 0.999876856803894
","x: 251.8151397705078
y: 252.08468627929688
z: -0.13016864657402039
visibility: 0.999901294708252
","x: 270.4142761230469
y: 284.45147705078125
z: 0.024906685575842857
visibility: 0.9998728036880493
","x: 237.0959014892578
y: 280.02532958984375
z: -0.031186681240797043
visibility: 0.9997643828392029
","x: 275.9591064453125
y: 324.7352294921875
z: 0.052927739918231964
visibility: 0.9528831839561462
","x: 226.36563110351562
y: 314.33062744140625
z: -0.14960020780563354
visibility: 0.9661129117012024
","x: 296.81036376953125
y: 338.3912658691406
z: -0.023517590016126633
visibility: 0.975117564201355
","x: 231.40187072753906
y: 308.54296875
z: -0.3778590261936188
visibility: 0.9710817337036133
","x: 303.2711181640625
y: 341.13861083984375
z: -0.03498227894306183
visibility: 0.9605956673622131
","x: 233.671142578125
y: 305.42694091796875
z: -0.4182531237602234
visibility: 0.9529793858528137
","x: 303.9896545410156
y: 338.99359130859375
z: -0.06330667436122894
visibility: 0.9640125632286072
","x: 234.9722442626953
y: 301.4063720703125
z: -0.42471569776535034
visibility: 0.9526163935661316
","x: 301.41156005859375
y: 338.4904479980469
z: -0.036364249885082245
visibility: 0.9521752595901489
","x: 234.34642028808594
y: 301.49151611328125
z: -0.386849969625473
visibility: 0.9348639249801636
","x: 262.1343688964844
y: 372.4626159667969
z: 0.005951661616563797
visibility: 0.9997181296348572
","x: 241.24380493164062
y: 373.2603454589844
z: -0.005886860191822052
visibility: 0.9996527433395386
","x: 255.2438507080078
y: 446.0146484375
z: -0.10820510238409042
visibility: 0.9724218845367432
","x: 241.28602600097656
y: 446.8082275390625
z: 0.0005613119574263692
visibility: 0.9261081218719482
","x: 249.7332305908203
y: 511.79925537109375
z: -0.033812448382377625
visibility: 0.9599092602729797
","x: 248.29396057128906
y: 482.73486328125
z: 0.2633843421936035
visibility: 0.8508071899414062
","x: 247.93275451660156
y: 526.1073608398438
z: -0.03158656135201454
visibility: 0.7808272838592529
","x: 250.06919860839844
y: 484.7317199707031
z: 0.2870817482471466
visibility: 0.6209219098091125
","x: 251.4432373046875
y: 536.6048583984375
z: -0.13673260807991028
visibility: 0.9569647312164307
","x: 245.0911865234375
y: 508.51416015625
z: 0.23260346055030823
visibility: 0.8718599081039429
",,,,,,,,,,,,,,,,,,,,,,4.823930501937866,,,,,,,,,,,,,,,,,,,,,
21,"x: 253.5020294189453
y: 242.04315185546875
z: -0.20317871868610382
visibility: 0.9998985528945923
","x: 254.9067840576172
y: 237.1381378173828
z: -0.18781748414039612
visibility: 0.9997870326042175
","x: 256.15252685546875
y: 237.2113800048828
z: -0.18789321184158325
visibility: 0.9997590780258179
","x: 257.39508056640625
y: 237.37191772460938
z: -0.18797624111175537
visibility: 0.9997715950012207
","x: 251.2616729736328
y: 237.92808532714844
z: -0.18980741500854492
visibility: 0.9997906684875488
","x: 250.0926055908203
y: 238.47705078125
z: -0.18985900282859802
visibility: 0.9997761249542236
","x: 248.98361206054688
y: 239.02391052246094
z: -0.1899280995130539
visibility: 0.9997916221618652
","x: 258.6885070800781
y: 241.43881225585938
z: -0.0920615866780281
visibility: 0.9994933605194092
","x: 247.00738525390625
y: 243.52597045898438
z: -0.10280408710241318
visibility: 0.99964839220047
","x: 255.85487365722656
y: 248.52597045898438
z: -0.1671018898487091
visibility: 0.9998555779457092
","x: 250.96768188476562
y: 249.00906372070312
z: -0.17038825154304504
visibility: 0.9998528361320496
","x: 269.93646240234375
y: 282.30364990234375
z: -0.01967756077647209
visibility: 0.9998719096183777
","x: 236.5016326904297
y: 279.9674072265625
z: -0.05539502948522568
visibility: 0.999685525894165
","x: 276.67974853515625
y: 318.2749328613281
z: 0.04655082896351814
visibility: 0.9458140134811401
","x: 225.05142211914062
y: 314.2278747558594
z: -0.1529398262500763
visibility: 0.957439661026001
","x: 297.966552734375
y: 328.8043518066406
z: -0.07836513221263885
visibility: 0.9728680849075317
","x: 218.59437561035156
y: 310.6642761230469
z: -0.37731310725212097
visibility: 0.9641203880310059
","x: 304.6582336425781
y: 329.42144775390625
z: -0.10959114134311676
visibility: 0.9582891464233398
","x: 215.19717407226562
y: 307.45013427734375
z: -0.4149834215641022
visibility: 0.9454644918441772
","x: 305.61431884765625
y: 326.1666564941406
z: -0.11536940187215805
visibility: 0.9625900387763977
","x: 216.53305053710938
y: 303.9724426269531
z: -0.42696961760520935
visibility: 0.9460346102714539
","x: 302.7927551269531
y: 326.6836853027344
z: -0.07033072412014008
visibility: 0.9507745504379272
","x: 218.03749084472656
y: 304.8401794433594
z: -0.38821959495544434
visibility: 0.9285569190979004
","x: 262.3934020996094
y: 371.8018798828125
z: 0.009853575378656387
visibility: 0.9997329711914062
","x: 241.2111053466797
y: 369.82415771484375
z: -0.009820414707064629
visibility: 0.9996408820152283
","x: 256.1576232910156
y: 446.145263671875
z: -0.07053469121456146
visibility: 0.9735515117645264
","x: 242.4941864013672
y: 438.1224365234375
z: -0.08477184176445007
visibility: 0.9303976893424988
","x: 250.5868377685547
y: 514.8851318359375
z: -0.002527120290324092
visibility: 0.9622713327407837
","x: 244.75994873046875
y: 449.300048828125
z: 0.2070988416671753
visibility: 0.8173859715461731
","x: 249.09658813476562
y: 525.03369140625
z: 0.0009537997539155185
visibility: 0.7891497015953064
","x: 245.54208374023438
y: 446.99853515625
z: 0.2342829406261444
visibility: 0.5878458023071289
","x: 251.83087158203125
y: 537.227783203125
z: -0.0992949903011322
visibility: 0.9588133096694946
","x: 245.02523803710938
y: 476.34576416015625
z: 0.19909973442554474
visibility: 0.8475102782249451
",,,,,,,,,,,,,,,,,,,,,,4.949419736862183,,,,,,,,,,,,,,,,,,,,,
22,"x: 253.5020294189453
y: 242.04315185546875
z: -0.20317871868610382
visibility: 0.9998985528945923
","x: 254.9067840576172
y: 237.1381378173828
z: -0.18781748414039612
visibility: 0.9997870326042175
","x: 256.15252685546875
y: 237.2113800048828
z: -0.18789321184158325
visibility: 0.9997590780258179
","x: 257.39508056640625
y: 237.37191772460938
z: -0.18797624111175537
visibility: 0.9997715950012207
","x: 251.2616729736328
y: 237.92808532714844
z: -0.18980741500854492
visibility: 0.9997906684875488
","x: 250.0926055908203
y: 238.47705078125
z: -0.18985900282859802
visibility: 0.9997761249542236
","x: 248.98361206054688
y: 239.02391052246094
z: -0.1899280995130539
