uscmakers/ReverseChoreography/data/10_ymca_village_people.csv
,NOSE,LEFT_EYE_INNER,LEFT_EYE,LEFT_EYE_OUTER,RIGHT_EYE_INNER,RIGHT_EYE,RIGHT_EYE_OUTER,LEFT_EAR,RIGHT_EAR,MOUTH_LEFT,MOUTH_RIGHT,LEFT_SHOULDER,RIGHT_SHOULDER,LEFT_ELBOW,RIGHT_ELBOW,LEFT_WRIST,RIGHT_WRIST,LEFT_PINKY,RIGHT_PINKY,LEFT_INDEX,RIGHT_INDEX,LEFT_THUMB,RIGHT_THUMB,LEFT_HIP,RIGHT_HIP,LEFT_KNEE,RIGHT_KNEE,LEFT_ANKLE,RIGHT_ANKLE,LEFT_HEEL,RIGHT_HEEL,LEFT_FOOT_INDEX,RIGHT_FOOT_INDEX,TIMESTAMP,WRIST,THUMB_CPC,THUMB_MCP,THUMB_IP,THUMB_TIP,INDEX_FINGER_MCP,INDEX_FINGER_PIP,INDEX_FINGER_DIP,INDEX_FINGER_TIP,MIDDLE_FINGER_MCP,MIDDLE_FINGER_PIP,MIDDLE_FINGER_DIP,MIDDLE_FINGER_TIP,RING_FINGER_PIP,RING_FINGER_DIP,RING_FINGER_TIP,RING_FINGER_MCP,PINKY_MCP,PINKY_PIP,PINKY_DIP,PINKY_TIP,WRIST2,THUMB_CPC2,THUMB_MCP2,THUMB_IP2,THUMB_TIP2,INDEX_FINGER_MCP2,INDEX_FINGER_PIP2,INDEX_FINGER_DIP2,INDEX_FINGER_TIP2,MIDDLE_FINGER_MCP2,MIDDLE_FINGER_PIP2,MIDDLE_FINGER_DIP2,MIDDLE_FINGER_TIP2,RING_FINGER_PIP2,RING_FINGER_DIP2,RING_FINGER_TIP2,RING_FINGER_MCP2,PINKY_MCP2,PINKY_PIP2,PINKY_DIP2,PINKY_TIP2
0,"x: 274.6031799316406
y: 258.2972412109375
z: -0.18730144202709198
visibility: 0.9999692440032959
","x: 277.41546630859375
y: 255.18768310546875
z: -0.16929079592227936
visibility: 0.9999344348907471
","x: 278.684814453125
y: 256.1277160644531
z: -0.16926522552967072
visibility: 0.9999229907989502
","x: 279.8490295410156
y: 256.9384765625
z: -0.16925129294395447
visibility: 0.9999152421951294
","x: 273.94219970703125
y: 252.3805389404297
z: -0.17280010879039764
visibility: 0.999940037727356
","x: 272.60943603515625
y: 251.5361328125
z: -0.1728145331144333
visibility: 0.9999386072158813
","x: 271.1965026855469
y: 250.74588012695312
z: -0.1728072464466095
visibility: 0.9999490976333618
","x: 281.3959045410156
y: 261.54840087890625
z: -0.06548874825239182
visibility: 0.9998664855957031
","x: 268.28631591796875
y: 253.0656280517578
z: -0.08209887146949768
visibility: 0.9999169111251831
","x: 275.6605529785156
y: 265.9112548828125
z: -0.14827580749988556
visibility: 0.9999651908874512
","x: 270.3248291015625
y: 263.1713562011719
z: -0.15352432429790497
visibility: 0.9999816417694092
","x: 286.9349365234375
y: 297.38250732421875
z: -0.022653361782431602
visibility: 0.9999529123306274
","x: 251.44337463378906
y: 282.18115234375
z: -0.022474678233265877
visibility: 0.9999494552612305
","x: 296.2478332519531
y: 342.83001708984375
z: -0.12258090078830719
visibility: 0.9925178289413452
","x: 234.69639587402344
y: 317.18756103515625
z: -0.13533306121826172
visibility: 0.9935274720191956
","x: 281.7572326660156
y: 330.5433349609375
z: -0.30572250485420227
visibility: 0.9892242550849915
","x: 257.2664489746094
y: 306.4556579589844
z: -0.3133900761604309
visibility: 0.9891549944877625
","x: 277.1141052246094
y: 326.64154052734375
z: -0.34638869762420654
visibility: 0.969663143157959
","x: 263.93341064453125
y: 304.3884582519531
z: -0.35416704416275024
visibility: 0.9651945233345032
","x: 276.05108642578125
y: 320.3135681152344
z: -0.3396609425544739
visibility: 0.9677627086639404
","x: 265.04150390625
y: 300.5208740234375
z: -0.34159302711486816
visibility: 0.9615456461906433
","x: 276.5157165527344
y: 320.89569091796875
z: -0.3062669634819031
visibility: 0.9455550312995911
","x: 263.2733459472656
y: 301.53240966796875
z: -0.31107789278030396
visibility: 0.9407607913017273
","x: 276.2252502441406
y: 382.5908203125
z: -0.002463651355355978
visibility: 0.9995601773262024
","x: 252.04579162597656
y: 381.95989990234375
z: 0.0023359041661024094
visibility: 0.9996827840805054
","x: 287.9696044921875
y: 450.1767578125
z: -0.04533686116337776
visibility: 0.9992338418960571
","x: 239.2860107421875
y: 452.3800354003906
z: -0.051451705396175385
visibility: 0.9986549615859985
","x: 303.89764404296875
y: 512.2830810546875
z: 0.11616669595241547
visibility: 0.9987162351608276
","x: 227.32464599609375
y: 516.9238891601562
z: 0.09724818915128708
visibility: 0.998611569404602
","x: 304.86181640625
y: 520.4312744140625
z: 0.12661518156528473
visibility: 0.9077739119529724
","x: 228.64093017578125
y: 525.8765258789062
z: 0.10653410851955414
visibility: 0.9494873881340027
","x: 305.33062744140625
y: 533.7139282226562
z: 0.009749574586749077
visibility: 0.9956353306770325
","x: 222.21682739257812
y: 538.4471435546875
z: -0.00727550545707345
visibility: 0.9950626492500305
",4.0597405433654785,,,,,,,,,,,,,,,,,,,,,,,,,,,,,,,,,,,,,,,,,,
1,"x: 274.6031799316406
y: 258.2972412109375
z: -0.18730144202709198
visibility: 0.9999692440032959
","x: 277.41546630859375
y: 255.18768310546875
z: -0.16929079592227936
visibility: 0.9999344348907471
","x: 278.684814453125
y: 256.1277160644531
z: -0.16926522552967072
visibility: 0.9999229907989502
","x: 279.8490295410156
y: 256.9384765625
z: -0.16925129294395447
visibility: 0.9999152421951294
","x: 273.94219970703125
y: 252.3805389404297
z: -0.17280010879039764
visibility: 0.999940037727356
","x: 272.60943603515625
y: 251.5361328125
z: -0.1728145331144333
visibility: 0.9999386072158813
","x: 271.1965026855469
y: 250.74588012695312
z: -0.1728072464466095
visibility: 0.9999490976333618
","x: 281.3959045410156
y: 261.54840087890625
z: -0.06548874825239182
visibility: 0.9998664855957031
","x: 268.28631591796875
y: 253.0656280517578
z: -0.08209887146949768
visibility: 0.9999169111251831
","x: 275.6605529785156
y: 265.9112548828125
z: -0.14827580749988556
visibility: 0.9999651908874512
","x: 270.3248291015625
y: 263.1713562011719
z: -0.15352432429790497
visibility: 0.9999816417694092
","x: 286.9349365234375
y: 297.38250732421875
z: -0.022653361782431602
visibility: 0.9999529123306274
","x: 251.44337463378906
y: 282.18115234375
z: -0.022474678233265877
visibility: 0.9999494552612305
","x: 296.2478332519531
y: 342.83001708984375
z: -0.12258090078830719
visibility: 0.9925178289413452
","x: 234.69639587402344
y: 317.18756103515625
z: -0.13533306121826172
visibility: 0.9935274720191956
","x: 281.7572326660156
y: 330.5433349609375
z: -0.30572250485420227
visibility: 0.9892242550849915
","x: 257.2664489746094
y: 306.4556579589844
z: -0.3133900761604309
visibility: 0.9891549944877625
","x: 277.1141052246094
y: 326.64154052734375
z: -0.34638869762420654
visibility: 0.969663143157959
","x: 263.93341064453125
y: 304.3884582519531
z: -0.35416704416275024
visibility: 0.9651945233345032
","x: 276.05108642578125
y: 320.3135681152344
z: -0.3396609425544739
visibility: 0.9677627086639404
","x: 265.04150390625
y: 300.5208740234375
z: -0.34159302711486816
visibility: 0.9615456461906433
","x: 276.5157165527344
y: 320.89569091796875
z: -0.3062669634819031
visibility: 0.9455550312995911
","x: 263.2733459472656
y: 301.53240966796875
z: -0.31107789278030396
visibility: 0.9407607913017273
","x: 276.2252502441406
y: 382.5908203125
z: -0.002463651355355978
visibility: 0.9995601773262024
","x: 252.04579162597656
y: 381.95989990234375
z: 0.0023359041661024094
visibility: 0.9996827840805054
","x: 287.9696044921875
y: 450.1767578125
z: -0.04533686116337776
visibility: 0.9992338418960571
","x: 239.2860107421875
y: 452.3800354003906
z: -0.051451705396175385
visibility: 0.9986549615859985
","x: 303.89764404296875
y: 512.2830810546875
z: 0.11616669595241547
visibility: 0.9987162351608276
","x: 227.32464599609375
y: 516.9238891601562
z: 0.09724818915128708
visibility: 0.998611569404602
","x: 304.86181640625
y: 520.4312744140625
z: 0.12661518156528473
visibility: 0.9077739119529724
","x: 228.64093017578125
y: 525.8765258789062
z: 0.10653410851955414
visibility: 0.9494873881340027
","x: 305.33062744140625
y: 533.7139282226562
z: 0.009749574586749077
visibility: 0.9956353306770325
","x: 222.21682739257812
y: 538.4471435546875
z: -0.00727550545707345
visibility: 0.9950626492500305
",4.0597405433654785,,,,,,,,,,,,,,,,,,,,,,,,,,,,,,,,,,,,,,,,,,
2,"x: 273.78363037109375
y: 263.63995361328125
z: -0.10909006744623184
visibility: 0.9999719858169556
","x: 275.3160705566406
y: 259.7677307128906
z: -0.09162101149559021
visibility: 0.9999406337738037
","x: 276.0358581542969
y: 260.30926513671875
z: -0.09163299947977066
visibility: 0.9999302625656128
","x: 276.8770751953125
y: 260.8659973144531
z: -0.09164360165596008
visibility: 0.9999233484268188
","x: 272.5426025390625
y: 257.89080810546875
z: -0.10585810244083405
visibility: 0.9999454617500305
","x: 271.19580078125
y: 257.18878173828125
z: -0.10584951937198639
visibility: 0.9999441504478455
","x: 269.7640075683594
y: 256.4339904785156
z: -0.10585065931081772
visibility: 0.9999535083770752
","x: 276.73345947265625
y: 264.565185546875
z: 0.012024255469441414
visibility: 0.9998790621757507
","x: 265.3534851074219
y: 258.37939453125
z: -0.053488027304410934
visibility: 0.9999247789382935
","x: 274.2594299316406
y: 270.7782287597656
z: -0.0693260207772255
visibility: 0.9999683499336243
","x: 270.08880615234375
y: 268.7630920410156
z: -0.0887373611330986
visibility: 0.9999831914901733
","x: 280.34295654296875
y: 304.5864562988281
z: 0.07513068616390228
visibility: 0.9999526739120483
","x: 250.95989990234375
y: 285.01513671875
z: -0.07711709290742874
visibility: 0.9999529123306274
","x: 286.90966796875
y: 342.83013916015625
z: -0.061771295964717865
visibility: 0.9720318913459778
","x: 251.62344360351562
y: 313.6171875
z: -0.22930879890918732
visibility: 0.992548942565918
","x: 286.1288146972656
y: 327.73736572265625
z: -0.2848309278488159
visibility: 0.983905553817749
","x: 263.82867431640625
y: 334.5018310546875
z: -0.35894694924354553
visibility: 0.9877859950065613
","x: 287.14422607421875
y: 321.1197204589844
z: -0.32517120242118835
visibility: 0.9644722938537598
","x: 267.1898498535156
y: 341.5614318847656
z: -0.3971882462501526
visibility: 0.9645118713378906
","x: 286.2634582519531
y: 317.96044921875
z: -0.32528120279312134
visibility: 0.9629953503608704
","x: 269.36346435546875
y: 338.2980651855469
z: -0.3920929431915283
visibility: 0.9609843492507935
","x: 284.7532958984375
y: 319.55010986328125
z: -0.29220372438430786
visibility: 0.9408526420593262
","x: 269.10455322265625
y: 335.6612548828125
z: -0.3595163822174072
visibility: 0.9397683143615723
","x: 273.0977478027344
y: 390.879150390625
z: 0.04457951337099075
visibility: 0.9995965361595154
","x: 251.22129821777344
y: 386.95721435546875
z: -0.044661834836006165
visibility: 0.9997038841247559
","x: 287.5482482910156
y: 451.6763000488281
z: 0.0156864020973444
visibility: 0.998638391494751
","x: 240.18258666992188
y: 459.3681335449219
z: -0.0592767708003521
visibility: 0.998629629611969
","x: 299.197021484375
y: 514.8319702148438
z: 0.14908108115196228
visibility: 0.9980859756469727
","x: 224.48052978515625
y: 517.1790771484375
z: 0.06683273613452911
visibility: 0.9984678626060486
","x: 295.38006591796875
y: 524.383544921875
z: 0.15772812068462372
visibility: 0.9118042588233948
","x: 221.58474731445312
y: 525.9010009765625
z: 0.07503949105739594
visibility: 0.9420657157897949
","x: 307.14697265625
y: 536.0126342773438
z: 0.07599598914384842
visibility: 0.9948084354400635
","x: 224.75514221191406
y: 538.899658203125
z: -0.028422921895980835
visibility: 0.9948160648345947
",4.615910291671753,"x: 267.984130859375
y: 336.03436279296875
z: 0.0
","x: 271.38482666015625
y: 336.5188293457031
z: -0.00033799209631979465
","x: 274.1658630371094
y: 340.00311279296875
z: -0.002756038447842002
","x: 275.04559326171875
y: 345.3457946777344
z: -0.005427781958132982
","x: 274.9327697753906
y: 349.6429443359375
z: -0.007978617213666439
","x: 275.30731201171875
y: 336.2857360839844
z: -0.007089877966791391
","x: 277.56884765625
y: 341.8982238769531
z: -0.011015858501195908
","x: 277.48712158203125
y: 347.25616455078125
z: -0.012784931808710098
","x: 276.9400329589844
y: 350.8750915527344
z: -0.01365187019109726
","x: 273.3530578613281
y: 336.38336181640625
z: -0.00913276057690382
","x: 275.0808410644531
y: 343.1640319824219
z: -0.013320622965693474
","x: 275.32183837890625
y: 348.45648193359375
z: -0.014064454473555088
","x: 275.1883239746094
y: 351.594970703125
z: -0.014391520991921425
","x: 271.0157165527344
y: 337.52410888671875
z: -0.010880490764975548
","x: 272.17236328125
y: 345.10882568359375
z: -0.014252888038754463
","x: 272.28411865234375
y: 349.4517517089844
z: -0.013383395038545132
","x: 272.2378845214844
y: 351.2047119140625
z: -0.01260802336037159
","x: 268.74163818359375
y: 339.3680114746094
z: -0.012618188746273518
","x: 269.5232238769531
y: 346.10748291015625
z: -0.014850912615656853
","x: 269.7653503417969
y: 349.14019775390625
z: -0.013949411921203136
","x: 269.8637390136719
y: 350.1548767089844
z: -0.013088000938296318
",,,,,,,,,,,,,,,,,,,,,
3,"x: 273.78363037109375
y: 263.63995361328125
z: -0.10909006744623184
visibility: 0.9999719858169556
","x: 275.3160705566406
y: 259.7677307128906
z: -0.09162101149559021
visibility: 0.9999406337738037
","x: 276.0358581542969
y: 260.30926513671875
z: -0.09163299947977066
visibility: 0.9999302625656128
","x: 276.8770751953125
y: 260.8659973144531
z: -0.09164360165596008
visibility: 0.9999233484268188
","x: 272.5426025390625
y: 257.89080810546875
z: -0.10585810244083405
visibility: 0.9999454617500305
","x: 271.19580078125
y: 257.18878173828125
z: -0.10584951937198639
visibility: 0.9999441504478455
","x: 269.7640075683594
y: 256.4339904785156
z: -0.10585065931081772
visibility: 0.9999535083770752
","x: 276.73345947265625
y: 264.565185546875
z: 0.012024255469441414
visibility: 0.9998790621757507
","x: 265.3534851074219
y: 258.37939453125
z: -0.053488027304410934
visibility: 0.9999247789382935
","x: 274.2594299316406
y: 270.7782287597656
z: -0.0693260207772255
visibility: 0.9999683499336243
","x: 270.08880615234375
y: 268.7630920410156
z: -0.0887373611330986
visibility: 0.9999831914901733
","x: 280.34295654296875
y: 304.5864562988281
z: 0.07513068616390228
visibility: 0.9999526739120483
","x: 250.95989990234375
y: 285.01513671875
z: -0.07711709290742874
visibility: 0.9999529123306274
","x: 286.90966796875
y: 342.83013916015625
z: -0.061771295964717865
visibility: 0.9720318913459778
","x: 251.62344360351562
y: 313.6171875
z: -0.22930879890918732
visibility: 0.992548942565918
","x: 286.1288146972656
y: 327.73736572265625
z: -0.2848309278488159
visibility: 0.983905553817749
","x: 263.82867431640625
y: 334.5018310546875
z: -0.35894694924354553
visibility: 0.9877859950065613
","x: 287.14422607421875
y: 321.1197204589844
z: -0.32517120242118835
visibility: 0.9644722938537598
","x: 267.1898498535156
y: 341.5614318847656
z: -0.3971882462501526
visibility: 0.9645118713378906
","x: 286.2634582519531
y: 317.96044921875
z: -0.32528120279312134
visibility: 0.9629953503608704
","x: 269.36346435546875
y: 338.2980651855469
z: -0.3920929431915283
visibility: 0.9609843492507935
","x: 284.7532958984375
y: 319.55010986328125
z: -0.29220372438430786
visibility: 0.9408526420593262
","x: 269.10455322265625
y: 335.6612548828125
z: -0.3595163822174072
visibility: 0.9397683143615723
","x: 273.0977478027344
y: 390.879150390625
z: 0.04457951337099075
visibility: 0.9995965361595154
","x: 251.22129821777344
y: 386.95721435546875
z: -0.044661834836006165
visibility: 0.9997038841247559
","x: 287.5482482910156
y: 451.6763000488281
z: 0.0156864020973444
visibility: 0.998638391494751
","x: 240.18258666992188
y: 459.3681335449219
z: -0.0592767708003521
visibility: 0.998629629611969
","x: 299.197021484375
y: 514.8319702148438
z: 0.14908108115196228
visibility: 0.9980859756469727
","x: 224.48052978515625
y: 517.1790771484375
z: 0.06683273613452911
visibility: 0.9984678626060486
","x: 295.38006591796875
y: 524.383544921875
z: 0.15772812068462372
visibility: 0.9118042588233948
","x: 221.58474731445312
y: 525.9010009765625
z: 0.07503949105739594
visibility: 0.9420657157897949
","x: 307.14697265625
y: 536.0126342773438
z: 0.07599598914384842
visibility: 0.9948084354400635
","x: 224.75514221191406
y: 538.899658203125
z: -0.028422921895980835
visibility: 0.9948160648345947
",4.615910291671753,"x: 267.984130859375
y: 336.03436279296875
z: 0.0
","x: 271.38482666015625
y: 336.5188293457031
z: -0.00033799209631979465
","x: 274.1658630371094
y: 340.00311279296875
z: -0.002756038447842002
","x: 275.04559326171875
y: 345.3457946777344
z: -0.005427781958132982
","x: 274.9327697753906
y: 349.6429443359375
z: -0.007978617213666439
","x: 275.30731201171875
y: 336.2857360839844
z: -0.007089877966791391
","x: 277.56884765625
y: 341.8982238769531
z: -0.011015858501195908
","x: 277.48712158203125
y: 347.25616455078125
z: -0.012784931808710098
","x: 276.9400329589844
y: 350.8750915527344
z: -0.01365187019109726
","x: 273.3530578613281
y: 336.38336181640625
z: -0.00913276057690382
","x: 275.0808410644531
y: 343.1640319824219
z: -0.013320622965693474
","x: 275.32183837890625
y: 348.45648193359375
z: -0.014064454473555088
","x: 275.1883239746094
y: 351.594970703125
z: -0.014391520991921425
","x: 271.0157165527344
y: 337.52410888671875
z: -0.010880490764975548
","x: 272.17236328125
y: 345.10882568359375
z: -0.014252888038754463
","x: 272.28411865234375
y: 349.4517517089844
z: -0.013383395038545132
","x: 272.2378845214844
y: 351.2047119140625
z: -0.01260802336037159
","x: 268.74163818359375
y: 339.3680114746094
z: -0.012618188746273518
","x: 269.5232238769531
y: 346.10748291015625
z: -0.014850912615656853
","x: 269.7653503417969
y: 349.14019775390625
z: -0.013949411921203136
","x: 269.8637390136719
y: 350.1548767089844
z: -0.013088000938296318
",,,,,,,,,,,,,,,,,,,,,
4,"x: 273.78363037109375
y: 263.63995361328125
z: -0.10909006744623184
visibility: 0.9999719858169556
","x: 275.3160705566406
y: 259.7677307128906
z: -0.09162101149559021
visibility: 0.9999406337738037
","x: 276.0358581542969
y: 260.30926513671875
z: -0.09163299947977066
visibility: 0.9999302625656128
","x: 276.8770751953125
y: 260.8659973144531
z: -0.09164360165596008
visibility: 0.9999233484268188
","x: 272.5426025390625
y: 257.89080810546875
z: -0.10585810244083405
visibility: 0.9999454617500305
","x: 271.19580078125
y: 257.18878173828125
z: -0.10584951937198639
visibility: 0.9999441504478455
","x: 269.7640075683594
y: 256.4339904785156
z: -0.10585065931081772
visibility: 0.9999535083770752
","x: 276.73345947265625
y: 264.565185546875
z: 0.012024255469441414
visibility: 0.9998790621757507
","x: 265.3534851074219
y: 258.37939453125
z: -0.053488027304410934
visibility: 0.9999247789382935
","x: 274.2594299316406
y: 270.7782287597656
z: -0.0693260207772255
visibility: 0.9999683499336243
","x: 270.08880615234375
y: 268.7630920410156
z: -0.0887373611330986
visibility: 0.9999831914901733
","x: 280.34295654296875
y: 304.5864562988281
z: 0.07513068616390228
visibility: 0.9999526739120483
","x: 250.95989990234375
y: 285.01513671875
z: -0.07711709290742874
visibility: 0.9999529123306274
","x: 286.90966796875
y: 342.83013916015625
z: -0.061771295964717865
visibility: 0.9720318913459778
","x: 251.62344360351562
y: 313.6171875
z: -0.22930879890918732
visibility: 0.992548942565918
","x: 286.1288146972656
y: 327.73736572265625
z: -0.2848309278488159
visibility: 0.983905553817749
","x: 263.82867431640625
y: 334.5018310546875
z: -0.35894694924354553
visibility: 0.9877859950065613
","x: 287.14422607421875
y: 321.1197204589844
z: -0.32517120242118835
visibility: 0.9644722938537598
","x: 267.1898498535156
y: 341.5614318847656
z: -0.3971882462501526
visibility: 0.9645118713378906
","x: 286.2634582519531
y: 317.96044921875
z: -0.32528120279312134
visibility: 0.9629953503608704
","x: 269.36346435546875
y: 338.2980651855469
z: -0.3920929431915283
visibility: 0.9609843492507935
","x: 284.7532958984375
y: 319.55010986328125
z: -0.29220372438430786
visibility: 0.9408526420593262
","x: 269.10455322265625
y: 335.6612548828125
z: -0.3595163822174072
visibility: 0.9397683143615723
","x: 273.0977478027344
y: 390.879150390625
z: 0.04457951337099075
visibility: 0.9995965361595154
","x: 251.22129821777344
y: 386.95721435546875
z: -0.044661834836006165
visibility: 0.9997038841247559
","x: 287.5482482910156
y: 451.6763000488281
z: 0.0156864020973444
visibility: 0.998638391494751
","x: 240.18258666992188
y: 459.3681335449219
z: -0.0592767708003521
visibility: 0.998629629611969
","x: 299.197021484375
y: 514.8319702148438
z: 0.14908108115196228
visibility: 0.9980859756469727
","x: 224.48052978515625
y: 517.1790771484375
z: 0.06683273613452911
visibility: 0.9984678626060486
","x: 295.38006591796875
y: 524.383544921875
z: 0.15772812068462372
visibility: 0.9118042588233948
","x: 221.58474731445312
y: 525.9010009765625
z: 0.07503949105739594
visibility: 0.9420657157897949
","x: 307.14697265625
y: 536.0126342773438
z: 0.07599598914384842
visibility: 0.9948084354400635
","x: 224.75514221191406
y: 538.899658203125
z: -0.028422921895980835
visibility: 0.9948160648345947
",4.615910291671753,"x: 267.984130859375
y: 336.03436279296875
z: 0.0
","x: 271.38482666015625
y: 336.5188293457031
z: -0.00033799209631979465
","x: 274.1658630371094
y: 340.00311279296875
z: -0.002756038447842002
","x: 275.04559326171875
y: 345.3457946777344
z: -0.005427781958132982
","x: 274.9327697753906
y: 349.6429443359375
z: -0.007978617213666439
","x: 275.30731201171875
y: 336.2857360839844
z: -0.007089877966791391
","x: 277.56884765625
y: 341.8982238769531
z: -0.011015858501195908
","x: 277.48712158203125
y: 347.25616455078125
z: -0.012784931808710098
","x: 276.9400329589844
y: 350.8750915527344
z: -0.01365187019109726
","x: 273.3530578613281
y: 336.38336181640625
z: -0.00913276057690382
","x: 275.0808410644531
y: 343.1640319824219
z: -0.013320622965693474
","x: 275.32183837890625
y: 348.45648193359375
z: -0.014064454473555088
","x: 275.1883239746094
y: 351.594970703125
z: -0.014391520991921425
","x: 271.0157165527344
y: 337.52410888671875
z: -0.010880490764975548
","x: 272.17236328125
y: 345.10882568359375
z: -0.014252888038754463
","x: 272.28411865234375
y: 349.4517517089844
z: -0.013383395038545132
","x: 272.2378845214844
y: 351.2047119140625
z: -0.01260802336037159
","x: 268.74163818359375
y: 339.3680114746094
z: -0.012618188746273518
","x: 269.5232238769531
y: 346.10748291015625
z: -0.014850912615656853
","x: 269.7653503417969
y: 349.14019775390625
z: -0.013949411921203136
","x: 269.8637390136719
y: 350.1548767089844
z: -0.013088000938296318
",,,,,,,,,,,,,,,,,,,,,
5,"x: 268.3269348144531
y: 262.1038513183594
z: -0.14376400411128998
visibility: 0.9999745488166809
","x: 269.56793212890625
y: 256.1025390625
z: -0.12679558992385864
visibility: 0.9999461770057678
","x: 270.60443115234375
y: 256.237060546875
z: -0.12678709626197815
visibility: 0.9999366402626038
","x: 271.64892578125
y: 256.5061340332031
z: -0.1267824023962021
visibility: 0.9999303817749023
","x: 266.1912536621094
y: 255.64561462402344
z: -0.13504686951637268
visibility: 0.9999505281448364
","x: 264.84490966796875
y: 255.47799682617188
z: -0.13504858314990997
visibility: 0.9999493360519409
","x: 263.7152099609375
y: 255.3763427734375
z: -0.13505327701568604
visibility: 0.9999578595161438
","x: 272.5682678222656
y: 259.4854431152344
z: -0.020329799503087997
visibility: 0.9998899698257446
","x: 260.1669616699219
y: 258.021484375
z: -0.06021985411643982
visibility: 0.9999321103096008
","x: 269.9574890136719
y: 268.81201171875
z: -0.10254259407520294
visibility: 0.9999712109565735
","x: 265.4191589355469
y: 268.30303955078125
z: -0.11423095315694809
visibility: 0.9999847412109375
","x: 278.44775390625
y: 292.8541259765625
z: 0.04940231144428253
visibility: 0.999954104423523
","x: 248.06573486328125
y: 284.5232849121094
z: -0.06089910864830017
visibility: 0.9999571442604065
","x: 289.3554382324219
y: 319.9869384765625
z: -0.06691169738769531
visibility: 0.9715147018432617
","x: 245.4403533935547
y: 310.9341125488281
z: -0.18683740496635437
visibility: 0.9931245446205139
","x: 290.743408203125
y: 290.9978332519531
z: -0.27402493357658386
visibility: 0.9829541444778442
","x: 265.1656188964844
y: 325.98553466796875
z: -0.3301609754562378
visibility: 0.9885746240615845
","x: 291.7736511230469
y: 281.6085205078125
z: -0.3156422972679138
visibility: 0.9629641175270081
","x: 269.6592102050781
y: 332.9555969238281
z: -0.36663132905960083
visibility: 0.9668224453926086
","x: 289.0021667480469
y: 279.4710998535156
z: -0.31287437677383423
visibility: 0.9613102674484253
","x: 272.95623779296875
y: 329.51177978515625
z: -0.36624354124069214
visibility: 0.9635494351387024
","x: 287.6854248046875
y: 283.4667663574219
z: -0.2796045243740082
visibility: 0.9397088885307312
","x: 272.4741516113281
y: 327.0330505371094
z: -0.32997971773147583
visibility: 0.9434984922409058
","x: 273.3726806640625
y: 389.91741943359375
z: 0.030094698071479797
visibility: 0.9996270537376404
","x: 250.88980102539062
y: 386.5185241699219
z: -0.030149657279253006
visibility: 0.9997252821922302
","x: 287.4820556640625
y: 451.66375732421875
z: 0.003847569227218628
visibility: 0.998451828956604
","x: 240.1160125732422
y: 458.17633056640625
z: -0.07190416008234024
visibility: 0.9986560344696045
","x: 299.2677917480469
y: 514.6675415039062
z: 0.15284672379493713
visibility: 0.9977445006370544
","x: 223.03582763671875
y: 517.7188720703125
z: 0.03687598928809166
visibility: 0.9984198212623596
","x: 295.67181396484375
y: 524.023681640625
z: 0.16255848109722137
visibility: 0.9144469499588013
","x: 220.5245819091797
y: 526.4253540039062
z: 0.04323877766728401
visibility: 0.9389382600784302
","x: 307.0693054199219
y: 536.4354248046875
z: 0.06753405183553696
visibility: 0.9943158626556396
","x: 225.14154052734375
y: 539.3616333007812
z: -0.07126377522945404
visibility: 0.9947081804275513
",4.7837841510772705,"x: 266.12054443359375
y: 326.3084716796875
z: 0.0
","x: 270.5018615722656
y: 328.41339111328125
z: 0.00031169960857369006
","x: 274.0077209472656
y: 329.88671875
z: -0.0019358749268576503
","x: 276.291015625
y: 332.56011962890625
z: -0.0047728149220347404
","x: 277.4404602050781
y: 334.7840576171875
z: -0.007242698688060045
","x: 276.5823669433594
y: 322.0606994628906
z: -0.0034920712932944298
","x: 277.7221374511719
y: 330.6169128417969
z: -0.007380382623523474
","x: 278.1588439941406
y: 331.9002990722656
z: -0.009455705061554909
","x: 278.281005859375
y: 331.7933349609375
z: -0.010642394423484802
","x: 274.4900207519531
y: 321.12347412109375
z: -0.006368402857333422
","x: 275.1878356933594
y: 332.11151123046875
z: -0.010200363583862782
","x: 275.414794921875
y: 332.4277038574219
z: -0.010448568500578403
","x: 275.6234436035156
y: 331.2768859863281
z: -0.010722382925450802
","x: 271.96002197265625
y: 321.8302001953125
z: -0.009304017759859562
","x: 272.61639404296875
y: 332.41253662109375
z: -0.012240538373589516
","x: 272.8376770019531
y: 332.2908020019531
z: -0.010529259219765663
","x: 273.2072448730469
y: 330.81524658203125
z: -0.009535236284136772
","x: 269.2554931640625
y: 323.7427978515625
z: -0.01245791558176279
","x: 269.98834228515625
y: 331.49615478515625
z: -0.014403597451746464
","x: 270.17340087890625
y: 331.46917724609375
z: -0.013019888661801815
","x: 270.4350891113281
y: 330.2095031738281
z: -0.012023046612739563
",,,,,,,,,,,,,,,,,,,,,
6,"x: 268.3269348144531
y: 262.1038513183594
z: -0.14376400411128998
visibility: 0.9999745488166809
","x: 269.56793212890625
y: 256.1025390625
z: -0.12679558992385864
visibility: 0.9999461770057678
","x: 270.60443115234375
y: 256.237060546875
z: -0.12678709626197815
visibility: 0.9999366402626038
","x: 271.64892578125
y: 256.5061340332031
z: -0.1267824023962021
visibility: 0.9999303817749023
","x: 266.1912536621094
y: 255.64561462402344
z: -0.13504686951637268
visibility: 0.9999505281448364
","x: 264.84490966796875
y: 255.47799682617188
z: -0.13504858314990997
visibility: 0.9999493360519409
","x: 263.7152099609375
y: 255.3763427734375
z: -0.13505327701568604
visibility: 0.9999578595161438
","x: 272.5682678222656
y: 259.4854431152344
z: -0.020329799503087997
visibility: 0.9998899698257446
","x: 260.1669616699219
y: 258.021484375
z: -0.06021985411643982
visibility: 0.9999321103096008
","x: 269.9574890136719
y: 268.81201171875
z: -0.10254259407520294
visibility: 0.9999712109565735
","x: 265.4191589355469
y: 268.30303955078125
z: -0.11423095315694809
visibility: 0.9999847412109375
","x: 278.44775390625
y: 292.8541259765625
z: 0.04940231144428253
visibility: 0.999954104423523
","x: 248.06573486328125
y: 284.5232849121094
z: -0.06089910864830017
visibility: 0.9999571442604065
","x: 289.3554382324219
y: 319.9869384765625
z: -0.06691169738769531
visibility: 0.9715147018432617
","x: 245.4403533935547
y: 310.9341125488281
z: -0.18683740496635437
visibility: 0.9931245446205139
","x: 290.743408203125
y: 290.9978332519531
z: -0.27402493357658386
visibility: 0.9829541444778442
","x: 265.1656188964844
y: 325.98553466796875
z: -0.3301609754562378
visibility: 0.9885746240615845
","x: 291.7736511230469
y: 281.6085205078125
z: -0.3156422972679138
visibility: 0.9629641175270081
","x: 269.6592102050781
y: 332.9555969238281
z: -0.36663132905960083
visibility: 0.9668224453926086
","x: 289.0021667480469
y: 279.4710998535156
z: -0.31287437677383423
visibility: 0.9613102674484253
","x: 272.95623779296875
y: 329.51177978515625
z: -0.36624354124069214
visibility: 0.9635494351387024
","x: 287.6854248046875
y: 283.4667663574219
z: -0.2796045243740082
visibility: 0.9397088885307312
","x: 272.4741516113281
y: 327.0330505371094
z: -0.32997971773147583
visibility: 0.9434984922409058
","x: 273.3726806640625
y: 389.91741943359375
z: 0.030094698071479797
visibility: 0.9996270537376404
","x: 250.88980102539062
y: 386.5185241699219
z: -0.030149657279253006
visibility: 0.9997252821922302
","x: 287.4820556640625
y: 451.66375732421875
z: 0.003847569227218628
visibility: 0.998451828956604
","x: 240.1160125732422
y: 458.17633056640625
z: -0.07190416008234024
visibility: 0.9986560344696045
","x: 299.2677917480469
y: 514.6675415039062
z: 0.15284672379493713
visibility: 0.9977445006370544
","x: 223.03582763671875
y: 517.7188720703125
z: 0.03687598928809166
visibility: 0.9984198212623596
","x: 295.67181396484375
y: 524.023681640625
z: 0.16255848109722137
visibility: 0.9144469499588013
","x: 220.5245819091797
y: 526.4253540039062
z: 0.04323877766728401
visibility: 0.9389382600784302
","x: 307.0693054199219
y: 536.4354248046875
z: 0.06753405183553696
visibility: 0.9943158626556396
","x: 225.14154052734375
y: 539.3616333007812
z: -0.07126377522945404
visibility: 0.9947081804275513
",4.7837841510772705,"x: 266.12054443359375
y: 326.3084716796875
z: 0.0
","x: 270.5018615722656
y: 328.41339111328125
z: 0.00031169960857369006
","x: 274.0077209472656
y: 329.88671875
z: -0.0019358749268576503
","x: 276.291015625
y: 332.56011962890625
z: -0.0047728149220347404
","x: 277.4404602050781
y: 334.7840576171875
z: -0.007242698688060045
","x: 276.5823669433594
y: 322.0606994628906
z: -0.0034920712932944298
","x: 277.7221374511719
y: 330.6169128417969
z: -0.007380382623523474
","x: 278.1588439941406
y: 331.9002990722656
z: -0.009455705061554909
","x: 278.281005859375
y: 331.7933349609375
z: -0.010642394423484802
","x: 274.4900207519531
y: 321.12347412109375
z: -0.006368402857333422
","x: 275.1878356933594
y: 332.11151123046875
z: -0.010200363583862782
","x: 275.414794921875
y: 332.4277038574219
z: -0.010448568500578403
","x: 275.6234436035156
y: 331.2768859863281
z: -0.010722382925450802
","x: 271.96002197265625
y: 321.8302001953125
z: -0.009304017759859562
","x: 272.61639404296875
y: 332.41253662109375
z: -0.012240538373589516
","x: 272.8376770019531
y: 332.2908020019531
z: -0.010529259219765663
","x: 273.2072448730469
y: 330.81524658203125
z: -0.009535236284136772
","x: 269.2554931640625
y: 323.7427978515625
z: -0.01245791558176279
","x: 269.98834228515625
y: 331.49615478515625
z: -0.014403597451746464
","x: 270.17340087890625
y: 331.46917724609375
z: -0.013019888661801815
","x: 270.4350891113281
y: 330.2095031738281
z: -0.012023046612739563
",,,,,,,,,,,,,,,,,,,,,
7,"x: 268.3269348144531
y: 262.1038513183594
z: -0.14376400411128998
visibility: 0.9999745488166809
","x: 269.56793212890625
y: 256.1025390625
z: -0.12679558992385864
visibility: 0.9999461770057678
","x: 270.60443115234375
y: 256.237060546875
z: -0.12678709626197815
visibility: 0.9999366402626038
","x: 271.64892578125
y: 256.5061340332031
z: -0.1267824023962021
visibility: 0.9999303817749023
","x: 266.1912536621094
y: 255.64561462402344
z: -0.13504686951637268
visibility: 0.9999505281448364
","x: 264.84490966796875
y: 255.47799682617188
z: -0.13504858314990997
visibility: 0.9999493360519409
","x: 263.7152099609375
y: 255.3763427734375
z: -0.13505327701568604
visibility: 0.9999578595161438
","x: 272.5682678222656
y: 259.4854431152344
z: -0.020329799503087997
visibility: 0.9998899698257446
","x: 260.1669616699219
y: 258.021484375
z: -0.06021985411643982
visibility: 0.9999321103096008
","x: 269.9574890136719
y: 268.81201171875
z: -0.10254259407520294
visibility: 0.9999712109565735
","x: 265.4191589355469
y: 268.30303955078125
z: -0.11423095315694809
visibility: 0.9999847412109375
","x: 278.44775390625
y: 292.8541259765625
z: 0.04940231144428253
visibility: 0.999954104423523
","x: 248.06573486328125
y: 284.5232849121094
z: -0.06089910864830017
visibility: 0.9999571442604065
","x: 289.3554382324219
y: 319.9869384765625
z: -0.06691169738769531
visibility: 0.9715147018432617
","x: 245.4403533935547
y: 310.9341125488281
z: -0.18683740496635437
visibility: 0.9931245446205139
","x: 290.743408203125
y: 290.9978332519531
z: -0.27402493357658386
visibility: 0.9829541444778442
","x: 265.1656188964844
y: 325.98553466796875
z: -0.3301609754562378
visibility: 0.9885746240615845
","x: 291.7736511230469
y: 281.6085205078125
z: -0.3156422972679138
visibility: 0.9629641175270081
","x: 269.6592102050781
y: 332.9555969238281
z: -0.36663132905960083
visibility: 0.9668224453926086
","x: 289.0021667480469
y: 279.4710998535156
z: -0.31287437677383423
visibility: 0.9613102674484253
","x: 272.95623779296875
y: 329.51177978515625
z: -0.36624354124069214
visibility: 0.9635494351387024
","x: 287.6854248046875
y: 283.4667663574219
z: -0.2796045243740082
visibility: 0.9397088885307312
","x: 272.4741516113281
y: 327.0330505371094
z: -0.32997971773147583
visibility: 0.9434984922409058
","x: 273.3726806640625
y: 389.91741943359375
z: 0.030094698071479797
visibility: 0.9996270537376404
","x: 250.88980102539062
y: 386.5185241699219
z: -0.030149657279253006
visibility: 0.9997252821922302
","x: 287.4820556640625
y: 451.66375732421875
z: 0.003847569227218628
visibility: 0.998451828956604
","x: 240.1160125732422
y: 458.17633056640625
z: -0.07190416008234024
visibility: 0.9986560344696045
","x: 299.2677917480469
y: 514.6675415039062
z: 0.15284672379493713
visibility: 0.9977445006370544
","x: 223.03582763671875
y: 517.7188720703125
z: 0.03687598928809166
visibility: 0.9984198212623596
","x: 295.67181396484375
y: 524.023681640625
z: 0.16255848109722137
visibility: 0.9144469499588013
","x: 220.5245819091797
y: 526.4253540039062
z: 0.04323877766728401
visibility: 0.9389382600784302
","x: 307.0693054199219
y: 536.4354248046875
z: 0.06753405183553696
visibility: 0.9943158626556396
","x: 225.14154052734375
y: 539.3616333007812
z: -0.07126377522945404
visibility: 0.9947081804275513
",4.7837841510772705,"x: 266.12054443359375
y: 326.3084716796875
z: 0.0
","x: 270.5018615722656
y: 328.41339111328125
z: 0.00031169960857369006
","x: 274.0077209472656
y: 329.88671875
z: -0.0019358749268576503
","x: 276.291015625
y: 332.56011962890625
z: -0.0047728149220347404
","x: 277.4404602050781
y: 334.7840576171875
z: -0.007242698688060045
","x: 276.5823669433594
y: 322.0606994628906
z: -0.0034920712932944298
","x: 277.7221374511719
y: 330.6169128417969
z: -0.007380382623523474
","x: 278.1588439941406
y: 331.9002990722656
z: -0.009455705061554909
","x: 278.281005859375
y: 331.7933349609375
z: -0.010642394423484802
","x: 274.4900207519531
y: 321.12347412109375
z: -0.006368402857333422
","x: 275.1878356933594
y: 332.11151123046875
z: -0.010200363583862782
","x: 275.414794921875
y: 332.4277038574219
z: -0.010448568500578403
","x: 275.6234436035156
y: 331.2768859863281
z: -0.010722382925450802
","x: 271.96002197265625
y: 321.8302001953125
z: -0.009304017759859562
","x: 272.61639404296875
y: 332.41253662109375
z: -0.012240538373589516
","x: 272.8376770019531
y: 332.2908020019531
z: -0.010529259219765663
","x: 273.2072448730469
y: 330.81524658203125
z: -0.009535236284136772
","x: 269.2554931640625
y: 323.7427978515625
z: -0.01245791558176279
","x: 269.98834228515625
y: 331.49615478515625
z: -0.014403597451746464
","x: 270.17340087890625
y: 331.46917724609375
z: -0.013019888661801815
","x: 270.4350891113281
y: 330.2095031738281
z: -0.012023046612739563
",,,,,,,,,,,,,,,,,,,,,
8,"x: 262.96343994140625
y: 263.05230712890625
z: -0.17773503065109253
visibility: 0.9999765753746033
","x: 264.4990234375
y: 256.8215026855469
z: -0.1617075502872467
visibility: 0.9999508857727051
","x: 266.0824890136719
y: 256.6567687988281
z: -0.16170652210712433
visibility: 0.9999420642852783
","x: 267.56463623046875
y: 256.65106201171875
z: -0.16169635951519012
visibility: 0.9999362826347351
","x: 260.632568359375
y: 257.6116943359375
z: -0.16171866655349731
visibility: 0.9999547600746155
","x: 259.4939270019531
y: 257.9794921875
z: -0.16173125803470612
visibility: 0.9999536871910095
","x: 258.1292419433594
y: 258.35955810546875
z: -0.16172417998313904
visibility: 0.9999614357948303
","x: 270.45782470703125
y: 259.5620422363281
z: -0.05576862767338753
visibility: 0.9998995065689087
","x: 257.21563720703125
y: 261.5521545410156
z: -0.06435712426900864
visibility: 0.9999386072158813
","x: 266.6605529785156
y: 269.53271484375
z: -0.13702936470508575
visibility: 0.9999735951423645
","x: 261.1703796386719
y: 270.48822021484375
z: -0.135882169008255
visibility: 0.9999860525131226
","x: 279.9908447265625
y: 290.45513916015625
z: 0.03450232744216919
visibility: 0.9999539256095886
","x: 248.2093963623047
y: 290.5211181640625
z: -0.06283832341432571
visibility: 0.9999590516090393
","x: 303.17156982421875
y: 289.10760498046875
z: -0.14216628670692444
visibility: 0.972902238368988
","x: 243.1478729248047
y: 318.8565979003906
z: -0.20352375507354736
visibility: 0.9936056137084961
","x: 303.6919250488281
y: 265.036865234375
z: -0.35011035203933716
visibility: 0.9819371700286865
","x: 264.5658874511719
y: 326.70965576171875
z: -0.3481335937976837
visibility: 0.988973081111908
","x: 307.1111755371094
y: 256.2185363769531
z: -0.3965221345424652
visibility: 0.9603326320648193
","x: 270.1763916015625
y: 329.94586181640625
z: -0.3885461688041687
visibility: 0.9676327109336853
","x: 303.7696228027344
y: 254.64715576171875
z: -0.3895217776298523
visibility: 0.9583615660667419
","x: 272.4910888671875
y: 326.4068908691406
z: -0.3776414096355438
visibility: 0.9644598364830017
","x: 301.6180419921875
y: 259.6533203125
z: -0.3548627495765686
visibility: 0.9374818801879883
","x: 271.4696960449219
y: 325.2877502441406
z: -0.34579354524612427
visibility: 0.9449321031570435
","x: 273.75140380859375
y: 389.8516540527344
z: 0.022084008902311325
visibility: 0.9996591806411743
","x: 251.21572875976562
y: 387.8956604003906
z: -0.022149674594402313
visibility: 0.9997460842132568
","x: 287.76678466796875
y: 453.58392333984375
z: -0.01102638803422451
visibility: 0.9982523918151855
","x: 240.5967559814453
y: 460.05535888671875
z: -0.06724844872951508
visibility: 0.9986557960510254
","x: 299.6197814941406
y: 514.72998046875
z: 0.1636139452457428
visibility: 0.9974351525306702
","x: 223.302734375
y: 518.3370361328125
z: 0.060279857367277145
visibility: 0.9983129501342773
","x: 297.6690368652344
y: 524.0454711914062
z: 0.17580445110797882
visibility: 0.9157914519309998
","x: 221.11671447753906
y: 526.9658813476562
z: 0.06786509603261948
visibility: 0.9342743754386902
","x: 307.4413757324219
y: 536.2928466796875
z: 0.07305733859539032
visibility: 0.9935972690582275
","x: 225.22816467285156
y: 539.52490234375
z: -0.044827401638031006
visibility: 0.9944186210632324
",4.95694899559021,,,,,,,,,,,,,,,,,,,,,,,,,,,,,,,,,,,,,,,,,,
9,"x: 262.96343994140625
y: 263.05230712890625
z: -0.17773503065109253
visibility: 0.9999765753746033
","x: 264.4990234375
y: 256.8215026855469
z: -0.1617075502872467
visibility: 0.9999508857727051
","x: 266.0824890136719
y: 256.6567687988281
z: -0.16170652210712433
visibility: 0.9999420642852783
","x: 267.56463623046875
y: 256.65106201171875
z: -0.16169635951519012
visibility: 0.9999362826347351
","x: 260.632568359375
y: 257.6116943359375
z: -0.16171866655349731
visibility: 0.9999547600746155
","x: 259.4939270019531
y: 257.9794921875
z: -0.16173125803470612
visibility: 0.9999536871910095
","x: 258.1292419433594
y: 258.35955810546875
z: -0.16172417998313904
visibility: 0.9999614357948303
","x: 270.45782470703125
y: 259.5620422363281
z: -0.05576862767338753
visibility: 0.9998995065689087
","x: 257.21563720703125
y: 261.5521545410156
z: -0.06435712426900864
visibility: 0.9999386072158813
","x: 266.6605529785156
y: 269.53271484375
z: -0.13702936470508575
visibility: 0.9999735951423645
","x: 261.1703796386719
y: 270.48822021484375
z: -0.135882169008255
visibility: 0.9999860525131226
","x: 279.9908447265625
y: 290.45513916015625
z: 0.03450232744216919
visibility: 0.9999539256095886
","x: 248.2093963623047
y: 290.5211181640625
z: -0.06283832341432571
visibility: 0.9999590516090393
","x: 303.17156982421875
y: 289.10760498046875
z: -0.14216628670692444
visibility: 0.972902238368988
","x: 243.1478729248047
y: 318.8565979003906
z: -0.20352375507354736
visibility: 0.9936056137084961
","x: 303.6919250488281
y: 265.036865234375
z: -0.35011035203933716
visibility: 0.9819371700286865
","x: 264.5658874511719
y: 326.70965576171875
z: -0.3481335937976837
visibility: 0.988973081111908
","x: 307.1111755371094
y: 256.2185363769531
z: -0.3965221345424652
visibility: 0.9603326320648193
","x: 270.1763916015625
y: 329.94586181640625
z: -0.3885461688041687
visibility: 0.9676327109336853
","x: 303.7696228027344
y: 254.64715576171875
z: -0.3895217776298523
visibility: 0.9583615660667419
","x: 272.4910888671875
y: 326.4068908691406
z: -0.3776414096355438
visibility: 0.9644598364830017
","x: 301.6180419921875
y: 259.6533203125
z: -0.3548627495765686
visibility: 0.9374818801879883
","x: 271.4696960449219
y: 325.2877502441406
z: -0.34579354524612427
visibility: 0.9449321031570435
","x: 273.75140380859375
y: 389.8516540527344
z: 0.022084008902311325
visibility: 0.9996591806411743
","x: 251.21572875976562
y: 387.8956604003906
z: -0.022149674594402313
visibility: 0.9997460842132568
","x: 287.76678466796875
y: 453.58392333984375
z: -0.01102638803422451
visibility: 0.9982523918151855
","x: 240.5967559814453
y: 460.05535888671875
z: -0.06724844872951508
visibility: 0.9986557960510254
","x: 299.6197814941406
y: 514.72998046875
z: 0.1636139452457428
visibility: 0.9974351525306702
","x: 223.302734375
y: 518.3370361328125
z: 0.060279857367277145
visibility: 0.9983129501342773
","x: 297.6690368652344
y: 524.0454711914062
z: 0.17580445110797882
visibility: 0.9157914519309998
","x: 221.11671447753906
y: 526.9658813476562
z: 0.06786509603261948
visibility: 0.9342743754386902
","x: 307.4413757324219
y: 536.2928466796875
z: 0.07305733859539032
visibility: 0.9935972690582275
","x: 225.22816467285156
y: 539.52490234375
z: -0.044827401638031006
visibility: 0.9944186210632324
",4.95694899559021,,,,,,,,,,,,,,,,,,,,,,,,,,,,,,,,,,,,,,,,,,
10,"x: 265.64788818359375
y: 260.3736572265625
z: -0.1783050000667572
visibility: 0.9999784827232361
","x: 267.4204406738281
y: 254.84361267089844
z: -0.16081802546977997
visibility: 0.9999549388885498
","x: 268.70989990234375
y: 255.0039520263672
z: -0.16081254184246063
visibility: 0.9999468326568604
","x: 269.88671875
y: 255.29776000976562
z: -0.1608022004365921
visibility: 0.9999416470527649
","x: 263.7881164550781
y: 255.34939575195312
z: -0.16329433023929596
visibility: 0.9999584555625916
","x: 262.4841003417969
y: 255.89845275878906
z: -0.1633085310459137
visibility: 0.9999575614929199
","x: 261.1253967285156
y: 256.7126770019531
z: -0.16328103840351105
visibility: 0.9999645352363586
","x: 272.0030517578125
y: 259.5461730957031
z: -0.05235910415649414
visibility: 0.9999079704284668
","x: 258.92059326171875
y: 260.41448974609375
z: -0.07260622829198837
visibility: 0.9999441504478455
","x: 268.3047790527344
y: 268.30743408203125
z: -0.1375586837530136
visibility: 0.9999758005142212
","x: 263.0608825683594
y: 269.3097229003906
z: -0.1426830291748047
visibility: 0.9999871850013733
","x: 280.8000793457031
y: 291.4493408203125
z: 0.02298682928085327
visibility: 0.9999566078186035
","x: 247.68118286132812
y: 289.9181823730469
z: -0.05640209838747978
visibility: 0.9999602437019348
","x: 304.6185607910156
y: 298.69317626953125
z: -0.1375095695257187
visibility: 0.9753915667533875
","x: 242.09841918945312
y: 320.028564453125
z: -0.16204074025154114
visibility: 0.9935357570648193
","x: 298.7378845214844
y: 277.8460998535156
z: -0.3282831907272339
visibility: 0.9829810261726379
","x: 257.8389892578125
y: 343.5339050292969
z: -0.2803179621696472
visibility: 0.9874070882797241
","x: 290.5846252441406
y: 275.4264221191406
z: -0.37146633863449097
visibility: 0.9610927104949951
","x: 262.3735046386719
y: 351.61688232421875
z: -0.3167697489261627
visibility: 0.9647200703620911
","x: 287.35980224609375
y: 274.1026916503906
z: -0.3720826506614685
visibility: 0.9590070843696594
","x: 265.19171142578125
y: 347.8800964355469
z: -0.31697601079940796
visibility: 0.9616352915763855
","x: 289.1654052734375
y: 276.3607177734375
z: -0.333600252866745
visibility: 0.9388245344161987
","x: 264.5144958496094
y: 345.30615234375
z: -0.2823418974876404
visibility: 0.9407873749732971
","x: 273.8747863769531
y: 388.91796875
z: 0.02092650532722473
visibility: 0.9996867775917053
","x: 251.2386474609375
y: 387.34259033203125
z: -0.021037541329860687
visibility: 0.9997631311416626
","x: 287.43658447265625
y: 453.5119934082031
z: 0.0035175676457583904
visibility: 0.9979947805404663
","x: 240.5390167236328
y: 459.0108947753906
z: -0.0667351558804512
visibility: 0.9985999464988708
","x: 300.1416320800781
y: 514.638427734375
z: 0.16318854689598083
visibility: 0.9970791339874268
","x: 223.10020446777344
y: 518.635498046875
z: 0.05424819141626358
visibility: 0.9981569647789001
","x: 298.3561706542969
y: 523.9588012695312
z: 0.17381881177425385
visibility: 0.9158428311347961
","x: 220.70697021484375
y: 527.1658935546875
z: 0.061048854142427444
visibility: 0.9262771010398865
","x: 307.50811767578125
y: 536.2568359375
z: 0.07073906064033508
visibility: 0.9929819107055664
","x: 225.18936157226562
y: 539.7324829101562
z: -0.05536346882581711
visibility: 0.994029700756073
",5.098193883895874,"x: 254.60269165039062
y: 349.64678955078125
z: 0.0
","x: 259.1202697753906
y: 355.01446533203125
z: -0.0003164928057231009
","x: 264.2424011230469
y: 357.87060546875
z: -0.0028860773891210556
","x: 268.0262756347656
y: 359.090576171875
z: -0.005994402803480625
","x: 271.5429382324219
y: 359.5840148925781
z: -0.008952746167778969
","x: 265.5892639160156
y: 348.89227294921875
z: -0.005230136215686798
","x: 268.0559387207031
y: 345.0390319824219
z: -0.009608828462660313
","x: 269.771728515625
y: 341.6694641113281
z: -0.012055041268467903
","x: 270.9002380371094
y: 338.06121826171875
z: -0.01350520271807909
","x: 263.6723937988281
y: 345.6719665527344
z: -0.007717580068856478
","x: 265.08807373046875
y: 352.0943603515625
z: -0.012614352628588676
","x: 263.29229736328125
y: 357.3977355957031
z: -0.012976070865988731
","x: 261.57940673828125
y: 359.6978454589844
z: -0.01271030679345131
","x: 260.8060302734375
y: 344.34503173828125
z: -0.01018514297902584
","x: 261.5816955566406
y: 352.1181640625
z: -0.014507612213492393
","x: 259.8904113769531
y: 356.10040283203125
z: -0.01259353943169117
","x: 258.45233154296875
y: 356.50732421875
z: -0.0108311353251338
","x: 257.6903381347656
y: 344.1383056640625
z: -0.012813370674848557
","x: 258.3399963378906
y: 351.07000732421875
z: -0.01610015332698822
","x: 257.3194274902344
y: 354.1333312988281
z: -0.014660101383924484
","x: 256.2951965332031
y: 353.9451599121094
z: -0.012922353111207485
",,,,,,,,,,,,,,,,,,,,,
11,"x: 265.64788818359375
y: 260.3736572265625
z: -0.1783050000667572
visibility: 0.9999784827232361
","x: 267.4204406738281
y: 254.84361267089844
z: -0.16081802546977997
visibility: 0.9999549388885498
","x: 268.70989990234375
y: 255.0039520263672
z: -0.16081254184246063
visibility: 0.9999468326568604
","x: 269.88671875
y: 255.29776000976562
z: -0.1608022004365921
visibility: 0.9999416470527649
","x: 263.7881164550781
y: 255.34939575195312
z: -0.16329433023929596
visibility: 0.9999584555625916
","x: 262.4841003417969
y: 255.89845275878906
z: -0.1633085310459137
visibility: 0.9999575614929199
","x: 261.1253967285156
y: 256.7126770019531
z: -0.16328103840351105
visibility: 0.9999645352363586
","x: 272.0030517578125
y: 259.5461730957031
z: -0.05235910415649414
visibility: 0.9999079704284668
","x: 258.92059326171875
y: 260.41448974609375
z: -0.07260622829198837
visibility: 0.9999441504478455
","x: 268.3047790527344
y: 268.30743408203125
z: -0.1375586837530136
visibility: 0.9999758005142212
","x: 263.0608825683594
y: 269.3097229003906
z: -0.1426830291748047
visibility: 0.9999871850013733
","x: 280.8000793457031
y: 291.4493408203125
z: 0.02298682928085327
visibility: 0.9999566078186035
","x: 247.68118286132812
y: 289.9181823730469
z: -0.05640209838747978
visibility: 0.9999602437019348
","x: 304.6185607910156
y: 298.69317626953125
z: -0.1375095695257187
visibility: 0.9753915667533875
","x: 242.09841918945312
y: 320.028564453125
z: -0.16204074025154114
visibility: 0.9935357570648193
","x: 298.7378845214844
y: 277.8460998535156
z: -0.3282831907272339
visibility: 0.9829810261726379
","x: 257.8389892578125
y: 343.5339050292969
z: -0.2803179621696472
visibility: 0.9874070882797241
","x: 290.5846252441406
y: 275.4264221191406
z: -0.37146633863449097
visibility: 0.9610927104949951
","x: 262.3735046386719
y: 351.61688232421875
z: -0.3167697489261627
visibility: 0.9647200703620911
","x: 287.35980224609375
y: 274.1026916503906
z: -0.3720826506614685
visibility: 0.9590070843696594
","x: 265.19171142578125
y: 347.8800964355469
z: -0.31697601079940796
visibility: 0.9616352915763855
","x: 289.1654052734375
y: 276.3607177734375
z: -0.333600252866745
visibility: 0.9388245344161987
","x: 264.5144958496094
y: 345.30615234375
z: -0.2823418974876404
visibility: 0.9407873749732971
","x: 273.8747863769531
y: 388.91796875
z: 0.02092650532722473
visibility: 0.9996867775917053
","x: 251.2386474609375
y: 387.34259033203125
z: -0.021037541329860687
visibility: 0.9997631311416626
","x: 287.43658447265625
y: 453.5119934082031
z: 0.0035175676457583904
visibility: 0.9979947805404663
","x: 240.5390167236328
y: 459.0108947753906
z: -0.0667351558804512
visibility: 0.9985999464988708
","x: 300.1416320800781
y: 514.638427734375
z: 0.16318854689598083
visibility: 0.9970791339874268
","x: 223.10020446777344
y: 518.635498046875
z: 0.05424819141626358
visibility: 0.9981569647789001
","x: 298.3561706542969
y: 523.9588012695312
z: 0.17381881177425385
visibility: 0.9158428311347961
","x: 220.70697021484375
y: 527.1658935546875
z: 0.061048854142427444
visibility: 0.9262771010398865
","x: 307.50811767578125
y: 536.2568359375
z: 0.07073906064033508
visibility: 0.9929819107055664
","x: 225.18936157226562
y: 539.7324829101562
z: -0.05536346882581711
visibility: 0.994029700756073
",5.098193883895874,"x: 254.60269165039062
y: 349.64678955078125
z: 0.0
","x: 259.1202697753906
y: 355.01446533203125
z: -0.0003164928057231009
","x: 264.2424011230469
y: 357.87060546875
z: -0.0028860773891210556
","x: 268.0262756347656
y: 359.090576171875
z: -0.005994402803480625
","x: 271.5429382324219
y: 359.5840148925781
z: -0.008952746167778969
","x: 265.5892639160156
y: 348.89227294921875
z: -0.005230136215686798
","x: 268.0559387207031
y: 345.0390319824219
z: -0.009608828462660313
","x: 269.771728515625
y: 341.6694641113281
z: -0.012055041268467903
","x: 270.9002380371094
y: 338.06121826171875
z: -0.01350520271807909
","x: 263.6723937988281
y: 345.6719665527344
z: -0.007717580068856478
","x: 265.08807373046875
y: 352.0943603515625
z: -0.012614352628588676
","x: 263.29229736328125
y: 357.3977355957031
z: -0.012976070865988731
","x: 261.57940673828125
y: 359.6978454589844
z: -0.01271030679345131
","x: 260.8060302734375
y: 344.34503173828125
z: -0.01018514297902584
","x: 261.5816955566406
y: 352.1181640625
z: -0.014507612213492393
","x: 259.8904113769531
y: 356.10040283203125
z: -0.01259353943169117
","x: 258.45233154296875
y: 356.50732421875
z: -0.0108311353251338
","x: 257.6903381347656
y: 344.1383056640625
z: -0.012813370674848557
","x: 258.3399963378906
y: 351.07000732421875
z: -0.01610015332698822
","x: 257.3194274902344
y: 354.1333312988281
z: -0.014660101383924484
","x: 256.2951965332031
y: 353.9451599121094
z: -0.012922353111207485
",,,,,,,,,,,,,,,,,,,,,
12,"x: 265.64788818359375
y: 260.3736572265625
z: -0.1783050000667572
visibility: 0.9999784827232361
","x: 267.4204406738281
y: 254.84361267089844
z: -0.16081802546977997
visibility: 0.9999549388885498
","x: 268.70989990234375
y: 255.0039520263672
z: -0.16081254184246063
visibility: 0.9999468326568604
","x: 269.88671875
y: 255.29776000976562
z: -0.1608022004365921
visibility: 0.9999416470527649
","x: 263.7881164550781
y: 255.34939575195312
z: -0.16329433023929596
visibility: 0.9999584555625916
","x: 262.4841003417969
y: 255.89845275878906
z: -0.1633085310459137
visibility: 0.9999575614929199
","x: 261.1253967285156
y: 256.7126770019531
z: -0.16328103840351105
visibility: 0.9999645352363586
","x: 272.0030517578125
y: 259.5461730957031
z: -0.05235910415649414
visibility: 0.9999079704284668
","x: 258.92059326171875
y: 260.41448974609375
z: -0.07260622829198837
visibility: 0.9999441504478455
","x: 268.3047790527344
y: 268.30743408203125
z: -0.1375586837530136
visibility: 0.9999758005142212
","x: 263.0608825683594
y: 269.3097229003906
z: -0.1426830291748047
visibility: 0.9999871850013733
","x: 280.8000793457031
y: 291.4493408203125
z: 0.02298682928085327
visibility: 0.9999566078186035
","x: 247.68118286132812
y: 289.9181823730469
z: -0.05640209838747978
visibility: 0.9999602437019348
","x: 304.6185607910156
y: 298.69317626953125
z: -0.1375095695257187
visibility: 0.9753915667533875
","x: 242.09841918945312
y: 320.028564453125
z: -0.16204074025154114
visibility: 0.9935357570648193
","x: 298.7378845214844
y: 277.8460998535156
z: -0.3282831907272339
visibility: 0.9829810261726379
","x: 257.8389892578125
y: 343.5339050292969
z: -0.2803179621696472
visibility: 0.9874070882797241
","x: 290.5846252441406
y: 275.4264221191406
z: -0.37146633863449097
visibility: 0.9610927104949951
","x: 262.3735046386719
y: 351.61688232421875
z: -0.3167697489261627
visibility: 0.9647200703620911
","x: 287.35980224609375
y: 274.1026916503906
z: -0.3720826506614685
visibility: 0.9590070843696594
","x: 265.19171142578125
y: 347.8800964355469
z: -0.31697601079940796
visibility: 0.9616352915763855
","x: 289.1654052734375
y: 276.3607177734375
z: -0.333600252866745
visibility: 0.9388245344161987
","x: 264.5144958496094
y: 345.30615234375
z: -0.2823418974876404
visibility: 0.9407873749732971
","x: 273.8747863769531
y: 388.91796875
z: 0.02092650532722473
visibility: 0.9996867775917053
","x: 251.2386474609375
y: 387.34259033203125
z: -0.021037541329860687
visibility: 0.9997631311416626
","x: 287.43658447265625
y: 453.5119934082031
z: 0.0035175676457583904
visibility: 0.9979947805404663
","x: 240.5390167236328
y: 459.0108947753906
z: -0.0667351558804512
visibility: 0.9985999464988708
","x: 300.1416320800781
y: 514.638427734375
z: 0.16318854689598083
visibility: 0.9970791339874268
","x: 223.10020446777344
y: 518.635498046875
z: 0.05424819141626358
visibility: 0.9981569647789001
","x: 298.3561706542969
y: 523.9588012695312
z: 0.17381881177425385
visibility: 0.9158428311347961
","x: 220.70697021484375
y: 527.1658935546875
z: 0.061048854142427444
visibility: 0.9262771010398865
","x: 307.50811767578125
y: 536.2568359375
z: 0.07073906064033508
visibility: 0.9929819107055664
","x: 225.18936157226562
y: 539.7324829101562
z: -0.05536346882581711
visibility: 0.994029700756073
",5.098193883895874,"x: 254.60269165039062
y: 349.64678955078125
z: 0.0
","x: 259.1202697753906
y: 355.01446533203125
z: -0.0003164928057231009
","x: 264.2424011230469
y: 357.87060546875
z: -0.0028860773891210556
","x: 268.0262756347656
y: 359.090576171875
z: -0.005994402803480625
","x: 271.5429382324219
y: 359.5840148925781
z: -0.008952746167778969
","x: 265.5892639160156
y: 348.89227294921875
z: -0.005230136215686798
","x: 268.0559387207031
y: 345.0390319824219
z: -0.009608828462660313
","x: 269.771728515625
y: 341.6694641113281
z: -0.012055041268467903
","x: 270.9002380371094
y: 338.06121826171875
z: -0.01350520271807909
","x: 263.6723937988281
y: 345.6719665527344
z: -0.007717580068856478
","x: 265.08807373046875
y: 352.0943603515625
z: -0.012614352628588676
","x: 263.29229736328125
y: 357.3977355957031
z: -0.012976070865988731
","x: 261.57940673828125
y: 359.6978454589844
z: -0.01271030679345131
","x: 260.8060302734375
y: 344.34503173828125
z: -0.01018514297902584
","x: 261.5816955566406
y: 352.1181640625
z: -0.014507612213492393
","x: 259.8904113769531
y: 356.10040283203125
z: -0.01259353943169117
","x: 258.45233154296875
y: 356.50732421875
z: -0.0108311353251338
","x: 257.6903381347656
y: 344.1383056640625
z: -0.012813370674848557
","x: 258.3399963378906
y: 351.07000732421875
z: -0.01610015332698822
","x: 257.3194274902344
y: 354.1333312988281
z: -0.014660101383924484
","x: 256.2951965332031
y: 353.9451599121094
z: -0.012922353111207485
",,,,,,,,,,,,,,,,,,,,,
13,"x: 266.0504455566406
y: 258.8006591796875
z: -0.14086459577083588
visibility: 0.9999784827232361
","x: 267.8026428222656
y: 253.47064208984375
z: -0.12207237631082535
visibility: 0.9999548196792603
","x: 269.00274658203125
y: 253.8056640625
z: -0.12205004692077637
visibility: 0.999945878982544
","x: 270.0677185058594
y: 254.24696350097656
z: -0.12204664945602417
visibility: 0.9999411702156067
","x: 264.24127197265625
y: 253.47433471679688
z: -0.1261405199766159
visibility: 0.9999584555625916
","x: 262.9129638671875
y: 253.76376342773438
z: -0.12615476548671722
visibility: 0.999957799911499
","x: 261.5753173828125
y: 254.26126098632812
z: -0.12612999975681305
visibility: 0.9999648928642273
","x: 271.5487060546875
y: 259.1876525878906
z: -0.01775856502354145
visibility: 0.9999087452888489
","x: 258.6465759277344
y: 259.14349365234375
z: -0.038114551454782486
visibility: 0.9999469518661499
","x: 268.22552490234375
y: 266.7005615234375
z: -0.10210218280553818
visibility: 0.9999755024909973
","x: 263.2503356933594
y: 267.130859375
z: -0.10824193805456161
visibility: 0.9999870657920837
","x: 279.25531005859375
y: 290.3519287109375
z: 0.024869728833436966
visibility: 0.9999521374702454
","x: 246.2869873046875
y: 289.67279052734375
z: -0.020192841067910194
visibility: 0.9999565482139587
","x: 302.5189514160156
y: 288.41619873046875
z: -0.13401517271995544
visibility: 0.9773299694061279
","x: 240.34852600097656
y: 316.903564453125
z: -0.12297795712947845
visibility: 0.9930184483528137
","x: 289.7431640625
y: 271.57525634765625
z: -0.2717418372631073
visibility: 0.9813104867935181
","x: 256.7789001464844
y: 336.1470031738281
z: -0.2405731976032257
visibility: 0.9847520589828491
","x: 281.0361633300781
y: 272.0539245605469
z: -0.3109724223613739
visibility: 0.9523018002510071
","x: 261.2492370605469
y: 344.0442199707031
z: -0.27493441104888916
visibility: 0.9593071341514587
","x: 278.5034484863281
y: 271.675537109375
z: -0.29403141140937805
visibility: 0.9492743015289307
","x: 264.2716369628906
y: 340.47125244140625
z: -0.27053460478782654
visibility: 0.9565296769142151
","x: 280.375
y: 272.6587219238281
z: -0.27020561695098877
visibility: 0.9284256100654602
","x: 263.5529479980469
y: 337.01727294921875
z: -0.2407495528459549
visibility: 0.933915376663208
","x: 272.6485900878906
y: 387.66131591796875
z: 0.020346596837043762
visibility: 0.9997103214263916
","x: 250.11036682128906
y: 387.0513916015625
z: -0.02053845301270485
visibility: 0.9997759461402893
","x: 287.3420715332031
y: 453.2617492675781
z: -0.02331552468240261
visibility: 0.9979248642921448
","x: 239.70831298828125
y: 458.87469482421875
z: -0.06504041701555252
visibility: 0.998510479927063
","x: 300.3017272949219
y: 514.5491333007812
z: 0.14625394344329834
visibility: 0.9968489408493042
","x: 222.68643188476562
y: 518.882568359375
z: 0.061312638223171234
visibility: 0.9980283379554749
","x: 298.8109130859375
y: 523.6597900390625
z: 0.15922653675079346
visibility: 0.9135665893554688
","x: 220.7063751220703
y: 527.1552124023438
z: 0.06891844421625137
visibility: 0.9206876158714294
","x: 307.4256591796875
y: 536.2418212890625
z: 0.0646451860666275
visibility: 0.9922896027565002
","x: 225.06057739257812
y: 539.7940673828125
z: -0.045305002480745316
visibility: 0.9935804605484009
",5.205905437469482,,,,,,,,,,,,,,,,,,,,,,,,,,,,,,,,,,,,,,,,,,
14,"x: 266.0504455566406
y: 258.8006591796875
z: -0.14086459577083588
visibility: 0.9999784827232361
","x: 267.8026428222656
y: 253.47064208984375
z: -0.12207237631082535
visibility: 0.9999548196792603
","x: 269.00274658203125
y: 253.8056640625
z: -0.12205004692077637
visibility: 0.999945878982544
","x: 270.0677185058594
y: 254.24696350097656
z: -0.12204664945602417
visibility: 0.9999411702156067
","x: 264.24127197265625
y: 253.47433471679688
z: -0.1261405199766159
visibility: 0.9999584555625916
","x: 262.9129638671875
y: 253.76376342773438
z: -0.12615476548671722
visibility: 0.999957799911499
","x: 261.5753173828125
y: 254.26126098632812
z: -0.12612999975681305
visibility: 0.9999648928642273
","x: 271.5487060546875
y: 259.1876525878906
z: -0.01775856502354145
visibility: 0.9999087452888489
","x: 258.6465759277344
y: 259.14349365234375
z: -0.038114551454782486
visibility: 0.9999469518661499
","x: 268.22552490234375
y: 266.7005615234375
z: -0.10210218280553818
visibility: 0.9999755024909973
","x: 263.2503356933594
y: 267.130859375
z: -0.10824193805456161
visibility: 0.9999870657920837
","x: 279.25531005859375
y: 290.3519287109375
z: 0.024869728833436966
visibility: 0.9999521374702454
","x: 246.2869873046875
y: 289.67279052734375
z: -0.020192841067910194
visibility: 0.9999565482139587
","x: 302.5189514160156
y: 288.41619873046875
z: -0.13401517271995544
visibility: 0.9773299694061279
","x: 240.34852600097656
y: 316.903564453125
z: -0.12297795712947845
visibility: 0.9930184483528137
","x: 289.7431640625
y: 271.57525634765625
z: -0.2717418372631073
visibility: 0.9813104867935181
","x: 256.7789001464844
y: 336.1470031738281
z: -0.2405731976032257
visibility: 0.9847520589828491
","x: 281.0361633300781
y: 272.0539245605469
z: -0.3109724223613739
visibility: 0.9523018002510071
","x: 261.2492370605469
y: 344.0442199707031
z: -0.27493441104888916
visibility: 0.9593071341514587
","x: 278.5034484863281
y: 271.675537109375
z: -0.29403141140937805
visibility: 0.9492743015289307
","x: 264.2716369628906
y: 340.47125244140625
z: -0.27053460478782654
visibility: 0.9565296769142151
","x: 280.375
y: 272.6587219238281
z: -0.27020561695098877
visibility: 0.9284256100654602
","x: 263.5529479980469
y: 337.01727294921875
z: -0.2407495528459549
visibility: 0.933915376663208
","x: 272.6485900878906
y: 387.66131591796875
z: 0.020346596837043762
visibility: 0.9997103214263916
","x: 250.11036682128906
y: 387.0513916015625
z: -0.02053845301270485
visibility: 0.9997759461402893
","x: 287.3420715332031
y: 453.2617492675781
z: -0.02331552468240261
visibility: 0.9979248642921448
","x: 239.70831298828125
y: 458.87469482421875
z: -0.06504041701555252
visibility: 0.998510479927063
","x: 300.3017272949219
y: 514.5491333007812
z: 0.14625394344329834
visibility: 0.9968489408493042
","x: 222.68643188476562
y: 518.882568359375
z: 0.061312638223171234
visibility: 0.9980283379554749
","x: 298.8109130859375
y: 523.6597900390625
z: 0.15922653675079346
visibility: 0.9135665893554688
","x: 220.7063751220703
y: 527.1552124023438
z: 0.06891844421625137
visibility: 0.9206876158714294
","x: 307.4256591796875
y: 536.2418212890625
z: 0.0646451860666275
visibility: 0.9922896027565002
","x: 225.06057739257812
y: 539.7940673828125
z: -0.045305002480745316
visibility: 0.9935804605484009
",5.205905437469482,,,,,,,,,,,,,,,,,,,,,,,,,,,,,,,,,,,,,,,,,,
15,"x: 263.4450988769531
y: 257.12042236328125
z: -0.18483398854732513
visibility: 0.999979555606842
","x: 264.5657043457031
y: 251.4930419921875
z: -0.1683475822210312
visibility: 0.9999576807022095
","x: 265.8380126953125
y: 251.4712677001953
z: -0.1683051735162735
visibility: 0.9999487996101379
","x: 267.1358947753906
y: 251.47796630859375
z: -0.1682921051979065
visibility: 0.9999445080757141
","x: 261.092529296875
y: 252.29750061035156
z: -0.1682194322347641
visibility: 0.9999611973762512
","x: 259.9789123535156
y: 252.88470458984375
z: -0.16825135052204132
visibility: 0.9999606013298035
","x: 258.9159851074219
y: 253.68072509765625
z: -0.16823557019233704
visibility: 0.9999673962593079
","x: 269.4225769042969
y: 254.97042846679688
z: -0.0655820220708847
visibility: 0.999914824962616
","x: 256.96405029296875
y: 258.9999084472656
z: -0.061189644038677216
visibility: 0.9999516606330872
","x: 266.59906005859375
y: 263.859619140625
z: -0.14565977454185486
visibility: 0.9999765753746033
","x: 261.46612548828125
y: 265.2073974609375
z: -0.14541926980018616
visibility: 0.9999876618385315
","x: 280.13519287109375
y: 281.57720947265625
z: -0.012542115524411201
visibility: 0.9999469518661499
","x: 246.7965087890625
y: 283.689208984375
z: -0.06107533723115921
visibility: 0.999957799911499
","x: 304.22552490234375
y: 267.91876220703125
z: -0.18674834072589874
visibility: 0.9792672395706177
","x: 240.34060668945312
y: 315.6022033691406
z: -0.213094562292099
visibility: 0.993452250957489
","x: 289.9073486328125
y: 246.30592346191406
z: -0.3430616855621338
visibility: 0.9817253351211548
","x: 263.3207702636719
y: 329.242919921875
z: -0.3465319275856018
visibility: 0.985458254814148
","x: 282.42755126953125
y: 241.63909912109375
z: -0.3852885961532593
visibility: 0.9513887166976929
","x: 268.5257568359375
y: 336.59832763671875
z: -0.3872935175895691
visibility: 0.9607311487197876
","x: 279.4628601074219
y: 243.2063446044922
z: -0.3659937083721161
visibility: 0.9479190111160278
","x: 271.0494689941406
y: 332.4817199707031
z: -0.37330442667007446
visibility: 0.9580157399177551
","x: 282.2336730957031
y: 246.5670623779297
z: -0.34162360429763794
visibility: 0.9276053309440613
","x: 270.08673095703125
y: 329.346435546875
z: -0.34349387884140015
visibility: 0.9360102415084839
","x: 273.46697998046875
y: 383.9549560546875
z: 0.01924232766032219
visibility: 0.9997317790985107
","x: 250.711669921875
y: 382.7886962890625
z: -0.019407330080866814
visibility: 0.9997913241386414
","x: 287.3499755859375
y: 452.8607482910156
z: -0.015285847708582878
visibility: 0.9979096055030823
","x: 239.66107177734375
y: 455.890869140625
z: -0.06434585899114609
visibility: 0.9985383749008179
","x: 300.35894775390625
y: 514.267333984375
z: 0.15040059387683868
visibility: 0.9966802000999451
","x: 222.6895751953125
y: 518.8914794921875
z: 0.047358471900224686
visibility: 0.9979913830757141
","x: 299.07415771484375
y: 523.1755981445312
z: 0.16162307560443878
visibility: 0.9142926335334778
","x: 221.11849975585938
y: 527.2183837890625
z: 0.05311424657702446
visibility: 0.9184308052062988
","x: 307.3940734863281
y: 535.7491455078125
z: 0.057362236082553864
visibility: 0.9917957782745361
","x: 224.50469970703125
y: 539.7907104492188
z: -0.06459216773509979
visibility: 0.9934149384498596
",5.331060171127319,"x: 261.9190368652344
y: 322.8961486816406
z: 0.0
","x: 265.143798828125
y: 327.494873046875
z: -0.00019323351443745196
","x: 267.58447265625
y: 331.7945556640625
z: -0.002238159067928791
","x: 267.96075439453125
y: 337.3210144042969
z: -0.005369686987251043
","x: 266.96343994140625
y: 341.1065673828125
z: -0.008224964141845703
","x: 272.642822265625
y: 322.7651672363281
z: -0.00034486601362004876
","x: 276.5877685546875
y: 320.12615966796875
z: -0.004584094509482384
","x: 276.9596862792969
y: 323.95709228515625
z: -0.007278831675648689
","x: 276.09869384765625
y: 327.6575927734375
z: -0.008489862084388733
","x: 271.839111328125
y: 320.02203369140625
z: -0.002977069467306137
","x: 276.1968078613281
y: 317.45465087890625
z: -0.006771889049559832
","x: 276.6980285644531
y: 321.7942810058594
z: -0.00843789428472519
","x: 275.6717834472656
y: 325.3306884765625
z: -0.009047089144587517
","x: 270.4022216796875
y: 317.8472900390625
z: -0.006225711666047573
","x: 274.1419677734375
y: 315.5959167480469
z: -0.009213674813508987
","x: 274.7681884765625
y: 319.6865234375
z: -0.0095217265188694
","x: 274.0533447265625
y: 323.0218811035156
z: -0.009280791506171227
","x: 268.3645324707031
y: 316.28363037109375
z: -0.009832640178501606
","x: 271.0362243652344
y: 313.4248962402344
z: -0.011788755655288696
","x: 272.26068115234375
y: 314.76019287109375
z: -0.011808883398771286
","x: 272.52294921875
y: 316.36407470703125
z: -0.011465199291706085
",,,,,,,,,,,,,,,,,,,,,
16,"x: 263.4450988769531
y: 257.12042236328125
z: -0.18483398854732513
visibility: 0.999979555606842
","x: 264.5657043457031
y: 251.4930419921875
z: -0.1683475822210312
visibility: 0.9999576807022095
","x: 265.8380126953125
y: 251.4712677001953
z: -0.1683051735162735
visibility: 0.9999487996101379
","x: 267.1358947753906
y: 251.47796630859375
z: -0.1682921051979065
visibility: 0.9999445080757141
","x: 261.092529296875
y: 252.29750061035156
z: -0.1682194322347641
visibility: 0.9999611973762512
","x: 259.9789123535156
y: 252.88470458984375
z: -0.16825135052204132
visibility: 0.9999606013298035
","x: 258.9159851074219
y: 253.68072509765625
z: -0.16823557019233704
visibility: 0.9999673962593079
","x: 269.4225769042969
y: 254.97042846679688
z: -0.0655820220708847
visibility: 0.999914824962616
","x: 256.96405029296875
y: 258.9999084472656
z: -0.061189644038677216
visibility: 0.9999516606330872
","x: 266.59906005859375
y: 263.859619140625
z: -0.14565977454185486
visibility: 0.9999765753746033
","x: 261.46612548828125
y: 265.2073974609375
z: -0.14541926980018616
visibility: 0.9999876618385315
","x: 280.13519287109375
y: 281.57720947265625
z: -0.012542115524411201
visibility: 0.9999469518661499
","x: 246.7965087890625
y: 283.689208984375
z: -0.06107533723115921
visibility: 0.999957799911499
","x: 304.22552490234375
y: 267.91876220703125
z: -0.18674834072589874
visibility: 0.9792672395706177
","x: 240.34060668945312
y: 315.6022033691406
z: -0.213094562292099
visibility: 0.993452250957489
","x: 289.9073486328125
y: 246.30592346191406
z: -0.3430616855621338
visibility: 0.9817253351211548
","x: 263.3207702636719
y: 329.242919921875
z: -0.3465319275856018
visibility: 0.985458254814148
","x: 282.42755126953125
y: 241.63909912109375
z: -0.3852885961532593
visibility: 0.9513887166976929
","x: 268.5257568359375
y: 336.59832763671875
z: -0.3872935175895691
visibility: 0.9607311487197876
","x: 279.4628601074219
y: 243.2063446044922
z: -0.3659937083721161
visibility: 0.9479190111160278
","x: 271.0494689941406
y: 332.4817199707031
z: -0.37330442667007446
visibility: 0.9580157399177551
","x: 282.2336730957031
y: 246.5670623779297
z: -0.34162360429763794
visibility: 0.9276053309440613
","x: 270.08673095703125
y: 329.346435546875
z: -0.34349387884140015
visibility: 0.9360102415084839
","x: 273.46697998046875
y: 383.9549560546875
z: 0.01924232766032219
visibility: 0.9997317790985107
","x: 250.711669921875
y: 382.7886962890625
z: -0.019407330080866814
visibility: 0.9997913241386414
","x: 287.3499755859375
y: 452.8607482910156
z: -0.015285847708582878
visibility: 0.9979096055030823
","x: 239.66107177734375
y: 455.890869140625
z: -0.06434585899114609
visibility: 0.9985383749008179
","x: 300.35894775390625
y: 514.267333984375
z: 0.15040059387683868
visibility: 0.9966802000999451
","x: 222.6895751953125
y: 518.8914794921875
z: 0.047358471900224686
visibility: 0.9979913830757141
","x: 299.07415771484375
y: 523.1755981445312
z: 0.16162307560443878
visibility: 0.9142926335334778
","x: 221.11849975585938
y: 527.2183837890625
z: 0.05311424657702446
visibility: 0.9184308052062988
","x: 307.3940734863281
y: 535.7491455078125
z: 0.057362236082553864
visibility: 0.9917957782745361
","x: 224.50469970703125
y: 539.7907104492188
z: -0.06459216773509979
visibility: 0.9934149384498596
",5.331060171127319,"x: 261.9190368652344
y: 322.8961486816406
z: 0.0
","x: 265.143798828125
y: 327.494873046875
z: -0.00019323351443745196
","x: 267.58447265625
y: 331.7945556640625
z: -0.002238159067928791
","x: 267.96075439453125
y: 337.3210144042969
z: -0.005369686987251043
","x: 266.96343994140625
y: 341.1065673828125
z: -0.008224964141845703
","x: 272.642822265625
y: 322.7651672363281
z: -0.00034486601362004876
","x: 276.5877685546875
y: 320.12615966796875
z: -0.004584094509482384
","x: 276.9596862792969
y: 323.95709228515625
z: -0.007278831675648689
","x: 276.09869384765625
y: 327.6575927734375
z: -0.008489862084388733
","x: 271.839111328125
y: 320.02203369140625
z: -0.002977069467306137
","x: 276.1968078613281
y: 317.45465087890625
z: -0.006771889049559832
","x: 276.6980285644531
y: 321.7942810058594
z: -0.00843789428472519
","x: 275.6717834472656
y: 325.3306884765625
z: -0.009047089144587517
","x: 270.4022216796875
y: 317.8472900390625
z: -0.006225711666047573
","x: 274.1419677734375
y: 315.5959167480469
z: -0.009213674813508987
","x: 274.7681884765625
y: 319.6865234375
z: -0.0095217265188694
","x: 274.0533447265625
y: 323.0218811035156
z: -0.009280791506171227
","x: 268.3645324707031
y: 316.28363037109375
z: -0.009832640178501606
","x: 271.0362243652344
y: 313.4248962402344
z: -0.011788755655288696
","x: 272.26068115234375
y: 314.76019287109375
z: -0.011808883398771286
","x: 272.52294921875
y: 316.36407470703125
z: -0.011465199291706085
",,,,,,,,,,,,,,,,,,,,,
17,"x: 263.4450988769531
y: 257.12042236328125
z: -0.18483398854732513
visibility: 0.999979555606842
","x: 264.5657043457031
y: 251.4930419921875
z: -0.1683475822210312
visibility: 0.9999576807022095
","x: 265.8380126953125
y: 251.4712677001953
z: -0.1683051735162735
visibility: 0.9999487996101379
","x: 267.1358947753906
y: 251.47796630859375
z: -0.1682921051979065
visibility: 0.9999445080757141
","x: 261.092529296875
y: 252.29750061035156
z: -0.1682194322347641
visibility: 0.9999611973762512
","x: 259.9789123535156
y: 252.88470458984375
z: -0.16825135052204132
visibility: 0.9999606013298035
","x: 258.9159851074219
y: 253.68072509765625
z: -0.16823557019233704
visibility: 0.9999673962593079
","x: 269.4225769042969
y: 254.97042846679688
z: -0.0655820220708847
visibility: 0.999914824962616
","x: 256.96405029296875
y: 258.9999084472656
z: -0.061189644038677216
visibility: 0.9999516606330872
","x: 266.59906005859375
y: 263.859619140625
z: -0.14565977454185486
visibility: 0.9999765753746033
","x: 261.46612548828125
y: 265.2073974609375
z: -0.14541926980018616
visibility: 0.9999876618385315
","x: 280.13519287109375
y: 281.57720947265625
z: -0.012542115524411201
visibility: 0.9999469518661499
","x: 246.7965087890625
y: 283.689208984375
z: -0.06107533723115921
visibility: 0.999957799911499
","x: 304.22552490234375
y: 267.91876220703125
z: -0.18674834072589874
visibility: 0.9792672395706177
","x: 240.34060668945312
y: 315.6022033691406
z: -0.213094562292099
visibility: 0.993452250957489
","x: 289.9073486328125
y: 246.30592346191406
z: -0.3430616855621338
visibility: 0.9817253351211548
","x: 263.3207702636719
y: 329.242919921875
z: -0.3465319275856018
visibility: 0.985458254814148
","x: 282.42755126953125
y: 241.63909912109375
z: -0.3852885961532593
visibility: 0.9513887166976929
","x: 268.5257568359375
y: 336.59832763671875
z: -0.3872935175895691
visibility: 0.9607311487197876
","x: 279.4628601074219
y: 243.2063446044922
z: -0.3659937083721161
visibility: 0.9479190111160278
","x: 271.0494689941406
y: 332.4817199707031
z: -0.37330442667007446
visibility: 0.9580157399177551
","x: 282.2336730957031
y: 246.5670623779297
z: -0.34162360429763794
visibility: 0.9276053309440613
","x: 270.08673095703125
y: 329.346435546875
z: -0.34349387884140015
visibility: 0.9360102415084839
","x: 273.46697998046875
y: 383.9549560546875
z: 0.01924232766032219
visibility: 0.9997317790985107
","x: 250.711669921875
y: 382.7886962890625
z: -0.019407330080866814
visibility: 0.9997913241386414
","x: 287.3499755859375
y: 452.8607482910156
z: -0.015285847708582878
visibility: 0.9979096055030823
","x: 239.66107177734375
y: 455.890869140625
z: -0.06434585899114609
visibility: 0.9985383749008179
","x: 300.35894775390625
y: 514.267333984375
z: 0.15040059387683868
visibility: 0.9966802000999451
","x: 222.6895751953125
y: 518.8914794921875
z: 0.047358471900224686
visibility: 0.9979913830757141
","x: 299.07415771484375
y: 523.1755981445312
z: 0.16162307560443878
visibility: 0.9142926335334778
","x: 221.11849975585938
y: 527.2183837890625
z: 0.05311424657702446
visibility: 0.9184308052062988
","x: 307.3940734863281
y: 535.7491455078125
z: 0.057362236082553864
visibility: 0.9917957782745361
","x: 224.50469970703125
y: 539.7907104492188
z: -0.06459216773509979
visibility: 0.9934149384498596
",5.331060171127319,"x: 261.9190368652344
y: 322.8961486816406
z: 0.0
","x: 265.143798828125
y: 327.494873046875
z: -0.00019323351443745196
","x: 267.58447265625
y: 331.7945556640625
z: -0.002238159067928791
","x: 267.96075439453125
y: 337.3210144042969
z: -0.005369686987251043
","x: 266.96343994140625
y: 341.1065673828125
z: -0.008224964141845703
","x: 272.642822265625
y: 322.7651672363281
z: -0.00034486601362004876
","x: 276.5877685546875
y: 320.12615966796875
z: -0.004584094509482384
","x: 276.9596862792969
y: 323.95709228515625
z: -0.007278831675648689
","x: 276.09869384765625
y: 327.6575927734375
z: -0.008489862084388733
","x: 271.839111328125
y: 320.02203369140625
z: -0.002977069467306137
","x: 276.1968078613281
y: 317.45465087890625
z: -0.006771889049559832
","x: 276.6980285644531
y: 321.7942810058594
z: -0.00843789428472519
","x: 275.6717834472656
y: 325.3306884765625
z: -0.009047089144587517
","x: 270.4022216796875
y: 317.8472900390625
z: -0.006225711666047573
","x: 274.1419677734375
y: 315.5959167480469
z: -0.009213674813508987
","x: 274.7681884765625
y: 319.6865234375
z: -0.0095217265188694
","x: 274.0533447265625
y: 323.0218811035156
z: -0.009280791506171227
","x: 268.3645324707031
y: 316.28363037109375
z: -0.009832640178501606
","x: 271.0362243652344
y: 313.4248962402344
z: -0.011788755655288696
","x: 272.26068115234375
y: 314.76019287109375
z: -0.011808883398771286
","x: 272.52294921875
y: 316.36407470703125
z: -0.011465199291706085
",,,,,,,,,,,,,,,,,,,,,
18,"x: 262.7940673828125
y: 257.70135498046875
z: -0.1857576072216034
visibility: 0.9999756813049316
","x: 263.8689270019531
y: 252.14224243164062
z: -0.1687089502811432
visibility: 0.999952495098114
","x: 265.17730712890625
y: 251.7412567138672
z: -0.16868694126605988
visibility: 0.9999405741691589
","x: 266.5719909667969
y: 251.6884002685547
z: -0.16867032647132874
visibility: 0.9999368190765381
","x: 260.4018859863281
y: 253.84051513671875
z: -0.16826161742210388
visibility: 0.9999571442604065
","x: 259.24200439453125
y: 254.65599060058594
z: -0.16829293966293335
visibility: 0.9999568462371826
","x: 258.248779296875
y: 255.6092529296875
z: -0.16829277575016022
visibility: 0.9999651312828064
","x: 269.4363708496094
y: 255.62818908691406
z: -0.07208283245563507
visibility: 0.9999054670333862
","x: 256.8211669921875
y: 261.0895690917969
z: -0.06211325526237488
visibility: 0.9999518990516663
","x: 266.1319580078125
y: 264.0237731933594
z: -0.1498374342918396
visibility: 0.9999712109565735
","x: 260.9464416503906
y: 265.79986572265625
z: -0.14848226308822632
visibility: 0.999984085559845
","x: 280.6777038574219
y: 284.4215087890625
z: -0.025455689057707787
visibility: 0.9999269247055054
","x: 247.7776336669922
y: 290.3740234375
z: -0.06980341672897339
visibility: 0.9999501705169678
","x: 304.5867004394531
y: 270.79119873046875
z: -0.1806289404630661
visibility: 0.9807615280151367
","x: 241.08787536621094
y: 321.5149230957031
z: -0.2243354767560959
visibility: 0.9938222169876099
","x: 289.5911865234375
y: 250.49932861328125
z: -0.2999475598335266
visibility: 0.9802789092063904
","x: 265.224609375
y: 319.65802001953125
z: -0.3432178795337677
visibility: 0.986019492149353
","x: 282.76434326171875
y: 246.64462280273438
z: -0.33231642842292786
visibility: 0.9429945349693298
","x: 271.3782653808594
y: 320.8861999511719
z: -0.38020429015159607
visibility: 0.9612097144126892
","x: 280.1593322753906
y: 247.8402099609375
z: -0.3083155155181885
visibility: 0.9380696415901184
","x: 273.4622802734375
y: 316.8000183105469
z: -0.3632303476333618
visibility: 0.9583115577697754
","x: 282.217041015625
y: 251.23406982421875
z: -0.29507893323898315
visibility: 0.9175310730934143
","x: 272.291259765625
y: 315.8536071777344
z: -0.3384897708892822
visibility: 0.9364142417907715
","x: 274.92364501953125
y: 387.6309509277344
z: 0.017884397879242897
visibility: 0.9997488260269165
","x: 252.45932006835938
y: 386.6204833984375
z: -0.018043816089630127
visibility: 0.9998033046722412
","x: 287.7545471191406
y: 453.8052062988281
z: 0.008078237064182758
visibility: 0.9977939128875732
","x: 240.69573974609375
y: 458.232421875
z: -0.05791850760579109
visibility: 0.9985384941101074
","x: 300.4708251953125
y: 514.4126586914062
z: 0.17272686958312988
visibility: 0.9964470267295837
","x: 222.90599060058594
y: 518.669677734375
z: 0.05415713042020798
visibility: 0.9978803992271423
","x: 299.34197998046875
y: 523.2720336914062
z: 0.1836557537317276
visibility: 0.9130463600158691
","x: 221.3935546875
y: 526.7180786132812
z: 0.060843147337436676
visibility: 0.9128382205963135
","x: 307.6291198730469
y: 535.6946411132812
z: 0.08320305496454239
visibility: 0.9910606145858765
","x: 224.4707794189453
y: 539.6935424804688
z: -0.05356307700276375
visibility: 0.9931992292404175
",5.459769010543823,,,,,,,,,,,,,,,,,,,,,,,,,,,,,,,,,,,,,,,,,,
19,"x: 262.7940673828125
y: 257.70135498046875
z: -0.1857576072216034
visibility: 0.9999756813049316
","x: 263.8689270019531
y: 252.14224243164062
z: -0.1687089502811432
visibility: 0.999952495098114
","x: 265.17730712890625
y: 251.7412567138672
z: -0.16868694126605988
visibility: 0.9999405741691589
","x: 266.5719909667969
y: 251.6884002685547
z: -0.16867032647132874
visibility: 0.9999368190765381
","x: 260.4018859863281
y: 253.84051513671875
z: -0.16826161742210388
visibility: 0.9999571442604065
","x: 259.24200439453125
y: 254.65599060058594
z: -0.16829293966293335
visibility: 0.9999568462371826
","x: 258.248779296875
y: 255.6092529296875
z: -0.16829277575016022
visibility: 0.9999651312828064
","x: 269.4363708496094
y: 255.62818908691406
z: -0.07208283245563507
visibility: 0.9999054670333862
","x: 256.8211669921875
y: 261.0895690917969
z: -0.06211325526237488
visibility: 0.9999518990516663
","x: 266.1319580078125
y: 264.0237731933594
z: -0.1498374342918396
visibility: 0.9999712109565735
","x: 260.9464416503906
y: 265.79986572265625
z: -0.14848226308822632
visibility: 0.999984085559845
","x: 280.6777038574219
y: 284.4215087890625
z: -0.025455689057707787
visibility: 0.9999269247055054
","x: 247.7776336669922
y: 290.3740234375
z: -0.06980341672897339
visibility: 0.9999501705169678
","x: 304.5867004394531
y: 270.79119873046875
z: -0.1806289404630661
visibility: 0.9807615280151367
","x: 241.08787536621094
y: 321.5149230957031
z: -0.2243354767560959
visibility: 0.9938222169876099
","x: 289.5911865234375
y: 250.49932861328125
z: -0.2999475598335266
visibility: 0.9802789092063904
","x: 265.224609375
y: 319.65802001953125
z: -0.3432178795337677
visibility: 0.986019492149353
","x: 282.76434326171875
y: 246.64462280273438
z: -0.33231642842292786
visibility: 0.9429945349693298
","x: 271.3782653808594
y: 320.8861999511719
z: -0.38020429015159607
visibility: 0.9612097144126892
","x: 280.1593322753906
y: 247.8402099609375
z: -0.3083155155181885
visibility: 0.9380696415901184
","x: 273.4622802734375
y: 316.8000183105469
z: -0.3632303476333618
visibility: 0.9583115577697754
","x: 282.217041015625
y: 251.23406982421875
z: -0.29507893323898315
visibility: 0.9175310730934143
","x: 272.291259765625
y: 315.8536071777344
z: -0.3384897708892822
visibility: 0.9364142417907715
","x: 274.92364501953125
y: 387.6309509277344
z: 0.017884397879242897
visibility: 0.9997488260269165
","x: 252.45932006835938
y: 386.6204833984375
z: -0.018043816089630127
visibility: 0.9998033046722412
","x: 287.7545471191406
y: 453.8052062988281
z: 0.008078237064182758
visibility: 0.9977939128875732
","x: 240.69573974609375
y: 458.232421875
z: -0.05791850760579109
visibility: 0.9985384941101074
","x: 300.4708251953125
y: 514.4126586914062
z: 0.17272686958312988
visibility: 0.9964470267295837
","x: 222.90599060058594
y: 518.669677734375
z: 0.05415713042020798
visibility: 0.9978803992271423
","x: 299.34197998046875
y: 523.2720336914062
z: 0.1836557537317276
visibility: 0.9130463600158691
","x: 221.3935546875
y: 526.7180786132812
z: 0.060843147337436676
visibility: 0.9128382205963135
","x: 307.6291198730469
y: 535.6946411132812
z: 0.08320305496454239
visibility: 0.9910606145858765
","x: 224.4707794189453
y: 539.6935424804688
z: -0.05356307700276375
visibility: 0.9931992292404175
",5.459769010543823,,,,,,,,,,,,,,,,,,,,,,,,,,,,,,,,,,,,,,,,,,
20,"x: 262.7249755859375
y: 256.7220458984375
z: -0.1579076647758484
visibility: 0.99996417760849
","x: 264.2298889160156
y: 251.6313934326172
z: -0.1427585333585739
visibility: 0.9999359846115112
","x: 265.52606201171875
y: 251.39361572265625
z: -0.14275333285331726
visibility: 0.9999189972877502
","x: 266.7871398925781
y: 251.41317749023438
z: -0.14275529980659485
visibility: 0.9999197721481323
","x: 260.84033203125
y: 253.07522583007812
z: -0.13973698019981384
visibility: 0.9999366998672485
","x: 259.6807861328125
y: 253.85272216796875
z: -0.13974398374557495
visibility: 0.9999339580535889
","x: 258.6430358886719
y: 254.80792236328125
z: -0.13975554704666138
visibility: 0.9999473094940186
","x: 269.39593505859375
y: 255.6283721923828
z: -0.05451114848256111
visibility: 0.9998884201049805
","x: 257.1521301269531
y: 260.5566711425781
z: -0.0368579626083374
visibility: 0.9999343752861023
","x: 265.859130859375
y: 263.0254821777344
z: -0.12415879964828491
visibility: 0.9999635815620422
","x: 260.721435546875
y: 264.1439208984375
z: -0.1197122111916542
visibility: 0.9999731183052063
","x: 281.0049133300781
y: 283.3682556152344
z: -0.01682881824672222
visibility: 0.9999262094497681
","x: 247.8640899658203
y: 290.05426025390625
z: -0.035112928599119186
visibility: 0.9999277591705322
","x: 306.22637939453125
y: 278.9090270996094
z: -0.1803991198539734
visibility: 0.9824728965759277
","x: 240.8987579345703
y: 320.0003356933594
z: -0.20870113372802734
visibility: 0.9935364127159119
","x: 285.4169616699219
y: 267.03729248046875
z: -0.30227237939834595
visibility: 0.9807969927787781
","x: 264.84100341796875
y: 317.673095703125
z: -0.34183886647224426
visibility: 0.9848514199256897
","x: 277.7929992675781
y: 260.1189270019531
z: -0.3382088243961334
visibility: 0.9418594837188721
","x: 271.1263732910156
y: 319.130615234375
z: -0.3788920044898987
visibility: 0.9580737948417664
","x: 275.7308044433594
y: 255.0311279296875
z: -0.3177400231361389
visibility: 0.9366374611854553
","x: 273.0485534667969
y: 315.545166015625
z: -0.3547084927558899
visibility: 0.9551123380661011
","x: 277.59124755859375
y: 260.61431884765625
z: -0.29900747537612915
visibility: 0.9159926772117615
","x: 271.7906188964844
y: 314.6408996582031
z: -0.33765673637390137
visibility: 0.9322941303253174
","x: 275.5716552734375
y: 387.39935302734375
z: 0.009688354097306728
visibility: 0.9997637271881104
","x: 253.17430114746094
y: 386.4512939453125
z: -0.009785530157387257
visibility: 0.9998094439506531
","x: 288.4894714355469
y: 453.9373474121094
z: 0.003337077097967267
visibility: 0.9978302121162415
","x: 240.66043090820312
y: 457.89630126953125
z: -0.049505289644002914
visibility: 0.9985396862030029
","x: 300.68756103515625
y: 514.3945922851562
z: 0.16322730481624603
visibility: 0.996322512626648
","x: 222.8447265625
y: 518.6577758789062
z: 0.05563732236623764
visibility: 0.9977725744247437
","x: 299.3667907714844
y: 523.0040283203125
z: 0.17350241541862488
visibility: 0.9103640913963318
","x: 221.31459045410156
y: 526.6393432617188
z: 0.06174073368310928
visibility: 0.9075220227241516
","x: 307.52203369140625
y: 535.6611328125
z: 0.0697319433093071
visibility: 0.9904513359069824
","x: 224.1244354248047
y: 539.6607666015625
z: -0.051012616604566574
visibility: 0.9928008913993835
",5.582655906677246,,,,,,,,,,,,,,,,,,,,,,,,,,,,,,,,,,,,,,,,,,
21,"x: 262.7249755859375
y: 256.7220458984375
z: -0.1579076647758484
visibility: 0.99996417760849
","x: 264.2298889160156
y: 251.6313934326172
z: -0.1427585333585739
visibility: 0.9999359846115112
","x: 265.52606201171875
y: 251.39361572265625
z: -0.14275333285331726
visibility: 0.9999189972877502
","x: 266.7871398925781
y: 251.41317749023438
z: -0.14275529980659485
visibility: 0.9999197721481323
","x: 260.84033203125
y: 253.07522583007812
z: -0.13973698019981384
visibility: 0.9999366998672485
","x: 259.6807861328125
y: 253.85272216796875
z: -0.13974398374557495
visibility: 0.9999339580535889
","x: 258.6430358886719
y: 254.80792236328125
z: -0.13975554704666138
visibility: 0.9999473094940186
","x: 269.39593505859375
y: 255.6283721923828
z: -0.05451114848256111
visibility: 0.9998884201049805
","x: 257.1521301269531
y: 260.5566711425781
z: -0.0368579626083374
visibility: 0.9999343752861023
","x: 265.859130859375
y: 263.0254821777344
z: -0.12415879964828491
visibility: 0.9999635815620422
","x: 260.721435546875
y: 264.1439208984375
z: -0.1197122111916542
visibility: 0.9999731183052063
","x: 281.0049133300781
y: 283.3682556152344
z: -0.01682881824672222
visibility: 0.9999262094497681
","x: 247.8640899658203
y: 290.05426025390625
z: -0.035112928599119186
visibility: 0.9999277591705322
","x: 306.22637939453125
y: 278.9090270996094
z: -0.1803991198539734
visibility: 0.9824728965759277
","x: 240.8987579345703
y: 320.0003356933594
z: -0.20870113372802734
visibility: 0.9935364127159119
","x: 285.4169616699219
y: 267.03729248046875
z: -0.30227237939834595
visibility: 0.9807969927787781
","x: 264.84100341796875
y: 317.673095703125
z: -0.34183886647224426
visibility: 0.9848514199256897
","x: 277.7929992675781
y: 260.1189270019531
z: -0.3382088243961334
visibility: 0.9418594837188721
","x: 271.1263732910156
y: 319.130615234375
z: -0.3788920044898987
visibility: 0.9580737948417664
","x: 275.7308044433594
y: 255.0311279296875
z: -0.3177400231361389
visibility: 0.9366374611854553
","x: 273.0485534667969
y: 315.545166015625
z: -0.3547084927558899
visibility: 0.9551123380661011
","x: 277.59124755859375
y: 260.61431884765625
z: -0.29900747537612915
visibility: 0.9159926772117615
","x: 271.7906188964844
y: 314.6408996582031
z: -0.33765673637390137
visibility: 0.9322941303253174
","x: 275.5716552734375
y: 387.39935302734375
z: 0.009688354097306728
visibility: 0.9997637271881104
","x: 253.17430114746094
y: 386.4512939453125
z: -0.009785530157387257
visibility: 0.9998094439506531
","x: 288.4894714355469
y: 453.9373474121094
z: 0.003337077097967267
visibility: 0.9978302121162415
","x: 240.66043090820312
y: 457.89630126953125
z: -0.049505289644002914
visibility: 0.9985396862030029
","x: 300.68756103515625
y: 514.3945922851562
z: 0.16322730481624603
visibility: 0.996322512626648
","x: 222.8447265625
y: 518.6577758789062
z: 0.05563732236623764
visibility: 0.9977725744247437
","x: 299.3667907714844
y: 523.0040283203125
z: 0.17350241541862488
visibility: 0.9103640913963318
","x: 221.31459045410156
y: 526.6393432617188
z: 0.06174073368310928
visibility: 0.9075220227241516
","x: 307.52203369140625
y: 535.6611328125
z: 0.0697319433093071
visibility: 0.9904513359069824
","x: 224.1244354248047
y: 539.6607666015625
z: -0.051012616604566574
visibility: 0.9928008913993835
",5.582655906677246,,,,,,,,,,,,,,,,,,,,,,,,,,,,,,,,,,,,,,,,,,
22,"x: 261.435302734375
y: 251.3665771484375
z: -0.17542597651481628
visibility: 0.9999651908874512
","x: 262.58184814453125
y: 246.26254272460938
z: -0.1619100272655487
visibility: 0.999938428401947
","x: 263.8033447265625
y: 245.89877319335938
z: -0.1618897020816803
visibility: 0.9999217391014099
","x: 264.9873046875
y: 245.57095336914062
z: -0.16189002990722656
visibility: 0.9999227523803711
","x: 259.4306945800781
y: 248.1436767578125
z: -0.15729323029518127
visibility: 0.9999386072158813
","x: 258.3944091796875
y: 249.1779327392578
z: -0.15730878710746765
visibility: 0.9999358057975769
","x: 257.3509521484375
y: 250.302734375
z: -0.15730687975883484
visibility: 0.9999489188194275
","x: 267.8485107421875
y: 247.76394653320312
z: -0.06741996109485626
visibility: 0.9998942613601685
","x: 255.9047393798828
y: 255.8328399658203
z: -0.04755266755819321
visibility: 0.9999386072158813
","x: 264.8914794921875
y: 256.95294189453125
z: -0.1389879733324051
visibility: 0.9999650716781616
","x: 259.90899658203125
y: 259.1730041503906
z: -0.13124945759773254
visibility: 0.9999740123748779
","x: 281.2067565917969
y: 274.5103759765625
z: -0.018403086811304092
visibility: 0.9999290108680725
","x: 247.92532348632812
y: 277.8372802734375
z: -0.04239707067608833
visibility: 0.9999300241470337
","x: 304.98712158203125
y: 261.82501220703125
z: -0.1959114670753479
visibility: 0.9840419292449951
","x: 242.0478973388672
y: 310.05517578125
z: -0.19880907237529755
visibility: 0.993648111820221
","x: 285.4334716796875
y: 239.64112854003906
z: -0.3436850607395172
visibility: 0.981782853603363
","x: 264.8648681640625
y: 316.808837890625
z: -0.3395625054836273
visibility: 0.98506098985672
","x: 279.056640625
y: 234.53041076660156
z: -0.38627225160598755
visibility: 0.9435977339744568
","x: 270.8527526855469
y: 319.55072021484375
z: -0.3801935911178589
visibility: 0.9586370587348938
","x: 276.91534423828125
y: 234.6348876953125
z: -0.3648025691509247
visibility: 0.9383771419525146
","x: 272.9649963378906
y: 315.4519958496094
z: -0.36731308698654175
visibility: 0.9557304382324219
","x: 278.3105163574219
y: 237.50531005859375
z: -0.3409885764122009
visibility: 0.9184412956237793
","x: 271.76812744140625
y: 314.1942138671875
z: -0.3379698395729065
visibility: 0.933261513710022
","x: 275.5664367675781
y: 378.46392822265625
z: 0.009158476255834103
visibility: 0.999782383441925
","x: 253.10336303710938
y: 376.8973388671875
z: -0.009259575977921486
visibility: 0.9998204708099365
","x: 288.9322204589844
y: 449.7760009765625
z: -0.0210775937885046
visibility: 0.9978642463684082
","x: 240.0181121826172
y: 450.9127197265625
z: -0.050605446100234985
visibility: 0.9985488653182983
","x: 301.98809814453125
y: 512.0054931640625
z: 0.13329674303531647
visibility: 0.9962692856788635
","x: 222.1761932373047
y: 515.6255493164062
z: 0.05707752704620361
visibility: 0.9977050423622131
","x: 300.26934814453125
y: 520.141845703125
z: 0.14309246838092804
visibility: 0.910558819770813
","x: 220.73680114746094
y: 523.3136596679688
z: 0.06366764008998871
visibility: 0.9040491580963135
","x: 308.2950744628906
y: 535.0655517578125
z: 0.029829686507582664
visibility: 0.9902269840240479
","x: 223.72293090820312
y: 538.9554443359375
z: -0.04924286901950836
visibility: 0.9925852417945862
",5.708259344100952,"x: 263.00482177734375
y: 317.2193603515625
z: 0.0
","x: 268.25567626953125
y: 318.7248229980469
z: 0.002405633684247732
","x: 272.1575012207031
y: 317.67083740234375
z: 0.00211372971534729
","x: 274.8731689453125
y: 316.74310302734375
z: 0.0005260094185359776
","x: 277.0478820800781
y: 315.7467956542969
z: -0.0005806927802041173
","x: 273.830810546875
y: 308.9648742675781
z: 0.0026925699785351753
","x: 277.2652282714844
y: 310.6346435546875
z: 0.00036771141458302736
","x: 277.5900573730469
y: 314.6217041015625
z: -0.0007892347639426589
","x: 277.0728454589844
y: 317.8523864746094
z: -0.0012665883405134082
","x: 272.8224182128906
y: 307.40667724609375
z: -0.00046176675823517144
","x: 276.5383605957031
y: 310.0548400878906
z: -0.002777965972200036
","x: 276.63580322265625
y: 314.21014404296875
z: -0.003306287806481123
","x: 275.84185791015625
y: 317.4560546875
z: -0.003327163401991129
","x: 271.4553527832031
y: 306.6668395996094
z: -0.003851788816973567
","x: 274.0014953613281
y: 311.9452819824219
z: -0.005612180568277836
","x: 272.6017150878906
y: 315.1443176269531
z: -0.004684867337346077
","x: 271.1311340332031
y: 316.6750793457031
z: -0.0037407458294183016
","x: 269.77679443359375
y: 307.1707763671875
z: -0.007407990749925375
","x: 271.6536865234375
y: 311.8087463378906
z: -0.008442642167210579
","x: 270.90350341796875
y: 314.6114807128906
z: -0.007513931952416897
","x: 269.8866271972656
y: 315.8760070800781
z: -0.00651779817417264
",,,,,,,,,,,,,,,,,,,,,
23,"x: 261.435302734375
y: 251.3665771484375
z: -0.17542597651481628
visibility: 0.9999651908874512
","x: 262.58184814453125
y: 246.26254272460938
z: -0.1619100272655487
visibility: 0.999938428401947
","x: 263.8033447265625
y: 245.89877319335938
z: -0.1618897020816803
visibility: 0.9999217391014099
","x: 264.9873046875
y: 245.57095336914062
z: -0.16189002990722656
visibility: 0.9999227523803711
","x: 259.4306945800781
y: 248.1436767578125
z: -0.15729323029518127
visibility: 0.9999386072158813
","x: 258.3944091796875
y: 249.1779327392578
z: -0.15730878710746765
visibility: 0.9999358057975769
","x: 257.3509521484375
y: 250.302734375
z: -0.15730687975883484
visibility: 0.9999489188194275
","x: 267.8485107421875
y: 247.76394653320312
z: -0.06741996109485626
visibility: 0.9998942613601685
","x: 255.9047393798828
y: 255.8328399658203
z: -0.04755266755819321
visibility: 0.9999386072158813
","x: 264.8914794921875
y: 256.95294189453125
z: -0.1389879733324051
visibility: 0.9999650716781616
","x: 259.90899658203125
y: 259.1730041503906
z: -0.13124945759773254
visibility: 0.9999740123748779
","x: 281.2067565917969
y: 274.5103759765625
z: -0.018403086811304092
visibility: 0.9999290108680725
","x: 247.92532348632812
y: 277.8372802734375
z: -0.04239707067608833
visibility: 0.9999300241470337
","x: 304.98712158203125
y: 261.82501220703125
z: -0.1959114670753479
visibility: 0.9840419292449951
","x: 242.0478973388672
y: 310.05517578125
z: -0.19880907237529755
visibility: 0.993648111820221
","x: 285.4334716796875
y: 239.64112854003906
z: -0.3436850607395172
visibility: 0.981782853603363
","x: 264.8648681640625
y: 316.808837890625
z: -0.3395625054836273
visibility: 0.98506098985672
","x: 279.056640625
y: 234.53041076660156
z: -0.38627225160598755
visibility: 0.9435977339744568
","x: 270.8527526855469
y: 319.55072021484375
z: -0.3801935911178589
visibility: 0.9586370587348938
","x: 276.91534423828125
y: 234.6348876953125
z: -0.3648025691509247
visibility: 0.9383771419525146
","x: 272.9649963378906
y: 315.4519958496094
z: -0.36731308698654175
visibility: 0.9557304382324219
","x: 278.3105163574219
y: 237.50531005859375
z: -0.3409885764122009
visibility: 0.9184412956237793
","x: 271.76812744140625
y: 314.1942138671875
z: -0.3379698395729065
visibility: 0.933261513710022
","x: 275.5664367675781
y: 378.46392822265625
z: 0.009158476255834103
visibility: 0.999782383441925
","x: 253.10336303710938
y: 376.8973388671875
z: -0.009259575977921486
visibility: 0.9998204708099365
","x: 288.9322204589844
y: 449.7760009765625
z: -0.0210775937885046
visibility: 0.9978642463684082
","x: 240.0181121826172
y: 450.9127197265625
z: -0.050605446100234985
visibility: 0.9985488653182983
","x: 301.98809814453125
y: 512.0054931640625
z: 0.13329674303531647
visibility: 0.9962692856788635
","x: 222.1761932373047
y: 515.6255493164062
z: 0.05707752704620361
visibility: 0.9977050423622131
","x: 300.26934814453125
y: 520.141845703125
z: 0.14309246838092804
visibility: 0.910558819770813
","x: 220.73680114746094
y: 523.3136596679688
z: 0.06366764008998871
visibility: 0.9040491580963135
","x: 308.2950744628906
y: 535.0655517578125
z: 0.029829686507582664
visibility: 0.9902269840240479
","x: 223.72293090820312
y: 538.9554443359375
