uscmakers/ReverseChoreography/data/1_humble_kendrick_lamar.csv
,NOSE,LEFT_EYE_INNER,LEFT_EYE,LEFT_EYE_OUTER,RIGHT_EYE_INNER,RIGHT_EYE,RIGHT_EYE_OUTER,LEFT_EAR,RIGHT_EAR,MOUTH_LEFT,MOUTH_RIGHT,LEFT_SHOULDER,RIGHT_SHOULDER,LEFT_ELBOW,RIGHT_ELBOW,LEFT_WRIST,RIGHT_WRIST,LEFT_PINKY,RIGHT_PINKY,LEFT_INDEX,RIGHT_INDEX,LEFT_THUMB,RIGHT_THUMB,LEFT_HIP,RIGHT_HIP,LEFT_KNEE,RIGHT_KNEE,LEFT_ANKLE,RIGHT_ANKLE,LEFT_HEEL,RIGHT_HEEL,LEFT_FOOT_INDEX,RIGHT_FOOT_INDEX,WRIST,THUMB_CPC,THUMB_MCP,THUMB_IP,THUMB_TIP,INDEX_FINGER_MCP,INDEX_FINGER_PIP,INDEX_FINGER_DIP,INDEX_FINGER_TIP,MIDDLE_FINGER_MCP,MIDDLE_FINGER_PIP,MIDDLE_FINGER_DIP,MIDDLE_FINGER_TIP,RING_FINGER_PIP,RING_FINGER_DIP,RING_FINGER_TIP,RING_FINGER_MCP,PINKY_MCP,PINKY_PIP,PINKY_DIP,PINKY_TIP,WRIST2,THUMB_CPC2,THUMB_MCP2,THUMB_IP2,THUMB_TIP2,INDEX_FINGER_MCP2,INDEX_FINGER_PIP2,INDEX_FINGER_DIP2,INDEX_FINGER_TIP2,MIDDLE_FINGER_MCP2,MIDDLE_FINGER_PIP2,MIDDLE_FINGER_DIP2,MIDDLE_FINGER_TIP2,RING_FINGER_PIP2,RING_FINGER_DIP2,RING_FINGER_TIP2,RING_FINGER_MCP2,PINKY_MCP2,PINKY_PIP2,PINKY_DIP2,PINKY_TIP2
0,"x: 213.38169860839844
y: 170.72824096679688
z: -0.20249339938163757
visibility: 0.9999908208847046
","x: 215.71080017089844
y: 161.43142700195312
z: -0.20229725539684296
visibility: 0.9999669790267944
","x: 217.09950256347656
y: 161.09097290039062
z: -0.2023785561323166
visibility: 0.9999839067459106
","x: 218.64797973632812
y: 160.72967529296875
z: -0.20240648090839386
visibility: 0.9999719858169556
","x: 213.59120178222656
y: 161.79302978515625
z: -0.17784962058067322
visibility: 0.9999340772628784
","x: 213.37734985351562
y: 161.7491455078125
z: -0.17787636816501617
visibility: 0.999950647354126
","x: 213.2252197265625
y: 161.73541259765625
z: -0.17780467867851257
visibility: 0.9999386072158813
","x: 224.55587768554688
y: 163.2556915283203
z: -0.1590779721736908
visibility: 0.9999850988388062
","x: 216.77215576171875
y: 164.94601440429688
z: -0.04485736042261124
visibility: 0.9999637603759766
","x: 217.52200317382812
y: 177.09814453125
z: -0.18614883720874786
visibility: 0.9999878406524658
","x: 214.30064392089844
y: 177.44686889648438
z: -0.15270768105983734
visibility: 0.9999510049819946
","x: 244.26524353027344
y: 209.4818115234375
z: -0.16478508710861206
visibility: 0.9999985694885254
","x: 206.62586975097656
y: 208.3726348876953
z: 0.0865345150232315
visibility: 0.9998735189437866
","x: 273.30047607421875
y: 235.23342895507812
z: -0.2948753535747528
visibility: 0.9999192953109741
","x: 179.58233642578125
y: 227.12109375
z: 0.26717057824134827
visibility: 0.9851366281509399
","x: 301.0128173828125
y: 245.96925354003906
z: -0.5059762001037598
visibility: 0.9995526671409607
","x: 153.0601806640625
y: 224.3028106689453
z: 0.3232557475566864
visibility: 0.9984676241874695
","x: 309.8782958984375
y: 253.593505859375
z: -0.5457721948623657
visibility: 0.9974762797355652
","x: 144.69314575195312
y: 222.80123901367188
z: 0.33772140741348267
visibility: 0.9947589039802551
","x: 309.9126892089844
y: 251.86953735351562
z: -0.5776581764221191
visibility: 0.998112678527832
","x: 144.5810546875
y: 219.74774169921875
z: 0.3107248544692993
visibility: 0.9955118298530579
","x: 306.4311218261719
y: 249.0830841064453
z: -0.5261212587356567
visibility: 0.9979150891304016
","x: 147.56629943847656
y: 220.63717651367188
z: 0.31181541085243225
visibility: 0.9953663349151611
","x: 223.61129760742188
y: 330.9646911621094
z: -0.10299593210220337
visibility: 0.9999165534973145
","x: 205.66090393066406
y: 326.0797119140625
z: 0.10298500955104828
visibility: 0.9998742341995239
","x: 209.19815063476562
y: 410.9565734863281
z: -0.11331859976053238
visibility: 0.9849956631660461
","x: 191.503662109375
y: 401.5810852050781
z: 0.07051116973161697
visibility: 0.9460349082946777
","x: 217.74029541015625
y: 493.9189147949219
z: 0.03749958053231239
visibility: 0.9951436519622803
","x: 208.05372619628906
y: 477.1536560058594
z: 0.2303828001022339
visibility: 0.9629018306732178
","x: 224.60098266601562
y: 508.3673095703125
z: 0.0481262244284153
visibility: 0.9691984057426453
","x: 215.16110229492188
y: 489.2762451171875
z: 0.24054960906505585
visibility: 0.9388843774795532
","x: 201.88604736328125
y: 522.335205078125
z: -0.06450718641281128
visibility: 0.9946715235710144
","x: 192.2926025390625
y: 501.2611389160156
z: 0.1650875359773636
visibility: 0.9794068336486816
",,,,,,,,,,,,,,,,,,,,,,,,,,,,,,,,,,,,,,,,,,
1,"x: 214.7660369873047
y: 168.75694274902344
z: -0.16207583248615265
visibility: 0.9999683499336243
","x: 216.79632568359375
y: 159.94668579101562
z: -0.166358083486557
visibility: 0.9999332427978516
","x: 218.14501953125
y: 159.5713348388672
z: -0.16639724373817444
visibility: 0.9999400973320007
","x: 219.57534790039062
y: 159.32171630859375
z: -0.16642151772975922
visibility: 0.9999281764030457
","x: 214.2154541015625
y: 160.45057678222656
z: -0.14230976998806
visibility: 0.9999006986618042
","x: 213.77838134765625
y: 160.42196655273438
z: -0.14229042828083038
visibility: 0.999873697757721
","x: 213.41094970703125
y: 160.45838928222656
z: -0.14233414828777313
visibility: 0.9998709559440613
","x: 224.905517578125
y: 162.7149658203125
z: -0.14441289007663727
visibility: 0.9999451637268066
","x: 216.6471405029297
y: 164.423583984375
z: -0.0305740088224411
visibility: 0.9998340606689453
","x: 218.71693420410156
y: 175.3668975830078
z: -0.15059207379817963
visibility: 0.9999346137046814
","x: 215.36094665527344
y: 176.07241821289062
z: -0.1181577816605568
visibility: 0.9998906850814819
","x: 244.15956115722656
y: 196.20338439941406
z: -0.1787331998348236
visibility: 0.9999726414680481
","x: 210.79522705078125
y: 206.1990509033203
z: 0.06643430888652802
visibility: 0.9998771548271179
","x: 224.1994171142578
y: 181.6610565185547
z: -0.3092515766620636
visibility: 0.9990625977516174
","x: 189.89434814453125
y: 197.47718811035156
z: 0.015735860913991928
visibility: 0.9799103140830994
","x: 212.1514892578125
y: 135.46995544433594
z: -0.357272744178772
visibility: 0.9982454180717468
","x: 197.055908203125
y: 144.8465118408203
z: -0.118661068379879
visibility: 0.9908807873725891
","x: 209.38644409179688
y: 118.89157104492188
z: -0.3929460644721985
visibility: 0.9948310256004333
","x: 198.81170654296875
y: 130.4484100341797
z: -0.1481374204158783
visibility: 0.9775137305259705
","x: 210.52157592773438
y: 116.6878890991211
z: -0.3879840672016144
visibility: 0.9948921203613281
","x: 200.27330017089844
y: 129.1789093017578
z: -0.13938464224338531
visibility: 0.9758378267288208
","x: 211.72454833984375
y: 122.08708190917969
z: -0.3566657602787018
visibility: 0.9925296306610107
","x: 200.33038330078125
y: 134.98223876953125
z: -0.12354119122028351
visibility: 0.9749990701675415
","x: 240.84718322753906
y: 322.2039794921875
z: -0.07191670686006546
visibility: 0.9999064803123474
","x: 218.90162658691406
y: 325.32672119140625
z: 0.07187885046005249
visibility: 0.999885082244873
","x: 248.86021423339844
y: 394.01959228515625
z: -0.04475962370634079
visibility: 0.9859078526496887
","x: 210.57142639160156
y: 402.873779296875
z: 0.07081720978021622
visibility: 0.9508478045463562
","x: 273.5000305175781
y: 437.279052734375
z: 0.2469927817583084
visibility: 0.9925491213798523
","x: 215.85975646972656
y: 481.2314147949219
z: 0.19656552374362946
visibility: 0.966273307800293
","x: 275.4450378417969
y: 436.8899230957031
z: 0.2742432951927185
visibility: 0.9587693810462952
","x: 221.34803771972656
y: 493.9833068847656
z: 0.20330071449279785
visibility: 0.9435949921607971
","x: 281.15179443359375
y: 465.7908935546875
z: 0.224266916513443
visibility: 0.9923308491706848
","x: 199.2607421875
y: 501.8711853027344
z: 0.12314589321613312
visibility: 0.9808169007301331
",,,,,,,,,,,,,,,,,,,,,,,,,,,,,,,,,,,,,,,,,,
2,"x: 217.50462341308594
y: 156.52723693847656
z: -0.1368466019630432
visibility: 0.9999698400497437
","x: 218.97296142578125
y: 149.51348876953125
z: -0.13940665125846863
visibility: 0.9999374151229858
","x: 220.259521484375
y: 149.25885009765625
z: -0.13940516114234924
visibility: 0.9999434351921082
","x: 221.4507293701172
y: 149.30332946777344
z: -0.13940070569515228
visibility: 0.9999326467514038
","x: 215.75714111328125
y: 150.32513427734375
z: -0.11825134605169296
visibility: 0.9999068975448608
","x: 214.93861389160156
y: 150.7710418701172
z: -0.1182478815317154
visibility: 0.9998800158500671
","x: 214.13662719726562
y: 151.12692260742188
z: -0.1182834729552269
visibility: 0.9998775124549866
","x: 226.2133026123047
y: 156.76446533203125
z: -0.11631976068019867
visibility: 0.9999477863311768
","x: 216.55685424804688
y: 157.16278076171875
z: -0.01459231972694397
visibility: 0.9998412132263184
","x: 221.76150512695312
y: 165.66726684570312
z: -0.12532347440719604
visibility: 0.9999373555183411
","x: 217.80123901367188
y: 166.99917602539062
z: -0.09662619233131409
visibility: 0.9998941421508789
","x: 244.89881896972656
y: 189.67958068847656
z: -0.1528465747833252
visibility: 0.9999678134918213
","x: 212.48085021972656
y: 201.42108154296875
z: 0.04265175387263298
visibility: 0.9998801946640015
","x: 222.54351806640625
y: 175.52008056640625
z: -0.2837904691696167
visibility: 0.9980381727218628
","x: 194.81997680664062
y: 180.66986083984375
z: -0.09548402577638626
visibility: 0.9783849120140076
","x: 216.96971130371094
y: 130.13047790527344
z: -0.3207019865512848
visibility: 0.9971911907196045
","x: 209.95631408691406
y: 126.15179443359375
z: -0.27913305163383484
visibility: 0.989070475101471
","x: 217.04132080078125
y: 113.61602783203125
z: -0.35650435090065
visibility: 0.9929976463317871
","x: 213.4361114501953
y: 111.50374603271484
z: -0.3216344714164734
visibility: 0.9726976752281189
","x: 219.46047973632812
y: 111.54180908203125
z: -0.3532695174217224
visibility: 0.9927302598953247
","x: 214.90676879882812
y: 109.03145599365234
z: -0.30285558104515076
visibility: 0.969694197177887
","x: 219.48541259765625
y: 115.50111389160156
z: -0.3211875557899475
visibility: 0.9890469312667847
","x: 214.17864990234375
y: 113.60238647460938
z: -0.281474232673645
visibility: 0.9684610366821289
","x: 246.94908142089844
y: 320.2209167480469
z: -0.05532953143119812
visibility: 0.9999082088470459
","x: 223.38946533203125
y: 325.11383056640625
z: 0.05523478239774704
visibility: 0.99989253282547
","x: 264.5364074707031
y: 398.0011291503906
z: -0.07150907814502716
visibility: 0.9872314929962158
","x: 217.17910766601562
y: 408.4012451171875
z: 0.12648779153823853
visibility: 0.9553906917572021
","x: 296.38580322265625
y: 462.3260803222656
z: 0.15682455897331238
visibility: 0.9932000637054443
","x: 216.76885986328125
y: 485.32855224609375
z: 0.3287898898124695
visibility: 0.9694278836250305
","x: 299.18341064453125
y: 468.8170166015625
z: 0.13958725333213806
visibility: 0.9585121870040894
","x: 221.33453369140625
y: 497.4035949707031
z: 0.3428320586681366
visibility: 0.9468788504600525
","x: 303.1809387207031
y: 470.1257019042969
z: -0.020775139331817627
visibility: 0.9929091930389404
","x: 205.53941345214844
y: 509.6337585449219
z: 0.2490958720445633
visibility: 0.9823319315910339
",,,,,,,,,,,,,,,,,,,,,,,,,,,,,,,,,,,,,,,,,,
3,"x: 224.49490356445312
y: 162.40872192382812
z: -0.15805914998054504
visibility: 0.9998831152915955
","x: 225.79635620117188
y: 155.49510192871094
z: -0.15713754296302795
visibility: 0.9997826218605042
","x: 227.15869140625
y: 154.86817932128906
z: -0.15725085139274597
visibility: 0.9997894167900085
","x: 228.51742553710938
y: 154.32919311523438
z: -0.1573299616575241
visibility: 0.999765157699585
","x: 223.4169158935547
y: 156.9849853515625
z: -0.1316666454076767
visibility: 0.9997366070747375
","x: 222.7472686767578
y: 157.45999145507812
z: -0.13164883852005005
visibility: 0.999650776386261
","x: 222.23594665527344
y: 158.00633239746094
z: -0.1314227432012558
visibility: 0.9996672868728638
","x: 234.3939971923828
y: 159.58116149902344
z: -0.14261415600776672
visibility: 0.9995670914649963
","x: 223.77052307128906
y: 162.27613830566406
z: -0.040432728826999664
visibility: 0.9993757009506226
","x: 228.3506317138672
y: 170.9195556640625
z: -0.1389663815498352
visibility: 0.9997708797454834
","x: 224.864990234375
y: 171.97373962402344
z: -0.10245660692453384
visibility: 0.9996945261955261
","x: 253.95518493652344
y: 192.47850036621094
z: -0.18791721761226654
visibility: 0.9999256134033203
","x: 219.2200164794922
y: 204.17039489746094
z: 0.03597563877701759
visibility: 0.9998190999031067
","x: 240.107177734375
y: 182.17318725585938
z: -0.3364015817642212
visibility: 0.9968819618225098
","x: 193.14785766601562
y: 196.2971649169922
z: -0.0009226269903592765
visibility: 0.9775374531745911
","x: 217.18858337402344
y: 148.88650512695312
z: -0.4014062285423279
visibility: 0.9942074418067932
","x: 195.60284423828125
y: 148.5634307861328
z: -0.13638423383235931
visibility: 0.9863776564598083
","x: 209.2377471923828
y: 136.0501251220703
z: -0.4401327967643738
visibility: 0.986676812171936
","x: 197.12168884277344
y: 131.34097290039062
z: -0.16787271201610565
visibility: 0.9652513861656189
","x: 210.1417694091797
y: 137.22006225585938
z: -0.4335760176181793
visibility: 0.9854767322540283
","x: 199.12533569335938
y: 131.5006103515625
z: -0.16149099171161652
visibility: 0.9612271189689636
","x: 211.73748779296875
y: 141.84423828125
z: -0.4018767476081848
visibility: 0.9772598743438721
","x: 199.93890380859375
y: 137.841552734375
z: -0.14069294929504395
visibility: 0.9587640762329102
","x: 256.97393798828125
y: 321.0168762207031
z: -0.0540730282664299
visibility: 0.9998883008956909
","x: 233.66395568847656
y: 328.3273010253906
z: 0.053901176899671555
visibility: 0.9998650550842285
","x: 274.6346130371094
y: 401.771728515625
z: -0.049557872116565704
visibility: 0.9883228540420532
","x: 225.35006713867188
y: 410.57550048828125
z: 0.1225423589348793
visibility: 0.9594307541847229
","x: 304.3148193359375
y: 469.83697509765625
z: 0.11944075673818588
visibility: 0.9937525391578674
","x: 215.14439392089844
y: 484.35504150390625
z: 0.3473779261112213
visibility: 0.9720568656921387
","x: 307.72686767578125
y: 479.3255310058594
z: 0.12614624202251434
visibility: 0.9548585414886475
","x: 218.0665740966797
y: 494.65234375
z: 0.3651311993598938
visibility: 0.9461300373077393
","x: 305.1981201171875
y: 477.7966003417969
z: -0.01859319768846035
visibility: 0.993257462978363
","x: 209.387939453125
y: 509.66546630859375
z: 0.2626074552536011
visibility: 0.9832227826118469
","x: 197.63839721679688
y: 147.14195251464844
z: 0.0
","x: 201.60198974609375
y: 144.47598266601562
z: -0.00144969520624727
","x: 204.51611328125
y: 138.99612426757812
z: -0.002868521260097623
","x: 206.42703247070312
y: 134.43975830078125
z: -0.004972641821950674
","x: 208.18479919433594
y: 131.34288024902344
z: -0.0065396446734666824
","x: 201.4403839111328
y: 126.35682678222656
z: 0.0009713113540783525
","x: 202.14178466796875
y: 117.85597229003906
z: -0.0020399088971316814
","x: 202.8668975830078
y: 117.4320068359375
z: -0.0034542600624263287
","x: 203.1687774658203
y: 118.92607879638672
z: -0.0038460991345345974
","x: 199.0395965576172
y: 125.84748077392578
z: -0.0005731899873353541
","x: 198.96249389648438
y: 116.2514877319336
z: -0.0035894622560590506
","x: 199.48321533203125
y: 116.04561614990234
z: -0.00440587243065238
","x: 199.70228576660156
y: 118.1024169921875
z: -0.004186287987977266
","x: 196.70663452148438
y: 126.71498107910156
z: -0.002886397298425436
","x: 195.9788055419922
y: 118.21162414550781
z: -0.005760640371590853
","x: 196.58392333984375
y: 117.42131042480469
z: -0.005687247961759567
","x: 197.1017608642578
y: 118.4554443359375
z: -0.004909814335405827
","x: 194.43438720703125
y: 129.02337646484375
z: -0.005662049166858196
","x: 193.28463745117188
y: 122.39027404785156
z: -0.007710103411227465
","x: 193.42141723632812
y: 119.9769515991211
z: -0.007838073186576366
","x: 193.89430236816406
y: 118.91326141357422
z: -0.007330544758588076
",,,,,,,,,,,,,,,,,,,,,
4,"x: 224.49490356445312
y: 162.40872192382812
z: -0.15805914998054504
visibility: 0.9998831152915955
","x: 225.79635620117188
y: 155.49510192871094
z: -0.15713754296302795
visibility: 0.9997826218605042
","x: 227.15869140625
y: 154.86817932128906
z: -0.15725085139274597
visibility: 0.9997894167900085
","x: 228.51742553710938
y: 154.32919311523438
z: -0.1573299616575241
visibility: 0.999765157699585
","x: 223.4169158935547
y: 156.9849853515625
z: -0.1316666454076767
visibility: 0.9997366070747375
","x: 222.7472686767578
y: 157.45999145507812
z: -0.13164883852005005
visibility: 0.999650776386261
","x: 222.23594665527344
y: 158.00633239746094
z: -0.1314227432012558
visibility: 0.9996672868728638
","x: 234.3939971923828
y: 159.58116149902344
z: -0.14261415600776672
visibility: 0.9995670914649963
","x: 223.77052307128906
y: 162.27613830566406
z: -0.040432728826999664
visibility: 0.9993757009506226
","x: 228.3506317138672
y: 170.9195556640625
z: -0.1389663815498352
visibility: 0.9997708797454834
","x: 224.864990234375
y: 171.97373962402344
z: -0.10245660692453384
visibility: 0.9996945261955261
","x: 253.95518493652344
y: 192.47850036621094
z: -0.18791721761226654
visibility: 0.9999256134033203
","x: 219.2200164794922
y: 204.17039489746094
z: 0.03597563877701759
visibility: 0.9998190999031067
","x: 240.107177734375
y: 182.17318725585938
z: -0.3364015817642212
visibility: 0.9968819618225098
","x: 193.14785766601562
y: 196.2971649169922
z: -0.0009226269903592765
visibility: 0.9775374531745911
","x: 217.18858337402344
y: 148.88650512695312
z: -0.4014062285423279
visibility: 0.9942074418067932
","x: 195.60284423828125
y: 148.5634307861328
z: -0.13638423383235931
visibility: 0.9863776564598083
","x: 209.2377471923828
y: 136.0501251220703
z: -0.4401327967643738
visibility: 0.986676812171936
","x: 197.12168884277344
y: 131.34097290039062
z: -0.16787271201610565
visibility: 0.9652513861656189
","x: 210.1417694091797
y: 137.22006225585938
z: -0.4335760176181793
visibility: 0.9854767322540283
","x: 199.12533569335938
y: 131.5006103515625
z: -0.16149099171161652
visibility: 0.9612271189689636
","x: 211.73748779296875
y: 141.84423828125
z: -0.4018767476081848
visibility: 0.9772598743438721
","x: 199.93890380859375
y: 137.841552734375
z: -0.14069294929504395
visibility: 0.9587640762329102
","x: 256.97393798828125
y: 321.0168762207031
z: -0.0540730282664299
visibility: 0.9998883008956909
","x: 233.66395568847656
y: 328.3273010253906
z: 0.053901176899671555
visibility: 0.9998650550842285
","x: 274.6346130371094
y: 401.771728515625
z: -0.049557872116565704
visibility: 0.9883228540420532
","x: 225.35006713867188
y: 410.57550048828125
z: 0.1225423589348793
visibility: 0.9594307541847229
","x: 304.3148193359375
y: 469.83697509765625
z: 0.11944075673818588
visibility: 0.9937525391578674
","x: 215.14439392089844
y: 484.35504150390625
z: 0.3473779261112213
visibility: 0.9720568656921387
","x: 307.72686767578125
y: 479.3255310058594
z: 0.12614624202251434
visibility: 0.9548585414886475
","x: 218.0665740966797
y: 494.65234375
z: 0.3651311993598938
visibility: 0.9461300373077393
","x: 305.1981201171875
y: 477.7966003417969
z: -0.01859319768846035
visibility: 0.993257462978363
","x: 209.387939453125
y: 509.66546630859375
z: 0.2626074552536011
visibility: 0.9832227826118469
","x: 197.63839721679688
y: 147.14195251464844
z: 0.0
","x: 201.60198974609375
y: 144.47598266601562
z: -0.00144969520624727
","x: 204.51611328125
y: 138.99612426757812
z: -0.002868521260097623
","x: 206.42703247070312
y: 134.43975830078125
z: -0.004972641821950674
","x: 208.18479919433594
y: 131.34288024902344
z: -0.0065396446734666824
","x: 201.4403839111328
y: 126.35682678222656
z: 0.0009713113540783525
","x: 202.14178466796875
y: 117.85597229003906
z: -0.0020399088971316814
","x: 202.8668975830078
y: 117.4320068359375
z: -0.0034542600624263287
","x: 203.1687774658203
y: 118.92607879638672
z: -0.0038460991345345974
","x: 199.0395965576172
y: 125.84748077392578
z: -0.0005731899873353541
","x: 198.96249389648438
y: 116.2514877319336
z: -0.0035894622560590506
","x: 199.48321533203125
y: 116.04561614990234
z: -0.00440587243065238
","x: 199.70228576660156
y: 118.1024169921875
z: -0.004186287987977266
","x: 196.70663452148438
y: 126.71498107910156
z: -0.002886397298425436
","x: 195.9788055419922
y: 118.21162414550781
z: -0.005760640371590853
","x: 196.58392333984375
y: 117.42131042480469
z: -0.005687247961759567
","x: 197.1017608642578
y: 118.4554443359375
z: -0.004909814335405827
","x: 194.43438720703125
y: 129.02337646484375
z: -0.005662049166858196
","x: 193.28463745117188
y: 122.39027404785156
z: -0.007710103411227465
","x: 193.42141723632812
y: 119.9769515991211
z: -0.007838073186576366
","x: 193.89430236816406
y: 118.91326141357422
z: -0.007330544758588076
",,,,,,,,,,,,,,,,,,,,,
5,"x: 246.7041473388672
y: 172.1505584716797
z: -0.21174463629722595
visibility: 0.999674916267395
","x: 248.13795471191406
y: 167.49581909179688
z: -0.19835138320922852
visibility: 0.9993354082107544
","x: 249.21006774902344
y: 167.5011444091797
z: -0.19837109744548798
visibility: 0.9993346929550171
","x: 250.28074645996094
y: 167.576416015625
z: -0.19834871590137482
visibility: 0.9992455244064331
","x: 244.94473266601562
y: 167.9468536376953
z: -0.18919514119625092
visibility: 0.9992309808731079
","x: 243.6546173095703
y: 168.44879150390625
z: -0.18924972414970398
visibility: 0.9991359710693359
","x: 242.32949829101562
y: 169.068359375
z: -0.18927541375160217
visibility: 0.9992448687553406
","x: 251.0973358154297
y: 172.818359375
z: -0.1394941210746765
visibility: 0.9985241889953613
","x: 239.5845489501953
y: 174.63314819335938
z: -0.08391106873750687
visibility: 0.9984284043312073
","x: 247.99169921875
y: 179.52806091308594
z: -0.18387377262115479
visibility: 0.9994689226150513
","x: 244.0907745361328
y: 180.20159912109375
z: -0.17137576639652252
visibility: 0.9994386434555054
","x: 267.0345764160156
y: 200.43649291992188
z: -0.1759704351425171
visibility: 0.9998132586479187
","x: 224.76382446289062
y: 210.21949768066406
z: -0.017570126801729202
visibility: 0.9996848702430725
","x: 261.1559143066406
y: 185.19326782226562
z: -0.3292188048362732
visibility: 0.99470055103302
","x: 196.05738830566406
y: 211.10113525390625
z: -0.09890088438987732
visibility: 0.9788222312927246
","x: 229.52685546875
y: 168.33840942382812
z: -0.4550585150718689
visibility: 0.9889966249465942
","x: 190.55233764648438
y: 166.67660522460938
z: -0.24515315890312195
visibility: 0.9852437376976013
","x: 221.05621337890625
y: 163.27392578125
z: -0.4982953667640686
visibility: 0.9768291711807251
","x: 189.90040588378906
y: 151.37591552734375
z: -0.2830813527107239
visibility: 0.9618887305259705
","x: 222.06591796875
y: 150.85110473632812
z: -0.4458521008491516
visibility: 0.9743038415908813
","x: 192.7646026611328
y: 148.4543914794922
z: -0.2750476002693176
visibility: 0.9576863050460815
","x: 223.173095703125
y: 155.16217041015625
z: -0.44273242354393005
visibility: 0.9609251618385315
","x: 194.473388671875
y: 154.07272338867188
z: -0.2494448870420456
visibility: 0.9546564817428589
","x: 264.8396911621094
y: 332.1551208496094
z: -0.02619316056370735
visibility: 0.9998677372932434
","x: 240.66278076171875
y: 336.20294189453125
z: 0.025914683938026428
visibility: 0.9998502135276794
","x: 280.36785888671875
y: 414.45538330078125
z: -0.008340572938323021
visibility: 0.9892854690551758
","x: 232.49557495117188
y: 418.17059326171875
z: 0.028872761875391006
visibility: 0.9632146954536438
","x: 311.496337890625
y: 473.4779357910156
z: 0.2417607605457306
visibility: 0.9941626191139221
","x: 214.62832641601562
y: 480.4079895019531
z: 0.28233522176742554
visibility: 0.9743920564651489
","x: 317.0072937011719
y: 482.739990234375
z: 0.26071953773498535
visibility: 0.9455527663230896
","x: 212.48390197753906
y: 484.8208923339844
z: 0.3175521492958069
visibility: 0.9392027854919434
","x: 308.2499084472656
y: 482.8213806152344
z: 0.12636546790599823
visibility: 0.99317467212677
","x: 209.8152618408203
y: 509.9404296875
z: 0.16636501252651215
visibility: 0.9836260676383972
","x: 190.86203002929688
y: 165.90518188476562
z: 0.0
","x: 194.8430633544922
y: 160.450927734375
z: -0.0020868510473519564
","x: 197.624267578125
y: 154.24346923828125
z: -0.0029495852068066597
","x: 199.164794921875
y: 148.94644165039062
z: -0.004116497002542019
","x: 200.0176239013672
y: 144.94187927246094
z: -0.005181938409805298
","x: 192.82687377929688
y: 144.7309112548828
z: 0.0003957792359869927
","x: 193.40655517578125
y: 136.51104736328125
z: -0.0015813640784472227
","x: 193.6442413330078
y: 131.7715301513672
z: -0.0030374680645763874
","x: 193.79745483398438
y: 127.60896301269531
z: -0.003936852794140577
","x: 190.1006317138672
y: 144.5203857421875
z: -0.0006659039063379169
","x: 189.92808532714844
y: 135.4446258544922
z: -0.002236647065728903
","x: 190.06021118164062
y: 129.9852294921875
z: -0.0035434935707598925
","x: 190.119384765625
y: 125.36219787597656
z: -0.004567245952785015
","x: 187.6702880859375
y: 145.80938720703125
z: -0.0023910165764391422
","x: 186.9982147216797
y: 137.97608947753906
z: -0.004716331139206886
","x: 186.8241424560547
y: 133.0865936279297
z: -0.006241708528250456
","x: 186.78176879882812
y: 129.099609375
z: -0.007154517341405153
","x: 185.4751739501953
y: 148.5178680419922
z: -0.0045501855202019215
","x: 184.14443969726562
y: 142.92495727539062
z: -0.006685751024633646
","x: 183.65719604492188
y: 139.30471801757812
z: -0.007735117804259062
","x: 183.46148681640625
y: 136.2530975341797
z: -0.008330604992806911
",,,,,,,,,,,,,,,,,,,,,
6,"x: 246.7041473388672
y: 172.1505584716797
z: -0.21174463629722595
visibility: 0.999674916267395
","x: 248.13795471191406
y: 167.49581909179688
z: -0.19835138320922852
visibility: 0.9993354082107544
","x: 249.21006774902344
y: 167.5011444091797
z: -0.19837109744548798
visibility: 0.9993346929550171
","x: 250.28074645996094
y: 167.576416015625
z: -0.19834871590137482
visibility: 0.9992455244064331
","x: 244.94473266601562
y: 167.9468536376953
z: -0.18919514119625092
visibility: 0.9992309808731079
","x: 243.6546173095703
y: 168.44879150390625
z: -0.18924972414970398
visibility: 0.9991359710693359
","x: 242.32949829101562
y: 169.068359375
z: -0.18927541375160217
visibility: 0.9992448687553406
","x: 251.0973358154297
y: 172.818359375
z: -0.1394941210746765
visibility: 0.9985241889953613
","x: 239.5845489501953
y: 174.63314819335938
z: -0.08391106873750687
visibility: 0.9984284043312073
","x: 247.99169921875
y: 179.52806091308594
z: -0.18387377262115479
visibility: 0.9994689226150513
","x: 244.0907745361328
y: 180.20159912109375
z: -0.17137576639652252
visibility: 0.9994386434555054
","x: 267.0345764160156
y: 200.43649291992188
z: -0.1759704351425171
visibility: 0.9998132586479187
","x: 224.76382446289062
y: 210.21949768066406
z: -0.017570126801729202
visibility: 0.9996848702430725
","x: 261.1559143066406
y: 185.19326782226562
z: -0.3292188048362732
visibility: 0.99470055103302
","x: 196.05738830566406
y: 211.10113525390625
z: -0.09890088438987732
visibility: 0.9788222312927246
","x: 229.52685546875
y: 168.33840942382812
z: -0.4550585150718689
visibility: 0.9889966249465942
","x: 190.55233764648438
y: 166.67660522460938
z: -0.24515315890312195
visibility: 0.9852437376976013
","x: 221.05621337890625
y: 163.27392578125
z: -0.4982953667640686
visibility: 0.9768291711807251
","x: 189.90040588378906
y: 151.37591552734375
z: -0.2830813527107239
visibility: 0.9618887305259705
","x: 222.06591796875
y: 150.85110473632812
z: -0.4458521008491516
visibility: 0.9743038415908813
","x: 192.7646026611328
y: 148.4543914794922
z: -0.2750476002693176
visibility: 0.9576863050460815
","x: 223.173095703125
y: 155.16217041015625
z: -0.44273242354393005
visibility: 0.9609251618385315
","x: 194.473388671875
y: 154.07272338867188
z: -0.2494448870420456
visibility: 0.9546564817428589
","x: 264.8396911621094
y: 332.1551208496094
z: -0.02619316056370735
visibility: 0.9998677372932434
","x: 240.66278076171875
y: 336.20294189453125
z: 0.025914683938026428
visibility: 0.9998502135276794
","x: 280.36785888671875
y: 414.45538330078125
z: -0.008340572938323021
visibility: 0.9892854690551758
","x: 232.49557495117188
y: 418.17059326171875
z: 0.028872761875391006
visibility: 0.9632146954536438
","x: 311.496337890625
y: 473.4779357910156
z: 0.2417607605457306
visibility: 0.9941626191139221
","x: 214.62832641601562
y: 480.4079895019531
z: 0.28233522176742554
visibility: 0.9743920564651489
","x: 317.0072937011719
y: 482.739990234375
z: 0.26071953773498535
visibility: 0.9455527663230896
","x: 212.48390197753906
y: 484.8208923339844
z: 0.3175521492958069
visibility: 0.9392027854919434
","x: 308.2499084472656
y: 482.8213806152344
z: 0.12636546790599823
visibility: 0.99317467212677
","x: 209.8152618408203
y: 509.9404296875
z: 0.16636501252651215
visibility: 0.9836260676383972
","x: 190.86203002929688
y: 165.90518188476562
z: 0.0
","x: 194.8430633544922
y: 160.450927734375
z: -0.0020868510473519564
","x: 197.624267578125
y: 154.24346923828125
z: -0.0029495852068066597
","x: 199.164794921875
y: 148.94644165039062
z: -0.004116497002542019
","x: 200.0176239013672
y: 144.94187927246094
z: -0.005181938409805298
","x: 192.82687377929688
y: 144.7309112548828
z: 0.0003957792359869927
","x: 193.40655517578125
y: 136.51104736328125
z: -0.0015813640784472227
","x: 193.6442413330078
y: 131.7715301513672
z: -0.0030374680645763874
","x: 193.79745483398438
y: 127.60896301269531
z: -0.003936852794140577
","x: 190.1006317138672
y: 144.5203857421875
z: -0.0006659039063379169
","x: 189.92808532714844
y: 135.4446258544922
z: -0.002236647065728903
","x: 190.06021118164062
y: 129.9852294921875
z: -0.0035434935707598925
","x: 190.119384765625
y: 125.36219787597656
z: -0.004567245952785015
","x: 187.6702880859375
y: 145.80938720703125
z: -0.0023910165764391422
","x: 186.9982147216797
y: 137.97608947753906
z: -0.004716331139206886
","x: 186.8241424560547
y: 133.0865936279297
z: -0.006241708528250456
","x: 186.78176879882812
y: 129.099609375
z: -0.007154517341405153
","x: 185.4751739501953
y: 148.5178680419922
z: -0.0045501855202019215
","x: 184.14443969726562
y: 142.92495727539062
z: -0.006685751024633646
","x: 183.65719604492188
y: 139.30471801757812
z: -0.007735117804259062
","x: 183.46148681640625
y: 136.2530975341797
z: -0.008330604992806911
",,,,,,,,,,,,,,,,,,,,,
7,"x: 265.765625
y: 190.97491455078125
z: -0.22601523995399475
visibility: 0.9992820620536804
","x: 266.6311950683594
y: 184.75152587890625
z: -0.21172019839286804
visibility: 0.9986792206764221
","x: 267.6439208984375
y: 185.12274169921875
z: -0.21172580122947693
visibility: 0.9985525012016296
","x: 268.6537780761719
y: 185.6186065673828
z: -0.21170198917388916
visibility: 0.9983028173446655
","x: 262.855712890625
y: 184.22210693359375
z: -0.21187512576580048
visibility: 0.9985243678092957
","x: 261.35382080078125
y: 184.30667114257812
z: -0.21194711327552795
visibility: 0.9983735084533691
","x: 259.78302001953125
y: 184.5440673828125
z: -0.2119966745376587
visibility: 0.998666524887085
","x: 266.4119873046875
y: 189.7866973876953
z: -0.13348039984703064
visibility: 0.9967105388641357
","x: 255.82546997070312
y: 189.12030029296875
z: -0.12818239629268646
visibility: 0.9974794387817383
","x: 265.70758056640625
y: 198.64035034179688
z: -0.1940976083278656
visibility: 0.9987891316413879
","x: 261.43255615234375
y: 198.4571075439453
z: -0.1943514347076416
visibility: 0.9990605115890503
","x: 277.8055419921875
y: 217.8952178955078
z: -0.15295688807964325
visibility: 0.9995015859603882
","x: 234.28016662597656
y: 223.6319580078125
z: -0.06402837485074997
visibility: 0.9994615316390991
","x: 261.66876220703125
y: 221.64109802246094
z: -0.26269882917404175
visibility: 0.9864697456359863
","x: 201.88442993164062
y: 224.00054931640625
z: -0.1187322735786438
visibility: 0.978682816028595
","x: 231.06373596191406
y: 205.03399658203125
z: -0.36996525526046753
visibility: 0.9725223779678345
","x: 192.83389282226562
y: 172.51889038085938
z: -0.21327464282512665
visibility: 0.978269636631012
","x: 222.21717834472656
y: 204.54461669921875
z: -0.4099833369255066
visibility: 0.9546163082122803
","x: 190.2858123779297
y: 161.30734252929688
z: -0.24728350341320038
visibility: 0.9486068487167358
","x: 222.76316833496094
y: 195.23008728027344
z: -0.4018518030643463
visibility: 0.950812578201294
","x: 192.71388244628906
y: 158.23373413085938
z: -0.24622997641563416
visibility: 0.9449182152748108
","x: 225.62144470214844
y: 197.74513244628906
z: -0.37053948640823364
visibility: 0.9332373738288879
","x: 194.8863983154297
y: 163.53366088867188
z: -0.21929295361042023
visibility: 0.941532552242279
","x: 271.75482177734375
y: 352.2351379394531
z: -0.008396219462156296
visibility: 0.9998420476913452
","x: 247.67698669433594
y: 350.2738952636719
z: 0.008110562339425087
visibility: 0.9998393654823303
","x: 286.2110595703125
y: 431.9237976074219
z: 0.036220237612724304
visibility: 0.9897476434707642
","x: 237.24258422851562
y: 428.4845275878906
z: 0.023175807669758797
visibility: 0.9663676619529724
","x: 312.7245788574219
y: 481.70977783203125
z: 0.31166163086891174
visibility: 0.9941315650939941
","x: 214.0733642578125
y: 479.52679443359375
z: 0.2636759877204895
visibility: 0.976224422454834
","x: 317.6360778808594
y: 487.0185546875
z: 0.3353075385093689
visibility: 0.9377577304840088
","x: 211.7424774169922
y: 481.435546875
z: 0.30386167764663696
visibility: 0.9341543316841125
","x: 308.29229736328125
y: 488.1490783691406
z: 0.2297913134098053
visibility: 0.9921513795852661
","x: 208.65737915039062
y: 510.5404052734375
z: 0.1696603149175644
visibility: 0.9829596281051636
","x: 191.6305694580078
y: 176.06991577148438
z: 0.0
","x: 195.4639892578125
y: 170.3455810546875
z: -0.001714662997983396
","x: 198.1649627685547
y: 163.38555908203125
z: -0.0024465913884341717
","x: 199.58631896972656
y: 157.41482543945312
z: -0.003476921236142516
","x: 200.99183654785156
y: 152.87258911132812
z: -0.00440972251817584
","x: 193.31280517578125
y: 155.7072296142578
z: 0.0005449951277114451
","x: 193.4182891845703
y: 147.52520751953125
z: -0.001387140597216785
","x: 193.27882385253906
y: 143.1927490234375
z: -0.00269015203230083
","x: 193.08047485351562
y: 139.37303161621094
z: -0.0034809084609150887
","x: 190.45420837402344
y: 155.85882568359375
z: -0.0006412452203221619
","x: 189.70237731933594
y: 147.41143798828125
z: -0.002192645100876689
","x: 189.28848266601562
y: 142.446533203125
z: -0.0033059597481042147
","x: 188.8319091796875
y: 137.9813995361328
z: -0.004168752580881119
","x: 188.05548095703125
y: 157.51995849609375
z: -0.002472447231411934
","x: 186.82559204101562
y: 149.80853271484375
z: -0.004869641736149788
","x: 186.10606384277344
y: 144.78846740722656
z: -0.006401671562343836
","x: 185.50814819335938
y: 140.47750854492188
z: -0.0073075140826404095
","x: 186.0579071044922
y: 160.4698486328125
z: -0.004649420268833637
","x: 184.47698974609375
y: 155.13577270507812
z: -0.0069551593624055386
","x: 183.51695251464844
y: 151.60992431640625
z: -0.008075330406427383
","x: 182.70362854003906
y: 148.5791473388672
z: -0.008694582618772984
",,,,,,,,,,,,,,,,,,,,,
8,"x: 265.765625
y: 190.97491455078125
z: -0.22601523995399475
visibility: 0.9992820620536804
","x: 266.6311950683594
y: 184.75152587890625
z: -0.21172019839286804
visibility: 0.9986792206764221
","x: 267.6439208984375
y: 185.12274169921875
z: -0.21172580122947693
visibility: 0.9985525012016296
","x: 268.6537780761719
y: 185.6186065673828
z: -0.21170198917388916
visibility: 0.9983028173446655
","x: 262.855712890625
y: 184.22210693359375
z: -0.21187512576580048
visibility: 0.9985243678092957
","x: 261.35382080078125
y: 184.30667114257812
z: -0.21194711327552795
visibility: 0.9983735084533691
","x: 259.78302001953125
y: 184.5440673828125
z: -0.2119966745376587
visibility: 0.998666524887085
","x: 266.4119873046875
y: 189.7866973876953
z: -0.13348039984703064
visibility: 0.9967105388641357
","x: 255.82546997070312
y: 189.12030029296875
z: -0.12818239629268646
visibility: 0.9974794387817383
","x: 265.70758056640625
y: 198.64035034179688
z: -0.1940976083278656
visibility: 0.9987891316413879
","x: 261.43255615234375
y: 198.4571075439453
z: -0.1943514347076416
visibility: 0.9990605115890503
","x: 277.8055419921875
y: 217.8952178955078
z: -0.15295688807964325
visibility: 0.9995015859603882
","x: 234.28016662597656
y: 223.6319580078125
z: -0.06402837485074997
visibility: 0.9994615316390991
","x: 261.66876220703125
y: 221.64109802246094
z: -0.26269882917404175
visibility: 0.9864697456359863
","x: 201.88442993164062
y: 224.00054931640625
z: -0.1187322735786438
visibility: 0.978682816028595
","x: 231.06373596191406
y: 205.03399658203125
z: -0.36996525526046753
visibility: 0.9725223779678345
","x: 192.83389282226562
y: 172.51889038085938
z: -0.21327464282512665
visibility: 0.978269636631012
","x: 222.21717834472656
y: 204.54461669921875
z: -0.4099833369255066
visibility: 0.9546163082122803
","x: 190.2858123779297
y: 161.30734252929688
z: -0.24728350341320038
visibility: 0.9486068487167358
","x: 222.76316833496094
y: 195.23008728027344
z: -0.4018518030643463
visibility: 0.950812578201294
","x: 192.71388244628906
y: 158.23373413085938
z: -0.24622997641563416
visibility: 0.9449182152748108
","x: 225.62144470214844
y: 197.74513244628906
z: -0.37053948640823364
visibility: 0.9332373738288879
","x: 194.8863983154297
y: 163.53366088867188
z: -0.21929295361042023
visibility: 0.941532552242279
","x: 271.75482177734375
y: 352.2351379394531
z: -0.008396219462156296
visibility: 0.9998420476913452
","x: 247.67698669433594
y: 350.2738952636719
z: 0.008110562339425087
visibility: 0.9998393654823303
","x: 286.2110595703125
y: 431.9237976074219
z: 0.036220237612724304
visibility: 0.9897476434707642
","x: 237.24258422851562
y: 428.4845275878906
z: 0.023175807669758797
visibility: 0.9663676619529724
","x: 312.7245788574219
y: 481.70977783203125
z: 0.31166163086891174
visibility: 0.9941315650939941
","x: 214.0733642578125
y: 479.52679443359375
z: 0.2636759877204895
visibility: 0.976224422454834
","x: 317.6360778808594
y: 487.0185546875
z: 0.3353075385093689
visibility: 0.9377577304840088
","x: 211.7424774169922
y: 481.435546875
z: 0.30386167764663696
visibility: 0.9341543316841125
","x: 308.29229736328125
y: 488.1490783691406
z: 0.2297913134098053
visibility: 0.9921513795852661
","x: 208.65737915039062
y: 510.5404052734375
z: 0.1696603149175644
visibility: 0.9829596281051636
","x: 191.6305694580078
y: 176.06991577148438
z: 0.0
","x: 195.4639892578125
y: 170.3455810546875
z: -0.001714662997983396
","x: 198.1649627685547
y: 163.38555908203125
z: -0.0024465913884341717
","x: 199.58631896972656
y: 157.41482543945312
z: -0.003476921236142516
","x: 200.99183654785156
y: 152.87258911132812
z: -0.00440972251817584
","x: 193.31280517578125
y: 155.7072296142578
z: 0.0005449951277114451
","x: 193.4182891845703
y: 147.52520751953125
z: -0.001387140597216785
","x: 193.27882385253906
y: 143.1927490234375
z: -0.00269015203230083
","x: 193.08047485351562
y: 139.37303161621094
z: -0.0034809084609150887
","x: 190.45420837402344
y: 155.85882568359375
z: -0.0006412452203221619
","x: 189.70237731933594
y: 147.41143798828125
z: -0.002192645100876689
","x: 189.28848266601562
y: 142.446533203125
z: -0.0033059597481042147
","x: 188.8319091796875
y: 137.9813995361328
z: -0.004168752580881119
","x: 188.05548095703125
y: 157.51995849609375
z: -0.002472447231411934
","x: 186.82559204101562
y: 149.80853271484375
z: -0.004869641736149788
","x: 186.10606384277344
y: 144.78846740722656
z: -0.006401671562343836
","x: 185.50814819335938
y: 140.47750854492188
z: -0.0073075140826404095
","x: 186.0579071044922
y: 160.4698486328125
z: -0.004649420268833637
","x: 184.47698974609375
y: 155.13577270507812
z: -0.0069551593624055386
","x: 183.51695251464844
y: 151.60992431640625
z: -0.008075330406427383
","x: 182.70362854003906
y: 148.5791473388672
z: -0.008694582618772984
",,,,,,,,,,,,,,,,,,,,,
9,"x: 256.9681396484375
y: 201.725341796875
z: -0.2347119152545929
visibility: 0.9990140795707703
","x: 259.7642517089844
y: 194.5493927001953
z: -0.219328835606575
visibility: 0.9982105493545532
","x: 261.4335021972656
y: 194.56829833984375
z: -0.2193637639284134
visibility: 0.9980294704437256
","x: 263.1047668457031
y: 194.67062377929688
z: -0.21934854984283447
visibility: 0.9977546334266663
","x: 255.7385711669922
y: 194.48594665527344
z: -0.21422366797924042
visibility: 0.9977538585662842
","x: 254.48367309570312
y: 194.5362548828125
z: -0.2143063098192215
visibility: 0.9973551630973816
","x: 253.2550048828125
y: 194.6256866455078
z: -0.21435220539569855
visibility: 0.9979227185249329
","x: 265.87109375
y: 197.51904296875
z: -0.13382481038570404
visibility: 0.9955562353134155
","x: 252.48587036132812
y: 197.5366973876953
z: -0.10354579985141754
visibility: 0.9957488775253296
","x: 259.63568115234375
y: 208.66712951660156
z: -0.20168223977088928
visibility: 0.9983707070350647
","x: 255.10577392578125
y: 208.1869354248047
z: -0.19412389397621155
visibility: 0.9985559582710266
","x: 276.2187805175781
y: 226.75711059570312
z: -0.15144082903862
visibility: 0.999461829662323
","x: 236.6284942626953
y: 228.79611206054688
z: -0.0396074540913105
visibility: 0.9993627667427063
","x: 257.8088684082031
y: 244.5016632080078
z: -0.27030718326568604
visibility: 0.9849579930305481
","x: 210.1324920654297
y: 223.8632049560547
z: -0.13165058195590973
visibility: 0.9800286889076233
","x: 230.22328186035156
y: 246.73974609375
z: -0.3621539771556854
visibility: 0.9659973382949829
","x: 205.7106170654297
y: 165.94468688964844
z: -0.27110952138900757
visibility: 0.9792552590370178
","x: 224.6144256591797
y: 245.12567138671875
z: -0.4030829966068268
visibility: 0.9409858584403992
","x: 204.6573944091797
y: 150.08131408691406
z: -0.31687942147254944
visibility: 0.9505226612091064
","x: 218.57090759277344
y: 240.9925537109375
z: -0.3979726731777191
visibility: 0.9358713030815125
","x: 207.587890625
y: 146.0745086669922
z: -0.3091677725315094
visibility: 0.9469048380851746
","x: 225.20396423339844
y: 241.70596313476562
z: -0.3638351261615753
visibility: 0.915289044380188
","x: 209.23001098632812
y: 152.09481811523438
z: -0.2767397165298462
visibility: 0.9434565901756287
","x: 266.4424133300781
y: 358.32568359375
z: -0.021323312073946
visibility: 0.9998087286949158
","x: 241.6454315185547
y: 354.16876220703125
z: 0.02104596048593521
visibility: 0.9998025894165039
","x: 280.231689453125
y: 435.84613037109375
z: -0.008415468037128448
visibility: 0.9900203943252563
","x: 229.2957305908203
y: 425.28662109375
z: 0.028660451993346214
visibility: 0.9692373275756836
","x: 311.37591552734375
y: 482.79132080078125
z: 0.21320044994354248
visibility: 0.9940894842147827
","x: 214.66456604003906
y: 480.998291015625
z: 0.25951382517814636
visibility: 0.9778541326522827
","x: 317.62554931640625
y: 487.3948974609375
z: 0.22945067286491394
visibility: 0.9265239834785461
","x: 213.83755493164062
y: 485.2816467285156
z: 0.2963907718658447
visibility: 0.9282525181770325
","x: 309.2657470703125
y: 490.4046630859375
z: 0.10288244485855103
visibility: 0.9913036227226257
","x: 210.5219268798828
y: 512.6383056640625
z: 0.1611344963312149
visibility: 0.9829782843589783
","x: 207.26901245117188
y: 162.11004638671875
z: 0.0
","x: 211.83685302734375
y: 156.94635009765625
z: -0.000882203399669379
","x: 215.2666015625
y: 151.09957885742188
z: -0.0020006364211440086
","x: 217.27716064453125
y: 146.5557861328125
z: -0.004034406039863825
","x: 218.56312561035156
y: 143.432861328125
z: -0.005295065231621265
","x: 209.8423309326172
y: 138.2391357421875
z: 0.0022695569787174463
","x: 210.19970703125
y: 129.23875427246094
z: -0.00023735973809380084
","x: 211.03213500976562
y: 131.28009033203125
z: -0.0014613392995670438
","x: 211.43553161621094
y: 135.2891387939453
z: -0.001713958801701665
","x: 207.03753662109375
y: 138.26116943359375
z: 0.0006055210251361132
","x: 206.92416381835938
y: 129.0344696044922
z: -0.001986116636544466
","x: 207.7926788330078
y: 130.96035766601562
z: -0.0026799216866493225
","x: 208.19418334960938
y: 134.78054809570312
z: -0.0023175913374871016
","x: 204.35153198242188
y: 139.47634887695312
z: -0.0018034541280940175
","x: 204.09632873535156
y: 131.7393341064453
z: -0.003908075857907534
","x: 204.9769744873047
y: 132.7198944091797
z: -0.0034757766406983137
","x: 205.557861328125
y: 135.3932342529297
z: -0.0025495390873402357
","x: 201.7443084716797
y: 141.9063262939453
z: -0.004722545389086008
","x: 201.01805114746094
y: 135.78640747070312
z: -0.0059061199426651
","x: 201.4144744873047
y: 135.50405883789062
z: -0.005526142660528421
","x: 201.81871032714844
y: 136.8325958251953
z: -0.004729702137410641
",,,,,,,,,,,,,,,,,,,,,
10,"x: 256.9681396484375
y: 201.725341796875
z: -0.2347119152545929
visibility: 0.9990140795707703
","x: 259.7642517089844
y: 194.5493927001953
z: -0.219328835606575
visibility: 0.9982105493545532
","x: 261.4335021972656
y: 194.56829833984375
z: -0.2193637639284134
visibility: 0.9980294704437256
","x: 263.1047668457031
y: 194.67062377929688
z: -0.21934854984283447
visibility: 0.9977546334266663
","x: 255.7385711669922
y: 194.48594665527344
z: -0.21422366797924042
visibility: 0.9977538585662842
","x: 254.48367309570312
y: 194.5362548828125
z: -0.2143063098192215
visibility: 0.9973551630973816
","x: 253.2550048828125
y: 194.6256866455078
z: -0.21435220539569855
visibility: 0.9979227185249329
","x: 265.87109375
y: 197.51904296875
z: -0.13382481038570404
visibility: 0.9955562353134155
","x: 252.48587036132812
y: 197.5366973876953
z: -0.10354579985141754
visibility: 0.9957488775253296
","x: 259.63568115234375
y: 208.66712951660156
z: -0.20168223977088928
visibility: 0.9983707070350647
","x: 255.10577392578125
y: 208.1869354248047
z: -0.19412389397621155
visibility: 0.9985559582710266
","x: 276.2187805175781
y: 226.75711059570312
z: -0.15144082903862
visibility: 0.999461829662323
","x: 236.6284942626953
y: 228.79611206054688
z: -0.0396074540913105
visibility: 0.9993627667427063
","x: 257.8088684082031
y: 244.5016632080078
z: -0.27030718326568604
visibility: 0.9849579930305481
","x: 210.1324920654297
y: 223.8632049560547
z: -0.13165058195590973
visibility: 0.9800286889076233
","x: 230.22328186035156
y: 246.73974609375
z: -0.3621539771556854
visibility: 0.9659973382949829
","x: 205.7106170654297
y: 165.94468688964844
z: -0.27110952138900757
visibility: 0.9792552590370178
","x: 224.6144256591797
y: 245.12567138671875
z: -0.4030829966068268
visibility: 0.9409858584403992
","x: 204.6573944091797
y: 150.08131408691406
z: -0.31687942147254944
visibility: 0.9505226612091064
","x: 218.57090759277344
y: 240.9925537109375
z: -0.3979726731777191
visibility: 0.9358713030815125
","x: 207.587890625
y: 146.0745086669922
z: -0.3091677725315094
visibility: 0.9469048380851746
","x: 225.20396423339844
y: 241.70596313476562
z: -0.3638351261615753
visibility: 0.915289044380188
","x: 209.23001098632812
y: 152.09481811523438
z: -0.2767397165298462
visibility: 0.9434565901756287
","x: 266.4424133300781
y: 358.32568359375
z: -0.021323312073946
visibility: 0.9998087286949158
","x: 241.6454315185547
y: 354.16876220703125
z: 0.02104596048593521
visibility: 0.9998025894165039
","x: 280.231689453125
y: 435.84613037109375
z: -0.008415468037128448
visibility: 0.9900203943252563
","x: 229.2957305908203
y: 425.28662109375
z: 0.028660451993346214
visibility: 0.9692373275756836
","x: 311.37591552734375
y: 482.79132080078125
z: 0.21320044994354248
visibility: 0.9940894842147827
","x: 214.66456604003906
y: 480.998291015625
z: 0.25951382517814636
visibility: 0.9778541326522827
","x: 317.62554931640625
y: 487.3948974609375
z: 0.22945067286491394
visibility: 0.9265239834785461
","x: 213.83755493164062
y: 485.2816467285156
z: 0.2963907718658447
visibility: 0.9282525181770325
","x: 309.2657470703125
y: 490.4046630859375
z: 0.10288244485855103
visibility: 0.9913036227226257
","x: 210.5219268798828
y: 512.6383056640625
z: 0.1611344963312149
visibility: 0.9829782843589783
","x: 207.26901245117188
y: 162.11004638671875
z: 0.0
","x: 211.83685302734375
y: 156.94635009765625
z: -0.000882203399669379
","x: 215.2666015625
y: 151.09957885742188
z: -0.0020006364211440086
","x: 217.27716064453125
y: 146.5557861328125
z: -0.004034406039863825
","x: 218.56312561035156
y: 143.432861328125
z: -0.005295065231621265
","x: 209.8423309326172
y: 138.2391357421875
z: 0.0022695569787174463
","x: 210.19970703125
y: 129.23875427246094
z: -0.00023735973809380084
","x: 211.03213500976562
y: 131.28009033203125
z: -0.0014613392995670438
","x: 211.43553161621094
y: 135.2891387939453
z: -0.001713958801701665
","x: 207.03753662109375
y: 138.26116943359375
z: 0.0006055210251361132
","x: 206.92416381835938
y: 129.0344696044922
z: -0.001986116636544466
","x: 207.7926788330078
y: 130.96035766601562
z: -0.0026799216866493225
","x: 208.19418334960938
y: 134.78054809570312
z: -0.0023175913374871016
","x: 204.35153198242188
y: 139.47634887695312
z: -0.0018034541280940175
","x: 204.09632873535156
y: 131.7393341064453
z: -0.003908075857907534
","x: 204.9769744873047
y: 132.7198944091797
z: -0.0034757766406983137
","x: 205.557861328125
y: 135.3932342529297
z: -0.0025495390873402357
","x: 201.7443084716797
y: 141.9063262939453
z: -0.004722545389086008
","x: 201.01805114746094
y: 135.78640747070312
z: -0.0059061199426651
","x: 201.4144744873047
y: 135.50405883789062
z: -0.005526142660528421
","x: 201.81871032714844
y: 136.8325958251953
z: -0.004729702137410641
",,,,,,,,,,,,,,,,,,,,,
11,"x: 245.72354125976562
y: 207.11892700195312
z: -0.14374469220638275
visibility: 0.9989433884620667
","x: 247.85643005371094
y: 199.1810302734375
z: -0.14424990117549896
visibility: 0.9980141520500183
","x: 249.3368377685547
y: 198.4944305419922
z: -0.14429666101932526
visibility: 0.9978392720222473
","x: 250.9302215576172
y: 197.86843872070312
z: -0.14433492720127106
visibility: 0.9976449012756348
","x: 244.8681182861328
y: 199.76116943359375
z: -0.12539242208003998
visibility: 0.9970284104347229
","x: 244.15357971191406
y: 199.52548217773438
z: -0.12539611756801605
visibility: 0.9960947632789612
","x: 243.56320190429688
y: 199.22555541992188
z: -0.12543942034244537
visibility: 0.9970175623893738
","x: 254.69544982910156
y: 197.30316162109375
z: -0.10458475351333618
visibility: 0.9956785440444946
","x: 243.18963623046875
y: 198.89854431152344
z: -0.011586199514567852
visibility: 0.9943849444389343
","x: 248.5684814453125
y: 212.2718963623047
z: -0.12592609226703644
visibility: 0.9982511401176453
","x: 244.88055419921875
y: 211.4460906982422
z: -0.09941290318965912
visibility: 0.9980090856552124
","x: 268.4371643066406
y: 227.32102966308594
z: -0.1250593513250351
visibility: 0.9995045065879822
","x: 230.64768981933594
y: 226.508544921875
z: 0.06982144713401794
visibility: 0.9993591904640198
","x: 243.00762939453125
y: 243.7472686767578
z: -0.20443256199359894
visibility: 0.9839878082275391
","x: 215.60455322265625
y: 208.57180786132812
z: 0.11975809186697006
visibility: 0.9747992157936096
","x: 220.37013244628906
y: 248.8297119140625
z: -0.21319904923439026
visibility: 0.9586676359176636
","x: 223.1634521484375
y: 159.1102752685547
z: 0.14837807416915894
visibility: 0.9727690815925598
","x: 214.19920349121094
y: 251.79464721679688
z: -0.24186649918556213
visibility: 0.9273775219917297
","x: 224.3257598876953
y: 143.43885803222656
z: 0.13044872879981995
visibility: 0.9385092854499817
","x: 212.865234375
y: 250.42730712890625
z: -0.2407059222459793
visibility: 0.9211463928222656
","x: 225.24920654296875
y: 140.09100341796875
z: 0.13014425337314606
visibility: 0.9340854287147522
","x: 214.5325164794922
y: 249.95111083984375
z: -0.21339447796344757
visibility: 0.8973389863967896
","x: 225.52073669433594
y: 146.13189697265625
z: 0.14263907074928284
visibility: 0.9305455088615417
","x: 259.8537292480469
y: 354.1866760253906
z: -0.04039647430181503
visibility: 0.9998112320899963
","x: 240.50991821289062
y: 349.7589111328125
z: 0.04020238295197487
visibility: 0.9998095631599426
","x: 266.115234375
y: 432.7771301269531
z: -0.09682751446962357
visibility: 0.9898730516433716
","x: 221.72781372070312
y: 422.90643310546875
z: 0.02651592716574669
visibility: 0.9718632102012634
","x: 292.0386657714844
y: 482.39544677734375
z: 0.12794159352779388
visibility: 0.9937981963157654
","x: 217.53224182128906
y: 485.75811767578125
z: 0.22217056155204773
visibility: 0.9795284271240234
","x: 297.7705078125
y: 486.6435546875
z: 0.1472635567188263
visibility: 0.9221577644348145
","x: 221.67132568359375
y: 493.4486389160156
z: 0.24062982201576233
visibility: 0.9324590563774109
","x: 290.873291015625
y: 492.0272216796875
z: 0.04413945972919464
visibility: 0.9906718134880066
","x: 210.44952392578125
y: 515.009521484375
z: 0.15155094861984253
visibility: 0.9837886095046997
","x: 226.39927673339844
y: 156.6824188232422
z: 0.0
","x: 230.1853485107422
y: 151.82315063476562
z: 0.0008696767035871744
","x: 231.7164306640625
y: 144.96029663085938
z: 0.0013617529766634107
","x: 232.60118103027344
y: 140.08132934570312
z: 0.0009275729535147548
","x: 233.7808380126953
y: 136.6470947265625
z: 0.0005156787810847163
","x: 227.5558319091797
y: 135.58676147460938
z: 0.004903329070657492
","x: 227.97537231445312
y: 128.20892333984375
z: 0.0037017413415014744
","x: 228.25894165039062
y: 123.58329772949219
z: 0.002588084200397134
","x: 228.36007690429688
y: 119.55317687988281
z: 0.0018964202608913183
","x: 225.88687133789062
y: 134.88429260253906
z: 0.002435490256175399
","x: 225.48773193359375
y: 125.71060943603516
z: 0.0016795805422589183
","x: 225.5745849609375
y: 120.1383285522461
z: 0.0005769743584096432
","x: 225.5851593017578
y: 115.25918579101562
z: -0.0002770227147266269
","x: 224.28587341308594
y: 135.2713165283203
z: -0.0006797902751713991
","x: 223.44276428222656
y: 126.57858276367188
z: -0.002131228568032384
","x: 223.34996032714844
y: 121.35626983642578
z: -0.003102595917880535
","x: 223.2811737060547
y: 116.9419174194336
z: -0.0036483665462583303
","x: 222.7752685546875
y: 136.93612670898438
z: -0.004075830336660147
","x: 221.46971130371094
y: 129.8290252685547
z: -0.005656592082232237
","x: 221.09445190429688
y: 125.09429168701172
z: -0.0064044492319226265
","x: 220.8732452392578
y: 120.9578628540039
z: -0.0067735277116298676
",,,,,,,,,,,,,,,,,,,,,
12,"x: 245.72354125976562
y: 207.11892700195312
z: -0.14374469220638275
visibility: 0.9989433884620667
","x: 247.85643005371094
y: 199.1810302734375
z: -0.14424990117549896
visibility: 0.9980141520500183
","x: 249.3368377685547
y: 198.4944305419922
z: -0.14429666101932526
visibility: 0.9978392720222473
","x: 250.9302215576172
y: 197.86843872070312
z: -0.14433492720127106
visibility: 0.9976449012756348
","x: 244.8681182861328
y: 199.76116943359375
z: -0.12539242208003998
visibility: 0.9970284104347229
","x: 244.15357971191406
y: 199.52548217773438
z: -0.12539611756801605
visibility: 0.9960947632789612
","x: 243.56320190429688
y: 199.22555541992188
z: -0.12543942034244537
visibility: 0.9970175623893738
","x: 254.69544982910156
y: 197.30316162109375
z: -0.10458475351333618
visibility: 0.9956785440444946
","x: 243.18963623046875
y: 198.89854431152344
z: -0.011586199514567852
visibility: 0.9943849444389343
","x: 248.5684814453125
y: 212.2718963623047
z: -0.12592609226703644
visibility: 0.9982511401176453
","x: 244.88055419921875
y: 211.4460906982422
z: -0.09941290318965912
visibility: 0.9980090856552124
","x: 268.4371643066406
y: 227.32102966308594
z: -0.1250593513250351
visibility: 0.9995045065879822
","x: 230.64768981933594
y: 226.508544921875
z: 0.06982144713401794
visibility: 0.9993591904640198
","x: 243.00762939453125
y: 243.7472686767578
z: -0.20443256199359894
visibility: 0.9839878082275391
","x: 215.60455322265625
y: 208.57180786132812
z: 0.11975809186697006
visibility: 0.9747992157936096
","x: 220.37013244628906
y: 248.8297119140625
z: -0.21319904923439026
visibility: 0.9586676359176636
","x: 223.1634521484375
y: 159.1102752685547
z: 0.14837807416915894
visibility: 0.9727690815925598
","x: 214.19920349121094
y: 251.79464721679688
z: -0.24186649918556213
visibility: 0.9273775219917297
","x: 224.3257598876953
y: 143.43885803222656
z: 0.13044872879981995
visibility: 0.9385092854499817
","x: 212.865234375
y: 250.42730712890625
z: -0.2407059222459793
visibility: 0.9211463928222656
","x: 225.24920654296875
y: 140.09100341796875
z: 0.13014425337314606
visibility: 0.9340854287147522
","x: 214.5325164794922
y: 249.95111083984375
z: -0.21339447796344757
visibility: 0.8973389863967896
","x: 225.52073669433594
y: 146.13189697265625
z: 0.14263907074928284
visibility: 0.9305455088615417
","x: 259.8537292480469
y: 354.1866760253906
z: -0.04039647430181503
visibility: 0.9998112320899963
","x: 240.50991821289062
y: 349.7589111328125
z: 0.04020238295197487
visibility: 0.9998095631599426
","x: 266.115234375
y: 432.7771301269531
z: -0.09682751446962357
visibility: 0.9898730516433716
","x: 221.72781372070312
y: 422.90643310546875
z: 0.02651592716574669
visibility: 0.9718632102012634
","x: 292.0386657714844
y: 482.39544677734375
z: 0.12794159352779388
visibility: 0.9937981963157654
","x: 217.53224182128906
y: 485.75811767578125
z: 0.22217056155204773
visibility: 0.9795284271240234
","x: 297.7705078125
y: 486.6435546875
z: 0.1472635567188263
visibility: 0.9221577644348145
","x: 221.67132568359375
y: 493.4486389160156
z: 0.24062982201576233
visibility: 0.9324590563774109
","x: 290.873291015625
y: 492.0272216796875
z: 0.04413945972919464
visibility: 0.9906718134880066
","x: 210.44952392578125
y: 515.009521484375
z: 0.15155094861984253
visibility: 0.9837886095046997
","x: 226.39927673339844
y: 156.6824188232422
z: 0.0
","x: 230.1853485107422
y: 151.82315063476562
z: 0.0008696767035871744
","x: 231.7164306640625
y: 144.96029663085938
z: 0.0013617529766634107
","x: 232.60118103027344
y: 140.08132934570312
z: 0.0009275729535147548
","x: 233.7808380126953
y: 136.6470947265625
z: 0.0005156787810847163
","x: 227.5558319091797
y: 135.58676147460938
z: 0.004903329070657492
","x: 227.97537231445312
y: 128.20892333984375
z: 0.0037017413415014744
","x: 228.25894165039062
y: 123.58329772949219
z: 0.002588084200397134
","x: 228.36007690429688
y: 119.55317687988281
z: 0.0018964202608913183
","x: 225.88687133789062
y: 134.88429260253906
z: 0.002435490256175399
","x: 225.48773193359375
y: 125.71060943603516
z: 0.0016795805422589183
","x: 225.5745849609375
y: 120.1383285522461
z: 0.0005769743584096432
","x: 225.5851593017578
y: 115.25918579101562
z: -0.0002770227147266269
","x: 224.28587341308594
y: 135.2713165283203
z: -0.0006797902751713991
","x: 223.44276428222656
y: 126.57858276367188
z: -0.002131228568032384
","x: 223.34996032714844
y: 121.35626983642578
z: -0.003102595917880535
","x: 223.2811737060547
y: 116.9419174194336
z: -0.0036483665462583303
","x: 222.7752685546875
y: 136.93612670898438
z: -0.004075830336660147
","x: 221.46971130371094
y: 129.8290252685547
z: -0.005656592082232237
","x: 221.09445190429688
y: 125.09429168701172
z: -0.0064044492319226265
","x: 220.8732452392578
y: 120.9578628540039
z: -0.0067735277116298676
",,,,,,,,,,,,,,,,,,,,,
13,"x: 240.90185546875
y: 204.93228149414062
z: -0.16586145758628845
visibility: 0.9978917241096497
","x: 243.85423278808594
y: 196.0414276123047
z: -0.16313908994197845
visibility: 0.9962819218635559
","x: 245.6138458251953
y: 195.2156219482422
z: -0.16319116950035095
visibility: 0.9959667921066284
","x: 247.404296875
y: 194.52169799804688
z: -0.16323155164718628
visibility: 0.9959530830383301
","x: 238.23757934570312
y: 197.97161865234375
z: -0.14604917168617249
visibility: 0.9943749308586121
","x: 236.4708709716797
y: 198.34107971191406
z: -0.14606770873069763
visibility: 0.9927104711532593
","x: 234.92962646484375
y: 198.5395965576172
z: -0.14611175656318665
visibility: 0.9945651888847351
","x: 252.93093872070312
y: 194.93157958984375
z: -0.10735730081796646
visibility: 0.9942508935928345
","x: 237.61268615722656
y: 198.03231811523438
z: -0.026779239997267723
visibility: 0.9908583760261536
","x: 246.2161407470703
y: 209.68125915527344
z: -0.143192857503891
visibility: 0.9971824884414673
","x: 240.61831665039062
y: 210.50840759277344
z: -0.12004919350147247
visibility: 0.9962550401687622
","x: 264.1376037597656
y: 230.43417358398438
z: -0.11449776589870453
visibility: 0.9994213581085205
","x: 229.54623413085938
y: 227.0498809814453
z: 0.056057803332805634
visibility: 0.9991058111190796
","x: 247.87432861328125
y: 256.1315612792969
z: -0.262578547000885
visibility: 0.9811068177223206
","x: 209.0814666748047
y: 210.76565551757812
z: -0.0723806768655777
visibility: 0.9751143455505371
","x: 232.15975952148438
y: 253.60659790039062
z: -0.4313863217830658
visibility: 0.9492339491844177
","x: 211.8455810546875
y: 159.66656494140625
z: -0.28210458159446716
visibility: 0.973589301109314
","x: 228.64205932617188
y: 252.9680633544922
z: -0.4748469293117523
visibility: 0.9130144715309143
","x: 212.01080322265625
y: 144.2863311767578
z: -0.3256516754627228
visibility: 0.9395738840103149
","x: 227.6349639892578
y: 248.0408935546875
z: -0.46032992005348206
visibility: 0.9050039052963257
","x: 214.3536376953125
y: 141.76332092285156
z: -0.31180906295776367
visibility: 0.9348583817481995
","x: 228.70880126953125
y: 249.14212036132812
z: -0.4286397397518158
visibility: 0.8761114478111267
","x: 215.43374633789062
y: 147.81521606445312
z: -0.285783588886261
visibility: 0.9307813048362732
","x: 249.38607788085938
y: 351.1310119628906
z: -0.04967304319143295
visibility: 0.9996753334999084
","x: 227.12709045410156
y: 346.8731689453125
z: 0.049621909856796265
visibility: 0.999707818031311
","x: 233.813232421875
y: 429.84320068359375
z: -0.10580873489379883
visibility: 0.986965537071228
","x: 214.72373962402344
y: 421.5928955078125
z: 0.005530857481062412
visibility: 0.9716975092887878
","x: 239.742919921875
y: 483.5823974609375
z: 0.11478409916162491
visibility: 0.9904283881187439
","x: 219.01918029785156
y: 486.75921630859375
z: 0.22186970710754395
visibility: 0.9773579835891724
","x: 244.84239196777344
y: 489.82781982421875
z: 0.13152532279491425
visibility: 0.9021635055541992
","x: 223.41595458984375
y: 495.247314453125
z: 0.23916950821876526
visibility: 0.9285026788711548
","x: 226.53233337402344
y: 495.7655334472656
z: 0.014710521325469017
visibility: 0.9855268001556396
","x: 210.34344482421875
y: 514.9513549804688
z: 0.1459285020828247
visibility: 0.9795739054679871
",,,,,,,,,,,,,,,,,,,,,,,,,,,,,,,,,,,,,,,,,,
14,"x: 232.71592712402344
y: 209.22360229492188
z: -0.24134740233421326
visibility: 0.9980339407920837
","x: 234.9903106689453
y: 201.28408813476562
z: -0.22732047736644745
visibility: 0.9964146614074707
","x: 236.5313262939453
y: 200.79576110839844
z: -0.22731128334999084
visibility: 0.9961018562316895
","x: 237.9944610595703
y: 200.377197265625
z: -0.22731347382068634
visibility: 0.9961053133010864
","x: 230.62686157226562
y: 202.55577087402344
z: -0.21901145577430725
visibility: 0.9946832060813904
","x: 229.24465942382812
y: 202.81671142578125
z: -0.2191189080476761
visibility: 0.9931766390800476
","x: 227.97061157226562
y: 202.95077514648438
z: -0.2192048579454422
visibility: 0.9949299097061157
","x: 241.8647003173828
y: 201.17501831054688
z: -0.1304168403148651
visibility: 0.9942800998687744
","x: 229.7467041015625
y: 202.9471435546875
z: -0.09573426842689514
visibility: 0.9911518692970276
","x: 236.97341918945312
y: 215.2933349609375
z: -0.205100417137146
visibility: 0.9972951412200928
","x: 232.2311553955078
y: 215.5274200439453
z: -0.19473165273666382
visibility: 0.9964123368263245
","x: 257.4801025390625
y: 236.199951171875
z: -0.1060548648238182
visibility: 0.9994325041770935
","x: 220.19618225097656
y: 231.8961181640625
z: -0.022234894335269928
visibility: 0.9991371631622314
","x: 261.6280212402344
y: 278.85174560546875
z: -0.1599322259426117
visibility: 0.9816548824310303
","x: 196.59133911132812
y: 225.18963623046875
z: -0.13743987679481506
visibility: 0.9770897030830383
","x: 235.43568420410156
y: 308.1368103027344
z: -0.2558704912662506
visibility: 0.948479413986206
","x: 204.96487426757812
y: 160.53155517578125
z: -0.3456137478351593
visibility: 0.9753991961479187
","x: 232.97691345214844
y: 318.39691162109375
z: -0.2856118083000183
visibility: 0.9070003032684326
","x: 203.88485717773438
y: 148.65904235839844
z: -0.39732223749160767
visibility: 0.9426946640014648
","x: 231.5035858154297
y: 314.17401123046875
z: -0.2910030782222748
visibility: 0.8992370963096619
","x: 205.76284790039062
y: 145.5715789794922
z: -0.3881487250328064
visibility: 0.9380829334259033
","x: 232.59750366210938
y: 310.7305908203125
z: -0.2583155930042267
visibility: 0.868134617805481
","x: 207.06031799316406
y: 149.51246643066406
z: -0.3498097062110901
visibility: 0.9334740042686462
","x: 243.2376251220703
y: 350.7017822265625
z: -0.03487449511885643
visibility: 0.9995755553245544
","x: 220.07373046875
y: 346.11279296875
z: 0.034703999757766724
visibility: 0.9997062683105469
","x: 222.958740234375
y: 426.6994934082031
z: -0.026281813159585
visibility: 0.9753708839416504
","x: 213.16531372070312
y: 416.72564697265625
z: -0.16310985386371613
visibility: 0.9672884941101074
","x: 218.94424438476562
y: 489.20733642578125
z: 0.18678824603557587
visibility: 0.9765070676803589
","x: 219.1809844970703
y: 492.4178771972656
z: -0.007842480204999447
visibility: 0.9693336486816406
","x: 219.24819946289062
y: 498.7857360839844
z: 0.20271548628807068
visibility: 0.8677381873130798
","x: 223.23651123046875
y: 503.0694580078125
z: 0.0032871209550648928
visibility: 0.9070592522621155
","x: 214.05738830566406
y: 498.093017578125
z: 0.08213825523853302
visibility: 0.9702193140983582
","x: 212.80406188964844
y: 516.9329223632812
z: -0.12884533405303955
visibility: 0.9727438688278198
",,,,,,,,,,,,,,,,,,,,,,,,,,,,,,,,,,,,,,,,,,
15,"x: 225.5440216064453
y: 210.8092041015625
z: -0.2667143642902374
visibility: 0.9982284307479858
","x: 228.3680877685547
y: 202.99261474609375
z: -0.24933969974517822
visibility: 0.99676513671875
","x: 229.95846557617188
y: 202.77230834960938
z: -0.2493031919002533
visibility: 0.9964823722839355
","x: 231.51698303222656
y: 202.6376190185547
z: -0.24930322170257568
visibility: 0.9964851140975952
","x: 223.8175048828125
y: 203.553955078125
z: -0.24207310378551483
visibility: 0.9952072501182556
","x: 222.40142822265625
y: 203.5089111328125
z: -0.2422020435333252
visibility: 0.9938523173332214
","x: 221.16998291015625
y: 203.31695556640625
z: -0.242289736866951
visibility: 0.9954330325126648
","x: 234.8712615966797
y: 203.46609497070312
z: -0.13657261431217194
visibility: 0.9948199987411499
","x: 221.94705200195312
y: 202.95118713378906
z: -0.10956116765737534
visibility: 0.992016613483429
","x: 229.02346801757812
y: 216.74163818359375
z: -0.22467079758644104
visibility: 0.9975605607032776
","x: 223.68893432617188
y: 216.55174255371094
z: -0.21679744124412537
visibility: 0.9967671632766724
","x: 251.2882843017578
y: 239.56520080566406
z: -0.08125334978103638
visibility: 0.9994838237762451
","x: 210.94175720214844
y: 233.2598876953125
z: -0.02581164240837097
visibility: 0.999220609664917
","x: 265.8460388183594
y: 294.25341796875
z: -0.11060649156570435
visibility: 0.9830954074859619
","x: 189.446533203125
y: 234.06057739257812
z: -0.12385723739862442
visibility: 0.97878497838974
","x: 235.5113525390625
y: 318.6329040527344
z: -0.1628689467906952
visibility: 0.9514945149421692
","x: 196.68063354492188
y: 183.64035034179688
z: -0.32674574851989746
visibility: 0.9768760800361633
","x: 227.6405792236328
y: 327.054443359375
z: -0.18202391266822815
visibility: 0.9085444211959839
","x: 197.13748168945312
y: 167.3704833984375
z: -0.3743247091770172
visibility: 0.9449756145477295
","x: 224.385986328125
y: 321.0895080566406
z: -0.18340066075325012
visibility: 0.9012700319290161
","x: 200.26116943359375
y: 164.5396728515625
z: -0.36155790090560913
visibility: 0.9403789639472961
","x: 226.47128295898438
y: 318.6608581542969
z: -0.16117319464683533
visibility: 0.8672620058059692
","x: 201.37738037109375
y: 171.3534393310547
z: -0.3281092345714569
visibility: 0.9346437454223633
","x: 240.79232788085938
y: 345.729736328125
z: -0.00892886146903038
visibility: 0.9995449185371399
","x: 218.29464721679688
y: 345.38079833984375
z: 0.008737237192690372
visibility: 0.9997317790985107
","x: 216.99249267578125
y: 397.2561950683594
z: -0.015373848378658295
visibility: 0.9650074243545532
","x: 213.21621704101562
y: 388.1559753417969
z: -0.3939473330974579
visibility: 0.9666618704795837
","x: 209.3295135498047
y: 470.2705383300781
z: 0.2345122992992401
visibility: 0.9519897103309631
","x: 218.8656005859375
y: 486.941162109375
z: -0.336805135011673
visibility: 0.9702650308609009
","x: 206.87252807617188
y: 474.7627258300781
z: 0.2556704878807068
visibility: 0.8440552353858948
","x: 222.3719024658203
y: 499.8834228515625
z: -0.3363417088985443
visibility: 0.8985484838485718
","x: 204.90933227539062
y: 494.7112731933594
z: 0.13937491178512573
visibility: 0.9552797079086304
","x: 212.93641662597656
y: 511.4566650390625
z: -0.5107327699661255
visibility: 0.9733089804649353
","x: 195.17721557617188
y: 188.2860565185547
z: 0.0
","x: 199.09703063964844
y: 180.80636596679688
z: -0.0011691328836604953
","x: 200.6184539794922
y: 171.37384033203125
z: -0.0020068329758942127
","x: 201.2284393310547
y: 163.63116455078125
z: -0.0033621415495872498
","x: 201.76058959960938
y: 157.74044799804688
z: -0.004422944504767656
","x: 195.92709350585938
y: 162.55128479003906
z: 0.0003427264164201915
","x: 195.19407653808594
y: 152.23126220703125
z: -0.0019910826813429594
","x: 195.13462829589844
y: 149.33383178710938
z: -0.0028083904180675745
","x: 195.01869201660156
y: 148.01026916503906
z: -0.0028795814141631126
","x: 193.3155517578125
y: 163.05789184570312
z: -0.0010040028719231486
","x: 192.16163635253906
y: 152.6564483642578
z: -0.0029926178976893425
","x: 191.97039794921875
y: 149.4624481201172
z: -0.0033128580544143915
","x: 191.67408752441406
y: 147.8318634033203
z: -0.00311360158957541
","x: 191.1158905029297
y: 164.8935546875
z: -0.0029239803552627563
","x: 189.70358276367188
y: 155.66448974609375
z: -0.005162669811397791
","x: 189.2843780517578
y: 151.92630004882812
z: -0.005263219121843576
","x: 188.9763946533203
y: 149.42471313476562
z: -0.004945698659867048
","x: 189.31732177734375
y: 167.9670867919922
z: -0.005223175510764122
","x: 187.76165771484375
y: 160.9646759033203
z: -0.007068481296300888
","x: 187.29571533203125
y: 157.21710205078125
z: -0.007212154101580381
","x: 187.14437866210938
y: 154.46722412109375
z: -0.006880378350615501
",,,,,,,,,,,,,,,,,,,,,
16,"x: 225.5440216064453
y: 210.8092041015625
z: -0.2667143642902374
visibility: 0.9982284307479858
","x: 228.3680877685547
y: 202.99261474609375
z: -0.24933969974517822
visibility: 0.99676513671875
","x: 229.95846557617188
y: 202.77230834960938
z: -0.2493031919002533
visibility: 0.9964823722839355
","x: 231.51698303222656
y: 202.6376190185547
z: -0.24930322170257568
visibility: 0.9964851140975952
","x: 223.8175048828125
y: 203.553955078125
z: -0.24207310378551483
visibility: 0.9952072501182556
","x: 222.40142822265625
y: 203.5089111328125
z: -0.2422020435333252
visibility: 0.9938523173332214
","x: 221.16998291015625
y: 203.31695556640625
z: -0.242289736866951
visibility: 0.9954330325126648
","x: 234.8712615966797
y: 203.46609497070312
z: -0.13657261431217194
visibility: 0.9948199987411499
","x: 221.94705200195312
y: 202.95118713378906
z: -0.10956116765737534
visibility: 0.992016613483429
","x: 229.02346801757812
y: 216.74163818359375
z: -0.22467079758644104
visibility: 0.9975605607032776
","x: 223.68893432617188
y: 216.55174255371094
z: -0.21679744124412537
visibility: 0.9967671632766724
","x: 251.2882843017578
y: 239.56520080566406
z: -0.08125334978103638
visibility: 0.9994838237762451
","x: 210.94175720214844
y: 233.2598876953125
z: -0.02581164240837097
visibility: 0.999220609664917
","x: 265.8460388183594
y: 294.25341796875
z: -0.11060649156570435
visibility: 0.9830954074859619
","x: 189.446533203125
y: 234.06057739257812
z: -0.12385723739862442
visibility: 0.97878497838974
","x: 235.5113525390625
y: 318.6329040527344
z: -0.1628689467906952
visibility: 0.9514945149421692
","x: 196.68063354492188
y: 183.64035034179688
z: -0.32674574851989746
visibility: 0.9768760800361633
","x: 227.6405792236328
y: 327.054443359375
z: -0.18202391266822815
visibility: 0.9085444211959839
","x: 197.13748168945312
y: 167.3704833984375
z: -0.3743247091770172
visibility: 0.9449756145477295
","x: 224.385986328125
y: 321.0895080566406
z: -0.18340066075325012
visibility: 0.9012700319290161
","x: 200.26116943359375
y: 164.5396728515625
z: -0.36155790090560913
visibility: 0.9403789639472961
","x: 226.47128295898438
y: 318.6608581542969
z: -0.16117319464683533
visibility: 0.8672620058059692
","x: 201.37738037109375
y: 171.3534393310547
z: -0.3281092345714569
visibility: 0.9346437454223633
","x: 240.79232788085938
y: 345.729736328125
z: -0.00892886146903038
visibility: 0.9995449185371399
","x: 218.29464721679688
y: 345.38079833984375
z: 0.008737237192690372
visibility: 0.9997317790985107
","x: 216.99249267578125
y: 397.2561950683594
z: -0.015373848378658295
visibility: 0.9650074243545532
","x: 213.21621704101562
y: 388.1559753417969
z: -0.3939473330974579
visibility: 0.9666618704795837
","x: 209.3295135498047
y: 470.2705383300781
z: 0.2345122992992401
visibility: 0.9519897103309631
","x: 218.8656005859375
y: 486.941162109375
z: -0.336805135011673
visibility: 0.9702650308609009
","x: 206.87252807617188
y: 474.7627258300781
z: 0.2556704878807068
visibility: 0.8440552353858948
","x: 222.3719024658203
y: 499.8834228515625
z: -0.3363417088985443
visibility: 0.8985484838485718
","x: 204.90933227539062
y: 494.7112731933594
z: 0.13937491178512573
visibility: 0.9552797079086304
","x: 212.93641662597656
y: 511.4566650390625
z: -0.5107327699661255
visibility: 0.9733089804649353
","x: 195.17721557617188
y: 188.2860565185547
z: 0.0
","x: 199.09703063964844
y: 180.80636596679688
z: -0.0011691328836604953
","x: 200.6184539794922
y: 171.37384033203125
z: -0.0020068329758942127
","x: 201.2284393310547
y: 163.63116455078125
z: -0.0033621415495872498
","x: 201.76058959960938
y: 157.74044799804688
z: -0.004422944504767656
","x: 195.92709350585938
y: 162.55128479003906
z: 0.0003427264164201915
","x: 195.19407653808594
y: 152.23126220703125
z: -0.0019910826813429594
","x: 195.13462829589844
y: 149.33383178710938
z: -0.0028083904180675745
","x: 195.01869201660156
y: 148.01026916503906
z: -0.0028795814141631126
","x: 193.3155517578125
y: 163.05789184570312
z: -0.0010040028719231486
","x: 192.16163635253906
y: 152.6564483642578
z: -0.0029926178976893425
","x: 191.97039794921875
y: 149.4624481201172
z: -0.0033128580544143915
","x: 191.67408752441406
y: 147.8318634033203
z: -0.00311360158957541
","x: 191.1158905029297
y: 164.8935546875
z: -0.0029239803552627563
","x: 189.70358276367188
y: 155.66448974609375
z: -0.005162669811397791
","x: 189.2843780517578
y: 151.92630004882812
z: -0.005263219121843576
","x: 188.9763946533203
y: 149.42471313476562
z: -0.004945698659867048
","x: 189.31732177734375
y: 167.9670867919922
z: -0.005223175510764122
","x: 187.76165771484375
y: 160.9646759033203
z: -0.007068481296300888
","x: 187.29571533203125
y: 157.21710205078125
z: -0.007212154101580381
","x: 187.14437866210938
y: 154.46722412109375
z: -0.006880378350615501
",,,,,,,,,,,,,,,,,,,,,
17,"x: 222.46307373046875
y: 213.3773193359375
z: -0.25829994678497314
visibility: 0.9983929395675659
","x: 224.95547485351562
y: 205.18084716796875
z: -0.25081199407577515
visibility: 0.9970604181289673
","x: 226.32559204101562
y: 204.82015991210938
z: -0.25071629881858826
visibility: 0.9968063831329346
","x: 227.69691467285156
y: 204.4568634033203
z: -0.2507452666759491
visibility: 0.9968065023422241
","x: 221.27346801757812
y: 205.4770050048828
z: -0.23915942013263702
visibility: 0.995642900466919
","x: 220.1048126220703
y: 205.3019561767578
z: -0.2392531931400299
visibility: 0.9944093823432922
","x: 218.9661407470703
y: 204.9746551513672
z: -0.2392774075269699
visibility: 0.9958263039588928
","x: 231.85389709472656
y: 203.53173828125
z: -0.16858527064323425
visibility: 0.995309054851532
","x: 220.95924377441406
y: 202.82005310058594
z: -0.11886906623840332
visibility: 0.9925962090492249
","x: 225.82493591308594
y: 218.56736755371094
z: -0.2248334437608719
visibility: 0.9977882504463196
","x: 221.33917236328125
y: 218.11679077148438
z: -0.21072280406951904
visibility: 0.9970285296440125
","x: 249.18699645996094
y: 239.1103973388672
z: -0.09538344293832779
visibility: 0.9995193481445312
","x: 210.87249755859375
y: 230.734375
z: -0.031191561371088028
visibility: 0.9992740750312805
","x: 264.7122802734375
y: 298.36566162109375
z: -0.1576225906610489
visibility: 0.9842708110809326
","x: 188.7154083251953
y: 236.01171875
z: -0.12101771682500839
visibility: 0.9799619913101196
","x: 232.5244903564453
y: 315.581787109375
z: -0.22530591487884521
visibility: 0.9537870287895203
","x: 196.68116760253906
y: 187.48785400390625
z: -0.2937048077583313
visibility: 0.9768577814102173
","x: 224.72872924804688
y: 323.1871032714844
z: -0.2444455623626709
visibility: 0.9087809324264526
","x: 197.0654754638672
y: 171.64244079589844
z: -0.3238481283187866
visibility: 0.9437893033027649
","x: 222.16448974609375
y: 317.4757080078125
z: -0.2423073947429657
visibility: 0.9019062519073486
","x: 199.78009033203125
y: 169.92123413085938
z: -0.3132387101650238
visibility: 0.9386479258537292
","x: 224.65744018554688
y: 314.0677185058594
z: -0.22138944268226624
visibility: 0.8670703172683716
","x: 200.7887420654297
y: 177.1015167236328
z: -0.29406219720840454
visibility: 0.9301974773406982
","x: 238.86996459960938
y: 337.053466796875
z: -0.024228420108556747
visibility: 0.9995591640472412
","x: 218.537109375
y: 341.5033264160156
z: 0.02404959872364998
visibility: 0.9997308850288391
","x: 220.9001922607422
y: 318.6379089355469
z: -0.4001234471797943
visibility: 0.9651256203651428
","x: 207.29141235351562
y: 408.74188232421875
z: -0.017318885773420334
visibility: 0.9628500938415527
","x: 221.50294494628906
y: 377.44677734375
z: -0.29960060119628906
visibility: 0.9425620436668396
","x: 218.39752197265625
y: 486.811279296875
z: 0.09334434568881989
visibility: 0.9648041129112244
","x: 223.8112335205078
y: 385.80389404296875
z: -0.28978219628334045
visibility: 0.8464996814727783
","x: 223.0429229736328
y: 498.890380859375
z: 0.09731851518154144
visibility: 0.8944451808929443
","x: 214.60968017578125
y: 398.682861328125
z: -0.3751528561115265
visibility: 0.9507022500038147
","x: 212.48104858398438
y: 511.47344970703125
z: 0.010582518763840199
visibility: 0.9641085267066956
","x: 198.16429138183594
y: 190.64369201660156
z: 0.0
","x: 200.89599609375
y: 183.90451049804688
z: -0.0009175270679406822
","x: 201.54954528808594
y: 176.36160278320312
z: -0.002110179280862212
","x: 201.79220581054688
y: 170.63360595703125
z: -0.0039698416367173195
","x: 202.34324645996094
y: 166.04515075683594
z: -0.005636412184685469
","x: 196.43104553222656
y: 166.70004272460938
z: 0.00036790253943763673
","x: 195.32418823242188
y: 157.01773071289062
z: -0.002291726879775524
","x: 194.75320434570312
y: 153.3300323486328
z: -0.0037608176935464144
","x: 194.16566467285156
y: 151.07318115234375
z: -0.004546038340777159
","x: 194.732421875
y: 167.83807373046875
z: -0.0017877294449135661
","x: 193.12326049804688
y: 157.551513671875
z: -0.004156379960477352
","x: 192.45716857910156
y: 153.1776123046875
z: -0.005328868981450796
","x: 191.80906677246094
y: 150.20619201660156
z: -0.006024825852364302
","x: 193.29844665527344
y: 170.3134307861328
z: -0.004579520784318447
","x: 191.2706298828125
y: 161.4737548828125
z: -0.00739672128111124
","x: 190.2322540283203
y: 156.5969696044922
z: -0.008639724925160408
","x: 189.31436157226562
y: 152.58172607421875
z: -0.009264753200113773
","x: 192.17642211914062
y: 174.0854034423828
z: -0.007700466085225344
","x: 190.1054229736328
y: 168.19744873046875
z: -0.0101667745038867
","x: 189.05125427246094
y: 164.3856658935547
z: -0.01114646065980196
","x: 188.235595703125
y: 160.9390411376953
z: -0.011637600138783455
",,,,,,,,,,,,,,,,,,,,,
18,"x: 222.46307373046875
y: 213.3773193359375
z: -0.25829994678497314
visibility: 0.9983929395675659
","x: 224.95547485351562
y: 205.18084716796875
z: -0.25081199407577515
visibility: 0.9970604181289673
","x: 226.32559204101562
y: 204.82015991210938
z: -0.25071629881858826
visibility: 0.9968063831329346
","x: 227.69691467285156
y: 204.4568634033203
z: -0.2507452666759491
visibility: 0.9968065023422241
","x: 221.27346801757812
y: 205.4770050048828
z: -0.23915942013263702
visibility: 0.995642900466919
","x: 220.1048126220703
y: 205.3019561767578
z: -0.2392531931400299
visibility: 0.9944093823432922
","x: 218.9661407470703
y: 204.9746551513672
z: -0.2392774075269699
visibility: 0.9958263039588928
","x: 231.85389709472656
y: 203.53173828125
z: -0.16858527064323425
visibility: 0.995309054851532
","x: 220.95924377441406
y: 202.82005310058594
z: -0.11886906623840332
visibility: 0.9925962090492249
","x: 225.82493591308594
y: 218.56736755371094
z: -0.2248334437608719
visibility: 0.9977882504463196
","x: 221.33917236328125
y: 218.11679077148438
z: -0.21072280406951904
visibility: 0.9970285296440125
","x: 249.18699645996094
y: 239.1103973388672
z: -0.09538344293832779
visibility: 0.9995193481445312
","x: 210.87249755859375
y: 230.734375
z: -0.031191561371088028
visibility: 0.9992740750312805
","x: 264.7122802734375
y: 298.36566162109375
z: -0.1576225906610489
visibility: 0.9842708110809326
","x: 188.7154083251953
y: 236.01171875
z: -0.12101771682500839
visibility: 0.9799619913101196
","x: 232.5244903564453
y: 315.581787109375
z: -0.22530591487884521
visibility: 0.9537870287895203
","x: 196.68116760253906
y: 187.48785400390625
z: -0.2937048077583313
visibility: 0.9768577814102173
","x: 224.72872924804688
y: 323.1871032714844
z: -0.2444455623626709
visibility: 0.9087809324264526
","x: 197.0654754638672
y: 171.64244079589844
z: -0.3238481283187866
visibility: 0.9437893033027649
","x: 222.16448974609375
y: 317.4757080078125
z: -0.2423073947429657
visibility: 0.9019062519073486
","x: 199.78009033203125
y: 169.92123413085938
z: -0.3132387101650238
visibility: 0.9386479258537292
","x: 224.65744018554688
y: 314.0677185058594
z: -0.22138944268226624
visibility: 0.8670703172683716
","x: 200.7887420654297
y: 177.1015167236328
z: -0.29406219720840454
visibility: 0.9301974773406982
","x: 238.86996459960938
y: 337.053466796875
z: -0.024228420108556747
visibility: 0.9995591640472412
","x: 218.537109375
y: 341.5033264160156
z: 0.02404959872364998
visibility: 0.9997308850288391
","x: 220.9001922607422
y: 318.6379089355469
z: -0.4001234471797943
visibility: 0.9651256203651428
","x: 207.29141235351562
y: 408.74188232421875
z: -0.017318885773420334
visibility: 0.9628500938415527
","x: 221.50294494628906
y: 377.44677734375
z: -0.29960060119628906
visibility: 0.9425620436668396
","x: 218.39752197265625
y: 486.811279296875
z: 0.09334434568881989
visibility: 0.9648041129112244
","x: 223.8112335205078
y: 385.80389404296875
z: -0.28978219628334045
visibility: 0.8464996814727783
","x: 223.0429229736328
y: 498.890380859375
z: 0.09731851518154144
visibility: 0.8944451808929443
","x: 214.60968017578125
y: 398.682861328125
z: -0.3751528561115265
visibility: 0.9507022500038147
","x: 212.48104858398438
y: 511.47344970703125
z: 0.010582518763840199
visibility: 0.9641085267066956
","x: 198.16429138183594
y: 190.64369201660156
z: 0.0
","x: 200.89599609375
y: 183.90451049804688
z: -0.0009175270679406822
","x: 201.54954528808594
y: 176.36160278320312
z: -0.002110179280862212
","x: 201.79220581054688
y: 170.63360595703125
z: -0.0039698416367173195
","x: 202.34324645996094
y: 166.04515075683594
z: -0.005636412184685469
","x: 196.43104553222656
y: 166.70004272460938
z: 0.00036790253943763673
","x: 195.32418823242188
y: 157.01773071289062
z: -0.002291726879775524
","x: 194.75320434570312
y: 153.3300323486328
z: -0.0037608176935464144
","x: 194.16566467285156
y: 151.07318115234375
z: -0.004546038340777159
","x: 194.732421875
y: 167.83807373046875
z: -0.0017877294449135661
","x: 193.12326049804688
y: 157.551513671875
z: -0.004156379960477352
","x: 192.45716857910156
y: 153.1776123046875
z: -0.005328868981450796
","x: 191.80906677246094
y: 150.20619201660156
z: -0.006024825852364302
","x: 193.29844665527344
y: 170.3134307861328
z: -0.004579520784318447
","x: 191.2706298828125
y: 161.4737548828125
z: -0.00739672128111124
","x: 190.2322540283203
y: 156.5969696044922
z: -0.008639724925160408
","x: 189.31436157226562
y: 152.58172607421875
z: -0.009264753200113773
","x: 192.17642211914062
y: 174.0854034423828
z: -0.007700466085225344
","x: 190.1054229736328
y: 168.19744873046875
z: -0.0101667745038867
","x: 189.05125427246094
y: 164.3856658935547
z: -0.01114646065980196
","x: 188.235595703125
y: 160.9390411376953
z: -0.011637600138783455
",,,,,,,,,,,,,,,,,,,,,
19,"x: 222.0830535888672
y: 213.57427978515625
z: -0.14302703738212585
visibility: 0.998542070388794
","x: 224.6705322265625
y: 206.37033081054688
z: -0.13289958238601685
visibility: 0.9973371028900146
","x: 226.07345581054688
y: 206.48492431640625
z: -0.13284903764724731
visibility: 0.9971082806587219
","x: 227.53683471679688
y: 206.61070251464844
z: -0.13284821808338165
visibility: 0.997109055519104
","x: 221.21890258789062
y: 205.591796875
z: -0.12384738028049469
visibility: 0.9960563778877258
","x: 220.13204956054688
y: 205.2185821533203
z: -0.12390728294849396
visibility: 0.9949357509613037
","x: 219.0223388671875
y: 204.7944793701172
z: -0.1239132285118103
visibility: 0.9962124228477478
","x: 231.7528533935547
y: 206.48715209960938
z: -0.05202736705541611
visibility: 0.9957574605941772
","x: 219.83779907226562
y: 204.18338012695312
z: -0.014189975336194038
visibility: 0.9932007193565369
","x: 224.85504150390625
y: 219.8292236328125
z: -0.11101875454187393
visibility: 0.9979960918426514
","x: 220.6273956298828
y: 218.1763916015625
z: -0.10038117319345474
visibility: 0.9972780346870422
","x: 247.73480224609375
y: 239.85435485839844
z: -0.021277084946632385
visibility: 0.999543309211731
","x: 209.20179748535156
y: 230.54705810546875
z: 0.05434873700141907
visibility: 0.9992910623550415
","x: 263.51611328125
y: 299.54364013671875
z: -0.08758000284433365
visibility: 0.9853193759918213
","x: 188.92636108398438
y: 237.0823974609375
z: -0.10366557538509369
visibility: 0.9808197617530823
","x: 232.81517028808594
y: 306.11322021484375
z: -0.204471156001091
visibility: 0.9569389820098877
","x: 198.7969512939453
y: 189.8866424560547
z: -0.23977498710155487
visibility: 0.977628767490387
","x: 225.10440063476562
y: 311.7107849121094
z: -0.23009952902793884
visibility: 0.9132152795791626
","x: 198.49151611328125
y: 174.44976806640625
z: -0.2701342701911926
visibility: 0.9447329044342041
","x: 223.0768585205078
y: 305.2389831542969
z: -0.2273448258638382
visibility: 0.9068701267242432
","x: 200.84080505371094
y: 172.92050170898438
z: -0.25896793603897095
visibility: 0.9394204616546631
","x: 225.21876525878906
y: 302.89361572265625
z: -0.20153334736824036
visibility: 0.8726887106895447
","x: 202.50152587890625
y: 180.23651123046875
z: -0.2394988089799881
visibility: 0.9295625686645508
","x: 237.89520263671875
y: 331.8981628417969
z: -0.02901371195912361
visibility: 0.999576210975647
","x: 218.11830139160156
y: 337.3526306152344
z: 0.02888476476073265
visibility: 0.9997289180755615
","x: 220.93812561035156
y: 305.3958740234375
z: -0.38130542635917664
visibility: 0.9674599170684814
","x: 204.66815185546875
y: 409.1680908203125
z: 0.022617029026150703
visibility: 0.9616145491600037
","x: 197.14549255371094
y: 399.90069580078125
z: -0.4065980017185211
visibility: 0.9465525150299072
","x: 218.5243377685547
y: 486.6574401855469
z: 0.08832474797964096
visibility: 0.9643803238868713
","x: 197.0697021484375
y: 410.0848083496094
z: -0.41012293100357056
visibility: 0.8587778210639954
","x: 224.80828857421875
y: 498.4707336425781
z: 0.08891072124242783
visibility: 0.897144079208374
","x: 179.0979461669922
y: 402.79949951171875
z: -0.5221031904220581
visibility: 0.954641580581665
","x: 212.2871856689453
y: 511.4748840332031
z: -0.007969803176820278
visibility: 0.9626455903053284
","x: 199.40469360351562
y: 194.031494140625
z: 0.0
","x: 202.95361328125
y: 188.65557861328125
z: -0.0007256640237756073
","x: 204.4433135986328
y: 180.89048767089844
z: -0.0015652007423341274
","x: 204.96803283691406
y: 174.8271942138672
z: -0.003209446556866169
","x: 205.72720336914062
y: 170.05149841308594
z: -0.004819524474442005
","x: 199.85362243652344
y: 170.9546661376953
z: 0.0018430183408781886
","x: 199.91929626464844
y: 161.45223999023438
z: -0.0004811589897144586
","x: 200.13467407226562
y: 156.30239868164062
z: -0.0022280612029135227
","x: 200.24432373046875
y: 152.07078552246094
z: -0.0033700582571327686
","x: 198.0482177734375
y: 170.98745727539062
z: -0.00048645041533745825
","x: 197.2686767578125
y: 160.4954833984375
z: -0.002299367217347026
","x: 197.0366668701172
y: 155.0377655029297
z: -0.0038509261794388294
","x: 196.75668334960938
y: 150.63177490234375
z: -0.005051780492067337
","x: 196.35997009277344
y: 172.57833862304688
z: -0.003508680732920766
","x: 195.31344604492188
y: 163.16213989257812
z: -0.005838640499860048
","x: 194.99090576171875
y: 158.10015869140625
z: -0.007190742529928684
","x: 194.75674438476562
y: 154.00575256347656
z: -0.00807751901447773
","x: 194.86705017089844
y: 175.6079864501953
z: -0.006939081475138664
","x: 193.6081085205078
y: 168.64938354492188
z: -0.00912493746727705
","x: 193.21658325195312
y: 164.2147216796875
z: -0.010141369886696339
","x: 193.01251220703125
y: 160.4430389404297
z: -0.010779826901853085
",,,,,,,,,,,,,,,,,,,,,
20,"x: 222.0830535888672
y: 213.57427978515625
z: -0.14302703738212585
visibility: 0.998542070388794
","x: 224.6705322265625
y: 206.37033081054688
z: -0.13289958238601685
visibility: 0.9973371028900146
","x: 226.07345581054688
y: 206.48492431640625
z: -0.13284903764724731
visibility: 0.9971082806587219
","x: 227.53683471679688
y: 206.61070251464844
z: -0.13284821808338165
visibility: 0.997109055519104
","x: 221.21890258789062
y: 205.591796875
z: -0.12384738028049469
visibility: 0.9960563778877258
","x: 220.13204956054688
y: 205.2185821533203
z: -0.12390728294849396
visibility: 0.9949357509613037
","x: 219.0223388671875
y: 204.7944793701172
z: -0.1239132285118103
visibility: 0.9962124228477478
","x: 231.7528533935547
y: 206.48715209960938
z: -0.05202736705541611
visibility: 0.9957574605941772
","x: 219.83779907226562
y: 204.18338012695312
z: -0.014189975336194038
visibility: 0.9932007193565369
","x: 224.85504150390625
y: 219.8292236328125
z: -0.11101875454187393
visibility: 0.9979960918426514
","x: 220.6273956298828
y: 218.1763916015625
z: -0.10038117319345474
visibility: 0.9972780346870422
","x: 247.73480224609375
y: 239.85435485839844
z: -0.021277084946632385
visibility: 0.999543309211731
","x: 209.20179748535156
y: 230.54705810546875
z: 0.05434873700141907
visibility: 0.9992910623550415
","x: 263.51611328125
y: 299.54364013671875
z: -0.08758000284433365
visibility: 0.9853193759918213
","x: 188.92636108398438
y: 237.0823974609375
z: -0.10366557538509369
visibility: 0.9808197617530823
","x: 232.81517028808594
y: 306.11322021484375
z: -0.204471156001091
visibility: 0.9569389820098877
","x: 198.7969512939453
y: 189.8866424560547
z: -0.23977498710155487
visibility: 0.977628767490387
","x: 225.10440063476562
y: 311.7107849121094
z: -0.23009952902793884
visibility: 0.9132152795791626
","x: 198.49151611328125
y: 174.44976806640625
z: -0.2701342701911926
visibility: 0.9447329044342041
","x: 223.0768585205078
y: 305.2389831542969
z: -0.2273448258638382
visibility: 0.9068701267242432
","x: 200.84080505371094
y: 172.92050170898438
z: -0.25896793603897095
visibility: 0.9394204616546631
","x: 225.21876525878906
y: 302.89361572265625
z: -0.20153334736824036
visibility: 0.8726887106895447
","x: 202.50152587890625
y: 180.23651123046875
z: -0.2394988089799881
visibility: 0.9295625686645508
","x: 237.89520263671875
y: 331.8981628417969
z: -0.02901371195912361
visibility: 0.999576210975647
","x: 218.11830139160156
y: 337.3526306152344
z: 0.02888476476073265
visibility: 0.9997289180755615
","x: 220.93812561035156
y: 305.3958740234375
z: -0.38130542635917664
visibility: 0.9674599170684814
","x: 204.66815185546875
y: 409.1680908203125
z: 0.022617029026150703
visibility: 0.9616145491600037
","x: 197.14549255371094
y: 399.90069580078125
z: -0.4065980017185211
visibility: 0.9465525150299072
","x: 218.5243377685547
y: 486.6574401855469
z: 0.08832474797964096
visibility: 0.9643803238868713
","x: 197.0697021484375
y: 410.0848083496094
z: -0.41012293100357056
visibility: 0.8587778210639954
","x: 224.80828857421875
y: 498.4707336425781
z: 0.08891072124242783
visibility: 0.897144079208374
","x: 179.0979461669922
y: 402.79949951171875
z: -0.5221031904220581
visibility: 0.954641580581665
","x: 212.2871856689453
y: 511.4748840332031
z: -0.007969803176820278
visibility: 0.9626455903053284
","x: 199.40469360351562
y: 194.031494140625
z: 0.0
","x: 202.95361328125
y: 188.65557861328125
z: -0.0007256640237756073
","x: 204.4433135986328
y: 180.89048767089844
z: -0.0015652007423341274
","x: 204.96803283691406
y: 174.8271942138672
z: -0.003209446556866169
","x: 205.72720336914062
y: 170.05149841308594
z: -0.004819524474442005
","x: 199.85362243652344
y: 170.9546661376953
z: 0.0018430183408781886
","x: 199.91929626464844
y: 161.45223999023438
z: -0.0004811589897144586
","x: 200.13467407226562
y: 156.30239868164062
z: -0.0022280612029135227
","x: 200.24432373046875
y: 152.07078552246094
z: -0.0033700582571327686
","x: 198.0482177734375
y: 170.98745727539062
z: -0.00048645041533745825
","x: 197.2686767578125
y: 160.4954833984375
z: -0.002299367217347026
","x: 197.0366668701172
y: 155.0377655029297
z: -0.0038509261794388294
","x: 196.75668334960938
y: 150.63177490234375
z: -0.005051780492067337
","x: 196.35997009277344
y: 172.57833862304688
z: -0.003508680732920766
","x: 195.31344604492188
y: 163.16213989257812
z: -0.005838640499860048
","x: 194.99090576171875
y: 158.10015869140625
z: -0.007190742529928684
","x: 194.75674438476562
y: 154.00575256347656
z: -0.00807751901447773
","x: 194.86705017089844
y: 175.6079864501953
z: -0.006939081475138664
","x: 193.6081085205078
y: 168.64938354492188
z: -0.00912493746727705
","x: 193.21658325195312
y: 164.2147216796875
z: -0.010141369886696339
","x: 193.01251220703125
y: 160.4430389404297
z: -0.010779826901853085
",,,,,,,,,,,,,,,,,,,,,
21,"x: 224.1060791015625
y: 210.0828857421875
z: -0.26311859488487244
visibility: 0.9986761212348938
","x: 226.4809112548828
y: 202.59779357910156
z: -0.24609437584877014
visibility: 0.997576117515564
","x: 227.894287109375
y: 202.57720947265625
z: -0.24601590633392334
visibility: 0.9973670244216919
","x: 229.33506774902344
y: 202.62762451171875
z: -0.2460528314113617
visibility: 0.9973675012588501
","x: 222.89675903320312
y: 202.3245391845703
z: -0.2410539835691452
visibility: 0.9964141845703125
","x: 221.75308227539062
y: 202.10165405273438
z: -0.2411441057920456
visibility: 0.9953945875167847
","x: 220.5812530517578
y: 201.81967163085938
z: -0.24115553498268127
visibility: 0.9965450763702393
","x: 232.4247283935547
y: 203.62887573242188
z: -0.13586758077144623
visibility: 0.9961520433425903
","x: 220.0232391357422
y: 201.89923095703125
z: -0.11743204295635223
visibility: 0.993705153465271
","x: 226.92677307128906
y: 216.4543914794922
z: -0.2221236526966095
visibility: 0.9981783032417297
","x: 222.6724090576172
y: 215.27688598632812
z: -0.21661610901355743
visibility: 0.9975032210350037
","x: 246.61148071289062
y: 242.22113037109375
z: -0.032953474670648575
visibility: 0.9995661377906799
","x: 208.1422119140625
y: 230.66114807128906
z: -0.03864147886633873
visibility: 0.9993297457695007
","x: 262.9862365722656
y: 296.3811340332031
z: -0.1532096117734909
visibility: 0.98624187707901
","x: 189.0498504638672
y: 237.7586212158203
z: -0.16810020804405212
visibility: 0.9821234941482544
","x: 233.99844360351562
y: 312.84442138671875
z: -0.2440752238035202
visibility: 0.9574975371360779
","x: 198.5198974609375
y: 190.37127685546875
z: -0.36255574226379395
visibility: 0.9784296751022339
","x: 227.59396362304688
y: 318.1910400390625
z: -0.2705192267894745
visibility: 0.9109134078025818
","x: 198.05999755859375
y: 174.59068298339844
z: -0.4009268283843994
visibility: 0.9459549188613892
","x: 225.8338623046875
y: 311.9267883300781
z: -0.27916738390922546
visibility: 0.9050849676132202
","x: 200.57754516601562
y: 173.18218994140625
z: -0.39016467332839966
visibility: 0.9406111240386963
","x: 227.661865234375
y: 309.4863586425781
z: -0.2492363005876541
visibility: 0.8694376349449158
","x: 202.28701782226562
y: 179.90081787109375
z: -0.3635790944099426
visibility: 0.9293783903121948
","x: 236.79469299316406
y: 333.35589599609375
z: -0.03103702887892723
visibility: 0.9995992183685303
","x: 216.5098114013672
y: 338.7619323730469
z: 0.030904632061719894
visibility: 0.9997406601905823
","x: 218.9408416748047
y: 338.7630920410156
z: -0.38819095492362976
visibility: 0.9690761566162109
","x: 204.66421508789062
y: 410.7728271484375
z: -0.0061556193977594376
visibility: 0.9556906819343567
","x: 224.17897033691406
y: 413.9547424316406
z: -0.24372465908527374
visibility: 0.9462459683418274
","x: 218.6407928466797
y: 486.629638671875
z: 0.14198508858680725
visibility: 0.9627776741981506
","x: 233.1800994873047
y: 413.0607604980469
z: -0.23068812489509583
visibility: 0.8634281158447266
","x: 224.88125610351562
y: 497.995361328125
z: 0.15063659846782684
visibility: 0.8969644904136658
","x: 231.0554962158203
y: 432.26641845703125
z: -0.3242294192314148
visibility: 0.9553132653236389
","x: 211.5703582763672
y: 511.5666198730469
z: 0.04813797026872635
visibility: 0.9584682583808899
","x: 198.45993041992188
y: 196.16180419921875
z: 0.0
","x: 202.09408569335938
y: 189.55661010742188
z: -0.0007881979690864682
","x: 203.4576416015625
y: 181.95999145507812
z: -0.001461501931771636
","x: 203.94183349609375
y: 176.1660614013672
z: -0.0027405961882323027
","x: 204.52896118164062
y: 171.6008758544922
z: -0.0039427937008440495
","x: 199.87489318847656
y: 172.88958740234375
z: 0.001512247370555997
","x: 200.1803436279297
y: 163.68699645996094
z: -0.0004040633502881974
","x: 200.3991241455078
y: 158.35691833496094
z: -0.0019857212901115417
","x: 200.49539184570312
y: 153.7165985107422
z: -0.003028490813449025
","x: 197.91897583007812
y: 173.04685974121094
z: -0.00026405497919768095
","x: 197.16323852539062
y: 163.30809020996094
z: -0.001676287385635078
","x: 196.90646362304688
y: 157.5892333984375
z: -0.003181562526151538
","x: 196.63172912597656
y: 152.66294860839844
z: -0.004405737388879061
","x: 196.14393615722656
y: 174.503662109375
z: -0.002623601583763957
","x: 195.10458374023438
y: 165.83265686035156
z: -0.004621823318302631
","x: 194.79063415527344
y: 160.7306671142578
z: -0.006307295523583889
","x: 194.5443572998047
y: 156.42237854003906
z: -0.0074625746347010136
","x: 194.57843017578125
y: 177.31813049316406
z: -0.005313148256391287
","x: 193.395263671875
y: 171.2537841796875
z: -0.00707387737929821
","x: 192.93153381347656
y: 167.48715209960938
z: -0.008126792497932911
","x: 192.61721801757812
y: 164.2325439453125
z: -0.00887895654886961
",,,,,,,,,,,,,,,,,,,,,
22,"x: 224.1060791015625
y: 210.0828857421875
z: -0.26311859488487244
visibility: 0.9986761212348938
","x: 226.4809112548828
y: 202.59779357910156
z: -0.24609437584877014
visibility: 0.997576117515564
","x: 227.894287109375
y: 202.57720947265625
z: -0.24601590633392334
visibility: 0.9973670244216919
","x: 229.33506774902344
y: 202.62762451171875
z: -0.2460528314113617
visibility: 0.9973675012588501
","x: 222.89675903320312
y: 202.3245391845703
z: -0.2410539835691452
visibility: 0.9964141845703125
","x: 221.75308227539062
y: 202.10165405273438
z: -0.2411441057920456
