uscmakers/ReverseChoreography/data/1_lite_spots_kaytranada.csv
,NOSE,LEFT_EYE_INNER,LEFT_EYE,LEFT_EYE_OUTER,RIGHT_EYE_INNER,RIGHT_EYE,RIGHT_EYE_OUTER,LEFT_EAR,RIGHT_EAR,MOUTH_LEFT,MOUTH_RIGHT,LEFT_SHOULDER,RIGHT_SHOULDER,LEFT_ELBOW,RIGHT_ELBOW,LEFT_WRIST,RIGHT_WRIST,LEFT_PINKY,RIGHT_PINKY,LEFT_INDEX,RIGHT_INDEX,LEFT_THUMB,RIGHT_THUMB,LEFT_HIP,RIGHT_HIP,LEFT_KNEE,RIGHT_KNEE,LEFT_ANKLE,RIGHT_ANKLE,LEFT_HEEL,RIGHT_HEEL,LEFT_FOOT_INDEX,RIGHT_FOOT_INDEX,WRIST,THUMB_CPC,THUMB_MCP,THUMB_IP,THUMB_TIP,INDEX_FINGER_MCP,INDEX_FINGER_PIP,INDEX_FINGER_DIP,INDEX_FINGER_TIP,MIDDLE_FINGER_MCP,MIDDLE_FINGER_PIP,MIDDLE_FINGER_DIP,MIDDLE_FINGER_TIP,RING_FINGER_PIP,RING_FINGER_DIP,RING_FINGER_TIP,RING_FINGER_MCP,PINKY_MCP,PINKY_PIP,PINKY_DIP,PINKY_TIP,WRIST2,THUMB_CPC2,THUMB_MCP2,THUMB_IP2,THUMB_TIP2,INDEX_FINGER_MCP2,INDEX_FINGER_PIP2,INDEX_FINGER_DIP2,INDEX_FINGER_TIP2,MIDDLE_FINGER_MCP2,MIDDLE_FINGER_PIP2,MIDDLE_FINGER_DIP2,MIDDLE_FINGER_TIP2,RING_FINGER_PIP2,RING_FINGER_DIP2,RING_FINGER_TIP2,RING_FINGER_MCP2,PINKY_MCP2,PINKY_PIP2,PINKY_DIP2,PINKY_TIP2
0,"x: 269.1120910644531
y: 186.391845703125
z: -0.03792285919189453
visibility: 0.999038815498352
","x: 268.93450927734375
y: 177.6740264892578
z: -0.023926209658384323
visibility: 0.9982611536979675
","x: 268.52642822265625
y: 177.2727813720703
z: -0.023960094898939133
visibility: 0.9980136156082153
","x: 268.05657958984375
y: 176.7811737060547
z: -0.02400275506079197
visibility: 0.9986743927001953
","x: 268.184326171875
y: 176.51991271972656
z: -0.06381125748157501
visibility: 0.9989604949951172
","x: 267.2748107910156
y: 175.30259704589844
z: -0.06382450461387634
visibility: 0.9990311861038208
","x: 266.2662658691406
y: 173.923095703125
z: -0.06385602056980133
visibility: 0.9992652535438538
","x: 260.7799987792969
y: 173.50868225097656
z: 0.04967746511101723
visibility: 0.9973291158676147
","x: 259.3337097167969
y: 171.0432586669922
z: -0.13024775683879852
visibility: 0.9985263347625732
","x: 264.7793273925781
y: 192.2578582763672
z: -0.006672303192317486
visibility: 0.9964911341667175
","x: 263.6446533203125
y: 190.73951721191406
z: -0.05920535326004028
visibility: 0.9982950091362
","x: 246.89598083496094
y: 211.9287872314453
z: 0.17048247158527374
visibility: 0.9933863282203674
","x: 238.6754150390625
y: 200.73672485351562
z: -0.21658606827259064
visibility: 0.9997051358222961
","x: 250.13328552246094
y: 260.6181640625
z: 0.3155975341796875
visibility: 0.03868456929922104
","x: 240.10159301757812
y: 262.0172119140625
z: -0.323787122964859
visibility: 0.9733459949493408
","x: 270.9877624511719
y: 262.4578857421875
z: 0.3528366684913635
visibility: 0.05337327718734741
","x: 273.1570129394531
y: 264.5416564941406
z: -0.35263583064079285
visibility: 0.8946959972381592
","x: 275.59454345703125
y: 263.96661376953125
z: 0.37028101086616516
visibility: 0.07575179636478424
","x: 279.23193359375
y: 266.92218017578125
z: -0.38719552755355835
visibility: 0.8731390237808228
","x: 278.65924072265625
y: 257.1601257324219
z: 0.3425338864326477
visibility: 0.08076208829879761
","x: 280.025146484375
y: 260.4734191894531
z: -0.3724552094936371
visibility: 0.8609702587127686
","x: 277.4781188964844
y: 256.1903991699219
z: 0.34002646803855896
visibility: 0.08745861798524857
","x: 278.400634765625
y: 259.8255615234375
z: -0.34638074040412903
visibility: 0.771346390247345
","x: 229.48013305664062
y: 333.5655517578125
z: 0.12221040576696396
visibility: 0.9949896931648254
","x: 225.3519744873047
y: 333.7440185546875
z: -0.12200559675693512
visibility: 0.9954653382301331
","x: 250.4017333984375
y: 412.23486328125
z: 0.12876608967781067
visibility: 0.30992555618286133
","x: 250.17539978027344
y: 414.70526123046875
z: -0.10603614151477814
visibility: 0.9809514284133911
","x: 238.91766357421875
y: 498.75537109375
z: 0.18482622504234314
visibility: 0.5341355204582214
","x: 238.6890106201172
y: 508.7161560058594
z: -0.05259566381573677
visibility: 0.9810716509819031
","x: 232.982666015625
y: 514.9072875976562
z: 0.1856306791305542
visibility: 0.6012471914291382
","x: 232.9401397705078
y: 522.704833984375
z: -0.0512990839779377
visibility: 0.9583683609962463
","x: 262.3628234863281
y: 516.3208618164062
z: 0.13927118480205536
visibility: 0.7292470932006836
","x: 261.9495849609375
y: 524.3762817382812
z: -0.1177491545677185
visibility: 0.9744135141372681
",,,,,,,,,,,,,,,,,,,,,,,,,,,,,,,,,,,,,,,,,,
1,"x: 283.7665100097656
y: 270.2540283203125
z: -0.045967236161231995
visibility: 0.9990794658660889
","x: 286.0514221191406
y: 261.84295654296875
z: -0.03583816811442375
visibility: 0.9983400106430054
","x: 285.765625
y: 261.09136962890625
z: -0.03584248200058937
visibility: 0.9981046319007874
","x: 285.4045715332031
y: 260.1181640625
z: -0.035845208913087845
visibility: 0.9987123608589172
","x: 285.9930419921875
y: 261.1131591796875
z: -0.070924311876297
visibility: 0.9989944100379944
","x: 285.6889343261719
y: 260.1117248535156
z: -0.07095445692539215
visibility: 0.9990541934967041
","x: 285.3102722167969
y: 259.05865478515625
z: -0.07104084640741348
visibility: 0.999278724193573
","x: 279.80810546875
y: 252.78768920898438
z: 0.015510166063904762
visibility: 0.9974481463432312
","x: 280.1734619140625
y: 253.98196411132812
z: -0.1422310620546341
visibility: 0.9985612630844116
","x: 279.2691955566406
y: 272.06170654296875
z: -0.022028597071766853
visibility: 0.9965717792510986
","x: 279.1253967285156
y: 270.7960205078125
z: -0.06856746971607208
visibility: 0.9983262419700623
","x: 252.43406677246094
y: 269.70849609375
z: 0.1259438395500183
visibility: 0.9938969016075134
","x: 258.1550598144531
y: 270.9130859375
z: -0.21850299835205078
visibility: 0.9997287392616272
","x: 245.10897827148438
y: 312.23931884765625
z: 0.2849445641040802
visibility: 0.03930939733982086
","x: 241.65670776367188
y: 320.3818054199219
z: -0.3001423478126526
visibility: 0.9710403680801392
","x: 269.916748046875
y: 324.6869201660156
z: 0.36322563886642456
visibility: 0.06572547554969788
","x: 258.388427734375
y: 368.7588195800781
z: -0.31391042470932007
visibility: 0.8993552327156067
","x: 275.5789794921875
y: 328.01251220703125
z: 0.3923949599266052
visibility: 0.08942276239395142
","x: 261.3636169433594
y: 385.7910461425781
z: -0.34070640802383423
visibility: 0.8786509037017822
","x: 277.2611389160156
y: 329.00830078125
z: 0.3626096546649933
visibility: 0.09520621597766876
","x: 264.4857177734375
y: 379.765380859375
z: -0.33343636989593506
visibility: 0.867615282535553
","x: 275.0055236816406
y: 328.06378173828125
z: 0.35229745507240295
visibility: 0.10305363684892654
","x: 263.3942565917969
y: 375.1669921875
z: -0.309800922870636
visibility: 0.7819543480873108
","x: 226.29400634765625
y: 371.6987609863281
z: 0.11608531326055527
visibility: 0.9953940510749817
","x: 225.859130859375
y: 375.80078125
z: -0.11602194607257843
visibility: 0.995866596698761
","x: 260.43536376953125
y: 399.5758361816406
z: 0.15187616646289825
visibility: 0.3164825141429901
","x: 259.56048583984375
y: 413.8166809082031
z: -0.086760513484478
visibility: 0.9804684519767761
","x: 244.7124481201172
y: 472.80157470703125
z: 0.2509698271751404
visibility: 0.5273290276527405
","x: 239.47695922851562
y: 505.6100158691406
z: 0.014225713908672333
visibility: 0.9780192971229553
","x: 245.2421417236328
y: 486.38629150390625
z: 0.25844720005989075
visibility: 0.5929810404777527
","x: 232.9799346923828
y: 519.0001220703125
z: 0.023922119289636612
visibility: 0.9520987272262573
","x: 263.1378173828125
y: 498.5044860839844
z: 0.2489679604768753
visibility: 0.723641037940979
","x: 262.0584411621094
y: 521.45166015625
z: -0.005566764622926712
visibility: 0.9722450971603394
","x: 256.7481689453125
y: 381.9978332519531
z: 0.0
","x: 258.6662902832031
y: 391.6351013183594
z: 0.0014198165154084563
","x: 261.7062683105469
y: 398.75115966796875
z: 0.0012116874568164349
","x: 263.2612609863281
y: 404.87567138671875
z: -5.4495139920618385e-05
","x: 263.7515869140625
y: 409.4793701171875
z: -0.0008004928822629154
","x: 267.151123046875
y: 392.9856872558594
z: 0.002654634416103363
","x: 268.5494384765625
y: 402.0570068359375
z: 0.0001793245319277048
","x: 266.8042907714844
y: 407.21417236328125
z: -0.0014440756058320403
","x: 265.3782653808594
y: 409.4729309082031
z: -0.0022182788234204054
","x: 267.135986328125
y: 391.60552978515625
z: 2.953845978481695e-05
","x: 268.2467346191406
y: 401.6751403808594
z: -0.0030545336194336414
","x: 266.4286804199219
y: 406.3240966796875
z: -0.004430995788425207
","x: 264.99560546875
y: 407.54937744140625
z: -0.004860560875386
","x: 266.49591064453125
y: 390.60528564453125
z: -0.002881840104237199
","x: 267.72698974609375
y: 400.0567932128906
z: -0.0051964824087917805
","x: 266.1532897949219
y: 403.8050842285156
z: -0.004634925164282322
","x: 264.7706298828125
y: 404.3908386230469
z: -0.003898771246895194
","x: 265.2608642578125
y: 389.9612731933594
z: -0.005991337820887566
","x: 266.8425598144531
y: 397.34906005859375
z: -0.0071945348754525185
","x: 266.2135009765625
y: 400.6375427246094
z: -0.006354399491101503
","x: 265.40521240234375
y: 401.49346923828125
z: -0.005450149532407522
",,,,,,,,,,,,,,,,,,,,,
2,"x: 283.7665100097656
y: 270.2540283203125
z: -0.045967236161231995
visibility: 0.9990794658660889
","x: 286.0514221191406
y: 261.84295654296875
z: -0.03583816811442375
visibility: 0.9983400106430054
","x: 285.765625
y: 261.09136962890625
z: -0.03584248200058937
visibility: 0.9981046319007874
","x: 285.4045715332031
y: 260.1181640625
z: -0.035845208913087845
visibility: 0.9987123608589172
","x: 285.9930419921875
y: 261.1131591796875
z: -0.070924311876297
visibility: 0.9989944100379944
","x: 285.6889343261719
y: 260.1117248535156
z: -0.07095445692539215
visibility: 0.9990541934967041
","x: 285.3102722167969
y: 259.05865478515625
z: -0.07104084640741348
visibility: 0.999278724193573
","x: 279.80810546875
y: 252.78768920898438
z: 0.015510166063904762
visibility: 0.9974481463432312
","x: 280.1734619140625
y: 253.98196411132812
z: -0.1422310620546341
visibility: 0.9985612630844116
","x: 279.2691955566406
y: 272.06170654296875
z: -0.022028597071766853
visibility: 0.9965717792510986
","x: 279.1253967285156
y: 270.7960205078125
z: -0.06856746971607208
visibility: 0.9983262419700623
","x: 252.43406677246094
y: 269.70849609375
z: 0.1259438395500183
visibility: 0.9938969016075134
","x: 258.1550598144531
y: 270.9130859375
z: -0.21850299835205078
visibility: 0.9997287392616272
","x: 245.10897827148438
y: 312.23931884765625
z: 0.2849445641040802
visibility: 0.03930939733982086
","x: 241.65670776367188
y: 320.3818054199219
z: -0.3001423478126526
visibility: 0.9710403680801392
","x: 269.916748046875
y: 324.6869201660156
z: 0.36322563886642456
visibility: 0.06572547554969788
","x: 258.388427734375
y: 368.7588195800781
z: -0.31391042470932007
visibility: 0.8993552327156067
","x: 275.5789794921875
y: 328.01251220703125
z: 0.3923949599266052
visibility: 0.08942276239395142
","x: 261.3636169433594
y: 385.7910461425781
z: -0.34070640802383423
visibility: 0.8786509037017822
","x: 277.2611389160156
y: 329.00830078125
z: 0.3626096546649933
visibility: 0.09520621597766876
","x: 264.4857177734375
y: 379.765380859375
z: -0.33343636989593506
visibility: 0.867615282535553
","x: 275.0055236816406
y: 328.06378173828125
z: 0.35229745507240295
visibility: 0.10305363684892654
","x: 263.3942565917969
y: 375.1669921875
z: -0.309800922870636
visibility: 0.7819543480873108
","x: 226.29400634765625
y: 371.6987609863281
z: 0.11608531326055527
visibility: 0.9953940510749817
","x: 225.859130859375
y: 375.80078125
z: -0.11602194607257843
visibility: 0.995866596698761
","x: 260.43536376953125
y: 399.5758361816406
z: 0.15187616646289825
visibility: 0.3164825141429901
","x: 259.56048583984375
y: 413.8166809082031
z: -0.086760513484478
visibility: 0.9804684519767761
","x: 244.7124481201172
y: 472.80157470703125
z: 0.2509698271751404
visibility: 0.5273290276527405
","x: 239.47695922851562
y: 505.6100158691406
z: 0.014225713908672333
visibility: 0.9780192971229553
","x: 245.2421417236328
y: 486.38629150390625
z: 0.25844720005989075
visibility: 0.5929810404777527
","x: 232.9799346923828
y: 519.0001220703125
z: 0.023922119289636612
visibility: 0.9520987272262573
","x: 263.1378173828125
y: 498.5044860839844
z: 0.2489679604768753
visibility: 0.723641037940979
","x: 262.0584411621094
y: 521.45166015625
z: -0.005566764622926712
visibility: 0.9722450971603394
","x: 256.7481689453125
y: 381.9978332519531
z: 0.0
","x: 258.6662902832031
y: 391.6351013183594
z: 0.0014198165154084563
","x: 261.7062683105469
y: 398.75115966796875
z: 0.0012116874568164349
","x: 263.2612609863281
y: 404.87567138671875
z: -5.4495139920618385e-05
","x: 263.7515869140625
y: 409.4793701171875
z: -0.0008004928822629154
","x: 267.151123046875
y: 392.9856872558594
z: 0.002654634416103363
","x: 268.5494384765625
y: 402.0570068359375
z: 0.0001793245319277048
","x: 266.8042907714844
y: 407.21417236328125
z: -0.0014440756058320403
","x: 265.3782653808594
y: 409.4729309082031
z: -0.0022182788234204054
","x: 267.135986328125
y: 391.60552978515625
z: 2.953845978481695e-05
","x: 268.2467346191406
y: 401.6751403808594
z: -0.0030545336194336414
","x: 266.4286804199219
y: 406.3240966796875
z: -0.004430995788425207
","x: 264.99560546875
y: 407.54937744140625
z: -0.004860560875386
","x: 266.49591064453125
y: 390.60528564453125
z: -0.002881840104237199
","x: 267.72698974609375
y: 400.0567932128906
z: -0.0051964824087917805
","x: 266.1532897949219
y: 403.8050842285156
z: -0.004634925164282322
","x: 264.7706298828125
y: 404.3908386230469
z: -0.003898771246895194
","x: 265.2608642578125
y: 389.9612731933594
z: -0.005991337820887566
","x: 266.8425598144531
y: 397.34906005859375
z: -0.0071945348754525185
","x: 266.2135009765625
y: 400.6375427246094
z: -0.006354399491101503
","x: 265.40521240234375
y: 401.49346923828125
z: -0.005450149532407522
",,,,,,,,,,,,,,,,,,,,,
3,"x: 288.4540100097656
y: 278.8584289550781
z: -0.11064392328262329
visibility: 0.9991616606712341
","x: 290.17755126953125
y: 270.8429260253906
z: -0.09859416633844376
visibility: 0.9984881281852722
","x: 289.8321838378906
y: 270.14111328125
z: -0.09858160465955734
visibility: 0.9982712864875793
","x: 289.405029296875
y: 269.3075866699219
z: -0.09858152270317078
visibility: 0.9988204836845398
","x: 290.15435791015625
y: 270.2544250488281
z: -0.1345389187335968
visibility: 0.9990841150283813
","x: 289.8060607910156
y: 269.34588623046875
z: -0.13455134630203247
visibility: 0.9991376399993896
","x: 289.3587646484375
y: 268.42578125
z: -0.13462483882904053
visibility: 0.9993411898612976
","x: 283.4273376464844
y: 262.33050537109375
z: -0.03548692911863327
visibility: 0.9976681470870972
","x: 283.68212890625
y: 263.3657531738281
z: -0.1984483152627945
visibility: 0.9986898899078369
","x: 283.9634094238281
y: 281.1208801269531
z: -0.08284854143857956
visibility: 0.9968394041061401
","x: 283.78350830078125
y: 280.1714782714844
z: -0.13057664036750793
visibility: 0.9984676837921143
","x: 255.98471069335938
y: 279.94921875
z: 0.08749033510684967
visibility: 0.9944294691085815
","x: 260.11767578125
y: 286.9683837890625
z: -0.2634882926940918
visibility: 0.9997487664222717
","x: 245.8933868408203
y: 304.5259704589844
z: 0.26913851499557495
visibility: 0.04093971103429794
","x: 241.3301239013672
y: 337.4468688964844
z: -0.3062780201435089
visibility: 0.96754390001297
","x: 272.4958190917969
y: 308.6002197265625
z: 0.3872125446796417
visibility: 0.07348689436912537
","x: 250.5528564453125
y: 395.02490234375
z: -0.2894534468650818
visibility: 0.8981462121009827
","x: 277.6794128417969
y: 311.7737731933594
z: 0.41875237226486206
visibility: 0.09645775705575943
","x: 252.98037719726562
y: 408.85150146484375
z: -0.3131798207759857
visibility: 0.8762936592102051
","x: 278.1390380859375
y: 311.4909973144531
z: 0.3935740888118744
visibility: 0.10232347995042801
","x: 256.2067565917969
y: 405.30694580078125
z: -0.31440141797065735
visibility: 0.8666515946388245
","x: 275.20184326171875
y: 310.84893798828125
z: 0.37903881072998047
visibility: 0.11022743582725525
","x: 254.54380798339844
y: 397.8981018066406
z: -0.28777265548706055
visibility: 0.7795964479446411
","x: 226.61328125
y: 374.934814453125
z: 0.1163102388381958
visibility: 0.9958194494247437
","x: 225.377685546875
y: 377.9293518066406
z: -0.11627818644046783
visibility: 0.9962312579154968
","x: 261.1898498535156
y: 419.60595703125
z: 0.1260404884815216
visibility: 0.34226927161216736
","x: 258.9060363769531
y: 426.818603515625
z: -0.1425483375787735
visibility: 0.9799717664718628
","x: 243.97894287109375
y: 491.11572265625
z: 0.20184655487537384
visibility: 0.5535458922386169
","x: 228.95001220703125
y: 504.1131286621094
z: -0.013297024182975292
visibility: 0.9770351648330688
","x: 241.9622039794922
y: 505.1443786621094
z: 0.20698387920856476
visibility: 0.6130120158195496
","x: 217.75729370117188
y: 514.7710571289062
z: -0.00642127450555563
visibility: 0.9479762315750122
","x: 263.042236328125
y: 511.03497314453125
z: 0.23246340453624725
visibility: 0.7376671433448792
","x: 241.11451721191406
y: 527.494873046875
z: -0.035834066569805145
visibility: 0.9720836281776428
",,,,,,,,,,,,,,,,,,,,,,,,,,,,,,,,,,,,,,,,,,
4,"x: 287.295166015625
y: 277.0225830078125
z: -0.14402666687965393
visibility: 0.9992218017578125
","x: 288.99407958984375
y: 267.529541015625
z: -0.13324019312858582
visibility: 0.9985882639884949
","x: 288.7806396484375
y: 266.8350830078125
z: -0.13325633108615875
visibility: 0.9983724355697632
","x: 288.4932556152344
y: 266.04205322265625
z: -0.13328009843826294
visibility: 0.9988794326782227
","x: 288.542236328125
y: 267.4674072265625
z: -0.17008432745933533
visibility: 0.9991512298583984
","x: 288.0357666015625
y: 266.8146667480469
z: -0.17011305689811707
visibility: 0.999200701713562
","x: 287.4571533203125
y: 266.1469421386719
z: -0.1702151596546173
visibility: 0.9993901252746582
","x: 281.9745788574219
y: 261.4016418457031
z: -0.06862243264913559
visibility: 0.9978030920028687
","x: 281.32904052734375
y: 262.6422424316406
z: -0.23576319217681885
visibility: 0.9987974166870117
","x: 283.1235046386719
y: 282.04632568359375
z: -0.11560945212841034
visibility: 0.9970604181289673
","x: 282.4042663574219
y: 281.75579833984375
z: -0.16433922946453094
visibility: 0.9985952377319336
","x: 259.912109375
y: 280.09771728515625
z: 0.06311531364917755
visibility: 0.9948835372924805
","x: 257.68878173828125
y: 290.37823486328125
z: -0.3026033043861389
visibility: 0.9997692108154297
","x: 253.5348358154297
y: 317.7325134277344
z: 0.2337995022535324
visibility: 0.04029553383588791
","x: 241.04562377929688
y: 350.4300537109375
z: -0.34551891684532166
visibility: 0.9683971405029297
","x: 274.24432373046875
y: 316.6379699707031
z: 0.3316129744052887
visibility: 0.07301998883485794
","x: 243.41183471679688
y: 409.42218017578125
z: -0.30912962555885315
visibility: 0.9031012058258057
","x: 280.7322692871094
y: 317.98394775390625
z: 0.3613472580909729
visibility: 0.09552931040525436
","x: 241.76657104492188
y: 426.817626953125
z: -0.3282589018344879
visibility: 0.8811905384063721
","x: 281.17901611328125
y: 319.4735107421875
z: 0.33903706073760986
visibility: 0.1008276641368866
","x: 246.97935485839844
y: 427.8158264160156
z: -0.35112327337265015
visibility: 0.8726397156715393
","x: 278.8974304199219
y: 319.8308410644531
z: 0.3247716724872589
visibility: 0.10835343599319458
","x: 248.03163146972656
y: 422.18951416015625
z: -0.31525611877441406
visibility: 0.7891681790351868
","x: 228.2189483642578
y: 376.04791259765625
z: 0.1137862354516983
visibility: 0.9962000846862793
","x: 223.4453125
y: 377.0444030761719
z: -0.11378048360347748
visibility: 0.9965311288833618
","x: 264.40777587890625
y: 425.743896484375
z: 0.07347852736711502
visibility: 0.38213011622428894
","x: 258.1253662109375
y: 439.13861083984375
z: -0.18271338939666748
visibility: 0.9796963930130005
","x: 242.4409637451172
y: 497.0701599121094
z: 0.13251999020576477
visibility: 0.5871484875679016
","x: 218.96453857421875
y: 499.53912353515625
z: -0.05267997458577156
visibility: 0.9764738082885742
","x: 238.53070068359375
y: 505.60467529296875
z: 0.13471825420856476
visibility: 0.6391497254371643
","x: 206.40151977539062
y: 499.7872619628906
z: -0.03733859583735466
visibility: 0.9446635246276855
","x: 261.9394226074219
y: 518.3080444335938
z: 0.10299726575613022
visibility: 0.7528166770935059
","x: 221.42977905273438
y: 535.2312622070312
z: -0.059730611741542816
visibility: 0.9711605906486511
",,,,,,,,,,,,,,,,,,,,,,,,,,,,,,,,,,,,,,,,,,
5,"x: 287.2579650878906
y: 270.1414794921875
z: -0.1570827066898346
visibility: 0.9992977380752563
","x: 287.93902587890625
y: 260.4355773925781
z: -0.14114724099636078
visibility: 0.998725950717926
","x: 287.604736328125
y: 259.77197265625
z: -0.14116503298282623
visibility: 0.9985296726226807
","x: 287.17303466796875
y: 258.9840393066406
z: -0.1411912739276886
visibility: 0.9989871382713318
","x: 287.2118225097656
y: 260.4200439453125
z: -0.17744684219360352
visibility: 0.9992347359657288
","x: 286.40875244140625
y: 259.840576171875
z: -0.17744415998458862
visibility: 0.9992790818214417
","x: 285.5228576660156
y: 259.18572998046875
z: -0.17750146985054016
visibility: 0.9994499087333679
","x: 280.03021240234375
y: 256.2241516113281
z: -0.05956805869936943
visibility: 0.9980153441429138
","x: 278.7337341308594
y: 256.8838195800781
z: -0.2237909585237503
visibility: 0.9989155530929565
","x: 283.0654602050781
y: 275.87530517578125
z: -0.12335596233606339
visibility: 0.9973433017730713
","x: 281.9148254394531
y: 275.4062194824219
z: -0.17096568644046783
visibility: 0.9987330436706543
","x: 263.6730651855469
y: 277.21826171875
z: 0.06811793893575668
visibility: 0.9953750371932983
","x: 254.53250122070312
y: 289.1455383300781
z: -0.2839716076850891
visibility: 0.99978107213974
","x: 269.1040344238281
y: 302.67724609375
z: 0.24656391143798828
visibility: 0.06534848362207413
","x: 234.7305908203125
y: 348.93701171875
z: -0.34823206067085266
visibility: 0.9704832434654236
","x: 280.8808288574219
y: 318.8981018066406
z: 0.3316318690776825
visibility: 0.1338760256767273
","x: 234.91989135742188
y: 409.8522644042969
z: -0.344041109085083
visibility: 0.9105321764945984
","x: 284.805908203125
y: 324.2339782714844
z: 0.3564421832561493
visibility: 0.15333305299282074
","x: 234.05728149414062
y: 425.9234924316406
z: -0.3736267685890198
visibility: 0.8890220522880554
","x: 284.1522216796875
y: 324.6282653808594
z: 0.3289622962474823
visibility: 0.1590757966041565
","x: 238.69186401367188
y: 427.3814697265625
z: -0.3829347491264343
visibility: 0.8812556862831116
","x: 282.26873779296875
y: 323.7833251953125
z: 0.3224917948246002
visibility: 0.16486756503582
","x: 239.5703582763672
y: 421.7139892578125
z: -0.3462766408920288
visibility: 0.8031555414199829
","x: 230.3228302001953
y: 369.9326171875
z: 0.10909242928028107
visibility: 0.996550977230072
","x: 222.18955993652344
y: 373.5986022949219
z: -0.10914351791143417
visibility: 0.9967625141143799
","x: 266.8164978027344
y: 422.8167724609375
z: 0.09156542271375656
visibility: 0.41165658831596375
","x: 264.5670166015625
y: 422.47515869140625
z: -0.1498444378376007
visibility: 0.9789510369300842
","x: 242.2885284423828
y: 492.5804443359375
z: 0.1307915896177292
visibility: 0.6007976531982422
","x: 233.0340576171875
y: 493.3145751953125
z: -0.03504069894552231
visibility: 0.9756630063056946
","x: 235.02996826171875
y: 500.6917724609375
z: 0.13154196739196777
visibility: 0.6484693884849548
","x: 218.8425750732422
y: 498.1396484375
z: -0.021107668057084084
visibility: 0.9425937533378601
","x: 261.7433166503906
y: 519.2923583984375
z: 0.10945264250040054
visibility: 0.7539142370223999
","x: 236.7667694091797
y: 533.7573852539062
z: -0.03241205960512161
visibility: 0.9690871834754944
","x: 235.842529296875
y: 412.0682067871094
z: 0.0
","x: 239.4466552734375
y: 417.683837890625
z: -0.0006827949546277523
","x: 241.42759704589844
y: 426.526123046875
z: -0.00189256202429533
","x: 241.13897705078125
y: 434.28240966796875
z: -0.004019128158688545
","x: 240.12255859375
y: 439.6954040527344
z: -0.00539439870044589
","x: 241.57530212402344
y: 432.3968200683594
z: -0.00036307386471889913
","x: 239.90150451660156
y: 442.45574951171875
z: -0.004137364681810141
","x: 240.05911254882812
y: 438.6413879394531
z: -0.004985362756997347
","x: 240.642822265625
y: 435.0888366699219
z: -0.004975003655999899
","x: 238.78785705566406
y: 432.36541748046875
z: -0.0025566881522536278
","x: 236.84877014160156
y: 441.81585693359375
z: -0.007539292797446251
","x: 237.09640502929688
y: 436.56378173828125
z: -0.007620887830853462
","x: 237.6509552001953
y: 433.29083251953125
z: -0.00634529534727335
","x: 235.91400146484375
y: 431.608642578125
z: -0.005297705065459013
","x: 234.1189422607422
y: 439.5701599121094
z: -0.009281360544264317
","x: 234.6310272216797
y: 434.47540283203125
z: -0.007207938935607672
","x: 235.15399169921875
y: 431.2982177734375
z: -0.004787966143339872
","x: 232.82872009277344
y: 430.2562255859375
z: -0.008441081270575523
","x: 231.57110595703125
y: 437.52130126953125
z: -0.009903051890432835
","x: 232.05795288085938
y: 434.3557434082031
z: -0.008169514127075672
","x: 232.49758911132812
y: 431.4431457519531
z: -0.006260695867240429
",,,,,,,,,,,,,,,,,,,,,
6,"x: 287.2579650878906
y: 270.1414794921875
z: -0.1570827066898346
visibility: 0.9992977380752563
","x: 287.93902587890625
y: 260.4355773925781
z: -0.14114724099636078
visibility: 0.998725950717926
","x: 287.604736328125
y: 259.77197265625
z: -0.14116503298282623
visibility: 0.9985296726226807
","x: 287.17303466796875
y: 258.9840393066406
z: -0.1411912739276886
visibility: 0.9989871382713318
","x: 287.2118225097656
y: 260.4200439453125
z: -0.17744684219360352
visibility: 0.9992347359657288
","x: 286.40875244140625
y: 259.840576171875
z: -0.17744415998458862
visibility: 0.9992790818214417
","x: 285.5228576660156
y: 259.18572998046875
z: -0.17750146985054016
visibility: 0.9994499087333679
","x: 280.03021240234375
y: 256.2241516113281
z: -0.05956805869936943
visibility: 0.9980153441429138
","x: 278.7337341308594
y: 256.8838195800781
z: -0.2237909585237503
visibility: 0.9989155530929565
","x: 283.0654602050781
y: 275.87530517578125
z: -0.12335596233606339
visibility: 0.9973433017730713
","x: 281.9148254394531
y: 275.4062194824219
z: -0.17096568644046783
visibility: 0.9987330436706543
","x: 263.6730651855469
y: 277.21826171875
z: 0.06811793893575668
visibility: 0.9953750371932983
","x: 254.53250122070312
y: 289.1455383300781
z: -0.2839716076850891
visibility: 0.99978107213974
","x: 269.1040344238281
y: 302.67724609375
z: 0.24656391143798828
visibility: 0.06534848362207413
","x: 234.7305908203125
y: 348.93701171875
z: -0.34823206067085266
visibility: 0.9704832434654236
","x: 280.8808288574219
y: 318.8981018066406
z: 0.3316318690776825
visibility: 0.1338760256767273
","x: 234.91989135742188
y: 409.8522644042969
z: -0.344041109085083
visibility: 0.9105321764945984
","x: 284.805908203125
y: 324.2339782714844
z: 0.3564421832561493
visibility: 0.15333305299282074
","x: 234.05728149414062
y: 425.9234924316406
z: -0.3736267685890198
visibility: 0.8890220522880554
","x: 284.1522216796875
y: 324.6282653808594
z: 0.3289622962474823
visibility: 0.1590757966041565
","x: 238.69186401367188
y: 427.3814697265625
z: -0.3829347491264343
visibility: 0.8812556862831116
","x: 282.26873779296875
y: 323.7833251953125
z: 0.3224917948246002
visibility: 0.16486756503582
","x: 239.5703582763672
y: 421.7139892578125
z: -0.3462766408920288
visibility: 0.8031555414199829
","x: 230.3228302001953
y: 369.9326171875
z: 0.10909242928028107
visibility: 0.996550977230072
","x: 222.18955993652344
y: 373.5986022949219
z: -0.10914351791143417
visibility: 0.9967625141143799
","x: 266.8164978027344
y: 422.8167724609375
z: 0.09156542271375656
visibility: 0.41165658831596375
","x: 264.5670166015625
y: 422.47515869140625
z: -0.1498444378376007
visibility: 0.9789510369300842
","x: 242.2885284423828
y: 492.5804443359375
z: 0.1307915896177292
visibility: 0.6007976531982422
","x: 233.0340576171875
y: 493.3145751953125
z: -0.03504069894552231
visibility: 0.9756630063056946
","x: 235.02996826171875
y: 500.6917724609375
z: 0.13154196739196777
visibility: 0.6484693884849548
","x: 218.8425750732422
y: 498.1396484375
z: -0.021107668057084084
visibility: 0.9425937533378601
","x: 261.7433166503906
y: 519.2923583984375
z: 0.10945264250040054
visibility: 0.7539142370223999
","x: 236.7667694091797
y: 533.7573852539062
z: -0.03241205960512161
visibility: 0.9690871834754944
","x: 235.842529296875
y: 412.0682067871094
z: 0.0
","x: 239.4466552734375
y: 417.683837890625
z: -0.0006827949546277523
","x: 241.42759704589844
y: 426.526123046875
z: -0.00189256202429533
","x: 241.13897705078125
y: 434.28240966796875
z: -0.004019128158688545
","x: 240.12255859375
y: 439.6954040527344
z: -0.00539439870044589
","x: 241.57530212402344
y: 432.3968200683594
z: -0.00036307386471889913
","x: 239.90150451660156
y: 442.45574951171875
z: -0.004137364681810141
","x: 240.05911254882812
y: 438.6413879394531
z: -0.004985362756997347
","x: 240.642822265625
y: 435.0888366699219
z: -0.004975003655999899
","x: 238.78785705566406
y: 432.36541748046875
z: -0.0025566881522536278
","x: 236.84877014160156
y: 441.81585693359375
z: -0.007539292797446251
","x: 237.09640502929688
y: 436.56378173828125
z: -0.007620887830853462
","x: 237.6509552001953
y: 433.29083251953125
z: -0.00634529534727335
","x: 235.91400146484375
y: 431.608642578125
z: -0.005297705065459013
","x: 234.1189422607422
y: 439.5701599121094
z: -0.009281360544264317
","x: 234.6310272216797
y: 434.47540283203125
z: -0.007207938935607672
","x: 235.15399169921875
y: 431.2982177734375
z: -0.004787966143339872
","x: 232.82872009277344
y: 430.2562255859375
z: -0.008441081270575523
","x: 231.57110595703125
y: 437.52130126953125
z: -0.009903051890432835
","x: 232.05795288085938
y: 434.3557434082031
z: -0.008169514127075672
","x: 232.49758911132812
y: 431.4431457519531
z: -0.006260695867240429
",,,,,,,,,,,,,,,,,,,,,
7,"x: 286.1756591796875
y: 261.42864990234375
z: -0.16053485870361328
visibility: 0.9993668794631958
","x: 286.14605712890625
y: 251.97073364257812
z: -0.14221496880054474
visibility: 0.9988512992858887
","x: 285.7821960449219
y: 251.31536865234375
z: -0.14222665131092072
visibility: 0.9986734390258789
","x: 285.3417663574219
y: 250.57720947265625
z: -0.14224153757095337
visibility: 0.9990862607955933
","x: 285.52783203125
y: 251.79010009765625
z: -0.1811216175556183
visibility: 0.9993105530738831
","x: 284.74658203125
y: 251.13616943359375
z: -0.1811269223690033
visibility: 0.9993503093719482
","x: 283.87506103515625
y: 250.42935180664062
z: -0.18122664093971252
visibility: 0.9995043277740479
","x: 279.0208740234375
y: 249.28152465820312
z: -0.053688786923885345
visibility: 0.9982102513313293
","x: 277.4013977050781
y: 249.0261688232422
z: -0.22937139868736267
visibility: 0.9990230202674866
","x: 282.32281494140625
y: 267.5953369140625
z: -0.12477735430002213
visibility: 0.9976040720939636
","x: 281.1698913574219
y: 266.7991943359375
z: -0.17581894993782043
visibility: 0.9988585114479065
","x: 266.9635925292969
y: 277.171875
z: 0.07521382719278336
visibility: 0.9958330392837524
","x: 253.37205505371094
y: 283.87744140625
z: -0.28647056221961975
visibility: 0.9997977018356323
","x: 271.2825622558594
y: 303.73870849609375
z: 0.2602419853210449
visibility: 0.11343598365783691
","x: 222.9913330078125
y: 337.8280334472656
z: -0.3717997670173645
visibility: 0.9730596542358398
","x: 280.6943359375
y: 330.6970520019531
z: 0.34962698817253113
visibility: 0.2109682261943817
","x: 225.77210998535156
y: 397.5360412597656
z: -0.38634610176086426
visibility: 0.9188362956047058
","x: 284.38726806640625
y: 342.00311279296875
z: 0.37783342599868774
visibility: 0.2269235998392105
","x: 223.69871520996094
y: 414.670654296875
z: -0.418844997882843
visibility: 0.8986947536468506
","x: 283.6009216308594
y: 342.3834228515625
z: 0.3440769612789154
visibility: 0.2329348772764206
","x: 229.35511779785156
y: 415.8676452636719
z: -0.42386704683303833
visibility: 0.8916724920272827
","x: 281.8309020996094
y: 339.1127014160156
z: 0.34050610661506653
visibility: 0.23689402639865875
","x: 230.6494140625
y: 410.21771240234375
z: -0.3864477574825287
visibility: 0.8199679255485535
","x: 232.08636474609375
y: 367.4837646484375
z: 0.11045663058757782
visibility: 0.9968858361244202
","x: 222.22515869140625
y: 369.11456298828125
z: -0.11038215458393097
visibility: 0.9970364570617676
","x: 267.5914306640625
y: 420.523193359375
z: 0.09709513187408447
visibility: 0.44898560643196106
","x: 268.93048095703125
y: 413.2130126953125
z: -0.14169451594352722
visibility: 0.9791556596755981
","x: 243.09002685546875
y: 490.6027526855469
z: 0.14842401444911957
visibility: 0.620949387550354
","x: 238.46804809570312
y: 489.1512451171875
z: -0.016261916607618332
visibility: 0.9749283790588379
","x: 234.92434692382812
y: 498.162841796875
z: 0.15032094717025757
visibility: 0.6633655428886414
","x: 226.6939239501953
y: 494.0078125
z: -0.002233631443232298
visibility: 0.9378871917724609
","x: 261.74627685546875
y: 528.1116333007812
z: 0.12314622104167938
visibility: 0.7627896070480347
","x: 237.80648803710938
y: 533.3004150390625
z: -0.01610364206135273
visibility: 0.9672796130180359
","x: 225.67279052734375
y: 402.6942443847656
z: 0.0
","x: 228.58181762695312
y: 409.3629455566406
z: 0.0002496536180842668
","x: 230.01258850097656
y: 417.7994079589844
z: -0.00038855744060128927
","x: 229.65054321289062
y: 424.3041687011719
z: -0.002178039401769638
","x: 228.61837768554688
y: 428.4226989746094
z: -0.0032267849892377853
","x: 228.38685607910156
y: 424.23675537109375
z: 0.001491205533966422
","x: 227.65492248535156
y: 431.6888427734375
z: -0.0017471612663939595
","x: 228.26821899414062
y: 426.1827392578125
z: -0.002421359298750758
","x: 228.62164306640625
y: 422.1563720703125
z: -0.002279402920976281
","x: 225.902587890625
y: 423.8043212890625
z: -0.000822484667878598
","x: 225.10276794433594
y: 430.0201416015625
z: -0.00454750144854188
","x: 225.90199279785156
y: 424.1695556640625
z: -0.004361744970083237
","x: 226.1905975341797
y: 420.84521484375
z: -0.0031825604382902384
","x: 223.4726104736328
y: 422.2640686035156
z: -0.003747527953237295
","x: 222.76991271972656
y: 428.0199890136719
z: -0.00704340822994709
","x: 223.76121520996094
y: 422.7645568847656
z: -0.005355133209377527
","x: 224.19432067871094
y: 419.3829345703125
z: -0.0033152205869555473
","x: 221.0570526123047
y: 419.9111328125
z: -0.006973719224333763
","x: 220.4672088623047
y: 424.88580322265625
z: -0.00817103311419487
","x: 221.36549377441406
y: 421.4691467285156
z: -0.00665025832131505
","x: 221.78822326660156
y: 418.35345458984375
z: -0.004932645242661238
",,,,,,,,,,,,,,,,,,,,,
8,"x: 286.1756591796875
y: 261.42864990234375
z: -0.16053485870361328
visibility: 0.9993668794631958
","x: 286.14605712890625
y: 251.97073364257812
z: -0.14221496880054474
visibility: 0.9988512992858887
","x: 285.7821960449219
y: 251.31536865234375
z: -0.14222665131092072
visibility: 0.9986734390258789
","x: 285.3417663574219
y: 250.57720947265625
z: -0.14224153757095337
visibility: 0.9990862607955933
","x: 285.52783203125
y: 251.79010009765625
z: -0.1811216175556183
visibility: 0.9993105530738831
","x: 284.74658203125
y: 251.13616943359375
z: -0.1811269223690033
visibility: 0.9993503093719482
","x: 283.87506103515625
y: 250.42935180664062
z: -0.18122664093971252
visibility: 0.9995043277740479
","x: 279.0208740234375
y: 249.28152465820312
z: -0.053688786923885345
visibility: 0.9982102513313293
","x: 277.4013977050781
y: 249.0261688232422
z: -0.22937139868736267
visibility: 0.9990230202674866
","x: 282.32281494140625
y: 267.5953369140625
z: -0.12477735430002213
visibility: 0.9976040720939636
","x: 281.1698913574219
y: 266.7991943359375
z: -0.17581894993782043
visibility: 0.9988585114479065
","x: 266.9635925292969
y: 277.171875
z: 0.07521382719278336
visibility: 0.9958330392837524
","x: 253.37205505371094
y: 283.87744140625
z: -0.28647056221961975
visibility: 0.9997977018356323
","x: 271.2825622558594
y: 303.73870849609375
z: 0.2602419853210449
visibility: 0.11343598365783691
","x: 222.9913330078125
y: 337.8280334472656
z: -0.3717997670173645
visibility: 0.9730596542358398
","x: 280.6943359375
y: 330.6970520019531
z: 0.34962698817253113
visibility: 0.2109682261943817
","x: 225.77210998535156
y: 397.5360412597656
z: -0.38634610176086426
visibility: 0.9188362956047058
","x: 284.38726806640625
y: 342.00311279296875
z: 0.37783342599868774
visibility: 0.2269235998392105
","x: 223.69871520996094
y: 414.670654296875
z: -0.418844997882843
visibility: 0.8986947536468506
","x: 283.6009216308594
y: 342.3834228515625
z: 0.3440769612789154
visibility: 0.2329348772764206
","x: 229.35511779785156
y: 415.8676452636719
z: -0.42386704683303833
visibility: 0.8916724920272827
","x: 281.8309020996094
y: 339.1127014160156
z: 0.34050610661506653
visibility: 0.23689402639865875
","x: 230.6494140625
y: 410.21771240234375
z: -0.3864477574825287
visibility: 0.8199679255485535
","x: 232.08636474609375
y: 367.4837646484375
z: 0.11045663058757782
visibility: 0.9968858361244202
","x: 222.22515869140625
y: 369.11456298828125
z: -0.11038215458393097
visibility: 0.9970364570617676
","x: 267.5914306640625
y: 420.523193359375
z: 0.09709513187408447
visibility: 0.44898560643196106
","x: 268.93048095703125
y: 413.2130126953125
z: -0.14169451594352722
visibility: 0.9791556596755981
","x: 243.09002685546875
y: 490.6027526855469
z: 0.14842401444911957
visibility: 0.620949387550354
","x: 238.46804809570312
y: 489.1512451171875
z: -0.016261916607618332
visibility: 0.9749283790588379
","x: 234.92434692382812
y: 498.162841796875
z: 0.15032094717025757
visibility: 0.6633655428886414
","x: 226.6939239501953
y: 494.0078125
z: -0.002233631443232298
visibility: 0.9378871917724609
","x: 261.74627685546875
y: 528.1116333007812
z: 0.12314622104167938
visibility: 0.7627896070480347
","x: 237.80648803710938
y: 533.3004150390625
z: -0.01610364206135273
visibility: 0.9672796130180359
","x: 225.67279052734375
y: 402.6942443847656
z: 0.0
","x: 228.58181762695312
y: 409.3629455566406
z: 0.0002496536180842668
","x: 230.01258850097656
y: 417.7994079589844
z: -0.00038855744060128927
","x: 229.65054321289062
y: 424.3041687011719
z: -0.002178039401769638
","x: 228.61837768554688
y: 428.4226989746094
z: -0.0032267849892377853
","x: 228.38685607910156
y: 424.23675537109375
z: 0.001491205533966422
","x: 227.65492248535156
y: 431.6888427734375
z: -0.0017471612663939595
","x: 228.26821899414062
y: 426.1827392578125
z: -0.002421359298750758
","x: 228.62164306640625
y: 422.1563720703125
z: -0.002279402920976281
","x: 225.902587890625
y: 423.8043212890625
z: -0.000822484667878598
","x: 225.10276794433594
y: 430.0201416015625
z: -0.00454750144854188
","x: 225.90199279785156
y: 424.1695556640625
z: -0.004361744970083237
","x: 226.1905975341797
y: 420.84521484375
z: -0.0031825604382902384
","x: 223.4726104736328
y: 422.2640686035156
z: -0.003747527953237295
","x: 222.76991271972656
y: 428.0199890136719
z: -0.00704340822994709
","x: 223.76121520996094
y: 422.7645568847656
z: -0.005355133209377527
","x: 224.19432067871094
y: 419.3829345703125
z: -0.0033152205869555473
","x: 221.0570526123047
y: 419.9111328125
z: -0.006973719224333763
","x: 220.4672088623047
y: 424.88580322265625
z: -0.00817103311419487
","x: 221.36549377441406
y: 421.4691467285156
z: -0.00665025832131505
","x: 221.78822326660156
y: 418.35345458984375
z: -0.004932645242661238
",,,,,,,,,,,,,,,,,,,,,
9,"x: 284.6160888671875
y: 253.49240112304688
z: -0.2407573014497757
visibility: 0.9994298219680786
","x: 284.7160339355469
y: 244.1034698486328
z: -0.21919560432434082
visibility: 0.9989649653434753
","x: 284.313720703125
y: 243.5214080810547
z: -0.21917971968650818
visibility: 0.9988043308258057
","x: 283.8625793457031
y: 242.91354370117188
z: -0.21918591856956482
visibility: 0.9991761445999146
","x: 284.6276550292969
y: 244.10194396972656
z: -0.25555890798568726
visibility: 0.9993790984153748
","x: 284.5583801269531
y: 243.6661376953125
z: -0.25558415055274963
visibility: 0.9994149208068848
","x: 282.96343994140625
y: 243.278076171875
z: -0.25568801164627075
visibility: 0.9995536208152771
","x: 277.6558837890625
y: 242.85421752929688
z: -0.11481165885925293
visibility: 0.9983868598937988
","x: 277.24237060546875
y: 243.67514038085938
z: -0.27940768003463745
visibility: 0.99912029504776
","x: 281.5161437988281
y: 260.4456787109375
z: -0.19999897480010986
visibility: 0.9978416562080383
","x: 279.73028564453125
y: 259.88458251953125
z: -0.24785658717155457
visibility: 0.9989722371101379
","x: 269.2911376953125
y: 272.8013916015625
z: 0.02046448178589344
visibility: 0.9962459206581116
","x: 251.4479217529297
y: 285.79388427734375
z: -0.31149476766586304
visibility: 0.9998143315315247
","x: 275.3551330566406
y: 300.10308837890625
z: 0.23015272617340088
visibility: 0.16837932169437408
","x: 216.30894470214844
y: 328.9215087890625
z: -0.3907312750816345
visibility: 0.9754737019538879
","x: 283.035888671875
y: 321.50933837890625
z: 0.3458622992038727
visibility: 0.2814582586288452
","x: 211.57199096679688
y: 386.9894714355469
z: -0.40332669019699097
visibility: 0.9262186288833618
","x: 285.8342590332031
y: 332.07696533203125
z: 0.3751029372215271
visibility: 0.293093740940094
","x: 207.892822265625
y: 402.71728515625
z: -0.4308219850063324
visibility: 0.906982421875
","x: 284.39501953125
y: 332.95269775390625
z: 0.3436077833175659
visibility: 0.29912295937538147
","x: 212.95094299316406
y: 404.7449951171875
z: -0.44131484627723694
visibility: 0.9005792140960693
","x: 282.8503112792969
y: 330.06231689453125
z: 0.3381991982460022
visibility: 0.301306813955307
","x: 214.5980987548828
y: 400.4833984375
z: -0.4052678048610687
visibility: 0.8344482779502869
","x: 236.76914978027344
y: 368.4877014160156
z: 0.1057843416929245
visibility: 0.9971858859062195
","x: 224.04278564453125
y: 370.6475830078125
z: -0.10586068779230118
visibility: 0.9972720742225647
","x: 266.3119812011719
y: 427.1431884765625
z: -0.012037583626806736
visibility: 0.4952056109905243
","x: 267.006103515625
y: 429.0441589355469
z: -0.2137845754623413
visibility: 0.9788752794265747
","x: 241.88487243652344
y: 498.876220703125
z: 0.07487968355417252
visibility: 0.6500922441482544
","x: 205.2313232421875
y: 483.6894226074219
z: -0.08755914121866226
visibility: 0.9732908010482788
","x: 232.53675842285156
y: 506.7840270996094
z: 0.0800432413816452
visibility: 0.6862130761146545
","x: 191.27435302734375
y: 487.1990661621094
z: -0.07469445466995239
visibility: 0.928821325302124
","x: 258.9591369628906
y: 525.7755126953125
z: 0.035825811326503754
visibility: 0.7782959342002869
","x: 206.61534118652344
y: 521.7109985351562
z: -0.12484202533960342
visibility: 0.9647119045257568
",,,,,,,,,,,,,,,,,,,,,,,,,,,,,,,,,,,,,,,,,,
10,"x: 283.9728698730469
y: 249.90628051757812
z: -0.2554275691509247
visibility: 0.9994866847991943
","x: 284.2641296386719
y: 242.11570739746094
z: -0.23418760299682617
visibility: 0.9990679621696472
","x: 283.78570556640625
y: 241.7644500732422
z: -0.23417703807353973
visibility: 0.9989230632781982
","x: 283.26068115234375
y: 241.73898315429688
z: -0.23417942225933075
visibility: 0.9992577433586121
","x: 284.3934631347656
y: 243.05560302734375
z: -0.2712959945201874
visibility: 0.9994410276412964
","x: 283.7765808105469
y: 241.06605529785156
z: -0.2713150382041931
visibility: 0.9994732737541199
","x: 281.80084228515625
y: 239.51315307617188
z: -0.2714386582374573
visibility: 0.9995981454849243
","x: 276.8277282714844
y: 237.62591552734375
z: -0.13111494481563568
visibility: 0.998546838760376
","x: 275.3537902832031
y: 238.45181274414062
z: -0.29959017038345337
visibility: 0.9992080926895142
","x: 281.7016296386719
y: 260.2955017089844
z: -0.21547269821166992
visibility: 0.9980565905570984
","x: 279.6578063964844
y: 257.087890625
z: -0.26457899808883667
visibility: 0.9990748763084412
","x: 268.00213623046875
y: 268.711669921875
z: 0.0010034205624833703
visibility: 0.9966170191764832
","x: 251.01983642578125
y: 284.42425537109375
z: -0.3315768837928772
visibility: 0.9998315572738647
","x: 276.64678955078125
y: 287.7523498535156
z: 0.2136077582836151
visibility: 0.2146262526512146
","x: 214.48704528808594
y: 325.5652160644531
z: -0.41248399019241333
visibility: 0.9775981903076172
","x: 287.6273498535156
y: 314.35137939453125
z: 0.34152334928512573
visibility: 0.3445596992969513
","x: 204.23504638671875
y: 382.9015808105469
z: -0.4316644072532654
visibility: 0.9329280853271484
","x: 290.18475341796875
y: 323.45428466796875
z: 0.3723990023136139
visibility: 0.35238543152809143
","x: 198.06350708007812
y: 396.7295837402344
z: -0.4588232636451721
visibility: 0.9148620963096619
","x: 288.15679931640625
y: 323.7159423828125
z: 0.34251201152801514
visibility: 0.35804179310798645
","x: 202.69566345214844
y: 399.4340515136719
z: -0.47393614053726196
visibility: 0.9089832305908203
","x: 286.611083984375
y: 321.2692565917969
z: 0.33463361859321594
visibility: 0.35910531878471375
","x: 205.35011291503906
y: 396.53826904296875
z: -0.4357113838195801
visibility: 0.848170816898346
","x: 238.85281372070312
y: 368.7475280761719
z: 0.10508134216070175
visibility: 0.997458279132843
","x: 224.39903259277344
y: 372.47943115234375
z: -0.10531868785619736
visibility: 0.9975255727767944
","x: 268.9698486328125
y: 430.9237976074219
z: 0.041814520955085754
visibility: 0.5417267084121704
","x: 241.52317810058594
y: 457.2015075683594
z: -0.21843397617340088
visibility: 0.9802329540252686
","x: 241.5652313232422
y: 499.04046630859375
z: 0.14375898241996765
visibility: 0.6822143793106079
","x: 185.88990783691406
y: 488.23297119140625
z: -0.1362122744321823
visibility: 0.9750428795814514
","x: 232.31166076660156
y: 509.22918701171875
z: 0.1575140357017517
visibility: 0.7123571038246155
","x: 177.8062744140625
y: 483.19476318359375
z: -0.12910638749599457
visibility: 0.9297318458557129
","x: 259.0065612792969
y: 524.3663940429688
z: 0.11366202682256699
visibility: 0.7971286773681641
","x: 175.975341796875
y: 526.6843872070312
z: -0.19448834657669067
visibility: 0.9666860103607178
",,,,,,,,,,,,,,,,,,,,,,,,,,,,,,,,,,,,,,,,,,
11,"x: 275.47930908203125
y: 233.64601135253906
z: -0.2154882252216339
visibility: 0.9995338916778564
","x: 273.8522644042969
y: 225.40147399902344
z: -0.19741526246070862
visibility: 0.9991422891616821
","x: 273.9955749511719
y: 225.39085388183594
z: -0.19746722280979156
visibility: 0.999015212059021
","x: 274.112060546875
y: 225.57310485839844
z: -0.19751618802547455
visibility: 0.999315619468689
","x: 272.2748107910156
y: 226.37240600585938
z: -0.22594451904296875
visibility: 0.999485433101654
","x: 271.257568359375
y: 226.4658203125
z: -0.22597238421440125
visibility: 0.9995152950286865
","x: 269.93402099609375
y: 226.7906951904297
z: -0.22603563964366913
visibility: 0.9996246695518494
","x: 270.69232177734375
y: 230.0772705078125
z: -0.09880153834819794
visibility: 0.9986727237701416
","x: 264.69158935546875
y: 232.85855102539062
z: -0.27334195375442505
visibility: 0.9992754459381104
","x: 276.0323486328125
y: 243.9400634765625
z: -0.17624790966510773
visibility: 0.9982447624206543
","x: 273.1291809082031
y: 243.28050231933594
z: -0.21352910995483398
visibility: 0.9991644024848938
","x: 273.4354553222656
y: 267.0473937988281
z: 0.0020429755095392466
visibility: 0.9969532489776611
","x: 239.48391723632812
y: 276.18597412109375
z: -0.22216784954071045
visibility: 0.999841034412384
","x: 287.2563171386719
y: 288.99542236328125
z: 0.024020548909902573
visibility: 0.2902238965034485
","x: 212.73216247558594
y: 323.8060302734375
z: -0.24560122191905975
visibility: 0.9794233441352844
","x: 296.5525207519531
y: 311.6207275390625
z: -0.09815430641174316
visibility: 0.4077724814414978
","x: 197.8575439453125
y: 372.56982421875
z: -0.2738834023475647
visibility: 0.9377486705780029
","x: 300.522705078125
y: 319.0531005859375
z: -0.12073962390422821
visibility: 0.4120505154132843
","x: 190.5166015625
y: 386.07916259765625
z: -0.29565587639808655
visibility: 0.919291615486145
","x: 298.3504943847656
y: 318.59820556640625
z: -0.14254578948020935
visibility: 0.4177915155887604
","x: 194.51771545410156
y: 388.5074462890625
z: -0.321336567401886
visibility: 0.9140620827674866
","x: 296.20062255859375
y: 316.8027038574219
z: -0.11079412698745728
visibility: 0.41802066564559937
","x: 197.39276123046875
y: 385.33349609375
z: -0.2823207676410675
visibility: 0.857028067111969
","x: 242.2633056640625
y: 367.2761535644531
z: 0.08084980398416519
visibility: 0.9977082014083862
","x: 221.90731811523438
y: 367.862548828125
z: -0.08084634691476822
visibility: 0.9977433681488037
","x: 267.54473876953125
y: 432.27032470703125
z: -0.12197078764438629
visibility: 0.5856098532676697
","x: 232.11474609375
y: 443.312255859375
z: -0.18155333399772644
visibility: 0.9817607998847961
","x: 241.00262451171875
y: 501.4334716796875
z: -0.0038677770644426346
visibility: 0.7118573784828186
","x: 203.00523376464844
y: 486.4064025878906
z: 0.008979616686701775
visibility: 0.9761649370193481
","x: 230.92250061035156
y: 514.57861328125
z: 0.004383807070553303
visibility: 0.7380315065383911
","x: 193.74169921875
y: 488.0980224609375
z: 0.024268271401524544
visibility: 0.9277721643447876
","x: 258.72979736328125
y: 524.9501342773438
z: -0.06856773793697357
visibility: 0.8153749108314514
","x: 204.4227294921875
y: 515.6331787109375
z: -0.05683596804738045
visibility: 0.9675557613372803
","x: 196.0087432861328
y: 369.7266845703125
z: 0.0
","x: 198.92404174804688
y: 378.7615661621094
z: -0.0006469053332693875
","x: 198.27793884277344
y: 387.3800964355469
z: -0.0008518836693838239
","x: 196.2676239013672
y: 393.7622375488281
z: -0.0005477179074659944
","x: 195.3491668701172
y: 398.7618408203125
z: 0.00031990621937438846
","x: 192.91009521484375
y: 389.1052551269531
z: -0.0028644974809139967
","x: 191.5613555908203
y: 399.5075988769531
z: -0.002591862343251705
","x: 192.55384826660156
y: 402.96771240234375
z: -0.0005178989376872778
","x: 193.62179565429688
y: 404.05047607421875
z: 0.0013731243088841438
","x: 190.3338623046875
y: 386.7706604003906
z: -0.0023330007679760456
","x: 189.06475830078125
y: 397.6869201660156
z: -0.0015370610635727644
","x: 190.13818359375
y: 401.4874267578125
z: 0.0009128425153903663
","x: 191.20135498046875
y: 402.94573974609375
z: 0.0027532242238521576
","x: 188.95248413085938
y: 384.35992431640625
z: -0.0016621157992631197
","x: 188.06134033203125
y: 393.9642333984375
z: -0.001283404417335987
","x: 189.2450408935547
y: 397.75653076171875
z: 9.742950351210311e-05
","x: 190.4181365966797
y: 399.3540954589844
z: 0.0012246827827766538
","x: 188.41448974609375
y: 382.36871337890625
z: -0.0010446716332808137
","x: 187.9085235595703
y: 389.8289489746094
z: -0.0008961719577200711
","x: 188.91673278808594
y: 393.1901550292969
z: -0.00025407731300219893
","x: 190.0580596923828
y: 394.5911865234375
z: 0.0005362461670301855
",,,,,,,,,,,,,,,,,,,,,
12,"x: 275.47930908203125
y: 233.64601135253906
z: -0.2154882252216339
visibility: 0.9995338916778564
","x: 273.8522644042969
y: 225.40147399902344
z: -0.19741526246070862
visibility: 0.9991422891616821
","x: 273.9955749511719
y: 225.39085388183594
z: -0.19746722280979156
visibility: 0.999015212059021
","x: 274.112060546875
y: 225.57310485839844
z: -0.19751618802547455
visibility: 0.999315619468689
","x: 272.2748107910156
y: 226.37240600585938
z: -0.22594451904296875
visibility: 0.999485433101654
","x: 271.257568359375
y: 226.4658203125
z: -0.22597238421440125
visibility: 0.9995152950286865
","x: 269.93402099609375
y: 226.7906951904297
z: -0.22603563964366913
visibility: 0.9996246695518494
","x: 270.69232177734375
y: 230.0772705078125
z: -0.09880153834819794
visibility: 0.9986727237701416
","x: 264.69158935546875
y: 232.85855102539062
z: -0.27334195375442505
visibility: 0.9992754459381104
","x: 276.0323486328125
y: 243.9400634765625
z: -0.17624790966510773
visibility: 0.9982447624206543
","x: 273.1291809082031
y: 243.28050231933594
z: -0.21352910995483398
visibility: 0.9991644024848938
","x: 273.4354553222656
y: 267.0473937988281
z: 0.0020429755095392466
visibility: 0.9969532489776611
","x: 239.48391723632812
y: 276.18597412109375
z: -0.22216784954071045
visibility: 0.999841034412384
","x: 287.2563171386719
y: 288.99542236328125
z: 0.024020548909902573
visibility: 0.2902238965034485
","x: 212.73216247558594
y: 323.8060302734375
z: -0.24560122191905975
visibility: 0.9794233441352844
","x: 296.5525207519531
y: 311.6207275390625
z: -0.09815430641174316
visibility: 0.4077724814414978
","x: 197.8575439453125
y: 372.56982421875
z: -0.2738834023475647
visibility: 0.9377486705780029
","x: 300.522705078125
y: 319.0531005859375
z: -0.12073962390422821
visibility: 0.4120505154132843
","x: 190.5166015625
y: 386.07916259765625
z: -0.29565587639808655
visibility: 0.919291615486145
","x: 298.3504943847656
y: 318.59820556640625
z: -0.14254578948020935
visibility: 0.4177915155887604
","x: 194.51771545410156
y: 388.5074462890625
z: -0.321336567401886
visibility: 0.9140620827674866
","x: 296.20062255859375
y: 316.8027038574219
z: -0.11079412698745728
visibility: 0.41802066564559937
","x: 197.39276123046875
y: 385.33349609375
z: -0.2823207676410675
visibility: 0.857028067111969
","x: 242.2633056640625
y: 367.2761535644531
z: 0.08084980398416519
visibility: 0.9977082014083862
","x: 221.90731811523438
y: 367.862548828125
z: -0.08084634691476822
visibility: 0.9977433681488037
","x: 267.54473876953125
y: 432.27032470703125
z: -0.12197078764438629
visibility: 0.5856098532676697
","x: 232.11474609375
y: 443.312255859375
z: -0.18155333399772644
visibility: 0.9817607998847961
","x: 241.00262451171875
y: 501.4334716796875
z: -0.0038677770644426346
visibility: 0.7118573784828186
","x: 203.00523376464844
y: 486.4064025878906
z: 0.008979616686701775
visibility: 0.9761649370193481
","x: 230.92250061035156
y: 514.57861328125
z: 0.004383807070553303
visibility: 0.7380315065383911
","x: 193.74169921875
y: 488.0980224609375
z: 0.024268271401524544
visibility: 0.9277721643447876
","x: 258.72979736328125
y: 524.9501342773438
z: -0.06856773793697357
visibility: 0.8153749108314514
","x: 204.4227294921875
y: 515.6331787109375
z: -0.05683596804738045
visibility: 0.9675557613372803
","x: 196.0087432861328
y: 369.7266845703125
z: 0.0
","x: 198.92404174804688
y: 378.7615661621094
z: -0.0006469053332693875
","x: 198.27793884277344
y: 387.3800964355469
z: -0.0008518836693838239
","x: 196.2676239013672
y: 393.7622375488281
z: -0.0005477179074659944
","x: 195.3491668701172
y: 398.7618408203125
z: 0.00031990621937438846
","x: 192.91009521484375
y: 389.1052551269531
z: -0.0028644974809139967
","x: 191.5613555908203
y: 399.5075988769531
z: -0.002591862343251705
","x: 192.55384826660156
y: 402.96771240234375
z: -0.0005178989376872778
","x: 193.62179565429688
y: 404.05047607421875
z: 0.0013731243088841438
","x: 190.3338623046875
y: 386.7706604003906
z: -0.0023330007679760456
","x: 189.06475830078125
y: 397.6869201660156
z: -0.0015370610635727644
","x: 190.13818359375
y: 401.4874267578125
z: 0.0009128425153903663
","x: 191.20135498046875
y: 402.94573974609375
z: 0.0027532242238521576
","x: 188.95248413085938
y: 384.35992431640625
z: -0.0016621157992631197
","x: 188.06134033203125
y: 393.9642333984375
z: -0.001283404417335987
","x: 189.2450408935547
y: 397.75653076171875
z: 9.742950351210311e-05
","x: 190.4181365966797
y: 399.3540954589844
z: 0.0012246827827766538
","x: 188.41448974609375
y: 382.36871337890625
z: -0.0010446716332808137
","x: 187.9085235595703
y: 389.8289489746094
z: -0.0008961719577200711
","x: 188.91673278808594
y: 393.1901550292969
z: -0.00025407731300219893
","x: 190.0580596923828
y: 394.5911865234375
z: 0.0005362461670301855
",,,,,,,,,,,,,,,,,,,,,
13,"x: 268.47674560546875
y: 217.61656188964844
z: -0.3720484972000122
visibility: 0.9995768666267395
","x: 267.6584777832031
y: 209.9425506591797
z: -0.35300523042678833
visibility: 0.9992011785507202
","x: 268.3159484863281
y: 209.71109008789062
z: -0.3530561327934265
visibility: 0.9990938901901245
","x: 268.9371337890625
y: 209.4287872314453
z: -0.35317960381507874
visibility: 0.9993570446968079
","x: 264.654052734375
y: 210.76385498046875
z: -0.3664649724960327
visibility: 0.9995181560516357
","x: 263.04876708984375
y: 211.1876220703125
z: -0.3665153682231903
visibility: 0.9995497465133667
","x: 261.1302795410156
y: 211.70095825195312
z: -0.3665439486503601
visibility: 0.999640703201294
","x: 266.95928955078125
y: 213.6038818359375
z: -0.23876163363456726
visibility: 0.9987738728523254
","x: 254.6009979248047
y: 217.16102600097656
z: -0.29863089323043823
visibility: 0.99933260679245
","x: 270.02252197265625
y: 227.03250122070312
z: -0.32751205563545227
visibility: 0.9984142780303955
","x: 265.6165771484375
y: 226.85716247558594
z: -0.3444720208644867
visibility: 0.999242901802063
","x: 273.3302917480469
y: 266.15093994140625
z: -0.1347801685333252
visibility: 0.997256875038147
","x: 228.88946533203125
y: 260.4593811035156
z: -0.22517070174217224
visibility: 0.9998482465744019
","x: 278.61700439453125
y: 296.8602600097656
z: 0.004324899520725012
visibility: 0.3568894863128662
","x: 210.24822998046875
y: 306.47772216796875
z: -0.17104610800743103
visibility: 0.9798824191093445
","x: 291.71807861328125
y: 322.3437194824219
z: 0.015018818899989128
visibility: 0.4640198349952698
","x: 199.1038055419922
y: 361.013916015625
z: -0.17553290724754333
visibility: 0.939487099647522
","x: 296.7748107910156
y: 330.19000244140625
z: 0.013856695964932442
visibility: 0.46443307399749756
","x: 193.82969665527344
y: 379.2985534667969
z: -0.19032800197601318
visibility: 0.9180684685707092
","x: 296.2451171875
y: 329.5005798339844
z: -0.01983964629471302
visibility: 0.4705626666545868
","x: 197.73898315429688
y: 386.955322265625
z: -0.2136361300945282
visibility: 0.9136649370193481
","x: 293.95904541015625
y: 327.34588623046875
z: 0.0016667370218783617
visibility: 0.4695515036582947
","x: 200.2192840576172
y: 379.1751403808594
z: -0.18421299755573273
visibility: 0.8598753213882446
","x: 247.52992248535156
y: 363.9884033203125
z: 0.01675095409154892
visibility: 0.9979236721992493
","x: 222.19485473632812
y: 354.1343688964844
z: -0.016736799851059914
visibility: 0.9979514479637146
","x: 255.46629333496094
y: 433.26898193359375
z: -0.07263430207967758
visibility: 0.6255682110786438
","x: 223.65573120117188
y: 430.04864501953125
z: -0.14641299843788147
visibility: 0.9827058911323547
","x: 247.90371704101562
y: 500.6108093261719
z: 0.19575193524360657
visibility: 0.7391722798347473
","x: 220.85348510742188
y: 486.89276123046875
z: 0.15223173797130585
visibility: 0.9772832989692688
","x: 243.73629760742188
y: 512.2657470703125
z: 0.21879801154136658
visibility: 0.7519274353981018
","x: 226.0469970703125
y: 491.5699462890625
z: 0.1763099879026413
visibility: 0.9243382215499878
","x: 258.8804931640625
y: 525.3839111328125
z: 0.08770016580820084
visibility: 0.8315708041191101
","x: 215.7908477783203
y: 516.6571655273438
z: 0.062398768961429596
visibility: 0.9689852595329285
",,,,,,,,,,,,,,,,,,,,,,,,,,,,,,,,,,,,,,,,,,
14,"x: 245.4019012451172
y: 205.58575439453125
z: -0.39873915910720825
visibility: 0.9996167421340942
","x: 248.38087463378906
y: 196.79922485351562
z: -0.3903277516365051
visibility: 0.9992602467536926
","x: 250.0516357421875
y: 196.5376434326172
z: -0.39036354422569275
visibility: 0.9991698265075684
","x: 251.64259338378906
y: 196.27401733398438
z: -0.39042240381240845
visibility: 0.9993995428085327
","x: 243.42066955566406
y: 197.57113647460938
z: -0.3836791217327118
visibility: 0.9995409846305847
","x: 241.60296630859375
y: 197.9112091064453
z: -0.38371002674102783
visibility: 0.9995702505111694
","x: 239.82252502441406
y: 198.313232421875
z: -0.383728563785553
visibility: 0.9996468424797058
","x: 254.64102172851562
y: 199.48001098632812
z: -0.2959769368171692
visibility: 0.9988752603530884
","x: 239.009521484375
y: 201.51467895507812
z: -0.26382941007614136
visibility: 0.9993748068809509
","x: 248.70938110351562
y: 213.95957946777344
z: -0.3597542643547058
visibility: 0.9985703825950623
","x: 243.46994018554688
y: 214.49179077148438
z: -0.349247545003891
visibility: 0.9993153810501099
","x: 270.41912841796875
y: 252.5422821044922
z: -0.1987830102443695
visibility: 0.9975306987762451
","x: 220.62060546875
y: 244.22987365722656
z: -0.16427651047706604
visibility: 0.999862015247345
","x: 274.89373779296875
y: 295.27423095703125
z: -0.1958242505788803
visibility: 0.4152941107749939
","x: 207.96905517578125
y: 294.7659606933594
z: -0.11424052715301514
visibility: 0.978844404220581
","x: 281.69378662109375
y: 318.223388671875
z: -0.3349051773548126
visibility: 0.5081034302711487
","x: 199.92843627929688
y: 342.94232177734375
z: -0.1965547800064087
visibility: 0.9428625106811523
","x: 284.9618225097656
y: 325.5129699707031
z: -0.3676353096961975
visibility: 0.5064505934715271
","x: 195.8189697265625
y: 359.2502136230469
z: -0.22274014353752136
visibility: 0.9212265014648438
","x: 284.4430847167969
y: 324.78204345703125
z: -0.3959433138370514
visibility: 0.5132558941841125
","x: 199.58905029296875
y: 361.3171691894531
z: -0.24868392944335938
visibility: 0.9174909591674805
","x: 282.18206787109375
y: 322.55230712890625
z: -0.34849900007247925
visibility: 0.5090953707695007
","x: 201.87606811523438
y: 357.2943115234375
z: -0.20785479247570038
visibility: 0.8677124977111816
","x: 246.97854614257812
y: 358.56793212890625
z: -0.016910865902900696
visibility: 0.9981215000152588
","x: 221.2093048095703
y: 346.6875915527344
z: 0.01687985472381115
visibility: 0.9981487989425659
","x: 245.56532287597656
y: 434.51739501953125
z: -0.13697504997253418
visibility: 0.6620370149612427
","x: 205.2911376953125
y: 421.04364013671875
z: -0.1619803011417389
visibility: 0.9839698076248169
","x: 255.78094482421875
y: 495.972900390625
z: 0.1773984730243683
visibility: 0.7643083930015564
","x: 221.7025909423828
y: 485.4748229980469
z: 0.16171547770500183
visibility: 0.9783294200897217
","x: 255.1919403076172
y: 501.2515869140625
z: 0.20162196457386017
visibility: 0.7620577812194824
","x: 228.00579833984375
y: 488.8968505859375
z: 0.19116531312465668
visibility: 0.9246037006378174
","x: 259.09771728515625
y: 524.9616088867188
z: 0.08423476666212082
visibility: 0.8465680480003357
","x: 214.5563201904297
y: 518.0867919921875
z: 0.09512872248888016
visibility: 0.9703840017318726
","x: 198.4329376220703
y: 340.16009521484375
z: 0.0
","x: 201.4347686767578
y: 346.62371826171875
z: -0.0019219245295971632
","x: 202.29296875
y: 354.9819641113281
z: -0.0022528141271322966
","x: 202.40203857421875
y: 362.8475341796875
z: -0.0016759755089879036
","x: 202.49412536621094
y: 368.8919372558594
z: -0.0006158323376439512
","x: 196.42697143554688
y: 358.8331604003906
z: -0.002363826148211956
","x: 197.5224609375
y: 369.7723083496094
z: -0.0014940946130082011
","x: 198.7342071533203
y: 375.45013427734375
z: 0.00016605673590674996
","x: 199.7460174560547
y: 379.4319152832031
z: 0.0015762017574161291
","x: 194.6043701171875
y: 359.15069580078125
z: -0.0010041887871921062
","x: 195.3575439453125
y: 370.4165954589844
z: 0.00039784598629921675
","x: 196.3455352783203
y: 376.8796081542969
z: 0.0019500391790643334
","x: 197.20960998535156
y: 381.6798400878906
z: 0.002833327976986766
","x: 193.91246032714844
y: 359.1619873046875
z: 0.00036474879016168416
","x: 194.57980346679688
y: 369.13348388671875
z: 0.0014030752936378121
","x: 195.46640014648438
y: 375.2066345214844
z: 0.001608926453627646
","x: 196.24441528320312
y: 379.5090026855469
z: 0.0015952350804582238
","x: 194.07223510742188
y: 359.0914611816406
z: 0.0015699309296905994
","x: 194.6243896484375
y: 367.6422119140625
z: 0.002157305832952261
","x: 195.3383331298828
y: 372.8739929199219
z: 0.0020305749494582415
","x: 196.05105590820312
y: 376.70703125
z: 0.0019690808840095997
",,,,,,,,,,,,,,,,,,,,,
15,"x: 245.4019012451172
y: 205.58575439453125
z: -0.39873915910720825
visibility: 0.9996167421340942
","x: 248.38087463378906
y: 196.79922485351562
z: -0.3903277516365051
visibility: 0.9992602467536926
","x: 250.0516357421875
y: 196.5376434326172
z: -0.39036354422569275
visibility: 0.9991698265075684
","x: 251.64259338378906
y: 196.27401733398438
z: -0.39042240381240845
visibility: 0.9993995428085327
","x: 243.42066955566406
y: 197.57113647460938
z: -0.3836791217327118
visibility: 0.9995409846305847
","x: 241.60296630859375
y: 197.9112091064453
z: -0.38371002674102783
visibility: 0.9995702505111694
","x: 239.82252502441406
y: 198.313232421875
z: -0.383728563785553
visibility: 0.9996468424797058
","x: 254.64102172851562
y: 199.48001098632812
z: -0.2959769368171692
visibility: 0.9988752603530884
","x: 239.009521484375
y: 201.51467895507812
z: -0.26382941007614136
visibility: 0.9993748068809509
","x: 248.70938110351562
y: 213.95957946777344
z: -0.3597542643547058
visibility: 0.9985703825950623
","x: 243.46994018554688
y: 214.49179077148438
z: -0.349247545003891
visibility: 0.9993153810501099
","x: 270.41912841796875
y: 252.5422821044922
z: -0.1987830102443695
visibility: 0.9975306987762451
","x: 220.62060546875
y: 244.22987365722656
z: -0.16427651047706604
visibility: 0.999862015247345
","x: 274.89373779296875
y: 295.27423095703125
z: -0.1958242505788803
visibility: 0.4152941107749939
","x: 207.96905517578125
y: 294.7659606933594
z: -0.11424052715301514
visibility: 0.978844404220581
","x: 281.69378662109375
y: 318.223388671875
z: -0.3349051773548126
visibility: 0.5081034302711487
","x: 199.92843627929688
y: 342.94232177734375
z: -0.1965547800064087
visibility: 0.9428625106811523
","x: 284.9618225097656
y: 325.5129699707031
z: -0.3676353096961975
visibility: 0.5064505934715271
","x: 195.8189697265625
y: 359.2502136230469
z: -0.22274014353752136
visibility: 0.9212265014648438
","x: 284.4430847167969
y: 324.78204345703125
z: -0.3959433138370514
visibility: 0.5132558941841125
","x: 199.58905029296875
y: 361.3171691894531
z: -0.24868392944335938
visibility: 0.9174909591674805
","x: 282.18206787109375
y: 322.55230712890625
z: -0.34849900007247925
visibility: 0.5090953707695007
","x: 201.87606811523438
y: 357.2943115234375
z: -0.20785479247570038
visibility: 0.8677124977111816
","x: 246.97854614257812
y: 358.56793212890625
z: -0.016910865902900696
visibility: 0.9981215000152588
","x: 221.2093048095703
y: 346.6875915527344
z: 0.01687985472381115
visibility: 0.9981487989425659
","x: 245.56532287597656
y: 434.51739501953125
z: -0.13697504997253418
visibility: 0.6620370149612427
","x: 205.2911376953125
y: 421.04364013671875
z: -0.1619803011417389
visibility: 0.9839698076248169
","x: 255.78094482421875
y: 495.972900390625
z: 0.1773984730243683
visibility: 0.7643083930015564
","x: 221.7025909423828
y: 485.4748229980469
z: 0.16171547770500183
visibility: 0.9783294200897217
","x: 255.1919403076172
y: 501.2515869140625
z: 0.20162196457386017
visibility: 0.7620577812194824
","x: 228.00579833984375
y: 488.8968505859375
z: 0.19116531312465668
visibility: 0.9246037006378174
","x: 259.09771728515625
y: 524.9616088867188
z: 0.08423476666212082
visibility: 0.8465680480003357
","x: 214.5563201904297
y: 518.0867919921875
z: 0.09512872248888016
visibility: 0.9703840017318726
","x: 198.4329376220703
y: 340.16009521484375
z: 0.0
","x: 201.4347686767578
y: 346.62371826171875
z: -0.0019219245295971632
","x: 202.29296875
y: 354.9819641113281
z: -0.0022528141271322966
","x: 202.40203857421875
y: 362.8475341796875
z: -0.0016759755089879036
","x: 202.49412536621094
y: 368.8919372558594
z: -0.0006158323376439512
","x: 196.42697143554688
y: 358.8331604003906
z: -0.002363826148211956
","x: 197.5224609375
y: 369.7723083496094
z: -0.0014940946130082011
","x: 198.7342071533203
y: 375.45013427734375
z: 0.00016605673590674996
","x: 199.7460174560547
y: 379.4319152832031
z: 0.0015762017574161291
","x: 194.6043701171875
y: 359.15069580078125
z: -0.0010041887871921062
","x: 195.3575439453125
y: 370.4165954589844
z: 0.00039784598629921675
","x: 196.3455352783203
y: 376.8796081542969
z: 0.0019500391790643334
","x: 197.20960998535156
y: 381.6798400878906
z: 0.002833327976986766
","x: 193.91246032714844
y: 359.1619873046875
z: 0.00036474879016168416
","x: 194.57980346679688
y: 369.13348388671875
z: 0.0014030752936378121
","x: 195.46640014648438
y: 375.2066345214844
z: 0.001608926453627646
","x: 196.24441528320312
y: 379.5090026855469
z: 0.0015952350804582238
","x: 194.07223510742188
y: 359.0914611816406
z: 0.0015699309296905994
","x: 194.6243896484375
y: 367.6422119140625
z: 0.002157305832952261
","x: 195.3383331298828
y: 372.8739929199219
z: 0.0020305749494582415
","x: 196.05105590820312
y: 376.70703125
z: 0.0019690808840095997
",,,,,,,,,,,,,,,,,,,,,
16,"x: 236.65292358398438
y: 197.72650146484375
z: -0.2781275808811188
visibility: 0.9996535778045654
","x: 239.37098693847656
y: 189.62191772460938
z: -0.2679167687892914
visibility: 0.999324381351471
","x: 240.9671630859375
y: 189.5112762451172
z: -0.26794835925102234
visibility: 0.9992465376853943
","x: 242.64015197753906
y: 189.51510620117188
z: -0.2679729759693146
visibility: 0.9994505643844604
","x: 234.94784545898438
y: 190.2894287109375
z: -0.28970903158187866
visibility: 0.9995720982551575
","x: 233.44970703125
y: 190.66128540039062
z: -0.2897586524486542
visibility: 0.9995996356010437
","x: 232.0243377685547
y: 191.05593872070312
z: -0.28990134596824646
visibility: 0.999663770198822
","x: 246.8226318359375
y: 193.48580932617188
z: -0.18740062415599823
visibility: 0.9989792704582214
","x: 232.83001708984375
y: 194.8080291748047
z: -0.12356396019458771
visibility: 0.9994212985038757
","x: 239.85626220703125
y: 207.07586669921875
z: -0.24521252512931824
visibility: 0.9987125992774963
","x: 235.14578247070312
y: 207.334228515625
z: -0.2939130961894989
visibility: 0.9993823766708374
","x: 268.891357421875
y: 245.78782653808594
z: -0.1314697414636612
visibility: 0.9977772831916809
","x: 217.13758850097656
y: 238.31768798828125
z: -0.05458267778158188
visibility: 0.999874472618103
","x: 275.371826171875
y: 288.566650390625
z: -0.2413587123155594
visibility: 0.47152918577194214
","x: 207.2457733154297
y: 292.4319763183594
z: -0.05479930713772774
visibility: 0.9758487939834595
","x: 278.3818359375
y: 317.65899658203125
z: -0.47823458909988403
visibility: 0.5526663661003113
","x: 197.1983184814453
y: 336.55047607421875
z: -0.18849553167819977
visibility: 0.9453407526016235
","x: 279.9332275390625
y: 322.72607421875
z: -0.5273443460464478
visibility: 0.5499666333198547
","x: 192.89369201660156
y: 352.62884521484375
z: -0.22220471501350403
visibility: 0.9242305755615234
","x: 278.0277099609375
y: 323.09881591796875
z: -0.5467939376831055
visibility: 0.5566625595092773
","x: 195.82989501953125
y: 353.6534118652344
z: -0.24753539264202118
visibility: 0.9211049675941467
","x: 275.99517822265625
y: 320.28131103515625
z: -0.49071216583251953
visibility: 0.550885796546936
","x: 198.3253173828125
y: 350.438720703125
z: -0.2015949785709381
visibility: 0.8750843405723572
","x: 247.27197265625
y: 357.1496276855469
z: -0.02576903998851776
visibility: 0.9983049631118774
","x: 221.0554962158203
y: 347.2012634277344
z: 0.025687266141176224
visibility: 0.9983300566673279
","x: 247.96917724609375
y: 433.66650390625
z: -0.18282294273376465
visibility: 0.6952494978904724
","x: 197.69589233398438
y: 416.4554138183594
z: -0.19019420444965363
visibility: 0.985293447971344
","x: 258.8684997558594
y: 492.085693359375
z: 0.14954738318920135
visibility: 0.7863160967826843
","x: 224.31578063964844
y: 484.80615234375
z: 0.0938786193728447
visibility: 0.9791446924209595
","x: 258.57977294921875
y: 495.22174072265625
z: 0.1781751811504364
visibility: 0.7642894983291626
","x: 231.39381408691406
y: 488.28045654296875
z: 0.11920660734176636
visibility: 0.9234599471092224
","x: 259.2125549316406
y: 524.5369873046875
z: 0.061241041868925095
visibility: 0.8587369918823242
","x: 216.48902893066406
y: 518.9039306640625
z: 0.033564258366823196
visibility: 0.9712926745414734
",,,,,,,,,,,,,,,,,,,,,,,,,,,,,,,,,,,,,,,,,,
17,"x: 229.60948181152344
y: 194.3831024169922
z: -0.20753316581249237
visibility: 0.9996863007545471
","x: 231.87115478515625
y: 186.6732177734375
z: -0.198586106300354
visibility: 0.9993784427642822
","x: 233.49659729003906
y: 186.3561248779297
z: -0.19863885641098022
visibility: 0.9993124604225159
","x: 235.19677734375
y: 186.1842041015625
z: -0.19865895807743073
visibility: 0.9994943737983704
","x: 227.8587646484375
y: 187.83831787109375
z: -0.1828480213880539
visibility: 0.9995966553688049
","x: 226.69342041015625
y: 188.38168334960938
z: -0.18283848464488983
visibility: 0.9996232390403748
","x: 225.5003662109375
y: 188.94578552246094
z: -0.18281792104244232
visibility: 0.9996762871742249
","x: 239.93719482421875
y: 190.31219482421875
z: -0.12961484491825104
visibility: 0.9990720152854919
","x: 226.48731994628906
y: 193.418701171875
z: -0.04819929227232933
visibility: 0.9994497895240784
","x: 232.7189483642578
y: 202.77737426757812
z: -0.18070490658283234
visibility: 0.998839795589447
","x: 228.17947387695312
y: 203.39707946777344
z: -0.1591210961341858
visibility: 0.99944007396698
","x: 265.24298095703125
y: 238.61746215820312
z: -0.07631224393844604
visibility: 0.9979990720748901
","x: 214.62025451660156
y: 237.4947509765625
z: 0.011081403121352196
visibility: 0.9998816251754761
","x: 279.6390686035156
y: 266.9295959472656
z: -0.1680220067501068
visibility: 0.5238129496574402
","x: 207.869384765625
y: 292.2183837890625
z: 0.03294869512319565
visibility: 0.9718557596206665
","x: 278.9111633300781
y: 304.7537536621094
z: -0.37035080790519714
visibility: 0.5954569578170776
","x: 195.2415771484375
y: 332.78533935546875
z: -0.08530119806528091
visibility: 0.9469177722930908
","x: 279.49224853515625
y: 318.1858215332031
z: -0.41705551743507385
visibility: 0.5909137725830078
","x: 190.36326599121094
y: 349.08038330078125
z: -0.11734112352132797
visibility: 0.9256169199943542
","x: 275.82025146484375
y: 317.2699279785156
z: -0.4334890842437744
visibility: 0.597309947013855
","x: 191.87123107910156
y: 349.2390441894531
z: -0.14771495759487152
visibility: 0.9233419895172119
","x: 274.4037170410156
y: 311.7047424316406
z: -0.38127055764198303
visibility: 0.5905300378799438
","x: 194.21597290039062
y: 344.4635314941406
z: -0.1010526642203331
visibility: 0.8806231021881104
","x: 249.10943603515625
y: 356.7397766113281
z: -0.025556698441505432
visibility: 0.9984573125839233
","x: 221.23435974121094
y: 349.595458984375
z: 0.02551412582397461
visibility: 0.9984725713729858
","x: 257.7502746582031
y: 432.39599609375
z: -0.21607927978038788
visibility: 0.7254087328910828
","x: 201.65280151367188
y: 418.37640380859375
z: -0.17940187454223633
visibility: 0.9865803718566895
","x: 260.8446960449219
y: 492.335693359375
z: 0.07127425819635391
visibility: 0.8070580363273621
","x: 228.04627990722656
y: 485.3724365234375
z: 0.07653369009494781
visibility: 0.980730414390564
","x: 259.2530822753906
y: 497.948486328125
z: 0.09468252956867218
visibility: 0.7747231721878052
","x: 235.95108032226562
y: 492.0208435058594
z: 0.09615068882703781
visibility: 0.9267906546592712
","x: 259.2990417480469
y: 524.2723999023438
z: -0.03801632672548294
visibility: 0.8716062903404236
","x: 216.82626342773438
y: 518.9232177734375
z: 0.0008594795363023877
visibility: 0.9732346534729004
",,,,,,,,,,,,,,,,,,,,,,"x: 278.6263122558594
y: 310.82550048828125
z: 0.0
","x: 274.77606201171875
y: 308.5717468261719
z: -0.003938858862966299
","x: 271.9273376464844
y: 309.18084716796875
z: -0.00786400306969881
","x: 270.8934326171875
y: 313.503662109375
z: -0.01055940892547369
","x: 271.2720947265625
y: 318.1615905761719
z: -0.013147396966814995
","x: 276.8702392578125
y: 304.9604797363281
z: -0.017107326537370682
","x: 274.8802490234375
y: 310.506103515625
z: -0.01989944651722908
","x: 272.707763671875
y: 313.3478088378906
z: -0.018777672201395035
","x: 271.77166748046875
y: 314.67535400390625
z: -0.017451537773013115
","x: 279.303955078125
y: 308.58880615234375
z: -0.016039157286286354
","x: 276.0814208984375
y: 318.3553466796875
z: -0.01844514161348343
","x: 273.2787170410156
y: 321.2850646972656
z: -0.016151776537299156
","x: 271.9320068359375
y: 322.1037292480469
z: -0.014545011334121227
","x: 280.7859802246094
y: 312.9364013671875
z: -0.013906162232160568
","x: 278.1638488769531
y: 322.3905944824219
z: -0.015868723392486572
","x: 274.95050048828125
y: 324.5150146484375
z: -0.013438156805932522
","x: 273.02899169921875
y: 323.9565734863281
z: -0.01190247293561697
","x: 281.7232971191406
y: 317.70159912109375
z: -0.011715716682374477
","x: 279.4656982421875
y: 324.8782958984375
z: -0.01298181526362896
","x: 276.9366455078125
y: 325.70904541015625
z: -0.011462978087365627
","x: 275.2172546386719
y: 323.8236083984375
z: -0.01024570595473051
"
18,"x: 229.60948181152344
y: 194.3831024169922
z: -0.20753316581249237
visibility: 0.9996863007545471
","x: 231.87115478515625
y: 186.6732177734375
z: -0.198586106300354
visibility: 0.9993784427642822
","x: 233.49659729003906
y: 186.3561248779297
z: -0.19863885641098022
visibility: 0.9993124604225159
","x: 235.19677734375
y: 186.1842041015625
z: -0.19865895807743073
visibility: 0.9994943737983704
","x: 227.8587646484375
y: 187.83831787109375
z: -0.1828480213880539
visibility: 0.9995966553688049
","x: 226.69342041015625
y: 188.38168334960938
z: -0.18283848464488983
visibility: 0.9996232390403748
","x: 225.5003662109375
y: 188.94578552246094
z: -0.18281792104244232
visibility: 0.9996762871742249
","x: 239.93719482421875
y: 190.31219482421875
z: -0.12961484491825104
visibility: 0.9990720152854919
","x: 226.48731994628906
y: 193.418701171875
z: -0.04819929227232933
visibility: 0.9994497895240784
","x: 232.7189483642578
y: 202.77737426757812
z: -0.18070490658283234
visibility: 0.998839795589447
","x: 228.17947387695312
y: 203.39707946777344
z: -0.1591210961341858
visibility: 0.99944007396698
","x: 265.24298095703125
y: 238.61746215820312
z: -0.07631224393844604
visibility: 0.9979990720748901
","x: 214.62025451660156
y: 237.4947509765625
z: 0.011081403121352196
visibility: 0.9998816251754761
","x: 279.6390686035156
y: 266.9295959472656
z: -0.1680220067501068
visibility: 0.5238129496574402
","x: 207.869384765625
y: 292.2183837890625
z: 0.03294869512319565
visibility: 0.9718557596206665
","x: 278.9111633300781
y: 304.7537536621094
z: -0.37035080790519714
visibility: 0.5954569578170776
","x: 195.2415771484375
y: 332.78533935546875
z: -0.08530119806528091
visibility: 0.9469177722930908
","x: 279.49224853515625
y: 318.1858215332031
z: -0.41705551743507385
visibility: 0.5909137725830078
","x: 190.36326599121094
y: 349.08038330078125
z: -0.11734112352132797
visibility: 0.9256169199943542
","x: 275.82025146484375
y: 317.2699279785156
z: -0.4334890842437744
visibility: 0.597309947013855
","x: 191.87123107910156
y: 349.2390441894531
z: -0.14771495759487152
visibility: 0.9233419895172119
","x: 274.4037170410156
y: 311.7047424316406
z: -0.38127055764198303
visibility: 0.5905300378799438
","x: 194.21597290039062
y: 344.4635314941406
z: -0.1010526642203331
visibility: 0.8806231021881104
","x: 249.10943603515625
y: 356.7397766113281
z: -0.025556698441505432
visibility: 0.9984573125839233
","x: 221.23435974121094
y: 349.595458984375
z: 0.02551412582397461
visibility: 0.9984725713729858
","x: 257.7502746582031
y: 432.39599609375
z: -0.21607927978038788
visibility: 0.7254087328910828
","x: 201.65280151367188
y: 418.37640380859375
z: -0.17940187454223633
visibility: 0.9865803718566895
","x: 260.8446960449219
y: 492.335693359375
z: 0.07127425819635391
visibility: 0.8070580363273621
","x: 228.04627990722656
y: 485.3724365234375
z: 0.07653369009494781
visibility: 0.980730414390564
","x: 259.2530822753906
y: 497.948486328125
z: 0.09468252956867218
visibility: 0.7747231721878052
","x: 235.95108032226562
y: 492.0208435058594
z: 0.09615068882703781
visibility: 0.9267906546592712
","x: 259.2990417480469
y: 524.2723999023438
z: -0.03801632672548294
visibility: 0.8716062903404236
","x: 216.82626342773438
y: 518.9232177734375
z: 0.0008594795363023877
visibility: 0.9732346534729004
",,,,,,,,,,,,,,,,,,,,,,"x: 278.6263122558594
y: 310.82550048828125
z: 0.0
","x: 274.77606201171875
y: 308.5717468261719
z: -0.003938858862966299
","x: 271.9273376464844
y: 309.18084716796875
z: -0.00786400306969881
","x: 270.8934326171875
y: 313.503662109375
z: -0.01055940892547369
","x: 271.2720947265625
y: 318.1615905761719
z: -0.013147396966814995
","x: 276.8702392578125
y: 304.9604797363281
z: -0.017107326537370682
","x: 274.8802490234375
y: 310.506103515625
z: -0.01989944651722908
","x: 272.707763671875
y: 313.3478088378906
z: -0.018777672201395035
","x: 271.77166748046875
y: 314.67535400390625
z: -0.017451537773013115
","x: 279.303955078125
y: 308.58880615234375
z: -0.016039157286286354
","x: 276.0814208984375
y: 318.3553466796875
z: -0.01844514161348343
","x: 273.2787170410156
y: 321.2850646972656
z: -0.016151776537299156
","x: 271.9320068359375
y: 322.1037292480469
z: -0.014545011334121227
","x: 280.7859802246094
y: 312.9364013671875
z: -0.013906162232160568
","x: 278.1638488769531
y: 322.3905944824219
z: -0.015868723392486572
","x: 274.95050048828125
y: 324.5150146484375
z: -0.013438156805932522
","x: 273.02899169921875
y: 323.9565734863281
z: -0.01190247293561697
","x: 281.7232971191406
y: 317.70159912109375
z: -0.011715716682374477
","x: 279.4656982421875
y: 324.8782958984375
z: -0.01298181526362896
","x: 276.9366455078125
y: 325.70904541015625
z: -0.011462978087365627
","x: 275.2172546386719
y: 323.8236083984375
z: -0.01024570595473051
"
19,"x: 221.2195587158203
y: 194.39993286132812
z: -0.25210294127464294
visibility: 0.9997067451477051
","x: 223.51126098632812
y: 185.81825256347656
z: -0.24742329120635986
visibility: 0.9993694424629211
","x: 225.0530548095703
y: 185.41195678710938
z: -0.24747495353221893
visibility: 0.9993172883987427
","x: 226.62582397460938
y: 185.1042022705078
z: -0.24754054844379425
visibility: 0.9994733929634094
","x: 219.94735717773438
y: 186.89334106445312
z: -0.22495797276496887
visibility: 0.9995826482772827
","x: 218.9212188720703
y: 187.20217895507812
z: -0.2249828279018402
visibility: 0.9995992183685303
","x: 217.96585083007812
y: 187.4512481689453
z: -0.22492936253547668
visibility: 0.9996358156204224
","x: 232.26878356933594
y: 188.96302795410156
z: -0.18163612484931946
visibility: 0.9991124868392944
","x: 220.8589324951172
y: 190.49391174316406
z: -0.1093377098441124
visibility: 0.9994124174118042
","x: 224.88368225097656
y: 201.8548583984375
z: -0.22579076886177063
visibility: 0.9989448189735413
","x: 220.7706756591797
y: 202.46136474609375
z: -0.18323229253292084
visibility: 0.9994778633117676
","x: 259.7177429199219
y: 235.6875
z: -0.12212737649679184
visibility: 0.9981951117515564
","x: 209.63479614257812
y: 236.1955108642578
z: -0.036690838634967804
visibility: 0.9998909831047058
","x: 281.2707214355469
y: 269.91583251953125
z: -0.15491406619548798
visibility: 0.5710857510566711
","x: 205.3068084716797
y: 293.2942810058594
z: 0.027602944523096085
visibility: 0.967435359954834
","x: 279.2032775878906
y: 305.1498718261719
z: -0.2845006287097931
visibility: 0.6335065960884094
","x: 192.5042266845703
y: 332.55609130859375
z: -0.06829340755939484
visibility: 0.9487661123275757
","x: 279.44110107421875
y: 322.26177978515625
z: -0.3211527466773987
visibility: 0.6253686547279358
","x: 186.877197265625
y: 348.5028076171875
z: -0.09492349624633789
visibility: 0.9271422028541565
","x: 275.18707275390625
y: 320.2959899902344
z: -0.3412643074989319
visibility: 0.6314919590950012
","x: 188.19915771484375
y: 347.4766845703125
z: -0.13112860918045044
visibility: 0.925685465335846
","x: 274.3308410644531
y: 314.4849853515625
z: -0.29498857259750366
visibility: 0.6230348348617554
","x: 190.62721252441406
y: 342.1568603515625
z: -0.08631005138158798
visibility: 0.8862435221672058
","x: 251.86761474609375
y: 352.30145263671875
z: -0.017963699996471405
visibility: 0.9984883666038513
","x: 221.83888244628906
y: 350.77813720703125
z: 0.01801867038011551
visibility: 0.9985998868942261
","x: 275.85211181640625
y: 423.4819030761719
z: -0.13657121360301971
visibility: 0.7524040341377258
","x: 207.58509826660156
y: 418.8946838378906
z: -0.1740025132894516
visibility: 0.9877960085868835
","x: 279.46295166015625
y: 488.7991943359375
z: 0.08544013649225235
visibility: 0.8255031108856201
","x: 231.8455810546875
y: 491.96478271484375
z: 0.038641348481178284
visibility: 0.9824212193489075
","x: 275.8622741699219
y: 499.1187744140625
z: 0.1008119136095047
visibility: 0.7907871603965759
","x: 239.72152709960938
y: 505.2344970703125
z: 0.04866201430559158
visibility: 0.9322608709335327
","x: 294.15545654296875
y: 512.9228515625
z: -0.01603597402572632
visibility: 0.8826119899749756
","x: 218.18275451660156
y: 519.2359619140625
z: -0.06763780862092972
visibility: 0.9753067493438721
",,,,,,,,,,,,,,,,,,,,,,"x: 279.53692626953125
y: 306.5015869140625
z: 0.0
","x: 274.97943115234375
y: 311.8903503417969
z: 0.0029266467317938805
","x: 272.3396911621094
y: 320.18719482421875
z: 0.0024998404551297426
","x: 271.6423034667969
y: 327.98150634765625
z: 0.0013456441229209304
","x: 271.945068359375
y: 333.4046936035156
z: 0.0006498937727883458
","x: 272.0439758300781
y: 321.2369384765625
z: -0.0025228688027709723
","x: 271.7024841308594
y: 332.83966064453125
z: -0.003743375651538372
","x: 272.8880615234375
y: 333.11492919921875
z: -0.0026736280415207148
","x: 273.4150695800781
y: 331.2307434082031
z: -0.0016887325327843428
","x: 274.6436462402344
y: 321.95758056640625
z: -0.00518267834559083
","x: 274.3075866699219
y: 333.7748718261719
z: -0.005952048115432262
","x: 275.0862731933594
y: 333.12078857421875
z: -0.003914082422852516
","x: 275.3128356933594
y: 330.12957763671875
z: -0.0023691626265645027
","x: 277.35760498046875
y: 322.70135498046875
z: -0.007414683233946562
","x: 276.982177734375
y: 333.8000793457031
z: -0.007274162489920855
","x: 277.42724609375
y: 332.8065185546875
z: -0.004363654181361198
","x: 277.5314025878906
y: 329.6055908203125
z: -0.0027106411289423704
","x: 280.0497131347656
y: 323.44146728515625
z: -0.009465076960623264
","x: 279.69390869140625
y: 333.03131103515625
z: -0.00899504404515028
","x: 279.88653564453125
y: 332.6632995605469
z: -0.00693416316062212
","x: 280.01995849609375
y: 329.977294921875
z: -0.005534620024263859
"
20,"x: 221.2195587158203
y: 194.39993286132812
z: -0.25210294127464294
visibility: 0.9997067451477051
","x: 223.51126098632812
y: 185.81825256347656
z: -0.24742329120635986
visibility: 0.9993694424629211
","x: 225.0530548095703
y: 185.41195678710938
z: -0.24747495353221893
visibility: 0.9993172883987427
","x: 226.62582397460938
y: 185.1042022705078
z: -0.24754054844379425
visibility: 0.9994733929634094
","x: 219.94735717773438
y: 186.89334106445312
z: -0.22495797276496887
visibility: 0.9995826482772827
","x: 218.9212188720703
y: 187.20217895507812
z: -0.2249828279018402
visibility: 0.9995992183685303
","x: 217.96585083007812
y: 187.4512481689453
z: -0.22492936253547668
visibility: 0.9996358156204224
","x: 232.26878356933594
y: 188.96302795410156
z: -0.18163612484931946
visibility: 0.9991124868392944
","x: 220.8589324951172
y: 190.49391174316406
z: -0.1093377098441124
visibility: 0.9994124174118042
","x: 224.88368225097656
y: 201.8548583984375
z: -0.22579076886177063
visibility: 0.9989448189735413
","x: 220.7706756591797
y: 202.46136474609375
z: -0.18323229253292084
visibility: 0.9994778633117676
","x: 259.7177429199219
y: 235.6875
z: -0.12212737649679184
visibility: 0.9981951117515564
","x: 209.63479614257812
y: 236.1955108642578
z: -0.036690838634967804
visibility: 0.9998909831047058
","x: 281.2707214355469
y: 269.91583251953125
z: -0.15491406619548798
visibility: 0.5710857510566711
","x: 205.3068084716797
y: 293.2942810058594
z: 0.027602944523096085
visibility: 0.967435359954834
","x: 279.2032775878906
y: 305.1498718261719
z: -0.2845006287097931
visibility: 0.6335065960884094
","x: 192.5042266845703
y: 332.55609130859375
z: -0.06829340755939484
visibility: 0.9487661123275757
","x: 279.44110107421875
y: 322.26177978515625
z: -0.3211527466773987
visibility: 0.6253686547279358
","x: 186.877197265625
y: 348.5028076171875
z: -0.09492349624633789
visibility: 0.9271422028541565
","x: 275.18707275390625
y: 320.2959899902344
z: -0.3412643074989319
visibility: 0.6314919590950012
","x: 188.19915771484375
y: 347.4766845703125
z: -0.13112860918045044
visibility: 0.925685465335846
","x: 274.3308410644531
y: 314.4849853515625
z: -0.29498857259750366
visibility: 0.6230348348617554
","x: 190.62721252441406
y: 342.1568603515625
z: -0.08631005138158798
visibility: 0.8862435221672058
","x: 251.86761474609375
y: 352.30145263671875
z: -0.017963699996471405
visibility: 0.9984883666038513
","x: 221.83888244628906
y: 350.77813720703125
z: 0.01801867038011551
visibility: 0.9985998868942261
","x: 275.85211181640625
y: 423.4819030761719
z: -0.13657121360301971
visibility: 0.7524040341377258
","x: 207.58509826660156
y: 418.8946838378906
z: -0.1740025132894516
visibility: 0.9877960085868835
","x: 279.46295166015625
y: 488.7991943359375
z: 0.08544013649225235
visibility: 0.8255031108856201
","x: 231.8455810546875
y: 491.96478271484375
z: 0.038641348481178284
visibility: 0.9824212193489075
","x: 275.8622741699219
y: 499.1187744140625
z: 0.1008119136095047
visibility: 0.7907871603965759
","x: 239.72152709960938
y: 505.2344970703125
z: 0.04866201430559158
visibility: 0.9322608709335327
","x: 294.15545654296875
y: 512.9228515625
z: -0.01603597402572632
visibility: 0.8826119899749756
","x: 218.18275451660156
y: 519.2359619140625
z: -0.06763780862092972
visibility: 0.9753067493438721
",,,,,,,,,,,,,,,,,,,,,,"x: 279.53692626953125
y: 306.5015869140625
z: 0.0
","x: 274.97943115234375
y: 311.8903503417969
z: 0.0029266467317938805
","x: 272.3396911621094
y: 320.18719482421875
z: 0.0024998404551297426
","x: 271.6423034667969
y: 327.98150634765625
z: 0.0013456441229209304
","x: 271.945068359375
y: 333.4046936035156
z: 0.0006498937727883458
","x: 272.0439758300781
y: 321.2369384765625
z: -0.0025228688027709723
","x: 271.7024841308594
y: 332.83966064453125
z: -0.003743375651538372
","x: 272.8880615234375
y: 333.11492919921875
z: -0.0026736280415207148
","x: 273.4150695800781
y: 331.2307434082031
z: -0.0016887325327843428
","x: 274.6436462402344
y: 321.95758056640625
z: -0.00518267834559083
","x: 274.3075866699219
y: 333.7748718261719
z: -0.005952048115432262
","x: 275.0862731933594
y: 333.12078857421875
z: -0.003914082422852516
","x: 275.3128356933594
y: 330.12957763671875
z: -0.0023691626265645027
","x: 277.35760498046875
y: 322.70135498046875
z: -0.007414683233946562
","x: 276.982177734375
y: 333.8000793457031
z: -0.007274162489920855
","x: 277.42724609375
y: 332.8065185546875
z: -0.004363654181361198
","x: 277.5314025878906
y: 329.6055908203125
z: -0.0027106411289423704
","x: 280.0497131347656
y: 323.44146728515625
z: -0.009465076960623264
","x: 279.69390869140625
y: 333.03131103515625
z: -0.00899504404515028
","x: 279.88653564453125
y: 332.6632995605469
z: -0.00693416316062212
","x: 280.01995849609375
y: 329.977294921875
z: -0.005534620024263859
"
21,"x: 214.85934448242188
y: 185.53591918945312
z: -0.25437647104263306
visibility: 0.9997196197509766
","x: 217.0701904296875
y: 175.43255615234375
z: -0.258134663105011
visibility: 0.9993702173233032
","x: 218.45751953125
y: 175.07647705078125
z: -0.2581614851951599
visibility: 0.9993302226066589
","x: 219.89968872070312
y: 174.69583129882812
z: -0.25820013880729675
visibility: 0.999467670917511
","x: 214.17535400390625
y: 175.8948974609375
z: -0.23216012120246887
visibility: 0.9995681643486023
","x: 213.5042266845703
y: 175.86184692382812
z: -0.23219230771064758
visibility: 0.9995764493942261
","x: 212.9512939453125
y: 175.7453155517578
z: -0.2321854531764984
visibility: 0.9996078610420227
","x: 225.94894409179688
y: 177.7240753173828
z: -0.22484302520751953
visibility: 0.9991596937179565
","x: 216.81549072265625
y: 179.11752319335938
z: -0.11095653474330902
visibility: 0.9993629455566406
","x: 218.72808837890625
y: 193.9403533935547
z: -0.23715846240520477
visibility: 0.9990414977073669
","x: 215.30255126953125
y: 194.78965759277344
z: -0.18724749982357025
visibility: 0.9995101094245911
","x: 254.46905517578125
y: 226.4594268798828
z: -0.19408483803272247
visibility: 0.9983735084533691
","x: 207.86643981933594
y: 230.22134399414062
z: -0.006944091524928808
visibility: 0.9998998641967773
","x: 279.9835510253906
y: 272.40191650390625
z: -0.25624698400497437
visibility: 0.6134847402572632
","x: 204.1624755859375
y: 286.2008361816406
z: 0.06754779815673828
visibility: 0.9530198574066162
","x: 261.3220520019531
y: 306.76953125
z: -0.3730359673500061
visibility: 0.6645631194114685
","x: 189.27194213867188
y: 324.44720458984375
z: -0.030181456357240677
visibility: 0.9464635252952576
","x: 256.3294372558594
y: 321.9530029296875
z: -0.41517558693885803
visibility: 0.65102618932724
","x: 183.69175720214844
y: 339.09295654296875
z: -0.05348088592290878
visibility: 0.9225022196769714
","x: 253.37442016601562
y: 319.5013427734375
z: -0.418588787317276
visibility: 0.6563087105751038
","x: 184.04934692382812
y: 337.6054382324219
z: -0.09242738783359528
visibility: 0.9223819971084595
","x: 254.6281280517578
y: 314.3319091796875
z: -0.37593209743499756
visibility: 0.6416888236999512
","x: 186.21719360351562
y: 333.0533142089844
z: -0.05015211179852486
visibility: 0.8863378167152405
","x: 252.44012451171875
y: 344.2449645996094
z: -0.06439386308193207
visibility: 0.9985582828521729
","x: 225.01170349121094
y: 348.3689880371094
z: 0.06440386176109314
visibility: 0.9987055063247681
","x: 279.20037841796875
y: 417.0325927734375
z: -0.11325858533382416
visibility: 0.7770424485206604
","x: 212.7982635498047
y: 419.822998046875
z: 0.09125980734825134
visibility: 0.9883722066879272
","x: 306.9349060058594
y: 484.826904296875
z: 0.06047406792640686
visibility: 0.8428276181221008
","x: 233.88584899902344
y: 494.770751953125
z: 0.3036418855190277
visibility: 0.9836751222610474
","x: 309.2865905761719
y: 492.65924072265625
z: 0.06738925725221634
visibility: 0.8050632476806641
","x: 240.86900329589844
y: 508.52099609375
z: 0.31864288449287415
visibility: 0.9368302822113037
","x: 308.8342590332031
y: 513.54541015625
z: -0.06556682288646698
visibility: 0.8940203189849854
","x: 214.80908203125
y: 518.98095703125
z: 0.23061063885688782
visibility: 0.9769086837768555
",,,,,,,,,,,,,,,,,,,,,,,,,,,,,,,,,,,,,,,,,,
22,"x: 217.88607788085938
y: 172.3202667236328
z: -0.3116283714771271
visibility: 0.999740481376648
","x: 220.46397399902344
y: 162.9813995361328
z: -0.3135199546813965
visibility: 0.9994068741798401
","x: 222.101318359375
y: 162.64321899414062
z: -0.31353989243507385
visibility: 0.999372124671936
","x: 223.81202697753906
y: 162.31961059570312
z: -0.31356510519981384
visibility: 0.9994944930076599
","x: 216.9141082763672
y: 164.36337280273438
z: -0.2927909195423126
visibility: 0.9995872378349304
","x: 215.94017028808594
y: 164.8163604736328
z: -0.29284077882766724
visibility: 0.9995941519737244
","x: 214.9810028076172
y: 165.1547088623047
z: -0.2928924262523651
visibility: 0.9996230006217957
","x: 228.71644592285156
y: 165.3441162109375
z: -0.2648400664329529
visibility: 0.999222993850708
","x: 217.16705322265625
y: 169.5722198486328
z: -0.1510048657655716
visibility: 0.9993806481361389
","x: 221.54953002929688
y: 180.22010803222656
z: -0.28931084275245667
visibility: 0.9991329312324524
","x: 217.86376953125
y: 181.0291748046875
z: -0.2591836750507355
visibility: 0.9995496273040771
","x: 253.73130798339844
y: 208.44036865234375
z: -0.23858201503753662
visibility: 0.9985328316688538
","x: 210.94981384277344
y: 220.58096313476562
z: -0.04963470250368118
visibility: 0.999907374382019
","x: 267.3731689453125
y: 266.8383483886719
z: -0.3265001177787781
visibility: 0.6518860459327698
","x: 206.99459838867188
y: 280.076171875
z: 0.006009317003190517
visibility: 0.9439802765846252
","x: 240.6149444580078
y: 286.9137878417969
z: -0.4838413596153259
visibility: 0.6970058679580688
","x: 191.74151611328125
y: 315.515380859375
z: -0.11997455358505249
visibility: 0.9464954733848572
","x: 235.45518493652344
y: 297.0748291015625
z: -0.5349142551422119
visibility: 0.6832989454269409
","x: 185.55780029296875
y: 331.77197265625
z: -0.1507568061351776
visibility: 0.921977162361145
","x: 231.27743530273438
y: 287.2174987792969
z: -0.5368779897689819
visibility: 0.6879222989082336
","x: 185.02284240722656
y: 329.6810302734375
z: -0.18777868151664734
visibility: 0.9226018190383911
","x: 232.52481079101562
y: 284.1345520019531
z: -0.4867137372493744
visibility: 0.672460675239563
","x: 187.4153594970703
y: 324.135009765625
z: -0.14029787480831146
visibility: 0.8891571760177612
","x: 256.6531982421875
y: 332.34393310546875
z: -0.06426401436328888
visibility: 0.9986056685447693
","x: 230.2054901123047
y: 339.03692626953125
z: 0.0642349049448967
visibility: 0.998821496963501
","x: 272.8116760253906
y: 412.5892639160156
z: 0.010959671810269356
visibility: 0.7992232441902161
","x: 224.1431121826172
y: 418.232177734375
z: 0.04046250134706497
visibility: 0.9892876148223877
","x: 283.1286315917969
y: 481.631591796875
z: 0.27108234167099
visibility: 0.8583149313926697
","x: 237.09849548339844
y: 495.28338623046875
z: 0.239003986120224
visibility: 0.9851322770118713
","x: 283.9854431152344
y: 491.5045471191406
z: 0.28838005661964417
visibility: 0.8144997358322144
","x: 243.90145874023438
y: 508.2775573730469
z: 0.2507014274597168
visibility: 0.9417263269424438
","x: 290.16607666015625
y: 511.2429504394531
z: 0.15302495658397675
visibility: 0.9041246175765991
","x: 218.64723205566406
y: 518.7182006835938
z: 0.13920073211193085
visibility: 0.9789427518844604
",,,,,,,,,,,,,,,,,,,,,,,,,,,,,,,,,,,,,,,,,,
23,"x: 220.53802490234375
y: 164.8045196533203
z: -0.2392127811908722
visibility: 0.9997166395187378
","x: 223.2806396484375
y: 155.70310974121094
z: -0.2450559437274933
visibility: 0.9993245005607605
","x: 225.2025604248047
y: 154.79318237304688
z: -0.2451513558626175
visibility: 0.9993107914924622
","x: 227.177490234375
y: 154.08358764648438
z: -0.24510762095451355
visibility: 0.9994010329246521
","x: 219.35842895507812
y: 158.61256408691406
z: -0.21607999503612518
visibility: 0.9994613528251648
","x: 218.49098205566406
y: 159.37998962402344
z: -0.2160988599061966
visibility: 0.9994750618934631
","x: 217.64453125
y: 160.04598999023438
z: -0.21621517837047577
visibility: 0.9994981288909912
","x: 232.3565216064453
y: 156.65562438964844
z: -0.2620759904384613
visibility: 0.9991034865379333
","x: 220.36305236816406
y: 163.16720581054688
z: -0.08719746023416519
visibility: 0.9991982579231262
","x: 225.57492065429688
y: 169.7958984375
z: -0.22037479281425476
visibility: 0.9991810321807861
","x: 220.86080932617188
y: 171.8268585205078
z: -0.18462049961090088
visibility: 0.9995315670967102
","x: 255.61837768554688
y: 195.76902770996094
z: -0.15667593479156494
visibility: 0.9986538887023926
","x: 214.24652099609375
y: 211.0257110595703
z: 0.015517245046794415
visibility: 0.9999043941497803
","x: 259.7655944824219
y: 257.80291748046875
z: -0.2909777760505676
visibility: 0.6844229698181152
","x: 207.19882202148438
y: 272.3807678222656
z: 0.08597664535045624
visibility: 0.9320208430290222
","x: 233.78627014160156
y: 244.15899658203125
z: -0.502214252948761
visibility: 0.7245926260948181
","x: 195.36968994140625
y: 305.1220703125
z: -0.024179188534617424
visibility: 0.9444674849510193
","x: 226.26402282714844
y: 240.2347412109375
z: -0.5535054206848145
visibility: 0.7104765772819519
","x: 190.13226318359375
y: 319.92840576171875
z: -0.04723591357469559
visibility: 0.9190301895141602
","x: 226.3121337890625
y: 232.70301818847656
z: -0.5508641600608826
visibility: 0.7144045233726501
","x: 189.52125549316406
