uscmakers/ReverseChoreography/data/1_peaches_justin_bieber.csv
,NOSE,LEFT_EYE_INNER,LEFT_EYE,LEFT_EYE_OUTER,RIGHT_EYE_INNER,RIGHT_EYE,RIGHT_EYE_OUTER,LEFT_EAR,RIGHT_EAR,MOUTH_LEFT,MOUTH_RIGHT,LEFT_SHOULDER,RIGHT_SHOULDER,LEFT_ELBOW,RIGHT_ELBOW,LEFT_WRIST,RIGHT_WRIST,LEFT_PINKY,RIGHT_PINKY,LEFT_INDEX,RIGHT_INDEX,LEFT_THUMB,RIGHT_THUMB,LEFT_HIP,RIGHT_HIP,LEFT_KNEE,RIGHT_KNEE,LEFT_ANKLE,RIGHT_ANKLE,LEFT_HEEL,RIGHT_HEEL,LEFT_FOOT_INDEX,RIGHT_FOOT_INDEX,WRIST,THUMB_CPC,THUMB_MCP,THUMB_IP,THUMB_TIP,INDEX_FINGER_MCP,INDEX_FINGER_PIP,INDEX_FINGER_DIP,INDEX_FINGER_TIP,MIDDLE_FINGER_MCP,MIDDLE_FINGER_PIP,MIDDLE_FINGER_DIP,MIDDLE_FINGER_TIP,RING_FINGER_PIP,RING_FINGER_DIP,RING_FINGER_TIP,RING_FINGER_MCP,PINKY_MCP,PINKY_PIP,PINKY_DIP,PINKY_TIP,WRIST2,THUMB_CPC2,THUMB_MCP2,THUMB_IP2,THUMB_TIP2,INDEX_FINGER_MCP2,INDEX_FINGER_PIP2,INDEX_FINGER_DIP2,INDEX_FINGER_TIP2,MIDDLE_FINGER_MCP2,MIDDLE_FINGER_PIP2,MIDDLE_FINGER_DIP2,MIDDLE_FINGER_TIP2,RING_FINGER_PIP2,RING_FINGER_DIP2,RING_FINGER_TIP2,RING_FINGER_MCP2,PINKY_MCP2,PINKY_PIP2,PINKY_DIP2,PINKY_TIP2
0,"x: 231.04627990722656
y: 182.04071044921875
z: -0.2062409371137619
visibility: 0.9998555183410645
","x: 232.69134521484375
y: 172.64956665039062
z: -0.20048788189888
visibility: 0.99957674741745
","x: 234.26559448242188
y: 171.54771423339844
z: -0.20055881142616272
visibility: 0.9995467066764832
","x: 235.88021850585938
y: 170.39456176757812
z: -0.20058485865592957
visibility: 0.9994283318519592
","x: 228.38844299316406
y: 174.65484619140625
z: -0.18829423189163208
visibility: 0.9996127486228943
","x: 227.0460205078125
y: 174.883544921875
z: -0.1882767230272293
visibility: 0.9995032548904419
","x: 225.67396545410156
y: 175.02830505371094
z: -0.1883356124162674
visibility: 0.999496579170227
","x: 239.41439819335938
y: 169.2261505126953
z: -0.11292441934347153
visibility: 0.9992589354515076
","x: 224.733154296875
y: 173.9701690673828
z: -0.055379606783390045
visibility: 0.999382734298706
","x: 234.8914031982422
y: 187.82064819335938
z: -0.16859160363674164
visibility: 0.9997760653495789
","x: 229.45751953125
y: 189.3104705810547
z: -0.15198563039302826
visibility: 0.9997411370277405
","x: 256.9049377441406
y: 195.232421875
z: -0.07972472906112671
visibility: 0.99996018409729
","x: 217.20611572265625
y: 205.29315185546875
z: 0.0652899220585823
visibility: 0.9999502897262573
","x: 245.84341430664062
y: 238.048095703125
z: -0.12895993888378143
visibility: 0.8872087001800537
","x: 212.1485137939453
y: 259.7335510253906
z: 0.12005968391895294
visibility: 0.8455762267112732
","x: 226.21315002441406
y: 272.9211730957031
z: -0.28296536207199097
visibility: 0.8558534979820251
","x: 216.11134338378906
y: 300.4940185546875
z: 0.016563531011343002
visibility: 0.8859579563140869
","x: 223.4492950439453
y: 292.49505615234375
z: -0.32953110337257385
visibility: 0.8289541602134705
","x: 216.37742614746094
y: 316.1025390625
z: -0.007677039597183466
visibility: 0.8466231226921082
","x: 220.8179931640625
y: 290.59771728515625
z: -0.3457360565662384
visibility: 0.8319802284240723
","x: 219.91970825195312
y: 313.77886962890625
z: -0.038689758628606796
visibility: 0.8493190407752991
","x: 222.2388458251953
y: 283.61041259765625
z: -0.2920280396938324
visibility: 0.7601478695869446
","x: 221.1061248779297
y: 308.86279296875
z: 0.0024154270067811012
visibility: 0.8144249320030212
","x: 256.3226013183594
y: 324.5945739746094
z: -0.040498338639736176
visibility: 0.9998705387115479
","x: 231.54713439941406
y: 328.03033447265625
z: 0.040538910776376724
visibility: 0.999785840511322
","x: 261.28704833984375
y: 417.8018798828125
z: -0.12938155233860016
visibility: 0.9865560531616211
","x: 234.41990661621094
y: 417.28094482421875
z: 0.04327370971441269
visibility: 0.9886137247085571
","x: 259.79766845703125
y: 507.1346740722656
z: -0.02508041262626648
visibility: 0.9931278228759766
","x: 244.67877197265625
y: 488.1570129394531
z: 0.2499876469373703
visibility: 0.984575629234314
","x: 258.3890380859375
y: 521.2257690429688
z: -0.022418759763240814
visibility: 0.9496455788612366
","x: 248.9450225830078
y: 498.7063903808594
z: 0.26518818736076355
visibility: 0.9278373122215271
","x: 267.40203857421875
y: 537.6510009765625
z: -0.15441067516803741
visibility: 0.9906231760978699
","x: 235.86355590820312
y: 517.1892700195312
z: 0.17670628428459167
visibility: 0.9824343323707581
",,,,,,,,,,,,,,,,,,,,,,,,,,,,,,,,,,,,,,,,,,
1,"x: 238.7313995361328
y: 181.69149780273438
z: -0.32259073853492737
visibility: 0.9998655915260315
","x: 241.87791442871094
y: 172.6376495361328
z: -0.30198726058006287
visibility: 0.9996116757392883
","x: 243.45281982421875
y: 171.85641479492188
z: -0.30202698707580566
visibility: 0.99958336353302
","x: 245.048583984375
y: 171.48497009277344
z: -0.30207422375679016
visibility: 0.9994766116142273
","x: 237.36492919921875
y: 172.58905029296875
z: -0.3076767325401306
visibility: 0.9996415376663208
","x: 235.55885314941406
y: 172.04437255859375
z: -0.30770936608314514
visibility: 0.9995414018630981
","x: 233.8408660888672
y: 171.4446258544922
z: -0.30768021941185
visibility: 0.9995344281196594
","x: 247.2324981689453
y: 171.84201049804688
z: -0.14540526270866394
visibility: 0.9993177056312561
","x: 230.3289031982422
y: 171.37203979492188
z: -0.17431069910526276
visibility: 0.9994291067123413
","x: 240.65313720703125
y: 187.87130737304688
z: -0.26096242666244507
visibility: 0.9997940063476562
","x: 235.37600708007812
y: 188.05494689941406
z: -0.2697433829307556
visibility: 0.9997624754905701
","x: 257.4523010253906
y: 206.804443359375
z: -0.06139981746673584
visibility: 0.9999624490737915
","x: 214.47271728515625
y: 204.94375610351562
z: -0.06028364226222038
visibility: 0.9999434947967529
","x: 269.84210205078125
y: 251.7640838623047
z: -0.13515934348106384
visibility: 0.8970094323158264
","x: 197.81590270996094
y: 249.93295288085938
z: -0.13031429052352905
visibility: 0.8579407930374146
","x: 249.11338806152344
y: 274.4656677246094
z: -0.3865974545478821
visibility: 0.8676623702049255
","x: 199.91989135742188
y: 274.4476013183594
z: -0.37805604934692383
visibility: 0.8836629986763
","x: 243.06069946289062
y: 289.9713134765625
z: -0.44770923256874084
visibility: 0.8404838442802429
","x: 200.1858673095703
y: 289.04656982421875
z: -0.43108558654785156
visibility: 0.8409035205841064
","x: 240.1426544189453
y: 282.6158447265625
z: -0.4573284089565277
visibility: 0.8435449600219727
","x: 202.363037109375
y: 283.5436706542969
z: -0.45296555757522583
visibility: 0.8445858955383301
","x: 241.8887939453125
y: 279.041748046875
z: -0.3952844738960266
visibility: 0.775852620601654
","x: 204.11959838867188
y: 279.8822326660156
z: -0.3919624388217926
visibility: 0.8095484972000122
","x: 250.3584442138672
y: 330.52880859375
z: 0.009063618257641792
visibility: 0.9998703002929688
","x: 224.1962890625
y: 331.1996154785156
z: -0.009086748585104942
visibility: 0.9997767806053162
","x: 261.29632568359375
y: 417.9578857421875
z: -0.006499613169580698
visibility: 0.987695038318634
","x: 213.5218963623047
y: 418.7795715332031
z: -0.016468897461891174
visibility: 0.989463746547699
","x: 265.2608947753906
y: 502.9771423339844
z: 0.18909254670143127
visibility: 0.9935033917427063
","x: 192.61851501464844
y: 486.4093017578125
z: 0.2126545011997223
visibility: 0.9854357838630676
","x: 262.53564453125
y: 515.2350463867188
z: 0.20161378383636475
visibility: 0.9485185742378235
","x: 189.38369750976562
y: 491.63958740234375
z: 0.22934536635875702
visibility: 0.918881893157959
","x: 271.3997802734375
y: 530.1478881835938
z: 0.061276644468307495
visibility: 0.9908496141433716
","x: 193.73863220214844
y: 518.5003051757812
z: 0.10077980905771255
visibility: 0.9827173352241516
",,,,,,,,,,,,,,,,,,,,,,,,,,,,,,,,,,,,,,,,,,
2,"x: 237.19261169433594
y: 181.36573791503906
z: -0.32119202613830566
visibility: 0.9998776912689209
","x: 241.33389282226562
y: 172.33486938476562
z: -0.29848188161849976
visibility: 0.9996482133865356
","x: 242.7677001953125
y: 171.78932189941406
z: -0.29854607582092285
visibility: 0.9996222257614136
","x: 244.0762176513672
y: 171.46897888183594
z: -0.298587828874588
visibility: 0.999525785446167
","x: 235.45989990234375
y: 172.0069580078125
z: -0.3026265501976013
visibility: 0.999674379825592
","x: 232.83892822265625
y: 171.6111602783203
z: -0.30265241861343384
visibility: 0.9995837211608887
","x: 231.18759155273438
y: 171.1346435546875
z: -0.3026171624660492
visibility: 0.9995768070220947
","x: 245.08700561523438
y: 172.0474395751953
z: -0.13885171711444855
visibility: 0.9993792176246643
","x: 226.71356201171875
y: 171.50173950195312
z: -0.15912280976772308
visibility: 0.9994816184043884
","x: 238.648193359375
y: 187.90138244628906
z: -0.25868117809295654
visibility: 0.9998130798339844
","x: 232.41409301757812
y: 188.06724548339844
z: -0.26510122418403625
visibility: 0.9997848868370056
","x: 253.8351593017578
y: 208.9189453125
z: -0.03131891041994095
visibility: 0.9999653100967407
","x: 206.8909912109375
y: 207.2434844970703
z: -0.0679706484079361
visibility: 0.9999467134475708
","x: 268.1843566894531
y: 252.07522583007812
z: -0.13455797731876373
visibility: 0.9063342809677124
","x: 191.00289916992188
y: 250.19766235351562
z: -0.1288020759820938
visibility: 0.8713037371635437
","x: 250.6066131591797
y: 274.3092956542969
z: -0.4148346483707428
visibility: 0.8801212906837463
","x: 187.56846618652344
y: 281.9001159667969
z: -0.3611128628253937
visibility: 0.8930276036262512
","x: 245.36512756347656
y: 286.7198486328125
z: -0.483337938785553
visibility: 0.8547657132148743
","x: 185.60874938964844
y: 294.021484375
z: -0.4167448878288269
visibility: 0.8529956936836243
","x: 241.93646240234375
y: 279.2647705078125
z: -0.4943423867225647
visibility: 0.8576028943061829
","x: 188.24563598632812
y: 290.7189636230469
z: -0.4446656107902527
visibility: 0.856581449508667
","x: 243.32398986816406
y: 276.113037109375
z: -0.42569026350975037
visibility: 0.7956835627555847
","x: 189.6278839111328
y: 287.3456726074219
z: -0.3771165907382965
visibility: 0.8236320614814758
","x: 242.32923889160156
y: 338.42730712890625
z: 0.03557944670319557
visibility: 0.999876856803894
","x: 215.99217224121094
y: 337.150146484375
z: -0.03560035675764084
visibility: 0.9997920393943787
","x: 255.98439025878906
y: 419.0592956542969
z: 0.07918833941221237
visibility: 0.9880182147026062
","x: 204.6606903076172
y: 424.3966369628906
z: -0.06970800459384918
visibility: 0.9903030395507812
","x: 247.63409423828125
y: 494.8458251953125
z: 0.32564860582351685
visibility: 0.993198573589325
","x: 183.46653747558594
y: 487.99139404296875
z: 0.10379954427480698
visibility: 0.9864928126335144
","x: 240.74647521972656
y: 508.2994079589844
z: 0.34387320280075073
visibility: 0.9486848711967468
","x: 178.529541015625
y: 493.4400634765625
z: 0.11453001201152802
visibility: 0.9159762263298035
","x: 262.1866455078125
y: 519.65185546875
z: 0.23189985752105713
visibility: 0.9904399514198303
","x: 191.1947479248047
y: 520.6969604492188
z: -0.026931006461381912
visibility: 0.9836491942405701
",,,,,,,,,,,,,,,,,,,,,,,,,,,,,,,,,,,,,,,,,,
3,"x: 218.70101928710938
y: 176.68748474121094
z: -0.33933115005493164
visibility: 0.9998883008956909
","x: 220.9246826171875
y: 168.1553955078125
z: -0.3291691541671753
visibility: 0.9996763467788696
","x: 222.34986877441406
y: 167.3890380859375
z: -0.3291776776313782
visibility: 0.9996536374092102
","x: 224.11643981933594
y: 166.46868896484375
z: -0.32916203141212463
visibility: 0.9995666742324829
","x: 216.42189025878906
y: 169.5313720703125
z: -0.32035738229751587
visibility: 0.9996989369392395
","x: 214.73561096191406
y: 169.86900329589844
z: -0.3203914761543274
visibility: 0.9996170997619629
","x: 213.02536010742188
y: 170.2529754638672
z: -0.3203824758529663
visibility: 0.9996101260185242
","x: 229.11990356445312
y: 167.4685821533203
z: -0.2308489829301834
visibility: 0.9994305968284607
","x: 213.6869659423828
y: 171.53872680664062
z: -0.1894732415676117
visibility: 0.9995105862617493
","x: 223.4622802734375
y: 182.91799926757812
z: -0.30071601271629333
visibility: 0.9998297095298767
","x: 218.36886596679688
y: 184.82147216796875
z: -0.2886231243610382
visibility: 0.9998027682304382
","x: 251.41796875
y: 207.79898071289062
z: -0.14907190203666687
visibility: 0.9999672174453735
","x: 203.47271728515625
y: 216.21466064453125
z: -0.08725912868976593
visibility: 0.9999473690986633
","x: 268.3341064453125
y: 255.43153381347656
z: -0.14662648737430573
visibility: 0.9154985547065735
","x: 189.53253173828125
y: 268.1607360839844
z: -0.02903873100876808
visibility: 0.8829718828201294
","x: 269.436279296875
y: 301.16265869140625
z: -0.30081212520599365
visibility: 0.8915438652038574
","x: 176.8675994873047
y: 313.9898986816406
z: -0.3454253077507019
visibility: 0.9017321467399597
","x: 272.37371826171875
y: 315.45794677734375
z: -0.33614087104797363
visibility: 0.86759352684021
","x: 171.9417724609375
y: 329.9020690917969
z: -0.2599419355392456
visibility: 0.8628751039505005
","x: 268.6063232421875
y: 313.7662353515625
z: -0.37396329641342163
visibility: 0.8703400492668152
","x: 173.4532012939453
y: 330.0204162597656
z: -0.35472577810287476
visibility: 0.866486132144928
","x: 266.0909423828125
y: 308.92578125
z: -0.3182237446308136
visibility: 0.8142020106315613
","x: 176.06800842285156
y: 324.7399597167969
z: -0.27439188957214355
visibility: 0.8363454341888428
","x: 238.03233337402344
y: 337.34368896484375
z: 0.01595979556441307
visibility: 0.9998335242271423
","x: 212.00604248046875
y: 334.8749084472656
z: -0.01598493754863739
visibility: 0.999757707118988
","x: 227.09217834472656
y: 416.7586669921875
z: -0.004317570012062788
visibility: 0.9871088862419128
","x: 199.47817993164062
y: 417.348388671875
z: -0.023082787171006203
visibility: 0.9905077815055847
","x: 213.67672729492188
y: 490.0663757324219
z: 0.18475009500980377
visibility: 0.9914790987968445
","x: 190.91824340820312
y: 488.0264587402344
z: 0.1498442441225052
visibility: 0.98651522397995
","x: 209.6959228515625
y: 500.7811279296875
z: 0.1964467465877533
visibility: 0.9398295879364014
","x: 191.4768829345703
y: 494.4742126464844
z: 0.1589081883430481
visibility: 0.9088481664657593
","x: 216.8280792236328
y: 518.651611328125
z: 0.0708162933588028
visibility: 0.9884364604949951
","x: 184.24562072753906
y: 519.319091796875
z: 0.027437767013907433
visibility: 0.9833343625068665
","x: 175.72076416015625
y: 322.4462890625
z: 0.0
","x: 174.8002471923828
y: 329.79510498046875
z: 0.0005602416931651533
","x: 172.48779296875
y: 337.4134826660156
z: -0.00035656295949593186
","x: 171.4373016357422
y: 343.893310546875
z: -0.001607336918823421
","x: 171.52420043945312
y: 349.40240478515625
z: -0.002655650256201625
","x: 166.7924346923828
y: 338.167724609375
z: -0.0014200486475601792
","x: 165.6243896484375
y: 348.5526123046875
z: -0.003406306728720665
","x: 166.45086669921875
y: 354.8358459472656
z: -0.0042376271449029446
","x: 167.498291015625
y: 359.6238708496094
z: -0.004597504157572985
","x: 167.12753295898438
y: 338.11065673828125
z: -0.0031967542599886656
","x: 165.96066284179688
y: 348.7112121582031
z: -0.005053773522377014
","x: 166.713134765625
y: 355.4040832519531
z: -0.005326393526047468
","x: 167.69287109375
y: 360.6260986328125
z: -0.005539078265428543
","x: 168.45468139648438
y: 338.4087829589844
z: -0.004999106749892235
","x: 167.04600524902344
y: 348.15032958984375
z: -0.006823649164289236
","x: 167.53782653808594
y: 354.5272521972656
z: -0.00678895553573966
","x: 168.24163818359375
y: 359.4493408203125
z: -0.006758416071534157
","x: 170.51849365234375
y: 338.9176025390625
z: -0.006877369713038206
","x: 169.1846923828125
y: 346.26678466796875
z: -0.008338202722370625
","x: 168.98397827148438
y: 351.52374267578125
z: -0.008345802314579487
","x: 169.04054260253906
y: 355.82598876953125
z: -0.008289538323879242
",,,,,,,,,,,,,,,,,,,,,
4,"x: 218.70101928710938
y: 176.68748474121094
z: -0.33933115005493164
visibility: 0.9998883008956909
","x: 220.9246826171875
y: 168.1553955078125
z: -0.3291691541671753
visibility: 0.9996763467788696
","x: 222.34986877441406
y: 167.3890380859375
z: -0.3291776776313782
visibility: 0.9996536374092102
","x: 224.11643981933594
y: 166.46868896484375
z: -0.32916203141212463
visibility: 0.9995666742324829
","x: 216.42189025878906
y: 169.5313720703125
z: -0.32035738229751587
visibility: 0.9996989369392395
","x: 214.73561096191406
y: 169.86900329589844
z: -0.3203914761543274
visibility: 0.9996170997619629
","x: 213.02536010742188
y: 170.2529754638672
z: -0.3203824758529663
visibility: 0.9996101260185242
","x: 229.11990356445312
y: 167.4685821533203
z: -0.2308489829301834
visibility: 0.9994305968284607
","x: 213.6869659423828
y: 171.53872680664062
z: -0.1894732415676117
visibility: 0.9995105862617493
","x: 223.4622802734375
y: 182.91799926757812
z: -0.30071601271629333
visibility: 0.9998297095298767
","x: 218.36886596679688
y: 184.82147216796875
z: -0.2886231243610382
visibility: 0.9998027682304382
","x: 251.41796875
y: 207.79898071289062
z: -0.14907190203666687
visibility: 0.9999672174453735
","x: 203.47271728515625
y: 216.21466064453125
z: -0.08725912868976593
visibility: 0.9999473690986633
","x: 268.3341064453125
y: 255.43153381347656
z: -0.14662648737430573
visibility: 0.9154985547065735
","x: 189.53253173828125
y: 268.1607360839844
z: -0.02903873100876808
visibility: 0.8829718828201294
","x: 269.436279296875
y: 301.16265869140625
z: -0.30081212520599365
visibility: 0.8915438652038574
","x: 176.8675994873047
y: 313.9898986816406
z: -0.3454253077507019
visibility: 0.9017321467399597
","x: 272.37371826171875
y: 315.45794677734375
z: -0.33614087104797363
visibility: 0.86759352684021
","x: 171.9417724609375
y: 329.9020690917969
z: -0.2599419355392456
visibility: 0.8628751039505005
","x: 268.6063232421875
y: 313.7662353515625
z: -0.37396329641342163
visibility: 0.8703400492668152
","x: 173.4532012939453
y: 330.0204162597656
z: -0.35472577810287476
visibility: 0.866486132144928
","x: 266.0909423828125
y: 308.92578125
z: -0.3182237446308136
visibility: 0.8142020106315613
","x: 176.06800842285156
y: 324.7399597167969
z: -0.27439188957214355
visibility: 0.8363454341888428
","x: 238.03233337402344
y: 337.34368896484375
z: 0.01595979556441307
visibility: 0.9998335242271423
","x: 212.00604248046875
y: 334.8749084472656
z: -0.01598493754863739
visibility: 0.999757707118988
","x: 227.09217834472656
y: 416.7586669921875
z: -0.004317570012062788
visibility: 0.9871088862419128
","x: 199.47817993164062
y: 417.348388671875
z: -0.023082787171006203
visibility: 0.9905077815055847
","x: 213.67672729492188
y: 490.0663757324219
z: 0.18475009500980377
visibility: 0.9914790987968445
","x: 190.91824340820312
y: 488.0264587402344
z: 0.1498442441225052
visibility: 0.98651522397995
","x: 209.6959228515625
y: 500.7811279296875
z: 0.1964467465877533
visibility: 0.9398295879364014
","x: 191.4768829345703
y: 494.4742126464844
z: 0.1589081883430481
visibility: 0.9088481664657593
","x: 216.8280792236328
y: 518.651611328125
z: 0.0708162933588028
visibility: 0.9884364604949951
","x: 184.24562072753906
y: 519.319091796875
z: 0.027437767013907433
visibility: 0.9833343625068665
","x: 175.72076416015625
y: 322.4462890625
z: 0.0
","x: 174.8002471923828
y: 329.79510498046875
z: 0.0005602416931651533
","x: 172.48779296875
y: 337.4134826660156
z: -0.00035656295949593186
","x: 171.4373016357422
y: 343.893310546875
z: -0.001607336918823421
","x: 171.52420043945312
y: 349.40240478515625
z: -0.002655650256201625
","x: 166.7924346923828
y: 338.167724609375
z: -0.0014200486475601792
","x: 165.6243896484375
y: 348.5526123046875
z: -0.003406306728720665
","x: 166.45086669921875
y: 354.8358459472656
z: -0.0042376271449029446
","x: 167.498291015625
y: 359.6238708496094
z: -0.004597504157572985
","x: 167.12753295898438
y: 338.11065673828125
z: -0.0031967542599886656
","x: 165.96066284179688
y: 348.7112121582031
z: -0.005053773522377014
","x: 166.713134765625
y: 355.4040832519531
z: -0.005326393526047468
","x: 167.69287109375
y: 360.6260986328125
z: -0.005539078265428543
","x: 168.45468139648438
y: 338.4087829589844
z: -0.004999106749892235
","x: 167.04600524902344
y: 348.15032958984375
z: -0.006823649164289236
","x: 167.53782653808594
y: 354.5272521972656
z: -0.00678895553573966
","x: 168.24163818359375
y: 359.4493408203125
z: -0.006758416071534157
","x: 170.51849365234375
y: 338.9176025390625
z: -0.006877369713038206
","x: 169.1846923828125
y: 346.26678466796875
z: -0.008338202722370625
","x: 168.98397827148438
y: 351.52374267578125
z: -0.008345802314579487
","x: 169.04054260253906
y: 355.82598876953125
z: -0.008289538323879242
",,,,,,,,,,,,,,,,,,,,,
5,"x: 215.88665771484375
y: 176.34075927734375
z: -0.3318738639354706
visibility: 0.9998983144760132
","x: 217.27566528320312
y: 167.64222717285156
z: -0.3278490900993347
visibility: 0.9997043609619141
","x: 218.72439575195312
y: 166.57049560546875
z: -0.32786843180656433
visibility: 0.9996848106384277
","x: 220.54844665527344
y: 165.16319274902344
z: -0.3278958201408386
visibility: 0.9996065497398376
","x: 213.13404846191406
y: 169.56773376464844
z: -0.31524521112442017
visibility: 0.999722957611084
","x: 211.91600036621094
y: 170.0282440185547
z: -0.3152574300765991
visibility: 0.99964839220047
","x: 210.45872497558594
y: 170.4680633544922
z: -0.31522664427757263
visibility: 0.9996392726898193
","x: 226.2687225341797
y: 165.2950897216797
z: -0.2556754946708679
visibility: 0.9994826316833496
","x: 211.77706909179688
y: 171.75942993164062
z: -0.19596228003501892
visibility: 0.9995422959327698
","x: 221.1177978515625
y: 182.25802612304688
z: -0.3021305501461029
visibility: 0.9998456239700317
","x: 216.3834686279297
y: 184.86428833007812
z: -0.2846691608428955
visibility: 0.9998179078102112
","x: 251.5385284423828
y: 207.2984161376953
z: -0.18000628054141998
visibility: 0.999970018863678
","x: 204.1893768310547
y: 219.07745361328125
z: -0.1049220934510231
visibility: 0.9999452829360962
","x: 272.15411376953125
y: 254.2074737548828
z: -0.1687541902065277
visibility: 0.9238004088401794
","x: 193.25164794921875
y: 270.0970458984375
z: -0.03484005853533745
visibility: 0.8906407952308655
","x: 283.42364501953125
y: 303.12677001953125
z: -0.2872176766395569
visibility: 0.9019668102264404
","x: 180.86578369140625
y: 314.45721435546875
z: -0.18837010860443115
visibility: 0.9072067141532898
","x: 288.30340576171875
y: 317.8562316894531
z: -0.3161827623844147
visibility: 0.8795135617256165
","x: 175.2625274658203
y: 331.0263366699219
z: -0.21509763598442078
visibility: 0.8676893711090088
","x: 284.60650634765625
y: 318.7216491699219
z: -0.3499923050403595
visibility: 0.8821993470191956
","x: 176.65650939941406
y: 331.15570068359375
z: -0.24232082068920135
visibility: 0.8716319799423218
","x: 281.94921875
y: 313.701904296875
z: -0.3021789491176605
visibility: 0.8314353227615356
","x: 179.17726135253906
y: 326.517578125
z: -0.17947107553482056
visibility: 0.8437920212745667
","x: 237.29237365722656
y: 335.9095458984375
z: 0.005767560563981533
visibility: 0.9998390674591064
","x: 211.36451721191406
y: 331.8796081542969
z: -0.0057687414810061455
visibility: 0.9997419118881226
","x: 224.63595581054688
y: 410.93072509765625
z: -0.031907226890325546
visibility: 0.9843217134475708
","x: 201.26162719726562
y: 408.1817321777344
z: 0.033630263060331345
visibility: 0.988074004650116
","x: 210.5897216796875
y: 487.6683349609375
z: 0.132644385099411
visibility: 0.9865284562110901
","x: 201.65122985839844
y: 461.5901184082031
z: 0.3521742522716522
visibility: 0.9569293260574341
","x: 206.61770629882812
y: 497.895263671875
z: 0.14216695725917816
visibility: 0.9259774088859558
","x: 202.28086853027344
y: 464.03240966796875
z: 0.38031184673309326
visibility: 0.8610325455665588
","x: 213.7177734375
y: 516.5061645507812
z: 0.02480493299663067
visibility: 0.9826657772064209
","x: 193.47988891601562
y: 489.7435302734375
z: 0.31844788789749146
visibility: 0.9581779837608337
",,,,,,,,,,,,,,,,,,,,,,"x: 284.312255859375
y: 305.49346923828125
z: 0.0
","x: 282.70135498046875
y: 314.47393798828125
z: -4.470737258088775e-05
","x: 282.74114990234375
y: 322.6269836425781
z: -0.00025601309607736766
","x: 284.5256042480469
y: 328.3144836425781
z: -0.0013402542099356651
","x: 286.8074035644531
y: 330.4199523925781
z: -0.0017290643882006407
","x: 286.0118103027344
y: 326.84735107421875
z: 0.0027503161691129208
","x: 286.9757080078125
y: 333.656494140625
z: 0.0009676804766058922
","x: 285.9555969238281
y: 330.8599548339844
z: 0.0005199090810492635
","x: 285.3464660644531
y: 328.1734924316406
z: 0.0006476969574578106
","x: 287.94403076171875
y: 325.91888427734375
z: 0.0012727249413728714
","x: 288.99517822265625
y: 331.94989013671875
z: -0.0001336946152150631
","x: 287.8587646484375
y: 329.2203369140625
z: -6.722514808643609e-05
","x: 287.16192626953125
y: 326.7416687011719
z: 0.0004351927782408893
","x: 289.7001953125
y: 323.87982177734375
z: -0.0008016482461243868
","x: 290.7772521972656
y: 329.3995666503906
z: -0.0022483395878225565
","x: 289.6222229003906
y: 327.17169189453125
z: -0.0013740722788497806
","x: 288.769287109375
y: 324.58624267578125
z: -0.00035171318450011313
","x: 291.3779602050781
y: 321.0540466308594
z: -0.003200049512088299
","x: 292.3228454589844
y: 325.7905578613281
z: -0.0038857462350279093
","x: 291.4153747558594
y: 325.1163330078125
z: -0.0030932012014091015
","x: 290.58514404296875
y: 323.5345153808594
z: -0.002099346136674285
"
6,"x: 215.88665771484375
y: 176.34075927734375
z: -0.3318738639354706
visibility: 0.9998983144760132
","x: 217.27566528320312
y: 167.64222717285156
z: -0.3278490900993347
visibility: 0.9997043609619141
","x: 218.72439575195312
y: 166.57049560546875
z: -0.32786843180656433
visibility: 0.9996848106384277
","x: 220.54844665527344
y: 165.16319274902344
z: -0.3278958201408386
visibility: 0.9996065497398376
","x: 213.13404846191406
y: 169.56773376464844
z: -0.31524521112442017
visibility: 0.999722957611084
","x: 211.91600036621094
y: 170.0282440185547
z: -0.3152574300765991
visibility: 0.99964839220047
","x: 210.45872497558594
y: 170.4680633544922
z: -0.31522664427757263
visibility: 0.9996392726898193
","x: 226.2687225341797
y: 165.2950897216797
z: -0.2556754946708679
visibility: 0.9994826316833496
","x: 211.77706909179688
y: 171.75942993164062
z: -0.19596228003501892
visibility: 0.9995422959327698
","x: 221.1177978515625
y: 182.25802612304688
z: -0.3021305501461029
visibility: 0.9998456239700317
","x: 216.3834686279297
y: 184.86428833007812
z: -0.2846691608428955
visibility: 0.9998179078102112
","x: 251.5385284423828
y: 207.2984161376953
z: -0.18000628054141998
visibility: 0.999970018863678
","x: 204.1893768310547
y: 219.07745361328125
z: -0.1049220934510231
visibility: 0.9999452829360962
","x: 272.15411376953125
y: 254.2074737548828
z: -0.1687541902065277
visibility: 0.9238004088401794
","x: 193.25164794921875
y: 270.0970458984375
z: -0.03484005853533745
visibility: 0.8906407952308655
","x: 283.42364501953125
y: 303.12677001953125
z: -0.2872176766395569
visibility: 0.9019668102264404
","x: 180.86578369140625
y: 314.45721435546875
z: -0.18837010860443115
visibility: 0.9072067141532898
","x: 288.30340576171875
y: 317.8562316894531
z: -0.3161827623844147
visibility: 0.8795135617256165
","x: 175.2625274658203
y: 331.0263366699219
z: -0.21509763598442078
visibility: 0.8676893711090088
","x: 284.60650634765625
y: 318.7216491699219
z: -0.3499923050403595
visibility: 0.8821993470191956
","x: 176.65650939941406
y: 331.15570068359375
z: -0.24232082068920135
visibility: 0.8716319799423218
","x: 281.94921875
y: 313.701904296875
z: -0.3021789491176605
visibility: 0.8314353227615356
","x: 179.17726135253906
y: 326.517578125
z: -0.17947107553482056
visibility: 0.8437920212745667
","x: 237.29237365722656
y: 335.9095458984375
z: 0.005767560563981533
visibility: 0.9998390674591064
","x: 211.36451721191406
y: 331.8796081542969
z: -0.0057687414810061455
visibility: 0.9997419118881226
","x: 224.63595581054688
y: 410.93072509765625
z: -0.031907226890325546
visibility: 0.9843217134475708
","x: 201.26162719726562
y: 408.1817321777344
z: 0.033630263060331345
visibility: 0.988074004650116
","x: 210.5897216796875
y: 487.6683349609375
z: 0.132644385099411
visibility: 0.9865284562110901
","x: 201.65122985839844
y: 461.5901184082031
z: 0.3521742522716522
visibility: 0.9569293260574341
","x: 206.61770629882812
y: 497.895263671875
z: 0.14216695725917816
visibility: 0.9259774088859558
","x: 202.28086853027344
y: 464.03240966796875
z: 0.38031184673309326
visibility: 0.8610325455665588
","x: 213.7177734375
y: 516.5061645507812
z: 0.02480493299663067
visibility: 0.9826657772064209
","x: 193.47988891601562
y: 489.7435302734375
z: 0.31844788789749146
visibility: 0.9581779837608337
",,,,,,,,,,,,,,,,,,,,,,"x: 284.312255859375
y: 305.49346923828125
z: 0.0
","x: 282.70135498046875
y: 314.47393798828125
z: -4.470737258088775e-05
","x: 282.74114990234375
y: 322.6269836425781
z: -0.00025601309607736766
","x: 284.5256042480469
y: 328.3144836425781
z: -0.0013402542099356651
","x: 286.8074035644531
y: 330.4199523925781
z: -0.0017290643882006407
","x: 286.0118103027344
y: 326.84735107421875
z: 0.0027503161691129208
","x: 286.9757080078125
y: 333.656494140625
z: 0.0009676804766058922
","x: 285.9555969238281
y: 330.8599548339844
z: 0.0005199090810492635
","x: 285.3464660644531
y: 328.1734924316406
z: 0.0006476969574578106
","x: 287.94403076171875
y: 325.91888427734375
z: 0.0012727249413728714
","x: 288.99517822265625
y: 331.94989013671875
z: -0.0001336946152150631
","x: 287.8587646484375
y: 329.2203369140625
z: -6.722514808643609e-05
","x: 287.16192626953125
y: 326.7416687011719
z: 0.0004351927782408893
","x: 289.7001953125
y: 323.87982177734375
z: -0.0008016482461243868
","x: 290.7772521972656
y: 329.3995666503906
z: -0.0022483395878225565
","x: 289.6222229003906
y: 327.17169189453125
z: -0.0013740722788497806
","x: 288.769287109375
y: 324.58624267578125
z: -0.00035171318450011313
","x: 291.3779602050781
y: 321.0540466308594
z: -0.003200049512088299
","x: 292.3228454589844
y: 325.7905578613281
z: -0.0038857462350279093
","x: 291.4153747558594
y: 325.1163330078125
z: -0.0030932012014091015
","x: 290.58514404296875
y: 323.5345153808594
z: -0.002099346136674285
"
7,"x: 215.6761474609375
y: 173.6656951904297
z: -0.3173968195915222
visibility: 0.9999080896377563
","x: 216.97833251953125
y: 165.0499725341797
z: -0.2991298735141754
visibility: 0.9997327923774719
","x: 218.3642120361328
y: 163.8607177734375
z: -0.2991456091403961
visibility: 0.9997153878211975
","x: 220.0635986328125
y: 162.5579071044922
z: -0.29912450909614563
visibility: 0.9996451735496521
","x: 213.0577850341797
y: 168.0111083984375
z: -0.3038892149925232
visibility: 0.9997490644454956
","x: 212.01202392578125
y: 168.69642639160156
z: -0.30379706621170044
visibility: 0.9996814131736755
","x: 210.9019317626953
y: 169.25338745117188
z: -0.30324357748031616
visibility: 0.9996727705001831
","x: 226.0670928955078
y: 163.5382843017578
z: -0.20481061935424805
visibility: 0.9995336532592773
","x: 212.2582244873047
y: 171.1298370361328
z: -0.18852218985557556
visibility: 0.9995830059051514
","x: 220.60755920410156
y: 179.88787841796875
z: -0.26291507482528687
visibility: 0.9998608231544495
","x: 216.04713439941406
y: 182.087646484375
z: -0.26063013076782227
visibility: 0.9998347163200378
","x: 251.4671173095703
y: 206.7186737060547
z: -0.1498611569404602
visibility: 0.9999728798866272
","x: 205.59283447265625
y: 217.85818481445312
z: -0.07735516875982285
visibility: 0.9999430775642395
","x: 276.1612548828125
y: 251.5516815185547
z: -0.15224149823188782
visibility: 0.9313759207725525
","x: 195.0691680908203
y: 268.3968811035156
z: 0.020182199776172638
visibility: 0.8849667906761169
","x: 288.7326965332031
y: 296.30047607421875
z: -0.22884778678417206
visibility: 0.9116119146347046
","x: 188.8643341064453
y: 310.1014099121094
z: -0.12485180795192719
visibility: 0.908772349357605
","x: 294.0262145996094
y: 312.3104248046875
z: -0.2562482953071594
visibility: 0.8910637497901917
","x: 185.46498107910156
y: 325.82440185546875
z: -0.15204451978206635
visibility: 0.8700472116470337
","x: 289.7341613769531
y: 313.110107421875
z: -0.2875136733055115
visibility: 0.8935384154319763
","x: 187.2861785888672
y: 324.95611572265625
z: -0.18934662640094757
visibility: 0.8745513558387756
","x: 287.0688171386719
y: 308.427001953125
z: -0.2412533462047577
visibility: 0.8476895689964294
","x: 189.37100219726562
y: 320.4812316894531
z: -0.13995909690856934
visibility: 0.8480700850486755
","x: 239.12965393066406
y: 334.26019287109375
z: -0.03604384884238243
visibility: 0.9998382329940796
","x: 214.3780059814453
y: 330.7752685546875
z: 0.03605162724852562
visibility: 0.9997064471244812
","x: 225.55535888671875
y: 411.8874816894531
z: -0.04819079861044884
visibility: 0.9834566712379456
","x: 207.0404052734375
y: 410.1965026855469
z: 0.026568034663796425
visibility: 0.9872920513153076
","x: 212.15054321289062
y: 488.4595947265625
z: 0.0825403481721878
visibility: 0.9870222210884094
","x: 235.2308807373047
y: 462.1585388183594
z: 0.3058839440345764
visibility: 0.9574466943740845
","x: 209.1273193359375
y: 498.83062744140625
z: 0.08783397823572159
visibility: 0.9244219660758972
","x: 241.09640502929688
y: 466.8215637207031
z: 0.3182474672794342
visibility: 0.8670018315315247
","x: 213.62139892578125
y: 516.928955078125
z: -0.032143957912921906
visibility: 0.9828566908836365
","x: 226.41339111328125
y: 497.4996337890625
z: 0.19630983471870422
visibility: 0.9585711359977722
",,,,,,,,,,,,,,,,,,,,,,,,,,,,,,,,,,,,,,,,,,
8,"x: 218.28269958496094
y: 170.5626678466797
z: -0.26195934414863586
visibility: 0.9999166131019592
","x: 219.25909423828125
y: 161.72811889648438
z: -0.25463157892227173
visibility: 0.9997573494911194
","x: 220.61676025390625
y: 160.17630004882812
z: -0.2546902000904083
visibility: 0.9997419714927673
","x: 222.19219970703125
y: 158.6582794189453
z: -0.25473493337631226
visibility: 0.999678909778595
","x: 215.4925079345703
y: 165.54714965820312
z: -0.2424769401550293
visibility: 0.9997714757919312
","x: 214.37728881835938
y: 166.7980194091797
z: -0.24243250489234924
visibility: 0.9997099041938782
","x: 213.11253356933594
y: 167.91705322265625
z: -0.2422458380460739
visibility: 0.9997013211250305
","x: 227.4571533203125
y: 160.33779907226562
z: -0.20064790546894073
visibility: 0.9995788335800171
","x: 213.7855682373047
y: 170.28897094726562
z: -0.12062718719244003
visibility: 0.9996160268783569
","x: 222.8406982421875
y: 176.2751922607422
z: -0.23030555248260498
visibility: 0.9998742341995239
","x: 218.141357421875
y: 178.75558471679688
z: -0.21217575669288635
visibility: 0.9998493790626526
","x: 251.8545379638672
y: 203.7033233642578
z: -0.12873049080371857
visibility: 0.999975323677063
","x: 206.208984375
y: 217.20892333984375
z: -0.034775737673044205
visibility: 0.9999396204948425
","x: 277.142333984375
y: 243.82415771484375
z: -0.11058969795703888
visibility: 0.9381861090660095
","x: 198.21652221679688
y: 267.1998291015625
z: 0.004865602590143681
visibility: 0.8797235488891602
","x: 288.54705810546875
y: 292.9141845703125
z: -0.17973631620407104
visibility: 0.9202505350112915
","x: 199.17205810546875
y: 308.82708740234375
z: -0.16283902525901794
visibility: 0.9078690409660339
","x: 291.9462890625
y: 309.02972412109375
z: -0.20837652683258057
visibility: 0.9012970328330994
","x: 199.1094970703125
y: 322.48431396484375
z: -0.1985192447900772
visibility: 0.8684605360031128
","x: 287.4636535644531
y: 309.03546142578125
z: -0.23526282608509064
visibility: 0.9035913944244385
","x: 202.5513916015625
y: 319.0723571777344
z: -0.22794215381145477
visibility: 0.873306155204773
","x: 285.2102355957031
y: 304.42230224609375
z: -0.19016790390014648
visibility: 0.8621293306350708
","x: 203.87619018554688
y: 315.2379150390625
z: -0.17945656180381775
visibility: 0.847488284111023
","x: 241.0398712158203
y: 330.2170104980469
z: -0.04247533529996872
visibility: 0.9998152256011963
","x: 215.6427001953125
y: 328.5708923339844
z: 0.042506322264671326
visibility: 0.9996718764305115
","x: 232.55714416503906
y: 411.1909484863281
z: -0.012334685772657394
visibility: 0.9816322922706604
","x: 220.76307678222656
y: 410.38616943359375
z: 0.022798608988523483
visibility: 0.9850690960884094
","x: 219.70230102539062
y: 485.2600402832031
z: 0.13877680897712708
visibility: 0.9865856766700745
","x: 244.25462341308594
y: 467.236083984375
z: 0.1625729501247406
visibility: 0.959636926651001
","x: 217.5706787109375
y: 496.8159484863281
z: 0.1456627994775772
visibility: 0.9205507040023804
","x: 250.94381713867188
y: 474.4021301269531
z: 0.16884629428386688
visibility: 0.8750973343849182
","x: 219.1053466796875
y: 512.8504638671875
z: 0.02644512429833412
visibility: 0.9817025065422058
","x: 234.70913696289062
y: 499.036376953125
z: 0.0718306303024292
visibility: 0.9602933526039124
",,,,,,,,,,,,,,,,,,,,,,"x: 288.6813659667969
y: 291.2801818847656
z: 0.0
","x: 285.0174255371094
y: 298.951171875
z: 0.001563235535286367
","x: 283.7041015625
y: 306.6717224121094
z: 0.0017364020459353924
","x: 284.04736328125
y: 312.941650390625
z: 0.001150171970948577
","x: 285.00653076171875
y: 316.9649353027344
z: 0.0011299282778054476
","x: 286.52288818359375
y: 312.534423828125
z: 0.002041294937953353
","x: 286.47088623046875
y: 320.8045959472656
z: 0.0015922966413199902
","x: 285.65240478515625
y: 319.7835388183594
z: 0.002210552804172039
","x: 285.38671875
y: 316.78204345703125
z: 0.002990830922499299
","x: 288.9242858886719
y: 312.5662841796875
z: 0.0003959366586059332
","x: 288.8417053222656
y: 320.4666442871094
z: 0.0005835925694555044
","x: 287.87005615234375
y: 319.10662841796875
z: 0.0017707525985315442
","x: 287.5111389160156
y: 316.1479797363281
z: 0.002769243670627475
","x: 291.0337219238281
y: 311.78057861328125
z: -0.001371843391098082
","x: 290.875
y: 318.9642028808594
z: -0.0011065207654610276
","x: 289.92108154296875
y: 317.6282043457031
z: 0.0005528457113541663
","x: 289.4686584472656
y: 314.87139892578125
z: 0.0016832367982715368
","x: 292.91357421875
y: 310.3360595703125
z: -0.0032703971955925226
","x: 292.9525146484375
y: 316.8421936035156
z: -0.002972445683553815
","x: 292.1494445800781
y: 316.1669006347656
z: -0.0016207338776439428
","x: 291.6078796386719
y: 313.8232421875
z: -0.0004704018065240234
"
9,"x: 218.28269958496094
y: 170.5626678466797
z: -0.26195934414863586
visibility: 0.9999166131019592
","x: 219.25909423828125
y: 161.72811889648438
z: -0.25463157892227173
visibility: 0.9997573494911194
","x: 220.61676025390625
y: 160.17630004882812
z: -0.2546902000904083
visibility: 0.9997419714927673
","x: 222.19219970703125
y: 158.6582794189453
z: -0.25473493337631226
visibility: 0.999678909778595
","x: 215.4925079345703
y: 165.54714965820312
z: -0.2424769401550293
visibility: 0.9997714757919312
","x: 214.37728881835938
y: 166.7980194091797
z: -0.24243250489234924
visibility: 0.9997099041938782
","x: 213.11253356933594
y: 167.91705322265625
z: -0.2422458380460739
visibility: 0.9997013211250305
","x: 227.4571533203125
y: 160.33779907226562
z: -0.20064790546894073
visibility: 0.9995788335800171
","x: 213.7855682373047
y: 170.28897094726562
z: -0.12062718719244003
visibility: 0.9996160268783569
","x: 222.8406982421875
y: 176.2751922607422
z: -0.23030555248260498
visibility: 0.9998742341995239
","x: 218.141357421875
y: 178.75558471679688
z: -0.21217575669288635
visibility: 0.9998493790626526
","x: 251.8545379638672
y: 203.7033233642578
z: -0.12873049080371857
visibility: 0.999975323677063
","x: 206.208984375
y: 217.20892333984375
z: -0.034775737673044205
visibility: 0.9999396204948425
","x: 277.142333984375
y: 243.82415771484375
z: -0.11058969795703888
visibility: 0.9381861090660095
","x: 198.21652221679688
y: 267.1998291015625
z: 0.004865602590143681
visibility: 0.8797235488891602
","x: 288.54705810546875
y: 292.9141845703125
z: -0.17973631620407104
visibility: 0.9202505350112915
","x: 199.17205810546875
y: 308.82708740234375
z: -0.16283902525901794
visibility: 0.9078690409660339
","x: 291.9462890625
y: 309.02972412109375
z: -0.20837652683258057
visibility: 0.9012970328330994
","x: 199.1094970703125
y: 322.48431396484375
z: -0.1985192447900772
visibility: 0.8684605360031128
","x: 287.4636535644531
y: 309.03546142578125
z: -0.23526282608509064
visibility: 0.9035913944244385
","x: 202.5513916015625
y: 319.0723571777344
z: -0.22794215381145477
visibility: 0.873306155204773
","x: 285.2102355957031
y: 304.42230224609375
z: -0.19016790390014648
visibility: 0.8621293306350708
","x: 203.87619018554688
y: 315.2379150390625
z: -0.17945656180381775
visibility: 0.847488284111023
","x: 241.0398712158203
y: 330.2170104980469
z: -0.04247533529996872
visibility: 0.9998152256011963
","x: 215.6427001953125
y: 328.5708923339844
z: 0.042506322264671326
visibility: 0.9996718764305115
","x: 232.55714416503906
y: 411.1909484863281
z: -0.012334685772657394
visibility: 0.9816322922706604
","x: 220.76307678222656
y: 410.38616943359375
z: 0.022798608988523483
visibility: 0.9850690960884094
","x: 219.70230102539062
y: 485.2600402832031
z: 0.13877680897712708
visibility: 0.9865856766700745
","x: 244.25462341308594
y: 467.236083984375
z: 0.1625729501247406
visibility: 0.959636926651001
","x: 217.5706787109375
y: 496.8159484863281
z: 0.1456627994775772
visibility: 0.9205507040023804
","x: 250.94381713867188
y: 474.4021301269531
z: 0.16884629428386688
visibility: 0.8750973343849182
","x: 219.1053466796875
y: 512.8504638671875
z: 0.02644512429833412
visibility: 0.9817025065422058
","x: 234.70913696289062
y: 499.036376953125
z: 0.0718306303024292
visibility: 0.9602933526039124
",,,,,,,,,,,,,,,,,,,,,,"x: 288.6813659667969
y: 291.2801818847656
z: 0.0
","x: 285.0174255371094
y: 298.951171875
z: 0.001563235535286367
","x: 283.7041015625
y: 306.6717224121094
z: 0.0017364020459353924
","x: 284.04736328125
y: 312.941650390625
z: 0.001150171970948577
","x: 285.00653076171875
y: 316.9649353027344
z: 0.0011299282778054476
","x: 286.52288818359375
y: 312.534423828125
z: 0.002041294937953353
","x: 286.47088623046875
y: 320.8045959472656
z: 0.0015922966413199902
","x: 285.65240478515625
y: 319.7835388183594
z: 0.002210552804172039
","x: 285.38671875
y: 316.78204345703125
z: 0.002990830922499299
","x: 288.9242858886719
y: 312.5662841796875
z: 0.0003959366586059332
","x: 288.8417053222656
y: 320.4666442871094
z: 0.0005835925694555044
","x: 287.87005615234375
y: 319.10662841796875
z: 0.0017707525985315442
","x: 287.5111389160156
y: 316.1479797363281
z: 0.002769243670627475
","x: 291.0337219238281
y: 311.78057861328125
z: -0.001371843391098082
","x: 290.875
y: 318.9642028808594
z: -0.0011065207654610276
","x: 289.92108154296875
y: 317.6282043457031
z: 0.0005528457113541663
","x: 289.4686584472656
y: 314.87139892578125
z: 0.0016832367982715368
","x: 292.91357421875
y: 310.3360595703125
z: -0.0032703971955925226
","x: 292.9525146484375
y: 316.8421936035156
z: -0.002972445683553815
","x: 292.1494445800781
y: 316.1669006347656
z: -0.0016207338776439428
","x: 291.6078796386719
y: 313.8232421875
z: -0.0004704018065240234
"
10,"x: 223.1270294189453
y: 170.35057067871094
z: -0.3294444680213928
visibility: 0.9999223947525024
","x: 224.7845458984375
y: 161.7460479736328
z: -0.3160496950149536
visibility: 0.9997703433036804
","x: 226.38949584960938
y: 160.7897186279297
z: -0.31608474254608154
visibility: 0.9997549653053284
","x: 228.08700561523438
y: 159.75401306152344
z: -0.31614479422569275
visibility: 0.9996986389160156
","x: 220.78591918945312
y: 164.2503662109375
z: -0.31289517879486084
visibility: 0.9997847080230713
","x: 219.4684600830078
y: 165.153076171875
z: -0.3129179775714874
visibility: 0.9997279644012451
","x: 218.27243041992188
y: 166.04010009765625
z: -0.3128843903541565
visibility: 0.9997192025184631
","x: 231.60736083984375
y: 161.37245178222656
z: -0.21311715245246887
visibility: 0.9995992183685303
","x: 217.61013793945312
y: 169.8907470703125
z: -0.19294549524784088
visibility: 0.9996294975280762
","x: 227.20257568359375
y: 176.9678955078125
z: -0.28755033016204834
visibility: 0.9998837113380432
","x: 221.60220336914062
y: 178.71136474609375
z: -0.28253039717674255
visibility: 0.9998591542243958
","x: 254.87110900878906
y: 204.4875946044922
z: -0.1246834546327591
visibility: 0.9999746680259705
","x: 206.99798583984375
y: 216.17332458496094
z: -0.11503185331821442
visibility: 0.9999337196350098
","x: 279.57806396484375
y: 243.84625244140625
z: -0.07685531675815582
visibility: 0.9439549446105957
","x: 203.90940856933594
y: 269.7515869140625
z: -0.09177201986312866
visibility: 0.8876896500587463
","x: 284.3326110839844
y: 294.3631591796875
z: -0.17036178708076477
visibility: 0.9263814687728882
","x: 215.95701599121094
y: 308.21612548828125
z: -0.21657519042491913
visibility: 0.9121526479721069
","x: 285.2055969238281
y: 309.5990295410156
z: -0.2027057409286499
visibility: 0.9063150882720947
","x: 218.43807983398438
y: 321.6620178222656
z: -0.25528067350387573
visibility: 0.8732833862304688
","x: 280.9219055175781
y: 308.52337646484375
z: -0.23059320449829102
visibility: 0.9087318778038025
","x: 221.2694549560547
y: 318.5660400390625
z: -0.2807706594467163
visibility: 0.8776754140853882
","x: 279.6322021484375
y: 304.0052490234375
z: -0.18262340128421783
visibility: 0.870510995388031
","x: 220.86181640625
y: 314.5571594238281
z: -0.22925686836242676
visibility: 0.8521278500556946
","x: 248.58457946777344
y: 330.0597839355469
z: -0.020002834498882294
visibility: 0.9998084306716919
","x: 222.49252319335938
y: 330.87042236328125
z: 0.01995716616511345
visibility: 0.9996632933616638
","x: 247.30982971191406
y: 411.748046875
z: -0.0031689065508544445
visibility: 0.981742799282074
","x: 228.45208740234375
y: 411.16656494140625
z: 0.04975629970431328
visibility: 0.9847458004951477
","x: 246.15411376953125
y: 485.70001220703125
z: 0.19365903735160828
visibility: 0.9854844212532043
","x: 245.09756469726562
y: 470.3226318359375
z: 0.3100651204586029
visibility: 0.9601906538009644
","x: 245.82681274414062
y: 496.6861267089844
z: 0.20704758167266846
visibility: 0.916899561882019
","x: 248.37759399414062
y: 477.612060546875
z: 0.3313002288341522
visibility: 0.8730146884918213
","x: 254.1536865234375
y: 514.4327392578125
z: 0.09313897788524628
visibility: 0.9805401563644409
","x: 236.00375366210938
y: 498.744384765625
z: 0.2410953938961029
visibility: 0.9601554274559021
",,,,,,,,,,,,,,,,,,,,,,,,,,,,,,,,,,,,,,,,,,
11,"x: 237.15853881835938
y: 168.02529907226562
z: -0.3211336135864258
visibility: 0.9999258518218994
","x: 239.7422332763672
y: 160.55442810058594
z: -0.30742257833480835
visibility: 0.99977707862854
","x: 241.565185546875
y: 160.5235137939453
z: -0.3074526786804199
visibility: 0.9997630715370178
","x: 243.3765869140625
y: 160.2267303466797
z: -0.3074910640716553
visibility: 0.9997130632400513
","x: 235.33604431152344
y: 160.3181610107422
z: -0.30325716733932495
visibility: 0.99979168176651
","x: 233.7159423828125
y: 160.3347625732422
z: -0.3032725155353546
visibility: 0.9997392892837524
","x: 232.17884826660156
y: 160.51339721679688
z: -0.3032870292663574
visibility: 0.9997330904006958
","x: 246.4669647216797
y: 161.6194305419922
z: -0.19972030818462372
visibility: 0.9996165633201599
","x: 229.48130798339844
y: 165.83966064453125
z: -0.175178661942482
visibility: 0.9996436834335327
","x: 239.4853973388672
y: 175.9652862548828
z: -0.27762752771377563
visibility: 0.9998924732208252
","x: 234.14698791503906
y: 175.74400329589844
z: -0.2712422013282776
visibility: 0.9998695850372314
","x: 261.2854919433594
y: 206.3332977294922
z: -0.13741736114025116
visibility: 0.9999759793281555
","x: 213.81857299804688
y: 209.63861083984375
z: -0.06645818054676056
visibility: 0.9999373555183411
","x: 276.8737487792969
y: 259.6875
z: -0.1931266039609909
visibility: 0.948713481426239
","x: 210.7028045654297
y: 268.5723571777344
z: -0.019206630066037178
visibility: 0.8943005204200745
","x: 273.51446533203125
y: 281.177490234375
z: -0.4078894257545471
visibility: 0.9308159947395325
","x: 216.9751434326172
y: 315.55078125
z: -0.12173224985599518
visibility: 0.9170069098472595
","x: 264.98846435546875
y: 294.2832336425781
z: -0.46170249581336975
visibility: 0.9104877710342407
","x: 217.11871337890625
y: 334.53863525390625
z: -0.15742719173431396
visibility: 0.8792256116867065
","x: 264.1415710449219
y: 285.6543273925781
z: -0.4723016321659088
visibility: 0.9126216769218445
","x: 220.13104248046875
y: 332.1258850097656
z: -0.1896851509809494
visibility: 0.8834534883499146
","x: 267.02081298828125
y: 280.47540283203125
z: -0.4158308506011963
visibility: 0.8747765421867371
","x: 220.5146484375
y: 325.251220703125
z: -0.1365390121936798
visibility: 0.8590483665466309
","x: 254.20408630371094
y: 330.06475830078125
z: -0.038596682250499725
visibility: 0.9998102784156799
","x: 229.22088623046875
y: 331.5572509765625
z: 0.038505300879478455
visibility: 0.999674916267395
","x: 260.9075012207031
y: 411.5963134765625
z: -0.06159668043255806
visibility: 0.9833555221557617
","x: 226.55722045898438
y: 411.25860595703125
z: 0.04349169135093689
visibility: 0.9857940673828125
","x: 269.2068176269531
y: 487.1252136230469
z: 0.15122105181217194
visibility: 0.986706554889679
","x: 243.72727966308594
y: 469.9596862792969
z: 0.32243233919143677
visibility: 0.9632889032363892
","x: 270.600830078125
y: 498.3930969238281
z: 0.16108140349388123
visibility: 0.9138157963752747
","x: 249.07110595703125
y: 475.5355529785156
z: 0.3446597158908844
visibility: 0.8815497159957886
","x: 263.984375
y: 515.2674560546875
z: 0.04729696363210678
visibility: 0.9819955229759216
","x: 232.98577880859375
y: 499.62261962890625
z: 0.2577701210975647
visibility: 0.9631264805793762
",,,,,,,,,,,,,,,,,,,,,,,,,,,,,,,,,,,,,,,,,,
12,"x: 245.19070434570312
y: 167.74334716796875
z: -0.3646072745323181
visibility: 0.9999273419380188
","x: 248.18190002441406
y: 160.65977478027344
z: -0.3482394218444824
visibility: 0.9997725486755371
","x: 249.8472442626953
y: 160.84185791015625
z: -0.3482666015625
visibility: 0.9997630715370178
","x: 251.4041748046875
y: 160.73370361328125
z: -0.348301500082016
visibility: 0.9997106194496155
","x: 243.30628967285156
y: 159.82675170898438
z: -0.3471774458885193
visibility: 0.9997873306274414
","x: 241.60975646972656
y: 159.6951904296875
z: -0.34720510244369507
visibility: 0.9997438788414001
","x: 240.3120574951172
y: 159.67210388183594
z: -0.34725672006607056
visibility: 0.9997373819351196
","x: 253.5928955078125
y: 161.9525909423828
z: -0.22544150054454803
visibility: 0.9996005296707153
","x: 237.5220947265625
y: 163.963623046875
z: -0.21686211228370667
visibility: 0.9996598362922668
","x: 247.43142700195312
y: 175.76800537109375
z: -0.3162505328655243
visibility: 0.9998986721038818
","x: 241.64837646484375
y: 175.00563049316406
z: -0.314394474029541
visibility: 0.999879002571106
","x: 266.1712951660156
y: 208.14329528808594
z: -0.15941880643367767
visibility: 0.9999749064445496
","x: 218.26861572265625
y: 207.5973663330078
z: -0.09475715458393097
visibility: 0.9999414682388306
","x: 275.3442077636719
y: 270.11004638671875
z: -0.27578768134117126
visibility: 0.9509197473526001
","x: 213.49842834472656
y: 269.644775390625
z: -0.036569152027368546
visibility: 0.9028048515319824
","x: 272.81732177734375
y: 259.0375061035156
z: -0.5475574135780334
visibility: 0.9305450320243835
","x: 214.15492248535156
y: 323.7701721191406
z: -0.13677309453487396
visibility: 0.922122061252594
","x: 263.72723388671875
y: 252.1511993408203
z: -0.6057828664779663
visibility: 0.9088858962059021
","x: 212.8626251220703
y: 342.166259765625
z: -0.16851788759231567
visibility: 0.8855465650558472
","x: 263.5476379394531
y: 243.20932006835938
z: -0.6082020998001099
visibility: 0.9104501605033875
","x: 215.72425842285156
y: 341.3494567871094
z: -0.20192170143127441
visibility: 0.8896118402481079
","x: 265.5089111328125
y: 245.2425994873047
z: -0.5545233488082886
visibility: 0.8697684407234192
","x: 216.9811553955078
y: 336.0111999511719
z: -0.15084241330623627
visibility: 0.8659241199493408
","x: 259.2184753417969
y: 330.0634765625
z: -0.03536232188344002
visibility: 0.99981689453125
","x: 232.354248046875
y: 332.0709533691406
z: 0.035293348133563995
visibility: 0.9996930360794067
","x: 265.5913391113281
y: 412.56573486328125
z: -0.06677375733852386
visibility: 0.9848311543464661
","x: 226.37631225585938
y: 414.022216796875
z: 0.02170463465154171
visibility: 0.9869738221168518
","x: 271.11712646484375
y: 487.3660583496094
z: 0.19196851551532745
visibility: 0.9878223538398743
","x: 241.05023193359375
y: 466.45977783203125
z: 0.36044198274612427
visibility: 0.9660981297492981
","x: 271.77777099609375
y: 497.9765319824219
z: 0.21039056777954102
visibility: 0.91057950258255
","x: 246.33567810058594
y: 470.7443542480469
z: 0.3893502354621887
visibility: 0.886821985244751
","x: 265.74700927734375
y: 516.4365234375
z: 0.06378137320280075
visibility: 0.9833660125732422
","x: 231.63616943359375
y: 500.3230285644531
z: 0.2966473698616028
visibility: 0.965723991394043
",,,,,,,,,,,,,,,,,,,,,,,,,,,,,,,,,,,,,,,,,,
13,"x: 249.82315063476562
y: 165.45997619628906
z: -0.32995352149009705
visibility: 0.9999299049377441
","x: 253.21417236328125
y: 158.8882598876953
z: -0.31702107191085815
visibility: 0.999769389629364
","x: 254.86404418945312
y: 159.4581756591797
z: -0.31706520915031433
visibility: 0.9997638463973999
","x: 256.3659362792969
y: 159.8359832763672
z: -0.3171079754829407
visibility: 0.9997019171714783
","x: 248.2830047607422
y: 157.35433959960938
z: -0.3124672770500183
visibility: 0.9997870922088623
","x: 246.50900268554688
y: 157.0668182373047
z: -0.31248539686203003
visibility: 0.9997510313987732
","x: 244.9058837890625
y: 156.8913116455078
z: -0.3125269412994385
visibility: 0.9997427463531494
","x: 258.1148681640625
y: 162.43936157226562
z: -0.1989159882068634
visibility: 0.9995837211608887
","x: 242.75701904296875
y: 159.96206665039062
z: -0.18660269677639008
visibility: 0.9996815323829651
","x: 251.85415649414062
y: 173.7169647216797
z: -0.28648510575294495
visibility: 0.9999006986618042
","x: 246.00094604492188
y: 172.5615692138672
z: -0.28060147166252136
visibility: 0.9998874068260193
","x: 267.59326171875
y: 208.43911743164062
z: -0.1425172984600067
visibility: 0.9999641180038452
","x: 222.32589721679688
y: 201.19924926757812
z: -0.0700925886631012
visibility: 0.9999461770057678
","x: 275.04150390625
y: 271.93695068359375
z: -0.2525010108947754
visibility: 0.950263500213623
","x: 215.41256713867188
y: 268.640869140625
z: -0.010360383428633213
visibility: 0.9098913669586182
","x: 269.7093811035156
y: 234.9288787841797
z: -0.5142425894737244
visibility: 0.9319828748703003
","x: 211.4153594970703
y: 319.3271789550781
z: -0.08324126899242401
visibility: 0.9277088642120361
","x: 262.76416015625
y: 218.8687286376953
z: -0.5666366815567017
visibility: 0.9099686145782471
","x: 210.6158905029297
y: 337.5596618652344
z: -0.10246143490076065
visibility: 0.8924592733383179
","x: 263.1264953613281
y: 212.7743682861328
z: -0.5669647455215454
visibility: 0.9110993146896362
","x: 215.22463989257812
y: 336.763916015625
z: -0.138700932264328
visibility: 0.8964536190032959
","x: 264.1745910644531
y: 217.6602325439453
z: -0.5211561918258667
visibility: 0.8696309328079224
","x: 215.6813507080078
y: 331.34747314453125
z: -0.09857998043298721
visibility: 0.8741594552993774
","x: 260.1352233886719
y: 329.68572998046875
z: -0.03354137763381004
visibility: 0.9998074173927307
","x: 233.1492462158203
y: 331.5614013671875
z: 0.03337042033672333
visibility: 0.9997093677520752
","x: 267.0957336425781
y: 412.62255859375
z: -0.06391000747680664
visibility: 0.9861708879470825
","x: 225.3622283935547
y: 416.1422119140625
z: 0.02149266190826893
visibility: 0.9880685210227966
","x: 271.0533752441406
y: 487.6275329589844
z: 0.18939991295337677
visibility: 0.9887932538986206
","x: 229.63600158691406
y: 476.5948486328125
z: 0.3029576241970062
visibility: 0.9692481756210327
","x: 271.5654602050781
y: 498.503662109375
z: 0.2054457664489746
visibility: 0.9088980555534363
","x: 234.9159393310547
y: 484.5904235839844
z: 0.32371801137924194
visibility: 0.895103931427002
","x: 265.1510009765625
y: 517.2772827148438
z: 0.062067050486803055
visibility: 0.9845219850540161
","x: 216.66783142089844
y: 507.30657958984375
z: 0.27050039172172546
visibility: 0.9687381982803345
","x: 208.6520233154297
y: 320.8443908691406
z: 0.0
","x: 211.62826538085938
y: 325.7933044433594
z: 7.422856288030744e-05
","x: 212.34426879882812
y: 333.48858642578125
z: 0.0006174652953632176
","x: 212.2081298828125
y: 340.65411376953125
z: 0.00097275321604684
","x: 212.1309051513672
y: 346.1944274902344
z: 0.0018773796036839485
","x: 207.79322814941406
y: 341.688720703125
z: 0.003528405912220478
","x: 208.17665100097656
y: 351.18359375
z: 0.004021207336336374
","x: 209.05191040039062
y: 354.8514404296875
z: 0.004893800243735313
","x: 209.89175415039062
y: 356.9918518066406
z: 0.005850283894687891
","x: 206.6737060546875
y: 342.45654296875
z: 0.003222453175112605
","x: 207.156005859375
y: 351.9713134765625
z: 0.004208820406347513
","x: 208.21592712402344
y: 355.4827880859375
z: 0.005044953897595406
","x: 209.2217559814453
y: 357.74322509765625
z: 0.005723085720092058
","x: 206.25723266601562
y: 342.56494140625
z: 0.0025031021796166897
","x: 206.68824768066406
y: 351.1788330078125
z: 0.0028924753423780203
","x: 207.86761474609375
y: 354.51885986328125
z: 0.00311597459949553
","x: 208.90008544921875
y: 356.6360778808594
z: 0.003451829543337226
","x: 206.23204040527344
y: 342.30413818359375
z: 0.0015671110013499856
","x: 206.64727783203125
y: 349.8829650878906
z: 0.0016395606799051166
","x: 207.55679321289062
y: 353.7745666503906
z: 0.0016600453527644277
","x: 208.3525390625
y: 356.2901611328125
z: 0.0019669607281684875
",,,,,,,,,,,,,,,,,,,,,
14,"x: 249.82315063476562
y: 165.45997619628906
z: -0.32995352149009705
visibility: 0.9999299049377441
","x: 253.21417236328125
y: 158.8882598876953
z: -0.31702107191085815
visibility: 0.999769389629364
","x: 254.86404418945312
y: 159.4581756591797
z: -0.31706520915031433
visibility: 0.9997638463973999
","x: 256.3659362792969
y: 159.8359832763672
z: -0.3171079754829407
visibility: 0.9997019171714783
","x: 248.2830047607422
y: 157.35433959960938
z: -0.3124672770500183
visibility: 0.9997870922088623
","x: 246.50900268554688
y: 157.0668182373047
z: -0.31248539686203003
visibility: 0.9997510313987732
","x: 244.9058837890625
y: 156.8913116455078
z: -0.3125269412994385
visibility: 0.9997427463531494
","x: 258.1148681640625
y: 162.43936157226562
z: -0.1989159882068634
visibility: 0.9995837211608887
","x: 242.75701904296875
y: 159.96206665039062
z: -0.18660269677639008
visibility: 0.9996815323829651
","x: 251.85415649414062
y: 173.7169647216797
z: -0.28648510575294495
visibility: 0.9999006986618042
","x: 246.00094604492188
y: 172.5615692138672
z: -0.28060147166252136
visibility: 0.9998874068260193
","x: 267.59326171875
y: 208.43911743164062
z: -0.1425172984600067
visibility: 0.9999641180038452
","x: 222.32589721679688
y: 201.19924926757812
z: -0.0700925886631012
visibility: 0.9999461770057678
","x: 275.04150390625
y: 271.93695068359375
z: -0.2525010108947754
visibility: 0.950263500213623
","x: 215.41256713867188
y: 268.640869140625
z: -0.010360383428633213
visibility: 0.9098913669586182
","x: 269.7093811035156
y: 234.9288787841797
z: -0.5142425894737244
visibility: 0.9319828748703003
","x: 211.4153594970703
y: 319.3271789550781
z: -0.08324126899242401
visibility: 0.9277088642120361
","x: 262.76416015625
y: 218.8687286376953
z: -0.5666366815567017
visibility: 0.9099686145782471
","x: 210.6158905029297
y: 337.5596618652344
z: -0.10246143490076065
visibility: 0.8924592733383179
","x: 263.1264953613281
y: 212.7743682861328
z: -0.5669647455215454
visibility: 0.9110993146896362
","x: 215.22463989257812
y: 336.763916015625
z: -0.138700932264328
visibility: 0.8964536190032959
","x: 264.1745910644531
y: 217.6602325439453
z: -0.5211561918258667
visibility: 0.8696309328079224
","x: 215.6813507080078
y: 331.34747314453125
z: -0.09857998043298721
visibility: 0.8741594552993774
","x: 260.1352233886719
y: 329.68572998046875
z: -0.03354137763381004
visibility: 0.9998074173927307
","x: 233.1492462158203
y: 331.5614013671875
z: 0.03337042033672333
visibility: 0.9997093677520752
","x: 267.0957336425781
y: 412.62255859375
z: -0.06391000747680664
visibility: 0.9861708879470825
","x: 225.3622283935547
y: 416.1422119140625
z: 0.02149266190826893
visibility: 0.9880685210227966
","x: 271.0533752441406
y: 487.6275329589844
z: 0.18939991295337677
visibility: 0.9887932538986206
","x: 229.63600158691406
y: 476.5948486328125
z: 0.3029576241970062
visibility: 0.9692481756210327
","x: 271.5654602050781
y: 498.503662109375
z: 0.2054457664489746
visibility: 0.9088980555534363
","x: 234.9159393310547
y: 484.5904235839844
z: 0.32371801137924194
visibility: 0.895103931427002
","x: 265.1510009765625
y: 517.2772827148438
z: 0.062067050486803055
visibility: 0.9845219850540161
","x: 216.66783142089844
y: 507.30657958984375
z: 0.27050039172172546
visibility: 0.9687381982803345
","x: 208.6520233154297
y: 320.8443908691406
z: 0.0
","x: 211.62826538085938
y: 325.7933044433594
z: 7.422856288030744e-05
","x: 212.34426879882812
y: 333.48858642578125
z: 0.0006174652953632176
","x: 212.2081298828125
y: 340.65411376953125
z: 0.00097275321604684
","x: 212.1309051513672
y: 346.1944274902344
z: 0.0018773796036839485
","x: 207.79322814941406
y: 341.688720703125
z: 0.003528405912220478
","x: 208.17665100097656
y: 351.18359375
z: 0.004021207336336374
","x: 209.05191040039062
y: 354.8514404296875
z: 0.004893800243735313
","x: 209.89175415039062
y: 356.9918518066406
z: 0.005850283894687891
","x: 206.6737060546875
y: 342.45654296875
z: 0.003222453175112605
","x: 207.156005859375
y: 351.9713134765625
z: 0.004208820406347513
","x: 208.21592712402344
y: 355.4827880859375
z: 0.005044953897595406
","x: 209.2217559814453
y: 357.74322509765625
z: 0.005723085720092058
","x: 206.25723266601562
y: 342.56494140625
z: 0.0025031021796166897
","x: 206.68824768066406
y: 351.1788330078125
z: 0.0028924753423780203
","x: 207.86761474609375
y: 354.51885986328125
z: 0.00311597459949553
","x: 208.90008544921875
y: 356.6360778808594
z: 0.003451829543337226
","x: 206.23204040527344
y: 342.30413818359375
z: 0.0015671110013499856
","x: 206.64727783203125
y: 349.8829650878906
z: 0.0016395606799051166
","x: 207.55679321289062
y: 353.7745666503906
z: 0.0016600453527644277
","x: 208.3525390625
y: 356.2901611328125
z: 0.0019669607281684875
",,,,,,,,,,,,,,,,,,,,,
15,"x: 249.29806518554688
y: 163.35702514648438
z: -0.18152733147144318
visibility: 0.9999368786811829
","x: 252.3424835205078
y: 156.98715209960938
z: -0.16141439974308014
visibility: 0.9997923970222473
","x: 253.95404052734375
y: 157.70079040527344
z: -0.16142375767230988
visibility: 0.9997873306274414
","x: 255.4116668701172
y: 158.41018676757812
z: -0.1614171713590622
visibility: 0.9997316002845764
","x: 247.7353515625
y: 155.38699340820312
z: -0.16634325683116913
visibility: 0.9998083114624023
","x: 245.97959899902344
y: 154.9346923828125
z: -0.1663326770067215
visibility: 0.9997758269309998
","x: 244.22732543945312
y: 154.552978515625
z: -0.1663217842578888
visibility: 0.9997683763504028
","x: 256.8425598144531
y: 162.0430145263672
z: -0.034141018986701965
visibility: 0.999625027179718
","x: 240.9407958984375
y: 157.20968627929688
z: -0.0614917166531086
visibility: 0.9997133016586304
","x: 250.9718017578125
y: 172.18910217285156
z: -0.13291773200035095
visibility: 0.9999105334281921
","x: 245.70065307617188
y: 170.8017120361328
z: -0.14109568297863007
visibility: 0.9998986721038818
","x: 265.22894287109375
y: 207.77227783203125
z: 0.03314434364438057
visibility: 0.9999672174453735
","x: 222.21829223632812
y: 195.6680145263672
z: 0.030649084597826004
visibility: 0.9999513626098633
","x: 267.7024230957031
y: 266.37255859375
z: -0.06537177413702011
visibility: 0.9540706276893616
","x: 212.98516845703125
y: 257.3975524902344
z: 0.06538329273462296
visibility: 0.9180968999862671
","x: 273.9736633300781
y: 208.40182495117188
z: -0.30018824338912964
visibility: 0.9385103583335876
","x: 209.72610473632812
y: 314.4654541015625
z: -0.012837189249694347
visibility: 0.9340923428535461
","x: 275.25677490234375
y: 195.37193298339844
z: -0.3488588333129883
visibility: 0.918298065662384
","x: 207.3885040283203
y: 336.1114807128906
z: -0.03582466021180153
visibility: 0.9010929465293884
","x: 274.99261474609375
y: 189.35020446777344
z: -0.35610896348953247
visibility: 0.9193048477172852
","x: 212.84640502929688
y: 334.216796875
z: -0.06510249525308609
visibility: 0.9048258662223816
","x: 273.5135498046875
y: 194.12640380859375
z: -0.31085440516471863
visibility: 0.881531298160553
","x: 214.43153381347656
y: 331.1609191894531
z: -0.025232980027794838
visibility: 0.884230375289917
","x: 258.8186340332031
y: 326.7078857421875
z: -0.00639950018376112
visibility: 0.9998213648796082
","x: 232.22210693359375
y: 327.5015869140625
z: 0.006327178329229355
visibility: 0.9997357130050659
","x: 265.4291076660156
y: 411.609375
z: 0.020000137388706207
visibility: 0.9874135851860046
","x: 220.7922821044922
y: 416.6165466308594
z: -0.02367216907441616
visibility: 0.9891834855079651
","x: 270.8866271972656
y: 486.5879821777344
z: 0.22256994247436523
visibility: 0.9896337389945984
","x: 203.50213623046875
y: 497.9824523925781
z: 0.12720811367034912
visibility: 0.9722091555595398
","x: 270.7282409667969
y: 496.5934753417969
z: 0.23624351620674133
visibility: 0.9086358547210693
","x: 205.2466278076172
y: 508.479248046875
z: 0.1346578150987625
visibility: 0.9006819128990173
","x: 269.51470947265625
y: 516.1591186523438
z: 0.11048763990402222
visibility: 0.9855659008026123
","x: 194.86468505859375
y: 528.7177124023438
z: -0.001247901818715036
visibility: 0.9715768098831177
",,,,,,,,,,,,,,,,,,,,,,,,,,,,,,,,,,,,,,,,,,
16,"x: 246.50096130371094
y: 164.37799072265625
z: -0.22550268471240997
visibility: 0.999943196773529
","x: 249.427978515625
y: 157.78028869628906
z: -0.2054360806941986
visibility: 0.9998131394386292
","x: 250.89169311523438
y: 158.3536834716797
z: -0.2054351568222046
visibility: 0.9998085498809814
","x: 252.41506958007812
y: 158.89581298828125
z: -0.20542402565479279
visibility: 0.9997584223747253
","x: 245.07162475585938
y: 156.23562622070312
z: -0.21558785438537598
visibility: 0.9998274445533752
","x: 243.30172729492188
y: 155.7393798828125
z: -0.215580016374588
visibility: 0.9997982382774353
","x: 241.54644775390625
y: 155.30642700195312
z: -0.21558615565299988
visibility: 0.9997915029525757
","x: 254.05435180664062
y: 162.19943237304688
z: -0.06817235797643661
visibility: 0.9996623396873474
","x: 237.62484741210938
y: 158.32997131347656
z: -0.10244772583246231
visibility: 0.9997419714927673
","x: 248.316162109375
y: 173.07040405273438
z: -0.17230048775672913
visibility: 0.9999194145202637
","x: 243.05894470214844
y: 171.75599670410156
z: -0.1876225620508194
visibility: 0.9999088048934937
","x: 264.00341796875
y: 207.48486328125
z: 0.041692592203617096
visibility: 0.9999701380729675
","x: 220.27626037597656
y: 195.03492736816406
z: -0.04255262762308121
visibility: 0.9999561905860901
","x: 266.48089599609375
y: 263.99444580078125
z: -0.03405817598104477
visibility: 0.9571333527565002
","x: 209.35440063476562
y: 255.1419219970703
z: 0.0038184132426977158
visibility: 0.9259752035140991
","x: 274.9638366699219
y: 212.25656127929688
z: -0.28652068972587585
visibility: 0.9444968700408936
","x: 202.7899169921875
y: 311.0770263671875
z: -0.0331563726067543
visibility: 0.9402457475662231
","x: 278.0213317871094
y: 199.69525146484375
z: -0.3341849446296692
visibility: 0.9260406494140625
","x: 201.2333984375
y: 332.49224853515625
z: -0.0470682717859745
visibility: 0.909807562828064
","x: 277.8648986816406
y: 191.26882934570312
z: -0.3454527258872986
visibility: 0.9269655346870422
","x: 205.36590576171875
y: 332.68438720703125
z: -0.07594214379787445
visibility: 0.9132176041603088
","x: 275.79315185546875
y: 196.95481872558594
z: -0.2988354563713074
visibility: 0.8926877379417419
","x: 207.07012939453125
y: 327.9189453125
z: -0.042604826390743256
visibility: 0.8942099213600159
","x: 257.2183532714844
y: 326.8968505859375
z: 0.04019933193922043
visibility: 0.9998368620872498
","x: 230.9476776123047
y: 327.6081848144531
z: -0.040382884442806244
visibility: 0.9997614026069641
","x: 265.5974426269531
y: 412.0745544433594
z: 0.10717938095331192
visibility: 0.9883005619049072
","x: 217.2582244873047
y: 418.1728515625
z: -0.06228049471974373
visibility: 0.9902143478393555
","x: 269.61737060546875
y: 489.2507629394531
z: 0.27628448605537415
visibility: 0.9904364943504333
","x: 198.05612182617188
y: 498.9194030761719
z: 0.05319911241531372
visibility: 0.9749236702919006
","x: 266.3323059082031
y: 501.71978759765625
z: 0.2873483896255493
visibility: 0.9164099097251892
","x: 197.9839324951172
y: 508.40277099609375
z: 0.05778525397181511
visibility: 0.9074704051017761
","x: 284.7270812988281
y: 515.1615600585938
z: 0.1884957253932953
visibility: 0.9866300821304321
","x: 193.28945922851562
y: 533.8333740234375
z: -0.07316342741250992
visibility: 0.9742307066917419
",,,,,,,,,,,,,,,,,,,,,,"x: 277.51141357421875
y: 203.83224487304688
z: 0.0
","x: 276.33416748046875
y: 196.52978515625
z: 0.005043028853833675
","x: 276.90423583984375
y: 189.15719604492188
z: 0.006221410818397999
","x: 277.13427734375
y: 183.72738647460938
z: 0.005949741695076227
","x: 277.4410400390625
y: 180.11111450195312
z: 0.005850824061781168
","x: 282.37139892578125
y: 184.7728271484375
z: 0.005076499655842781
","x: 282.64105224609375
y: 175.11964416503906
z: 0.004064203705638647
","x: 280.4737243652344
y: 170.16647338867188
z: 0.0032510906457901
","x: 278.0029602050781
y: 167.68968200683594
z: 0.0028936408925801516
","x: 282.75628662109375
y: 184.67208862304688
z: 0.001232267590239644
","x: 282.8074951171875
y: 174.12014770507812
z: 0.0002630210656207055
","x: 280.3225402832031
y: 168.76797485351562
z: -0.00046301400288939476
","x: 277.797119140625
y: 166.5806884765625
z: -0.0009427338954992592
","x: 282.4593811035156
y: 184.38233947753906
z: -0.002502390882000327
","x: 282.6864318847656
y: 174.31524658203125
z: -0.0026276088319718838
","x: 280.419189453125
y: 169.47128295898438
z: -0.0019934147130697966
","x: 278.125244140625
y: 167.48687744140625
z: -0.0018504103645682335
","x: 281.50738525390625
y: 184.12265014648438
z: -0.006101291161030531
","x: 281.9322814941406
y: 176.03524780273438
z: -0.005725644063204527
","x: 280.5059509277344
y: 172.4998321533203
z: -0.004774083849042654
","x: 278.8042907714844
y: 171.11146545410156
z: -0.004289678297936916
"
17,"x: 246.50096130371094
y: 164.37799072265625
z: -0.22550268471240997
visibility: 0.999943196773529
","x: 249.427978515625
y: 157.78028869628906
z: -0.2054360806941986
visibility: 0.9998131394386292
","x: 250.89169311523438
y: 158.3536834716797
z: -0.2054351568222046
visibility: 0.9998085498809814
","x: 252.41506958007812
y: 158.89581298828125
z: -0.20542402565479279
visibility: 0.9997584223747253
","x: 245.07162475585938
y: 156.23562622070312
z: -0.21558785438537598
visibility: 0.9998274445533752
","x: 243.30172729492188
y: 155.7393798828125
z: -0.215580016374588
visibility: 0.9997982382774353
","x: 241.54644775390625
y: 155.30642700195312
z: -0.21558615565299988
visibility: 0.9997915029525757
","x: 254.05435180664062
y: 162.19943237304688
z: -0.06817235797643661
visibility: 0.9996623396873474
","x: 237.62484741210938
y: 158.32997131347656
z: -0.10244772583246231
visibility: 0.9997419714927673
","x: 248.316162109375
y: 173.07040405273438
z: -0.17230048775672913
visibility: 0.9999194145202637
","x: 243.05894470214844
y: 171.75599670410156
z: -0.1876225620508194
visibility: 0.9999088048934937
","x: 264.00341796875
y: 207.48486328125
z: 0.041692592203617096
visibility: 0.9999701380729675
","x: 220.27626037597656
y: 195.03492736816406
z: -0.04255262762308121
visibility: 0.9999561905860901
","x: 266.48089599609375
y: 263.99444580078125
z: -0.03405817598104477
visibility: 0.9571333527565002
","x: 209.35440063476562
y: 255.1419219970703
z: 0.0038184132426977158
visibility: 0.9259752035140991
","x: 274.9638366699219
y: 212.25656127929688
z: -0.28652068972587585
visibility: 0.9444968700408936
","x: 202.7899169921875
y: 311.0770263671875
z: -0.0331563726067543
visibility: 0.9402457475662231
","x: 278.0213317871094
y: 199.69525146484375
z: -0.3341849446296692
visibility: 0.9260406494140625
","x: 201.2333984375
y: 332.49224853515625
z: -0.0470682717859745
visibility: 0.909807562828064
","x: 277.8648986816406
y: 191.26882934570312
z: -0.3454527258872986
visibility: 0.9269655346870422
","x: 205.36590576171875
y: 332.68438720703125
z: -0.07594214379787445
visibility: 0.9132176041603088
","x: 275.79315185546875
y: 196.95481872558594
z: -0.2988354563713074
visibility: 0.8926877379417419
","x: 207.07012939453125
y: 327.9189453125
z: -0.042604826390743256
visibility: 0.8942099213600159
","x: 257.2183532714844
y: 326.8968505859375
z: 0.04019933193922043
visibility: 0.9998368620872498
","x: 230.9476776123047
y: 327.6081848144531
z: -0.040382884442806244
visibility: 0.9997614026069641
","x: 265.5974426269531
y: 412.0745544433594
z: 0.10717938095331192
visibility: 0.9883005619049072
","x: 217.2582244873047
y: 418.1728515625
z: -0.06228049471974373
visibility: 0.9902143478393555
","x: 269.61737060546875
y: 489.2507629394531
z: 0.27628448605537415
visibility: 0.9904364943504333
","x: 198.05612182617188
y: 498.9194030761719
z: 0.05319911241531372
visibility: 0.9749236702919006
","x: 266.3323059082031
y: 501.71978759765625
z: 0.2873483896255493
visibility: 0.9164099097251892
","x: 197.9839324951172
y: 508.40277099609375
z: 0.05778525397181511
visibility: 0.9074704051017761
","x: 284.7270812988281
y: 515.1615600585938
z: 0.1884957253932953
visibility: 0.9866300821304321
","x: 193.28945922851562
y: 533.8333740234375
z: -0.07316342741250992
visibility: 0.9742307066917419
",,,,,,,,,,,,,,,,,,,,,,"x: 277.51141357421875
y: 203.83224487304688
z: 0.0
","x: 276.33416748046875
y: 196.52978515625
z: 0.005043028853833675
","x: 276.90423583984375
y: 189.15719604492188
z: 0.006221410818397999
","x: 277.13427734375
y: 183.72738647460938
z: 0.005949741695076227
","x: 277.4410400390625
y: 180.11111450195312
z: 0.005850824061781168
","x: 282.37139892578125
y: 184.7728271484375
z: 0.005076499655842781
","x: 282.64105224609375
y: 175.11964416503906
z: 0.004064203705638647
","x: 280.4737243652344
y: 170.16647338867188
z: 0.0032510906457901
","x: 278.0029602050781
y: 167.68968200683594
z: 0.0028936408925801516
","x: 282.75628662109375
y: 184.67208862304688
z: 0.001232267590239644
","x: 282.8074951171875
y: 174.12014770507812
z: 0.0002630210656207055
","x: 280.3225402832031
y: 168.76797485351562
z: -0.00046301400288939476
","x: 277.797119140625
y: 166.5806884765625
z: -0.0009427338954992592
","x: 282.4593811035156
y: 184.38233947753906
z: -0.002502390882000327
","x: 282.6864318847656
y: 174.31524658203125
z: -0.0026276088319718838
","x: 280.419189453125
y: 169.47128295898438
z: -0.0019934147130697966
","x: 278.125244140625
y: 167.48687744140625
z: -0.0018504103645682335
","x: 281.50738525390625
y: 184.12265014648438
z: -0.006101291161030531
","x: 281.9322814941406
y: 176.03524780273438
z: -0.005725644063204527
","x: 280.5059509277344
y: 172.4998321533203
z: -0.004774083849042654
","x: 278.8042907714844
y: 171.11146545410156
z: -0.004289678297936916
"
18,"x: 247.94337463378906
y: 165.1144561767578
z: -0.23242750763893127
visibility: 0.9999488592147827
","x: 250.26083374023438
y: 157.87319946289062
z: -0.20980778336524963
visibility: 0.9998317956924438
","x: 251.5814208984375
y: 158.8667449951172
z: -0.2097998410463333
visibility: 0.9998276829719543
","x: 252.88807678222656
y: 159.84429931640625
z: -0.20977656543254852
visibility: 0.9997825622558594
","x: 246.17523193359375
y: 157.1926727294922
z: -0.226599782705307
visibility: 0.9998446702957153
","x: 244.5335693359375
y: 156.83892822265625
z: -0.22659644484519958
visibility: 0.9998183846473694
","x: 242.7006378173828
y: 156.48797607421875
z: -0.22661533951759338
visibility: 0.9998123645782471
","x: 253.19715881347656
y: 163.68704223632812
z: -0.0660981684923172
visibility: 0.9996959567070007
","x: 237.4808807373047
y: 159.44064331054688
z: -0.14172182977199554
visibility: 0.9997677803039551
","x: 249.44464111328125
y: 173.45950317382812
z: -0.17676131427288055
visibility: 0.9999274611473083
","x: 244.56175231933594
y: 172.61175537109375
z: -0.2004675567150116
visibility: 0.9999179244041443
","x: 261.9862976074219
y: 208.96104431152344
z: 0.05191162973642349
visibility: 0.9999728202819824
","x: 219.30953979492188
y: 196.29827880859375
z: -0.08866562694311142
visibility: 0.9999605417251587
","x: 266.60260009765625
y: 262.6265563964844
z: -0.019223114475607872
visibility: 0.9598131775856018
","x: 206.00949096679688
y: 255.35401916503906
z: -0.03655866160988808
visibility: 0.9331894516944885
","x: 275.3641052246094
y: 208.84042358398438
z: -0.280518114566803
visibility: 0.9498699307441711
","x: 198.95797729492188
y: 309.5007629394531
z: -0.03325296938419342
visibility: 0.9458954930305481
","x: 278.95086669921875
y: 194.65570068359375
z: -0.3293372690677643
visibility: 0.9329458475112915
","x: 197.7299041748047
y: 329.04779052734375
z: -0.04327867552638054
visibility: 0.9179283380508423
","x: 278.0676574707031
y: 187.3055419921875
z: -0.3370782136917114
visibility: 0.9337930679321289
","x: 200.94300842285156
y: 330.0530700683594
z: -0.07056234776973724
visibility: 0.9210255742073059
","x: 276.0143127441406
y: 193.03323364257812
z: -0.2921077013015747
visibility: 0.9026302099227905
","x: 202.61798095703125
y: 325.0738220214844
z: -0.040745630860328674
visibility: 0.9034984111785889
","x: 256.37237548828125
y: 329.1475830078125
z: 0.05616311356425285
visibility: 0.9998512864112854
","x: 230.40432739257812
y: 330.6160888671875
z: -0.056404631584882736
visibility: 0.999784529209137
","x: 267.3403015136719
y: 413.95684814453125
z: 0.11430394649505615
visibility: 0.9889867305755615
","x: 217.3428497314453
y: 423.3602600097656
z: -0.08810950815677643
visibility: 0.991125762462616
","x: 269.8792724609375
y: 491.152099609375
z: 0.31078198552131653
visibility: 0.9910735487937927
","x: 193.75096130371094
y: 499.5878601074219
z: 0.040613360702991486
visibility: 0.9773423075675964
","x: 265.74530029296875
y: 504.72857666015625
z: 0.3254440724849701
visibility: 0.9232056140899658
","x: 192.00379943847656
y: 506.5224609375
z: 0.047500673681497574
visibility: 0.9128780364990234
","x: 288.1460266113281
y: 514.478271484375
z: 0.23711645603179932
visibility: 0.9875076413154602
","x: 192.45635986328125
y: 536.082275390625
z: -0.08028001338243484
visibility: 0.9765770435333252
",,,,,,,,,,,,,,,,,,,,,,,,,,,,,,,,,,,,,,,,,,
19,"x: 249.05465698242188
y: 182.42855834960938
z: -0.22804729640483856
visibility: 0.9999539852142334
","x: 250.83840942382812
y: 174.57986450195312
z: -0.20194053649902344
visibility: 0.9998486042022705
","x: 252.05812072753906
y: 175.0919189453125
z: -0.2019491195678711
visibility: 0.9998449087142944
","x: 253.24610900878906
y: 175.60736083984375
z: -0.2019658386707306
visibility: 0.9998042583465576
","x: 246.97491455078125
y: 173.1748046875
z: -0.22206953167915344
visibility: 0.9998601675033569
","x: 245.2438507080078
y: 172.51129150390625
z: -0.2220735251903534
visibility: 0.9998365044593811
","x: 243.51751708984375
y: 171.7532958984375
z: -0.22208333015441895
visibility: 0.9998310804367065
","x: 252.60092163085938
y: 178.7632598876953
z: -0.04974377900362015
visibility: 0.9997262358665466
","x: 238.12472534179688
y: 173.05543518066406
z: -0.1428183615207672
visibility: 0.9997909665107727
","x: 250.1282501220703
y: 190.42294311523438
z: -0.1697833389043808
visibility: 0.9999346733093262
","x: 245.65573120117188
y: 188.6675262451172
z: -0.19788311421871185
visibility: 0.9999260902404785
","x: 261.4448547363281
y: 225.419921875
z: 0.06987830996513367
visibility: 0.9999753832817078
","x: 218.77072143554688
y: 211.1275634765625
z: -0.08577492833137512
visibility: 0.9999643564224243
","x: 269.12750244140625
y: 276.60321044921875
z: 0.01247120089828968
visibility: 0.9628154039382935
","x: 203.33595275878906
y: 262.9794616699219
z: -0.027289580553770065
visibility: 0.9397170543670654
","x: 276.4621887207031
y: 220.29446411132812
z: -0.23827369511127472
visibility: 0.9547191262245178
","x: 196.37081909179688
y: 313.18927001953125
z: -0.017063159495592117
visibility: 0.9508656859397888
","x: 279.0607604980469
y: 205.74615478515625
z: -0.2859097123146057
visibility: 0.9391306042671204
","x: 196.04649353027344
y: 332.0170593261719
z: -0.02405226230621338
visibility: 0.9248361587524414
","x: 278.1278076171875
y: 199.79055786132812
z: -0.2915518879890442
visibility: 0.9399202466011047
","x: 199.35704040527344
y: 332.37042236328125
z: -0.05146097019314766
visibility: 0.9276678562164307
","x: 276.5652160644531
y: 204.77264404296875
z: -0.24915671348571777
visibility: 0.9115129709243774
","x: 200.67727661132812
y: 327.34979248046875
z: -0.024498332291841507
visibility: 0.9112467169761658
","x: 254.33041381835938
y: 344.4555969238281
z: 0.06018071249127388
visibility: 0.9998651742935181
","x: 230.29129028320312
y: 345.37890625
z: -0.06020225211977959
visibility: 0.9998039603233337
","x: 275.4080505371094
y: 418.2217102050781
z: -0.08018282055854797
visibility: 0.9898552298545837
","x: 217.51409912109375
y: 435.7930908203125
z: -0.10625328123569489
visibility: 0.9919389486312866
","x: 270.62017822265625
y: 494.8866271972656
z: 0.07429202646017075
visibility: 0.9917265176773071
","x: 185.76759338378906
y: 501.3202209472656
z: 0.06999180465936661
visibility: 0.9794430732727051
","x: 265.55718994140625
y: 507.81732177734375
z: 0.08537952601909637
visibility: 0.9300880432128906
","x: 180.97698974609375
y: 505.51220703125
z: 0.0816677138209343
visibility: 0.9165974855422974
","x: 288.3670654296875
y: 514.9037475585938
z: -0.014567906036973
visibility: 0.9884606003761292
","x: 180.25889587402344
y: 539.7564086914062
z: -0.0346888042986393
visibility: 0.978485643863678
",,,,,,,,,,,,,,,,,,,,,,,,,,,,,,,,,,,,,,,,,,
20,"x: 248.44342041015625
y: 189.5242462158203
z: -0.23204059898853302
visibility: 0.9999585747718811
","x: 248.2917938232422
y: 181.83229064941406
z: -0.20549914240837097
visibility: 0.9998637437820435
","x: 249.05514526367188
y: 182.10202026367188
z: -0.20550501346588135
visibility: 0.999860405921936
","x: 249.57907104492188
y: 182.30136108398438
z: -0.20551887154579163
visibility: 0.999823808670044
","x: 244.6057586669922
y: 181.24960327148438
z: -0.22323653101921082
visibility: 0.9998741149902344
","x: 242.43458557128906
y: 181.10313415527344
z: -0.22325949370861053
visibility: 0.9998528361320496
","x: 240.6112823486328
y: 181.04515075683594
z: -0.22326867282390594
visibility: 0.999847948551178
","x: 248.1954803466797
y: 186.2065887451172
z: -0.0551113598048687
visibility: 0.9997535347938538
","x: 234.44627380371094
y: 185.03179931640625
z: -0.14164447784423828
visibility: 0.9998118281364441
","x: 248.9695587158203
y: 199.18267822265625
z: -0.1755945384502411
visibility: 0.9999411702156067
","x: 244.15380859375
y: 198.39254760742188
z: -0.20049703121185303
visibility: 0.9999334812164307
","x: 256.6789245605469
y: 239.47979736328125
z: 0.0645923987030983
visibility: 0.999977707862854
","x: 214.6465301513672
y: 227.79071044921875
z: -0.09351985156536102
visibility: 0.9999678134918213
","x: 273.5629577636719
y: 283.49462890625
z: -0.004914077930152416
visibility: 0.9661903977394104
","x: 196.73495483398438
y: 280.3882751464844
z: -0.059180665761232376
visibility: 0.9456028342247009
","x: 276.5656433105469
y: 225.50111389160156
z: -0.25037139654159546
visibility: 0.9590867757797241
","x: 192.39939880371094
y: 329.953369140625
z: -0.06448853015899658
visibility: 0.9549888968467712
","x: 277.4406433105469
y: 210.8519287109375
z: -0.298007071018219
visibility: 0.9445672035217285
","x: 192.33184814453125
y: 347.1142272949219
z: -0.06453292816877365
visibility: 0.9299796223640442
","x: 275.9077453613281
y: 205.47494506835938
z: -0.29675671458244324
visibility: 0.9452828764915466
","x: 194.923828125
y: 346.33355712890625
z: -0.08008082211017609
visibility: 0.9325799345970154
","x: 274.5289306640625
y: 210.8515167236328
z: -0.2578924596309662
visibility: 0.9193070530891418
","x: 195.82040405273438
y: 342.031494140625
z: -0.06879760324954987
visibility: 0.9166969656944275
","x: 246.984130859375
y: 358.25750732421875
z: 0.06497953832149506
visibility: 0.9998775124549866
","x: 222.84503173828125
y: 360.9586181640625
z: -0.06505756825208664
visibility: 0.9998218417167664
","x: 273.63482666015625
y: 423.2745361328125
z: -0.04094655066728592
visibility: 0.9906657338142395
","x: 213.82749938964844
y: 451.54058837890625
z: -0.12968088686466217
visibility: 0.9927172064781189
","x: 271.08331298828125
y: 496.39447021484375
z: 0.13826313614845276
visibility: 0.9924097061157227
","x: 173.5076446533203
y: 508.4233093261719
z: 0.020706940442323685
visibility: 0.9814372062683105
","x: 265.989013671875
y: 509.65869140625
z: 0.14756406843662262
visibility: 0.9363771677017212
","x: 165.80471801757812
y: 513.9161376953125
z: 0.029449094086885452
visibility: 0.9210520386695862
","x: 289.16839599609375
y: 515.1871948242188
z: 0.030582517385482788
visibility: 0.9893979430198669
","x: 178.15542602539062
y: 543.85498046875
z: -0.09874126315116882
visibility: 0.9804264903068542
",,,,,,,,,,,,,,,,,,,,,,"x: 274.44427490234375
y: 225.29237365722656
z: 0.0
","x: 270.9138488769531
y: 217.51327514648438
z: 0.0011625041952356696
","x: 269.13397216796875
y: 209.68765258789062
z: 0.001066765165887773
","x: 268.5199890136719
y: 204.2589569091797
z: -0.0003416443068999797
","x: 268.3673095703125
y: 200.82115173339844
z: -0.0012974980054423213
","x: 271.96539306640625
y: 201.39906311035156
z: 0.004730969667434692
","x: 271.4530944824219
y: 193.34487915039062
z: 0.0019963548984378576
","x: 268.985595703125
y: 193.20436096191406
z: -1.3521969776775222e-05
","x: 267.0283203125
y: 195.17677307128906
z: -0.0009502916946075857
","x: 273.9080810546875
y: 201.74859619140625
z: 0.0017604988534003496
","x: 273.4013671875
y: 193.14907836914062
z: -0.0015439799753949046
","x: 270.7027893066406
y: 193.3179931640625
z: -0.003917759750038385
","x: 268.7083740234375
y: 196.0431671142578
z: -0.004858903121203184
","x: 276.00390625
y: 202.96585083007812
z: -0.001823384198360145
","x: 275.61578369140625
y: 194.91026306152344
z: -0.004032366909086704
","x: 272.98876953125
y: 194.76470947265625
z: -0.004523594863712788
","x: 270.94219970703125
y: 196.861328125
z: -0.0044635748490691185
","x: 278.1856689453125
y: 205.2599334716797
z: -0.0057956804521381855
","x: 277.994873046875
y: 198.55101013183594
z: -0.006708891596645117
","x: 275.9714050292969
y: 197.21722412109375
z: -0.006601410452276468
","x: 274.1286926269531
y: 197.99395751953125
z: -0.006314574275165796
"
21,"x: 248.44342041015625
y: 189.5242462158203
z: -0.23204059898853302
visibility: 0.9999585747718811
","x: 248.2917938232422
y: 181.83229064941406
z: -0.20549914240837097
visibility: 0.9998637437820435
","x: 249.05514526367188
y: 182.10202026367188
z: -0.20550501346588135
visibility: 0.999860405921936
","x: 249.57907104492188
y: 182.30136108398438
z: -0.20551887154579163
visibility: 0.999823808670044
","x: 244.6057586669922
y: 181.24960327148438
z: -0.22323653101921082
visibility: 0.9998741149902344
","x: 242.43458557128906
y: 181.10313415527344
z: -0.22325949370861053
visibility: 0.9998528361320496
","x: 240.6112823486328
y: 181.04515075683594
z: -0.22326867282390594
visibility: 0.999847948551178
","x: 248.1954803466797
y: 186.2065887451172
z: -0.0551113598048687
visibility: 0.9997535347938538
","x: 234.44627380371094
y: 185.03179931640625
z: -0.14164447784423828
visibility: 0.9998118281364441
","x: 248.9695587158203
y: 199.18267822265625
z: -0.1755945384502411
visibility: 0.9999411702156067
","x: 244.15380859375
y: 198.39254760742188
z: -0.20049703121185303
visibility: 0.9999334812164307
","x: 256.6789245605469
y: 239.47979736328125
z: 0.0645923987030983
visibility: 0.999977707862854
","x: 214.6465301513672
y: 227.79071044921875
z: -0.09351985156536102
visibility: 0.9999678134918213
","x: 273.5629577636719
y: 283.49462890625
z: -0.004914077930152416
visibility: 0.9661903977394104
","x: 196.73495483398438
y: 280.3882751464844
z: -0.059180665761232376
visibility: 0.9456028342247009
","x: 276.5656433105469
y: 225.50111389160156
z: -0.25037139654159546
visibility: 0.9590867757797241
","x: 192.39939880371094
y: 329.953369140625
z: -0.06448853015899658
visibility: 0.9549888968467712
","x: 277.4406433105469
y: 210.8519287109375
z: -0.298007071018219
visibility: 0.9445672035217285
","x: 192.33184814453125
y: 347.1142272949219
z: -0.06453292816877365
visibility: 0.9299796223640442
","x: 275.9077453613281
y: 205.47494506835938
z: -0.29675671458244324
visibility: 0.9452828764915466
","x: 194.923828125
y: 346.33355712890625
z: -0.08008082211017609
visibility: 0.9325799345970154
","x: 274.5289306640625
y: 210.8515167236328
z: -0.2578924596309662
visibility: 0.9193070530891418
","x: 195.82040405273438
y: 342.031494140625
z: -0.06879760324954987
visibility: 0.9166969656944275
","x: 246.984130859375
y: 358.25750732421875
z: 0.06497953832149506
visibility: 0.9998775124549866
","x: 222.84503173828125
y: 360.9586181640625
z: -0.06505756825208664
visibility: 0.9998218417167664
","x: 273.63482666015625
y: 423.2745361328125
z: -0.04094655066728592
visibility: 0.9906657338142395
","x: 213.82749938964844
y: 451.54058837890625
z: -0.12968088686466217
visibility: 0.9927172064781189
","x: 271.08331298828125
y: 496.39447021484375
z: 0.13826313614845276
visibility: 0.9924097061157227
","x: 173.5076446533203
y: 508.4233093261719
z: 0.020706940442323685
visibility: 0.9814372062683105
","x: 265.989013671875
y: 509.65869140625
z: 0.14756406843662262
visibility: 0.9363771677017212
","x: 165.80471801757812
y: 513.9161376953125
z: 0.029449094086885452
visibility: 0.9210520386695862
","x: 289.16839599609375
y: 515.1871948242188
z: 0.030582517385482788
visibility: 0.9893979430198669
","x: 178.15542602539062
y: 543.85498046875
z: -0.09874126315116882
visibility: 0.9804264903068542
",,,,,,,,,,,,,,,,,,,,,,"x: 274.44427490234375
y: 225.29237365722656
z: 0.0
","x: 270.9138488769531
y: 217.51327514648438
z: 0.0011625041952356696
","x: 269.13397216796875
y: 209.68765258789062
z: 0.001066765165887773
","x: 268.5199890136719
y: 204.2589569091797
z: -0.0003416443068999797
","x: 268.3673095703125
y: 200.82115173339844
z: -0.0012974980054423213
","x: 271.96539306640625
y: 201.39906311035156
z: 0.004730969667434692
","x: 271.4530944824219
y: 193.34487915039062
z: 0.0019963548984378576
","x: 268.985595703125
y: 193.20436096191406
z: -1.3521969776775222e-05
","x: 267.0283203125
y: 195.17677307128906
z: -0.0009502916946075857
","x: 273.9080810546875
y: 201.74859619140625
z: 0.0017604988534003496
","x: 273.4013671875
y: 193.14907836914062
z: -0.0015439799753949046
","x: 270.7027893066406
y: 193.3179931640625
z: -0.003917759750038385
","x: 268.7083740234375
y: 196.0431671142578
z: -0.004858903121203184
","x: 276.00390625
y: 202.96585083007812
z: -0.001823384198360145
","x: 275.61578369140625
y: 194.91026306152344
z: -0.004032366909086704
","x: 272.98876953125
y: 194.76470947265625
z: -0.004523594863712788
","x: 270.94219970703125
y: 196.861328125
z: -0.0044635748490691185
","x: 278.1856689453125
y: 205.2599334716797
z: -0.0057956804521381855
","x: 277.994873046875
y: 198.55101013183594
z: -0.006708891596645117
","x: 275.9714050292969
y: 197.21722412109375
z: -0.006601410452276468
","x: 274.1286926269531
y: 197.99395751953125
z: -0.006314574275165796
"
22,"x: 228.18408203125
y: 185.26564025878906
z: -0.3006426692008972
visibility: 0.9999626874923706
","x: 229.30209350585938
y: 177.6809539794922
z: -0.2742762565612793
visibility: 0.9998772144317627
","x: 230.5503387451172
y: 178.0323028564453
z: -0.2743099629878998
visibility: 0.9998742341995239
","x: 231.6214141845703
y: 178.36346435546875
z: -0.2743097245693207
visibility: 0.9998412132263184
","x: 225.15220642089844
y: 176.8919677734375
z: -0.28461864590644836
visibility: 0.9998865723609924
","x: 223.17018127441406
y: 176.69049072265625
z: -0.28461986780166626
visibility: 0.9998674392700195
","x: 221.16024780273438
y: 176.58348083496094
z: -0.2846146821975708
visibility: 0.9998629093170166
","x: 231.9066162109375
y: 182.822509765625
z: -0.12172647565603256
visibility: 0.9997773170471191
","x: 216.39053344726562
y: 180.37472534179688
z: -0.17540207505226135
visibility: 0.9998305439949036
","x: 229.77833557128906
y: 194.41751098632812
z: -0.24569997191429138
visibility: 0.9999469518661499
","x: 224.48675537109375
y: 193.66380310058594
z: -0.2607610821723938
visibility: 0.9999400973320007
","x: 243.62973022460938
y: 234.85659790039062
z: 0.015889516100287437
visibility: 0.999979555606842
","x: 195.7468719482422
y: 223.38143920898438
z: -0.11734193563461304
visibility: 0.9999709725379944
","x: 273.27288818359375
y: 272.88482666015625
z: -0.10685968399047852
visibility: 0.9689728617668152
","x: 184.36029052734375
y: 283.4674987792969
z: -0.09439091384410858
visibility: 0.9506664872169495
","x: 275.28204345703125
y: 229.41226196289062
z: -0.4056057035923004
visibility: 0.9623040556907654
","x: 184.57876586914062
y: 332.7068786621094
z: -0.17013826966285706
visibility: 0.9582361578941345
","x: 276.3057861328125
y: 219.42401123046875
z: -0.4636080861091614
visibility: 0.9476609826087952
","x: 183.17555236816406
y: 348.318359375
z: -0.19780007004737854
visibility: 0.9340195655822754
","x: 275.0767517089844
y: 213.92274475097656
z: -0.47138285636901855
visibility: 0.9483669400215149
","x: 186.62460327148438
y: 347.05029296875
z: -0.2242017537355423
visibility: 0.9364749789237976
","x: 274.1356506347656
y: 217.6793670654297
z: -0.41694706678390503
visibility: 0.9239042401313782
","x: 187.9906768798828
y: 342.3855895996094
z: -0.179855614900589
visibility: 0.920458197593689
","x: 231.61111450195312
y: 353.6739807128906
z: 0.057175058871507645
visibility: 0.999887228012085
","x: 205.68612670898438
y: 356.4246826171875
z: -0.05734317749738693
visibility: 0.9998387694358826
","x: 259.4590759277344
y: 423.75372314453125
z: 0.16780996322631836
visibility: 0.9910276532173157
","x: 199.23825073242188
y: 448.93994140625
z: -0.09499651193618774
visibility: 0.9934206008911133
","x: 270.9486389160156
y: 496.04736328125
z: 0.4246176779270172
visibility: 0.9929762482643127
","x: 164.94029235839844
y: 512.7557983398438
z: 0.040855757892131805
visibility: 0.9832295179367065
","x: 266.6150817871094
y: 509.14349365234375
z: 0.44367295503616333
visibility: 0.941119909286499
","x: 158.28428649902344
y: 519.2853393554688
z: 0.046874530613422394
visibility: 0.923229992389679
","x: 288.6697998046875
y: 514.9644775390625
z: 0.33743423223495483
visibility: 0.9900318384170532
","x: 174.3604278564453
y: 547.66455078125
z: -0.09863585233688354
visibility: 0.9821451902389526
",,,,,,,,,,,,,,,,,,,,,,,,,,,,,,,,,,,,,,,,,,
23,"x: 206.62660217285156
y: 184.87820434570312
z: -0.37371355295181274
visibility: 0.9999654293060303
","x: 209.89389038085938
y: 177.16024780273438
z: -0.3550390303134918
visibility: 0.9998869299888611
","x: 211.8427276611328
y: 177.7590789794922
z: -0.3551234304904938
visibility: 0.9998845458030701
","x: 213.55575561523438
y: 178.24659729003906
z: -0.35518425703048706
visibility: 0.9998546242713928
","x: 203.91372680664062
y: 176.25540161132812
z: -0.35661640763282776
visibility: 0.9998955130577087
","x: 202.366943359375
y: 176.16751098632812
z: -0.3566381633281708
visibility: 0.9998782873153687
","x: 200.52029418945312
y: 176.2173614501953
z: -0.35659149289131165
visibility: 0.9998730421066284
","x: 215.3711395263672
y: 181.08766174316406
z: -0.22131995856761932
visibility: 0.9997941255569458
","x: 197.99349975585938
y: 178.77549743652344
z: -0.22932247817516327
visibility: 0.9998443126678467
","x: 210.06594848632812
y: 192.2373046875
z: -0.3229345381259918
visibility: 0.9999513030052185
","x: 203.08013916015625
y: 192.10028076171875
z: -0.32528597116470337
visibility: 0.999945342540741
","x: 230.4864501953125
y: 231.83734130859375
z: -0.11902379989624023
visibility: 0.9999811053276062
","x: 180.16456604003906
y: 219.94161987304688
z: -0.14036224782466888
visibility: 0.9999729990959167
","x: 267.24127197265625
y: 235.2537841796875
z: -0.20348885655403137
visibility: 0.9717221260070801
","x: 170.01995849609375
y: 278.3001403808594
z: -0.06444329768419266
visibility: 0.9528903365135193
","x: 263.99615478515625
y: 251.61947631835938
z: -0.4231542944908142
visibility: 0.9638534784317017
","x: 169.17283630371094
y: 331.952392578125
z: -0.12417598068714142
visibility: 0.9516150951385498
","x: 263.56866455078125
y: 269.14337158203125
z: -0.4761284291744232
visibility: 0.9466190338134766
","x: 168.0924072265625
y: 350.7717590332031
z: -0.14546678960323334
visibility: 0.9244424700737
","x: 257.5751647949219
y: 267.0267028808594
z: -0.49272170662879944
visibility: 0.9474320411682129
","x: 171.3430633544922
y: 349.67645263671875
z: -0.1729685515165329
visibility: 0.9272968769073486
","x: 256.4023132324219
y: 261.8584899902344
z: -0.43394550681114197
visibility: 0.9232991337776184
","x: 173.0089874267578
y: 343.0992126464844
z: -0.1330752819776535
visibility: 0.9079458117485046
","x: 215.78781127929688
y: 351.6047668457031
z: 0.04578464478254318
visibility: 0.9998947978019714
","x: 187.5826416015625
y: 351.592041015625
z: -0.0458792969584465
visibility: 0.9998528957366943
","x: 232.93959045410156
y: 428.30462646484375
z: 0.18908970057964325
visibility: 0.9892896413803101
","x: 182.3179931640625
y: 442.7526550292969
z: -0.08864862471818924
visibility: 0.9940186142921448
","x: 242.6705322265625
y: 501.0350341796875
z: 0.4177686274051666
visibility: 0.9930037260055542
","x: 162.69688415527344
y: 514.9273071289062
z: 0.020733283832669258
visibility: 0.9847907423973083
","x: 238.50125122070312
y: 517.0256958007812
z: 0.43406495451927185
visibility: 0.9443828463554382
","x: 157.4189910888672
y: 524.8901977539062
z: 0.023859042674303055
visibility: 0.9256038069725037
","x: 263.71124267578125
y: 518.4853515625
z: 0.32583820819854736
visibility: 0.98988938331604
","x: 174.20257568359375
y: 548.4599609375
z: -0.12405965477228165
visibility: 0.9835905432701111
",,,,,,,,,,,,,,,,,,,,,,"x: 260.6454772949219
y: 253.15032958984375
z: 0.0
","x: 262.84814453125
y: 261.9879150390625
z: 0.0036322881933301687
","x: 262.34124755859375
y: 272.8863525390625
z: 0.004854544531553984
","x: 261.2391662597656
y: 281.5562744140625
z: 0.004101816564798355
","x: 259.89471435546875
y: 288.16015625
z: 0.0037160564679652452
","x: 256.5672912597656
y: 276.5806884765625
z: 0.009027359075844288
","x: 255.27273559570312
y: 287.0016784667969
z: 0.007391453720629215
","x: 256.4442443847656
y: 293.00042724609375
z: 0.005903803277760744
","x: 257.88037109375
y: 296.1429748535156
z: 0.005145268514752388
","x: 254.46063232421875
y: 276.04437255859375
z: 0.004967227578163147
","x: 253.071533203125
y: 286.9205322265625
z: 0.002317820442840457
","x: 255.20602416992188
y: 287.4610595703125
z: 0.0008328548865392804
","x: 256.94378662109375
y: 284.8408203125
z: 0.0007419652538374066
","x: 252.52684020996094
y: 274.6499938964844
z: 0.0002555333194322884
","x: 250.8674774169922
y: 284.8990173339844
z: -0.0018842524150386453
","x: 253.4785919189453
y: 285.1113586425781
z: -0.0015522543108090758
","x: 255.8258056640625
y: 282.0901184082031
z: -0.0006786614540033042
","x: 250.78334045410156
y: 272.31365966796875
z: -0.0046356357634067535
","x: 249.23008728027344
y: 280.9377746582031
z: -0.005230875685811043
","x: 251.31280517578125
y: 282.34326171875
z: -0.004652653355151415
","x: 253.68177795410156
y: 280.64013671875
z: -0.003956086467951536
"
24,"x: 206.62660217285156
y: 184.87820434570312
z: -0.37371355295181274
