uscmakers/ReverseChoreography/data/1_skeletons_keshi.csv
,NOSE,LEFT_EYE_INNER,LEFT_EYE,LEFT_EYE_OUTER,RIGHT_EYE_INNER,RIGHT_EYE,RIGHT_EYE_OUTER,LEFT_EAR,RIGHT_EAR,MOUTH_LEFT,MOUTH_RIGHT,LEFT_SHOULDER,RIGHT_SHOULDER,LEFT_ELBOW,RIGHT_ELBOW,LEFT_WRIST,RIGHT_WRIST,LEFT_PINKY,RIGHT_PINKY,LEFT_INDEX,RIGHT_INDEX,LEFT_THUMB,RIGHT_THUMB,LEFT_HIP,RIGHT_HIP,LEFT_KNEE,RIGHT_KNEE,LEFT_ANKLE,RIGHT_ANKLE,LEFT_HEEL,RIGHT_HEEL,LEFT_FOOT_INDEX,RIGHT_FOOT_INDEX,WRIST,THUMB_CPC,THUMB_MCP,THUMB_IP,THUMB_TIP,INDEX_FINGER_MCP,INDEX_FINGER_PIP,INDEX_FINGER_DIP,INDEX_FINGER_TIP,MIDDLE_FINGER_MCP,MIDDLE_FINGER_PIP,MIDDLE_FINGER_DIP,MIDDLE_FINGER_TIP,RING_FINGER_PIP,RING_FINGER_DIP,RING_FINGER_TIP,RING_FINGER_MCP,PINKY_MCP,PINKY_PIP,PINKY_DIP,PINKY_TIP,WRIST2,THUMB_CPC2,THUMB_MCP2,THUMB_IP2,THUMB_TIP2,INDEX_FINGER_MCP2,INDEX_FINGER_PIP2,INDEX_FINGER_DIP2,INDEX_FINGER_TIP2,MIDDLE_FINGER_MCP2,MIDDLE_FINGER_PIP2,MIDDLE_FINGER_DIP2,MIDDLE_FINGER_TIP2,RING_FINGER_PIP2,RING_FINGER_DIP2,RING_FINGER_TIP2,RING_FINGER_MCP2,PINKY_MCP2,PINKY_PIP2,PINKY_DIP2,PINKY_TIP2
0,"x: 263.5282897949219
y: 188.83985900878906
z: -0.19398193061351776
visibility: 0.9999743700027466
","x: 264.674560546875
y: 181.4818572998047
z: -0.177175372838974
visibility: 0.9999518394470215
","x: 264.68719482421875
y: 181.23330688476562
z: -0.1771952360868454
visibility: 0.9999433755874634
","x: 264.6556701660156
y: 180.93919372558594
z: -0.17719733715057373
visibility: 0.9999457597732544
","x: 263.34027099609375
y: 180.3345947265625
z: -0.20919975638389587
visibility: 0.9999579191207886
","x: 262.231689453125
y: 179.20315551757812
z: -0.20920352637767792
visibility: 0.9999436140060425
","x: 261.0314636230469
y: 178.0187225341797
z: -0.20923247933387756
visibility: 0.9999262094497681
","x: 258.40283203125
y: 178.4049835205078
z: -0.07242065668106079
visibility: 0.9998569488525391
","x: 253.69554138183594
y: 174.0774383544922
z: -0.22278790175914764
visibility: 0.9999327659606934
","x: 260.00103759765625
y: 195.5707550048828
z: -0.151484414935112
visibility: 0.9999420642852783
","x: 258.2635192871094
y: 194.2230224609375
z: -0.1951688826084137
visibility: 0.9999587535858154
","x: 256.2610168457031
y: 221.1874237060547
z: 0.023542629554867744
visibility: 0.9999397993087769
","x: 218.27525329589844
y: 202.97483825683594
z: -0.21155528724193573
visibility: 0.9999806880950928
","x: 252.21339416503906
y: 281.3949279785156
z: 0.09858407825231552
visibility: 0.6337377429008484
","x: 213.7493133544922
y: 259.871337890625
z: -0.2566806972026825
visibility: 0.9574495553970337
","x: 270.721435546875
y: 312.9852294921875
z: 0.020329589024186134
visibility: 0.840442955493927
","x: 223.83645629882812
y: 301.76904296875
z: -0.33246758580207825
visibility: 0.9424564838409424
","x: 278.70526123046875
y: 324.088134765625
z: 0.008288919925689697
visibility: 0.7788354754447937
","x: 225.52523803710938
y: 328.0638122558594
z: -0.3685063123703003
visibility: 0.9148285388946533
","x: 280.53912353515625
y: 320.65777587890625
z: -0.0345027931034565
visibility: 0.8103653788566589
","x: 229.3260498046875
y: 324.0547180175781
z: -0.3803113102912903
visibility: 0.9165152311325073
","x: 277.2764587402344
y: 316.64434814453125
z: -0.0002061294362647459
visibility: 0.794020414352417
","x: 229.34283447265625
y: 317.4042053222656
z: -0.3381040692329407
visibility: 0.8691309690475464
","x: 247.08889770507812
y: 330.62139892578125
z: 0.0672680139541626
visibility: 0.9994725584983826
","x: 223.47752380371094
y: 331.0343933105469
z: -0.0672101303935051
visibility: 0.999657392501831
","x: 257.0357971191406
y: 416.9456481933594
z: 0.10587451606988907
visibility: 0.9842925667762756
","x: 221.09188842773438
y: 421.8598937988281
z: -0.054496146738529205
visibility: 0.9954892992973328
","x: 261.7347106933594
y: 500.58221435546875
z: 0.22620587050914764
visibility: 0.9912632703781128
","x: 220.4893798828125
y: 507.86431884765625
z: 0.06950841844081879
visibility: 0.9977341890335083
","x: 257.4339904785156
y: 513.5590209960938
z: 0.23073573410511017
visibility: 0.9782509803771973
","x: 223.92718505859375
y: 517.3640747070312
z: 0.07321703433990479
visibility: 0.9627178311347961
","x: 281.68011474609375
y: 521.206298828125
z: 0.13038817048072815
visibility: 0.9900976419448853
","x: 212.63140869140625
y: 537.0304565429688
z: -0.05277305096387863
visibility: 0.995403528213501
",,,,,,,,,,,,,,,,,,,,,,,,,,,,,,,,,,,,,,,,,,
1,"x: 257.10223388671875
y: 194.2926025390625
z: -0.3209400475025177
visibility: 0.9999629855155945
","x: 257.7756652832031
y: 186.95193481445312
z: -0.30776095390319824
visibility: 0.9999265670776367
","x: 258.40167236328125
y: 186.305419921875
z: -0.30783385038375854
visibility: 0.9999194741249084
","x: 258.99969482421875
y: 185.42100524902344
z: -0.3078543543815613
visibility: 0.9999210238456726
","x: 255.06483459472656
y: 186.74810791015625
z: -0.32407647371292114
visibility: 0.9999265670776367
","x: 253.44223022460938
y: 186.02508544921875
z: -0.32412904500961304
visibility: 0.9999135732650757
","x: 251.68536376953125
y: 185.0247344970703
z: -0.3241921067237854
visibility: 0.999895453453064
","x: 256.646240234375
y: 180.8233642578125
z: -0.18130554258823395
visibility: 0.9998123645782471
","x: 245.82403564453125
y: 179.07321166992188
z: -0.254448801279068
visibility: 0.9998897314071655
","x: 256.6966247558594
y: 198.89840698242188
z: -0.2671302855014801
visibility: 0.9999341368675232
","x: 253.06719970703125
y: 198.38653564453125
z: -0.28860267996788025
visibility: 0.9999514222145081
","x: 261.314453125
y: 210.3603515625
z: -0.06641094386577606
visibility: 0.9999445676803589
","x: 218.39825439453125
y: 208.33181762695312
z: -0.16447526216506958
visibility: 0.9999785423278809
","x: 265.30999755859375
y: 268.4032897949219
z: -0.04126233607530594
visibility: 0.6614419221878052
","x: 213.1347198486328
y: 270.54266357421875
z: -0.1037847250699997
visibility: 0.9608511924743652
","x: 254.6788787841797
y: 300.2639465332031
z: -0.23108243942260742
visibility: 0.8495043516159058
","x: 199.00997924804688
y: 301.889404296875
z: -0.187814861536026
visibility: 0.9472593665122986
","x: 250.12010192871094
y: 309.5074462890625
z: -0.2739582657814026
visibility: 0.7909968495368958
","x: 191.98948669433594
y: 319.5455627441406
z: -0.22352337837219238
visibility: 0.9217214584350586
","x: 248.25559997558594
y: 302.89947509765625
z: -0.3039141297340393
visibility: 0.81990647315979
","x: 191.65921020507812
y: 315.7984619140625
z: -0.26125335693359375
visibility: 0.9234610199928284
","x: 249.0482177734375
y: 299.39337158203125
z: -0.24693194031715393
visibility: 0.8021301031112671
","x: 194.01361083984375
y: 310.9857482910156
z: -0.20404262840747833
visibility: 0.8799309730529785
","x: 248.63333129882812
y: 330.5885314941406
z: 0.03974543884396553
visibility: 0.9994909167289734
","x: 224.1492919921875
y: 331.0274658203125
z: -0.0397246815264225
visibility: 0.9996576309204102
","x: 263.5522155761719
y: 416.33441162109375
z: 0.053818851709365845
visibility: 0.985543966293335
","x: 217.89309692382812
y: 421.49029541015625
z: -0.07851285487413406
visibility: 0.9957339763641357
","x: 265.516845703125
y: 493.260498046875
z: 0.2549990117549896
visibility: 0.9917184114456177
","x: 200.27244567871094
y: 505.2054443359375
z: 0.04409099370241165
visibility: 0.9976682066917419
","x: 261.1482849121094
y: 504.9962158203125
z: 0.26910272240638733
visibility: 0.9751498103141785
","x: 195.57479858398438
y: 516.486572265625
z: 0.04938861355185509
visibility: 0.9568374156951904
","x: 278.5714111328125
y: 521.213623046875
z: 0.15223777294158936
visibility: 0.9903774857521057
","x: 212.51564025878906
y: 535.731689453125
z: -0.09239593148231506
visibility: 0.995263397693634
",,,,,,,,,,,,,,,,,,,,,,,,,,,,,,,,,,,,,,,,,,
2,"x: 255.02272033691406
y: 189.41107177734375
z: -0.5026520490646362
visibility: 0.9999616742134094
","x: 256.15093994140625
y: 179.96337890625
z: -0.4868069291114807
visibility: 0.9999223947525024
","x: 257.0571594238281
y: 178.91482543945312
z: -0.48688799142837524
visibility: 0.9999165534973145
","x: 257.8922119140625
y: 177.68067932128906
z: -0.48698562383651733
visibility: 0.9999181032180786
","x: 252.1053009033203
y: 181.04798889160156
z: -0.49566102027893066
visibility: 0.9999209046363831
","x: 250.06407165527344
y: 180.97897338867188
z: -0.4957137703895569
visibility: 0.9999077916145325
","x: 247.99131774902344
y: 180.71051025390625
z: -0.49574345350265503
visibility: 0.999890148639679
","x: 256.6493835449219
y: 174.345458984375
z: -0.3358120322227478
visibility: 0.9998156428337097
","x: 243.3773193359375
y: 177.09425354003906
z: -0.3717547059059143
visibility: 0.9998849034309387
","x: 255.7449188232422
y: 194.04176330566406
z: -0.43977847695350647
visibility: 0.9999380707740784
","x: 250.84471130371094
y: 195.49935913085938
z: -0.4506239891052246
visibility: 0.9999533295631409
","x: 267.33404541015625
y: 200.25759887695312
z: -0.22130127251148224
visibility: 0.9999497532844543
","x: 220.53939819335938
y: 210.80386352539062
z: -0.21292774379253387
visibility: 0.9999770522117615
","x: 275.52447509765625
y: 258.3956604003906
z: -0.291899710893631
visibility: 0.6941425204277039
","x: 213.16622924804688
y: 276.0720520019531
z: -0.15586277842521667
visibility: 0.9635212421417236
","x: 246.9413604736328
y: 273.43499755859375
z: -0.5401161909103394
visibility: 0.8619887828826904
","x: 200.69895935058594
y: 324.8778076171875
z: -0.24776753783226013
visibility: 0.9490531086921692
","x: 238.4473419189453
y: 276.4963684082031
z: -0.6003475785255432
visibility: 0.806626558303833
","x: 194.1283721923828
y: 339.8667907714844
z: -0.28419607877731323
visibility: 0.9237096309661865
","x: 235.60121154785156
y: 268.1275329589844
z: -0.6127881407737732
visibility: 0.8326053023338318
","x: 193.71841430664062
y: 339.321533203125
z: -0.31838351488113403
visibility: 0.9257290959358215
","x: 238.06304931640625
y: 266.4488525390625
z: -0.5499027967453003
visibility: 0.813370943069458
","x: 196.43923950195312
y: 334.4375915527344
z: -0.2635688781738281
visibility: 0.8837872743606567
","x: 253.1348114013672
y: 330.51043701171875
z: 0.01580830290913582
visibility: 0.9995256662368774
","x: 227.4779052734375
y: 329.6134033203125
z: -0.01581774838268757
visibility: 0.9996638894081116
","x: 265.61572265625
y: 415.8328857421875
z: -0.019640175625681877
visibility: 0.9868578910827637
","x: 217.55282592773438
y: 420.489013671875
z: -0.061062298715114594
visibility: 0.9960035681724548
","x: 270.0638732910156
y: 493.1932373046875
z: 0.2320946455001831
visibility: 0.992348313331604
","x: 201.38031005859375
y: 502.2750549316406
z: 0.1415269821882248
visibility: 0.9976903796195984
","x: 267.671630859375
y: 505.1258850097656
z: 0.2687368392944336
visibility: 0.9732202887535095
","x: 199.12155151367188
y: 511.331298828125
z: 0.1536693274974823
visibility: 0.9510431885719299
","x: 277.3167419433594
y: 521.2227783203125
z: 0.10148297250270844
visibility: 0.9909040927886963
","x: 208.5796356201172
y: 535.238525390625
z: -0.002259369706735015
visibility: 0.9952335357666016
",,,,,,,,,,,,,,,,,,,,,,,,,,,,,,,,,,,,,,,,,,
3,"x: 255.7931671142578
y: 188.8877716064453
z: -0.4655153155326843
visibility: 0.9999614357948303
","x: 257.2287292480469
y: 178.81918334960938
z: -0.45308130979537964
visibility: 0.9999178051948547
","x: 258.12689208984375
y: 177.76429748535156
z: -0.45313817262649536
visibility: 0.9999121427536011
","x: 258.89739990234375
y: 176.5191650390625
z: -0.45319995284080505
visibility: 0.9999095797538757
","x: 253.15057373046875
y: 179.47640991210938
z: -0.45878171920776367
visibility: 0.9999192953109741
","x: 251.1403045654297
y: 179.10423278808594
z: -0.45883315801620483
visibility: 0.9999071359634399
","x: 249.04489135742188
y: 178.5434112548828
z: -0.4588821530342102
visibility: 0.9998905062675476
","x: 257.64093017578125
y: 172.898681640625
z: -0.3137543797492981
visibility: 0.9998109936714172
","x: 244.184814453125
y: 175.2972412109375
z: -0.3382725119590759
visibility: 0.9998885989189148
","x: 256.18017578125
y: 193.39617919921875
z: -0.40634244680404663
visibility: 0.9999411106109619
","x: 251.4918212890625
y: 194.36654663085938
z: -0.41377848386764526
visibility: 0.9999562501907349
","x: 271.3387451171875
y: 201.67771911621094
z: -0.2151331603527069
visibility: 0.9999532699584961
","x: 221.77464294433594
y: 210.29498291015625
z: -0.1939689666032791
visibility: 0.9999785423278809
","x: 271.9938049316406
y: 261.44976806640625
z: -0.30724984407424927
visibility: 0.722809910774231
","x: 214.14633178710938
y: 275.2108154296875
z: -0.12677675485610962
visibility: 0.9657622575759888
","x: 239.00050354003906
y: 262.74737548828125
z: -0.5580238103866577
visibility: 0.8720077276229858
","x: 205.83702087402344
y: 331.8014221191406
z: -0.22238187491893768
visibility: 0.9491987824440002
","x: 230.3061981201172
y: 261.1880798339844
z: -0.6161207556724548
visibility: 0.8190441131591797
","x: 200.8935546875
y: 348.1693115234375
z: -0.25470730662345886
visibility: 0.9227502346038818
","x: 229.6654510498047
y: 252.28488159179688
z: -0.6211606860160828
visibility: 0.8422315716743469
","x: 201.0460205078125
y: 349.28277587890625
z: -0.28929218649864197
visibility: 0.9252097606658936
","x: 231.96792602539062
y: 252.31825256347656
z: -0.5648637413978577
visibility: 0.8201907277107239
","x: 203.4834747314453
y: 343.8409729003906
z: -0.23729169368743896
visibility: 0.884296178817749
","x: 257.3429260253906
y: 331.5740966796875
z: 0.002380082383751869
visibility: 0.9995501637458801
","x: 230.05162048339844
y: 329.5826416015625
z: -0.002393060363829136
visibility: 0.9996867179870605
","x: 267.3833923339844
y: 415.8450622558594
z: 0.014730557799339294
visibility: 0.9880357384681702
","x: 217.6658935546875
y: 419.2752380371094
z: -0.05369144678115845
visibility: 0.9963078498840332
","x: 270.094482421875
y: 493.04888916015625
z: 0.2619186043739319
visibility: 0.9929096102714539
","x: 205.47161865234375
y: 501.8936462402344
z: 0.13478294014930725
visibility: 0.9977906346321106
","x: 267.2256164550781
y: 505.33282470703125
z: 0.2826392948627472
visibility: 0.9715266227722168
","x: 205.6951904296875
y: 511.0393981933594
z: 0.1448909491300583
visibility: 0.9503370523452759
","x: 276.6580810546875
y: 521.182861328125
z: 0.13740576803684235
visibility: 0.9914135336875916
","x: 205.20542907714844
y: 534.1107788085938
z: -0.0058017936535179615
visibility: 0.9954065084457397
",,,,,,,,,,,,,,,,,,,,,,,,,,,,,,,,,,,,,,,,,,
4,"x: 254.56240844726562
y: 184.59642028808594
z: -0.4222293496131897
visibility: 0.9999613165855408
","x: 256.7539367675781
y: 175.01568603515625
z: -0.40687260031700134
visibility: 0.9999139904975891
","x: 257.9827575683594
y: 174.41891479492188
z: -0.40693289041519165
visibility: 0.9999086260795593
","x: 259.0137023925781
y: 173.6580047607422
z: -0.40699711441993713
visibility: 0.9999027848243713
","x: 252.20143127441406
y: 174.58303833007812
z: -0.4095359742641449
visibility: 0.9999167919158936
","x: 250.3420867919922
y: 173.89102172851562
z: -0.40955066680908203
visibility: 0.9999047517776489
","x: 248.43438720703125
y: 173.1284942626953
z: -0.4095725119113922
visibility: 0.9998885989189148
","x: 258.5704040527344
y: 171.79721069335938
z: -0.2667582631111145
visibility: 0.9998071789741516
","x: 244.405029296875
y: 171.82598876953125
z: -0.3127765655517578
visibility: 0.999888002872467
","x: 255.67013549804688
y: 190.25381469726562
z: -0.3642805516719818
visibility: 0.9999427795410156
","x: 250.81532287597656
y: 189.9465789794922
z: -0.3679690957069397
visibility: 0.9999579191207886
","x: 272.3716125488281
y: 203.38497924804688
z: -0.1879749745130539
visibility: 0.9999557733535767
","x: 222.7406005859375
y: 209.86334228515625
z: -0.13076777756214142
visibility: 0.9999794960021973
","x: 269.0823059082031
y: 263.0466003417969
z: -0.3099287450313568
visibility: 0.7491480708122253
","x: 215.11143493652344
y: 273.087646484375
z: -0.0581192746758461
visibility: 0.9664663076400757
","x: 238.35374450683594
y: 255.079345703125
z: -0.5692239999771118
visibility: 0.8828125596046448
","x: 208.9638214111328
y: 327.6013488769531
z: -0.15845033526420593
visibility: 0.9466689229011536
","x: 230.20065307617188
y: 249.8809814453125
z: -0.6303109526634216
visibility: 0.8331714272499084
","x: 205.60012817382812
y: 344.8788757324219
z: -0.18881535530090332
visibility: 0.9181292653083801
","x: 229.50869750976562
y: 243.02774047851562
z: -0.6330908536911011
visibility: 0.8539901971817017
","x: 206.48109436035156
y: 345.196044921875
z: -0.22590260207653046
visibility: 0.9212912917137146
","x: 231.82212829589844
y: 244.5875701904297
z: -0.5756654143333435
visibility: 0.8308451771736145
","x: 208.2718048095703
y: 340.81646728515625
z: -0.17454193532466888
visibility: 0.8807353377342224
","x: 258.60577392578125
y: 332.7554016113281
z: -0.006997200660407543
visibility: 0.9995751976966858
","x: 231.15206909179688
y: 329.6018981933594
z: 0.0069693708792328835
visibility: 0.9997100830078125
","x: 267.91436767578125
y: 415.8979797363281
z: 0.027326438575983047
visibility: 0.9890884757041931
","x: 217.15621948242188
y: 419.0010070800781
z: -0.05376662686467171
visibility: 0.9966018795967102
","x: 270.6715393066406
y: 493.2952880859375
z: 0.2890350818634033
visibility: 0.9933910965919495
","x: 206.51715087890625
y: 501.0916748046875
z: 0.130901038646698
visibility: 0.9978873133659363
","x: 267.29107666015625
y: 505.0649719238281
z: 0.3087804317474365
visibility: 0.9688024520874023
","x: 207.69747924804688
y: 510.215087890625
z: 0.1409795880317688
visibility: 0.9501914381980896
","x: 276.50457763671875
y: 520.753173828125
z: 0.16841372847557068
visibility: 0.9918262958526611
","x: 204.54144287109375
y: 533.1530151367188
z: -0.009197449311614037
visibility: 0.9955873489379883
",,,,,,,,,,,,,,,,,,,,,,,,,,,,,,,,,,,,,,,,,,
5,"x: 241.37185668945312
y: 177.2494354248047
z: -0.3665667176246643
visibility: 0.9999505877494812
","x: 244.82928466796875
y: 169.5181884765625
z: -0.38789206743240356
visibility: 0.9998842477798462
","x: 246.64149475097656
y: 169.29151916503906
z: -0.3878411650657654
visibility: 0.9998852014541626
","x: 248.41500854492188
y: 168.94296264648438
z: -0.38777220249176025
visibility: 0.9998733997344971
","x: 240.45828247070312
y: 169.19252014160156
z: -0.31186920404434204
visibility: 0.9998838901519775
","x: 239.21182250976562
y: 168.77862548828125
z: -0.3118644952774048
visibility: 0.9998669624328613
","x: 237.97869873046875
y: 168.36424255371094
z: -0.3118959069252014
visibility: 0.999845564365387
","x: 252.4838104248047
y: 170.21180725097656
z: -0.21862845122814178
visibility: 0.9997780323028564
","x: 237.35037231445312
y: 169.97207641601562
z: -0.1548386514186859
visibility: 0.9998489022254944
","x: 244.85154724121094
y: 185.76890563964844
z: -0.3269568085670471
visibility: 0.9999313950538635
","x: 238.95095825195312
y: 184.6031036376953
z: -0.2712600827217102
visibility: 0.9999428391456604
","x: 269.36285400390625
y: 204.2623291015625
z: -0.16014598309993744
visibility: 0.999947190284729
","x: 222.39822387695312
y: 204.12583923339844
z: -0.014045129530131817
visibility: 0.9999748468399048
","x: 267.1518859863281
y: 254.36224365234375
z: -0.30404287576675415
visibility: 0.7735838890075684
","x: 214.87060546875
y: 252.96481323242188
z: 0.13014279305934906
visibility: 0.9617637991905212
","x: 234.5932159423828
y: 239.47564697265625
z: -0.5291834473609924
visibility: 0.893333911895752
","x: 210.7758331298828
y: 303.63818359375
z: 0.11453072726726532
visibility: 0.9372841715812683
","x: 226.99134826660156
y: 234.24554443359375
z: -0.5798953771591187
visibility: 0.8468512296676636
","x: 210.9921112060547
y: 318.6732177734375
z: 0.10458841174840927
visibility: 0.9035553336143494
","x: 226.43809509277344
y: 228.90167236328125
z: -0.5823544263839722
visibility: 0.8655225038528442
","x: 212.9864959716797
y: 318.155517578125
z: 0.07337895780801773
visibility: 0.9077371954917908
","x: 228.98777770996094
y: 231.17295837402344
z: -0.5338699817657471
visibility: 0.8415809869766235
","x: 213.20254516601562
y: 312.8851318359375
z: 0.10225363075733185
visibility: 0.8663517236709595
","x: 256.855224609375
y: 332.7085876464844
z: -0.020525392144918442
visibility: 0.99957275390625
","x: 229.0955810546875
y: 329.447265625
z: 0.0204718429595232
visibility: 0.9997267127037048
","x: 267.7156982421875
y: 415.90570068359375
z: 0.029112333431839943
visibility: 0.9899663329124451
","x: 215.38836669921875
y: 418.8159484863281
z: -0.031760286539793015
visibility: 0.9969015717506409
","x: 270.695068359375
y: 493.6897277832031
z: 0.24453413486480713
visibility: 0.9938471913337708
","x: 205.9134521484375
y: 501.44329833984375
z: 0.11529719829559326
visibility: 0.998009979724884
","x: 267.73175048828125
y: 505.4258728027344
z: 0.26046469807624817
visibility: 0.9671007394790649
","x: 207.4742431640625
y: 510.673095703125
z: 0.12460823357105255
visibility: 0.9511669874191284
","x: 276.0472106933594
y: 520.7547607421875
z: 0.10857103019952774
visibility: 0.9922268390655518
","x: 204.32861328125
y: 532.4247436523438
z: -0.018106240779161453
visibility: 0.9957973957061768
",,,,,,,,,,,,,,,,,,,,,,,,,,,,,,,,,,,,,,,,,,
6,"x: 229.97268676757812
y: 175.26806640625
z: -0.19654738903045654
visibility: 0.9999107122421265
","x: 233.05088806152344
y: 167.51100158691406
z: -0.19179509580135345
visibility: 0.9998154640197754
","x: 234.96817016601562
y: 167.07672119140625
z: -0.19189117848873138
visibility: 0.9998217821121216
","x: 237.0646209716797
y: 166.56875610351562
z: -0.19196778535842896
visibility: 0.9998235702514648
","x: 229.12486267089844
y: 167.83319091796875
z: -0.17483530938625336
visibility: 0.9997735023498535
","x: 228.06842041015625
y: 167.6262664794922
z: -0.174837127327919
visibility: 0.9997162818908691
","x: 226.98179626464844
y: 167.37623596191406
z: -0.17485755681991577
visibility: 0.999675989151001
","x: 243.37240600585938
y: 168.23904418945312
z: -0.105208620429039
visibility: 0.9997475147247314
","x: 228.15087890625
y: 168.5458221435547
z: -0.040879037231206894
visibility: 0.9996346235275269
","x: 233.92532348632812
y: 183.92958068847656
z: -0.16217303276062012
visibility: 0.9999150633811951
","x: 229.24053955078125
y: 183.12176513671875
z: -0.14208588004112244
visibility: 0.9998972415924072
","x: 261.5580139160156
y: 202.19671630859375
z: -0.09234724938869476
visibility: 0.9999428391456604
","x: 216.8671417236328
y: 202.91525268554688
z: 0.0590919554233551
visibility: 0.9999390244483948
","x: 266.42706298828125
y: 243.93080139160156
z: -0.24384155869483948
visibility: 0.7955328822135925
","x: 214.2817840576172
y: 244.70159912109375
z: 0.11102785170078278
visibility: 0.9147141575813293
","x: 229.71279907226562
y: 231.5756378173828
z: -0.43916425108909607
visibility: 0.9022913575172424
","x: 211.5014190673828
y: 262.2489013671875
z: 0.037391677498817444
visibility: 0.8897835612297058
","x: 221.709228515625
y: 228.73129272460938
z: -0.4879494607448578
visibility: 0.8583353161811829
","x: 210.58529663085938
y: 271.019775390625
z: 0.01374286599457264
visibility: 0.8588283658027649
","x: 220.8834228515625
y: 223.5800018310547
z: -0.4844997823238373
visibility: 0.8749932050704956
","x: 212.04693603515625
y: 267.962890625
z: -0.00802525132894516
visibility: 0.8643052577972412
","x: 223.06301879882812
y: 224.3165740966797
z: -0.4408450722694397
visibility: 0.8503527641296387
","x: 212.77230834960938
y: 264.9127502441406
z: 0.02517036162316799
visibility: 0.8234624266624451
","x: 251.9345245361328
y: 332.1866455078125
z: -0.02132027968764305
visibility: 0.9995909929275513
","x: 223.57562255859375
y: 329.3812255859375
z: 0.02145472541451454
visibility: 0.9997313618659973
","x: 262.89715576171875
y: 415.871337890625
z: -0.0010488791158422828
visibility: 0.9907082319259644
","x: 212.41758728027344
y: 418.05767822265625
z: -0.028787722811102867
visibility: 0.9971209764480591
","x: 270.2554931640625
y: 493.7512512207031
z: 0.18619975447654724
visibility: 0.9941281080245972
","x: 205.50279235839844
y: 501.6650390625
z: 0.10968206077814102
visibility: 0.9980556964874268
","x: 267.44317626953125
y: 505.27587890625
z: 0.19878393411636353
visibility: 0.9649512767791748
","x: 207.4161834716797
y: 510.93218994140625
z: 0.11718543618917465
visibility: 0.9508064389228821
","x: 276.1767272949219
y: 520.7720336914062
z: 0.056792937219142914
visibility: 0.9923651814460754
","x: 204.06935119628906
y: 532.3970336914062
z: -0.0222163163125515
visibility: 0.9957796335220337
",,,,,,,,,,,,,,,,,,,,,,,,,,,,,,,,,,,,,,,,,,
7,"x: 220.1766357421875
y: 174.84005737304688
z: -0.20185866951942444
visibility: 0.9998831152915955
","x: 223.32725524902344
y: 166.82229614257812
z: -0.19717465341091156
visibility: 0.9997695088386536
","x: 225.20773315429688
y: 166.27244567871094
z: -0.19728665053844452
visibility: 0.9997833967208862
","x: 227.21200561523438
y: 165.54745483398438
z: -0.197378009557724
visibility: 0.9997878670692444
","x: 219.34986877441406
y: 167.25393676757812
z: -0.18083533644676208
visibility: 0.9996916055679321
","x: 218.4649200439453
y: 167.0995330810547
z: -0.18082395195960999
visibility: 0.9996087551116943
","x: 217.58665466308594
y: 166.92237854003906
z: -0.18082834780216217
visibility: 0.9995616674423218
","x: 233.53594970703125
y: 166.31942749023438
z: -0.11757220327854156
visibility: 0.9997289180755615
","x: 220.08348083496094
y: 167.7819061279297
z: -0.042264170944690704
visibility: 0.9995054602622986
","x: 224.87408447265625
y: 183.45376586914062
z: -0.16883888840675354
visibility: 0.9998994469642639
","x: 220.17433166503906
y: 183.3184814453125
z: -0.1472921520471573
visibility: 0.9998436570167542
","x: 253.9852752685547
y: 197.91648864746094
z: -0.08755013346672058
visibility: 0.9999401569366455
","x: 214.21437072753906
y: 201.30767822265625
z: 0.07315593957901001
visibility: 0.9998740553855896
","x: 260.3204040527344
y: 234.96737670898438
z: -0.20972700417041779
visibility: 0.8153423070907593
","x: 215.5615997314453
y: 242.05674743652344
z: 0.23024816811084747
visibility: 0.8486166596412659
","x: 224.54879760742188
y: 226.30960083007812
z: -0.370175838470459
visibility: 0.9098379015922546
","x: 210.99388122558594
y: 263.7613525390625
z: 0.2691962718963623
visibility: 0.8268957734107971
","x: 217.59109497070312
y: 223.94757080078125
z: -0.4144526422023773
visibility: 0.8661335110664368
","x: 208.76828002929688
y: 273.43328857421875
z: 0.26360031962394714
visibility: 0.8000877499580383
","x: 216.82960510253906
y: 219.17745971679688
z: -0.42377591133117676
visibility: 0.8809813261032104
","x: 209.5939178466797
y: 270.94293212890625
z: 0.23559367656707764
visibility: 0.8067842125892639
","x: 219.0026397705078
y: 219.83685302734375
z: -0.41062527894973755
visibility: 0.8546589612960815
","x: 210.63839721679688
y: 267.285400390625
z: 0.2575385272502899
visibility: 0.7685061097145081
","x: 248.1428985595703
y: 331.3964538574219
z: -0.025464314967393875
visibility: 0.999598503112793
","x: 220.10635375976562
y: 329.22265625
z: 0.025652894750237465
visibility: 0.9997327923774719
","x: 259.550048828125
y: 415.8662109375
z: 0.003318874631077051
visibility: 0.9913659691810608
","x: 210.85848999023438
y: 417.47186279296875
z: -0.03210977464914322
visibility: 0.9973344206809998
","x: 269.9688720703125
y: 493.594482421875
z: 0.19533966481685638
visibility: 0.9943533539772034
","x: 205.73634338378906
y: 501.85858154296875
z: 0.09432429820299149
visibility: 0.9981131553649902
","x: 267.24884033203125
y: 505.0492858886719
z: 0.2083466500043869
visibility: 0.9629142880439758
","x: 207.53897094726562
y: 511.1683349609375
z: 0.09884612262248993
visibility: 0.9511066675186157
","x: 276.2261047363281
y: 520.7657470703125
z: 0.0746953934431076
visibility: 0.9924176335334778
","x: 204.32713317871094
y: 532.437255859375
z: -0.04155411571264267
visibility: 0.9958205819129944
",,,,,,,,,,,,,,,,,,,,,,,,,,,,,,,,,,,,,,,,,,
8,"x: 214.28187561035156
y: 175.26248168945312
z: -0.16851148009300232
visibility: 0.9998754858970642
","x: 216.96212768554688
y: 166.85214233398438
z: -0.1712266057729721
visibility: 0.9997572302818298
","x: 218.79605102539062
y: 166.14051818847656
z: -0.17131513357162476
visibility: 0.9997740983963013
","x: 220.7576446533203
y: 165.2760467529297
z: -0.17135870456695557
visibility: 0.999778687953949
","x: 213.58370971679688
y: 167.81396484375
z: -0.14757046103477478
visibility: 0.9996678829193115
","x: 212.96786499023438
y: 167.72840881347656
z: -0.14756253361701965
visibility: 0.9995782971382141
","x: 212.36585998535156
y: 167.61196899414062
z: -0.14757311344146729
visibility: 0.999531626701355
","x: 227.55006408691406
y: 165.09783935546875
z: -0.12495426833629608
visibility: 0.9997315406799316
","x: 217.23440551757812
y: 168.0750274658203
z: -0.01699093170464039
visibility: 0.999472439289093
","x: 219.52125549316406
y: 183.19241333007812
z: -0.1485988199710846
visibility: 0.9998968839645386
","x: 215.648193359375
y: 184.09881591796875
z: -0.117120161652565
visibility: 0.9998224973678589
","x: 251.15786743164062
y: 196.1909637451172
z: -0.10595487058162689
visibility: 0.9999421238899231
","x: 214.28001403808594
y: 201.43150329589844
z: 0.09106031060218811
visibility: 0.999858558177948
","x: 257.85247802734375
y: 230.4259490966797
z: -0.26871827244758606
visibility: 0.8335604071617126
","x: 216.94241333007812
y: 246.3851776123047
z: 0.24262213706970215
visibility: 0.79505455493927
","x: 222.9734344482422
y: 224.7855224609375
z: -0.42743557691574097
visibility: 0.9182741045951843
","x: 208.2482147216797
y: 275.25787353515625
z: 0.25090551376342773
visibility: 0.794035017490387
","x: 216.4464111328125
y: 222.8822021484375
z: -0.47261887788772583
visibility: 0.8775488138198853
","x: 202.8102264404297
y: 285.425537109375
z: 0.2434820830821991
visibility: 0.7689049243927002
","x: 215.7549285888672
y: 218.56736755371094
z: -0.4680001139640808
visibility: 0.8907738327980042
","x: 205.48190307617188
y: 281.49951171875
z: 0.20888979732990265
visibility: 0.7774111032485962
","x: 217.79205322265625
y: 219.27955627441406
z: -0.429809033870697
visibility: 0.8651473522186279
","x: 207.1344451904297
y: 278.4363098144531
z: 0.23549231886863708
visibility: 0.7398141622543335
","x: 246.07763671875
y: 331.1739501953125
z: -0.03383701667189598
visibility: 0.999614417552948
","x: 218.7781524658203
y: 329.3975830078125
z: 0.033948324620723724
visibility: 0.9997434020042419
","x: 258.3369140625
y: 415.7301025390625
z: 0.005764700472354889
visibility: 0.9919812083244324
","x: 209.72222900390625
y: 417.4514465332031
z: -0.014630374498665333
visibility: 0.9975380301475525
","x: 269.82049560546875
y: 493.07958984375
z: 0.18526889383792877
visibility: 0.9945713877677917
","x: 206.03013610839844
y: 501.986328125
z: 0.09503943473100662
visibility: 0.9981672763824463
","x: 267.166748046875
y: 504.3387145996094
z: 0.19661469757556915
visibility: 0.9616826176643372
","x: 208.12149047851562
y: 511.31158447265625
z: 0.09927031397819519
visibility: 0.9524355530738831
","x: 276.2607727050781
y: 520.5836791992188
z: 0.06480129063129425
visibility: 0.9925594329833984
","x: 203.83474731445312
y: 532.5115356445312
z: -0.03615008294582367
visibility: 0.9959128499031067
",,,,,,,,,,,,,,,,,,,,,,,,,,,,,,,,,,,,,,,,,,
9,"x: 210.58372497558594
y: 179.2059326171875
z: -0.175217866897583
visibility: 0.999865710735321
","x: 212.43557739257812
y: 169.32679748535156
z: -0.17787934839725494
visibility: 0.9997461438179016
","x: 214.2460174560547
y: 168.142822265625
z: -0.17799106240272522
visibility: 0.999764084815979
","x: 216.1450958251953
y: 166.52992248535156
z: -0.17806610465049744
visibility: 0.9997722506523132
","x: 208.78152465820312
y: 171.26864624023438
z: -0.15246807038784027
visibility: 0.9996384382247925
","x: 207.91934204101562
y: 171.51617431640625
z: -0.1524326205253601
visibility: 0.9995265603065491
","x: 207.1776580810547
y: 171.68862915039062
z: -0.1524307131767273
visibility: 0.9994816184043884
","x: 222.9017333984375
y: 165.9265899658203
z: -0.13298171758651733
visibility: 0.9997397661209106
","x: 210.7464141845703
y: 171.5027618408203
z: -0.014948184601962566
visibility: 0.9994202256202698
","x: 215.85140991210938
y: 185.9288330078125
z: -0.15556934475898743
visibility: 0.9998958110809326
","x: 211.63050842285156
y: 189.02891540527344
z: -0.12141408771276474
visibility: 0.99979567527771
","x: 248.06484985351562
y: 194.96456909179688
z: -0.11295054852962494
visibility: 0.9999459981918335
","x: 213.47250366210938
y: 205.845947265625
z: 0.092448890209198
visibility: 0.9998123049736023
","x: 257.4258117675781
y: 224.72698974609375
z: -0.25836506485939026
visibility: 0.8499603271484375
","x: 218.826171875
y: 251.19158935546875
z: 0.23060572147369385
visibility: 0.7260339260101318
","x: 223.36468505859375
y: 223.20272827148438
z: -0.37881988286972046
visibility: 0.9251495599746704
","x: 207.6432342529297
y: 279.4248046875
z: 0.21764211356639862
visibility: 0.7296780347824097
","x: 216.73915100097656
y: 224.3669891357422
z: -0.42136049270629883
visibility: 0.8848077654838562
","x: 202.6057891845703
y: 290.963623046875
z: 0.2062911093235016
visibility: 0.7088225483894348
","x: 215.77255249023438
y: 221.06361389160156
z: -0.43531736731529236
visibility: 0.8964303731918335
","x: 205.12193298339844
y: 284.75335693359375
z: 0.16917404532432556
visibility: 0.7181175947189331
","x: 217.84254455566406
y: 220.6420135498047
z: -0.384093314409256
visibility: 0.8693884015083313
","x: 207.20623779296875
y: 282.9190979003906
z: 0.19989798963069916
visibility: 0.6833880543708801
","x: 243.96531677246094
y: 331.6841125488281
z: -0.0342429056763649
visibility: 0.9996359348297119
","x: 217.3395233154297
y: 330.63787841796875
z: 0.03438166528940201
visibility: 0.9997445344924927
","x: 257.5575866699219
y: 415.68402099609375
z: -0.016295278444886208
visibility: 0.9925177693367004
","x: 209.16690063476562
y: 417.50048828125
z: -0.017973262816667557
visibility: 0.997689962387085
","x: 269.7061462402344
y: 492.9967956542969
z: 0.16835251450538635
visibility: 0.9946762323379517
","x: 206.4544677734375
y: 502.0243835449219
z: 0.10366197675466537
visibility: 0.9981334209442139
","x: 267.10400390625
y: 504.13323974609375
z: 0.1802758127450943
visibility: 0.9598053693771362
","x: 208.46221923828125
y: 511.3489990234375
z: 0.10913711786270142
visibility: 0.9526781439781189
","x: 276.2876892089844
y: 520.5927734375
z: 0.04485774785280228
visibility: 0.9925354719161987
","x: 203.86634826660156
y: 532.3565063476562
z: -0.024881254881620407
visibility: 0.9958699345588684
",,,,,,,,,,,,,,,,,,,,,,,,,,,,,,,,,,,,,,,,,,
10,"x: 206.83670043945312
y: 184.09719848632812
z: -0.16200731694698334
visibility: 0.9998677968978882
","x: 208.65562438964844
y: 173.86599731445312
z: -0.16849583387374878
visibility: 0.9997527599334717
","x: 210.2263946533203
y: 172.37425231933594
z: -0.16857661306858063
visibility: 0.9997701048851013
","x: 212.0960693359375
y: 170.51756286621094
z: -0.16862359642982483
visibility: 0.9997797012329102
","x: 205.49606323242188
y: 176.06686401367188
z: -0.1415679156780243
visibility: 0.9996413588523865
","x: 204.95741271972656
y: 176.28024291992188
z: -0.14154252409934998
visibility: 0.9995247721672058
","x: 204.46475219726562
y: 176.35353088378906
z: -0.14154425263404846
visibility: 0.9994828104972839
","x: 219.6973419189453
y: 167.06117248535156
z: -0.13576136529445648
visibility: 0.9997556805610657
","x: 209.13148498535156
y: 174.73089599609375
z: -0.011866610497236252
visibility: 0.9994257688522339
","x: 212.4296112060547
y: 189.83486938476562
z: -0.14632734656333923
visibility: 0.999900758266449
","x: 208.93858337402344
y: 192.8581085205078
z: -0.11037112772464752
visibility: 0.9997962713241577
","x: 244.64544677734375
y: 195.68727111816406
z: -0.11717908084392548
visibility: 0.999950110912323
","x: 212.75428771972656
y: 207.67677307128906
z: 0.09011408686637878
visibility: 0.9998050332069397
","x: 257.43035888671875
y: 229.9032440185547
z: -0.27261608839035034
visibility: 0.8648428916931152
","x: 219.29522705078125
y: 251.57565307617188
z: 0.23017890751361847
visibility: 0.6706033945083618
","x: 223.70352172851562
y: 224.539306640625
z: -0.3948776125907898
visibility: 0.9322206377983093
","x: 206.0700225830078
y: 277.46881103515625
z: 0.21804729104042053
visibility: 0.6914471983909607
","x: 215.91732788085938
y: 223.65638732910156
z: -0.4386918544769287
visibility: 0.8946912884712219
","x: 203.42892456054688
y: 283.16400146484375
z: 0.20605270564556122
visibility: 0.6747860908508301
","x: 215.31101989746094
y: 218.83261108398438
z: -0.42995983362197876
visibility: 0.9050008058547974
","x: 203.98159790039062
y: 281.4007568359375
z: 0.1693834662437439
visibility: 0.6859433650970459
","x: 217.41091918945312
y: 218.81333923339844
z: -0.3926485478878021
visibility: 0.8789487481117249
","x: 205.21533203125
y: 277.51873779296875
z: 0.2004728764295578
visibility: 0.651957631111145
","x: 242.5834503173828
y: 333.1585388183594
z: -0.036498114466667175
visibility: 0.9996594786643982
","x: 216.0345001220703
y: 332.7679748535156
z: 0.0366085022687912
visibility: 0.9997562170028687
","x: 257.1655578613281
y: 415.6591491699219
z: -0.011420336551964283
visibility: 0.9930798411369324
","x: 206.7301483154297
y: 417.3516845703125
z: -0.02293597348034382
visibility: 0.9978705048561096
","x: 269.6362609863281
y: 491.7245788574219
z: 0.18467803299427032
visibility: 0.9948896765708923
","x: 206.72671508789062
y: 502.0694274902344
z: 0.09669443219900131
visibility: 0.9981887340545654
","x: 267.1172790527344
y: 502.4328308105469
z: 0.19772106409072876
visibility: 0.9590935111045837
","x: 208.90591430664062
y: 511.3751220703125
z: 0.1026131883263588
visibility: 0.954463005065918
","x: 276.21893310546875
y: 520.1981811523438
z: 0.06705858558416367
visibility: 0.9927626848220825
","x: 203.42266845703125
y: 532.3917236328125
z: -0.027028366923332214
visibility: 0.9960032105445862
",,,,,,,,,,,,,,,,,,,,,,,,,,,,,,,,,,,,,,,,,,
11,"x: 205.9632110595703
y: 196.69741821289062
z: -0.12455868721008301
visibility: 0.9998501539230347
","x: 206.80621337890625
y: 187.1412811279297
z: -0.13781830668449402
visibility: 0.9997270107269287
","x: 208.0015411376953
y: 185.37615966796875
z: -0.1378774642944336
visibility: 0.9997395873069763
","x: 209.2843780517578
y: 183.32122802734375
z: -0.13791902363300323
visibility: 0.9997560381889343
","x: 204.31198120117188
y: 189.38504028320312
z: -0.10975556075572968
visibility: 0.9995893836021423
","x: 203.83084106445312
y: 189.2180633544922
z: -0.10973843187093735
visibility: 0.9994364976882935
","x: 203.39981079101562
y: 188.90594482421875
z: -0.10976473242044449
visibility: 0.9994124174118042
","x: 215.28521728515625
y: 176.4640655517578
z: -0.13149064779281616
visibility: 0.9997431039810181
","x: 207.2552032470703
y: 184.5294952392578
z: -0.001766147674061358
visibility: 0.9993508458137512
","x: 211.56822204589844
y: 199.03475952148438
z: -0.11702203750610352
visibility: 0.9998926520347595
","x: 208.78753662109375
y: 201.9291534423828
z: -0.07983122766017914
visibility: 0.9997665882110596
","x: 243.11270141601562
y: 200.08888244628906
z: -0.1127399429678917
visibility: 0.999950647354126
","x: 210.04322814941406
y: 210.70391845703125
z: 0.0813957005739212
visibility: 0.9998081922531128
","x: 252.6424560546875
y: 237.58303833007812
z: -0.23638784885406494
visibility: 0.877912163734436
","x: 217.55523681640625
y: 252.1505584716797
z: 0.20752370357513428
visibility: 0.6252350807189941
","x: 220.51693725585938
y: 230.56504821777344
z: -0.31440621614456177
visibility: 0.937533974647522
","x: 204.40859985351562
y: 278.5787353515625
z: 0.20804984867572784
visibility: 0.6568513512611389
","x: 212.92691040039062
y: 226.30174255371094
z: -0.34577271342277527
visibility: 0.9012239575386047
","x: 199.80592346191406
y: 285.5264587402344
z: 0.20093810558319092
visibility: 0.6422356963157654
","x: 213.08807373046875
y: 220.42041015625
z: -0.33568885922431946
visibility: 0.9101806282997131
","x: 201.64161682128906
y: 279.90557861328125
z: 0.17013970017433167
visibility: 0.6546729207038879
","x: 215.07595825195312
y: 222.20254516601562
z: -0.31033676862716675
visibility: 0.883320152759552
","x: 203.2440643310547
y: 278.12603759765625
z: 0.19329722225666046
visibility: 0.6221063733100891
","x: 240.37570190429688
y: 335.39813232421875
z: -0.03644197806715965
visibility: 0.999671220779419
","x: 214.7497100830078
y: 336.5511474609375
z: 0.036550991237163544
visibility: 0.9997640252113342
","x: 256.5342712402344
y: 415.85986328125
z: -0.017641041427850723
visibility: 0.9936105608940125
","x: 203.89984130859375
y: 417.6916198730469
z: -0.0035928883589804173
visibility: 0.9980136752128601
","x: 269.5528869628906
y: 491.5890197753906
z: 0.14489196240901947
visibility: 0.995174765586853
","x: 206.7802276611328
y: 503.0067443847656
z: 0.10667576640844345
visibility: 0.9982609152793884
","x: 267.095947265625
y: 502.1209411621094
z: 0.1558845490217209
visibility: 0.9596365094184875
","x: 211.24644470214844
y: 512.3375244140625
z: 0.11134389787912369
visibility: 0.956813633441925
","x: 276.1319274902344
y: 519.9970703125
z: 0.03528720140457153
visibility: 0.9931086301803589
","x: 201.44007873535156
y: 532.6502685546875
z: -0.005290377419441938
visibility: 0.9961478114128113
",,,,,,,,,,,,,,,,,,,,,,,,,,,,,,,,,,,,,,,,,,
12,"x: 202.2709197998047
y: 202.7974090576172
z: -0.11050591617822647
visibility: 0.9998459219932556
","x: 203.3206329345703
y: 193.0889129638672
z: -0.12473277747631073
visibility: 0.9997184872627258
","x: 204.42115783691406
y: 191.56454467773438
z: -0.12479645013809204
visibility: 0.9997276067733765
","x: 205.5556182861328
y: 189.83102416992188
z: -0.12486525624990463
visibility: 0.9997474551200867
","x: 201.1121826171875
y: 194.257080078125
z: -0.09543266147375107
visibility: 0.9995783567428589
","x: 200.7520294189453
y: 193.62684631347656
z: -0.09542468190193176
visibility: 0.999413013458252
","x: 200.43008422851562
y: 192.87387084960938
z: -0.09545628726482391
visibility: 0.999398946762085
","x: 211.8495635986328
y: 182.88265991210938
z: -0.12650558352470398
visibility: 0.9997445344924927
","x: 204.85362243652344
y: 188.17633056640625
z: 0.008580293506383896
visibility: 0.9993429780006409
","x: 207.23533630371094
y: 205.1329803466797
z: -0.10562495142221451
visibility: 0.9998828768730164
","x: 204.9184112548828
y: 207.17970275878906
z: -0.06726595014333725
visibility: 0.9997425675392151
","x: 240.5741729736328
y: 206.4440155029297
z: -0.11063209921121597
visibility: 0.9999464154243469
","x: 207.3850555419922
y: 213.8186798095703
z: 0.09562579542398453
visibility: 0.9998055100440979
","x: 247.66493225097656
y: 254.57720947265625
z: -0.19593113660812378
visibility: 0.8896363973617554
","x: 214.4371337890625
y: 257.5467224121094
z: 0.1745080053806305
visibility: 0.5787697434425354
","x: 217.7366180419922
y: 233.62896728515625
z: -0.20068709552288055
visibility: 0.941591739654541
","x: 202.38243103027344
y: 276.31732177734375
z: 0.13303257524967194
visibility: 0.6144251227378845
","x: 210.41000366210938
y: 226.93902587890625
z: -0.21901962161064148
visibility: 0.9048033952713013
","x: 198.12213134765625
y: 280.1227722167969
z: 0.12175822257995605
visibility: 0.5999165773391724
","x: 210.55752563476562
y: 220.48654174804688
z: -0.20841820538043976
visibility: 0.9121803641319275
","x: 198.58448791503906
y: 276.44439697265625
z: 0.09796635061502457
visibility: 0.6119169592857361
","x: 212.4236297607422
y: 223.23965454101562
z: -0.19395220279693604
visibility: 0.8827205300331116
","x: 200.5454864501953
y: 275.0330810546875
z: 0.11968234926462173
visibility: 0.5817140936851501
","x: 238.85647583007812
y: 337.45001220703125
z: -0.04014794901013374
visibility: 0.9996550679206848
","x: 213.48207092285156
y: 339.58074951171875
z: 0.040256768465042114
visibility: 0.9997682571411133
","x: 256.24761962890625
y: 416.0868835449219
z: -0.05222315341234207
visibility: 0.9939964413642883
","x: 200.41542053222656
y: 417.977294921875
z: -0.05618830770254135
visibility: 0.9981249570846558
","x: 269.4903564453125
y: 491.7149658203125
z: 0.09220252931118011
visibility: 0.9952818751335144
","x: 206.8636016845703
y: 503.94610595703125
z: 0.06135725975036621
visibility: 0.9983260631561279
","x: 267.03680419921875
y: 502.34393310546875
z: 0.10063248872756958
visibility: 0.9584810137748718
","x: 213.32008361816406
y: 513.6015014648438
z: 0.06595392525196075
visibility: 0.9597166180610657
","x: 276.1758728027344
y: 519.9521484375
z: -0.019143415614962578
visibility: 0.993196964263916
","x: 198.01483154296875
y: 532.7813110351562
z: -0.04132651537656784
visibility: 0.9962725043296814
",,,,,,,,,,,,,,,,,,,,,,,,,,,,,,,,,,,,,,,,,,
13,"x: 201.1852569580078
y: 206.146240234375
z: -0.10273110866546631
visibility: 0.9998509883880615
","x: 202.37075805664062
y: 197.08702087402344
z: -0.11641111224889755
visibility: 0.9997269511222839
","x: 203.5679168701172
y: 195.4311981201172
z: -0.11647792905569077
visibility: 0.9997338652610779
","x: 204.8028106689453
y: 193.72555541992188
z: -0.11655422300100327
visibility: 0.999755322933197
","x: 200.17848205566406
y: 198.69845581054688
z: -0.08684844523668289
visibility: 0.9995927810668945
","x: 199.730224609375
y: 198.18116760253906
z: -0.0868285745382309
visibility: 0.9994287490844727
","x: 199.3531036376953
y: 197.63272094726562
z: -0.08685536682605743
visibility: 0.9994221329689026
","x: 211.3484344482422
y: 186.7637481689453
z: -0.1182960718870163
visibility: 0.9997575879096985
","x: 203.47499084472656
y: 193.16522216796875
z: 0.019063984975218773
visibility: 0.9993649125099182
","x: 206.3313446044922
y: 208.44024658203125
z: -0.09782575070858002
visibility: 0.9998806715011597
","x: 203.4359893798828
y: 210.49058532714844
z: -0.05901259183883667
visibility: 0.9997365474700928
","x: 238.9440155029297
y: 211.30560302734375
z: -0.1096009761095047
visibility: 0.999944269657135
","x: 205.08306884765625
y: 220.68946838378906
z: 0.11064640432596207
visibility: 0.999807596206665
","x: 243.7679443359375
y: 267.38690185546875
z: -0.17295125126838684
visibility: 0.9002218246459961
","x: 209.1562957763672
y: 271.9189758300781
z: 0.1484941691160202
visibility: 0.543068528175354
","x: 216.48468017578125
y: 235.1839599609375
z: -0.17477229237556458
visibility: 0.9458535313606262
","x: 199.89610290527344
y: 277.2503967285156
z: 0.025970444083213806
visibility: 0.5943340063095093
","x: 209.0146942138672
y: 230.7357940673828
z: -0.19261546432971954
visibility: 0.9099196791648865
","x: 195.7140350341797
y: 284.0799560546875
z: 0.007536895573139191
visibility: 0.5763664841651917
","x: 209.64230346679688
y: 224.46145629882812
z: -0.18328750133514404
visibility: 0.9160192012786865
","x: 195.52102661132812
y: 279.88232421875
z: -0.012409445829689503
visibility: 0.5878043174743652
","x: 211.56649780273438
y: 226.83326721191406
z: -0.16801348328590393
visibility: 0.8852110505104065
","x: 197.7224578857422
y: 278.242919921875
z: 0.011467956006526947
visibility: 0.5589188933372498
","x: 237.50350952148438
y: 339.36712646484375
z: -0.047631941735744476
visibility: 0.9996224641799927
","x: 212.69142150878906
y: 342.1704406738281
z: 0.047749392688274384
visibility: 0.9997718930244446
","x: 255.793701171875
y: 416.9787902832031
z: -0.08143869042396545
visibility: 0.9943668842315674
","x: 197.0196533203125
y: 418.2861328125
z: -0.07850199192762375
visibility: 0.9982201457023621
","x: 269.44476318359375
y: 491.8043518066406
z: 0.0650518462061882
visibility: 0.9953672289848328
","x: 207.80172729492188
y: 504.69580078125
z: 0.04065955430269241
visibility: 0.9983967542648315
","x: 267.1785888671875
y: 502.4647521972656
z: 0.07295583933591843
visibility: 0.9563462138175964
","x: 215.1954803466797
y: 515.060302734375
z: 0.045250922441482544
visibility: 0.962801992893219
","x: 276.20318603515625
y: 520.1241455078125
z: -0.04928644746541977
visibility: 0.9932345747947693
","x: 195.21998596191406
y: 532.8088989257812
z: -0.05926553159952164
visibility: 0.9964094758033752
",,,,,,,,,,,,,,,,,,,,,,,,,,,,,,,,,,,,,,,,,,
14,"x: 198.08013916015625
y: 207.76513671875
z: -0.11786037683486938
visibility: 0.9998601078987122
","x: 199.33734130859375
y: 198.30548095703125
z: -0.13064078986644745
visibility: 0.9997440576553345
","x: 200.58364868164062
y: 197.09678649902344
z: -0.13070693612098694
visibility: 0.9997494220733643
","x: 201.9573211669922
y: 195.77796936035156
z: -0.13080337643623352
visibility: 0.9997708201408386
","x: 196.70982360839844
y: 199.46595764160156
z: -0.1012343168258667
visibility: 0.9996196031570435
","x: 196.1881561279297
y: 199.04214477539062
z: -0.10121367126703262
visibility: 0.9994646906852722
","x: 195.74069213867188
y: 198.5511932373047
z: -0.10121975839138031
visibility: 0.9994611740112305
","x: 208.1355743408203
y: 190.21282958984375
z: -0.12491577863693237
visibility: 0.999776303768158
","x: 199.69903564453125
y: 195.01858520507812
z: 0.005345101933926344
visibility: 0.9994077682495117
","x: 202.80433654785156
y: 211.15725708007812
z: -0.11254676431417465
visibility: 0.9998860955238342
","x: 199.6045684814453
y: 212.71066284179688
z: -0.07441065460443497
visibility: 0.9997481107711792
","x: 234.03591918945312
y: 219.80447387695312
z: -0.11931636184453964
visibility: 0.9999402761459351
","x: 201.06956481933594
y: 227.51156616210938
z: 0.10514026880264282
visibility: 0.9998070597648621
","x: 238.01463317871094
y: 279.1865234375
z: -0.15873506665229797
visibility: 0.9096530675888062
","x: 206.0127410888672
y: 280.73828125
z: 0.13367579877376556
visibility: 0.5020904541015625
","x: 210.47071838378906
y: 247.92623901367188
z: -0.10831288248300552
visibility: 0.9485642313957214
","x: 201.229248046875
y: 290.6576232910156
z: -0.019519958645105362
visibility: 0.5582444667816162
","x: 203.413818359375
y: 237.9527130126953
z: -0.11890663951635361
visibility: 0.9114776849746704
","x: 197.6049041748047
y: 294.447509765625
z: -0.03960368409752846
visibility: 0.5408301949501038
","x: 203.85520935058594
y: 232.3358917236328
z: -0.10755880177021027
visibility: 0.9161019921302795
","x: 197.91050720214844
y: 288.74102783203125
z: -0.05658735707402229
visibility: 0.5514052510261536
","x: 205.71885681152344
y: 236.21517944335938
z: -0.09893292933702469
visibility: 0.8823212385177612
","x: 199.82615661621094
y: 286.9222717285156
z: -0.033232681453228
visibility: 0.5245972275733948
","x: 234.9016876220703
y: 343.2370300292969
z: -0.05019650608301163
visibility: 0.9995819926261902
","x: 210.46499633789062
y: 346.2491455078125
z: 0.05031257122755051
visibility: 0.9997730255126953
","x: 253.54074096679688
y: 420.1171875
z: -0.08802567422389984
visibility: 0.9947082996368408
","x: 194.12750244140625
y: 420.02203369140625
z: -0.08248436450958252
visibility: 0.998286783695221
","x: 269.4267272949219
y: 492.0581359863281
z: 0.06304536014795303
visibility: 0.9954745173454285
","x: 208.45982360839844
y: 505.1629943847656
z: 0.04472813010215759
visibility: 0.9984471201896667
","x: 267.48614501953125
y: 502.5291442871094
z: 0.07127630710601807
visibility: 0.9541059732437134
","x: 215.89608764648438
y: 515.9057006835938
z: 0.049842823296785355
visibility: 0.965491533279419
","x: 276.1216125488281
y: 520.1724853515625
z: -0.051546115428209305
visibility: 0.9932979345321655
","x: 194.7059783935547
y: 532.8095092773438
z: -0.05513198301196098
visibility: 0.9965046644210815
",,,,,,,,,,,,,,,,,,,,,,,,,,,,,,,,,,,,,,,,,,
15,"x: 190.83546447753906
y: 210.22930908203125
z: -0.11575047671794891
visibility: 0.9998720288276672
","x: 192.3333282470703
y: 200.96311950683594
z: -0.1321537047624588
visibility: 0.999765932559967
","x: 193.53919982910156
y: 200.0586700439453
z: -0.13218066096305847
visibility: 0.9997705221176147
","x: 194.85801696777344
y: 198.97909545898438
z: -0.13224563002586365
visibility: 0.9997900724411011
","x: 190.31979370117188
y: 201.4899444580078
z: -0.10094334930181503
visibility: 0.9996533989906311
","x: 190.0398712158203
y: 201.0281982421875
z: -0.10093151032924652
visibility: 0.9995132684707642
","x: 189.87489318847656
y: 200.48684692382812
z: -0.10091297328472137
visibility: 0.9995107054710388
","x: 200.833740234375
y: 194.43026733398438
z: -0.14693377912044525
visibility: 0.9997969269752502
","x: 194.76870727539062
y: 197.19451904296875
z: -0.008099052123725414
visibility: 0.9994617104530334
","x: 195.5982208251953
y: 214.72589111328125
z: -0.11845286190509796
visibility: 0.9998953342437744
","x: 193.0077667236328
y: 215.6179962158203
z: -0.07829895615577698
visibility: 0.9997690916061401
","x: 227.27767944335938
y: 227.28717041015625
z: -0.15891510248184204
visibility: 0.9999403953552246
","x: 196.20501708984375
y: 235.6807861328125
z: 0.082894466817379
visibility: 0.9998186230659485
","x: 234.05963134765625
y: 291.2247009277344
z: -0.16844937205314636
visibility: 0.9181289672851562
","x: 202.1890869140625
y: 286.94384765625
z: 0.049560848623514175
visibility: 0.47363144159317017
","x: 202.1842803955078
y: 266.3802795410156
z: -0.07692338526248932
visibility: 0.9498997330665588
","x: 196.0531768798828
y: 299.489990234375
z: -0.1305340826511383
visibility: 0.5318978428840637
","x: 194.70420837402344
y: 260.2816162109375
z: -0.08517435193061829
visibility: 0.9097378253936768
","x: 192.8065948486328
y: 302.104248046875
z: -0.1564677208662033
visibility: 0.5129871964454651
","x: 194.76832580566406
y: 253.4893798828125
z: -0.07083426415920258
visibility: 0.9127244353294373
","x: 192.60964965820312
y: 282.0882873535156
z: -0.17088410258293152
visibility: 0.5225035548210144
","x: 196.7066650390625
y: 254.69346618652344
z: -0.06550927460193634
visibility: 0.8756800293922424
","x: 194.88775634765625
y: 282.34002685546875
z: -0.14407533407211304
visibility: 0.49694809317588806
","x: 229.3953094482422
y: 348.3704833984375
z: -0.0622093603014946
visibility: 0.9995502829551697
","x: 206.83802795410156
y: 351.0302429199219
z: 0.062235165387392044
visibility: 0.99977707862854
","x: 246.08522033691406
y: 423.73919677734375
z: -0.07201623171567917
visibility: 0.9950942993164062
","x: 192.89556884765625
y: 422.9723815917969
z: -0.029876720160245895
visibility: 0.9982941150665283
","x: 267.7490234375
y: 491.5408630371094
z: 0.08908002078533173
visibility: 0.9956688284873962
","x: 209.0628204345703
y: 505.4239196777344
z: 0.08268244564533234
visibility: 0.998475968837738
","x: 267.58050537109375
y: 499.8369140625
z: 0.09877254068851471
visibility: 0.951500654220581
","x: 216.84054565429688
y: 516.2271728515625
z: 0.08670026063919067
visibility: 0.9677412509918213
","x: 269.6969909667969
y: 520.2654418945312
z: -0.01099073514342308
visibility: 0.9935173392295837
","x: 194.8202362060547
y: 532.6416625976562
z: 0.007394467946141958
visibility: 0.9966157674789429
",,,,,,,,,,,,,,,,,,,,,,,,,,,,,,,,,,,,,,,,,,
16,"x: 188.98983764648438
y: 212.0639190673828
z: -0.18891283869743347
visibility: 0.9998813271522522
","x: 190.9553985595703
y: 203.2801055908203
z: -0.20001527667045593
visibility: 0.9997822642326355
","x: 192.4033660888672
y: 202.59030151367188
z: -0.2000197172164917
visibility: 0.9997860789299011
","x: 194.00962829589844
y: 201.70437622070312
z: -0.2001013457775116
visibility: 0.9998043775558472
","x: 188.0383758544922
y: 203.49359130859375
z: -0.17317892611026764
visibility: 0.9996793866157532
","x: 187.47203063964844
y: 203.04962158203125
z: -0.17322023212909698
visibility: 0.9995492100715637
","x: 187.00289916992188
y: 202.49298095703125
z: -0.17324037849903107
visibility: 0.999547004699707
","x: 199.95213317871094
y: 198.3843231201172
z: -0.1758406013250351
visibility: 0.9998140335083008
","x: 191.25677490234375
y: 199.41976928710938
z: -0.05500566214323044
visibility: 0.9994968771934509
","x: 193.74952697753906
y: 218.02484130859375
z: -0.17428165674209595
visibility: 0.9999028444290161
","x: 190.0654296875
y: 218.557373046875
z: -0.14004777371883392
visibility: 0.9997850656509399
","x: 222.77793884277344
y: 235.2928009033203
z: -0.15807420015335083
visibility: 0.9999381899833679
","x: 190.9317626953125
y: 232.6448974609375
z: 0.07467380911111832
visibility: 0.9998266100883484
","x: 228.57888793945312
y: 300.3527526855469
z: -0.17324787378311157
visibility: 0.9257420301437378
","x: 185.6646270751953
y: 274.2935791015625
z: 0.05115395784378052
visibility: 0.46535491943359375
","x: 198.37351989746094
y: 286.22314453125
z: -0.14959655702114105
visibility: 0.950982928276062
","x: 183.46253967285156
y: 253.40032958984375
z: -0.11995533853769302
visibility: 0.5156500339508057
","x: 190.60166931152344
y: 278.519775390625
z: -0.15825912356376648
visibility: 0.9074049592018127
","x: 183.72976684570312
y: 250.45159912109375
z: -0.1412961333990097
visibility: 0.4912451505661011
","x: 189.96240234375
y: 269.49017333984375
z: -0.14850963652133942
visibility: 0.9091246724128723
","x: 184.85537719726562
y: 240.42433166503906
z: -0.14221034944057465
visibility: 0.49838370084762573
","x: 192.0970458984375
y: 270.86639404296875
z: -0.139816015958786
visibility: 0.8671035170555115
","x: 185.6556854248047
y: 243.29254150390625
z: -0.12736175954341888
visibility: 0.4743691682815552
","x: 226.75868225097656
y: 351.0972595214844
z: -0.06229303032159805
visibility: 0.9995297193527222
","x: 204.4475555419922
y: 352.221923828125
z: 0.062280017882585526
visibility: 0.9997899532318115
","x: 240.85902404785156
y: 430.40936279296875
z: -0.08213917165994644
visibility: 0.9952306747436523
","x: 191.0041046142578
y: 425.6553649902344
z: -0.0656595528125763
visibility: 0.998289167881012
","x: 261.4019470214844
y: 491.5960388183594
z: 0.09469752013683319
visibility: 0.9957025647163391
","x: 209.55868530273438
y: 505.8243103027344
z: 0.06076139956712723
visibility: 0.9984779953956604
","x: 263.4190368652344
y: 499.51593017578125
z: 0.10599298775196075
visibility: 0.9486264586448669
","x: 217.1985626220703
y: 516.3922729492188
z: 0.06599481403827667
visibility: 0.9698067307472229
","x: 264.3524475097656
y: 522.8339233398438
z: -0.00804944522678852
visibility: 0.993510365486145
","x: 195.13404846191406
y: 532.82080078125
z: -0.020789707079529762
visibility: 0.9966548085212708
",,,,,,,,,,,,,,,,,,,,,,,,,,,,,,,,,,,,,,,,,,
17,"x: 187.9592742919922
y: 211.8876953125
z: -0.29012346267700195
visibility: 0.9998806715011597
","x: 190.6723175048828
y: 203.82798767089844
z: -0.29243841767311096
visibility: 0.9997708201408386
","x: 192.4398651123047
y: 203.33143615722656
z: -0.292454332113266
visibility: 0.9997754096984863
","x: 194.09786987304688
y: 202.69447326660156
z: -0.2925446331501007
visibility: 0.9997961521148682
","x: 186.91403198242188
y: 203.85464477539062
z: -0.27099087834358215
visibility: 0.9996717572212219
","x: 185.97059631347656
y: 203.4487762451172
z: -0.2710229456424713
visibility: 0.9995378851890564
","x: 185.10089111328125
y: 202.94761657714844
z: -0.27105748653411865
visibility: 0.9995332360267639
","x: 199.1305389404297
y: 201.2022247314453
z: -0.23269875347614288
visibility: 0.9998170137405396
","x: 188.44357299804688
y: 201.63470458984375
z: -0.13606420159339905
visibility: 0.9994795918464661
","x: 192.4730987548828
y: 218.9602508544922
z: -0.2622734308242798
visibility: 0.9999030232429504
","x: 187.99525451660156
y: 218.58026123046875
z: -0.23510527610778809
visibility: 0.9997870326042175
","x: 218.79241943359375
y: 242.1826934814453
z: -0.205903559923172
visibility: 0.9999380707740784
","x: 187.9546661376953
y: 232.14605712890625
z: 0.015313796699047089
visibility: 0.999826967716217
","x: 226.70196533203125
y: 306.4932861328125
z: -0.2645030915737152
visibility: 0.9329010844230652
","x: 172.35281372070312
y: 251.83828735351562
z: 0.03614228218793869
visibility: 0.4697023034095764
","x: 198.15269470214844
y: 312.04388427734375
z: -0.3126794695854187
visibility: 0.9544745683670044
","x: 171.96900939941406
y: 253.12387084960938
z: -0.10221151262521744
visibility: 0.5157545208930969
","x: 191.73291015625
y: 312.31561279296875
z: -0.34151360392570496
visibility: 0.912669837474823
","x: 171.3427276611328
y: 254.90597534179688
z: -0.12521283328533173
visibility: 0.48637351393699646
","x: 190.03199768066406
y: 300.6397705078125
z: -0.33742815256118774
visibility: 0.9140663743019104
","x: 174.35792541503906
y: 248.5252227783203
z: -0.13896110653877258
visibility: 0.49333128333091736
","x: 191.9935302734375
y: 300.118896484375
z: -0.3082185685634613
visibility: 0.8720273375511169
","x: 175.57127380371094
y: 249.65176391601562
z: -0.11343374103307724
visibility: 0.47088631987571716
","x: 222.75790405273438
y: 353.4391784667969
z: -0.06137120723724365
visibility: 0.999488115310669
","x: 200.65260314941406
y: 353.9868469238281
z: 0.06136178970336914
visibility: 0.9997878670692444
","x: 233.27761840820312
y: 435.7724304199219
z: -0.08118554949760437
visibility: 0.9952654838562012
","x: 189.926513671875
y: 428.33062744140625
z: -0.09962420165538788
visibility: 0.9982253909111023
","x: 249.88546752929688
y: 499.20697021484375
z: 0.08720915019512177
visibility: 0.9958481192588806
","x: 209.5509796142578
y: 505.815673828125
z: 0.06415560841560364
visibility: 0.99839848279953
","x: 252.50247192382812
y: 508.0120849609375
z: 0.09616724401712418
visibility: 0.9458891153335571
","x: 216.94561767578125
y: 516.3532104492188
z: 0.06973965466022491
visibility: 0.9713656306266785
","x: 249.58956909179688
y: 528.1953125
z: -0.035536084324121475
visibility: 0.9935732483863831
","x: 195.71380615234375
y: 532.9193725585938
z: -0.023785388097167015
visibility: 0.9966275691986084
",,,,,,,,,,,,,,,,,,,,,,,,,,,,,,,,,,,,,,,,,,
18,"x: 187.82818603515625
y: 213.0130157470703
z: -0.3788795471191406
visibility: 0.9998781681060791
","x: 190.28826904296875
y: 205.01614379882812
z: -0.38726645708084106
visibility: 0.9997595548629761
","x: 191.89044189453125
y: 204.70079040527344
z: -0.38726896047592163
visibility: 0.9997674822807312
","x: 193.4989013671875
y: 204.20584106445312
z: -0.38739094138145447
visibility: 0.9997916221618652
","x: 186.85353088378906
y: 204.63555908203125
z: -0.36421409249305725
visibility: 0.9996559023857117
","x: 186.11228942871094
y: 204.10316467285156
z: -0.36426183581352234
visibility: 0.9995178580284119
","x: 185.3917999267578
y: 203.47879028320312
z: -0.36429113149642944
visibility: 0.9995164275169373
","x: 199.11183166503906
y: 202.5703125
z: -0.34147608280181885
visibility: 0.9998207688331604
","x: 187.93118286132812
y: 202.22647094726562
z: -0.23761038482189178
visibility: 0.9994772672653198
","x: 192.33851623535156
y: 220.3136444091797
z: -0.35433703660964966
visibility: 0.999904990196228
","x: 188.3748321533203
y: 219.11154174804688
z: -0.32494014501571655
visibility: 0.9997948408126831
","x: 218.69326782226562
y: 242.50384521484375
z: -0.3003256320953369
visibility: 0.9999414086341858
","x: 186.96961975097656
y: 230.25372314453125
z: -0.06834419816732407
visibility: 0.9998388886451721
","x: 228.706787109375
y: 308.2882385253906
z: -0.35467207431793213
visibility: 0.9395137429237366
","x: 166.52867126464844
y: 226.2582244873047
z: 0.06533225625753403
visibility: 0.5090045928955078
","x: 202.3813934326172
y: 327.6075744628906
z: -0.4038783609867096
visibility: 0.9584795832633972
","x: 157.85968017578125
y: 238.42408752441406
z: 0.10876818746328354
visibility: 0.5504823923110962
","x: 194.94219970703125
y: 330.53192138671875
z: -0.4369312822818756
visibility: 0.9196988344192505
","x: 155.47573852539062
y: 248.43984985351562
z: 0.10411874949932098
visibility: 0.5149649381637573
","x: 192.6353759765625
y: 319.81298828125
z: -0.4391478896141052
visibility: 0.9208982586860657
","x: 159.9754638671875
y: 248.24073791503906
z: 0.07755769789218903
visibility: 0.5230429172515869
","x: 194.68858337402344
y: 318.0626525878906
z: -0.4025142192840576
visibility: 0.8810515403747559
","x: 161.78720092773438
y: 246.8962860107422
z: 0.09651175141334534
visibility: 0.5032567381858826
","x: 219.89309692382812
y: 352.5907897949219
z: -0.06748513877391815
visibility: 0.9994878172874451
","x: 198.3625030517578
y: 353.3641357421875
z: 0.0675143226981163
visibility: 0.9997973442077637
","x: 222.27581787109375
y: 436.4833984375
z: -0.043363314121961594
visibility: 0.9950902462005615
","x: 190.18270874023438
y: 432.02825927734375
z: -0.07426396012306213
visibility: 0.9980162382125854
","x: 238.48411560058594
y: 499.40618896484375
z: 0.18795126676559448
visibility: 0.9958934783935547
","x: 209.49856567382812
y: 505.8916931152344
z: 0.13403001427650452
visibility: 0.9981920123100281
","x: 241.9813232421875
y: 507.5638122558594
z: 0.20398712158203125
visibility: 0.9413426518440247
","x: 216.73223876953125
y: 516.3141479492188
z: 0.14640316367149353
visibility: 0.9721348285675049
","x: 236.70814514160156
y: 532.13916015625
z: 0.08011171221733093
visibility: 0.9935910701751709
","x: 195.44772338867188
y: 533.3009643554688
z: 0.04151659831404686
visibility: 0.9965208768844604
",,,,,,,,,,,,,,,,,,,,,,,,,,,,,,,,,,,,,,,,,,
19,"x: 189.63400268554688
y: 212.6526641845703
z: -0.4392235279083252
visibility: 0.9998871088027954
","x: 191.73336791992188
y: 204.77455139160156
z: -0.44284868240356445
visibility: 0.9997750520706177
","x: 193.44232177734375
y: 204.32493591308594
z: -0.44284120202064514
visibility: 0.999782919883728
","x: 195.36521911621094
y: 203.5811767578125
z: -0.4429585933685303
visibility: 0.9998062252998352
","x: 188.08624267578125
y: 204.5940399169922
z: -0.4225141406059265
visibility: 0.9996777772903442
","x: 187.14730834960938
y: 204.18392944335938
z: -0.4225802421569824
visibility: 0.9995469450950623
","x: 186.2167510986328
y: 203.7107696533203
z: -0.42260846495628357
visibility: 0.9995457530021667
","x: 200.9936981201172
y: 201.64862060546875
z: -0.3718859553337097
visibility: 0.9998352527618408
","x: 187.2740936279297
y: 202.4667510986328
z: -0.2807740271091461
visibility: 0.9995132088661194
","x: 193.67784118652344
y: 219.98252868652344
z: -0.40493789315223694
visibility: 0.9999127984046936
","x: 189.68222045898438
y: 219.1412353515625
z: -0.37922829389572144
visibility: 0.9998123645782471
","x: 218.74636840820312
y: 241.0973358154297
z: -0.3203561007976532
visibility: 0.9999462962150574
","x: 184.43505859375
y: 226.65252685546875
z: -0.09056760370731354
visibility: 0.9998522400856018
","x: 229.88356018066406
y: 307.43841552734375
z: -0.3677869439125061
visibility: 0.9455134272575378
","x: 163.9477996826172
y: 219.64895629882812
z: 0.06571308523416519
visibility: 0.5516597628593445
","x: 205.57305908203125
y: 338.09808349609375
z: -0.4374484419822693
visibility: 0.9623658061027527
","x: 147.69046020507812
y: 231.6017303466797
z: 0.059720009565353394
visibility: 0.5892419815063477
","x: 197.60430908203125
y: 347.8470458984375
z: -0.4734761714935303
visibility: 0.9268459677696228
","x: 144.4676055908203
y: 241.26486206054688
z: 0.04941420257091522
visibility: 0.5510603785514832
","x: 196.97463989257812
y: 338.2713623046875
z: -0.48392415046691895
visibility: 0.9279256463050842
","x: 148.02218627929688
y: 241.68902587890625
z: 0.019526710733771324
visibility: 0.5596557259559631
","x: 198.6140899658203
y: 334.9276123046875
z: -0.4394416809082031
visibility: 0.8910139203071594
","x: 150.1840057373047
y: 240.07154846191406
z: 0.045147914439439774
visibility: 0.5420096516609192
","x: 219.3669891357422
y: 351.4845275878906
z: -0.06834808737039566
visibility: 0.9995049834251404
","x: 197.28268432617188
y: 352.2616271972656
z: 0.06839890778064728
visibility: 0.9998084306716919
","x: 213.0256805419922
y: 433.92034912109375
z: -0.08029820024967194
visibility: 0.9950799345970154
","x: 189.14646911621094
y: 431.37261962890625
z: -0.11591862142086029
visibility: 0.997816264629364
","x: 227.45118713378906
y: 504.02655029296875
z: 0.12881717085838318
visibility: 0.9960554838180542
","x: 208.5094451904297
y: 505.9432678222656
z: 0.0878838375210762
visibility: 0.99798583984375
","x: 230.6763458251953
y: 513.1267700195312
z: 0.14184945821762085
visibility: 0.9408496618270874
","x: 216.2745361328125
y: 516.2775268554688
z: 0.10351572930812836
visibility: 0.9729923605918884
","x: 219.6529998779297
y: 535.9966430664062
z: -0.0007758864667266607
visibility: 0.9937774538993835
","x: 195.2489471435547
y: 533.313720703125
z: -0.023656871169805527
visibility: 0.9964104294776917
",,,,,,,,,,,,,,,,,,,,,,,,,,,,,,,,,,,,,,,,,,
20,"x: 192.116455078125
y: 211.66932678222656
z: -0.4188285768032074
visibility: 0.9998942613601685
","x: 193.9967803955078
y: 203.62112426757812
z: -0.4159429669380188
visibility: 0.9997885227203369
","x: 195.71438598632812
y: 203.14453125
z: -0.4159533977508545
visibility: 0.9997963905334473
","x: 197.56503295898438
y: 202.41578674316406
z: -0.4160890579223633
visibility: 0.9998190402984619
","x: 190.29493713378906
y: 203.43931579589844
z: -0.40143853425979614
visibility: 0.9996983408927917
","x: 189.35293579101562
y: 203.01165771484375
z: -0.40153202414512634
visibility: 0.9995746612548828
","x: 188.4243621826172
y: 202.54971313476562
z: -0.4015561640262604
visibility: 0.9995723962783813
","x: 202.4153594970703
y: 200.64816284179688
z: -0.3254478871822357
visibility: 0.9998484253883362
","x: 188.97828674316406
y: 201.50071716308594
z: -0.2631634473800659
visibility: 0.9995396733283997
","x: 195.82394409179688
y: 218.82627868652344
z: -0.3788035809993744
visibility: 0.9999191761016846
","x: 191.68125915527344
y: 217.9586639404297
z: -0.3615230917930603
visibility: 0.9998260140419006
","x: 219.56748962402344
y: 241.88499450683594
z: -0.28532320261001587
visibility: 0.9999503493309021
","x: 183.27725219726562
y: 226.06626892089844
z: -0.09163542091846466
visibility: 0.9998612403869629
","x: 232.3863983154297
y: 303.0719299316406
z: -0.3488685190677643
visibility: 0.9509308338165283
","x: 161.68063354492188
y: 215.972900390625
z: -0.0947541818022728
visibility: 0.5900057554244995
","x: 214.22604370117188
y: 339.35382080078125
z: -0.4229944348335266
visibility: 0.9658729434013367
","x: 142.16458129882812
y: 227.32290649414062
z: -0.28634145855903625
visibility: 0.624963104724884
","x: 209.39068603515625
y: 351.59735107421875
z: -0.45741766691207886
visibility: 0.9332427978515625
","x: 136.92507934570312
y: 236.154052734375
z: -0.3187858462333679
visibility: 0.5868144631385803
","x: 204.32235717773438
y: 343.98876953125
z: -0.46775421500205994
visibility: 0.9342288970947266
","x: 140.28309631347656
y: 236.9439697265625
z: -0.34387949109077454
visibility: 0.595377504825592
","x: 205.63873291015625
y: 339.7861022949219
z: -0.4253186285495758
visibility: 0.9001002907752991
","x: 142.8651885986328
y: 235.54696655273438
z: -0.30372682213783264
visibility: 0.5797889828681946
","x: 218.13072204589844
y: 351.1656494140625
z: -0.06819432973861694
visibility: 0.9994996190071106
","x: 196.73617553710938
y: 351.81201171875
z: 0.06822114437818527
visibility: 0.9998075366020203
","x: 203.5247344970703
y: 432.96527099609375
z: -0.10557738691568375
visibility: 0.9927524924278259
","x: 188.79322814941406
y: 430.689697265625
z: -0.12536266446113586
visibility: 0.9853466153144836
","x: 217.14599609375
y: 507.96490478515625
z: -0.008635636419057846
visibility: 0.9940987825393677
","x: 208.52261352539062
y: 508.4733581542969
z: -0.011996916495263577
visibility: 0.9902950525283813
","x: 222.123291015625
y: 519.7455444335938
z: -0.0066080717369914055
visibility: 0.9347288012504578
","x: 216.2120361328125
y: 521.4365844726562
z: -0.008773880079388618
visibility: 0.9633097648620605
","x: 204.23281860351562
y: 535.2575073242188
z: -0.12599684298038483
visibility: 0.9909517168998718
","x: 194.4027557373047
y: 533.1261596679688
z: -0.12457015365362167
visibility: 0.9899381995201111
",,,,,,,,,,,,,,,,,,,,,,,,,,,,,,,,,,,,,,,,,,
21,"x: 193.5413818359375
y: 210.6169891357422
z: -0.35375067591667175
visibility: 0.9999029040336609
","x: 195.52536010742188
y: 202.56640625
z: -0.3508717715740204
visibility: 0.999805212020874
","x: 197.11495971679688
y: 202.4641571044922
z: -0.35086554288864136
visibility: 0.9998121857643127
","x: 198.8769989013672
y: 202.315185546875
z: -0.35094910860061646
visibility: 0.9998334646224976
","x: 191.8430633544922
y: 202.00125122070312
z: -0.335750550031662
visibility: 0.9997225999832153
","x: 190.84774780273438
y: 201.63687133789062
z: -0.3358387351036072
visibility: 0.9996088147163391
","x: 189.91342163085938
y: 201.3468017578125
z: -0.3358446955680847
visibility: 0.999606728553772
","x: 203.595458984375
y: 199.16586303710938
z: -0.27580827474594116
visibility: 0.9998614192008972
","x: 190.4422149658203
y: 200.88836669921875
z: -0.20590528845787048
visibility: 0.999570906162262
","x: 197.29754638671875
y: 217.82492065429688
z: -0.31863826513290405
visibility: 0.9999260306358337
","x: 192.7642059326172
y: 217.73220825195312
z: -0.3006322681903839
visibility: 0.9998401403427124
","x: 221.44406127929688
y: 242.07528686523438
z: -0.24361924827098846
visibility: 0.9999544620513916
","x: 182.90872192382812
y: 222.775634765625
z: -0.05737964063882828
visibility: 0.9998700022697449
","x: 239.61058044433594
y: 299.14251708984375
z: -0.3032439649105072
visibility: 0.9558188319206238
","x: 161.4547576904297
y: 212.16729736328125
z: -0.1098761335015297
visibility: 0.6270352602005005
","x: 221.3091278076172
y: 337.670654296875
z: -0.3646745979785919
visibility: 0.969123899936676
","x: 136.788330078125
y: 216.41741943359375
z: -0.3468053936958313
visibility: 0.6595999598503113
","x: 216.4619140625
y: 349.7933654785156
z: -0.3962753415107727
visibility: 0.9392414093017578
","x: 129.79673767089844
y: 224.39520263671875
z: -0.3869636654853821
visibility: 0.6225413680076599
","x: 211.6649627685547
y: 340.73699951171875
z: -0.40256038308143616
visibility: 0.9401262402534485
","x: 132.8737335205078
y: 225.98553466796875
z: -0.4116213917732239
visibility: 0.6307529807090759
","x: 212.94190979003906
y: 336.8472900390625
z: -0.36528080701828003
visibility: 0.9088620543479919
","x: 135.92123413085938
y: 225.00704956054688
z: -0.36568576097488403
visibility: 0.6168892979621887
","x: 217.27401733398438
y: 348.5435485839844
z: -0.07048378884792328
visibility: 0.9995128512382507
","x: 196.8376007080078
y: 347.365234375
z: 0.07045955955982208
visibility: 0.9998084306716919
","x: 198.1891632080078
y: 425.53277587890625
z: -0.13356181979179382
visibility: 0.9884913563728333
","x: 187.3524627685547
y: 420.4775390625
z: -0.1356404572725296
visibility: 0.9646838307380676
","x: 205.90438842773438
y: 507.0861511230469
z: -0.06852313131093979
visibility: 0.991266667842865
","x: 207.5554656982422
y: 503.5096740722656
z: -0.051464490592479706
visibility: 0.9810433983802795
","x: 212.32623291015625
y: 521.9119873046875
z: -0.0691436231136322
visibility: 0.9279826283454895
","x: 216.1598663330078
y: 520.5987548828125
z: -0.05010388419032097
visibility: 0.9558529853820801
","x: 188.49969482421875
y: 534.3052978515625
z: -0.17996875941753387
visibility: 0.9874588251113892
","x: 191.40408325195312
y: 529.4268188476562
z: -0.15423116087913513
visibility: 0.9834620356559753
",,,,,,,,,,,,,,,,,,,,,,,,,,,,,,,,,,,,,,,,,,
22,"x: 194.31797790527344
y: 207.97509765625
z: -0.3543395400047302
visibility: 0.999911367893219
","x: 195.84713745117188
y: 199.7039794921875
z: -0.349772185087204
visibility: 0.9998217821121216
","x: 197.21119689941406
y: 199.62765502929688
z: -0.349755197763443
visibility: 0.9998277425765991
","x: 199.23915100097656
y: 199.67161560058594
z: -0.3498303294181824
visibility: 0.9998478293418884
","x: 192.70655822753906
y: 199.65985107421875
z: -0.33450132608413696
visibility: 0.9997467994689941
","x: 191.67941284179688
y: 199.4991455078125
z: -0.33460938930511475
visibility: 0.9996424913406372
","x: 190.71240234375
y: 199.2639923095703
z: -0.3345866799354553
visibility: 0.9996412396430969
","x: 204.3848876953125
y: 198.7940216064453
z: -0.26815924048423767
visibility: 0.9998736381530762
","x: 191.115478515625
y: 199.92919921875
z: -0.20128540694713593
visibility: 0.9996015429496765
","x: 198.1572723388672
y: 216.52371215820312
z: -0.318912148475647
visibility: 0.9999323487281799
","x: 193.3922576904297
y: 216.135986328125
z: -0.3003588914871216
visibility: 0.9998531937599182
","x: 222.9693145751953
y: 240.9151611328125
z: -0.24189750850200653
visibility: 0.9999576807022095
","x: 182.595458984375
y: 220.1788330078125
z: -0.059190988540649414
visibility: 0.9998732209205627
","x: 250.85806274414062
y: 288.1756896972656
z: -0.3086812496185303
visibility: 0.9602218866348267
","x: 156.97438049316406
y: 206.51397705078125
z: -0.11875356733798981
visibility: 0.6621046662330627
","x: 232.8679962158203
y: 330.795654296875
z: -0.3692179322242737
visibility: 0.9719527959823608
","x: 130.27728271484375
y: 208.12750244140625
z: -0.34305766224861145
visibility: 0.6902245879173279
","x: 228.3411865234375
y: 342.8976745605469
z: -0.40132951736450195
visibility: 0.9441219568252563
","x: 122.6814956665039
y: 216.28256225585938
z: -0.38492104411125183
visibility: 0.6527153253555298
","x: 224.3437957763672
y: 335.9761962890625
z: -0.40858688950538635
visibility: 0.9448893666267395
","x: 124.92447662353516
y: 217.69674682617188
z: -0.40669065713882446
visibility: 0.660744845867157
","x: 225.2069091796875
y: 332.0954895019531
z: -0.3704107999801636
visibility: 0.9159846305847168
","x: 127.98880767822266
y: 216.17196655273438
z: -0.3610188364982605
visibility: 0.6488077640533447
","x: 215.97152709960938
y: 345.13067626953125
z: -0.07290909439325333
visibility: 0.9995197653770447
","x: 196.21241760253906
y: 341.0890197753906
z: 0.07288692891597748
visibility: 0.9998107552528381
","x: 191.96441650390625
y: 418.4521179199219
z: -0.13324572145938873
visibility: 0.9858071804046631
","x: 185.67974853515625
y: 414.3867492675781
z: -0.15169605612754822
visibility: 0.9565716981887817
","x: 181.3323211669922
y: 506.01324462890625
z: -0.06987606734037399
visibility: 0.9907941222190857
","x: 206.9671630859375
y: 503.5478210449219
z: -0.08149453997612
visibility: 0.9794290661811829
","x: 180.7838897705078
y: 520.412109375
z: -0.07062841951847076
visibility: 0.9291867613792419
","x: 216.1134796142578
y: 520.0645141601562
z: -0.08125676214694977
visibility: 0.9546693563461304
","x: 158.4752960205078
y: 514.9608764648438
z: -0.1854078620672226
visibility: 0.986809492111206
","x: 192.1307373046875
y: 530.0267944335938
z: -0.19139620661735535
visibility: 0.9819644689559937
","x: 126.84098052978516
y: 205.10572814941406
z: 0.0
","x: 128.47787475585938
y: 208.32379150390625
z: -0.00536082498729229
","x: 128.7996368408203
y: 214.67848205566406
z: -0.008003181777894497
","x: 128.77267456054688
y: 220.89125061035156
z: -0.009946297854185104
","x: 128.53335571289062
y: 225.94677734375
z: -0.011517648585140705
","x: 122.84632873535156
y: 218.96978759765625
z: -0.00542799849063158
","x: 121.9990234375
y: 225.89674377441406
z: -0.008828201331198215
","x: 122.97291564941406
y: 229.61488342285156
z: -0.01031991746276617
","x: 124.41947937011719
y: 231.45681762695312
z: -0.010781539604067802
","x: 120.80924224853516
y: 219.12353515625
z: -0.004336011130362749
","x: 117.8415298461914
y: 225.4523468017578
z: -0.007501878309994936
","x: 117.68722534179688
y: 229.12254333496094
z: -0.00901464931666851
","x: 118.25249481201172
y: 231.32948303222656
z: -0.009724903851747513
","x: 119.85022735595703
y: 218.6971435546875
z: -0.003817288437858224
","x: 117.33980560302734
y: 224.4016876220703
z: -0.006987257394939661
","x: 116.6844253540039
y: 227.6120147705078
z: -0.008235624060034752
","x: 116.46064758300781
y: 230.0928955078125
z: -0.008646922186017036
","x: 119.64641571044922
y: 217.51889038085938
z: -0.0038107552099972963
","x: 116.74392700195312
y: 221.25228881835938
z: -0.006296956446021795
","x: 115.06697082519531
y: 223.38011169433594
z: -0.007366867270320654
","x: 113.992431640625
y: 225.11888122558594
z: -0.007699938956648111
",,,,,,,,,,,,,,,,,,,,,
23,"x: 194.31797790527344
y: 207.97509765625
z: -0.3543395400047302
visibility: 0.999911367893219
","x: 195.84713745117188
y: 199.7039794921875
z: -0.349772185087204
visibility: 0.9998217821121216
","x: 197.21119689941406
y: 199.62765502929688
z: -0.349755197763443
visibility: 0.9998277425765991
","x: 199.23915100097656
y: 199.67161560058594
z: -0.3498303294181824
visibility: 0.9998478293418884
","x: 192.70655822753906
y: 199.65985107421875
z: -0.33450132608413696
visibility: 0.9997467994689941
","x: 191.67941284179688
y: 199.4991455078125
z: -0.33460938930511475
visibility: 0.9996424913406372
","x: 190.71240234375
y: 199.2639923095703
z: -0.3345866799354553
visibility: 0.9996412396430969
","x: 204.3848876953125
y: 198.7940216064453
z: -0.26815924048423767
visibility: 0.9998736381530762
","x: 191.115478515625
y: 199.92919921875
z: -0.20128540694713593
visibility: 0.9996015429496765
","x: 198.1572723388672
y: 216.52371215820312
z: -0.318912148475647
visibility: 0.9999323487281799
","x: 193.3922576904297
y: 216.135986328125
z: -0.3003588914871216
visibility: 0.9998531937599182
","x: 222.9693145751953
y: 240.9151611328125
z: -0.24189750850200653
visibility: 0.9999576807022095
","x: 182.595458984375
y: 220.1788330078125
z: -0.059190988540649414
visibility: 0.9998732209205627
","x: 250.85806274414062
y: 288.1756896972656
z: -0.3086812496185303
visibility: 0.9602218866348267
","x: 156.97438049316406
y: 206.51397705078125
z: -0.11875356733798981
visibility: 0.6621046662330627
","x: 232.8679962158203
y: 330.795654296875
z: -0.3692179322242737
visibility: 0.9719527959823608
","x: 130.27728271484375
y: 208.12750244140625
z: -0.34305766224861145
visibility: 0.6902245879173279
","x: 228.3411865234375
y: 342.8976745605469
z: -0.40132951736450195
visibility: 0.9441219568252563
","x: 122.6814956665039
y: 216.28256225585938
z: -0.38492104411125183
visibility: 0.6527153253555298
","x: 224.3437957763672
y: 335.9761962890625
z: -0.40858688950538635
visibility: 0.9448893666267395
","x: 124.92447662353516
y: 217.69674682617188
z: -0.40669065713882446
visibility: 0.660744845867157
","x: 225.2069091796875
y: 332.0954895019531
z: -0.3704107999801636
visibility: 0.9159846305847168
","x: 127.98880767822266
y: 216.17196655273438
z: -0.3610188364982605
visibility: 0.6488077640533447
","x: 215.97152709960938
y: 345.13067626953125
z: -0.07290909439325333
visibility: 0.9995197653770447
","x: 196.21241760253906
y: 341.0890197753906
z: 0.07288692891597748
visibility: 0.9998107552528381
","x: 191.96441650390625
y: 418.4521179199219
z: -0.13324572145938873
visibility: 0.9858071804046631
","x: 185.67974853515625
y: 414.3867492675781
z: -0.15169605612754822
visibility: 0.9565716981887817
","x: 181.3323211669922
y: 506.01324462890625
z: -0.06987606734037399
visibility: 0.9907941222190857
","x: 206.9671630859375
y: 503.5478210449219
z: -0.08149453997612
visibility: 0.9794290661811829
","x: 180.7838897705078
y: 520.412109375
z: -0.07062841951847076
visibility: 0.9291867613792419
","x: 216.1134796142578
y: 520.0645141601562
z: -0.08125676214694977
visibility: 0.9546693563461304
","x: 158.4752960205078
y: 514.9608764648438
z: -0.1854078620672226
visibility: 0.986809492111206
","x: 192.1307373046875
y: 530.0267944335938
z: -0.19139620661735535
visibility: 0.9819644689559937
","x: 126.84098052978516
y: 205.10572814941406
z: 0.0
","x: 128.47787475585938
y: 208.32379150390625
z: -0.00536082498729229
","x: 128.7996368408203
y: 214.67848205566406
z: -0.008003181777894497
","x: 128.77267456054688
y: 220.89125061035156
z: -0.009946297854185104
","x: 128.53335571289062
y: 225.94677734375
z: -0.011517648585140705
","x: 122.84632873535156
y: 218.96978759765625
z: -0.00542799849063158
","x: 121.9990234375
y: 225.89674377441406
z: -0.008828201331198215
","x: 122.97291564941406
y: 229.61488342285156
z: -0.01031991746276617
","x: 124.41947937011719
y: 231.45681762695312
z: -0.010781539604067802
","x: 120.80924224853516
y: 219.12353515625
z: -0.004336011130362749
","x: 117.8415298461914
y: 225.4523468017578
z: -0.007501878309994936
","x: 117.68722534179688
y: 229.12254333496094
z: -0.00901464931666851
","x: 118.25249481201172
y: 231.32948303222656
z: -0.009724903851747513
","x: 119.85022735595703
y: 218.6971435546875
z: -0.003817288437858224
","x: 117.33980560302734
y: 224.4016876220703
z: -0.006987257394939661
","x: 116.6844253540039
y: 227.6120147705078
z: -0.008235624060034752
","x: 116.46064758300781
y: 230.0928955078125
z: -0.008646922186017036
","x: 119.64641571044922
y: 217.51889038085938
z: -0.0038107552099972963
","x: 116.74392700195312
y: 221.25228881835938
z: -0.006296956446021795
","x: 115.06697082519531
y: 223.38011169433594
z: -0.007366867270320654
","x: 113.992431640625
y: 225.11888122558594
z: -0.007699938956648111
",,,,,,,,,,,,,,,,,,,,,
24,"x: 194.57740783691406
y: 206.047607421875
z: -0.39753854274749756
visibility: 0.9999198913574219
","x: 196.83966064453125
y: 197.67469787597656
z: -0.3917692303657532
visibility: 0.9998387098312378
","x: 198.44261169433594
y: 197.66387939453125
z: -0.3917234539985657
visibility: 0.9998440146446228
","x: 200.53424072265625
y: 197.82745361328125
z: -0.3918047249317169
visibility: 0.9998623728752136
","x: 193.06396484375
y: 197.55490112304688
z: -0.37781766057014465
visibility: 0.9997711181640625
","x: 192.18276977539062
y: 197.3495635986328
z: -0.37793785333633423
visibility: 0.9996767640113831
","x: 191.24951171875
y: 196.95428466796875
z: -0.3778970539569855
visibility: 0.9996756911277771
","x: 204.55882263183594
y: 198.46253967285156
z: -0.2985718548297882
visibility: 0.9998859167098999
","x: 191.6634979248047
y: 197.47312927246094
z: -0.23882350325584412
visibility: 0.9996376037597656
","x: 198.55465698242188
y: 215.45721435546875
z: -0.3583809733390808
visibility: 0.9999389052391052
","x: 193.8311767578125
y: 214.40618896484375
z: -0.34150245785713196
visibility: 0.9998669624328613
","x: 223.43577575683594
y: 239.55264282226562
z: -0.2626405358314514
visibility: 0.9999613165855408
","x: 182.05453491210938
y: 217.60968017578125
z: -0.0948980301618576
visibility: 0.9998802542686462
","x: 256.23095703125
y: 279.00445556640625
z: -0.3187553882598877
visibility: 0.9641917943954468
","x: 155.04855346679688
y: 203.631103515625
z: -0.18640166521072388
visibility: 0.6944119930267334
","x: 238.37547302246094
y: 326.8372802734375
z: -0.3651457130908966
visibility: 0.9745821356773376
","x: 129.12669372558594
y: 204.6903839111328
z: -0.44417229294776917
visibility: 0.7189894318580627
","x: 233.6293487548828
y: 338.571044921875
z: -0.3947254717350006
visibility: 0.9488067626953125
","x: 120.86531829833984
y: 213.1118621826172
z: -0.4883665144443512
visibility: 0.6826815605163574
","x: 229.89810180664062
y: 332.06060791015625
z: -0.4008374810218811
visibility: 0.9494840502738953
","x: 122.82430267333984
y: 215.2298583984375
z: -0.5108706951141357
visibility: 0.6902117133140564
","x: 230.39334106445312
y: 328.5992126464844
z: -0.36518165469169617
visibility: 0.9228664040565491
","x: 126.31161499023438
y: 213.57669067382812
z: -0.4625132083892822
visibility: 0.6797569394111633
","x: 216.461669921875
y: 342.0098571777344
z: -0.07395962625741959
visibility: 0.9995477795600891
","x: 196.2999725341797
y: 338.5566711425781
z: 0.07390253245830536
visibility: 0.9998143315315247
","x: 187.73623657226562
y: 411.2048034667969
z: -0.15570369362831116
visibility: 0.9861451983451843
","x: 186.4293975830078
y: 413.77783203125
z: -0.06703903526067734
visibility: 0.9484571814537048
","x: 174.87257385253906
y: 502.2923583984375
z: -0.11405172199010849
visibility: 0.9913671016693115
","x: 207.05712890625
y: 503.58148193359375
z: -0.004181267693638802
visibility: 0.9788146615028381
","x: 175.21812438964844
y: 518.6725463867188
z: -0.11658600717782974
visibility: 0.9342688918113708
","x: 216.0802764892578
y: 519.753173828125
z: -0.011189687997102737
visibility: 0.9535850286483765
","x: 151.74325561523438
y: 511.9093017578125
z: -0.23356696963310242
visibility: 0.9875493049621582
","x: 192.62550354003906
y: 531.2702026367188
z: -0.102059505879879
visibility: 0.980793833732605
","x: 127.07447814941406
y: 204.85028076171875
z: 0.0
","x: 127.52125549316406
y: 210.81161499023438
z: -0.0030330291483551264
","x: 126.77668762207031
y: 217.64051818847656
z: -0.004765855148434639
","x: 126.2014389038086
y: 223.79901123046875
z: -0.006219587754458189
","x: 125.60324096679688
y: 228.2144012451172
z: -0.0073649282567203045
","x: 120.57892608642578
y: 216.3622283935547
z: -0.002223224611952901
","x: 119.36579132080078
y: 222.45237731933594
z: -0.005402459762990475
","x: 120.15778350830078
y: 227.9584503173828
z: -0.007659558672457933
","x: 121.75104522705078
y: 231.28656005859375
z: -0.008682183921337128
","x: 119.1058120727539
y: 216.11203002929688
z: -0.0019482608186081052
","x: 116.39427947998047
y: 222.45791625976562
z: -0.005757462233304977
","x: 117.27948760986328
y: 227.46365356445312
z: -0.00806503463536501
","x: 118.8814697265625
y: 230.10134887695312
z: -0.00897225271910429
","x: 118.3104248046875
y: 215.72903442382812
z: -0.002092825248837471
","x: 115.08863067626953
y: 221.7646484375
z: -0.005140821915119886
","x: 114.65348815917969
y: 226.5533447265625
z: -0.006276911590248346
","x: 114.91240692138672
y: 229.35427856445312
z: -0.006511185318231583
","x: 118.09722137451172
y: 214.70486450195312
z: -0.002618347993120551
","x: 114.82164001464844
y: 218.45132446289062
z: -0.004604536574333906
","x: 112.84440612792969
y: 221.1605682373047
z: -0.005271144211292267
","x: 111.38970184326172
y: 222.7430877685547
z: -0.005373284686356783
",,,,,,,,,,,,,,,,,,,,,
25,"x: 194.57740783691406
y: 206.047607421875
z: -0.39753854274749756
visibility: 0.9999198913574219
","x: 196.83966064453125
y: 197.67469787597656
z: -0.3917692303657532
visibility: 0.9998387098312378
","x: 198.44261169433594
y: 197.66387939453125
z: -0.3917234539985657
visibility: 0.9998440146446228
","x: 200.53424072265625
y: 197.82745361328125
z: -0.3918047249317169
visibility: 0.9998623728752136
","x: 193.06396484375
y: 197.55490112304688
z: -0.37781766057014465
visibility: 0.9997711181640625
","x: 192.18276977539062
y: 197.3495635986328
z: -0.37793785333633423
visibility: 0.9996767640113831
","x: 191.24951171875
y: 196.95428466796875
z: -0.3778970539569855
visibility: 0.9996756911277771
","x: 204.55882263183594
y: 198.46253967285156
z: -0.2985718548297882
visibility: 0.9998859167098999
","x: 191.6634979248047
y: 197.47312927246094
z: -0.23882350325584412
visibility: 0.9996376037597656
","x: 198.55465698242188
y: 215.45721435546875
z: -0.3583809733390808
visibility: 0.9999389052391052
","x: 193.8311767578125
y: 214.40618896484375
z: -0.34150245785713196
visibility: 0.9998669624328613
","x: 223.43577575683594
y: 239.55264282226562
z: -0.2626405358314514
visibility: 0.9999613165855408
","x: 182.05453491210938
y: 217.60968017578125
z: -0.0948980301618576
visibility: 0.9998802542686462
","x: 256.23095703125
y: 279.00445556640625
z: -0.3187553882598877
visibility: 0.9641917943954468
","x: 155.04855346679688
y: 203.631103515625
z: -0.18640166521072388
visibility: 0.6944119930267334
","x: 238.37547302246094
y: 326.8372802734375
z: -0.3651457130908966
visibility: 0.9745821356773376
","x: 129.12669372558594
y: 204.6903839111328
z: -0.44417229294776917
visibility: 0.7189894318580627
","x: 233.6293487548828
y: 338.571044921875
z: -0.3947254717350006
visibility: 0.9488067626953125
","x: 120.86531829833984
y: 213.1118621826172
z: -0.4883665144443512
visibility: 0.6826815605163574
","x: 229.89810180664062
y: 332.06060791015625
z: -0.4008374810218811
visibility: 0.9494840502738953
","x: 122.82430267333984
y: 215.2298583984375
z: -0.5108706951141357
visibility: 0.6902117133140564
","x: 230.39334106445312
y: 328.5992126464844
z: -0.36518165469169617
visibility: 0.9228664040565491
","x: 126.31161499023438
y: 213.57669067382812
z: -0.4625132083892822
visibility: 0.6797569394111633
","x: 216.461669921875
y: 342.0098571777344
z: -0.07395962625741959
visibility: 0.9995477795600891
","x: 196.2999725341797
y: 338.5566711425781
z: 0.07390253245830536
visibility: 0.9998143315315247
","x: 187.73623657226562
y: 411.2048034667969
z: -0.15570369362831116
visibility: 0.9861451983451843
","x: 186.4293975830078
y: 413.77783203125
z: -0.06703903526067734
visibility: 0.9484571814537048
","x: 174.87257385253906
y: 502.2923583984375
z: -0.11405172199010849
visibility: 0.9913671016693115
","x: 207.05712890625
y: 503.58148193359375
z: -0.004181267693638802
visibility: 0.9788146615028381
","x: 175.21812438964844
y: 518.6725463867188
z: -0.11658600717782974
visibility: 0.9342688918113708
","x: 216.0802764892578
y: 519.753173828125
z: -0.011189687997102737
visibility: 0.9535850286483765
","x: 151.74325561523438
y: 511.9093017578125
z: -0.23356696963310242
visibility: 0.9875493049621582
","x: 192.62550354003906
y: 531.2702026367188
z: -0.102059505879879
visibility: 0.980793833732605
","x: 127.07447814941406
y: 204.85028076171875
z: 0.0
","x: 127.52125549316406
y: 210.81161499023438
z: -0.0030330291483551264
","x: 126.77668762207031
y: 217.64051818847656
z: -0.004765855148434639
","x: 126.2014389038086
y: 223.79901123046875
z: -0.006219587754458189
","x: 125.60324096679688
y: 228.2144012451172
z: -0.0073649282567203045
","x: 120.57892608642578
y: 216.3622283935547
z: -0.002223224611952901
","x: 119.36579132080078
y: 222.45237731933594
z: -0.005402459762990475
","x: 120.15778350830078
y: 227.9584503173828
z: -0.007659558672457933
","x: 121.75104522705078
y: 231.28656005859375
z: -0.008682183921337128
","x: 119.1058120727539
y: 216.11203002929688
z: -0.0019482608186081052
","x: 116.39427947998047
y: 222.45791625976562
z: -0.005757462233304977
","x: 117.27948760986328
y: 227.46365356445312
z: -0.00806503463536501
","x: 118.8814697265625
y: 230.10134887695312
z: -0.00897225271910429
","x: 118.3104248046875
y: 215.72903442382812
z: -0.002092825248837471
","x: 115.08863067626953
y: 221.7646484375
z: -0.005140821915119886
","x: 114.65348815917969
y: 226.5533447265625
z: -0.006276911590248346
","x: 114.91240692138672
y: 229.35427856445312
z: -0.006511185318231583
","x: 118.09722137451172
y: 214.70486450195312
z: -0.002618347993120551
","x: 114.82164001464844
y: 218.45132446289062
z: -0.004604536574333906
","x: 112.84440612792969
y: 221.1605682373047
z: -0.005271144211292267
","x: 111.38970184326172
y: 222.7430877685547
z: -0.005373284686356783
",,,,,,,,,,,,,,,,,,,,,
26,"x: 194.8931427001953
y: 203.45620727539062
z: -0.4822530746459961
visibility: 0.9999252557754517
","x: 197.1785430908203
y: 195.1646728515625
z: -0.476541131734848
visibility: 0.9998466968536377
","x: 198.6214599609375
y: 195.135009765625
z: -0.4765036702156067
visibility: 0.9998508095741272
","x: 200.60801696777344
y: 195.2234649658203
z: -0.4766184389591217
visibility: 0.9998691082000732
","x: 193.24673461914062
y: 195.24977111816406
z: -0.4639483094215393
visibility: 0.9997855424880981
","x: 192.15660095214844
y: 195.0838623046875
z: -0.4640901982784271
visibility: 0.9996975064277649
","x: 191.10397338867188
y: 194.68951416015625
z: -0.4641236662864685
visibility: 0.9996983408927917
","x: 204.9628143310547
y: 196.59323120117188
z: -0.37834200263023376
visibility: 0.9998922944068909
","x: 191.18704223632812
y: 195.76666259765625
z: -0.3236950933933258
visibility: 0.9996609687805176
","x: 198.827392578125
y: 212.94427490234375
z: -0.44057220220565796
visibility: 0.9999424815177917
","x: 193.63365173339844
y: 212.12423706054688
z: -0.42513030767440796
visibility: 0.9998752474784851
","x: 223.90740966796875
y: 239.24472045898438
z: -0.3338082432746887
visibility: 0.9999630451202393
","x: 180.62680053710938
y: 217.11627197265625
z: -0.16335371136665344
visibility: 0.9998897910118103
","x: 255.18836975097656
y: 289.86090087890625
z: -0.4117211699485779
visibility: 0.9677504897117615
","x: 155.52320861816406
y: 213.44198608398438
z: -0.18771955370903015
visibility: 0.7236999273300171
","x: 218.69247436523438
y: 325.893798828125
z: -0.5047984719276428
visibility: 0.9768349528312683
","x: 129.73692321777344
y: 223.97067260742188
z: -0.38191407918930054
visibility: 0.7455487251281738
","x: 210.88336181640625
y: 334.7705078125
z: -0.548876166343689
visibility: 0.9528053998947144
","x: 123.48870086669922
y: 240.47976684570312
z: -0.418495237827301
visibility: 0.7111371755599976
","x: 206.5740203857422
y: 328.4721374511719
z: -0.5483459234237671
visibility: 0.9534015655517578
","x: 126.11781311035156
y: 245.87359619140625
z: -0.45251598954200745
visibility: 0.7182265520095825
","x: 208.5838165283203
y: 325.92633056640625
z: -0.5049493312835693
visibility: 0.9285350441932678
","x: 129.12673950195312
y: 242.35577392578125
z: -0.40264958143234253
visibility: 0.7089561820030212
","x: 218.2822723388672
y: 339.9043273925781
z: -0.07244329154491425
visibility: 0.9994592666625977
","x: 197.4382781982422
y: 339.1371154785156
z: 0.07240541279315948
visibility: 0.9997721314430237
","x: 193.64837646484375
y: 413.9553527832031
z: -0.15486347675323486
visibility: 0.9835007190704346
","x: 187.33119201660156
y: 413.7252197265625
z: -0.08310461044311523
visibility: 0.9247491359710693
","x: 201.76657104492188
y: 504.236572265625
z: -0.0776345282793045
visibility: 0.9890668392181396
","x: 206.2690887451172
y: 501.9659118652344
z: -0.003405259922146797
visibility: 0.9647490382194519
","x: 204.1333770751953
y: 520.4956665039062
z: -0.07788020372390747
visibility: 0.9251478910446167
","x: 214.57086181640625
y: 519.5427856445312
z: -0.00852236244827509
visibility: 0.9369088411331177
","x: 186.0169677734375
y: 525.6431884765625
z: -0.19653549790382385
visibility: 0.9842674732208252
","x: 188.24497985839844
y: 527.8911743164062
z: -0.09423369914293289
visibility: 0.9696605205535889
",,,,,,,,,,,,,,,,,,,,,,,,,,,,,,,,,,,,,,,,,,
27,"x: 194.6900634765625
y: 201.11746215820312
z: -0.42603033781051636
visibility: 0.9999301433563232
","x: 197.30030822753906
y: 192.81552124023438
z: -0.42153316736221313
visibility: 0.9998526573181152
","x: 198.90904235839844
y: 192.73199462890625
z: -0.4215009808540344
visibility: 0.9998558759689331
","x: 200.7875518798828
y: 192.75979614257812
z: -0.42156118154525757
visibility: 0.9998729228973389
","x: 192.89187622070312
y: 192.58084106445312
z: -0.40956562757492065
visibility: 0.99979567527771
","x: 191.62045288085938
y: 192.2122802734375
z: -0.40965595841407776
visibility: 0.9997129440307617
","x: 190.3873748779297
y: 191.8184814453125
z: -0.4096795618534088
visibility: 0.9997149705886841
","x: 204.48580932617188
y: 194.4308624267578
z: -0.3272760510444641
visibility: 0.9998968243598938
","x: 189.7069854736328
y: 193.5358428955078
z: -0.2724718153476715
visibility: 0.9996744990348816
","x: 198.14845275878906
y: 210.3858642578125
z: -0.384652316570282
visibility: 0.9999457001686096
","x: 192.61289978027344
y: 209.696044921875
z: -0.3696904480457306
visibility: 0.9998840093612671
","x: 221.39108276367188
y: 239.92791748046875
z: -0.28351426124572754
visibility: 0.9999651908874512
","x: 178.5535430908203
y: 218.13259887695312
z: -0.10403551161289215
visibility: 0.9998989105224609
","x: 232.5590057373047
y: 302.6552429199219
z: -0.34546959400177
visibility: 0.9707871675491333
","x: 155.16604614257812
y: 237.59347534179688
z: -0.11046890169382095
visibility: 0.7444490790367126
","x: 203.4697723388672
y: 322.1446533203125
z: -0.4390011429786682
visibility: 0.9782067537307739
","x: 129.76788330078125
y: 253.96780395507812
z: -0.30111029744148254
visibility: 0.7662340402603149
","x: 196.45327758789062
y: 330.20074462890625
z: -0.47804802656173706
visibility: 0.954882025718689
","x: 122.76570892333984
y: 263.3492126464844
z: -0.3445661664009094
visibility: 0.7310706973075867
","x: 194.8839111328125
y: 325.54351806640625
z: -0.4806339740753174
visibility: 0.9553313851356506
","x: 124.27188110351562
y: 266.21160888671875
z: -0.3280368447303772
visibility: 0.7386484742164612
","x: 196.57603454589844
y: 322.8448791503906
z: -0.4398330748081207
visibility: 0.9307363629341125
","x: 127.29071807861328
y: 264.4283752441406
z: -0.2991935908794403
visibility: 0.7309167385101318
","x: 219.1593017578125
y: 340.3633117675781
z: -0.07005246728658676
visibility: 0.9994736313819885
","x: 197.74478149414062
y: 344.65869140625
z: 0.0698450580239296
visibility: 0.9997840523719788
","x: 215.2243194580078
y: 425.4134826660156
z: -0.08524108678102493
visibility: 0.9850595593452454
","x: 187.37582397460938
y: 426.49908447265625
z: -0.05370713025331497
visibility: 0.9319954514503479
","x: 249.14578247070312
y: 502.2488708496094
