uscmakers/ReverseChoreography/data/1_stairway_to_heaven_led_zeppelin.csv
,NOSE,LEFT_EYE_INNER,LEFT_EYE,LEFT_EYE_OUTER,RIGHT_EYE_INNER,RIGHT_EYE,RIGHT_EYE_OUTER,LEFT_EAR,RIGHT_EAR,MOUTH_LEFT,MOUTH_RIGHT,LEFT_SHOULDER,RIGHT_SHOULDER,LEFT_ELBOW,RIGHT_ELBOW,LEFT_WRIST,RIGHT_WRIST,LEFT_PINKY,RIGHT_PINKY,LEFT_INDEX,RIGHT_INDEX,LEFT_THUMB,RIGHT_THUMB,LEFT_HIP,RIGHT_HIP,LEFT_KNEE,RIGHT_KNEE,LEFT_ANKLE,RIGHT_ANKLE,LEFT_HEEL,RIGHT_HEEL,LEFT_FOOT_INDEX,RIGHT_FOOT_INDEX,WRIST2,THUMB_CPC2,THUMB_MCP2,THUMB_IP2,THUMB_TIP2,INDEX_FINGER_MCP2,INDEX_FINGER_PIP2,INDEX_FINGER_DIP2,INDEX_FINGER_TIP2,MIDDLE_FINGER_MCP2,MIDDLE_FINGER_PIP2,MIDDLE_FINGER_DIP2,MIDDLE_FINGER_TIP2,RING_FINGER_PIP2,RING_FINGER_DIP2,RING_FINGER_TIP2,RING_FINGER_MCP2,PINKY_MCP2,PINKY_PIP2,PINKY_DIP2,PINKY_TIP2,WRIST,THUMB_CPC,THUMB_MCP,THUMB_IP,THUMB_TIP,INDEX_FINGER_MCP,INDEX_FINGER_PIP,INDEX_FINGER_DIP,INDEX_FINGER_TIP,MIDDLE_FINGER_MCP,MIDDLE_FINGER_PIP,MIDDLE_FINGER_DIP,MIDDLE_FINGER_TIP,RING_FINGER_PIP,RING_FINGER_DIP,RING_FINGER_TIP,RING_FINGER_MCP,PINKY_MCP,PINKY_PIP,PINKY_DIP,PINKY_TIP
0,"x: 259.0138854980469
y: 234.78329467773438
z: -0.34815335273742676
visibility: 0.9999724626541138
","x: 260.6842346191406
y: 230.6889190673828
z: -0.34347569942474365
visibility: 0.9999401569366455
","x: 261.3943176269531
y: 230.2134552001953
z: -0.34336963295936584
visibility: 0.9998811483383179
","x: 262.1450500488281
y: 229.54876708984375
z: -0.34334272146224976
visibility: 0.9998594522476196
","x: 257.7471618652344
y: 229.44297790527344
z: -0.354485422372818
visibility: 0.9999821186065674
","x: 256.3419189453125
y: 228.0937957763672
z: -0.35461241006851196
visibility: 0.9999816417694092
","x: 254.902587890625
y: 226.65194702148438
z: -0.3547327518463135
visibility: 0.9999910593032837
","x: 261.6099853515625
y: 221.69898986816406
z: -0.2548467814922333
visibility: 0.9997243285179138
","x: 251.42938232421875
y: 220.48834228515625
z: -0.30758893489837646
visibility: 0.9999960660934448
","x: 258.9143371582031
y: 236.6696014404297
z: -0.3084743320941925
visibility: 0.9998877048492432
","x: 254.9765625
y: 234.73834228515625
z: -0.32378432154655457
visibility: 0.9999803304672241
","x: 265.6731872558594
y: 221.6529083251953
z: -0.12367966026067734
visibility: 0.9997497200965881
","x: 233.58448791503906
y: 243.0010223388672
z: -0.23207049071788788
visibility: 0.9999904632568359
","x: 266.0223083496094
y: 176.2418212890625
z: 0.007509835995733738
visibility: 0.7373027801513672
","x: 210.72962951660156
y: 281.4690246582031
z: -0.20651841163635254
visibility: 0.9957897067070007
","x: 244.3723907470703
y: 206.91763305664062
z: 0.13618934154510498
visibility: 0.21670904755592346
","x: 226.59156799316406
y: 318.03656005859375
z: -0.20927214622497559
visibility: 0.9729194641113281
","x: 239.94927978515625
y: 212.9774169921875
z: 0.14346568286418915
visibility: 0.07820536196231842
","x: 229.5264129638672
y: 329.78973388671875
z: -0.22280879318714142
visibility: 0.9131072163581848
","x: 239.02134704589844
y: 217.01123046875
z: 0.13648909330368042
visibility: 0.07825344800949097
","x: 232.0971221923828
y: 326.2440185546875
z: -0.22954976558685303
visibility: 0.9161150455474854
","x: 240.931884765625
y: 216.0389862060547
z: 0.1332804262638092
visibility: 0.08151386678218842
","x: 231.5594482421875
y: 322.33514404296875
z: -0.208186537027359
visibility: 0.8552756905555725
","x: 264.8819580078125
y: 334.9801025390625
z: 0.030215445905923843
visibility: 0.9999606609344482
","x: 241.04739379882812
y: 336.05230712890625
z: -0.03027195669710636
visibility: 0.9999841451644897
","x: 273.27142333984375
y: 409.1119689941406
z: 0.019073402509093285
visibility: 0.9954085946083069
","x: 223.23660278320312
y: 407.06011962890625
z: -0.07007322460412979
visibility: 0.9980441331863403
","x: 264.54925537109375
y: 476.060791015625
z: 0.17818938195705414
visibility: 0.9947264790534973
","x: 204.8457794189453
y: 472.5887756347656
z: 0.028753865510225296
visibility: 0.9986938834190369
","x: 259.6625671386719
y: 487.4864196777344
z: 0.18906792998313904
visibility: 0.978186309337616
","x: 206.5771026611328
y: 482.9239196777344
z: 0.03514575585722923
visibility: 0.9772673845291138
","x: 275.3244934082031
y: 497.43426513671875
z: 0.10644509643316269
visibility: 0.9908807277679443
","x: 194.5126190185547
y: 501.98687744140625
z: -0.07416116446256638
visibility: 0.9971373081207275
","x: 241.35733032226562
y: 210.70864868164062
z: 0.0
","x: 237.3759307861328
y: 217.87184143066406
z: 0.0013190319295972586
","x: 233.4036865234375
y: 226.49827575683594
z: 0.00016273731307592243
","x: 230.4608917236328
y: 232.74728393554688
z: -0.0015194781590253115
","x: 227.53834533691406
y: 237.0895233154297
z: -0.00312743685208261
","x: 232.5327911376953
y: 227.6151123046875
z: -0.0022159952204674482
","x: 230.65853881835938
y: 236.74481201171875
z: -0.005200983490794897
","x: 229.2696533203125
y: 242.9611053466797
z: -0.006791371386498213
","x: 228.00807189941406
y: 247.89080810546875
z: -0.007849822752177715
","x: 233.86585998535156
y: 226.33224487304688
z: -0.004939370322972536
","x: 232.3612823486328
y: 236.56582641601562
z: -0.008070116862654686
","x: 231.4520263671875
y: 243.76840209960938
z: -0.00907961092889309
","x: 230.74859619140625
y: 249.8391571044922
z: -0.009961250238120556
","x: 236.059814453125
y: 225.10841369628906
z: -0.007548246067017317
","x: 234.96697998046875
y: 234.9680938720703
z: -0.010618955828249454
","x: 234.76930236816406
y: 241.61285400390625
z: -0.010855038650333881
","x: 234.77528381347656
y: 247.0192108154297
z: -0.011001517064869404
","x: 238.8480987548828
y: 223.845703125
z: -0.010094946250319481
","x: 238.08078002929688
y: 231.14073181152344
z: -0.012653768993914127
","x: 237.70819091796875
y: 236.02734375
z: -0.012927795760333538
","x: 237.70648193359375
y: 240.28939819335938
z: -0.012979687191545963
",,,,,,,,,,,,,,,,,,,,,
1,"x: 259.0138854980469
y: 234.78329467773438
z: -0.34815335273742676
visibility: 0.9999724626541138
","x: 260.6842346191406
y: 230.6889190673828
z: -0.34347569942474365
visibility: 0.9999401569366455
","x: 261.3943176269531
y: 230.2134552001953
z: -0.34336963295936584
visibility: 0.9998811483383179
","x: 262.1450500488281
y: 229.54876708984375
z: -0.34334272146224976
visibility: 0.9998594522476196
","x: 257.7471618652344
y: 229.44297790527344
z: -0.354485422372818
visibility: 0.9999821186065674
","x: 256.3419189453125
y: 228.0937957763672
z: -0.35461241006851196
visibility: 0.9999816417694092
","x: 254.902587890625
y: 226.65194702148438
z: -0.3547327518463135
visibility: 0.9999910593032837
","x: 261.6099853515625
y: 221.69898986816406
z: -0.2548467814922333
visibility: 0.9997243285179138
","x: 251.42938232421875
y: 220.48834228515625
z: -0.30758893489837646
visibility: 0.9999960660934448
","x: 258.9143371582031
y: 236.6696014404297
z: -0.3084743320941925
visibility: 0.9998877048492432
","x: 254.9765625
y: 234.73834228515625
z: -0.32378432154655457
visibility: 0.9999803304672241
","x: 265.6731872558594
y: 221.6529083251953
z: -0.12367966026067734
visibility: 0.9997497200965881
","x: 233.58448791503906
y: 243.0010223388672
z: -0.23207049071788788
visibility: 0.9999904632568359
","x: 266.0223083496094
y: 176.2418212890625
z: 0.007509835995733738
visibility: 0.7373027801513672
","x: 210.72962951660156
y: 281.4690246582031
z: -0.20651841163635254
visibility: 0.9957897067070007
","x: 244.3723907470703
y: 206.91763305664062
z: 0.13618934154510498
visibility: 0.21670904755592346
","x: 226.59156799316406
y: 318.03656005859375
z: -0.20927214622497559
visibility: 0.9729194641113281
","x: 239.94927978515625
y: 212.9774169921875
z: 0.14346568286418915
visibility: 0.07820536196231842
","x: 229.5264129638672
y: 329.78973388671875
z: -0.22280879318714142
visibility: 0.9131072163581848
","x: 239.02134704589844
y: 217.01123046875
z: 0.13648909330368042
visibility: 0.07825344800949097
","x: 232.0971221923828
y: 326.2440185546875
z: -0.22954976558685303
visibility: 0.9161150455474854
","x: 240.931884765625
y: 216.0389862060547
z: 0.1332804262638092
visibility: 0.08151386678218842
","x: 231.5594482421875
y: 322.33514404296875
z: -0.208186537027359
visibility: 0.8552756905555725
","x: 264.8819580078125
y: 334.9801025390625
z: 0.030215445905923843
visibility: 0.9999606609344482
","x: 241.04739379882812
y: 336.05230712890625
z: -0.03027195669710636
visibility: 0.9999841451644897
","x: 273.27142333984375
y: 409.1119689941406
z: 0.019073402509093285
visibility: 0.9954085946083069
","x: 223.23660278320312
y: 407.06011962890625
z: -0.07007322460412979
visibility: 0.9980441331863403
","x: 264.54925537109375
y: 476.060791015625
z: 0.17818938195705414
visibility: 0.9947264790534973
","x: 204.8457794189453
y: 472.5887756347656
z: 0.028753865510225296
visibility: 0.9986938834190369
","x: 259.6625671386719
y: 487.4864196777344
z: 0.18906792998313904
visibility: 0.978186309337616
","x: 206.5771026611328
y: 482.9239196777344
z: 0.03514575585722923
visibility: 0.9772673845291138
","x: 275.3244934082031
y: 497.43426513671875
z: 0.10644509643316269
visibility: 0.9908807277679443
","x: 194.5126190185547
y: 501.98687744140625
z: -0.07416116446256638
visibility: 0.9971373081207275
","x: 241.35733032226562
y: 210.70864868164062
z: 0.0
","x: 237.3759307861328
y: 217.87184143066406
z: 0.0013190319295972586
","x: 233.4036865234375
y: 226.49827575683594
z: 0.00016273731307592243
","x: 230.4608917236328
y: 232.74728393554688
z: -0.0015194781590253115
","x: 227.53834533691406
y: 237.0895233154297
z: -0.00312743685208261
","x: 232.5327911376953
y: 227.6151123046875
z: -0.0022159952204674482
","x: 230.65853881835938
y: 236.74481201171875
z: -0.005200983490794897
","x: 229.2696533203125
y: 242.9611053466797
z: -0.006791371386498213
","x: 228.00807189941406
y: 247.89080810546875
z: -0.007849822752177715
","x: 233.86585998535156
y: 226.33224487304688
z: -0.004939370322972536
","x: 232.3612823486328
y: 236.56582641601562
z: -0.008070116862654686
","x: 231.4520263671875
y: 243.76840209960938
z: -0.00907961092889309
","x: 230.74859619140625
y: 249.8391571044922
z: -0.009961250238120556
","x: 236.059814453125
y: 225.10841369628906
z: -0.007548246067017317
","x: 234.96697998046875
y: 234.9680938720703
z: -0.010618955828249454
","x: 234.76930236816406
y: 241.61285400390625
z: -0.010855038650333881
","x: 234.77528381347656
y: 247.0192108154297
z: -0.011001517064869404
","x: 238.8480987548828
y: 223.845703125
z: -0.010094946250319481
","x: 238.08078002929688
y: 231.14073181152344
z: -0.012653768993914127
","x: 237.70819091796875
y: 236.02734375
z: -0.012927795760333538
","x: 237.70648193359375
y: 240.28939819335938
z: -0.012979687191545963
",,,,,,,,,,,,,,,,,,,,,
2,"x: 254.22483825683594
y: 221.0200653076172
z: -0.13121215999126434
visibility: 0.9999497532844543
","x: 256.50579833984375
y: 213.40716552734375
z: -0.14005570113658905
visibility: 0.9999324083328247
","x: 257.6372985839844
y: 212.5160369873047
z: -0.1400499790906906
visibility: 0.9998778104782104
","x: 258.814208984375
y: 211.5052032470703
z: -0.14017829298973083
visibility: 0.9998633861541748
","x: 255.0583038330078
y: 213.3932647705078
z: -0.1157744899392128
visibility: 0.9999672174453735
","x: 254.95700073242188
y: 212.7540740966797
z: -0.11577162891626358
visibility: 0.9999512434005737
","x: 254.61024475097656
y: 212.0504150390625
z: -0.11577825248241425
visibility: 0.9999694228172302
","x: 262.5654296875
y: 209.1581573486328
z: -0.13704508543014526
visibility: 0.9997456073760986
","x: 257.5089416503906
y: 210.1995849609375
z: -0.02487787976861
visibility: 0.9999805092811584
","x: 257.5098876953125
y: 224.06735229492188
z: -0.12673921883106232
visibility: 0.9998680353164673
","x: 254.9615478515625
y: 223.879150390625
z: -0.09479308128356934
visibility: 0.9998788237571716
","x: 277.4516296386719
y: 224.4831085205078
z: -0.13098418712615967
visibility: 0.9997416138648987
","x: 255.08877563476562
y: 235.93240356445312
z: 0.07149968296289444
visibility: 0.9994902014732361
","x: 277.2996826171875
y: 175.84390258789062
z: -0.11141256242990494
visibility: 0.7632609605789185
","x: 248.17140197753906
y: 202.82125854492188
z: 0.2111586630344391
visibility: 0.9149008393287659
","x: 271.3775329589844
y: 173.62173461914062
z: 0.08140762895345688
visibility: 0.2614305317401886
","x: 257.7151794433594
y: 188.044921875
z: 0.2688937187194824
visibility: 0.8802149295806885
","x: 268.213134765625
y: 173.1144561767578
z: 0.08985117077827454
visibility: 0.11174426227807999
","x: 258.2270812988281
y: 185.7803497314453
z: 0.26859790086746216
visibility: 0.8262764811515808
","x: 267.2864990234375
y: 175.42076110839844
z: 0.09527914226055145
visibility: 0.11187658458948135
","x: 257.588623046875
y: 192.06427001953125
z: 0.26728036999702454
visibility: 0.8292949795722961
","x: 267.7437438964844
y: 177.7401580810547
z: 0.08797183632850647
visibility: 0.1157640814781189
","x: 257.6606750488281
y: 193.15069580078125
z: 0.2651270627975464
visibility: 0.7753065824508667
","x: 271.2682800292969
y: 336.248779296875
z: -0.08304537087678909
visibility: 0.9999527931213379
","x: 261.24322509765625
y: 336.27874755859375
z: 0.08294206112623215
visibility: 0.9999524354934692
","x: 259.01580810546875
y: 409.3243103027344
z: -0.07632056623697281
visibility: 0.9936434030532837
","x: 252.44859313964844
y: 403.36834716796875
z: 0.10115142166614532
visibility: 0.9588556885719299
","x: 284.10791015625
y: 474.5145263671875
z: -0.030400708317756653
visibility: 0.9939316511154175
","x: 277.4500427246094
y: 464.46551513671875
z: 0.21140718460083008
visibility: 0.9768505692481995
","x: 292.2505187988281
y: 483.0288391113281
z: -0.0264568030834198
visibility: 0.977874219417572
","x: 285.1441650390625
y: 464.5715026855469
z: 0.22109858691692352
visibility: 0.9623452425003052
","x: 272.7162170410156
y: 493.27276611328125
z: -0.07967223972082138
visibility: 0.990150511264801
","x: 265.1132507324219
y: 485.97467041015625
z: 0.194718599319458
visibility: 0.9834929704666138
",,,,,,,,,,,,,,,,,,,,,,,,,,,,,,,,,,,,,,,,,,
3,"x: 251.87196350097656
y: 207.42938232421875
z: -0.11871343851089478
visibility: 0.9998883008956909
","x: 253.6909942626953
y: 198.2817840576172
z: -0.13312076032161713
visibility: 0.9999146461486816
","x: 254.43408203125
y: 197.62535095214844
z: -0.13315463066101074
visibility: 0.9998667240142822
","x: 255.22650146484375
y: 196.9546356201172
z: -0.1332644522190094
visibility: 0.9998580813407898
","x: 253.19300842285156
y: 198.45335388183594
z: -0.10467930883169174
visibility: 0.9999322295188904
","x: 253.59620666503906
y: 197.9964599609375
z: -0.1046590656042099
visibility: 0.9998860955238342
","x: 253.92202758789062
y: 197.46591186523438
z: -0.1046324223279953
visibility: 0.9999203681945801
","x: 261.5462951660156
y: 198.75450134277344
z: -0.15027227997779846
visibility: 0.9997566938400269
","x: 258.0176086425781
y: 199.77293395996094
z: -0.019284483045339584
visibility: 0.9999546408653259
","x: 255.5263671875
y: 212.64207458496094
z: -0.12165510654449463
visibility: 0.9998053312301636
","x: 254.37498474121094
y: 212.93882751464844
z: -0.08388412743806839
visibility: 0.9997314810752869
","x: 275.9834289550781
y: 224.45220947265625
z: -0.16683602333068848
visibility: 0.9997445344924927
","x: 261.50982666015625
y: 228.62249755859375
z: 0.07824669778347015
visibility: 0.9991273283958435
","x: 274.8830261230469
y: 189.8208770751953
z: -0.24783627688884735
visibility: 0.7858899831771851
","x: 254.08816528320312
y: 203.93136596679688
z: 0.2650378346443176
visibility: 0.8282126784324646
","x: 275.665283203125
y: 178.4191131591797
z: -0.19745449721813202
visibility: 0.3070533871650696
","x: 260.0463562011719
y: 191.67788696289062
z: 0.3948996067047119
visibility: 0.7950542569160461
","x: 277.1258544921875
y: 176.89358520507812
z: -0.21247561275959015
visibility: 0.1597393900156021
","x: 262.5518493652344
y: 186.3465576171875
z: 0.41045111417770386
visibility: 0.7473912239074707
","x: 277.1072998046875
y: 179.02976989746094
z: -0.2063554972410202
visibility: 0.15912997722625732
","x: 266.3143310546875
y: 185.17706298828125
z: 0.4052483141422272
visibility: 0.7503159046173096
","x: 276.11932373046875
y: 180.3077392578125
z: -0.19478943943977356
visibility: 0.15772804617881775
","x: 262.71343994140625
y: 192.36634826660156
z: 0.3921779692173004
visibility: 0.7026259899139404
","x: 270.83935546875
y: 335.77532958984375
z: -0.09012594819068909
visibility: 0.9999426603317261
","x: 262.65252685546875
y: 335.23004150390625
z: 0.09017996490001678
visibility: 0.9999036192893982
","x: 259.0464172363281
y: 409.2808532714844
z: -0.08306463062763214
visibility: 0.9915945529937744
","x: 256.17327880859375
y: 401.40985107421875
z: 0.11878438293933868
visibility: 0.9217659831047058
","x: 286.4632568359375
y: 471.68499755859375
z: -0.04738835245370865
visibility: 0.9933212399482727
","x: 280.3494873046875
y: 460.62353515625
z: 0.21643595397472382
visibility: 0.9521233439445496
","x: 295.1471252441406
y: 479.5204162597656
z: -0.04429899901151657
visibility: 0.9775145053863525
","x: 288.434814453125
y: 468.31732177734375
z: 0.22472664713859558
visibility: 0.9436257481575012
","x: 272.2501525878906
y: 491.20892333984375
z: -0.09783913195133209
visibility: 0.9897611737251282
","x: 268.88739013671875
y: 482.178466796875
z: 0.19748324155807495
visibility: 0.9687627553939819
",,,,,,,,,,,,,,,,,,,,,,,,,,,,,,,,,,,,,,,,,,
4,"x: 254.35154724121094
y: 196.42271423339844
z: -0.10915585607290268
visibility: 0.9998353123664856
","x: 257.85821533203125
y: 187.27801513671875
z: -0.1184849888086319
visibility: 0.9998891949653625
","x: 258.81256103515625
y: 186.96337890625
z: -0.11849913746118546
visibility: 0.9998485445976257
","x: 259.8357849121094
y: 186.68072509765625
z: -0.11856396496295929
visibility: 0.9998452663421631
","x: 257.7662658691406
y: 187.32484436035156
z: -0.0937427431344986
visibility: 0.999887228012085
","x: 258.4604187011719
y: 187.099853515625
z: -0.09372179210186005
visibility: 0.9998102188110352
","x: 258.97882080078125
y: 186.90585327148438
z: -0.09368564188480377
visibility: 0.9998607039451599
","x: 265.7521057128906
y: 191.48440551757812
z: -0.12304767221212387
visibility: 0.9997492432594299
","x: 262.993408203125
y: 191.3259735107422
z: -0.009030450135469437
visibility: 0.9999043941497803
","x: 258.7865295410156
y: 202.60313415527344
z: -0.10885123163461685
visibility: 0.9996919631958008
","x: 257.88922119140625
y: 203.32876586914062
z: -0.076104536652565
visibility: 0.999527096748352
","x: 277.04931640625
y: 222.3440704345703
z: -0.17320775985717773
visibility: 0.9997521042823792
","x: 262.94635009765625
y: 225.1064910888672
z: 0.09852760285139084
visibility: 0.9986954927444458
","x: 273.39947509765625
y: 195.5248260498047
z: -0.2867518961429596
visibility: 0.8066189289093018
","x: 256.2298278808594
y: 197.95346069335938
z: 0.28609874844551086
visibility: 0.7521634697914124
","x: 270.9355163574219
y: 177.33053588867188
z: -0.2859308421611786
visibility: 0.36660829186439514
","x: 261.8879699707031
y: 181.08724975585938
z: 0.4385460913181305
visibility: 0.7235625386238098
","x: 271.52716064453125
y: 176.5373992919922
z: -0.308366596698761
visibility: 0.22617970407009125
","x: 264.1449890136719
y: 178.1411895751953
z: 0.46268320083618164
visibility: 0.6826360821723938
","x: 272.5388488769531
y: 177.01934814453125
z: -0.3026544153690338
visibility: 0.22571340203285217
","x: 267.99322509765625
y: 179.15147399902344
z: 0.4594191610813141
visibility: 0.6855150461196899
","x: 272.34429931640625
y: 178.15924072265625
z: -0.2845194637775421
visibility: 0.22028835117816925
","x: 267.355712890625
y: 180.82786560058594
z: 0.4383436143398285
visibility: 0.6436352133750916
","x: 271.9191589355469
y: 333.831298828125
z: -0.09364502131938934
visibility: 0.9999337792396545
","x: 264.5502624511719
y: 333.578857421875
z: 0.09360511600971222
visibility: 0.9998767971992493
","x: 259.8367614746094
y: 408.635498046875
z: -0.08470284938812256
visibility: 0.9892293810844421
","x: 256.7976379394531
y: 398.20703125
z: 0.13267728686332703
visibility: 0.8893991112709045
","x: 286.6009826660156
y: 470.863525390625
z: -0.05997069552540779
visibility: 0.9928414225578308
","x: 280.0361633300781
y: 460.4845886230469
z: 0.22288885712623596
visibility: 0.9365643262863159
","x: 295.4635009765625
y: 478.7181091308594
z: -0.05723948031663895
visibility: 0.9779189825057983
","x: 288.05426025390625
y: 470.34783935546875
z: 0.22955723106861115
visibility: 0.9306337833404541
","x: 272.1833190917969
y: 491.3079833984375
z: -0.10704044997692108
visibility: 0.9896546006202698
","x: 268.2729797363281
y: 482.9696960449219
z: 0.2037869244813919
visibility: 0.9596242904663086
",,,,,,,,,,,,,,,,,,,,,,"x: 265.206298828125
y: 176.2522735595703
z: 0.0
","x: 267.6715087890625
y: 170.18959045410156
z: 0.0003213159798178822
","x: 271.6213073730469
y: 166.810302734375
z: -0.0014294144930317998
","x: 274.9116516113281
y: 166.8514862060547
z: -0.0036283661611378193
","x: 277.1736755371094
y: 168.96923828125
z: -0.005776599515229464
","x: 272.1501159667969
y: 165.322265625
z: -0.005552812945097685
","x: 276.75439453125
y: 165.00543212890625
z: -0.009117461740970612
","x: 279.92822265625
y: 167.03909301757812
z: -0.010403738357126713
","x: 281.79791259765625
y: 169.22544860839844
z: -0.010853255167603493
","x: 271.96893310546875
y: 169.72206115722656
z: -0.00758917024359107
","x: 277.1875915527344
y: 171.75442504882812
z: -0.011651439592242241
","x: 277.1051330566406
y: 173.5370635986328
z: -0.011099669151008129
","x: 275.8357849121094
y: 173.93408203125
z: -0.009842774830758572
","x: 271.6184387207031
y: 174.56106567382812
z: -0.00944532360881567
","x: 276.58074951171875
y: 177.09188842773438
z: -0.012698114849627018
","x: 276.2057189941406
y: 178.24740600585938
z: -0.010533212684094906
","x: 274.7981872558594
y: 178.4464111328125
z: -0.008408172987401485
","x: 270.98583984375
y: 179.2668914794922
z: -0.011378459632396698
","x: 274.7687683105469
y: 181.80213928222656
z: -0.013590691611170769
","x: 274.9584655761719
y: 183.16314697265625
z: -0.012250578962266445
","x: 274.26763916015625
y: 183.7396240234375
z: -0.010665148496627808
"
5,"x: 254.35154724121094
y: 196.42271423339844
z: -0.10915585607290268
visibility: 0.9998353123664856
","x: 257.85821533203125
y: 187.27801513671875
z: -0.1184849888086319
visibility: 0.9998891949653625
","x: 258.81256103515625
y: 186.96337890625
z: -0.11849913746118546
visibility: 0.9998485445976257
","x: 259.8357849121094
y: 186.68072509765625
z: -0.11856396496295929
visibility: 0.9998452663421631
","x: 257.7662658691406
y: 187.32484436035156
z: -0.0937427431344986
visibility: 0.999887228012085
","x: 258.4604187011719
y: 187.099853515625
z: -0.09372179210186005
visibility: 0.9998102188110352
","x: 258.97882080078125
y: 186.90585327148438
z: -0.09368564188480377
visibility: 0.9998607039451599
","x: 265.7521057128906
y: 191.48440551757812
z: -0.12304767221212387
visibility: 0.9997492432594299
","x: 262.993408203125
y: 191.3259735107422
z: -0.009030450135469437
visibility: 0.9999043941497803
","x: 258.7865295410156
y: 202.60313415527344
z: -0.10885123163461685
visibility: 0.9996919631958008
","x: 257.88922119140625
y: 203.32876586914062
z: -0.076104536652565
visibility: 0.999527096748352
","x: 277.04931640625
y: 222.3440704345703
z: -0.17320775985717773
visibility: 0.9997521042823792
","x: 262.94635009765625
y: 225.1064910888672
z: 0.09852760285139084
visibility: 0.9986954927444458
","x: 273.39947509765625
y: 195.5248260498047
z: -0.2867518961429596
visibility: 0.8066189289093018
","x: 256.2298278808594
y: 197.95346069335938
z: 0.28609874844551086
visibility: 0.7521634697914124
","x: 270.9355163574219
y: 177.33053588867188
z: -0.2859308421611786
visibility: 0.36660829186439514
","x: 261.8879699707031
y: 181.08724975585938
z: 0.4385460913181305
visibility: 0.7235625386238098
","x: 271.52716064453125
y: 176.5373992919922
z: -0.308366596698761
visibility: 0.22617970407009125
","x: 264.1449890136719
y: 178.1411895751953
z: 0.46268320083618164
visibility: 0.6826360821723938
","x: 272.5388488769531
y: 177.01934814453125
z: -0.3026544153690338
visibility: 0.22571340203285217
","x: 267.99322509765625
y: 179.15147399902344
z: 0.4594191610813141
visibility: 0.6855150461196899
","x: 272.34429931640625
y: 178.15924072265625
z: -0.2845194637775421
visibility: 0.22028835117816925
","x: 267.355712890625
y: 180.82786560058594
z: 0.4383436143398285
visibility: 0.6436352133750916
","x: 271.9191589355469
y: 333.831298828125
z: -0.09364502131938934
visibility: 0.9999337792396545
","x: 264.5502624511719
y: 333.578857421875
z: 0.09360511600971222
visibility: 0.9998767971992493
","x: 259.8367614746094
y: 408.635498046875
z: -0.08470284938812256
visibility: 0.9892293810844421
","x: 256.7976379394531
y: 398.20703125
z: 0.13267728686332703
visibility: 0.8893991112709045
","x: 286.6009826660156
y: 470.863525390625
z: -0.05997069552540779
visibility: 0.9928414225578308
","x: 280.0361633300781
y: 460.4845886230469
z: 0.22288885712623596
visibility: 0.9365643262863159
","x: 295.4635009765625
y: 478.7181091308594
z: -0.05723948031663895
visibility: 0.9779189825057983
","x: 288.05426025390625
y: 470.34783935546875
z: 0.22955723106861115
visibility: 0.9306337833404541
","x: 272.1833190917969
y: 491.3079833984375
z: -0.10704044997692108
visibility: 0.9896546006202698
","x: 268.2729797363281
y: 482.9696960449219
z: 0.2037869244813919
visibility: 0.9596242904663086
",,,,,,,,,,,,,,,,,,,,,,"x: 265.206298828125
y: 176.2522735595703
z: 0.0
","x: 267.6715087890625
y: 170.18959045410156
z: 0.0003213159798178822
","x: 271.6213073730469
y: 166.810302734375
z: -0.0014294144930317998
","x: 274.9116516113281
y: 166.8514862060547
z: -0.0036283661611378193
","x: 277.1736755371094
y: 168.96923828125
z: -0.005776599515229464
","x: 272.1501159667969
y: 165.322265625
z: -0.005552812945097685
","x: 276.75439453125
y: 165.00543212890625
z: -0.009117461740970612
","x: 279.92822265625
y: 167.03909301757812
z: -0.010403738357126713
","x: 281.79791259765625
y: 169.22544860839844
z: -0.010853255167603493
","x: 271.96893310546875
y: 169.72206115722656
z: -0.00758917024359107
","x: 277.1875915527344
y: 171.75442504882812
z: -0.011651439592242241
","x: 277.1051330566406
y: 173.5370635986328
z: -0.011099669151008129
","x: 275.8357849121094
y: 173.93408203125
z: -0.009842774830758572
","x: 271.6184387207031
y: 174.56106567382812
z: -0.00944532360881567
","x: 276.58074951171875
y: 177.09188842773438
z: -0.012698114849627018
","x: 276.2057189941406
y: 178.24740600585938
z: -0.010533212684094906
","x: 274.7981872558594
y: 178.4464111328125
z: -0.008408172987401485
","x: 270.98583984375
y: 179.2668914794922
z: -0.011378459632396698
","x: 274.7687683105469
y: 181.80213928222656
z: -0.013590691611170769
","x: 274.9584655761719
y: 183.16314697265625
z: -0.012250578962266445
","x: 274.26763916015625
y: 183.7396240234375
z: -0.010665148496627808
"
6,"x: 252.88418579101562
y: 200.91909790039062
z: -0.03738636523485184
visibility: 0.999841570854187
","x: 254.71810913085938
y: 193.5924072265625
z: -0.05709715932607651
visibility: 0.9998940229415894
","x: 255.5509796142578
y: 193.0787353515625
z: -0.057100772857666016
visibility: 0.9998584985733032
","x: 256.4091796875
y: 192.45550537109375
z: -0.05709709972143173
visibility: 0.9998555183410645
","x: 254.38973999023438
y: 193.62185668945312
z: -0.026046160608530045
visibility: 0.9998890161514282
","x: 255.07830810546875
y: 193.24227905273438
z: -0.026048148050904274
visibility: 0.9998145699501038
","x: 255.88966369628906
y: 192.77159118652344
z: -0.026089396327733994
visibility: 0.9998613595962524
","x: 263.4386901855469
y: 192.98545837402344
z: -0.09417311102151871
visibility: 0.9997685551643372
","x: 260.42138671875
y: 193.65098571777344
z: 0.04679550230503082
visibility: 0.9999094009399414
","x: 257.1836853027344
y: 205.88626098632812
z: -0.0463121235370636
visibility: 0.9997020959854126
","x: 256.8761291503906
y: 206.33206176757812
z: -0.005763472989201546
visibility: 0.9995534420013428
","x: 277.1532897949219
y: 220.08242797851562
z: -0.1597113162279129
visibility: 0.9997754096984863
","x: 264.4355773925781
y: 222.8942108154297
z: 0.13652178645133972
visibility: 0.9988183379173279
","x: 265.1697998046875
y: 212.4997100830078
z: -0.35975176095962524
visibility: 0.8250524997711182
","x: 263.4934387207031
y: 244.94329833984375
z: 0.30442193150520325
visibility: 0.6827206015586853
","x: 270.76513671875
y: 177.68231201171875
z: -0.497479110956192
visibility: 0.4286049008369446
","x: 267.8974304199219
y: 266.2145690917969
z: 0.4340372085571289
visibility: 0.6612805724143982
","x: 273.3906555175781
y: 171.43045043945312
z: -0.5385102033615112
visibility: 0.30199670791625977
","x: 269.0304260253906
y: 273.7597961425781
z: 0.46262258291244507
visibility: 0.6270104050636292
","x: 275.2751770019531
y: 170.92771911621094
z: -0.524598240852356
visibility: 0.30137136578559875
","x: 271.0631103515625
y: 273.66357421875
z: 0.44581738114356995
visibility: 0.6301099061965942
","x: 274.44677734375
y: 174.26693725585938
z: -0.4961870312690735
visibility: 0.2946658134460449
","x: 270.6750183105469
y: 270.16851806640625
z: 0.42992520332336426
visibility: 0.5938081741333008
","x: 273.74505615234375
y: 331.73681640625
z: -0.1011897549033165
visibility: 0.9999338388442993
","x: 265.9593811035156
y: 331.4024658203125
z: 0.10120000690221786
visibility: 0.9998762011528015
","x: 261.6727600097656
y: 407.1117858886719
z: -0.09836357831954956
visibility: 0.984886884689331
","x: 258.4698181152344
y: 397.1979064941406
z: 0.09513187408447266
visibility: 0.8648568987846375
","x: 286.4311218261719
y: 470.36767578125
z: -0.060576777905225754
visibility: 0.9905502796173096
","x: 280.77764892578125
y: 460.4203796386719
z: 0.16633805632591248
visibility: 0.9102146029472351
","x: 295.47845458984375
y: 478.1799621582031
z: -0.05687201768159866
visibility: 0.9762980341911316
","x: 290.0596008300781
y: 471.6125793457031
z: 0.17175066471099854
visibility: 0.9180408120155334
","x: 272.34979248046875
y: 490.5965881347656
z: -0.11432071775197983
visibility: 0.9884430170059204
","x: 269.769775390625
y: 483.4204406738281
z: 0.13052710890769958
visibility: 0.9440677165985107
","x: 270.6864013671875
y: 173.94036865234375
z: 0.0
","x: 275.3865661621094
y: 175.8021697998047
z: 0.0011283346684649587
","x: 279.14794921875
y: 174.3706512451172
z: 0.002375306561589241
","x: 281.8525695800781
y: 172.54295349121094
z: 0.0035855902824550867
","x: 283.4726867675781
y: 171.94276428222656
z: 0.005262210499495268
","x: 279.360595703125
y: 164.93209838867188
z: 0.0018541457829996943
","x: 282.45867919921875
y: 165.29330444335938
z: 0.003703093621879816
","x: 281.5810546875
y: 168.20631408691406
z: 0.005704111885279417
","x: 280.3305358886719
y: 169.4064483642578
z: 0.007080543786287308
","x: 277.4031982421875
y: 162.00946044921875
z: 0.0016174265183508396
","x: 280.3407287597656
y: 162.223876953125
z: 0.004412033595144749
","x: 279.7711486816406
y: 165.44969177246094
z: 0.0066194008104503155
","x: 278.61907958984375
y: 166.90660095214844
z: 0.007747542578727007
","x: 275.3262634277344
y: 160.69276428222656
z: 0.0014950769254937768
","x: 277.8125915527344
y: 160.84140014648438
z: 0.0036761793307960033
","x: 277.6377258300781
y: 163.57608032226562
z: 0.004969876259565353
","x: 276.7803039550781
y: 164.97854614257812
z: 0.005468856543302536
","x: 273.3228454589844
y: 160.51309204101562
z: 0.0013641404220834374
","x: 275.3624267578125
y: 160.4695281982422
z: 0.0023140127304941416
","x: 275.21807861328125
y: 162.70738220214844
z: 0.00306278676725924
","x: 274.48944091796875
y: 163.9395751953125
z: 0.0037505507934838533
",,,,,,,,,,,,,,,,,,,,,
7,"x: 252.88418579101562
y: 200.91909790039062
z: -0.03738636523485184
visibility: 0.999841570854187
","x: 254.71810913085938
y: 193.5924072265625
z: -0.05709715932607651
visibility: 0.9998940229415894
","x: 255.5509796142578
y: 193.0787353515625
z: -0.057100772857666016
visibility: 0.9998584985733032
","x: 256.4091796875
y: 192.45550537109375
z: -0.05709709972143173
visibility: 0.9998555183410645
","x: 254.38973999023438
y: 193.62185668945312
z: -0.026046160608530045
visibility: 0.9998890161514282
","x: 255.07830810546875
y: 193.24227905273438
z: -0.026048148050904274
visibility: 0.9998145699501038
","x: 255.88966369628906
y: 192.77159118652344
z: -0.026089396327733994
visibility: 0.9998613595962524
","x: 263.4386901855469
y: 192.98545837402344
z: -0.09417311102151871
visibility: 0.9997685551643372
","x: 260.42138671875
y: 193.65098571777344
z: 0.04679550230503082
visibility: 0.9999094009399414
","x: 257.1836853027344
y: 205.88626098632812
z: -0.0463121235370636
visibility: 0.9997020959854126
","x: 256.8761291503906
y: 206.33206176757812
z: -0.005763472989201546
visibility: 0.9995534420013428
","x: 277.1532897949219
y: 220.08242797851562
z: -0.1597113162279129
visibility: 0.9997754096984863
","x: 264.4355773925781
y: 222.8942108154297
z: 0.13652178645133972
visibility: 0.9988183379173279
","x: 265.1697998046875
y: 212.4997100830078
z: -0.35975176095962524
visibility: 0.8250524997711182
","x: 263.4934387207031
y: 244.94329833984375
z: 0.30442193150520325
visibility: 0.6827206015586853
","x: 270.76513671875
y: 177.68231201171875
z: -0.497479110956192
visibility: 0.4286049008369446
","x: 267.8974304199219
y: 266.2145690917969
z: 0.4340372085571289
visibility: 0.6612805724143982
","x: 273.3906555175781
y: 171.43045043945312
z: -0.5385102033615112
visibility: 0.30199670791625977
","x: 269.0304260253906
y: 273.7597961425781
z: 0.46262258291244507
visibility: 0.6270104050636292
","x: 275.2751770019531
y: 170.92771911621094
z: -0.524598240852356
visibility: 0.30137136578559875
","x: 271.0631103515625
y: 273.66357421875
z: 0.44581738114356995
visibility: 0.6301099061965942
","x: 274.44677734375
y: 174.26693725585938
z: -0.4961870312690735
visibility: 0.2946658134460449
","x: 270.6750183105469
y: 270.16851806640625
z: 0.42992520332336426
visibility: 0.5938081741333008
","x: 273.74505615234375
y: 331.73681640625
z: -0.1011897549033165
visibility: 0.9999338388442993
","x: 265.9593811035156
y: 331.4024658203125
z: 0.10120000690221786
visibility: 0.9998762011528015
","x: 261.6727600097656
y: 407.1117858886719
z: -0.09836357831954956
visibility: 0.984886884689331
","x: 258.4698181152344
y: 397.1979064941406
z: 0.09513187408447266
visibility: 0.8648568987846375
","x: 286.4311218261719
y: 470.36767578125
z: -0.060576777905225754
visibility: 0.9905502796173096
","x: 280.77764892578125
y: 460.4203796386719
z: 0.16633805632591248
visibility: 0.9102146029472351
","x: 295.47845458984375
y: 478.1799621582031
z: -0.05687201768159866
visibility: 0.9762980341911316
","x: 290.0596008300781
y: 471.6125793457031
z: 0.17175066471099854
visibility: 0.9180408120155334
","x: 272.34979248046875
y: 490.5965881347656
z: -0.11432071775197983
visibility: 0.9884430170059204
","x: 269.769775390625
y: 483.4204406738281
z: 0.13052710890769958
visibility: 0.9440677165985107
","x: 270.6864013671875
y: 173.94036865234375
z: 0.0
","x: 275.3865661621094
y: 175.8021697998047
z: 0.0011283346684649587
","x: 279.14794921875
y: 174.3706512451172
z: 0.002375306561589241
","x: 281.8525695800781
y: 172.54295349121094
z: 0.0035855902824550867
","x: 283.4726867675781
y: 171.94276428222656
z: 0.005262210499495268
","x: 279.360595703125
y: 164.93209838867188
z: 0.0018541457829996943
","x: 282.45867919921875
y: 165.29330444335938
z: 0.003703093621879816
","x: 281.5810546875
y: 168.20631408691406
z: 0.005704111885279417
","x: 280.3305358886719
y: 169.4064483642578
z: 0.007080543786287308
","x: 277.4031982421875
y: 162.00946044921875
z: 0.0016174265183508396
","x: 280.3407287597656
y: 162.223876953125
z: 0.004412033595144749
","x: 279.7711486816406
y: 165.44969177246094
z: 0.0066194008104503155
","x: 278.61907958984375
y: 166.90660095214844
z: 0.007747542578727007
","x: 275.3262634277344
y: 160.69276428222656
z: 0.0014950769254937768
","x: 277.8125915527344
y: 160.84140014648438
z: 0.0036761793307960033
","x: 277.6377258300781
y: 163.57608032226562
z: 0.004969876259565353
","x: 276.7803039550781
y: 164.97854614257812
z: 0.005468856543302536
","x: 273.3228454589844
y: 160.51309204101562
z: 0.0013641404220834374
","x: 275.3624267578125
y: 160.4695281982422
z: 0.0023140127304941416
","x: 275.21807861328125
y: 162.70738220214844
z: 0.00306278676725924
","x: 274.48944091796875
y: 163.9395751953125
z: 0.0037505507934838533
",,,,,,,,,,,,,,,,,,,,,
8,"x: 252.09703063964844
y: 206.77935791015625
z: -0.10637494176626205
visibility: 0.9998515248298645
","x: 253.1937255859375
y: 200.13998413085938
z: -0.11707428842782974
visibility: 0.9998998641967773
","x: 253.99366760253906
y: 199.5515594482422
z: -0.11711332947015762
visibility: 0.9998682141304016
","x: 254.87339782714844
y: 198.8597869873047
z: -0.11716137826442719
visibility: 0.9998650550842285
","x: 252.1923065185547
y: 200.18246459960938
z: -0.09142205864191055
visibility: 0.9998921751976013
","x: 252.3135223388672
y: 199.71258544921875
z: -0.09140493720769882
visibility: 0.999821126461029
","x: 252.54733276367188
y: 199.1301727294922
z: -0.09141034632921219
visibility: 0.99986332654953
","x: 260.7287292480469
y: 197.44093322753906
z: -0.11537560075521469
visibility: 0.9997869729995728
","x: 256.19403076171875
y: 198.45001220703125
z: 0.003858343232423067
visibility: 0.9999114871025085
","x: 255.8649444580078
y: 210.7018280029297
z: -0.10108447074890137
visibility: 0.9997209310531616
","x: 254.8873291015625
y: 210.99957275390625
z: -0.06718411296606064
visibility: 0.9995824098587036
","x: 277.2585144042969
y: 220.20016479492188
z: -0.15572887659072876
visibility: 0.9997953772544861
","x: 260.7032165527344
y: 226.1833953857422
z: 0.10709454864263535
visibility: 0.9989256858825684
","x: 265.62628173828125
y: 236.91799926757812
z: -0.2670224606990814
visibility: 0.839962899684906
","x: 260.8992919921875
y: 273.02484130859375
z: 0.2230221927165985
visibility: 0.6331390738487244
","x: 267.64495849609375
y: 183.87661743164062
z: -0.3267420828342438
visibility: 0.4828057885169983
","x: 256.6612548828125
y: 278.210693359375
z: 0.243820458650589
visibility: 0.6445400714874268
","x: 269.61688232421875
y: 177.71975708007812
z: -0.35809624195098877
visibility: 0.3681316673755646
","x: 268.56268310546875
y: 285.4852600097656
z: 0.2556903064250946
visibility: 0.6184401512145996
","x: 271.3795166015625
y: 177.1182861328125
z: -0.3512854278087616
visibility: 0.36736324429512024
","x: 260.6016845703125
y: 280.89471435546875
z: 0.23074999451637268
visibility: 0.6229488849639893
","x: 270.54779052734375
y: 181.31773376464844
z: -0.3265097737312317
visibility: 0.35881686210632324
","x: 266.6412658691406
y: 278.8451843261719
z: 0.2338028848171234
visibility: 0.5912624597549438
","x: 275.29473876953125
y: 331.891845703125
z: -0.09519881755113602
visibility: 0.9999324083328247
","x: 266.23828125
y: 330.8670654296875
z: 0.09529680758714676
visibility: 0.9998659491539001
","x: 262.2992248535156
y: 405.5352783203125
z: -0.11023862659931183
visibility: 0.9844728708267212
","x: 257.12933349609375
y: 396.59375
z: 0.13453683257102966
visibility: 0.8498023748397827
","x: 285.64910888671875
y: 469.46160888671875
z: -0.07486392557621002
visibility: 0.9901092648506165
","x: 280.4880065917969
y: 461.52880859375
z: 0.22013607621192932
visibility: 0.893916130065918
","x: 295.9608154296875
y: 477.4853210449219
z: -0.07220268249511719
visibility: 0.9761427640914917
","x: 287.5618591308594
y: 472.0636291503906
z: 0.22648684680461884
visibility: 0.9059354662895203
","x: 272.4501037597656
y: 489.8456115722656
z: -0.13306908309459686
visibility: 0.9878172874450684
","x: 268.98699951171875
y: 484.1443176269531
z: 0.18576009571552277
visibility: 0.9302670359611511
",,,,,,,,,,,,,,,,,,,,,,,,,,,,,,,,,,,,,,,,,,
9,"x: 252.1565399169922
y: 207.41796875
z: -0.19362859427928925
visibility: 0.9998393058776855
","x: 253.46328735351562
y: 201.3218536376953
z: -0.20403341948986053
visibility: 0.9998888969421387
","x: 254.19602966308594
y: 200.12271118164062
z: -0.20405659079551697
visibility: 0.9998650550842285
","x: 255.34017944335938
y: 199.13389587402344
z: -0.20417113602161407
visibility: 0.9998537302017212
","x: 252.76373291015625
y: 201.93551635742188
z: -0.17525023221969604
visibility: 0.9998630881309509
","x: 252.7621307373047
y: 201.42214965820312
z: -0.17524877190589905
visibility: 0.9997864365577698
","x: 252.79005432128906
y: 200.72409057617188
z: -0.17532722651958466
visibility: 0.9998087882995605
","x: 261.20794677734375
y: 198.500732421875
z: -0.17836305499076843
visibility: 0.9997882843017578
","x: 255.74082946777344
y: 198.90562438964844
z: -0.07456233352422714
visibility: 0.9998897314071655
","x: 256.771240234375
y: 212.04644775390625
z: -0.17737215757369995
visibility: 0.9997099041938782
","x: 255.10110473632812
y: 212.05499267578125
z: -0.13405174016952515
visibility: 0.9995497465133667
","x: 277.60272216796875
y: 228.51136779785156
z: -0.184944748878479
visibility: 0.9998096823692322
","x: 260.1529541015625
y: 227.058837890625
z: 0.027910416945815086
visibility: 0.9990057945251465
","x: 267.5699157714844
y: 259.57366943359375
z: -0.30471092462539673
visibility: 0.8527382016181946
","x: 250.47589111328125
y: 257.750732421875
z: 0.1318112015724182
visibility: 0.6092422008514404
","x: 267.310791015625
y: 212.518798828125
z: -0.3865515887737274
visibility: 0.5322849154472351
","x: 250.59689331054688
y: 239.93408203125
z: 0.19250620901584625
visibility: 0.64091956615448
","x: 269.0796813964844
y: 197.4481201171875
z: -0.4122563898563385
visibility: 0.42839476466178894
","x: 253.23956298828125
y: 237.11683654785156
z: 0.1824883371591568
visibility: 0.6150460243225098
","x: 269.9056701660156
y: 194.55946350097656
z: -0.40917667746543884
visibility: 0.42761602997779846
","x: 251.7422637939453
y: 234.20326232910156
z: 0.16811199486255646
visibility: 0.6183955669403076
","x: 269.3878173828125
y: 200.27305603027344
z: -0.3865315318107605
visibility: 0.4178586006164551
","x: 255.6697998046875
y: 236.01483154296875
z: 0.1822480410337448
visibility: 0.5911067724227905
","x: 277.1314392089844
y: 332.0380859375
z: -0.08866001665592194
visibility: 0.9999299645423889
","x: 267.0381164550781
y: 329.7166442871094
z: 0.08889365196228027
visibility: 0.9998512864112854
","x: 260.4056701660156
y: 402.48333740234375
z: -0.13427433371543884
visibility: 0.9856343865394592
","x: 259.5863952636719
y: 393.7020568847656
z: 0.18455497920513153
visibility: 0.8153628706932068
","x: 284.1396179199219
y: 468.0815124511719
z: -0.11920497566461563
visibility: 0.990043580532074
","x: 279.65093994140625
y: 456.718994140625
z: 0.32979023456573486
visibility: 0.8722192645072937
","x: 294.193115234375
y: 477.4248046875
z: -0.11806175857782364
visibility: 0.9772359132766724
","x: 286.2818298339844
y: 463.862060546875
z: 0.341180682182312
visibility: 0.8944332003593445
","x: 272.38763427734375
y: 488.2183532714844
z: -0.17981159687042236
visibility: 0.9869918823242188
","x: 270.106201171875
y: 476.9078063964844
z: 0.30177247524261475
visibility: 0.9069153666496277
","x: 263.28826904296875
y: 223.3546600341797
z: 0.0
","x: 267.7768859863281
y: 216.67466735839844
z: 0.00453878752887249
","x: 270.38909912109375
y: 208.739013671875
z: 0.0063483561389148235
","x: 271.9867248535156
y: 202.73684692382812
z: 0.007093904539942741
","x: 273.0819396972656
y: 198.4457244873047
z: 0.008049803785979748
","x: 270.794921875
y: 199.61550903320312
z: 0.005613531917333603
","x: 272.0753479003906
y: 188.24270629882812
z: 0.00639329245314002
","x: 272.5615539550781
y: 182.16107177734375
z: 0.007577481679618359
","x: 272.8656005859375
y: 177.91690063476562
z: 0.008590285666286945
","x: 268.6368408203125
y: 197.9903564453125
z: 0.0025916004087775946
","x: 269.5523376464844
y: 184.95703125
z: 0.00397093128412962
","x: 269.9824523925781
y: 178.47442626953125
z: 0.0058612460270524025
","x: 270.20306396484375
y: 173.7556610107422
z: 0.007113497704267502
","x: 265.93487548828125
y: 197.41677856445312
z: -0.000451181287644431
","x: 266.5708923339844
y: 185.47874450683594
z: 0.0003046701895073056
","x: 267.03619384765625
y: 179.30673217773438
z: 0.001627436256967485
","x: 267.3249206542969
y: 174.6926727294922
z: 0.002479004906490445
","x: 262.8209228515625
y: 197.71148681640625
z: -0.0033874583896249533
","x: 262.8620910644531
y: 188.5749969482422
z: -0.0031242212280631065
","x: 262.9635314941406
y: 183.99559020996094
z: -0.00225408305414021
","x: 262.9850769042969
y: 180.47691345214844
z: -0.0014905112329870462
",,,,,,,,,,,,,,,,,,,,,
10,"x: 252.1565399169922
y: 207.41796875
z: -0.19362859427928925
visibility: 0.9998393058776855
","x: 253.46328735351562
y: 201.3218536376953
z: -0.20403341948986053
visibility: 0.9998888969421387
","x: 254.19602966308594
y: 200.12271118164062
z: -0.20405659079551697
visibility: 0.9998650550842285
","x: 255.34017944335938
y: 199.13389587402344
z: -0.20417113602161407
visibility: 0.9998537302017212
","x: 252.76373291015625
y: 201.93551635742188
z: -0.17525023221969604
visibility: 0.9998630881309509
","x: 252.7621307373047
y: 201.42214965820312
z: -0.17524877190589905
visibility: 0.9997864365577698
","x: 252.79005432128906
y: 200.72409057617188
z: -0.17532722651958466
visibility: 0.9998087882995605
","x: 261.20794677734375
y: 198.500732421875
z: -0.17836305499076843
visibility: 0.9997882843017578
","x: 255.74082946777344
y: 198.90562438964844
z: -0.07456233352422714
visibility: 0.9998897314071655
","x: 256.771240234375
y: 212.04644775390625
z: -0.17737215757369995
visibility: 0.9997099041938782
","x: 255.10110473632812
y: 212.05499267578125
z: -0.13405174016952515
visibility: 0.9995497465133667
","x: 277.60272216796875
y: 228.51136779785156
z: -0.184944748878479
visibility: 0.9998096823692322
","x: 260.1529541015625
y: 227.058837890625
z: 0.027910416945815086
visibility: 0.9990057945251465
","x: 267.5699157714844
y: 259.57366943359375
z: -0.30471092462539673
visibility: 0.8527382016181946
","x: 250.47589111328125
y: 257.750732421875
z: 0.1318112015724182
visibility: 0.6092422008514404
","x: 267.310791015625
y: 212.518798828125
z: -0.3865515887737274
visibility: 0.5322849154472351
","x: 250.59689331054688
y: 239.93408203125
z: 0.19250620901584625
visibility: 0.64091956615448
","x: 269.0796813964844
y: 197.4481201171875
z: -0.4122563898563385
visibility: 0.42839476466178894
","x: 253.23956298828125
y: 237.11683654785156
z: 0.1824883371591568
visibility: 0.6150460243225098
","x: 269.9056701660156
y: 194.55946350097656
z: -0.40917667746543884
visibility: 0.42761602997779846
","x: 251.7422637939453
y: 234.20326232910156
z: 0.16811199486255646
visibility: 0.6183955669403076
","x: 269.3878173828125
y: 200.27305603027344
z: -0.3865315318107605
visibility: 0.4178586006164551
","x: 255.6697998046875
y: 236.01483154296875
z: 0.1822480410337448
visibility: 0.5911067724227905
","x: 277.1314392089844
y: 332.0380859375
z: -0.08866001665592194
visibility: 0.9999299645423889
","x: 267.0381164550781
y: 329.7166442871094
z: 0.08889365196228027
visibility: 0.9998512864112854
","x: 260.4056701660156
y: 402.48333740234375
z: -0.13427433371543884
visibility: 0.9856343865394592
","x: 259.5863952636719
y: 393.7020568847656
z: 0.18455497920513153
visibility: 0.8153628706932068
","x: 284.1396179199219
y: 468.0815124511719
z: -0.11920497566461563
visibility: 0.990043580532074
","x: 279.65093994140625
y: 456.718994140625
z: 0.32979023456573486
visibility: 0.8722192645072937
","x: 294.193115234375
y: 477.4248046875
z: -0.11806175857782364
visibility: 0.9772359132766724
","x: 286.2818298339844
y: 463.862060546875
z: 0.341180682182312
visibility: 0.8944332003593445
","x: 272.38763427734375
y: 488.2183532714844
z: -0.17981159687042236
visibility: 0.9869918823242188
","x: 270.106201171875
y: 476.9078063964844
z: 0.30177247524261475
visibility: 0.9069153666496277
","x: 263.28826904296875
y: 223.3546600341797
z: 0.0
","x: 267.7768859863281
y: 216.67466735839844
z: 0.00453878752887249
","x: 270.38909912109375
y: 208.739013671875
z: 0.0063483561389148235
","x: 271.9867248535156
y: 202.73684692382812
z: 0.007093904539942741
","x: 273.0819396972656
y: 198.4457244873047
z: 0.008049803785979748
","x: 270.794921875
y: 199.61550903320312
z: 0.005613531917333603
","x: 272.0753479003906
y: 188.24270629882812
z: 0.00639329245314002
","x: 272.5615539550781
y: 182.16107177734375
z: 0.007577481679618359
","x: 272.8656005859375
y: 177.91690063476562
z: 0.008590285666286945
","x: 268.6368408203125
y: 197.9903564453125
z: 0.0025916004087775946
","x: 269.5523376464844
y: 184.95703125
z: 0.00397093128412962
","x: 269.9824523925781
y: 178.47442626953125
z: 0.0058612460270524025
","x: 270.20306396484375
y: 173.7556610107422
z: 0.007113497704267502
","x: 265.93487548828125
y: 197.41677856445312
z: -0.000451181287644431
","x: 266.5708923339844
y: 185.47874450683594
z: 0.0003046701895073056
","x: 267.03619384765625
y: 179.30673217773438
z: 0.001627436256967485
","x: 267.3249206542969
y: 174.6926727294922
z: 0.002479004906490445
","x: 262.8209228515625
y: 197.71148681640625
z: -0.0033874583896249533
","x: 262.8620910644531
y: 188.5749969482422
z: -0.0031242212280631065
","x: 262.9635314941406
y: 183.99559020996094
z: -0.00225408305414021
","x: 262.9850769042969
y: 180.47691345214844
z: -0.0014905112329870462
",,,,,,,,,,,,,,,,,,,,,
11,"x: 252.7036590576172
y: 213.98797607421875
z: -0.24010761082172394
visibility: 0.9997931122779846
","x: 254.2097625732422
y: 206.94580078125
z: -0.2518935203552246
visibility: 0.9998487234115601
","x: 255.02188110351562
y: 206.10089111328125
z: -0.25192683935165405
visibility: 0.999835729598999
","x: 255.98219299316406
y: 205.25326538085938
z: -0.2520098090171814
visibility: 0.9998055696487427
","x: 252.60806274414062
y: 207.63771057128906
z: -0.22645504772663116
visibility: 0.9997699856758118
","x: 252.25515747070312
y: 207.34373474121094
z: -0.2264869511127472
visibility: 0.9996656775474548
","x: 251.9053955078125
y: 206.84507751464844
z: -0.22652867436408997
visibility: 0.9996783137321472
","x: 261.82379150390625
y: 203.4286346435547
z: -0.22668500244617462
visibility: 0.9997616410255432
","x: 255.33619689941406
y: 202.653564453125
z: -0.10484937578439713
visibility: 0.9998514652252197
","x: 256.7975769042969
y: 219.99240112304688
z: -0.2236231565475464
visibility: 0.999694287776947
","x: 254.8926544189453
y: 219.69723510742188
z: -0.18905074894428253
visibility: 0.9995071291923523
","x: 278.738525390625
y: 239.44642639160156
z: -0.2156836986541748
visibility: 0.9998213648796082
","x: 259.21514892578125
y: 220.02078247070312
z: 0.020064450800418854
visibility: 0.9990940690040588
","x: 277.48681640625
y: 276.10821533203125
z: -0.40302976965904236
visibility: 0.8643158674240112
","x: 247.11355590820312
y: 225.79348754882812
z: 0.19593073427677155
visibility: 0.6112459897994995
","x: 268.1377258300781
y: 254.74464416503906
z: -0.5955253839492798
visibility: 0.5719876289367676
","x: 241.2882080078125
y: 233.2206573486328
z: 0.2955560088157654
visibility: 0.6527384519577026
","x: 267.0414733886719
y: 248.3167724609375
z: -0.6379340887069702
visibility: 0.47614672780036926
","x: 239.2852325439453
y: 234.3165283203125
z: 0.32033997774124146
visibility: 0.6261094808578491
","x: 267.5310363769531
y: 241.47865295410156
z: -0.6279031038284302
visibility: 0.4754908084869385
","x: 240.91973876953125
y: 234.27987670898438
z: 0.3018971085548401
visibility: 0.6296467781066895
","x: 267.2900695800781
y: 244.9114227294922
z: -0.5955979824066162
visibility: 0.4599796533584595
","x: 243.784912109375
y: 234.40855407714844
z: 0.29171526432037354
visibility: 0.6064615845680237
","x: 278.3875427246094
y: 332.4541015625
z: -0.09882479161024094
visibility: 0.9999256730079651
","x: 267.6595458984375
y: 328.4629821777344
z: 0.09891447424888611
visibility: 0.9998484253883362
","x: 259.3963928222656
y: 402.19287109375
z: -0.16002002358436584
visibility: 0.9844595789909363
","x: 257.7862243652344
y: 393.7608337402344
z: 0.128662571310997
visibility: 0.7903459072113037
","x: 285.66815185546875
y: 468.4906005859375
z: -0.10656805336475372
visibility: 0.9897525310516357
","x: 279.26336669921875
y: 457.8947448730469
z: 0.2718321979045868
visibility: 0.8540290594100952
","x: 296.3083190917969
y: 477.77288818359375
z: -0.10136058181524277
visibility: 0.9781315326690674
","x: 286.1157531738281
y: 466.55169677734375
z: 0.28287771344184875
visibility: 0.8827755451202393
","x: 272.6025390625
y: 488.5867004394531
z: -0.16036123037338257
visibility: 0.9866780638694763
","x: 269.8025207519531
y: 480.4375
z: 0.2354956567287445
visibility: 0.889013946056366
",,,,,,,,,,,,,,,,,,,,,,,,,,,,,,,,,,,,,,,,,,
12,"x: 254.48387145996094
y: 216.04403686523438
z: -0.2965551018714905
visibility: 0.9998071789741516
","x: 256.0225524902344
y: 207.7896270751953
z: -0.30221760272979736
visibility: 0.9998583197593689
","x: 257.381591796875
y: 206.82000732421875
z: -0.3022240102291107
visibility: 0.9998471140861511
","x: 258.84124755859375
y: 205.8950958251953
z: -0.3023483157157898
visibility: 0.9998180270195007
","x: 253.109375
y: 209.17935180664062
z: -0.2791677713394165
visibility: 0.9997823238372803
","x: 252.49815368652344
y: 209.22055053710938
z: -0.27918389439582825
visibility: 0.9996819496154785
","x: 251.93167114257812
y: 209.08316040039062
z: -0.27919310331344604
visibility: 0.999688446521759
","x: 263.6727294921875
y: 205.9110870361328
z: -0.25376805663108826
visibility: 0.9997790455818176
","x: 255.2926025390625
y: 206.85049438476562
z: -0.146913081407547
visibility: 0.999849796295166
","x: 259.1022033691406
y: 222.5444793701172
z: -0.2710593044757843
visibility: 0.9997040629386902
","x: 256.0409851074219
y: 222.86465454101562
z: -0.24104885756969452
visibility: 0.9995246529579163
","x: 277.9835205078125
y: 246.02317810058594
z: -0.23029451072216034
visibility: 0.9998300671577454
","x: 261.7066650390625
y: 222.68174743652344
z: 0.008409684523940086
visibility: 0.9991685748100281
","x: 270.91943359375
y: 300.6247253417969
z: -0.32951620221138
visibility: 0.8736072778701782
","x: 246.19577026367188
y: 227.38552856445312
z: 0.1447160542011261
visibility: 0.5835656523704529
","x: 263.3599548339844
y: 248.0411376953125
z: -0.37921303510665894
visibility: 0.6085391640663147
","x: 242.28770446777344
y: 230.0874481201172
z: 0.16919249296188354
visibility: 0.6269903182983398
","x: 260.6599426269531
y: 237.04217529296875
z: -0.4026738107204437
visibility: 0.5205932259559631
","x: 241.19447326660156
y: 228.45037841796875
z: 0.1932019293308258
visibility: 0.6024578809738159
","x: 263.06195068359375
y: 233.26467895507812
z: -0.3921746611595154
visibility: 0.5201721787452698
","x: 243.1161651611328
y: 228.9212646484375
z: 0.1763552725315094
visibility: 0.6053146719932556
","x: 263.40814208984375
y: 237.16636657714844
z: -0.37472182512283325
visibility: 0.500583827495575
","x: 244.93014526367188
y: 231.05447387695312
z: 0.1642932891845703
visibility: 0.5868897438049316
","x: 278.4839782714844
y: 334.5032958984375
z: -0.09725674986839294
visibility: 0.9999191761016846
","x: 269.93304443359375
y: 328.74853515625
z: 0.09738904982805252
visibility: 0.9998445510864258
","x: 259.2483215332031
y: 402.6417541503906
z: -0.1610162854194641
visibility: 0.9836781620979309
","x: 257.7262268066406
y: 394.4906311035156
z: 0.07773315161466599
visibility: 0.7749502062797546
","x: 286.0248107910156
y: 468.7276916503906
z: -0.09672196954488754
visibility: 0.9899144768714905
","x: 278.503173828125
y: 458.6824951171875
z: 0.21853390336036682
visibility: 0.8512964248657227
","x: 295.425537109375
y: 478.11114501953125
z: -0.09046357125043869
visibility: 0.9788495898246765
","x: 284.7835693359375
y: 468.8525085449219
z: 0.23085184395313263
visibility: 0.878226101398468
","x: 272.65283203125
y: 488.902587890625
z: -0.14264211058616638
visibility: 0.9867780804634094
","x: 268.5590515136719
y: 481.9974365234375
z: 0.21929171681404114
visibility: 0.8843837380409241
",,,,,,,,,,,,,,,,,,,,,,,,,,,,,,,,,,,,,,,,,,
13,"x: 255.76040649414062
y: 213.02301025390625
z: -0.2788452208042145
visibility: 0.999825656414032
","x: 257.1839599609375
y: 204.6238555908203
z: -0.28010791540145874
visibility: 0.9998717904090881
","x: 258.6376037597656
y: 203.89016723632812
z: -0.28008419275283813
visibility: 0.9998617768287659
","x: 260.1612243652344
y: 203.17987060546875
z: -0.2801847755908966
visibility: 0.9998353123664856
","x: 253.81661987304688
y: 205.5398712158203
z: -0.25978726148605347
visibility: 0.9998029470443726
","x: 252.9552001953125
y: 205.49256896972656
z: -0.2598024010658264
visibility: 0.9997119903564453
","x: 252.11351013183594
y: 205.34767150878906
z: -0.25980404019355774
visibility: 0.999717116355896
","x: 264.4078369140625
y: 203.45773315429688
z: -0.22189202904701233
visibility: 0.9998005628585815
","x: 255.08645629882812
y: 203.83599853515625
z: -0.14499107003211975
visibility: 0.9998629689216614
","x: 259.50067138671875
y: 219.14048767089844
z: -0.24906030297279358
visibility: 0.9997305870056152
","x: 256.2972717285156
y: 220.3019561767578
z: -0.22314532101154327
visibility: 0.9995680451393127
","x: 276.5651550292969
y: 242.21646118164062
z: -0.20608744025230408
visibility: 0.9998430609703064
","x: 261.3020935058594
y: 221.6445770263672
z: 0.026774924248456955
visibility: 0.9992448687553406
","x: 268.7793884277344
y: 296.6891174316406
z: -0.27628612518310547
visibility: 0.8836436867713928
","x: 239.65945434570312
y: 229.70989990234375
z: 0.031533196568489075
visibility: 0.5793765783309937
","x: 260.0268249511719
y: 250.16668701171875
z: -0.2720949947834015
visibility: 0.641998827457428
","x: 246.00099182128906
y: 225.11300659179688
z: -0.0533917136490345
visibility: 0.6120997071266174
","x: 257.81573486328125
y: 239.10299682617188
z: -0.2848070561885834
visibility: 0.560636579990387
","x: 248.90562438964844
y: 224.5661163330078
z: -0.04978639632463455
visibility: 0.5854535698890686
","x: 259.341064453125
y: 235.75762939453125
z: -0.2744266390800476
visibility: 0.5604653358459473
","x: 251.08363342285156
y: 224.21372985839844
z: -0.0508982315659523
visibility: 0.5866373777389526
","x: 260.0625915527344
y: 239.3558349609375
z: -0.2630082368850708
visibility: 0.5386382341384888
","x: 251.08331298828125
y: 225.35723876953125
z: -0.05501951649785042
visibility: 0.5718006491661072
","x: 277.6407165527344
y: 334.4271545410156
z: -0.09655226767063141
visibility: 0.9999151229858398
","x: 270.92742919921875
y: 327.8617858886719
z: 0.09669189900159836
visibility: 0.9998496770858765
","x: 259.7939147949219
y: 402.6564025878906
z: -0.1613101214170456
visibility: 0.9845877885818481
","x: 258.192138671875
y: 392.132080078125
z: 0.07042240351438522
visibility: 0.7684659957885742
","x: 285.9414367675781
y: 468.8169860839844
z: -0.1271866261959076
visibility: 0.990372359752655
","x: 279.2937927246094
y: 458.8775329589844
z: 0.17052875459194183
visibility: 0.8519358038902283
","x: 294.5398864746094
y: 477.631591796875
z: -0.12404893338680267
visibility: 0.9801865816116333
","x: 286.8428649902344
y: 469.51300048828125
z: 0.17722031474113464
visibility: 0.8792296648025513
","x: 272.7255859375
y: 489.0754699707031
z: -0.17515477538108826
visibility: 0.9870968461036682
","x: 268.9681396484375
y: 483.0172119140625
z: 0.1432136595249176
visibility: 0.8814142942428589
",,,,,,,,,,,,,,,,,,,,,,,,,,,,,,,,,,,,,,,,,,
14,"x: 255.75991821289062
y: 205.61175537109375
z: -0.23766052722930908
visibility: 0.9998356699943542
","x: 257.6414794921875
y: 198.6939697265625
z: -0.23205716907978058
visibility: 0.9998750686645508
","x: 259.1757507324219
y: 198.59107971191406
z: -0.23199884593486786
visibility: 0.9998661279678345
","x: 260.8067932128906
y: 198.41464233398438
z: -0.2320941984653473
visibility: 0.9998412728309631
","x: 254.13525390625
y: 198.2650604248047
z: -0.214674711227417
visibility: 0.9998119473457336
","x: 253.2365264892578
y: 197.96334838867188
z: -0.21468286216259003
visibility: 0.9997252225875854
","x: 252.30543518066406
y: 197.58584594726562
z: -0.214758038520813
visibility: 0.9997316002845764
","x: 265.10943603515625
y: 200.4098358154297
z: -0.1679113805294037
visibility: 0.999808669090271
","x: 255.0822296142578
y: 199.10549926757812
z: -0.09127700328826904
visibility: 0.9998665452003479
","x: 259.3253479003906
y: 212.6114044189453
z: -0.2059752494096756
visibility: 0.9997315406799316
","x: 255.9530029296875
y: 212.4959716796875
z: -0.18402442336082458
visibility: 0.999591588973999
","x: 273.8649597167969
y: 239.56240844726562
z: -0.1843770146369934
visibility: 0.9998233318328857
","x: 259.88726806640625
y: 222.82870483398438
z: 0.052326709032058716
visibility: 0.9993056654930115
","x: 260.2794494628906
y: 280.1758117675781
z: -0.19294773042201996
visibility: 0.8913466334342957
","x: 230.8416748046875
y: 224.5621337890625
z: 0.14371949434280396
visibility: 0.6063372492790222
","x: 255.75070190429688
y: 260.6693115234375
z: -0.14063981175422668
visibility: 0.6427285075187683
","x: 248.73495483398438
y: 222.44540405273438
z: 0.2150782346725464
visibility: 0.5981107950210571
","x: 253.33482360839844
y: 252.3226318359375
z: -0.15317624807357788
visibility: 0.5619292259216309
","x: 253.49879455566406
y: 224.83595275878906
z: 0.2330508679151535
visibility: 0.5600835680961609
","x: 253.78306579589844
y: 247.84121704101562
z: -0.14855419099330902
visibility: 0.5613908767700195
","x: 255.44985961914062
y: 224.93417358398438
z: 0.23510877788066864
visibility: 0.560317873954773
","x: 254.46902465820312
y: 248.9439239501953
z: -0.13656029105186462
visibility: 0.5364966988563538
","x: 254.39352416992188
y: 225.49105834960938
z: 0.21776318550109863
visibility: 0.5495394468307495
","x: 277.29510498046875
y: 333.88690185546875
z: -0.09751002490520477
visibility: 0.9998852014541626
","x: 270.0608215332031
y: 327.30120849609375
z: 0.09763355553150177
visibility: 0.9998371005058289
","x: 258.32427978515625
y: 402.8039245605469
z: -0.1736491620540619
visibility: 0.9857808947563171
","x: 258.09075927734375
y: 392.3336486816406
z: 0.08828898519277573
visibility: 0.7661718130111694
","x: 285.46136474609375
y: 468.49365234375
z: -0.13866162300109863
visibility: 0.9909091591835022
","x: 279.21722412109375
y: 457.73114013671875
z: 0.198278546333313
visibility: 0.856865644454956
","x: 293.75811767578125
y: 476.3888244628906
z: -0.13484764099121094
visibility: 0.9816663861274719
","x: 287.1940612792969
y: 469.41400146484375
z: 0.20644930005073547
visibility: 0.8845518231391907
","x: 272.6053161621094
y: 489.2802429199219
z: -0.18735797703266144
visibility: 0.9874887466430664
","x: 269.4710693359375
y: 482.8392028808594
z: 0.1673525720834732
visibility: 0.8825481534004211
",,,,,,,,,,,,,,,,,,,,,,,,,,,,,,,,,,,,,,,,,,
15,"x: 256.9271545410156
y: 200.71560668945312
z: -0.1716362088918686
visibility: 0.9998219609260559
","x: 258.7945861816406
y: 193.84185791015625
z: -0.16579507291316986
visibility: 0.9998433589935303
","x: 260.2909851074219
y: 193.8756561279297
z: -0.16576315462589264
visibility: 0.9998287558555603
","x: 261.798828125
y: 193.8748016357422
z: -0.16583488881587982
visibility: 0.999822199344635
","x: 255.0881805419922
y: 193.76242065429688
z: -0.15397486090660095
visibility: 0.9997726678848267
","x: 253.98825073242188
y: 193.86456298828125
z: -0.1539999097585678
visibility: 0.9996560215950012
","x: 252.8101806640625
y: 193.9949951171875
z: -0.15411175787448883
visibility: 0.999691367149353
","x: 265.3580322265625
y: 196.2957000732422
z: -0.10174508392810822
visibility: 0.9997934103012085
","x: 254.84442138671875
y: 196.73260498046875
z: -0.04879086837172508
visibility: 0.9998317360877991
","x: 259.8402099609375
y: 207.24362182617188
z: -0.14569386839866638
visibility: 0.9997227191925049
","x: 256.2806091308594
y: 207.60276794433594
z: -0.1312185376882553
visibility: 0.9995988011360168
","x: 273.6103820800781
y: 238.3123779296875
z: -0.12794139981269836
visibility: 0.999824583530426
","x: 259.5555419921875
y: 223.18617248535156
z: 0.0790238007903099
visibility: 0.9993460178375244
","x: 273.3890075683594
y: 283.9322509765625
z: -0.16024799644947052
visibility: 0.9014025330543518
","x: 230.03700256347656
y: 217.38792419433594
z: 0.1659473478794098
visibility: 0.6346784830093384
","x: 255.70619201660156
y: 280.7886962890625
z: -0.14825035631656647
visibility: 0.6713970303535461
","x: 248.43508911132812
y: 217.232421875
z: 0.23679772019386292
visibility: 0.5781915187835693
","x: 250.695556640625
y: 281.1535949707031
z: -0.16910457611083984
visibility: 0.5929728746414185
","x: 252.03863525390625
y: 217.0830078125
z: 0.2434491366147995
visibility: 0.5260058045387268
","x: 250.99038696289062
y: 274.4900817871094
z: -0.1669272929430008
visibility: 0.5921686887741089
","x: 255.38340759277344
y: 220.96087646484375
z: 0.2456495761871338
visibility: 0.5256900787353516
","x: 252.2687530517578
y: 275.5467529296875
z: -0.1463836133480072
visibility: 0.5644725561141968
","x: 253.57550048828125
y: 221.1630096435547
z: 0.2364029884338379
visibility: 0.5204405784606934
","x: 277.2333068847656
y: 330.48468017578125
z: -0.09093643724918365
visibility: 0.9998215436935425
","x: 268.7314758300781
y: 326.5180969238281
z: 0.09104426205158234
visibility: 0.9998027682304382
","x: 258.5754089355469
y: 401.1297302246094
z: -0.14407199621200562
visibility: 0.9868065714836121
","x: 257.0527648925781
y: 391.3916320800781
z: 0.0807512030005455
visibility: 0.7604940533638
","x: 285.1242980957031
y: 465.3677673339844
z: -0.08832968771457672
visibility: 0.990719735622406
","x: 280.239990234375
y: 458.03790283203125
z: 0.19553211331367493
visibility: 0.8599554300308228
","x: 292.8212585449219
y: 473.0968933105469
z: -0.07699283957481384
visibility: 0.981360673904419
","x: 288.71038818359375
y: 469.2864685058594
z: 0.20357820391654968
visibility: 0.8870508670806885
","x: 271.2186279296875
y: 488.3725280761719
z: -0.155395045876503
visibility: 0.9873958826065063
","x: 268.78271484375
y: 483.27001953125
z: 0.16272716224193573
visibility: 0.886035680770874
",,,,,,,,,,,,,,,,,,,,,,,,,,,,,,,,,,,,,,,,,,
16,"x: 257.4714050292969
y: 199.62823486328125
z: -0.17398682236671448
visibility: 0.9998328685760498
","x: 259.3784484863281
y: 192.02935791015625
z: -0.16718438267707825
visibility: 0.9998459815979004
","x: 260.89166259765625
y: 192.01943969726562
z: -0.16715265810489655
visibility: 0.9998313784599304
","x: 262.42169189453125
y: 191.9583740234375
z: -0.16721051931381226
visibility: 0.9998310208320618
","x: 255.46580505371094
y: 192.211181640625
z: -0.15546531975269318
visibility: 0.999778151512146
","x: 254.21983337402344
y: 192.45553588867188
z: -0.1554948389530182
visibility: 0.9996606707572937
","x: 252.83013916015625
y: 192.80178833007812
z: -0.15557356178760529
visibility: 0.9997016191482544
","x: 265.60247802734375
y: 194.21043395996094
z: -0.09906940907239914
visibility: 0.9998034834861755
","x: 254.03948974609375
y: 196.00889587402344
z: -0.047283679246902466
visibility: 0.99982750415802
","x: 260.1962585449219
y: 206.01602172851562
z: -0.1471743881702423
visibility: 0.9997396469116211
","x: 256.3444519042969
y: 206.80245971679688
z: -0.1328592449426651
visibility: 0.9996258616447449
","x: 273.998291015625
y: 237.4737548828125
z: -0.1163555234670639
visibility: 0.9998379349708557
","x: 255.41502380371094
y: 223.3853302001953
z: 0.08139073848724365
visibility: 0.9993895888328552
","x: 283.3821105957031
y: 284.3356018066406
z: -0.16441702842712402
visibility: 0.9110431671142578
","x: 226.9998779296875
y: 219.31275939941406
z: 0.15091988444328308
visibility: 0.6670383214950562
","x: 256.49090576171875
y: 292.9075927734375
z: -0.18468129634857178
visibility: 0.7021053433418274
","x: 247.77682495117188
y: 213.55120849609375
z: 0.1982039511203766
visibility: 0.5745038986206055
","x: 252.4617919921875
y: 297.99005126953125
z: -0.20719821751117706
visibility: 0.6283524632453918
","x: 250.54864501953125
y: 206.2057647705078
z: 0.20061680674552917
visibility: 0.5001143217086792
","x: 251.7282257080078
y: 294.4940490722656
z: -0.20495262742042542
visibility: 0.6274461150169373
","x: 254.33094787597656
y: 211.76034545898438
z: 0.2055540531873703
visibility: 0.49786072969436646
","x: 253.3411865234375
y: 292.6538391113281
z: -0.18304385244846344
visibility: 0.5985769033432007
","x: 253.0062713623047
y: 215.76539611816406
z: 0.19869643449783325
visibility: 0.4966634511947632
","x: 277.6602478027344
y: 328.71160888671875
z: -0.08773969858884811
visibility: 0.999774158000946
","x: 267.8529052734375
y: 326.73419189453125
z: 0.08781509846448898
visibility: 0.9997851848602295
","x: 258.908203125
y: 400.46337890625
z: -0.11811614036560059
visibility: 0.986966609954834
","x: 256.2126770019531
y: 393.8969421386719
z: 0.017862748354673386
visibility: 0.7617539763450623
","x: 279.8897705078125
y: 465.88787841796875
z: -0.037630319595336914
visibility: 0.9905626773834229
","x: 277.8817138671875
y: 461.8777770996094
z: 0.12464232742786407
visibility: 0.8667159080505371
","x: 286.69891357421875
y: 473.5339660644531
z: -0.03080461546778679
visibility: 0.9802464246749878
","x: 285.0583190917969
y: 471.056884765625
z: 0.13101957738399506
visibility: 0.890633761882782
","x: 265.07232666015625
y: 490.6064147949219
z: -0.11379025876522064
visibility: 0.9875994324684143
","x: 265.529296875
y: 488.3294677734375
z: 0.06046111509203911
visibility: 0.8926724195480347
",,,,,,,,,,,,,,,,,,,,,,,,,,,,,,,,,,,,,,,,,,
17,"x: 256.9976806640625
y: 200.4902801513672
z: -0.19232386350631714
visibility: 0.9998475313186646
","x: 258.7725524902344
y: 192.64157104492188
z: -0.18811947107315063
visibility: 0.9998587369918823
","x: 260.3499450683594
y: 192.44097900390625
z: -0.18807277083396912
visibility: 0.9998459219932556
","x: 261.92669677734375
y: 192.2324981689453
z: -0.18811850249767303
visibility: 0.9998461604118347
","x: 254.68057250976562
y: 192.81671142578125
z: -0.17563113570213318
visibility: 0.99979567527771
","x: 253.2930908203125
y: 192.8309326171875
z: -0.17566880583763123
visibility: 0.999688446521759
","x: 251.79013061523438
y: 192.9246368408203
z: -0.17570802569389343
visibility: 0.9997259974479675
","x: 264.7720642089844
y: 193.81689453125
z: -0.11300981044769287
visibility: 0.9998213052749634
","x: 251.1143798828125
y: 195.30580139160156
z: -0.06209130212664604
visibility: 0.9998374581336975
","x: 259.5977478027344
y: 206.78994750976562
z: -0.16496871411800385
visibility: 0.9997637271881104
","x: 255.4141082763672
y: 207.61160278320312
z: -0.1494668573141098
visibility: 0.99965500831604
","x: 274.65863037109375
y: 232.94837951660156
z: -0.10192441940307617
visibility: 0.9998534917831421
","x: 249.94935607910156
y: 223.4921875
z: 0.061863385140895844
visibility: 0.9993540048599243
","x: 296.8636169433594
y: 274.4185791015625
z: -0.15622398257255554
visibility: 0.9198015332221985
","x: 227.21763610839844
y: 239.07504272460938
z: 0.05971723049879074
visibility: 0.6954728960990906
","x: 268.162841796875
y: 288.76849365234375
z: -0.19424811005592346
visibility: 0.7303845882415771
","x: 247.84555053710938
y: 221.80157470703125
z: 0.012627285905182362
visibility: 0.5800675749778748
","x: 261.6015930175781
y: 297.41229248046875
z: -0.21277865767478943
visibility: 0.6601791381835938
","x: 252.92279052734375
y: 218.568603515625
z: -0.0023611977230757475
visibility: 0.4895290434360504
","x: 259.02459716796875
y: 291.76690673828125
z: -0.2054729461669922
visibility: 0.6589069366455078
","x: 254.8839569091797
y: 219.56301879882812
z: 0.01837657392024994
visibility: 0.48369985818862915
","x: 260.5300598144531
y: 289.0375061035156
z: -0.1890331208705902
visibility: 0.6292520761489868
","x: 253.0304718017578
y: 222.0535430908203
z: 0.017379235476255417
visibility: 0.4805919826030731
","x: 277.6103820800781
y: 329.0243835449219
z: -0.08490771055221558
visibility: 0.999780535697937
","x: 264.3698425292969
y: 326.89654541015625
z: 0.08475153148174286
visibility: 0.9997433423995972
","x: 259.9497375488281
y: 398.1942138671875
z: -0.15461650490760803
visibility: 0.986555278301239
","x: 245.2803955078125
y: 393.6654968261719
z: -0.020569270476698875
visibility: 0.7827803492546082
","x: 273.5011291503906
y: 466.93804931640625
z: -0.04165566340088844
visibility: 0.9910961389541626
","x: 276.9732971191406
y: 433.5418395996094
z: 0.15311110019683838
visibility: 0.8742955327033997
","x: 279.0096435546875
y: 477.54583740234375
z: -0.031893208622932434
visibility: 0.9792913198471069
","x: 284.6226501464844
y: 434.6249694824219
z: 0.13971032202243805
visibility: 0.8960437774658203
","x: 259.9944763183594
y: 495.2784729003906
z: -0.14012864232063293
visibility: 0.9881063103675842
","x: 276.8633117675781
y: 467.78057861328125
z: 0.13981039822101593
visibility: 0.8966121077537537
",,,,,,,,,,,,,,,,,,,,,,,,,,,,,,,,,,,,,,,,,,
18,"x: 257.1004943847656
y: 198.15850830078125
z: -0.18370415270328522
visibility: 0.999858558177948
","x: 258.75164794921875
y: 189.57818603515625
z: -0.17289838194847107
visibility: 0.9998644590377808
","x: 260.2630310058594
y: 189.23170471191406
z: -0.17287804186344147
visibility: 0.9998540282249451
","x: 261.7781982421875
y: 188.91717529296875
z: -0.17289437353610992
visibility: 0.9998538494110107
","x: 254.67825317382812
y: 190.23556518554688
z: -0.16601020097732544
visibility: 0.9998072385787964
","x: 253.21351623535156
y: 190.36550903320312
z: -0.16607099771499634
visibility: 0.9997112154960632
","x: 251.61883544921875
y: 190.52574157714844
z: -0.16610148549079895
visibility: 0.9997445940971375
","x: 263.8806457519531
y: 190.28811645507812
z: -0.08350317180156708
visibility: 0.9998331665992737
","x: 249.41476440429688
y: 192.66903686523438
z: -0.05228821560740471
visibility: 0.9998412728309631
","x: 259.5849304199219
y: 204.6836700439453
z: -0.14815478026866913
visibility: 0.9997832179069519
","x: 255.39920043945312
y: 205.8839111328125
z: -0.13933894038200378
visibility: 0.9996747374534607
","x: 276.0670166015625
y: 225.8021240234375
z: -0.06376493722200394
visibility: 0.99986732006073
","x: 242.86557006835938
y: 223.22915649414062
z: 0.059846181422472
visibility: 0.9993599057197571
","x: 304.3414306640625
y: 259.7652893066406
z: -0.14648061990737915
visibility: 0.9275203943252563
","x: 229.7321014404297
y: 261.34100341796875
z: -0.09618387371301651
visibility: 0.7223320007324219
","x: 281.5915222167969
y: 287.2339172363281
z: -0.24528324604034424
visibility: 0.7543495297431946
","x: 249.04669189453125
y: 240.48545837402344
z: -0.31539270281791687
visibility: 0.6171028017997742
","x: 275.339599609375
y: 295.6380615234375
z: -0.26944202184677124
visibility: 0.6858142018318176
","x: 254.6156463623047
y: 230.37559509277344
z: -0.3527635335922241
visibility: 0.5306500196456909
","x: 271.8140869140625
y: 291.3430480957031
z: -0.26063770055770874
visibility: 0.6841104030609131
","x: 254.9625244140625
y: 221.69332885742188
z: -0.3370790481567383
visibility: 0.5241766571998596
","x: 273.720458984375
y: 288.9819030761719
z: -0.24012741446495056
visibility: 0.6533719897270203
","x: 253.60084533691406
y: 225.3623046875
z: -0.313785582780838
visibility: 0.5174856781959534
","x: 277.5716552734375
y: 328.9471740722656
z: -0.0749816745519638
visibility: 0.9997979402542114
","x: 260.3351745605469
y: 327.0679931640625
z: 0.07482635974884033
visibility: 0.999752402305603
","x: 260.6475524902344
y: 400.006591796875
z: -0.17747487127780914
visibility: 0.9868088960647583
","x: 240.39727783203125
y: 393.581787109375
z: -0.00434825848788023
visibility: 0.7972330451011658
","x: 272.4059143066406
y: 468.97760009765625
z: -0.07205348461866379
visibility: 0.9914299845695496
","x: 268.542724609375
y: 443.2066345214844
z: 0.19852052628993988
visibility: 0.8769394755363464
","x: 278.1946105957031
y: 479.964111328125
z: -0.06573314219713211
visibility: 0.9753952622413635
","x: 274.1796569824219
y: 448.5952453613281
z: 0.21508507430553436
visibility: 0.8947647213935852
","x: 258.3664855957031
y: 497.3786926269531
z: -0.16646957397460938
visibility: 0.988283097743988
","x: 259.3985900878906
y: 473.3106994628906
z: 0.18066474795341492
visibility: 0.8966392278671265
",,,,,,,,,,,,,,,,,,,,,,,,,,,,,,,,,,,,,,,,,,
19,"x: 257.2235107421875
y: 195.83509826660156
z: -0.26807117462158203
visibility: 0.9998626112937927
","x: 258.73358154296875
y: 187.57806396484375
z: -0.25558045506477356
visibility: 0.9998457431793213
","x: 260.20654296875
y: 187.30477905273438
z: -0.25556108355522156
visibility: 0.9998388886451721
","x: 261.5341796875
y: 187.02679443359375
z: -0.2555839717388153
visibility: 0.9998348951339722
","x: 254.69407653808594
y: 188.24205017089844
z: -0.2531576156616211
visibility: 0.9998028874397278
","x: 253.2760009765625
y: 188.41543579101562
z: -0.2532355785369873
visibility: 0.9997206926345825
","x: 251.7703094482422
y: 188.57125854492188
z: -0.25324371457099915
visibility: 0.9997488260269165
","x: 262.3053894042969
y: 188.46804809570312
z: -0.15091125667095184
visibility: 0.999830961227417
","x: 249.2203369140625
y: 191.04888916015625
z: -0.1421634703874588
visibility: 0.9998160004615784
","x: 259.54656982421875
y: 201.96014404296875
z: -0.22786545753479004
visibility: 0.9997929930686951
","x: 255.37353515625
y: 203.1374969482422
z: -0.22442440688610077
visibility: 0.9996817111968994
","x: 278.2532043457031
y: 222.4042510986328
z: -0.10630307346582413
visibility: 0.9998782277107239
","x: 239.19259643554688
y: 224.10617065429688
z: -0.05644501373171806
visibility: 0.9993763566017151
","x: 306.26727294921875
y: 251.1500244140625
z: -0.11731163412332535
visibility: 0.9345953464508057
","x: 234.5500030517578
y: 273.2018737792969
z: -0.17453619837760925
visibility: 0.7440861463546753
","x: 292.07049560546875
y: 289.1932067871094
z: -0.13865667581558228
visibility: 0.7761520743370056
","x: 254.40176391601562
y: 252.9722442626953
z: -0.39062362909317017
visibility: 0.6507864594459534
","x: 286.3712158203125
y: 301.67169189453125
z: -0.15261347591876984
visibility: 0.7098114490509033
","x: 262.40704345703125
y: 246.227294921875
z: -0.4336032271385193
visibility: 0.5689138770103455
","x: 283.57977294921875
y: 297.31707763671875
z: -0.15891504287719727
visibility: 0.7080098390579224
","x: 262.60638427734375
y: 237.9759521484375
z: -0.43061384558677673
visibility: 0.5625717043876648
","x: 284.8581848144531
y: 293.3539733886719
z: -0.13818886876106262
visibility: 0.677264392375946
","x: 260.29168701171875
y: 239.487060546875
z: -0.3938486576080322
visibility: 0.5530046224594116
","x: 277.73809814453125
y: 328.65380859375
z: -0.06279464066028595
visibility: 0.9998018145561218
","x: 258.2496337890625
y: 327.0631408691406
z: 0.06277137994766235
visibility: 0.9997524619102478
","x: 260.9161071777344
y: 400.218505859375
z: -0.13237303495407104
visibility: 0.9877908825874329
","x: 240.7322235107422
y: 393.1299133300781
z: -0.03926839306950569
visibility: 0.8131449818611145
","x: 272.4777526855469
y: 470.8522033691406
z: -0.017257947474718094
visibility: 0.9919525980949402
","x: 248.22933959960938
y: 459.28662109375
z: 0.09902501106262207
visibility: 0.887786328792572
","x: 278.245361328125
y: 481.9432067871094
z: -0.012727121822535992
visibility: 0.9712271690368652
","x: 256.68048095703125
y: 469.1670227050781
z: 0.10701382160186768
visibility: 0.9003188610076904
","x: 259.3079528808594
y: 496.75128173828125
z: -0.11777529865503311
visibility: 0.9887382388114929
","x: 233.09535217285156
y: 482.24383544921875
z: 0.02491449937224388
visibility: 0.9052552580833435
",,,,,,,,,,,,,,,,,,,,,,,,,,,,,,,,,,,,,,,,,,
20,"x: 258.2761535644531
y: 191.56552124023438
z: -0.2694754898548126
visibility: 0.9998457431793213
","x: 258.90203857421875
y: 183.8042449951172
z: -0.25362908840179443
visibility: 0.9997832179069519
","x: 260.1632385253906
y: 183.75088500976562
z: -0.25361937284469604
visibility: 0.9997811317443848
","x: 261.5068054199219
y: 183.66018676757812
z: -0.25363534688949585
visibility: 0.9997732639312744
","x: 255.3275604248047
y: 183.9433135986328
z: -0.2560846209526062
visibility: 0.9997593760490417
","x: 253.82040405273438
y: 183.9882049560547
z: -0.25616124272346497
visibility: 0.9996991753578186
","x: 252.17507934570312
y: 184.00537109375
z: -0.25616252422332764
visibility: 0.9997220635414124
","x: 260.747314453125
y: 186.23960876464844
z: -0.1508314609527588
visibility: 0.9997974634170532
","x: 249.2328643798828
y: 187.46478271484375
z: -0.1588319092988968
visibility: 0.9996757507324219
","x: 259.76171875
y: 198.3662109375
z: -0.22922499477863312
visibility: 0.9997737407684326
","x: 255.66575622558594
y: 199.46987915039062
z: -0.23187749087810516
visibility: 0.9996395111083984
","x: 278.2313537597656
y: 220.5667266845703
z: -0.10251903533935547
visibility: 0.9998788833618164
","x: 235.86117553710938
y: 229.05795288085938
z: -0.08399997651576996
visibility: 0.9992126822471619
","x: 307.3210754394531
y: 245.81182861328125
z: -0.11003746092319489
visibility: 0.9408387541770935
","x: 241.73666381835938
y: 283.68829345703125
z: -0.1685800403356552
visibility: 0.7650321125984192
","x: 301.86468505859375
y: 288.5677490234375
z: -0.16936340928077698
visibility: 0.79475337266922
","x: 263.1589660644531
y: 250.97181701660156
z: -0.3393229842185974
visibility: 0.682915210723877
","x: 298.32037353515625
y: 300.8853454589844
z: -0.19021748006343842
visibility: 0.7281911969184875
","x: 269.29705810546875
y: 243.43960571289062
z: -0.3783356547355652
visibility: 0.6064453721046448
","x: 295.74560546875
y: 297.0026550292969
z: -0.1958167850971222
visibility: 0.7264353036880493
","x: 268.248291015625
y: 236.994384765625
z: -0.37851327657699585
visibility: 0.6004489660263062
","x: 296.2913513183594
y: 292.5650329589844
z: -0.171868234872818
visibility: 0.6967555284500122
","x: 266.4535827636719
y: 239.2330780029297
z: -0.3421265482902527
visibility: 0.5881345272064209
","x: 277.6306457519531
y: 328.71392822265625
z: -0.04485810175538063
visibility: 0.999748945236206
","x: 255.67457580566406
y: 327.3210144042969
z: 0.044914811849594116
visibility: 0.9996925592422485
","x: 261.846923828125
y: 401.6156005859375
z: -0.050784915685653687
visibility: 0.9879873394966125
","x: 242.0950469970703
y: 397.15155029296875
z: 0.0010773633839562535
visibility: 0.8277648091316223
","x: 272.29840087890625
y: 471.75860595703125
z: 0.09913002699613571
visibility: 0.9912176132202148
","x: 229.50379943847656
y: 472.58648681640625
z: 0.11325933039188385
visibility: 0.8978020548820496
","x: 277.45855712890625
y: 482.2477722167969
z: 0.10694990307092667
visibility: 0.9529956579208374
","x: 233.78382873535156
y: 485.867919921875
z: 0.11711474508047104
visibility: 0.9038721323013306
","x: 259.3299255371094
y: 496.55572509765625
z: 0.006221058778464794
visibility: 0.9872721433639526
","x: 219.25709533691406
y: 489.51422119140625
z: 0.019059989601373672
visibility: 0.9131628274917603
","x: 301.1712646484375
y: 296.439453125
z: 0.0
","x: 299.12200927734375
y: 301.8417663574219
z: 0.0007376325083896518
","x: 295.61376953125
y: 306.047119140625
z: 0.0006044220644980669
","x: 292.4635009765625
y: 307.38311767578125
z: 0.00016677845269441605
","x: 290.2602233886719
y: 306.90789794921875
z: -0.00011811868898803368
","x: 293.3753967285156
y: 307.5256042480469
z: -0.0007779039442539215
","x: 288.4908447265625
y: 308.1917419433594
z: -0.0018785307183861732
","x: 285.5793151855469
y: 308.01837158203125
z: -0.002182065974920988
","x: 283.5442199707031
y: 307.49591064453125
z: -0.0022236229851841927
","x: 292.92486572265625
y: 304.8526916503906
z: -0.0019913509022444487
","x: 287.9968566894531
y: 305.96124267578125
z: -0.002795732580125332
","x: 285.0356140136719
y: 305.70562744140625
z: -0.0026849089190363884
","x: 282.90087890625
y: 305.07135009765625
z: -0.0026955227367579937
","x: 292.8365783691406
y: 301.4425354003906
z: -0.0031708183232694864
","x: 288.5334777832031
y: 302.4801330566406
z: -0.004045659210532904
","x: 286.1090393066406
y: 302.2846984863281
z: -0.004145434591919184
","x: 284.44500732421875
y: 301.92706298828125
z: -0.0042643072083592415
","x: 293.10308837890625
y: 297.6192321777344
z: -0.004368011374026537
","x: 290.29949951171875
y: 298.2854919433594
z: -0.005062902346253395
","x: 289.037109375
y: 298.3486022949219
z: -0.005076785571873188
","x: 288.17144775390625
y: 298.2942810058594
z: -0.005054748151451349
",,,,,,,,,,,,,,,,,,,,,
21,"x: 258.2761535644531
y: 191.56552124023438
z: -0.2694754898548126
visibility: 0.9998457431793213
","x: 258.90203857421875
y: 183.8042449951172
z: -0.25362908840179443
visibility: 0.9997832179069519
","x: 260.1632385253906
y: 183.75088500976562
z: -0.25361937284469604
visibility: 0.9997811317443848
","x: 261.5068054199219
y: 183.66018676757812
z: -0.25363534688949585
visibility: 0.9997732639312744
","x: 255.3275604248047
y: 183.9433135986328
z: -0.2560846209526062
visibility: 0.9997593760490417
","x: 253.82040405273438
y: 183.9882049560547
z: -0.25616124272346497
visibility: 0.9996991753578186
","x: 252.17507934570312
y: 184.00537109375
z: -0.25616252422332764
visibility: 0.9997220635414124
","x: 260.747314453125
y: 186.23960876464844
z: -0.1508314609527588
visibility: 0.9997974634170532
","x: 249.2328643798828
y: 187.46478271484375
z: -0.1588319092988968
visibility: 0.9996757507324219
","x: 259.76171875
y: 198.3662109375
z: -0.22922499477863312
visibility: 0.9997737407684326
","x: 255.66575622558594
y: 199.46987915039062
z: -0.23187749087810516
visibility: 0.9996395111083984
","x: 278.2313537597656
y: 220.5667266845703
z: -0.10251903533935547
visibility: 0.9998788833618164
","x: 235.86117553710938
y: 229.05795288085938
z: -0.08399997651576996
visibility: 0.9992126822471619
","x: 307.3210754394531
y: 245.81182861328125
z: -0.11003746092319489
visibility: 0.9408387541770935
","x: 241.73666381835938
y: 283.68829345703125
z: -0.1685800403356552
visibility: 0.7650321125984192
","x: 301.86468505859375
y: 288.5677490234375
z: -0.16936340928077698
visibility: 0.79475337266922
","x: 263.1589660644531
y: 250.97181701660156
z: -0.3393229842185974
visibility: 0.682915210723877
","x: 298.32037353515625
y: 300.8853454589844
z: -0.19021748006343842
visibility: 0.7281911969184875
","x: 269.29705810546875
y: 243.43960571289062
z: -0.3783356547355652
visibility: 0.6064453721046448
","x: 295.74560546875
y: 297.0026550292969
z: -0.1958167850971222
visibility: 0.7264353036880493
","x: 268.248291015625
y: 236.994384765625
z: -0.37851327657699585
visibility: 0.6004489660263062
","x: 296.2913513183594
y: 292.5650329589844
z: -0.171868234872818
visibility: 0.6967555284500122
","x: 266.4535827636719
y: 239.2330780029297
z: -0.3421265482902527
visibility: 0.5881345272064209
","x: 277.6306457519531
y: 328.71392822265625
z: -0.04485810175538063
visibility: 0.999748945236206
","x: 255.67457580566406
y: 327.3210144042969
z: 0.044914811849594116
visibility: 0.9996925592422485
","x: 261.846923828125
y: 401.6156005859375
z: -0.050784915685653687
visibility: 0.9879873394966125
","x: 242.0950469970703
y: 397.15155029296875
z: 0.0010773633839562535
visibility: 0.8277648091316223
","x: 272.29840087890625
y: 471.75860595703125
z: 0.09913002699613571
visibility: 0.9912176132202148
","x: 229.50379943847656
y: 472.58648681640625
z: 0.11325933039188385
visibility: 0.8978020548820496
","x: 277.45855712890625
y: 482.2477722167969
z: 0.10694990307092667
visibility: 0.9529956579208374
","x: 233.78382873535156
y: 485.867919921875
z: 0.11711474508047104
visibility: 0.9038721323013306
","x: 259.3299255371094
y: 496.55572509765625
z: 0.006221058778464794
visibility: 0.9872721433639526
","x: 219.25709533691406
y: 489.51422119140625
z: 0.019059989601373672
visibility: 0.9131628274917603
","x: 301.1712646484375
y: 296.439453125
z: 0.0
","x: 299.12200927734375
y: 301.8417663574219
z: 0.0007376325083896518
","x: 295.61376953125
y: 306.047119140625
z: 0.0006044220644980669
","x: 292.4635009765625
y: 307.38311767578125
z: 0.00016677845269441605
","x: 290.2602233886719
y: 306.90789794921875
z: -0.00011811868898803368
","x: 293.3753967285156
y: 307.5256042480469
z: -0.0007779039442539215
","x: 288.4908447265625
y: 308.1917419433594
z: -0.0018785307183861732
","x: 285.5793151855469
y: 308.01837158203125
z: -0.002182065974920988
","x: 283.5442199707031
y: 307.49591064453125
z: -0.0022236229851841927
","x: 292.92486572265625
y: 304.8526916503906
z: -0.0019913509022444487
","x: 287.9968566894531
y: 305.96124267578125
z: -0.002795732580125332
","x: 285.0356140136719
y: 305.70562744140625
z: -0.0026849089190363884
","x: 282.90087890625
y: 305.07135009765625
z: -0.0026955227367579937
","x: 292.8365783691406
y: 301.4425354003906
z: -0.0031708183232694864
","x: 288.5334777832031
y: 302.4801330566406
z: -0.004045659210532904
","x: 286.1090393066406
y: 302.2846984863281
z: -0.004145434591919184
","x: 284.44500732421875
y: 301.92706298828125
z: -0.0042643072083592415
","x: 293.10308837890625
y: 297.6192321777344
z: -0.004368011374026537
","x: 290.29949951171875
y: 298.2854919433594
z: -0.005062902346253395
","x: 289.037109375
y: 298.3486022949219
z: -0.005076785571873188
","x: 288.17144775390625
y: 298.2942810058594
z: -0.005054748151451349
",,,,,,,,,,,,,,,,,,,,,
22,"x: 259.8602600097656
y: 189.8308563232422
z: -0.3141595423221588
visibility: 0.9998079538345337
","x: 259.1542053222656
y: 181.6512908935547
z: -0.29862529039382935
visibility: 0.9996702671051025
","x: 260.1258239746094
y: 181.36392211914062
z: -0.2986101508140564
visibility: 0.9996769428253174
","x: 261.2767333984375
y: 181.03701782226562
z: -0.2986257076263428
visibility: 0.9996703863143921
","x: 256.3795471191406
y: 182.3202667236328
z: -0.3068671226501465
visibility: 0.9996639490127563
","x: 254.8957977294922
y: 182.52252197265625
z: -0.30694839358329773
visibility: 0.9996374845504761
","x: 253.1719512939453
y: 182.74925231933594
z: -0.3069695830345154
visibility: 0.999651312828064
","x: 258.35699462890625
y: 183.92803955078125
z: -0.1939835101366043
visibility: 0.9997156262397766
","x: 249.2233123779297
y: 187.05902099609375
z: -0.2282397747039795
visibility: 0.999456524848938
","x: 260.46295166015625
y: 196.55743408203125
z: -0.2725335657596588
visibility: 0.9997410178184509
","x: 257.0787658691406
y: 197.74832153320312
z: -0.28252094984054565
visibility: 0.9995678663253784
","x: 277.9194030761719
y: 218.61122131347656
z: -0.11359759420156479
visibility: 0.9998804926872253
","x: 233.6101531982422
y: 231.64739990234375
z: -0.1591271162033081
visibility: 0.9990167021751404
","x: 306.8210144042969
y: 244.5976104736328
z: -0.12520770728588104
visibility: 0.9464693069458008
","x: 242.8397979736328
y: 286.1340026855469
z: -0.23416025936603546
visibility: 0.7858278751373291
","x: 307.46722412109375
y: 287.97723388671875
z: -0.19709588587284088
visibility: 0.8129380345344543
","x: 264.57757568359375
y: 250.52090454101562
z: -0.379637748003006
visibility: 0.7127127051353455
","x: 304.5520935058594
y: 301.0202941894531
z: -0.22224994003772736
visibility: 0.7483338713645935
","x: 270.2961730957031
y: 242.0546112060547
z: -0.417266845703125
visibility: 0.6416997909545898
","x: 301.806884765625
y: 297.8731994628906
z: -0.24059586226940155
visibility: 0.7469001412391663
","x: 269.34893798828125
y: 236.0869140625
z: -0.41868042945861816
visibility: 0.636063277721405
","x: 302.2980041503906
y: 293.28094482421875
z: -0.2071055918931961
visibility: 0.719016432762146
","x: 267.58087158203125
y: 239.02662658691406
z: -0.38185009360313416
visibility: 0.6217111349105835
","x: 276.7392578125
y: 328.85455322265625
z: -0.029104936867952347
visibility: 0.9996938705444336
","x: 253.33135986328125
y: 327.39703369140625
z: 0.0291212797164917
visibility: 0.9995903968811035
","x: 262.13671875
y: 403.27618408203125
z: -0.022373806685209274
visibility: 0.987910807132721
","x: 240.03404235839844
y: 399.22369384765625
z: 0.008634394966065884
visibility: 0.8408132195472717
","x: 271.8349609375
y: 472.2214050292969
z: 0.14276930689811707
visibility: 0.9904734492301941
","x: 222.51608276367188
y: 475.8491516113281
z: 0.12990674376487732
visibility: 0.9065409898757935
","x: 276.6598205566406
y: 482.4751281738281
z: 0.15232326090335846
visibility: 0.935411274433136
","x: 225.01991271972656
y: 488.4002990722656
z: 0.13587048649787903
visibility: 0.9042243957519531
","x: 259.7333679199219
y: 497.3988037109375
z: 0.0518840067088604
visibility: 0.9855287671089172
","x: 214.708251953125
y: 493.3941650390625
z: 0.03598567098379135
visibility: 0.9198839068412781
",,,,,,,,,,,,,,,,,,,,,,,,,,,,,,,,,,,,,,,,,,
23,"x: 260.9180603027344
y: 191.05909729003906
z: -0.3113599717617035
visibility: 0.9998058676719666
","x: 259.7852783203125
y: 182.72779846191406
z: -0.29451984167099
visibility: 0.9996516108512878
","x: 260.3065490722656
y: 182.46080017089844
z: -0.29451003670692444
visibility: 0.9996550679206848
","x: 261.23046875
y: 182.12525939941406
z: -0.2945097088813782
visibility: 0.9996507167816162
","x: 257.7126159667969
y: 183.08877563476562
z: -0.3073900043964386
visibility: 0.9996567964553833
","x: 256.2847595214844
y: 183.0960235595703
z: -0.3074498474597931
visibility: 0.9996387958526611
","x: 254.58853149414062
y: 183.05113220214844
z: -0.30744680762290955
visibility: 0.9996472597122192
","x: 257.3620300292969
y: 184.07098388671875
z: -0.18507318198680878
visibility: 0.9996986985206604
","x: 249.26490783691406
y: 185.97503662109375
z: -0.24055442214012146
visibility: 0.9994219541549683
","x: 260.87579345703125
y: 197.6156463623047
z: -0.26712632179260254
visibility: 0.9997454881668091
","x: 257.91943359375
y: 198.44114685058594
z: -0.2835225760936737
visibility: 0.9995763301849365
","x: 276.3709411621094
y: 218.2554931640625
z: -0.114965058863163
visibility: 0.9998877048492432
","x: 231.5294647216797
y: 232.30496215820312
z: -0.1732868105173111
visibility: 0.9989807605743408
","x: 303.8671569824219
y: 242.78665161132812
z: -0.1117977723479271
visibility: 0.9516666531562805
","x: 242.9649658203125
y: 285.2926940917969
z: -0.25818124413490295
visibility: 0.8060283064842224
","x: 314.5763854980469
y: 281.6574401855469
z: -0.20847682654857635
visibility: 0.8308289051055908
","x: 266.4139404296875
y: 249.05087280273438
z: -0.40394577383995056
visibility: 0.7406394481658936
","x: 314.76885986328125
y: 293.01043701171875
z: -0.23593123257160187
visibility: 0.7706934213638306
","x: 271.9226379394531
y: 241.2104949951172
z: -0.4446079134941101
visibility: 0.6755719184875488
","x: 310.3868713378906
y: 292.45068359375
z: -0.25938862562179565
visibility: 0.7695770859718323
","x: 270.9945068359375
y: 235.5019989013672
z: -0.4456227421760559
visibility: 0.6703680157661438
","x: 309.6216125488281
y: 288.5458068847656
z: -0.22079917788505554
visibility: 0.7440126538276672
","x: 269.0221862792969
y: 238.81285095214844
z: -0.405886173248291
visibility: 0.655452311038971
","x: 274.44049072265625
y: 329.004638671875
z: -0.019111286848783493
visibility: 0.9996678829193115
","x: 250.63087463378906
y: 327.5659484863281
z: 0.019143346697092056
visibility: 0.9995259046554565
","x: 262.8192443847656
y: 404.6934814453125
z: -0.04118674248456955
visibility: 0.9885587096214294
","x: 235.6981201171875
y: 402.01104736328125
z: -0.018468432128429413
visibility: 0.8546883463859558
","x: 271.2898254394531
y: 473.7708740234375
z: 0.11475904285907745
visibility: 0.9905871152877808
","x: 219.93148803710938
y: 480.8907775878906
z: 0.09043992310762405
visibility: 0.9151309132575989
","x: 275.2823181152344
y: 484.0728759765625
z: 0.12351571023464203
visibility: 0.9297250509262085
","x: 223.47137451171875
y: 494.22930908203125
z: 0.0936688631772995
visibility: 0.9075412750244141
","x: 259.40655517578125
y: 498.4317321777344
z: 0.01966410130262375
visibility: 0.9854512810707092
","x: 211.31231689453125
y: 501.07110595703125
z: -0.021534953266382217
visibility: 0.9267734289169312
","x: 316.22918701171875
y: 285.2098693847656
z: 0.0
","x: 312.9479064941406
y: 283.49932861328125
z: -0.007956020534038544
","x: 309.1458435058594
y: 285.8104248046875
z: -0.011138362810015678
","x: 306.4988708496094
y: 290.1249084472656
z: -0.012214566580951214
","x: 304.4995422363281
y: 294.63568115234375
z: -0.012777503579854965
","x: 311.4200134277344
y: 294.79083251953125
z: -0.010766269639134407
","x: 307.78173828125
y: 301.44476318359375
z: -0.012611840851604939
","x: 304.8643798828125
y: 304.83880615234375
z: -0.013086097314953804
","x: 302.724365234375
y: 306.7868347167969
z: -0.01309947855770588
","x: 312.4639892578125
y: 297.35589599609375
z: -0.006617321167141199
","x: 308.77130126953125
y: 303.5196533203125
z: -0.008410288020968437
","x: 305.5867614746094
y: 306.22119140625
z: -0.00874146819114685
","x: 302.9268798828125
y: 307.6987609863281
z: -0.008831718005239964
","x: 312.6654052734375
y: 298.6689453125
z: -0.0026222309097647667
","x: 309.43560791015625
y: 304.0227355957031
z: -0.004248917102813721
","x: 306.67498779296875
y: 306.82666015625
z: -0.005353545304387808
","x: 304.4418640136719
y: 308.2987060546875
z: -0.005995708983391523
","x: 312.53668212890625
y: 299.0855712890625
z: 0.0009089631494134665
","x: 309.9582824707031
y: 304.0549621582031
z: -0.00025913940044119954
","x: 307.5441589355469
y: 306.560302734375
z: -0.0013344601029530168
","x: 305.5148010253906
y: 307.6400451660156
z: -0.0020331505220383406
",,,,,,,,,,,,,,,,,,,,,
24,"x: 260.9180603027344
y: 191.05909729003906
z: -0.3113599717617035
visibility: 0.9998058676719666
","x: 259.7852783203125
y: 182.72779846191406
z: -0.29451984167099
visibility: 0.9996516108512878
","x: 260.3065490722656
y: 182.46080017089844
z: -0.29451003670692444
visibility: 0.9996550679206848
","x: 261.23046875
y: 182.12525939941406
z: -0.2945097088813782
visibility: 0.9996507167816162
","x: 257.7126159667969
y: 183.08877563476562
z: -0.3073900043964386
visibility: 0.9996567964553833
","x: 256.2847595214844
y: 183.0960235595703
z: -0.3074498474597931
visibility: 0.9996387958526611
","x: 254.58853149414062
y: 183.05113220214844
z: -0.30744680762290955
visibility: 0.9996472597122192
","x: 257.3620300292969
y: 184.07098388671875
z: -0.18507318198680878
visibility: 0.9996986985206604
","x: 249.26490783691406
y: 185.97503662109375
z: -0.24055442214012146
visibility: 0.9994219541549683
","x: 260.87579345703125
y: 197.6156463623047
z: -0.26712632179260254
visibility: 0.9997454881668091
","x: 257.91943359375
y: 198.44114685058594
z: -0.2835225760936737
visibility: 0.9995763301849365
","x: 276.3709411621094
y: 218.2554931640625
z: -0.114965058863163
visibility: 0.9998877048492432
","x: 231.5294647216797
y: 232.30496215820312
z: -0.1732868105173111
visibility: 0.9989807605743408
","x: 303.8671569824219
y: 242.78665161132812
z: -0.1117977723479271
visibility: 0.9516666531562805
","x: 242.9649658203125
y: 285.2926940917969
z: -0.25818124413490295
visibility: 0.8060283064842224
","x: 314.5763854980469
y: 281.6574401855469
z: -0.20847682654857635
visibility: 0.8308289051055908
","x: 266.4139404296875
y: 249.05087280273438
z: -0.40394577383995056
visibility: 0.7406394481658936
","x: 314.76885986328125
y: 293.01043701171875
z: -0.23593123257160187
visibility: 0.7706934213638306
","x: 271.9226379394531
y: 241.2104949951172
z: -0.4446079134941101
visibility: 0.6755719184875488
","x: 310.3868713378906
y: 292.45068359375
z: -0.25938862562179565
visibility: 0.7695770859718323
","x: 270.9945068359375
y: 235.5019989013672
z: -0.4456227421760559
visibility: 0.6703680157661438
","x: 309.6216125488281
y: 288.5458068847656
z: -0.22079917788505554
visibility: 0.7440126538276672
","x: 269.0221862792969
y: 238.81285095214844
z: -0.405886173248291
visibility: 0.655452311038971
","x: 274.44049072265625
y: 329.004638671875
z: -0.019111286848783493
visibility: 0.9996678829193115
","x: 250.63087463378906
y: 327.5659484863281
z: 0.019143346697092056
visibility: 0.9995259046554565
","x: 262.8192443847656
y: 404.6934814453125
z: -0.04118674248456955
visibility: 0.9885587096214294
","x: 235.6981201171875
y: 402.01104736328125
z: -0.018468432128429413
visibility: 0.8546883463859558
","x: 271.2898254394531
y: 473.7708740234375
z: 0.11475904285907745
visibility: 0.9905871152877808
","x: 219.93148803710938
y: 480.8907775878906
z: 0.09043992310762405
visibility: 0.9151309132575989
","x: 275.2823181152344
y: 484.0728759765625
z: 0.12351571023464203
visibility: 0.9297250509262085
","x: 223.47137451171875
y: 494.22930908203125
z: 0.0936688631772995
