uscmakers/ReverseChoreography/data/1_thats_what_i_like_bruno_mars.csv
,NOSE,LEFT_EYE_INNER,LEFT_EYE,LEFT_EYE_OUTER,RIGHT_EYE_INNER,RIGHT_EYE,RIGHT_EYE_OUTER,LEFT_EAR,RIGHT_EAR,MOUTH_LEFT,MOUTH_RIGHT,LEFT_SHOULDER,RIGHT_SHOULDER,LEFT_ELBOW,RIGHT_ELBOW,LEFT_WRIST,RIGHT_WRIST,LEFT_PINKY,RIGHT_PINKY,LEFT_INDEX,RIGHT_INDEX,LEFT_THUMB,RIGHT_THUMB,LEFT_HIP,RIGHT_HIP,LEFT_KNEE,RIGHT_KNEE,LEFT_ANKLE,RIGHT_ANKLE,LEFT_HEEL,RIGHT_HEEL,LEFT_FOOT_INDEX,RIGHT_FOOT_INDEX,WRIST,THUMB_CPC,THUMB_MCP,THUMB_IP,THUMB_TIP,INDEX_FINGER_MCP,INDEX_FINGER_PIP,INDEX_FINGER_DIP,INDEX_FINGER_TIP,MIDDLE_FINGER_MCP,MIDDLE_FINGER_PIP,MIDDLE_FINGER_DIP,MIDDLE_FINGER_TIP,RING_FINGER_PIP,RING_FINGER_DIP,RING_FINGER_TIP,RING_FINGER_MCP,PINKY_MCP,PINKY_PIP,PINKY_DIP,PINKY_TIP,WRIST2,THUMB_CPC2,THUMB_MCP2,THUMB_IP2,THUMB_TIP2,INDEX_FINGER_MCP2,INDEX_FINGER_PIP2,INDEX_FINGER_DIP2,INDEX_FINGER_TIP2,MIDDLE_FINGER_MCP2,MIDDLE_FINGER_PIP2,MIDDLE_FINGER_DIP2,MIDDLE_FINGER_TIP2,RING_FINGER_PIP2,RING_FINGER_DIP2,RING_FINGER_TIP2,RING_FINGER_MCP2,PINKY_MCP2,PINKY_PIP2,PINKY_DIP2,PINKY_TIP2
0,"x: 196.28353881835938
y: 175.85208129882812
z: -0.44273853302001953
visibility: 0.9996347427368164
","x: 196.5703125
y: 167.8505859375
z: -0.43601685762405396
visibility: 0.9983742237091064
","x: 197.5047607421875
y: 166.13783264160156
z: -0.4360373616218567
visibility: 0.9985958933830261
","x: 198.41775512695312
y: 164.24940490722656
z: -0.43611231446266174
visibility: 0.9983996748924255
","x: 193.25523376464844
y: 170.30206298828125
z: -0.4348125457763672
visibility: 0.9985864162445068
","x: 191.9080810546875
y: 170.36756896972656
z: -0.4349055886268616
visibility: 0.9989230036735535
","x: 190.48654174804688
y: 170.29000854492188
z: -0.4349880814552307
visibility: 0.9990746974945068
","x: 198.37046813964844
y: 161.07345581054688
z: -0.31136712431907654
visibility: 0.998370349407196
","x: 187.0638885498047
y: 169.270751953125
z: -0.30191996693611145
visibility: 0.9992677569389343
","x: 199.04095458984375
y: 178.63656616210938
z: -0.38801711797714233
visibility: 0.9996873140335083
","x: 194.77841186523438
y: 181.6254425048828
z: -0.3857121467590332
visibility: 0.9996697902679443
","x: 222.12265014648438
y: 178.37088012695312
z: -0.20517650246620178
visibility: 0.9999446868896484
","x: 176.61114501953125
y: 221.78460693359375
z: -0.15096895396709442
visibility: 0.999889612197876
","x: 248.37464904785156
y: 180.603515625
z: -0.3019527792930603
visibility: 0.986823320388794
","x: 182.0059051513672
y: 296.0269470214844
z: -0.042283546179533005
visibility: 0.9248412847518921
","x: 219.42068481445312
y: 201.50521850585938
z: -0.45109742879867554
visibility: 0.6670366525650024
","x: 184.69244384765625
y: 354.6681213378906
z: -0.07706411182880402
visibility: 0.7483470439910889
","x: 211.107421875
y: 206.3203582763672
z: -0.4891051650047302
visibility: 0.35485464334487915
","x: 183.75291442871094
y: 370.9202575683594
z: -0.09008647501468658
visibility: 0.6085821390151978
","x: 209.06333923339844
y: 205.39630126953125
z: -0.4782291054725647
visibility: 0.34376177191734314
","x: 184.44151306152344
y: 372.6903076171875
z: -0.12893934547901154
visibility: 0.6376950740814209
","x: 212.31076049804688
y: 204.67526245117188
z: -0.4511259198188782
visibility: 0.29196757078170776
","x: 186.44235229492188
y: 366.536376953125
z: -0.0920722708106041
visibility: 0.5848482847213745
","x: 239.62966918945312
y: 320.35040283203125
z: -0.02026972360908985
visibility: 0.9996218681335449
","x: 211.00355529785156
y: 334.631591796875
z: 0.020192978903651237
visibility: 0.9993693232536316
","x: 261.2920227050781
y: 408.0086975097656
z: -0.03851856663823128
visibility: 0.9952699542045593
","x: 210.43728637695312
y: 428.250244140625
z: -0.009871614165604115
visibility: 0.9941078424453735
","x: 280.7356872558594
y: 491.58135986328125
z: 0.15365205705165863
visibility: 0.9949058294296265
","x: 202.11231994628906
y: 518.9185791015625
z: 0.1683780401945114
visibility: 0.9926551580429077
","x: 283.36053466796875
y: 501.7197265625
z: 0.16582009196281433
visibility: 0.8676885366439819
","x: 201.58042907714844
y: 528.8934936523438
z: 0.18047647178173065
visibility: 0.8920616507530212
","x: 279.23876953125
y: 531.8713989257812
z: 0.013187019154429436
visibility: 0.9863133430480957
","x: 208.5008544921875
y: 546.0115966796875
z: 0.035569678992033005
visibility: 0.9867599010467529
",,,,,,,,,,,,,,,,,,,,,,,,,,,,,,,,,,,,,,,,,,
1,"x: 247.61483764648438
y: 167.43292236328125
z: -0.27057185769081116
visibility: 0.9996525645256042
","x: 248.54742431640625
y: 160.2131805419922
z: -0.2552957832813263
visibility: 0.9984890818595886
","x: 248.7459716796875
y: 160.2897491455078
z: -0.2553156018257141
visibility: 0.998694658279419
","x: 248.97393798828125
y: 160.2841796875
z: -0.25528067350387573
visibility: 0.9984965324401855
","x: 246.90565490722656
y: 159.50665283203125
z: -0.25765854120254517
visibility: 0.998673141002655
","x: 245.9378204345703
y: 159.20213317871094
z: -0.2577301561832428
visibility: 0.9989939332008362
","x: 244.89492797851562
y: 158.8792266845703
z: -0.2578291893005371
visibility: 0.9991338849067688
","x: 245.47747802734375
y: 161.07244873046875
z: -0.15094499289989471
visibility: 0.998370885848999
","x: 238.60848999023438
y: 161.07008361816406
z: -0.16510622203350067
visibility: 0.9992987513542175
","x: 245.22549438476562
y: 176.0856475830078
z: -0.2312954217195511
visibility: 0.9996790289878845
","x: 242.7770538330078
y: 175.62313842773438
z: -0.23570957779884338
visibility: 0.9996854662895203
","x: 255.67274475097656
y: 196.27557373046875
z: -0.13604526221752167
visibility: 0.99991375207901
","x: 209.80690002441406
y: 205.90577697753906
z: -0.05407669022679329
visibility: 0.9998925924301147
","x: 250.59140014648438
y: 247.8720703125
z: -0.2714647054672241
visibility: 0.9814284443855286
","x: 199.93252563476562
y: 272.0909423828125
z: 0.0042151110246777534
visibility: 0.9299448132514954
","x: 221.92706298828125
y: 212.69996643066406
z: -0.5020936727523804
visibility: 0.6979556083679199
","x: 186.9122772216797
y: 319.729736328125
z: -0.05783373862504959
visibility: 0.7713494300842285
","x: 214.7743377685547
y: 206.30093383789062
z: -0.5597144961357117
visibility: 0.41559523344039917
","x: 183.7144317626953
y: 335.3678894042969
z: -0.07324449717998505
visibility: 0.6428547501564026
","x: 214.99118041992188
y: 203.20986938476562
z: -0.5588451027870178
visibility: 0.40552619099617004
","x: 184.33694458007812
y: 335.0599365234375
z: -0.11292462050914764
visibility: 0.6698446273803711
","x: 217.48008728027344
y: 204.41989135742188
z: -0.5091961622238159
visibility: 0.35676276683807373
","x: 186.43824768066406
y: 329.6876525878906
z: -0.07519547641277313
visibility: 0.6217939257621765
","x: 255.6643829345703
y: 329.4402770996094
z: -0.01953437179327011
visibility: 0.9995906949043274
","x: 229.93345642089844
y: 335.85455322265625
z: 0.019473057240247726
visibility: 0.9993855357170105
","x: 266.46307373046875
y: 420.7857666015625
z: -0.03400466963648796
visibility: 0.9952192902565002
","x: 219.008056640625
y: 431.14617919921875
z: -0.02950691059231758
visibility: 0.993773877620697
","x: 280.7048645019531
y: 498.44549560546875
z: 0.1910589188337326
visibility: 0.994154155254364
","x: 202.41680908203125
y: 518.9428100585938
z: 0.13497988879680634
visibility: 0.9920138120651245
","x: 282.50457763671875
y: 509.5345764160156
z: 0.20940935611724854
visibility: 0.8600849509239197
","x: 201.78890991210938
y: 528.9861450195312
z: 0.14639683067798615
visibility: 0.8850480318069458
","x: 280.6123352050781
y: 532.673095703125
z: 0.09033569693565369
visibility: 0.9855282306671143
","x: 208.7369842529297
y: 547.298583984375
z: 0.02184857800602913
visibility: 0.9859054684638977
",,,,,,,,,,,,,,,,,,,,,,,,,,,,,,,,,,,,,,,,,,
2,"x: 260.2411804199219
y: 168.57032775878906
z: -0.23521633446216583
visibility: 0.9996810555458069
","x: 260.8275146484375
y: 161.1744842529297
z: -0.21604189276695251
visibility: 0.9986257553100586
","x: 261.1143798828125
y: 160.6827392578125
z: -0.21610605716705322
visibility: 0.9988116025924683
","x: 261.42529296875
y: 161.10269165039062
z: -0.21608130633831024
visibility: 0.9986255168914795
","x: 258.8471374511719
y: 160.636962890625
z: -0.22473624348640442
visibility: 0.9987900257110596
","x: 257.6556091308594
y: 160.03050231933594
z: -0.2247687578201294
visibility: 0.9990817308425903
","x: 256.33880615234375
y: 159.35635375976562
z: -0.2248319834470749
visibility: 0.9992073178291321
","x: 257.1914367675781
y: 164.22125244140625
z: -0.10291318595409393
visibility: 0.9984797239303589
","x: 248.91534423828125
y: 159.9029998779297
z: -0.1468859612941742
visibility: 0.9993535876274109
","x: 258.1750793457031
y: 176.4808349609375
z: -0.1932864487171173
visibility: 0.9996960163116455
","x: 255.40953063964844
y: 176.0777587890625
z: -0.20615339279174805
visibility: 0.9997110962867737
","x: 262.89764404296875
y: 204.3679656982422
z: -0.092185378074646
visibility: 0.9999053478240967
","x: 216.58851623535156
y: 204.18917846679688
z: -0.04655914008617401
visibility: 0.9998965263366699
","x: 254.9793701171875
y: 256.447509765625
z: -0.23733647167682648
visibility: 0.9768901467323303
","x: 202.33609008789062
y: 264.9241943359375
z: -0.002496040193364024
visibility: 0.9336488842964172
","x: 229.4700927734375
y: 215.08958435058594
z: -0.4918423593044281
visibility: 0.7265411019325256
","x: 185.69046020507812
y: 314.9474792480469
z: -0.06206165626645088
visibility: 0.7910782694816589
","x: 222.35069274902344
y: 206.30128479003906
z: -0.5495159029960632
visibility: 0.47157737612724304
","x: 179.232666015625
y: 331.25042724609375
z: -0.07373353093862534
visibility: 0.6724013090133667
","x: 223.6927032470703
y: 201.78350830078125
z: -0.5496482849121094
visibility: 0.4625326693058014
","x: 179.8797607421875
y: 331.6536865234375
z: -0.11554056406021118
visibility: 0.6975792646408081
","x: 226.1767120361328
y: 204.20907592773438
z: -0.49904221296310425
visibility: 0.417038232088089
","x: 182.74948120117188
y: 326.41302490234375
z: -0.07863476127386093
visibility: 0.6535173654556274
","x: 257.5327453613281
y: 334.9130859375
z: -0.005664111115038395
visibility: 0.9996051788330078
","x: 232.4561309814453
y: 337.35028076171875
z: 0.005588608793914318
visibility: 0.9994224309921265
","x: 269.11175537109375
y: 422.5712890625
z: 0.0150992376729846
visibility: 0.9954274892807007
","x: 221.95880126953125
y: 432.06463623046875
z: -0.034267064183950424
visibility: 0.9939339756965637
","x: 280.5700378417969
y: 501.2892150878906
z: 0.2417038381099701
visibility: 0.9943687319755554
","x: 203.06016540527344
y: 517.1798095703125
z: 0.14090976119041443
visibility: 0.9922330975532532
","x: 280.6358642578125
y: 512.1798095703125
z: 0.2597561776638031
visibility: 0.8657634258270264
","x: 201.79104614257812
y: 526.420654296875
z: 0.15320813655853271
visibility: 0.8828263282775879
","x: 280.66546630859375
y: 532.668212890625
z: 0.14478236436843872
visibility: 0.9862821698188782
","x: 209.0024871826172
y: 547.3233642578125
z: 0.024235527962446213
visibility: 0.9861385226249695
","x: 183.48773193359375
y: 318.5843505859375
z: 0.0
","x: 179.17251586914062
y: 321.3924560546875
z: -0.004633958451449871
","x: 175.63034057617188
y: 326.789306640625
z: -0.005893492139875889
","x: 173.55612182617188
y: 333.280029296875
z: -0.007084710989147425
","x: 171.25588989257812
y: 338.1170654296875
z: -0.00803250540047884
","x: 171.91676330566406
y: 336.831787109375
z: 0.0009103859774768353
","x: 168.6056365966797
y: 343.728271484375
z: -0.0007844939827919006
","x: 167.32949829101562
y: 347.96038818359375
z: -0.0022573182359337807
","x: 166.51947021484375
y: 351.9229431152344
z: -0.003054172731935978
","x: 173.8959503173828
y: 340.11181640625
z: 0.0013284977758303285
","x: 170.829345703125
y: 347.7214050292969
z: 0.0006558813038282096
","x: 169.68600463867188
y: 352.4306640625
z: -0.0005007770378142595
","x: 168.61581420898438
y: 356.9364929199219
z: -0.0014243640471249819
","x: 176.43653869628906
y: 341.883056640625
z: 0.00060875533381477
","x: 173.858642578125
y: 349.35516357421875
z: -0.0009060957818292081
","x: 172.74871826171875
y: 353.70159912109375
z: -0.0024856163654476404
","x: 171.76051330566406
y: 357.34124755859375
z: -0.0034702594857662916
","x: 179.67137145996094
y: 342.0902099609375
z: -0.000890444265678525
","x: 177.94338989257812
y: 348.48822021484375
z: -0.0023821257054805756
","x: 177.129150390625
y: 351.87652587890625
z: -0.0033625075593590736
","x: 176.5000762939453
y: 354.5987548828125
z: -0.003861393313854933
",,,,,,,,,,,,,,,,,,,,,
3,"x: 260.2411804199219
y: 168.57032775878906
z: -0.23521633446216583
visibility: 0.9996810555458069
","x: 260.8275146484375
y: 161.1744842529297
z: -0.21604189276695251
visibility: 0.9986257553100586
","x: 261.1143798828125
y: 160.6827392578125
z: -0.21610605716705322
visibility: 0.9988116025924683
","x: 261.42529296875
y: 161.10269165039062
z: -0.21608130633831024
visibility: 0.9986255168914795
","x: 258.8471374511719
y: 160.636962890625
z: -0.22473624348640442
visibility: 0.9987900257110596
","x: 257.6556091308594
y: 160.03050231933594
z: -0.2247687578201294
visibility: 0.9990817308425903
","x: 256.33880615234375
y: 159.35635375976562
z: -0.2248319834470749
visibility: 0.9992073178291321
","x: 257.1914367675781
y: 164.22125244140625
z: -0.10291318595409393
visibility: 0.9984797239303589
","x: 248.91534423828125
y: 159.9029998779297
z: -0.1468859612941742
visibility: 0.9993535876274109
","x: 258.1750793457031
y: 176.4808349609375
z: -0.1932864487171173
visibility: 0.9996960163116455
","x: 255.40953063964844
y: 176.0777587890625
z: -0.20615339279174805
visibility: 0.9997110962867737
","x: 262.89764404296875
y: 204.3679656982422
z: -0.092185378074646
visibility: 0.9999053478240967
","x: 216.58851623535156
y: 204.18917846679688
z: -0.04655914008617401
visibility: 0.9998965263366699
","x: 254.9793701171875
y: 256.447509765625
z: -0.23733647167682648
visibility: 0.9768901467323303
","x: 202.33609008789062
y: 264.9241943359375
z: -0.002496040193364024
visibility: 0.9336488842964172
","x: 229.4700927734375
y: 215.08958435058594
z: -0.4918423593044281
visibility: 0.7265411019325256
","x: 185.69046020507812
y: 314.9474792480469
z: -0.06206165626645088
visibility: 0.7910782694816589
","x: 222.35069274902344
y: 206.30128479003906
z: -0.5495159029960632
visibility: 0.47157737612724304
","x: 179.232666015625
y: 331.25042724609375
z: -0.07373353093862534
visibility: 0.6724013090133667
","x: 223.6927032470703
y: 201.78350830078125
z: -0.5496482849121094
visibility: 0.4625326693058014
","x: 179.8797607421875
y: 331.6536865234375
z: -0.11554056406021118
visibility: 0.6975792646408081
","x: 226.1767120361328
y: 204.20907592773438
z: -0.49904221296310425
visibility: 0.417038232088089
","x: 182.74948120117188
y: 326.41302490234375
z: -0.07863476127386093
visibility: 0.6535173654556274
","x: 257.5327453613281
y: 334.9130859375
z: -0.005664111115038395
visibility: 0.9996051788330078
","x: 232.4561309814453
y: 337.35028076171875
z: 0.005588608793914318
visibility: 0.9994224309921265
","x: 269.11175537109375
y: 422.5712890625
z: 0.0150992376729846
visibility: 0.9954274892807007
","x: 221.95880126953125
y: 432.06463623046875
z: -0.034267064183950424
visibility: 0.9939339756965637
","x: 280.5700378417969
y: 501.2892150878906
z: 0.2417038381099701
visibility: 0.9943687319755554
","x: 203.06016540527344
y: 517.1798095703125
z: 0.14090976119041443
visibility: 0.9922330975532532
","x: 280.6358642578125
y: 512.1798095703125
z: 0.2597561776638031
visibility: 0.8657634258270264
","x: 201.79104614257812
y: 526.420654296875
z: 0.15320813655853271
visibility: 0.8828263282775879
","x: 280.66546630859375
y: 532.668212890625
z: 0.14478236436843872
visibility: 0.9862821698188782
","x: 209.0024871826172
y: 547.3233642578125
z: 0.024235527962446213
visibility: 0.9861385226249695
","x: 183.48773193359375
y: 318.5843505859375
z: 0.0
","x: 179.17251586914062
y: 321.3924560546875
z: -0.004633958451449871
","x: 175.63034057617188
y: 326.789306640625
z: -0.005893492139875889
","x: 173.55612182617188
y: 333.280029296875
z: -0.007084710989147425
","x: 171.25588989257812
y: 338.1170654296875
z: -0.00803250540047884
","x: 171.91676330566406
y: 336.831787109375
z: 0.0009103859774768353
","x: 168.6056365966797
y: 343.728271484375
z: -0.0007844939827919006
","x: 167.32949829101562
y: 347.96038818359375
z: -0.0022573182359337807
","x: 166.51947021484375
y: 351.9229431152344
z: -0.003054172731935978
","x: 173.8959503173828
y: 340.11181640625
z: 0.0013284977758303285
","x: 170.829345703125
y: 347.7214050292969
z: 0.0006558813038282096
","x: 169.68600463867188
y: 352.4306640625
z: -0.0005007770378142595
","x: 168.61581420898438
y: 356.9364929199219
z: -0.0014243640471249819
","x: 176.43653869628906
y: 341.883056640625
z: 0.00060875533381477
","x: 173.858642578125
y: 349.35516357421875
z: -0.0009060957818292081
","x: 172.74871826171875
y: 353.70159912109375
z: -0.0024856163654476404
","x: 171.76051330566406
y: 357.34124755859375
z: -0.0034702594857662916
","x: 179.67137145996094
y: 342.0902099609375
z: -0.000890444265678525
","x: 177.94338989257812
y: 348.48822021484375
z: -0.0023821257054805756
","x: 177.129150390625
y: 351.87652587890625
z: -0.0033625075593590736
","x: 176.5000762939453
y: 354.5987548828125
z: -0.003861393313854933
",,,,,,,,,,,,,,,,,,,,,
4,"x: 261.715087890625
y: 176.07168579101562
z: -0.21445588767528534
visibility: 0.9997042417526245
","x: 263.3965759277344
y: 167.74166870117188
z: -0.19787219166755676
visibility: 0.9987346529960632
","x: 263.518798828125
y: 168.3379364013672
z: -0.19794084131717682
visibility: 0.998907744884491
","x: 263.5854187011719
y: 169.35777282714844
z: -0.19790630042552948
visibility: 0.998725414276123
","x: 261.3599853515625
y: 163.93190002441406
z: -0.2085234373807907
visibility: 0.9988833665847778
","x: 260.0898742675781
y: 161.80433654785156
z: -0.20855621993541718
visibility: 0.9991517663002014
","x: 258.7012634277344
y: 159.65048217773438
z: -0.20865508913993835
visibility: 0.9992608428001404
","x: 258.336181640625
y: 170.6019287109375
z: -0.09470005333423615
visibility: 0.9985552430152893
","x: 252.71376037597656
y: 160.91168212890625
z: -0.14563748240470886
visibility: 0.9993911385536194
","x: 258.59759521484375
y: 183.49932861328125
z: -0.17480690777301788
visibility: 0.9997041821479797
","x: 256.2588806152344
y: 180.8073272705078
z: -0.1900784969329834
visibility: 0.99973064661026
","x: 266.3996276855469
y: 207.1658477783203
z: -0.08215346932411194
visibility: 0.9999043345451355
","x: 220.61312866210938
y: 203.80723571777344
z: -0.049370281398296356
visibility: 0.9999029040336609
","x: 260.6726989746094
y: 258.9556579589844
z: -0.2263961285352707
visibility: 0.9760189056396484
","x: 206.32827758789062
y: 267.039306640625
z: 0.01021772250533104
visibility: 0.9382853507995605
","x: 236.63192749023438
y: 214.51576232910156
z: -0.4862513542175293
visibility: 0.7529770731925964
","x: 185.98138427734375
y: 317.7174072265625
z: -0.03914063423871994
visibility: 0.8106894493103027
","x: 229.22706604003906
y: 205.88377380371094
z: -0.5434615612030029
visibility: 0.5227530002593994
","x: 179.29559326171875
y: 334.7333984375
z: -0.057648397982120514
visibility: 0.7025416493415833
","x: 231.32501220703125
y: 200.31976318359375
z: -0.543157696723938
visibility: 0.5146048665046692
","x: 179.73460388183594
y: 334.396484375
z: -0.09541831910610199
visibility: 0.7255486845970154
","x: 233.61964416503906
y: 203.4449920654297
z: -0.4927704930305481
visibility: 0.47249534726142883
","x: 182.9383087158203
y: 328.43896484375
z: -0.05498436093330383
visibility: 0.6850919723510742
","x: 257.4249572753906
y: 338.4336853027344
z: -0.0014895175117999315
visibility: 0.9996259808540344
","x: 230.3119354248047
y: 339.14569091796875
z: 0.0014020216185599566
visibility: 0.9994708299636841
","x: 270.1574401855469
y: 424.44781494140625
z: 0.04378747195005417
visibility: 0.9956409335136414
","x: 221.80763244628906
y: 433.423828125
z: -0.056145183742046356
visibility: 0.9942581653594971
","x: 280.7444763183594
y: 501.3140563964844
z: 0.29128003120422363
visibility: 0.9945023655891418
","x: 203.87979125976562
y: 517.1918334960938
z: 0.11111869663000107
visibility: 0.9925889372825623
","x: 280.4462585449219
y: 511.4443359375
z: 0.3116779923439026
visibility: 0.8687621355056763
","x: 201.74998474121094
y: 526.523193359375
z: 0.12191832065582275
visibility: 0.8810432553291321
","x: 281.31317138671875
y: 532.0419921875
z: 0.19380517303943634
visibility: 0.9869227409362793
","x: 209.86541748046875
y: 548.4656372070312
z: -0.01634914241731167
visibility: 0.9866188764572144
","x: 185.89996337890625
y: 321.885498046875
z: 0.0
","x: 185.15579223632812
y: 324.208740234375
z: -0.005519339349120855
","x: 183.4663543701172
y: 328.64581298828125
z: -0.008110458962619305
","x: 180.775390625
y: 333.0433349609375
z: -0.010594386607408524
","x: 177.41001892089844
y: 336.552001953125
z: -0.01259814016520977
","x: 177.96395874023438
y: 341.2933654785156
z: -0.0002512417850084603
","x: 175.27395629882812
y: 346.58929443359375
z: -0.0024610585533082485
","x: 173.55276489257812
y: 349.5155334472656
z: -0.004135707393288612
","x: 172.24984741210938
y: 352.0166320800781
z: -0.004915058147162199
","x: 176.53958129882812
y: 342.01336669921875
z: 0.00035318630398251116
","x: 173.8885040283203
y: 347.9388122558594
z: -0.0011611183872446418
","x: 172.41421508789062
y: 350.9301452636719
z: -0.002577738370746374
","x: 171.143310546875
y: 354.0177917480469
z: -0.003377409651875496
","x: 175.75845336914062
y: 341.3175048828125
z: -0.00022273116337601095
","x: 173.02346801757812
y: 347.4022216796875
z: -0.0023618799168616533
","x: 171.78526306152344
y: 350.42205810546875
z: -0.0037615320179611444
","x: 170.64964294433594
y: 353.09063720703125
z: -0.0044021219946444035
","x: 175.34060668945312
y: 339.2944641113281
z: -0.001613458152860403
","x: 172.8081817626953
y: 345.071533203125
z: -0.0031266112346202135
","x: 171.82496643066406
y: 348.09234619140625
z: -0.003981267102062702
","x: 170.97250366210938
y: 350.59735107421875
z: -0.004344780929386616
",,,,,,,,,,,,,,,,,,,,,
5,"x: 261.715087890625
y: 176.07168579101562
z: -0.21445588767528534
visibility: 0.9997042417526245
","x: 263.3965759277344
y: 167.74166870117188
z: -0.19787219166755676
visibility: 0.9987346529960632
","x: 263.518798828125
y: 168.3379364013672
z: -0.19794084131717682
visibility: 0.998907744884491
","x: 263.5854187011719
y: 169.35777282714844
z: -0.19790630042552948
visibility: 0.998725414276123
","x: 261.3599853515625
y: 163.93190002441406
z: -0.2085234373807907
visibility: 0.9988833665847778
","x: 260.0898742675781
y: 161.80433654785156
z: -0.20855621993541718
visibility: 0.9991517663002014
","x: 258.7012634277344
y: 159.65048217773438
z: -0.20865508913993835
visibility: 0.9992608428001404
","x: 258.336181640625
y: 170.6019287109375
z: -0.09470005333423615
visibility: 0.9985552430152893
","x: 252.71376037597656
y: 160.91168212890625
z: -0.14563748240470886
visibility: 0.9993911385536194
","x: 258.59759521484375
y: 183.49932861328125
z: -0.17480690777301788
visibility: 0.9997041821479797
","x: 256.2588806152344
y: 180.8073272705078
z: -0.1900784969329834
visibility: 0.99973064661026
","x: 266.3996276855469
y: 207.1658477783203
z: -0.08215346932411194
visibility: 0.9999043345451355
","x: 220.61312866210938
y: 203.80723571777344
z: -0.049370281398296356
visibility: 0.9999029040336609
","x: 260.6726989746094
y: 258.9556579589844
z: -0.2263961285352707
visibility: 0.9760189056396484
","x: 206.32827758789062
y: 267.039306640625
z: 0.01021772250533104
visibility: 0.9382853507995605
","x: 236.63192749023438
y: 214.51576232910156
z: -0.4862513542175293
visibility: 0.7529770731925964
","x: 185.98138427734375
y: 317.7174072265625
z: -0.03914063423871994
visibility: 0.8106894493103027
","x: 229.22706604003906
y: 205.88377380371094
z: -0.5434615612030029
visibility: 0.5227530002593994
","x: 179.29559326171875
y: 334.7333984375
z: -0.057648397982120514
visibility: 0.7025416493415833
","x: 231.32501220703125
y: 200.31976318359375
z: -0.543157696723938
visibility: 0.5146048665046692
","x: 179.73460388183594
y: 334.396484375
z: -0.09541831910610199
visibility: 0.7255486845970154
","x: 233.61964416503906
y: 203.4449920654297
z: -0.4927704930305481
visibility: 0.47249534726142883
","x: 182.9383087158203
y: 328.43896484375
z: -0.05498436093330383
visibility: 0.6850919723510742
","x: 257.4249572753906
y: 338.4336853027344
z: -0.0014895175117999315
visibility: 0.9996259808540344
","x: 230.3119354248047
y: 339.14569091796875
z: 0.0014020216185599566
visibility: 0.9994708299636841
","x: 270.1574401855469
y: 424.44781494140625
z: 0.04378747195005417
visibility: 0.9956409335136414
","x: 221.80763244628906
y: 433.423828125
z: -0.056145183742046356
visibility: 0.9942581653594971
","x: 280.7444763183594
y: 501.3140563964844
z: 0.29128003120422363
visibility: 0.9945023655891418
","x: 203.87979125976562
y: 517.1918334960938
z: 0.11111869663000107
visibility: 0.9925889372825623
","x: 280.4462585449219
y: 511.4443359375
z: 0.3116779923439026
visibility: 0.8687621355056763
","x: 201.74998474121094
y: 526.523193359375
z: 0.12191832065582275
visibility: 0.8810432553291321
","x: 281.31317138671875
y: 532.0419921875
z: 0.19380517303943634
visibility: 0.9869227409362793
","x: 209.86541748046875
y: 548.4656372070312
z: -0.01634914241731167
visibility: 0.9866188764572144
","x: 185.89996337890625
y: 321.885498046875
z: 0.0
","x: 185.15579223632812
y: 324.208740234375
z: -0.005519339349120855
","x: 183.4663543701172
y: 328.64581298828125
z: -0.008110458962619305
","x: 180.775390625
y: 333.0433349609375
z: -0.010594386607408524
","x: 177.41001892089844
y: 336.552001953125
z: -0.01259814016520977
","x: 177.96395874023438
y: 341.2933654785156
z: -0.0002512417850084603
","x: 175.27395629882812
y: 346.58929443359375
z: -0.0024610585533082485
","x: 173.55276489257812
y: 349.5155334472656
z: -0.004135707393288612
","x: 172.24984741210938
y: 352.0166320800781
z: -0.004915058147162199
","x: 176.53958129882812
y: 342.01336669921875
z: 0.00035318630398251116
","x: 173.8885040283203
y: 347.9388122558594
z: -0.0011611183872446418
","x: 172.41421508789062
y: 350.9301452636719
z: -0.002577738370746374
","x: 171.143310546875
y: 354.0177917480469
z: -0.003377409651875496
","x: 175.75845336914062
y: 341.3175048828125
z: -0.00022273116337601095
","x: 173.02346801757812
y: 347.4022216796875
z: -0.0023618799168616533
","x: 171.78526306152344
y: 350.42205810546875
z: -0.0037615320179611444
","x: 170.64964294433594
y: 353.09063720703125
z: -0.0044021219946444035
","x: 175.34060668945312
y: 339.2944641113281
z: -0.001613458152860403
","x: 172.8081817626953
y: 345.071533203125
z: -0.0031266112346202135
","x: 171.82496643066406
y: 348.09234619140625
z: -0.003981267102062702
","x: 170.97250366210938
y: 350.59735107421875
z: -0.004344780929386616
",,,,,,,,,,,,,,,,,,,,,
6,"x: 259.9100341796875
y: 180.281982421875
z: -0.3024356961250305
visibility: 0.9997210502624512
","x: 262.08111572265625
y: 171.62533569335938
z: -0.2893212139606476
visibility: 0.998812735080719
","x: 262.4549255371094
y: 171.90599060058594
z: -0.28936293721199036
visibility: 0.9989812970161438
","x: 262.7668151855469
y: 172.61752319335938
z: -0.28936484456062317
visibility: 0.998784601688385
","x: 260.07012939453125
y: 168.24195861816406
z: -0.29421713948249817
visibility: 0.9989522099494934
","x: 259.0221862792969
y: 165.8772430419922
z: -0.2942730784416199
visibility: 0.9992047548294067
","x: 257.9383239746094
y: 162.30355834960938
z: -0.29436227679252625
visibility: 0.9992932081222534
","x: 260.0415344238281
y: 171.94358825683594
z: -0.17527666687965393
visibility: 0.9985964298248291
","x: 252.4012451171875
y: 161.1939239501953
z: -0.1963362693786621
visibility: 0.9994168877601624
","x: 258.38189697265625
y: 186.19467163085938
z: -0.25614607334136963
visibility: 0.9997081160545349
","x: 256.00885009765625
y: 183.06817626953125
z: -0.2621281147003174
visibility: 0.9997480511665344
","x: 268.33489990234375
y: 207.19068908691406
z: -0.09870448708534241
visibility: 0.9999033808708191
","x: 220.39434814453125
y: 204.2578887939453
z: -0.07653365284204483
visibility: 0.9999107122421265
","x: 261.6980895996094
y: 260.26849365234375
z: -0.2959819436073303
visibility: 0.9758179187774658
","x: 205.492431640625
y: 268.79827880859375
z: 0.005856253672391176
visibility: 0.9426684379577637
","x: 239.419189453125
y: 214.60360717773438
z: -0.5720580220222473
visibility: 0.776675820350647
","x: 186.16912841796875
y: 318.32440185546875
z: -0.06538048386573792
visibility: 0.8280783891677856
","x: 232.5028839111328
y: 205.3195343017578
z: -0.6344308853149414
visibility: 0.5686221122741699
","x: 179.41026306152344
y: 335.4404296875
z: -0.08855614066123962
visibility: 0.7292065024375916
","x: 234.58135986328125
y: 199.64585876464844
z: -0.6345786452293396
visibility: 0.561219334602356
","x: 180.05038452148438
y: 335.03643798828125
z: -0.12920038402080536
visibility: 0.7502990365028381
","x: 236.77256774902344
y: 202.889892578125
z: -0.5791725516319275
visibility: 0.5218163728713989
","x: 183.2256317138672
y: 329.29345703125
z: -0.08304443955421448
visibility: 0.7129298448562622
","x: 257.7291564941406
y: 338.6209411621094
z: -0.004275686107575893
visibility: 0.999636173248291
","x: 229.6992645263672
y: 339.7810363769531
z: 0.004209291189908981
visibility: 0.9995165467262268
","x: 269.9938049316406
y: 423.5975341796875
z: 0.0952228456735611
visibility: 0.9959436655044556
","x: 220.5170440673828
y: 433.61285400390625
z: -0.04542207345366478
visibility: 0.9947077035903931
","x: 280.7548828125
y: 501.2648010253906
z: 0.3704298734664917
visibility: 0.9948152303695679
","x: 204.08108520507812
y: 517.2337646484375
z: 0.1282678246498108
visibility: 0.9931022524833679
","x: 280.1637878417969
y: 511.7608337402344
z: 0.39282530546188354
visibility: 0.8725032210350037
","x: 201.75083923339844
y: 526.6137084960938
z: 0.13927055895328522
visibility: 0.8838164806365967
","x: 281.7256774902344
y: 529.8702392578125
z: 0.26285791397094727
visibility: 0.9877886772155762
","x: 209.97525024414062
y: 549.411865234375
z: -0.0044910600408911705
visibility: 0.9874429702758789
",,,,,,,,,,,,,,,,,,,,,,,,,,,,,,,,,,,,,,,,,,
7,"x: 260.3991394042969
y: 181.04383850097656
z: -0.3208705186843872
visibility: 0.9997438192367554
","x: 262.9908752441406
y: 174.24005126953125
z: -0.31004709005355835
visibility: 0.9989111423492432
","x: 263.6824645996094
y: 174.39434814453125
z: -0.3100849688053131
visibility: 0.9990679025650024
","x: 264.33135986328125
y: 174.61549377441406
z: -0.3100956678390503
visibility: 0.9988771677017212
","x: 260.43634033203125
y: 170.07247924804688
z: -0.31363359093666077
visibility: 0.9990389347076416
","x: 259.2288818359375
y: 167.67428588867188
z: -0.3137040138244629
visibility: 0.9992708563804626
","x: 257.8827209472656
y: 164.11888122558594
z: -0.3137947618961334
visibility: 0.9993464350700378
","x: 262.2855224609375
y: 173.1092529296875
z: -0.1930028349161148
visibility: 0.9986895322799683
","x: 252.3106689453125
y: 161.5337371826172
z: -0.20522455871105194
visibility: 0.9994587302207947
","x: 259.2586364746094
y: 186.6208038330078
z: -0.2732342779636383
visibility: 0.9997268319129944
","x: 256.1521301269531
y: 183.28033447265625
z: -0.26986584067344666
visibility: 0.999769389629364
","x: 269.2193298339844
y: 210.3347930908203
z: -0.12444864213466644
visibility: 0.9999043345451355
","x: 220.65966796875
y: 204.09707641601562
z: -0.0882592722773552
visibility: 0.9999182820320129
","x: 263.21331787109375
y: 271.46038818359375
z: -0.30377110838890076
visibility: 0.9759274125099182
","x: 206.14529418945312
y: 269.483154296875
z: -0.0269464161247015
visibility: 0.9470252394676208
","x: 240.34002685546875
y: 229.20057678222656
z: -0.5790902376174927
visibility: 0.7980054616928101
","x: 186.8844451904297
y: 318.2098388671875
z: -0.10679981857538223
visibility: 0.8437864780426025
","x: 234.8433380126953
y: 218.1066131591797
z: -0.6441062092781067
visibility: 0.609851598739624
","x: 179.71371459960938
y: 335.0386047363281
z: -0.13402500748634338
visibility: 0.7532320022583008
","x: 236.8781280517578
y: 210.72035217285156
z: -0.6447163820266724
visibility: 0.6031287908554077
","x: 180.35386657714844
y: 334.32354736328125
z: -0.1753690540790558
visibility: 0.7725754380226135
","x: 238.38656616210938
y: 213.67724609375
z: -0.5866695046424866
visibility: 0.5660610198974609
","x: 183.26556396484375
y: 328.76324462890625
z: -0.1250770092010498
visibility: 0.7379598617553711
","x: 257.7631530761719
y: 339.6646423339844
z: -0.006045673042535782
visibility: 0.9996471405029297
","x: 229.45555114746094
y: 340.42169189453125
z: 0.005957921966910362
visibility: 0.9995588660240173
","x: 269.75421142578125
y: 423.22576904296875
z: 0.12114004790782928
visibility: 0.996234118938446
","x: 220.0275421142578
y: 433.8209533691406
z: -0.025640185922384262
visibility: 0.9951337575912476
","x: 280.69244384765625
y: 500.768798828125
z: 0.4070361256599426
visibility: 0.99514240026474
","x: 204.2053985595703
y: 517.2828979492188
z: 0.14983515441417694
visibility: 0.9936026930809021
","x: 279.9495544433594
y: 511.3417053222656
z: 0.43015360832214355
visibility: 0.8767641186714172
","x: 201.88839721679688
y: 526.4744873046875
z: 0.15881697833538055
visibility: 0.8870718479156494
","x: 281.7042541503906
y: 528.9432373046875
z: 0.2945210933685303
visibility: 0.9886415004730225
","x: 210.0647735595703
y: 549.8046264648438
z: 0.0011563029838725924
visibility: 0.9882596135139465
",,,,,,,,,,,,,,,,,,,,,,,,,,,,,,,,,,,,,,,,,,
8,"x: 260.4378967285156
y: 178.58445739746094
z: -0.33280375599861145
visibility: 0.9997648000717163
","x: 262.27587890625
y: 172.7691650390625
z: -0.3166489899158478
visibility: 0.9990023374557495
","x: 262.76544189453125
y: 173.45355224609375
z: -0.3166681230068207
visibility: 0.9991482496261597
","x: 263.2248229980469
y: 174.19192504882812
z: -0.31661471724510193
visibility: 0.9989669322967529
","x: 260.0570983886719
y: 168.2933349609375
z: -0.32705172896385193
visibility: 0.9991188049316406
","x: 258.9079895019531
y: 165.68487548828125
z: -0.3270690143108368
visibility: 0.9993321895599365
","x: 257.55914306640625
y: 162.9709014892578
z: -0.3271480202674866
visibility: 0.9993966817855835
","x: 260.9944763183594
y: 172.50949096679688
z: -0.20307786762714386
visibility: 0.9987908005714417
","x: 251.65142822265625
y: 160.924560546875
z: -0.24142321944236755
visibility: 0.9994964003562927
","x: 258.6761169433594
y: 186.30441284179688
z: -0.2886420786380768
visibility: 0.9997496008872986
","x: 256.027099609375
y: 181.58883666992188
z: -0.29849502444267273
visibility: 0.999789834022522
","x: 268.459228515625
y: 211.5274658203125
z: -0.1455170214176178
visibility: 0.9999116659164429
","x: 220.22174072265625
y: 202.5550079345703
z: -0.122921884059906
visibility: 0.9999255537986755
","x: 269.52105712890625
y: 279.778076171875
z: -0.2872212529182434
visibility: 0.9769452214241028
","x: 206.0672149658203
y: 269.66571044921875
z: -0.04413527995347977
visibility: 0.9513059854507446
","x: 242.903076171875
y: 255.04766845703125
z: -0.5550578832626343
visibility: 0.8171298503875732
","x: 187.50205993652344
y: 318.38323974609375
z: -0.1132514476776123
visibility: 0.8583056330680847
","x: 235.439453125
y: 244.93203735351562
z: -0.6200020909309387
visibility: 0.6465184092521667
","x: 179.88406372070312
y: 335.37237548828125
z: -0.14118659496307373
visibility: 0.7756528258323669
","x: 236.6680145263672
y: 233.952880859375
z: -0.6191354393959045
visibility: 0.6403890252113342
","x: 180.3966827392578
y: 334.83624267578125
z: -0.1811341941356659
visibility: 0.7932787537574768
","x: 238.56394958496094
y: 236.36178588867188
z: -0.561296820640564
visibility: 0.6048233509063721
","x: 183.72633361816406
y: 329.18798828125
z: -0.13023196160793304
visibility: 0.7610576748847961
","x: 258.1088562011719
y: 338.44024658203125
z: -0.005813394673168659
visibility: 0.9996514320373535
","x: 229.37306213378906
y: 340.0155334472656
z: 0.0057031577453017235
visibility: 0.9995935559272766
","x: 269.54150390625
y: 422.6153259277344
z: 0.10704934597015381
visibility: 0.9965032339096069
","x: 220.12301635742188
y: 433.6783447265625
z: -0.014819733798503876
visibility: 0.9955043792724609
","x: 280.6040344238281
y: 500.3887939453125
z: 0.42679262161254883
visibility: 0.9954487681388855
","x: 204.1859130859375
y: 517.3021240234375
z: 0.1849684864282608
visibility: 0.9940562844276428
","x: 279.7950439453125
y: 510.92974853515625
z: 0.45355162024497986
visibility: 0.880521297454834
","x: 201.8914031982422
y: 526.321533203125
z: 0.1965065449476242
visibility: 0.8894050121307373
","x: 281.6613464355469
y: 528.7517700195312
z: 0.31486275792121887
visibility: 0.9894237518310547
","x: 210.19366455078125
y: 550.247802734375
z: 0.03757072240114212
visibility: 0.9890426397323608
",,,,,,,,,,,,,,,,,,,,,,,,,,,,,,,,,,,,,,,,,,
9,"x: 258.4611511230469
y: 169.24974060058594
z: -0.33821049332618713
visibility: 0.9997671842575073
","x: 260.431884765625
y: 164.34019470214844
z: -0.3237876296043396
visibility: 0.9990364909172058
","x: 261.09002685546875
y: 165.32049560546875
z: -0.3238146901130676
visibility: 0.9991798400878906
","x: 261.68243408203125
y: 166.3255615234375
z: -0.3237549662590027
visibility: 0.9989994764328003
","x: 257.5220947265625
y: 161.1538848876953
z: -0.3364272117614746
visibility: 0.9991515278816223
","x: 256.090087890625
y: 159.8009796142578
z: -0.33646339178085327
visibility: 0.999355137348175
","x: 254.5190887451172
y: 158.41294860839844
z: -0.33655035495758057
visibility: 0.999411404132843
","x: 259.40728759765625
y: 169.68771362304688
z: -0.21997396647930145
visibility: 0.9988057017326355
","x: 249.18817138671875
y: 159.2196044921875
z: -0.2618754804134369
visibility: 0.9994709491729736
","x: 257.4295959472656
y: 177.70433044433594
z: -0.2978357970714569
visibility: 0.9997580051422119
","x: 253.89112854003906
y: 173.77622985839844
z: -0.3106966018676758
visibility: 0.999798595905304
","x: 267.7826843261719
y: 211.33462524414062
z: -0.1648116409778595
visibility: 0.9999130964279175
","x: 219.67730712890625
y: 202.191162109375
z: -0.15497879683971405
visibility: 0.9999294281005859
","x: 275.0377502441406
y: 276.03387451171875
z: -0.24631571769714355
visibility: 0.9736775159835815
","x: 206.6656951904297
y: 269.7847595214844
z: -0.09266519546508789
visibility: 0.9548837542533875
","x: 252.7694549560547
y: 280.08538818359375
z: -0.496853768825531
visibility: 0.8263876438140869
","x: 188.43020629882812
y: 319.4986267089844
z: -0.1717318594455719
visibility: 0.8700637221336365
","x: 246.0541229248047
y: 283.6786804199219
z: -0.559302568435669
visibility: 0.6676362156867981
","x: 180.43496704101562
y: 335.89111328125
z: -0.2054106444120407
visibility: 0.7938125133514404
","x: 244.89320373535156
y: 276.50518798828125
z: -0.5934733152389526
visibility: 0.6623386144638062
","x: 181.47337341308594
y: 335.1734924316406
z: -0.2433188259601593
visibility: 0.8100650310516357
","x: 246.99102783203125
y: 274.7897033691406
z: -0.5113396644592285
visibility: 0.6237061619758606
","x: 184.80113220214844
y: 330.0709228515625
z: -0.1889244168996811
visibility: 0.7794061303138733
","x: 259.2845153808594
y: 338.22509765625
z: -0.004394904710352421
visibility: 0.9995962977409363
","x: 230.4560546875
y: 339.8517150878906
z: 0.004290479701012373
visibility: 0.9996061325073242
","x: 269.9350280761719
y: 422.6037902832031
z: 0.09649652987718582
visibility: 0.996692419052124
","x: 220.8493194580078
y: 433.79034423828125
z: 0.01779247634112835
visibility: 0.9958118200302124
","x: 280.58599853515625
y: 500.7886047363281
z: 0.3858863115310669
visibility: 0.9956861734390259
","x: 204.28619384765625
y: 517.3243408203125
z: 0.22566184401512146
visibility: 0.994441568851471
","x: 279.85626220703125
y: 511.92498779296875
z: 0.4083617329597473
visibility: 0.8840399980545044
","x: 201.934326171875
y: 526.3598022460938
z: 0.2379961460828781
visibility: 0.8910237550735474
","x: 281.6394958496094
y: 528.7653198242188
z: 0.2674279510974884
visibility: 0.9900208711624146
","x: 210.18438720703125
y: 550.19384765625
z: 0.08650155365467072
visibility: 0.9896485209465027
",,,,,,,,,,,,,,,,,,,,,,,,,,,,,,,,,,,,,,,,,,
10,"x: 257.7789306640625
y: 160.59524536132812
z: -0.2762637138366699
visibility: 0.9997854828834534
","x: 259.5941467285156
y: 157.05799865722656
z: -0.26464325189590454
visibility: 0.9991174340248108
","x: 260.254150390625
y: 158.15972900390625
z: -0.26468512415885925
visibility: 0.999248206615448
","x: 260.8512878417969
y: 159.30174255371094
z: -0.26465892791748047
visibility: 0.9990835189819336
","x: 256.7152099609375
y: 154.66184997558594
z: -0.2726518213748932
visibility: 0.999221682548523
","x: 255.32936096191406
y: 154.029296875
z: -0.2726849317550659
visibility: 0.999407172203064
","x: 253.76828002929688
y: 153.3988800048828
z: -0.2727595567703247
visibility: 0.9994583129882812
","x: 258.79791259765625
y: 165.76486206054688
z: -0.17832888662815094
visibility: 0.9989029765129089
","x: 248.65977478027344
y: 156.8432159423828
z: -0.21454104781150818
visibility: 0.9994974136352539
","x: 256.9005432128906
y: 170.14920043945312
z: -0.24225075542926788
visibility: 0.9997782111167908
","x: 252.98825073242188
y: 166.8289031982422
z: -0.25267183780670166
visibility: 0.9998149871826172
","x: 267.6910705566406
y: 210.79261779785156
z: -0.12582960724830627
visibility: 0.9999198913574219
","x: 219.14649963378906
y: 201.23483276367188
z: -0.13757702708244324
visibility: 0.9999327063560486
","x: 278.4978332519531
y: 276.04974365234375
z: -0.11043284088373184
visibility: 0.9740841388702393
","x: 207.4625701904297
y: 269.5699768066406
z: -0.07483074814081192
visibility: 0.9584143161773682
","x: 258.94482421875
y: 303.3407287597656
z: -0.27386474609375
visibility: 0.840275764465332
","x: 189.46119689941406
y: 319.039794921875
z: -0.15261676907539368
visibility: 0.8816834092140198
","x: 251.6024169921875
y: 317.5771789550781
z: -0.322211354970932
visibility: 0.6942578554153442
","x: 181.72557067871094
y: 335.61590576171875
z: -0.18755599856376648
visibility: 0.811779260635376
","x: 249.72833251953125
y: 308.9642028808594
z: -0.3494848608970642
visibility: 0.6896148324012756
","x: 182.6943817138672
y: 335.0840759277344
z: -0.2264600545167923
visibility: 0.8266415596008301
","x: 251.60928344726562
y: 303.52606201171875
z: -0.2882530093193054
visibility: 0.651444137096405
","x: 186.126953125
y: 329.7845764160156
z: -0.17059336602687836
visibility: 0.7981515526771545
","x: 259.82220458984375
y: 337.7603454589844
z: -0.0016856857109814882
visibility: 0.9996013045310974
","x: 230.8375244140625
y: 339.818359375
z: 0.0016402782639488578
visibility: 0.9996252655982971
","x: 270.24163818359375
y: 422.4673156738281
z: 0.0752328410744667
visibility: 0.9969091415405273
","x: 221.99034118652344
y: 433.75726318359375
z: 0.006407595239579678
visibility: 0.9960097670555115
","x: 280.5669250488281
y: 500.7261657714844
z: 0.34539371728897095
visibility: 0.9959011077880859
","x: 204.6781768798828
y: 517.3231811523438
z: 0.21028868854045868
visibility: 0.9947253465652466
","x: 279.6192626953125
y: 511.87109375
z: 0.3668827712535858
visibility: 0.886801540851593
","x: 202.1488494873047
y: 526.26416015625
z: 0.22280120849609375
visibility: 0.8914376497268677
","x: 281.9309997558594
y: 528.7568359375
z: 0.22809085249900818
visibility: 0.9905554056167603
","x: 210.22508239746094
y: 550.3648681640625
z: 0.07269652187824249
visibility: 0.9900912046432495
",,,,,,,,,,,,,,,,,,,,,,,,,,,,,,,,,,,,,,,,,,
11,"x: 257.9283142089844
y: 155.17703247070312
z: -0.2608838379383087
visibility: 0.9998009204864502
","x: 259.6483154296875
y: 152.7279510498047
z: -0.24804313480854034
visibility: 0.9991878271102905
","x: 260.3058776855469
y: 153.90467834472656
z: -0.24808022379875183
visibility: 0.9993073344230652
","x: 260.8962707519531
y: 155.07803344726562
z: -0.24805085361003876
visibility: 0.9991558194160461
","x: 256.74200439453125
y: 150.50436401367188
z: -0.2583162784576416
visibility: 0.999284029006958
","x: 255.341064453125
y: 150.16114807128906
z: -0.25836437940597534
visibility: 0.9994536638259888
","x: 253.77407836914062
y: 149.876220703125
z: -0.25844696164131165
visibility: 0.9995001554489136
","x: 258.5145568847656
y: 162.5224151611328
z: -0.1561829149723053
visibility: 0.9989835619926453
","x: 248.7714385986328
y: 154.8686065673828
z: -0.20284393429756165
visibility: 0.9995245337486267
","x: 256.9107360839844
y: 165.43382263183594
z: -0.2247149646282196
visibility: 0.9997953772544861
","x: 255.6944580078125
y: 161.01071166992188
z: -0.23839318752288818
visibility: 0.9998291730880737
","x: 267.0323181152344
y: 209.76646423339844
z: -0.09830828011035919
visibility: 0.9999249577522278
","x: 219.3002471923828
y: 197.2173309326172
z: -0.13359732925891876
visibility: 0.999936580657959
","x: 279.0555419921875
y: 274.9020690917969
z: -0.09731898456811905
visibility: 0.9732275009155273
","x: 207.91497802734375
y: 266.2696533203125
z: -0.08245015144348145
visibility: 0.9616348147392273
","x: 254.12547302246094
y: 300.72589111328125
z: -0.2764756977558136
visibility: 0.8506738543510437
","x: 190.20367431640625
y: 315.5773010253906
z: -0.15496036410331726
visibility: 0.8919536471366882
","x: 247.37554931640625
y: 311.37750244140625
z: -0.3255808651447296
visibility: 0.7146218419075012
","x: 183.21298217773438
y: 332.5889587402344
z: -0.1910281777381897
visibility: 0.8276174068450928
","x: 245.4806365966797
y: 304.99755859375
z: -0.3494269549846649
visibility: 0.7106809616088867
","x: 184.5160675048828
y: 331.9926452636719
z: -0.22728511691093445
visibility: 0.8412184119224548
","x: 247.32957458496094
y: 300.25933837890625
z: -0.29048267006874084
visibility: 0.6718170642852783
","x: 187.65904235839844
y: 326.21136474609375
z: -0.17166540026664734
visibility: 0.8144102096557617
","x: 259.88177490234375
y: 337.4763488769531
z: 0.009363768622279167
visibility: 0.9996017813682556
","x: 231.23854064941406
y: 339.43701171875
z: -0.009409895166754723
visibility: 0.9996427297592163
","x: 271.1160888671875
y: 421.768310546875
z: 0.07284452021121979
visibility: 0.9970409870147705
","x: 223.8660430908203
y: 433.69207763671875
z: 0.0031055379658937454
visibility: 0.9962131381034851
","x: 280.71282958984375
y: 500.70440673828125
z: 0.3408607542514801
visibility: 0.9960421919822693
","x: 204.94285583496094
y: 517.1349487304688
z: 0.1948329210281372
visibility: 0.9949919581413269
","x: 279.6717834472656
y: 512.4397583007812
z: 0.3613373041152954
visibility: 0.8896968364715576
","x: 202.1783905029297
y: 525.9581909179688
z: 0.2067991942167282
visibility: 0.891652524471283
","x: 282.5518798828125
y: 527.9376831054688
z: 0.22506816685199738
visibility: 0.9909513592720032
","x: 210.3137664794922
y: 550.32763671875
z: 0.05880146101117134
visibility: 0.9904918670654297
","x: 192.15528869628906
y: 318.2101135253906
z: 0.0
","x: 189.31781005859375
y: 318.8697204589844
z: -0.0034102729987353086
","x: 185.98458862304688
y: 323.0619812011719
z: -0.006299474276602268
","x: 184.32847595214844
y: 326.7349853515625
z: -0.010099668987095356
","x: 182.92510986328125
y: 329.85577392578125
z: -0.013133414089679718
","x: 180.96803283691406
y: 338.5018615722656
z: -0.000805863703135401
","x: 178.27877807617188
y: 346.9762878417969
z: -0.006610173732042313
","x: 179.8216552734375
y: 344.6865539550781
z: -0.009343961253762245
","x: 181.28030395507812
y: 340.24603271484375
z: -0.010126679204404354
","x: 183.3877410888672
y: 341.2091064453125
z: -0.0024777513463050127
","x: 181.3878631591797
y: 351.67388916015625
z: -0.00865135807543993
","x: 183.4490203857422
y: 346.4615478515625
z: -0.009870067238807678
","x: 185.0655975341797
y: 340.36651611328125
z: -0.0089414669200778
","x: 186.2876434326172
y: 342.01910400390625
z: -0.0053762635216116905
","x: 185.37745666503906
y: 351.17254638671875
z: -0.010700168088078499
","x: 186.69090270996094
y: 345.7914733886719
z: -0.009807082824409008
","x: 187.39381408691406
y: 340.50592041015625
z: -0.007650434505194426
","x: 189.63192749023438
y: 341.0713195800781
z: -0.009041897021234035
","x: 189.3095245361328
y: 348.0838623046875
z: -0.012118461541831493
","x: 189.99754333496094
y: 344.6559143066406
z: -0.011382236145436764
","x: 190.15875244140625
y: 340.44549560546875
z: -0.009683933109045029
",,,,,,,,,,,,,,,,,,,,,
12,"x: 257.9283142089844
y: 155.17703247070312
z: -0.2608838379383087
visibility: 0.9998009204864502
","x: 259.6483154296875
y: 152.7279510498047
z: -0.24804313480854034
visibility: 0.9991878271102905
","x: 260.3058776855469
y: 153.90467834472656
z: -0.24808022379875183
visibility: 0.9993073344230652
","x: 260.8962707519531
y: 155.07803344726562
z: -0.24805085361003876
visibility: 0.9991558194160461
","x: 256.74200439453125
y: 150.50436401367188
z: -0.2583162784576416
visibility: 0.999284029006958
","x: 255.341064453125
y: 150.16114807128906
z: -0.25836437940597534
visibility: 0.9994536638259888
","x: 253.77407836914062
y: 149.876220703125
z: -0.25844696164131165
visibility: 0.9995001554489136
","x: 258.5145568847656
y: 162.5224151611328
z: -0.1561829149723053
visibility: 0.9989835619926453
","x: 248.7714385986328
y: 154.8686065673828
z: -0.20284393429756165
visibility: 0.9995245337486267
","x: 256.9107360839844
y: 165.43382263183594
z: -0.2247149646282196
visibility: 0.9997953772544861
","x: 255.6944580078125
y: 161.01071166992188
z: -0.23839318752288818
visibility: 0.9998291730880737
","x: 267.0323181152344
y: 209.76646423339844
z: -0.09830828011035919
visibility: 0.9999249577522278
","x: 219.3002471923828
y: 197.2173309326172
z: -0.13359732925891876
visibility: 0.999936580657959
","x: 279.0555419921875
y: 274.9020690917969
z: -0.09731898456811905
visibility: 0.9732275009155273
","x: 207.91497802734375
y: 266.2696533203125
z: -0.08245015144348145
visibility: 0.9616348147392273
","x: 254.12547302246094
y: 300.72589111328125
z: -0.2764756977558136
visibility: 0.8506738543510437
","x: 190.20367431640625
y: 315.5773010253906
z: -0.15496036410331726
visibility: 0.8919536471366882
","x: 247.37554931640625
y: 311.37750244140625
z: -0.3255808651447296
visibility: 0.7146218419075012
","x: 183.21298217773438
y: 332.5889587402344
z: -0.1910281777381897
visibility: 0.8276174068450928
","x: 245.4806365966797
y: 304.99755859375
z: -0.3494269549846649
visibility: 0.7106809616088867
","x: 184.5160675048828
y: 331.9926452636719
z: -0.22728511691093445
visibility: 0.8412184119224548
","x: 247.32957458496094
y: 300.25933837890625
z: -0.29048267006874084
visibility: 0.6718170642852783
","x: 187.65904235839844
y: 326.21136474609375
z: -0.17166540026664734
visibility: 0.8144102096557617
","x: 259.88177490234375
y: 337.4763488769531
z: 0.009363768622279167
visibility: 0.9996017813682556
","x: 231.23854064941406
y: 339.43701171875
z: -0.009409895166754723
visibility: 0.9996427297592163
","x: 271.1160888671875
y: 421.768310546875
z: 0.07284452021121979
visibility: 0.9970409870147705
","x: 223.8660430908203
y: 433.69207763671875
z: 0.0031055379658937454
visibility: 0.9962131381034851
","x: 280.71282958984375
y: 500.70440673828125
z: 0.3408607542514801
visibility: 0.9960421919822693
","x: 204.94285583496094
y: 517.1349487304688
z: 0.1948329210281372
visibility: 0.9949919581413269
","x: 279.6717834472656
y: 512.4397583007812
z: 0.3613373041152954
visibility: 0.8896968364715576
","x: 202.1783905029297
y: 525.9581909179688
z: 0.2067991942167282
visibility: 0.891652524471283
","x: 282.5518798828125
y: 527.9376831054688
z: 0.22506816685199738
visibility: 0.9909513592720032
","x: 210.3137664794922
y: 550.32763671875
z: 0.05880146101117134
visibility: 0.9904918670654297
","x: 192.15528869628906
y: 318.2101135253906
z: 0.0
","x: 189.31781005859375
y: 318.8697204589844
z: -0.0034102729987353086
","x: 185.98458862304688
y: 323.0619812011719
z: -0.006299474276602268
","x: 184.32847595214844
y: 326.7349853515625
z: -0.010099668987095356
","x: 182.92510986328125
y: 329.85577392578125
z: -0.013133414089679718
","x: 180.96803283691406
y: 338.5018615722656
z: -0.000805863703135401
","x: 178.27877807617188
y: 346.9762878417969
z: -0.006610173732042313
","x: 179.8216552734375
y: 344.6865539550781
z: -0.009343961253762245
","x: 181.28030395507812
y: 340.24603271484375
z: -0.010126679204404354
","x: 183.3877410888672
y: 341.2091064453125
z: -0.0024777513463050127
","x: 181.3878631591797
y: 351.67388916015625
z: -0.00865135807543993
","x: 183.4490203857422
y: 346.4615478515625
z: -0.009870067238807678
","x: 185.0655975341797
y: 340.36651611328125
z: -0.0089414669200778
","x: 186.2876434326172
y: 342.01910400390625
z: -0.0053762635216116905
","x: 185.37745666503906
y: 351.17254638671875
z: -0.010700168088078499
","x: 186.69090270996094
y: 345.7914733886719
z: -0.009807082824409008
","x: 187.39381408691406
y: 340.50592041015625
z: -0.007650434505194426
","x: 189.63192749023438
y: 341.0713195800781
z: -0.009041897021234035
","x: 189.3095245361328
y: 348.0838623046875
z: -0.012118461541831493
","x: 189.99754333496094
y: 344.6559143066406
z: -0.011382236145436764
","x: 190.15875244140625
y: 340.44549560546875
z: -0.009683933109045029
",,,,,,,,,,,,,,,,,,,,,
13,"x: 261.74359130859375
y: 158.68630981445312
z: -0.24866259098052979
visibility: 0.9998169541358948
","x: 263.13153076171875
y: 155.3658905029297
z: -0.23170968890190125
visibility: 0.9992606043815613
","x: 263.5064392089844
y: 156.09938049316406
z: -0.23174765706062317
visibility: 0.9993669986724854
","x: 263.8169250488281
y: 156.84378051757812
z: -0.2317061871290207
visibility: 0.9992296695709229
","x: 260.9054260253906
y: 153.28794860839844
z: -0.24914535880088806
visibility: 0.9993492960929871
","x: 259.6729736328125
y: 152.4807891845703
z: -0.24920101463794708
visibility: 0.9995021224021912
","x: 258.26116943359375
y: 151.58522033691406
z: -0.24928224086761475
visibility: 0.9995439648628235
","x: 260.82550048828125
y: 160.50941467285156
z: -0.11225378513336182
visibility: 0.9990481734275818
","x: 252.59542846679688
y: 152.82806396484375
z: -0.19484688341617584
visibility: 0.9995638728141785
","x: 259.910888671875
y: 168.17892456054688
z: -0.2015487253665924
visibility: 0.9998106956481934
","x: 257.2048645019531
y: 164.83987426757812
z: -0.22552558779716492
visibility: 0.9998437762260437
","x: 269.5628356933594
y: 207.0748748779297
z: -0.02582419477403164
visibility: 0.9999298453330994
","x: 220.84446716308594
y: 191.6070556640625
z: -0.13028094172477722
visibility: 0.9999426007270813
","x: 276.4293212890625
y: 267.8927917480469
z: -0.032908715307712555
visibility: 0.9631194472312927
","x: 208.30734252929688
y: 260.19732666015625
z: -0.07961546629667282
visibility: 0.9649997353553772
","x: 262.64288330078125
y: 285.1353759765625
z: -0.2656474709510803
visibility: 0.8574939370155334
","x: 190.22447204589844
y: 308.7886962890625
z: -0.15747161209583282
visibility: 0.9022874236106873
","x: 257.1730651855469
y: 296.10211181640625
z: -0.3155248761177063
visibility: 0.7323011755943298
","x: 183.1884307861328
y: 325.81060791015625
z: -0.192457914352417
visibility: 0.8439884185791016
","x: 255.48231506347656
y: 287.8354187011719
z: -0.3458032011985779
visibility: 0.7296088933944702
","x: 184.46035766601562
y: 325.1870422363281
z: -0.23220738768577576
visibility: 0.8563336730003357
","x: 256.8511047363281
y: 283.780029296875
z: -0.28325319290161133
visibility: 0.6910722255706787
","x: 187.56951904296875
y: 319.6081237792969
z: -0.17431001365184784
visibility: 0.8317449688911438
","x: 261.1630859375
y: 332.5188903808594
z: 0.050827689468860626
visibility: 0.9996219873428345
","x: 233.16383361816406
y: 333.98797607421875
z: -0.050966598093509674
visibility: 0.9996730089187622
","x: 274.3708801269531
y: 418.92071533203125
z: 0.11281061172485352
visibility: 0.9968511462211609
","x: 227.38572692871094
y: 431.0256652832031
z: -0.08190348744392395
visibility: 0.9964850544929504
","x: 280.9006652832031
y: 500.2533264160156
z: 0.3342360854148865
visibility: 0.9961070418357849
","x: 206.18576049804688
y: 514.5455322265625
z: 0.049860402941703796
visibility: 0.9953550696372986
","x: 277.7218017578125
y: 513.1471557617188
z: 0.35160380601882935
visibility: 0.8984843492507935
","x: 202.95376586914062
y: 522.1400146484375
z: 0.05514330789446831
visibility: 0.8968527317047119
","x: 294.7384033203125
y: 522.8807373046875
z: 0.23616869747638702
visibility: 0.991341233253479
","x: 210.4807891845703
y: 550.5712280273438
z: -0.0858893096446991
visibility: 0.9911026358604431
",,,,,,,,,,,,,,,,,,,,,,,,,,,,,,,,,,,,,,,,,,
14,"x: 269.60809326171875
y: 168.8821563720703
z: -0.21891728043556213
visibility: 0.999806821346283
","x: 270.0701904296875
y: 162.03131103515625
z: -0.2024998962879181
visibility: 0.9992861747741699
","x: 270.0418701171875
y: 162.1005859375
z: -0.20258231461048126
visibility: 0.9993765950202942
","x: 269.9474792480469
y: 161.96878051757812
z: -0.20256516337394714
visibility: 0.9992476105690002
","x: 268.53240966796875
y: 159.7041015625
z: -0.2191801816225052
visibility: 0.9993734359741211
","x: 267.43408203125
y: 158.2076873779297
z: -0.21923582255840302
visibility: 0.9995108246803284
","x: 266.23638916015625
y: 156.6062774658203
z: -0.2193388044834137
visibility: 0.9995467662811279
","x: 265.97998046875
y: 160.77481079101562
z: -0.08810737729072571
visibility: 0.9989427924156189
","x: 260.9631042480469
y: 154.62924194335938
z: -0.16665160655975342
visibility: 0.9995503425598145
","x: 266.7420349121094
y: 174.81314086914062
z: -0.17365826666355133
visibility: 0.9997941255569458
","x: 264.6819763183594
y: 171.77603149414062
z: -0.196474090218544
visibility: 0.9998414516448975
","x: 277.2440185546875
y: 206.82623291015625
z: -0.011660466901957989
visibility: 0.9999281167984009
","x: 229.61695861816406
y: 194.4121551513672
z: -0.1217225193977356
visibility: 0.9999473094940186
","x: 283.5073547363281
y: 268.8074035644531
z: -0.06920652836561203
visibility: 0.9468027949333191
","x: 211.97776794433594
y: 261.8895568847656
z: -0.08617667108774185
visibility: 0.9677537679672241
","x: 263.8399963378906
y: 280.34765625
z: -0.32199209928512573
visibility: 0.8612716794013977
","x: 190.01670837402344
y: 307.0116271972656
z: -0.1576952338218689
visibility: 0.9111665487289429
","x: 256.9237976074219
y: 288.20843505859375
z: -0.3744100034236908
visibility: 0.7463815212249756
","x: 182.05979919433594
y: 322.2605895996094
z: -0.19242247939109802
visibility: 0.8580919504165649
","x: 255.23440551757812
y: 279.4180603027344
z: -0.39307451248168945
visibility: 0.7445785999298096
","x: 182.78111267089844
y: 321.39630126953125
z: -0.22893862426280975
visibility: 0.8693824410438538
","x: 257.08148193359375
y: 275.5086669921875
z: -0.3354586362838745
visibility: 0.7059928178787231
","x: 186.27880859375
y: 316.56719970703125
z: -0.17372992634773254
visibility: 0.8464813828468323
","x: 264.43280029296875
y: 336.19921875
z: 0.06189868599176407
visibility: 0.9996307492256165
","x: 239.54681396484375
y: 335.1632080078125
z: -0.06203426048159599
visibility: 0.9996975660324097
","x: 283.603759765625
y: 418.9261474609375
z: 0.15664824843406677
visibility: 0.9959014654159546
","x: 225.77301025390625
y: 430.0459289550781
z: -0.09639143198728561
visibility: 0.9967274069786072
","x: 281.9693908691406
y: 500.0877380371094
z: 0.3931383192539215
visibility: 0.9958305954933167
","x: 203.872802734375
y: 514.7242431640625
z: 0.01158575527369976
visibility: 0.9956565499305725
","x: 277.353759765625
y: 513.3330078125
z: 0.4117642045021057
visibility: 0.9060443639755249
","x: 198.6185302734375
y: 522.4461669921875
z: 0.015820901840925217
visibility: 0.9008684754371643
","x: 301.13787841796875
y: 520.66796875
z: 0.3293413519859314
visibility: 0.9912876486778259
","x: 210.53721618652344
y: 550.6201782226562
z: -0.11410306394100189
visibility: 0.9915227890014648
","x: 187.10107421875
y: 315.7615966796875
z: 0.0
","x: 183.6582794189453
y: 314.8377685546875
z: -0.003173853037878871
","x: 179.70631408691406
y: 316.4376220703125
z: -0.006273025181144476
","x: 177.13897705078125
y: 319.7588806152344
z: -0.010202986188232899
","x: 175.2281494140625
y: 323.00799560546875
z: -0.01315720658749342
","x: 173.94699096679688
y: 328.08734130859375
z: -0.0028223739936947823
","x: 169.81076049804688
y: 333.05426025390625
z: -0.008291717618703842
","x: 172.53359985351562
y: 328.27532958984375
z: -0.010043532587587833
","x: 175.311279296875
y: 324.9188232421875
z: -0.010329246520996094
","x: 175.7480010986328
y: 331.76068115234375
z: -0.004548320546746254
","x: 172.17503356933594
y: 337.952880859375
z: -0.01029179897159338
","x: 175.05210876464844
y: 331.95037841796875
z: -0.010435017757117748
","x: 177.4669952392578
y: 328.3714294433594
z: -0.009100845083594322
","x: 178.4222869873047
y: 334.3768310546875
z: -0.007216272875666618
","x: 176.08346557617188
y: 339.160400390625
z: -0.012389183975756168
","x: 178.2913360595703
y: 333.3484191894531
z: -0.010864987038075924
","x: 180.0085906982422
y: 330.02301025390625
z: -0.008548722602427006
","x: 181.69406127929688
y: 336.03143310546875
z: -0.01051435898989439
","x: 179.9812774658203
y: 339.0560302734375
z: -0.013385648839175701
","x: 181.2358856201172
y: 334.970458984375
z: -0.01227225735783577
","x: 182.50927734375
y: 332.027587890625
z: -0.010449507273733616
","x: 269.11688232421875
y: 282.92901611328125
z: 0.0
","x: 262.8568420410156
y: 275.55535888671875
z: 0.0014771879650652409
","x: 256.3541564941406
y: 273.5929870605469
z: 0.00043763985740952194
","x: 251.24029541015625
y: 274.6258239746094
z: -0.0006448167259804904
","x: 247.628662109375
y: 276.94549560546875
z: -0.0013980205403640866
","x: 255.31382751464844
y: 276.9668884277344
z: -0.006204334087669849
","x: 247.28273010253906
y: 279.5239562988281
z: -0.007809360045939684
","x: 244.59765625
y: 279.8719177246094
z: -0.0064077312126755714
","x: 243.92489624023438
y: 279.966796875
z: -0.004868292715400457
","x: 256.2242431640625
y: 283.63470458984375
z: -0.008063145913183689
","x: 247.2669677734375
y: 286.5158386230469
z: -0.009738834574818611
","x: 245.02684020996094
y: 285.8262939453125
z: -0.007170015946030617
","x: 245.14723205566406
y: 284.6026916503906
z: -0.004870236851274967
","x: 257.1449279785156
y: 289.9935302734375
z: -0.009316322393715382
","x: 248.74851989746094
y: 292.5494079589844
z: -0.01033986359834671
","x: 246.61073303222656
y: 291.505126953125
z: -0.007218397222459316
","x: 246.4817657470703
y: 290.1114501953125
z: -0.00492459861561656
","x: 258.150390625
y: 295.6045227050781
z: -0.010444522835314274
","x: 251.35848999023438
y: 297.3475341796875
z: -0.01102980226278305
","x: 249.31375122070312
y: 296.3554992675781
z: -0.008971226401627064
","x: 248.84036254882812
y: 295.0286865234375
z: -0.007202473934739828
"
15,"x: 269.60809326171875
y: 168.8821563720703
z: -0.21891728043556213
visibility: 0.999806821346283
","x: 270.0701904296875
y: 162.03131103515625
z: -0.2024998962879181
visibility: 0.9992861747741699
","x: 270.0418701171875
y: 162.1005859375
z: -0.20258231461048126
visibility: 0.9993765950202942
","x: 269.9474792480469
y: 161.96878051757812
z: -0.20256516337394714
visibility: 0.9992476105690002
","x: 268.53240966796875
y: 159.7041015625
z: -0.2191801816225052
visibility: 0.9993734359741211
","x: 267.43408203125
y: 158.2076873779297
z: -0.21923582255840302
visibility: 0.9995108246803284
","x: 266.23638916015625
y: 156.6062774658203
z: -0.2193388044834137
visibility: 0.9995467662811279
","x: 265.97998046875
y: 160.77481079101562
z: -0.08810737729072571
visibility: 0.9989427924156189
","x: 260.9631042480469
y: 154.62924194335938
z: -0.16665160655975342
visibility: 0.9995503425598145
","x: 266.7420349121094
y: 174.81314086914062
z: -0.17365826666355133
visibility: 0.9997941255569458
","x: 264.6819763183594
y: 171.77603149414062
z: -0.196474090218544
visibility: 0.9998414516448975
","x: 277.2440185546875
y: 206.82623291015625
z: -0.011660466901957989
visibility: 0.9999281167984009
","x: 229.61695861816406
y: 194.4121551513672
z: -0.1217225193977356
visibility: 0.9999473094940186
","x: 283.5073547363281
y: 268.8074035644531
z: -0.06920652836561203
visibility: 0.9468027949333191
","x: 211.97776794433594
y: 261.8895568847656
z: -0.08617667108774185
visibility: 0.9677537679672241
","x: 263.8399963378906
y: 280.34765625
z: -0.32199209928512573
visibility: 0.8612716794013977
","x: 190.01670837402344
y: 307.0116271972656
z: -0.1576952338218689
visibility: 0.9111665487289429
","x: 256.9237976074219
y: 288.20843505859375
z: -0.3744100034236908
visibility: 0.7463815212249756
","x: 182.05979919433594
y: 322.2605895996094
z: -0.19242247939109802
visibility: 0.8580919504165649
","x: 255.23440551757812
y: 279.4180603027344
z: -0.39307451248168945
visibility: 0.7445785999298096
","x: 182.78111267089844
y: 321.39630126953125
z: -0.22893862426280975
visibility: 0.8693824410438538
","x: 257.08148193359375
y: 275.5086669921875
z: -0.3354586362838745
visibility: 0.7059928178787231
","x: 186.27880859375
y: 316.56719970703125
z: -0.17372992634773254
visibility: 0.8464813828468323
","x: 264.43280029296875
y: 336.19921875
z: 0.06189868599176407
visibility: 0.9996307492256165
","x: 239.54681396484375
y: 335.1632080078125
z: -0.06203426048159599
visibility: 0.9996975660324097
","x: 283.603759765625
y: 418.9261474609375
z: 0.15664824843406677
visibility: 0.9959014654159546
","x: 225.77301025390625
y: 430.0459289550781
z: -0.09639143198728561
visibility: 0.9967274069786072
","x: 281.9693908691406
y: 500.0877380371094
z: 0.3931383192539215
visibility: 0.9958305954933167
","x: 203.872802734375
y: 514.7242431640625
z: 0.01158575527369976
visibility: 0.9956565499305725
","x: 277.353759765625
y: 513.3330078125
z: 0.4117642045021057
visibility: 0.9060443639755249
","x: 198.6185302734375
y: 522.4461669921875
z: 0.015820901840925217
visibility: 0.9008684754371643
","x: 301.13787841796875
y: 520.66796875
z: 0.3293413519859314
visibility: 0.9912876486778259
","x: 210.53721618652344
y: 550.6201782226562
z: -0.11410306394100189
visibility: 0.9915227890014648
","x: 187.10107421875
y: 315.7615966796875
z: 0.0
","x: 183.6582794189453
y: 314.8377685546875
z: -0.003173853037878871
","x: 179.70631408691406
y: 316.4376220703125
z: -0.006273025181144476
","x: 177.13897705078125
y: 319.7588806152344
z: -0.010202986188232899
","x: 175.2281494140625
y: 323.00799560546875
z: -0.01315720658749342
","x: 173.94699096679688
y: 328.08734130859375
z: -0.0028223739936947823
","x: 169.81076049804688
y: 333.05426025390625
z: -0.008291717618703842
","x: 172.53359985351562
y: 328.27532958984375
z: -0.010043532587587833
","x: 175.311279296875
y: 324.9188232421875
z: -0.010329246520996094
","x: 175.7480010986328
y: 331.76068115234375
z: -0.004548320546746254
","x: 172.17503356933594
y: 337.952880859375
z: -0.01029179897159338
","x: 175.05210876464844
y: 331.95037841796875
z: -0.010435017757117748
","x: 177.4669952392578
y: 328.3714294433594
z: -0.009100845083594322
","x: 178.4222869873047
y: 334.3768310546875
z: -0.007216272875666618
","x: 176.08346557617188
y: 339.160400390625
z: -0.012389183975756168
","x: 178.2913360595703
y: 333.3484191894531
z: -0.010864987038075924
","x: 180.0085906982422
y: 330.02301025390625
z: -0.008548722602427006
","x: 181.69406127929688
y: 336.03143310546875
z: -0.01051435898989439
","x: 179.9812774658203
y: 339.0560302734375
z: -0.013385648839175701
","x: 181.2358856201172
y: 334.970458984375
z: -0.01227225735783577
","x: 182.50927734375
y: 332.027587890625
z: -0.010449507273733616
","x: 269.11688232421875
y: 282.92901611328125
z: 0.0
","x: 262.8568420410156
y: 275.55535888671875
z: 0.0014771879650652409
","x: 256.3541564941406
y: 273.5929870605469
z: 0.00043763985740952194
","x: 251.24029541015625
y: 274.6258239746094
z: -0.0006448167259804904
","x: 247.628662109375
y: 276.94549560546875
z: -0.0013980205403640866
","x: 255.31382751464844
y: 276.9668884277344
z: -0.006204334087669849
","x: 247.28273010253906
y: 279.5239562988281
z: -0.007809360045939684
","x: 244.59765625
y: 279.8719177246094
z: -0.0064077312126755714
","x: 243.92489624023438
y: 279.966796875
z: -0.004868292715400457
","x: 256.2242431640625
y: 283.63470458984375
z: -0.008063145913183689
","x: 247.2669677734375
y: 286.5158386230469
z: -0.009738834574818611
","x: 245.02684020996094
y: 285.8262939453125
z: -0.007170015946030617
","x: 245.14723205566406
y: 284.6026916503906
z: -0.004870236851274967
","x: 257.1449279785156
y: 289.9935302734375
z: -0.009316322393715382
","x: 248.74851989746094
y: 292.5494079589844
z: -0.01033986359834671
","x: 246.61073303222656
y: 291.505126953125
z: -0.007218397222459316
","x: 246.4817657470703
y: 290.1114501953125
z: -0.00492459861561656
","x: 258.150390625
y: 295.6045227050781
z: -0.010444522835314274
","x: 251.35848999023438
y: 297.3475341796875
z: -0.01102980226278305
","x: 249.31375122070312
y: 296.3554992675781
z: -0.008971226401627064
","x: 248.84036254882812
y: 295.0286865234375
z: -0.007202473934739828
"
16,"x: 269.60809326171875
y: 168.8821563720703
z: -0.21891728043556213
visibility: 0.999806821346283
","x: 270.0701904296875
y: 162.03131103515625
z: -0.2024998962879181
visibility: 0.9992861747741699
","x: 270.0418701171875
y: 162.1005859375
z: -0.20258231461048126
visibility: 0.9993765950202942
","x: 269.9474792480469
y: 161.96878051757812
z: -0.20256516337394714
visibility: 0.9992476105690002
","x: 268.53240966796875
y: 159.7041015625
z: -0.2191801816225052
visibility: 0.9993734359741211
","x: 267.43408203125
y: 158.2076873779297
z: -0.21923582255840302
visibility: 0.9995108246803284
","x: 266.23638916015625
y: 156.6062774658203
z: -0.2193388044834137
visibility: 0.9995467662811279
","x: 265.97998046875
y: 160.77481079101562
z: -0.08810737729072571
visibility: 0.9989427924156189
","x: 260.9631042480469
y: 154.62924194335938
z: -0.16665160655975342
visibility: 0.9995503425598145
","x: 266.7420349121094
y: 174.81314086914062
z: -0.17365826666355133
visibility: 0.9997941255569458
","x: 264.6819763183594
y: 171.77603149414062
z: -0.196474090218544
visibility: 0.9998414516448975
","x: 277.2440185546875
y: 206.82623291015625
z: -0.011660466901957989
visibility: 0.9999281167984009
","x: 229.61695861816406
y: 194.4121551513672
z: -0.1217225193977356
visibility: 0.9999473094940186
","x: 283.5073547363281
y: 268.8074035644531
z: -0.06920652836561203
visibility: 0.9468027949333191
","x: 211.97776794433594
y: 261.8895568847656
z: -0.08617667108774185
visibility: 0.9677537679672241
","x: 263.8399963378906
y: 280.34765625
z: -0.32199209928512573
visibility: 0.8612716794013977
","x: 190.01670837402344
y: 307.0116271972656
z: -0.1576952338218689
visibility: 0.9111665487289429
","x: 256.9237976074219
y: 288.20843505859375
z: -0.3744100034236908
visibility: 0.7463815212249756
","x: 182.05979919433594
y: 322.2605895996094
z: -0.19242247939109802
visibility: 0.8580919504165649
","x: 255.23440551757812
y: 279.4180603027344
z: -0.39307451248168945
visibility: 0.7445785999298096
","x: 182.78111267089844
y: 321.39630126953125
z: -0.22893862426280975
visibility: 0.8693824410438538
","x: 257.08148193359375
y: 275.5086669921875
z: -0.3354586362838745
visibility: 0.7059928178787231
","x: 186.27880859375
y: 316.56719970703125
z: -0.17372992634773254
visibility: 0.8464813828468323
","x: 264.43280029296875
y: 336.19921875
z: 0.06189868599176407
visibility: 0.9996307492256165
","x: 239.54681396484375
y: 335.1632080078125
z: -0.06203426048159599
visibility: 0.9996975660324097
","x: 283.603759765625
y: 418.9261474609375
z: 0.15664824843406677
visibility: 0.9959014654159546
","x: 225.77301025390625
y: 430.0459289550781
z: -0.09639143198728561
visibility: 0.9967274069786072
","x: 281.9693908691406
y: 500.0877380371094
z: 0.3931383192539215
visibility: 0.9958305954933167
","x: 203.872802734375
y: 514.7242431640625
z: 0.01158575527369976
visibility: 0.9956565499305725
","x: 277.353759765625
y: 513.3330078125
z: 0.4117642045021057
visibility: 0.9060443639755249
","x: 198.6185302734375
y: 522.4461669921875
z: 0.015820901840925217
visibility: 0.9008684754371643
","x: 301.13787841796875
y: 520.66796875
z: 0.3293413519859314
visibility: 0.9912876486778259
","x: 210.53721618652344
y: 550.6201782226562
z: -0.11410306394100189
visibility: 0.9915227890014648
","x: 187.10107421875
y: 315.7615966796875
z: 0.0
","x: 183.6582794189453
y: 314.8377685546875
z: -0.003173853037878871
","x: 179.70631408691406
y: 316.4376220703125
z: -0.006273025181144476
","x: 177.13897705078125
y: 319.7588806152344
z: -0.010202986188232899
","x: 175.2281494140625
y: 323.00799560546875
z: -0.01315720658749342
","x: 173.94699096679688
y: 328.08734130859375
z: -0.0028223739936947823
","x: 169.81076049804688
y: 333.05426025390625
z: -0.008291717618703842
","x: 172.53359985351562
y: 328.27532958984375
z: -0.010043532587587833
","x: 175.311279296875
y: 324.9188232421875
z: -0.010329246520996094
","x: 175.7480010986328
y: 331.76068115234375
z: -0.004548320546746254
","x: 172.17503356933594
y: 337.952880859375
z: -0.01029179897159338
","x: 175.05210876464844
y: 331.95037841796875
z: -0.010435017757117748
","x: 177.4669952392578
y: 328.3714294433594
z: -0.009100845083594322
","x: 178.4222869873047
y: 334.3768310546875
z: -0.007216272875666618
","x: 176.08346557617188
y: 339.160400390625
z: -0.012389183975756168
","x: 178.2913360595703
y: 333.3484191894531
z: -0.010864987038075924
","x: 180.0085906982422
y: 330.02301025390625
z: -0.008548722602427006
","x: 181.69406127929688
y: 336.03143310546875
z: -0.01051435898989439
","x: 179.9812774658203
y: 339.0560302734375
z: -0.013385648839175701
","x: 181.2358856201172
y: 334.970458984375
z: -0.01227225735783577
","x: 182.50927734375
y: 332.027587890625
z: -0.010449507273733616
","x: 269.11688232421875
y: 282.92901611328125
z: 0.0
","x: 262.8568420410156
y: 275.55535888671875
z: 0.0014771879650652409
","x: 256.3541564941406
y: 273.5929870605469
z: 0.00043763985740952194
","x: 251.24029541015625
y: 274.6258239746094
z: -0.0006448167259804904
","x: 247.628662109375
y: 276.94549560546875
z: -0.0013980205403640866
","x: 255.31382751464844
y: 276.9668884277344
z: -0.006204334087669849
","x: 247.28273010253906
y: 279.5239562988281
z: -0.007809360045939684
","x: 244.59765625
y: 279.8719177246094
z: -0.0064077312126755714
","x: 243.92489624023438
y: 279.966796875
z: -0.004868292715400457
","x: 256.2242431640625
y: 283.63470458984375
z: -0.008063145913183689
","x: 247.2669677734375
y: 286.5158386230469
z: -0.009738834574818611
","x: 245.02684020996094
y: 285.8262939453125
z: -0.007170015946030617
","x: 245.14723205566406
y: 284.6026916503906
z: -0.004870236851274967
","x: 257.1449279785156
y: 289.9935302734375
z: -0.009316322393715382
","x: 248.74851989746094
y: 292.5494079589844
z: -0.01033986359834671
","x: 246.61073303222656
y: 291.505126953125
z: -0.007218397222459316
","x: 246.4817657470703
y: 290.1114501953125
z: -0.00492459861561656
","x: 258.150390625
y: 295.6045227050781
z: -0.010444522835314274
","x: 251.35848999023438
y: 297.3475341796875
z: -0.01102980226278305
","x: 249.31375122070312
y: 296.3554992675781
z: -0.008971226401627064
","x: 248.84036254882812
y: 295.0286865234375
z: -0.007202473934739828
"
17,"x: 279.4978942871094
y: 182.6121826171875
z: -0.1715579628944397
visibility: 0.9997743964195251
","x: 279.2669677734375
y: 173.10604858398438
z: -0.15310005843639374
visibility: 0.9992577433586121
","x: 279.0145263671875
y: 172.85311889648438
z: -0.1532125324010849
visibility: 0.9993376731872559
","x: 278.6534423828125
y: 172.4280548095703
z: -0.15324179828166962
visibility: 0.9992197155952454
","x: 277.87249755859375
y: 171.73870849609375
z: -0.1739008128643036
visibility: 0.9993353486061096
","x: 276.7702941894531
y: 170.56211853027344
z: -0.17393526434898376
visibility: 0.9994543194770813
","x: 275.5740661621094
y: 169.22523498535156
z: -0.17401400208473206
visibility: 0.9994696974754333
","x: 273.0633850097656
y: 168.86390686035156
z: -0.04547172039747238
visibility: 0.9988266825675964
","x: 269.0033874511719
y: 166.33384704589844
z: -0.1406444013118744
visibility: 0.9994281530380249
","x: 276.1144104003906
y: 188.52622985839844
z: -0.12958213686943054
visibility: 0.9997563362121582
","x: 274.44775390625
y: 186.9102325439453
z: -0.15731388330459595
visibility: 0.9998129606246948
","x: 285.1026611328125
y: 213.46214294433594
z: 0.00862953346222639
visibility: 0.9999241232872009
","x: 237.10360717773438
y: 207.29933166503906
z: -0.10520265996456146
visibility: 0.9999463558197021
","x: 294.0899963378906
y: 276.40618896484375
z: -0.046273864805698395
visibility: 0.937095582485199
","x: 218.87893676757812
y: 268.63751220703125
z: -0.07815804332494736
visibility: 0.9702900052070618
","x: 270.3629455566406
y: 285.2242431640625
z: -0.2877350449562073
visibility: 0.8655205965042114
","x: 191.6768341064453
y: 308.328857421875
z: -0.14837147295475006
visibility: 0.9191409349441528
","x: 261.916015625
y: 288.34039306640625
z: -0.33879321813583374
visibility: 0.7585716843605042
","x: 182.19642639160156
y: 321.01031494140625
z: -0.18037626147270203
visibility: 0.8707139492034912
","x: 259.8131103515625
y: 279.669189453125
z: -0.3501273989677429
visibility: 0.7575151920318604
","x: 182.53985595703125
y: 319.5624084472656
z: -0.22684669494628906
visibility: 0.8810468316078186
","x: 262.25640869140625
y: 278.2614440917969
z: -0.2981753945350647
visibility: 0.7190133929252625
","x: 186.28675842285156
y: 315.1087341308594
z: -0.16718676686286926
visibility: 0.8595691323280334
","x: 269.02777099609375
y: 349.486328125
z: 0.05817486718297005
visibility: 0.9996355772018433
","x: 243.77420043945312
y: 347.293212890625
z: -0.058271389454603195
visibility: 0.9996969103813171
","x: 293.8277893066406
y: 423.45391845703125
z: 0.005174458026885986
visibility: 0.9957782626152039
","x: 225.0640106201172
y: 432.794677734375
z: -0.09738332778215408
visibility: 0.9968088865280151
","x: 284.6136779785156
y: 500.4083557128906
z: 0.25539419054985046
visibility: 0.9955402612686157
","x: 202.24717712402344
y: 514.939453125
z: 0.058904074132442474
visibility: 0.9957670569419861
","x: 277.58673095703125
y: 514.3587036132812
z: 0.2769075036048889
visibility: 0.9131638407707214
","x: 196.828125
y: 522.957275390625
z: 0.06758386641740799
visibility: 0.9005054235458374
","x: 305.2654113769531
y: 521.6309814453125
z: 0.20816993713378906
visibility: 0.9911634922027588
","x: 210.48545837402344
y: 550.9189453125
z: -0.05930350348353386
visibility: 0.991380512714386
","x: 188.1545867919922
y: 316.10357666015625
z: 0.0
","x: 186.32603454589844
y: 313.456298828125
z: -0.00635535828769207
","x: 182.6400909423828
y: 313.6977844238281
z: -0.010184833779931068
","x: 179.85879516601562
y: 314.7403564453125
z: -0.013943602330982685
","x: 177.143798828125
y: 315.271240234375
z: -0.016845498234033585
","x: 174.4641876220703
y: 322.7571105957031
z: -0.005719918292015791
","x: 170.4564208984375
y: 327.7337341308594
z: -0.011593773029744625
","x: 173.2275848388672
y: 325.3517150878906
z: -0.01379517000168562
","x: 175.95213317871094
y: 322.4691162109375
z: -0.01433253288269043
","x: 175.82574462890625
y: 328.0366516113281
z: -0.005606456659734249
","x: 171.91085815429688
y: 334.8060607910156
z: -0.012014784850180149
","x: 175.6956329345703
y: 330.6834411621094
z: -0.012761476449668407
","x: 178.64743041992188
y: 326.5449523925781
z: -0.011583557352423668
","x: 178.1857452392578
y: 331.93463134765625
z: -0.006649987306445837
","x: 175.37576293945312
y: 338.4765319824219
z: -0.01224445179104805
","x: 178.47962951660156
y: 333.9418029785156
z: -0.011245540343225002
","x: 180.38906860351562
y: 330.051025390625
z: -0.009123689495027065
","x: 181.358154296875
y: 334.47100830078125
z: -0.008555522188544273
","x: 179.4655303955078
y: 339.30743408203125
z: -0.012068676762282848
","x: 181.50025939941406
y: 336.280517578125
z: -0.01162121444940567
","x: 182.70347595214844
y: 333.0555419921875
z: -0.01013738289475441
",,,,,,,,,,,,,,,,,,,,,
18,"x: 279.4978942871094
y: 182.6121826171875
z: -0.1715579628944397
visibility: 0.9997743964195251
","x: 279.2669677734375
y: 173.10604858398438
z: -0.15310005843639374
visibility: 0.9992577433586121
","x: 279.0145263671875
y: 172.85311889648438
z: -0.1532125324010849
visibility: 0.9993376731872559
","x: 278.6534423828125
y: 172.4280548095703
z: -0.15324179828166962
visibility: 0.9992197155952454
","x: 277.87249755859375
y: 171.73870849609375
z: -0.1739008128643036
visibility: 0.9993353486061096
","x: 276.7702941894531
y: 170.56211853027344
z: -0.17393526434898376
visibility: 0.9994543194770813
","x: 275.5740661621094
y: 169.22523498535156
z: -0.17401400208473206
visibility: 0.9994696974754333
","x: 273.0633850097656
y: 168.86390686035156
z: -0.04547172039747238
visibility: 0.9988266825675964
","x: 269.0033874511719
y: 166.33384704589844
z: -0.1406444013118744
visibility: 0.9994281530380249
","x: 276.1144104003906
y: 188.52622985839844
z: -0.12958213686943054
visibility: 0.9997563362121582
","x: 274.44775390625
y: 186.9102325439453
z: -0.15731388330459595
visibility: 0.9998129606246948
","x: 285.1026611328125
y: 213.46214294433594
z: 0.00862953346222639
visibility: 0.9999241232872009
","x: 237.10360717773438
y: 207.29933166503906
z: -0.10520265996456146
visibility: 0.9999463558197021
","x: 294.0899963378906
y: 276.40618896484375
z: -0.046273864805698395
visibility: 0.937095582485199
","x: 218.87893676757812
y: 268.63751220703125
z: -0.07815804332494736
visibility: 0.9702900052070618
","x: 270.3629455566406
y: 285.2242431640625
z: -0.2877350449562073
visibility: 0.8655205965042114
","x: 191.6768341064453
y: 308.328857421875
z: -0.14837147295475006
visibility: 0.9191409349441528
","x: 261.916015625
y: 288.34039306640625
z: -0.33879321813583374
visibility: 0.7585716843605042
","x: 182.19642639160156
y: 321.01031494140625
z: -0.18037626147270203
visibility: 0.8707139492034912
","x: 259.8131103515625
y: 279.669189453125
z: -0.3501273989677429
visibility: 0.7575151920318604
","x: 182.53985595703125
y: 319.5624084472656
z: -0.22684669494628906
visibility: 0.8810468316078186
","x: 262.25640869140625
y: 278.2614440917969
z: -0.2981753945350647
visibility: 0.7190133929252625
","x: 186.28675842285156
y: 315.1087341308594
z: -0.16718676686286926
visibility: 0.8595691323280334
","x: 269.02777099609375
y: 349.486328125
z: 0.05817486718297005
visibility: 0.9996355772018433
","x: 243.77420043945312
y: 347.293212890625
z: -0.058271389454603195
visibility: 0.9996969103813171
","x: 293.8277893066406
y: 423.45391845703125
z: 0.005174458026885986
visibility: 0.9957782626152039
","x: 225.0640106201172
y: 432.794677734375
z: -0.09738332778215408
visibility: 0.9968088865280151
","x: 284.6136779785156
y: 500.4083557128906
z: 0.25539419054985046
visibility: 0.9955402612686157
","x: 202.24717712402344
y: 514.939453125
z: 0.058904074132442474
visibility: 0.9957670569419861
","x: 277.58673095703125
y: 514.3587036132812
z: 0.2769075036048889
visibility: 0.9131638407707214
","x: 196.828125
y: 522.957275390625
z: 0.06758386641740799
visibility: 0.9005054235458374
","x: 305.2654113769531
y: 521.6309814453125
z: 0.20816993713378906
visibility: 0.9911634922027588
","x: 210.48545837402344
y: 550.9189453125
z: -0.05930350348353386
visibility: 0.991380512714386
","x: 188.1545867919922
y: 316.10357666015625
z: 0.0
","x: 186.32603454589844
y: 313.456298828125
z: -0.00635535828769207
","x: 182.6400909423828
y: 313.6977844238281
z: -0.010184833779931068
","x: 179.85879516601562
y: 314.7403564453125
z: -0.013943602330982685
","x: 177.143798828125
y: 315.271240234375
z: -0.016845498234033585
","x: 174.4641876220703
y: 322.7571105957031
z: -0.005719918292015791
","x: 170.4564208984375
y: 327.7337341308594
z: -0.011593773029744625
","x: 173.2275848388672
y: 325.3517150878906
z: -0.01379517000168562
","x: 175.95213317871094
y: 322.4691162109375
z: -0.01433253288269043
","x: 175.82574462890625
y: 328.0366516113281
z: -0.005606456659734249
","x: 171.91085815429688
y: 334.8060607910156
z: -0.012014784850180149
","x: 175.6956329345703
y: 330.6834411621094
z: -0.012761476449668407
","x: 178.64743041992188
y: 326.5449523925781
z: -0.011583557352423668
","x: 178.1857452392578
y: 331.93463134765625
z: -0.006649987306445837
","x: 175.37576293945312
y: 338.4765319824219
z: -0.01224445179104805
","x: 178.47962951660156
y: 333.9418029785156
z: -0.011245540343225002
","x: 180.38906860351562
y: 330.051025390625
z: -0.009123689495027065
","x: 181.358154296875
y: 334.47100830078125
z: -0.008555522188544273
","x: 179.4655303955078
y: 339.30743408203125
z: -0.012068676762282848
","x: 181.50025939941406
y: 336.280517578125
z: -0.01162121444940567
","x: 182.70347595214844
y: 333.0555419921875
z: -0.01013738289475441
",,,,,,,,,,,,,,,,,,,,,
19,"x: 285.15576171875
y: 186.89572143554688
z: -0.17183509469032288
visibility: 0.999718189239502
","x: 284.4151611328125
y: 177.74183654785156
z: -0.15370188653469086
visibility: 0.9991912245750427
","x: 284.1305236816406
y: 177.34982299804688
z: -0.1538136899471283
visibility: 0.9992499947547913
","x: 283.757568359375
y: 176.8020477294922
z: -0.15384194254875183
visibility: 0.9991499185562134
","x: 283.315673828125
y: 177.1402130126953
z: -0.17920683324337006
visibility: 0.9992876052856445
","x: 282.2663269042969
y: 176.41629028320312
z: -0.17925094068050385
visibility: 0.9993917942047119
","x: 281.077880859375
y: 175.5958709716797
z: -0.1793387234210968
visibility: 0.9994016289710999
","x: 278.24176025390625
y: 174.21853637695312
z: -0.04697437956929207
visibility: 0.9985730648040771
","x: 274.0359191894531
y: 173.90667724609375
z: -0.1610553115606308
visibility: 0.9993293881416321
","x: 282.31109619140625
y: 193.1157684326172
z: -0.13004601001739502
visibility: 0.9996904134750366
","x: 280.8908996582031
y: 192.3529052734375
z: -0.16360045969486237
visibility: 0.9997822642326355
","x: 289.84423828125
y: 217.6144256591797
z: 0.01995360106229782
visibility: 0.9999175667762756
","x: 242.8566131591797
y: 218.68472290039062
z: -0.135996013879776
visibility: 0.9999446272850037
","x: 301.95965576171875
y: 276.45037841796875
z: -0.01847885176539421
visibility: 0.9218969345092773
","x: 223.29913330078125
y: 277.83587646484375
z: -0.12910950183868408
visibility: 0.9727069735527039
","x: 281.7755432128906
y: 289.07940673828125
z: -0.24830034375190735
visibility: 0.8655573725700378
","x: 193.1764678955078
y: 310.3307800292969
z: -0.18189649283885956
visibility: 0.9265917539596558
","x: 276.88043212890625
y: 294.92205810546875
z: -0.2976034879684448
visibility: 0.7651066184043884
","x: 182.91140747070312
y: 322.765625
z: -0.21461275219917297
visibility: 0.8824737071990967
","x: 273.62371826171875
y: 288.2867736816406
z: -0.3117575943470001
visibility: 0.7648671865463257
","x: 182.64366149902344
y: 321.0755615234375
z: -0.24919836223125458
visibility: 0.8918874859809875
","x: 275.0967712402344
y: 286.2799072265625
z: -0.26055708527565
visibility: 0.7268147468566895
","x: 186.68362426757812
y: 316.65399169921875
z: -0.19699740409851074
visibility: 0.8718854188919067
","x: 273.2421875
y: 355.20001220703125
z: 0.07387028634548187
visibility: 0.9996109008789062
","x: 248.83837890625
y: 352.2366638183594
z: -0.0739317387342453
visibility: 0.9996705055236816
","x: 298.82208251953125
y: 427.91217041015625
z: 0.024693503975868225
visibility: 0.9952109456062317
","x: 227.28672790527344
y: 435.6628112792969
z: -0.0917152538895607
visibility: 0.9967972636222839
","x: 285.3755798339844
y: 501.3023376464844
z: 0.28438693284988403
visibility: 0.9949798583984375
","x: 202.3839874267578
y: 515.0526123046875
z: 0.06722502410411835
visibility: 0.9958674311637878
","x: 277.66046142578125
y: 515.7677001953125
z: 0.30396345257759094
visibility: 0.9192211031913757
","x: 197.5286407470703
y: 523.0340576171875
z: 0.07652987539768219
visibility: 0.9003695845603943
","x: 306.4404602050781
y: 522.2175903320312
z: 0.23480470478534698
visibility: 0.9907628297805786
","x: 209.8824920654297
y: 551.2186279296875
z: -0.04572711139917374
visibility: 0.9912614822387695
","x: 190.275390625
y: 319.0992431640625
z: 0.0
","x: 186.5521697998047
y: 316.59857177734375
z: -0.0027814600616693497
","x: 182.19541931152344
y: 315.71038818359375
z: -0.0053644743748009205
","x: 179.43870544433594
y: 315.7784423828125
z: -0.008769867941737175
","x: 177.6284637451172
y: 316.6499328613281
z: -0.011466719210147858
","x: 175.97662353515625
y: 324.04498291015625
z: -0.0024019188713282347
","x: 172.00938415527344
y: 329.1004638671875
z: -0.007913583889603615
","x: 174.94656372070312
y: 327.427490234375
z: -0.010049163363873959
","x: 177.77899169921875
y: 324.5364685058594
z: -0.010509616695344448
","x: 177.62228393554688
y: 328.52410888671875
z: -0.004049601033329964
","x: 174.41354370117188
y: 334.1993408203125
z: -0.0097915418446064
","x: 178.2275390625
y: 331.341552734375
z: -0.010390819981694221
","x: 181.192138671875
y: 327.8489685058594
z: -0.009331801906228065
","x: 179.97613525390625
y: 332.0116882324219
z: -0.0066545940935611725
","x: 177.90724182128906
y: 337.2451477050781
z: -0.011762743815779686
","x: 181.1907958984375
y: 333.70263671875
z: -0.0105208121240139
","x: 183.4553680419922
y: 329.8913879394531
z: -0.008355981670320034
","x: 182.93959045410156
y: 334.5767822265625
z: -0.009868747554719448
","x: 181.4123077392578
y: 338.717041015625
z: -0.012910343706607819
","x: 183.6019744873047
y: 335.7287292480469
z: -0.011911791749298573
","x: 185.22610473632812
y: 332.0660400390625
z: -0.010111382231116295
",,,,,,,,,,,,,,,,,,,,,
20,"x: 285.15576171875
y: 186.89572143554688
z: -0.17183509469032288
visibility: 0.999718189239502
","x: 284.4151611328125
y: 177.74183654785156
z: -0.15370188653469086
visibility: 0.9991912245750427
","x: 284.1305236816406
y: 177.34982299804688
z: -0.1538136899471283
visibility: 0.9992499947547913
","x: 283.757568359375
y: 176.8020477294922
z: -0.15384194254875183
visibility: 0.9991499185562134
","x: 283.315673828125
y: 177.1402130126953
z: -0.17920683324337006
visibility: 0.9992876052856445
","x: 282.2663269042969
y: 176.41629028320312
z: -0.17925094068050385
visibility: 0.9993917942047119
","x: 281.077880859375
y: 175.5958709716797
z: -0.1793387234210968
visibility: 0.9994016289710999
","x: 278.24176025390625
y: 174.21853637695312
z: -0.04697437956929207
visibility: 0.9985730648040771
","x: 274.0359191894531
y: 173.90667724609375
z: -0.1610553115606308
visibility: 0.9993293881416321
","x: 282.31109619140625
y: 193.1157684326172
z: -0.13004601001739502
visibility: 0.9996904134750366
","x: 280.8908996582031
y: 192.3529052734375
z: -0.16360045969486237
visibility: 0.9997822642326355
","x: 289.84423828125
y: 217.6144256591797
z: 0.01995360106229782
visibility: 0.9999175667762756
","x: 242.8566131591797
y: 218.68472290039062
z: -0.135996013879776
visibility: 0.9999446272850037
","x: 301.95965576171875
y: 276.45037841796875
z: -0.01847885176539421
visibility: 0.9218969345092773
","x: 223.29913330078125
y: 277.83587646484375
z: -0.12910950183868408
visibility: 0.9727069735527039
","x: 281.7755432128906
y: 289.07940673828125
z: -0.24830034375190735
visibility: 0.8655573725700378
","x: 193.1764678955078
y: 310.3307800292969
z: -0.18189649283885956
visibility: 0.9265917539596558
","x: 276.88043212890625
y: 294.92205810546875
z: -0.2976034879684448
visibility: 0.7651066184043884
","x: 182.91140747070312
y: 322.765625
z: -0.21461275219917297
visibility: 0.8824737071990967
","x: 273.62371826171875
y: 288.2867736816406
z: -0.3117575943470001
visibility: 0.7648671865463257
","x: 182.64366149902344
y: 321.0755615234375
z: -0.24919836223125458
visibility: 0.8918874859809875
","x: 275.0967712402344
y: 286.2799072265625
z: -0.26055708527565
visibility: 0.7268147468566895
","x: 186.68362426757812
y: 316.65399169921875
z: -0.19699740409851074
visibility: 0.8718854188919067
","x: 273.2421875
y: 355.20001220703125
z: 0.07387028634548187
visibility: 0.9996109008789062
","x: 248.83837890625
y: 352.2366638183594
z: -0.0739317387342453
visibility: 0.9996705055236816
","x: 298.82208251953125
y: 427.91217041015625
z: 0.024693503975868225
visibility: 0.9952109456062317
","x: 227.28672790527344
y: 435.6628112792969
z: -0.0917152538895607
visibility: 0.9967972636222839
","x: 285.3755798339844
y: 501.3023376464844
z: 0.28438693284988403
visibility: 0.9949798583984375
","x: 202.3839874267578
y: 515.0526123046875
z: 0.06722502410411835
visibility: 0.9958674311637878
","x: 277.66046142578125
y: 515.7677001953125
z: 0.30396345257759094
visibility: 0.9192211031913757
","x: 197.5286407470703
y: 523.0340576171875
z: 0.07652987539768219
visibility: 0.9003695845603943
","x: 306.4404602050781
y: 522.2175903320312
z: 0.23480470478534698
visibility: 0.9907628297805786
","x: 209.8824920654297
y: 551.2186279296875
z: -0.04572711139917374
visibility: 0.9912614822387695
","x: 190.275390625
y: 319.0992431640625
z: 0.0
","x: 186.5521697998047
y: 316.59857177734375
z: -0.0027814600616693497
","x: 182.19541931152344
y: 315.71038818359375
z: -0.0053644743748009205
","x: 179.43870544433594
y: 315.7784423828125
z: -0.008769867941737175
","x: 177.6284637451172
y: 316.6499328613281
z: -0.011466719210147858
","x: 175.97662353515625
y: 324.04498291015625
z: -0.0024019188713282347
","x: 172.00938415527344
y: 329.1004638671875
z: -0.007913583889603615
","x: 174.94656372070312
y: 327.427490234375
z: -0.010049163363873959
","x: 177.77899169921875
y: 324.5364685058594
z: -0.010509616695344448
","x: 177.62228393554688
y: 328.52410888671875
z: -0.004049601033329964
","x: 174.41354370117188
y: 334.1993408203125
z: -0.0097915418446064
","x: 178.2275390625
y: 331.341552734375
z: -0.010390819981694221
","x: 181.192138671875
y: 327.8489685058594
z: -0.009331801906228065
","x: 179.97613525390625
y: 332.0116882324219
z: -0.0066545940935611725
","x: 177.90724182128906
y: 337.2451477050781
z: -0.011762743815779686
","x: 181.1907958984375
y: 333.70263671875
z: -0.0105208121240139
","x: 183.4553680419922
y: 329.8913879394531
z: -0.008355981670320034
","x: 182.93959045410156
y: 334.5767822265625
z: -0.009868747554719448
","x: 181.4123077392578
y: 338.717041015625
z: -0.012910343706607819
","x: 183.6019744873047
y: 335.7287292480469
z: -0.011911791749298573
","x: 185.22610473632812
y: 332.0660400390625
z: -0.010111382231116295
",,,,,,,,,,,,,,,,,,,,,
21,"x: 289.9866943359375
y: 189.96702575683594
z: -0.18868108093738556
visibility: 0.9996941089630127
","x: 288.6703186035156
y: 180.8989715576172
z: -0.16872230172157288
visibility: 0.9991337656974792
","x: 288.5660705566406
y: 180.187744140625
z: -0.16882160305976868
visibility: 0.9991730451583862
","x: 288.362548828125
y: 179.32122802734375
z: -0.16885866224765778
visibility: 0.9990840554237366
","x: 287.15399169921875
y: 181.31085205078125
z: -0.19479796290397644
visibility: 0.999268114566803
","x: 286.01416015625
y: 180.99734497070312
z: -0.19485479593276978
visibility: 0.9993588924407959
","x: 284.74273681640625
y: 180.56362915039062
z: -0.19493503868579865
visibility: 0.999359667301178
","x: 283.9960632324219
y: 178.98489379882812
z: -0.06209530681371689
visibility: 0.9984865784645081
","x: 278.5902099609375
y: 181.12953186035156
z: -0.17445555329322815
visibility: 0.9992548823356628
","x: 288.5390930175781
y: 195.6198272705078
z: -0.14739149808883667
visibility: 0.9996307492256165
","x: 286.4900817871094
y: 196.03762817382812
z: -0.18109415471553802
visibility: 0.9997323751449585
","x: 295.33453369140625
y: 220.81773376464844
z: 0.007026179227977991
visibility: 0.9999139308929443
","x: 250.85472106933594
y: 235.2713623046875
z: -0.16126111149787903
visibility: 0.9999170899391174
","x: 308.552001953125
y: 276.50384521484375
z: 0.061311494559049606
visibility: 0.921748161315918
","x: 230.75062561035156
y: 293.2412109375
z: -0.16835589706897736
visibility: 0.9749504327774048
","x: 295.8529357910156
y: 314.54144287109375
z: -0.041774071753025055
visibility: 0.8736122250556946
","x: 203.977294921875
y: 325.99749755859375
z: -0.22365739941596985
visibility: 0.933343231678009
","x: 293.5809326171875
y: 329.0422058105469
z: -0.0687885731458664
visibility: 0.7777090668678284
","x: 194.30844116210938
y: 333.92974853515625
z: -0.2547566294670105
visibility: 0.892913818359375
","x: 290.3428039550781
y: 324.2570495605469
z: -0.09519366919994354
visibility: 0.7783059477806091
","x: 193.08677673339844
y: 330.6061096191406
z: -0.2891799509525299
visibility: 0.9014789462089539
","x: 290.45269775390625
y: 318.85888671875
z: -0.056138116866350174
visibility: 0.7425806522369385
","x: 197.23919677734375
y: 329.02911376953125
z: -0.23949101567268372
visibility: 0.882856011390686
","x: 280.9844665527344
y: 360.3367614746094
z: 0.06043155863881111
visibility: 0.9996150135993958
","x: 256.3223571777344
y: 357.92724609375
z: -0.06040138006210327
visibility: 0.9996399879455566
","x: 304.1212463378906
y: 430.8044738769531
z: -0.0506809838116169
visibility: 0.9950868487358093
","x: 234.40884399414062
y: 436.0955505371094
z: -0.05946491286158562
visibility: 0.9963490962982178
","x: 285.8897705078125
y: 502.73822021484375
z: 0.13814076781272888
visibility: 0.9941720962524414
","x: 218.0438232421875
y: 513.4995727539062
z: 0.14594806730747223
visibility: 0.9956530928611755
","x: 277.7650146484375
y: 515.6636352539062
z: 0.1525261253118515
visibility: 0.9247000217437744
","x: 218.5711212158203
y: 522.7582397460938
z: 0.1590418815612793
visibility: 0.8994574546813965
","x: 305.5909118652344
y: 523.1751098632812
z: 0.07034187018871307
visibility: 0.9903018474578857
","x: 213.23231506347656
y: 546.28564453125
z: 0.046751461923122406
visibility: 0.9905588030815125
",,,,,,,,,,,,,,,,,,,,,,,,,,,,,,,,,,,,,,,,,,
22,"x: 288.9223327636719
y: 194.36358642578125
z: -0.2124328315258026
visibility: 0.9997186064720154
","x: 287.94732666015625
y: 184.80177307128906
z: -0.1954938918352127
visibility: 0.9991982579231262
","x: 287.87188720703125
y: 184.0792999267578
z: -0.19560417532920837
visibility: 0.9992321729660034
","x: 287.73077392578125
y: 183.22216796875
z: -0.1956087201833725
visibility: 0.9991509318351746
","x: 286.35986328125
y: 184.6713104248047
z: -0.21840138733386993
visibility: 0.999326765537262
","x: 285.11798095703125
y: 183.93743896484375
z: -0.21845336258411407
visibility: 0.9994068741798401
","x: 283.7447204589844
y: 183.04196166992188
z: -0.2184055745601654
visibility: 0.9994025826454163
","x: 283.20172119140625
y: 181.91384887695312
z: -0.08856707066297531
visibility: 0.9985957145690918
","x: 276.9820556640625
y: 182.09617614746094
z: -0.23280170559883118
visibility: 0.9993034601211548
","x: 287.26458740234375
y: 199.62042236328125
z: -0.17192676663398743
visibility: 0.9996561408042908
","x: 285.1073913574219
y: 199.6267547607422
z: -0.20701229572296143
visibility: 0.9997501969337463
","x: 292.35162353515625
y: 221.9969024658203
z: -0.006320330314338207
visibility: 0.9999202489852905
","x: 249.05508422851562
y: 235.16659545898438
z: -0.21509519219398499
visibility: 0.9999226331710815
","x: 300.6660461425781
y: 286.3138427734375
z: 0.06671018898487091
visibility: 0.9243929386138916
","x: 240.97283935546875
y: 301.245361328125
z: -0.2151535451412201
visibility: 0.9771216511726379
","x: 305.52178955078125
y: 340.9138488769531
z: -0.038710884749889374
visibility: 0.8837316632270813
","x: 228.84352111816406
y: 357.0419921875
z: -0.2572654187679291
visibility: 0.9395623803138733
","x: 307.1237487792969
y: 359.2211608886719
z: -0.06378763914108276
visibility: 0.7946499586105347
","x: 221.7229461669922
y: 375.14337158203125
z: -0.2894899547100067
visibility: 0.9026103615760803
","x: 305.0055236816406
y: 359.06329345703125
z: -0.10279278457164764
visibility: 0.7959027886390686
","x: 223.58079528808594
y: 377.2470397949219
z: -0.3171582818031311
visibility: 0.9103451371192932
","x: 303.70428466796875
y: 353.83587646484375
z: -0.05822870880365372
visibility: 0.7629027962684631
","x: 226.55636596679688
y: 371.36846923828125
z: -0.2685334384441376
visibility: 0.8928768634796143
","x: 284.62872314453125
y: 358.2952575683594
z: 0.06167422980070114
visibility: 0.9996428489685059
","x: 260.5790100097656
y: 358.2664794921875
z: -0.061532873660326004
visibility: 0.9996598362922668
","x: 307.79779052734375
y: 431.82562255859375
