uscmakers/ReverseChoreography/data/2_get_up_shinedown.csv
,NOSE,LEFT_EYE_INNER,LEFT_EYE,LEFT_EYE_OUTER,RIGHT_EYE_INNER,RIGHT_EYE,RIGHT_EYE_OUTER,LEFT_EAR,RIGHT_EAR,MOUTH_LEFT,MOUTH_RIGHT,LEFT_SHOULDER,RIGHT_SHOULDER,LEFT_ELBOW,RIGHT_ELBOW,LEFT_WRIST,RIGHT_WRIST,LEFT_PINKY,RIGHT_PINKY,LEFT_INDEX,RIGHT_INDEX,LEFT_THUMB,RIGHT_THUMB,LEFT_HIP,RIGHT_HIP,LEFT_KNEE,RIGHT_KNEE,LEFT_ANKLE,RIGHT_ANKLE,LEFT_HEEL,RIGHT_HEEL,LEFT_FOOT_INDEX,RIGHT_FOOT_INDEX,WRIST,THUMB_CPC,THUMB_MCP,THUMB_IP,THUMB_TIP,INDEX_FINGER_MCP,INDEX_FINGER_PIP,INDEX_FINGER_DIP,INDEX_FINGER_TIP,MIDDLE_FINGER_MCP,MIDDLE_FINGER_PIP,MIDDLE_FINGER_DIP,MIDDLE_FINGER_TIP,RING_FINGER_PIP,RING_FINGER_DIP,RING_FINGER_TIP,RING_FINGER_MCP,PINKY_MCP,PINKY_PIP,PINKY_DIP,PINKY_TIP,WRIST2,THUMB_CPC2,THUMB_MCP2,THUMB_IP2,THUMB_TIP2,INDEX_FINGER_MCP2,INDEX_FINGER_PIP2,INDEX_FINGER_DIP2,INDEX_FINGER_TIP2,MIDDLE_FINGER_MCP2,MIDDLE_FINGER_PIP2,MIDDLE_FINGER_DIP2,MIDDLE_FINGER_TIP2,RING_FINGER_PIP2,RING_FINGER_DIP2,RING_FINGER_TIP2,RING_FINGER_MCP2,PINKY_MCP2,PINKY_PIP2,PINKY_DIP2,PINKY_TIP2
0,"x: 203.77171325683594
y: 193.92437744140625
z: -0.28860968351364136
visibility: 0.9999731779098511
","x: 204.68190002441406
y: 184.70477294921875
z: -0.27822819352149963
visibility: 0.999884843826294
","x: 205.63851928710938
y: 184.7900390625
z: -0.27830228209495544
visibility: 0.9999065399169922
","x: 206.71031188964844
y: 184.89794921875
z: -0.2783256769180298
visibility: 0.9999097585678101
","x: 201.1520233154297
y: 183.8404998779297
z: -0.2739793658256531
visibility: 0.9998220801353455
","x: 199.37411499023438
y: 183.47891235351562
z: -0.27398034930229187
visibility: 0.9997733235359192
","x: 197.4088897705078
y: 183.18936157226562
z: -0.27393418550491333
visibility: 0.9997504353523254
","x: 205.80926513671875
y: 185.99111938476562
z: -0.18368615210056305
visibility: 0.9999374151229858
","x: 191.5148162841797
y: 185.25149536132812
z: -0.1612778902053833
visibility: 0.999471127986908
","x: 204.3818359375
y: 201.58546447753906
z: -0.24929681420326233
visibility: 0.9999403953552246
","x: 199.98507690429688
y: 201.08343505859375
z: -0.24307987093925476
visibility: 0.9998563528060913
","x: 219.0044708251953
y: 229.16542053222656
z: -0.18281234800815582
visibility: 0.9999977350234985
","x: 175.31982421875
y: 230.78036499023438
z: -0.0060545592568814754
visibility: 0.9997825026512146
","x: 228.9841766357422
y: 293.78375244140625
z: -0.20258644223213196
visibility: 0.9989198446273804
","x: 154.46388244628906
y: 276.3391418457031
z: 0.06764177232980728
visibility: 0.9181472063064575
","x: 223.18167114257812
y: 358.3340759277344
z: -0.316083163022995
visibility: 0.997246265411377
","x: 121.81243133544922
y: 279.75091552734375
z: -0.03126516565680504
visibility: 0.9708531498908997
","x: 225.7464141845703
y: 377.8802490234375
z: -0.3524148762226105
visibility: 0.991804838180542
","x: 113.64086151123047
y: 281.8734436035156
z: -0.051129937171936035
visibility: 0.9482897520065308
","x: 220.13888549804688
y: 376.43438720703125
z: -0.37680724263191223
visibility: 0.9922863245010376
","x: 113.1990966796875
y: 279.3209533691406
z: -0.09551297128200531
visibility: 0.9579262137413025
","x: 218.1415557861328
y: 371.5050048828125
z: -0.32727763056755066
visibility: 0.9894328713417053
","x: 115.99198913574219
y: 279.4068603515625
z: -0.054178886115550995
visibility: 0.9573739171028137
","x: 204.29583740234375
y: 366.8706970214844
z: -0.0751110166311264
visibility: 0.9998786449432373
","x: 181.3981170654297
y: 361.57220458984375
z: 0.07500514388084412
visibility: 0.9999436140060425
","x: 204.97142028808594
y: 453.0132751464844
z: -0.04015890508890152
visibility: 0.9980998635292053
","x: 157.1563720703125
y: 425.5867004394531
z: -0.03644900396466255
visibility: 0.9945532083511353
","x: 227.59703063964844
y: 511.0649108886719
z: 0.19571968913078308
visibility: 0.9975154399871826
","x: 165.26376342773438
y: 503.1875915527344
z: 0.15066109597682953
visibility: 0.9966568946838379
","x: 234.0876007080078
y: 517.832763671875
z: 0.2133982926607132
visibility: 0.9219068884849548
","x: 172.11419677734375
y: 517.8974609375
z: 0.16322800517082214
visibility: 0.9828093647956848
","x: 218.82444763183594
y: 542.320068359375
z: 0.10656829923391342
visibility: 0.9949654936790466
","x: 142.6169891357422
y: 527.068115234375
z: 0.07219931483268738
visibility: 0.994583785533905
",,,,,,,,,,,,,,,,,,,,,,,,,,,,,,,,,,,,,,,,,,
1,"x: 232.7037811279297
y: 193.98187255859375
z: -0.21176490187644958
visibility: 0.9999674558639526
","x: 232.76104736328125
y: 184.7488250732422
z: -0.1936592310667038
visibility: 0.9998778700828552
","x: 233.17547607421875
y: 184.8081817626953
z: -0.19377219676971436
visibility: 0.9998999834060669
","x: 233.5608367919922
y: 184.89846801757812
z: -0.19386398792266846
visibility: 0.9998995661735535
","x: 230.28753662109375
y: 183.89955139160156
z: -0.19768963754177094
visibility: 0.9998164772987366
","x: 228.91212463378906
y: 183.49427795410156
z: -0.1977446973323822
visibility: 0.9997737407684326
","x: 227.4044952392578
y: 183.1776123046875
z: -0.19769014418125153
visibility: 0.9997503757476807
","x: 228.91079711914062
y: 185.94277954101562
z: -0.07794947922229767
visibility: 0.9999284744262695
","x: 220.6534423828125
y: 184.529052734375
z: -0.09406794607639313
visibility: 0.9994927048683167
","x: 231.38938903808594
y: 201.64508056640625
z: -0.16570262610912323
visibility: 0.9999414086341858
","x: 228.52816772460938
y: 201.11785888671875
z: -0.17092271149158478
visibility: 0.9998632669448853
","x: 240.11260986328125
y: 229.2219696044922
z: -0.07907678186893463
visibility: 0.9999974966049194
","x: 193.60598754882812
y: 227.80699157714844
z: 0.043638136237859726
visibility: 0.9997967481613159
","x: 257.3187255859375
y: 280.055908203125
z: -0.1275639832019806
visibility: 0.9985806345939636
","x: 178.90499877929688
y: 278.197998046875
z: 0.06013784930109978
visibility: 0.9184150099754333
","x: 257.6055908203125
y: 315.49871826171875
z: -0.2982187569141388
visibility: 0.9942730665206909
","x: 161.30294799804688
y: 301.9812316894531
z: -0.10170330852270126
visibility: 0.9701378345489502
","x: 257.7000732421875
y: 325.16522216796875
z: -0.3466861844062805
visibility: 0.9872811436653137
","x: 153.64247131347656
y: 307.45703125
z: -0.13298436999320984
visibility: 0.9486338496208191
","x: 254.25103759765625
y: 322.4931640625
z: -0.3601686358451843
visibility: 0.9882445335388184
","x: 152.5477752685547
y: 305.2713623046875
z: -0.17193296551704407
visibility: 0.9581606388092041
","x: 253.27456665039062
y: 319.6630554199219
z: -0.30730894207954407
visibility: 0.9849098324775696
","x: 155.5048828125
y: 304.50555419921875
z: -0.1222931295633316
visibility: 0.9569373726844788
","x: 228.58349609375
y: 358.2908630371094
z: -0.07594271004199982
visibility: 0.9998767375946045
","x: 208.0077362060547
y: 359.1839904785156
z: 0.07600199431180954
visibility: 0.9999043941497803
","x: 215.29647827148438
y: 441.4644775390625
z: -0.16951234638690948
visibility: 0.9982079863548279
","x: 224.90354919433594
y: 439.736328125
z: 0.10926260054111481
visibility: 0.9887313842773438
","x: 228.5856170654297
y: 510.7426452636719
z: -0.038325678557157516
visibility: 0.9976624250411987
","x: 259.2961730957031
y: 499.22052001953125
z: 0.28422731161117554
visibility: 0.9957233667373657
","x: 233.8768768310547
y: 518.4019165039062
z: -0.027363356202840805
visibility: 0.929222822189331
","x: 269.15264892578125
y: 500.91754150390625
z: 0.2980313301086426
visibility: 0.9835430979728699
","x: 219.8444061279297
y: 539.9656982421875
z: -0.10860513150691986
visibility: 0.9949347376823425
","x: 260.35565185546875
y: 530.7506103515625
z: 0.23068711161613464
visibility: 0.9922962784767151
",,,,,,,,,,,,,,,,,,,,,,,,,,,,,,,,,,,,,,,,,,
2,"x: 231.57859802246094
y: 192.0797882080078
z: -0.34672290086746216
visibility: 0.9999685883522034
","x: 233.35826110839844
y: 183.02029418945312
z: -0.3294496238231659
visibility: 0.9998860359191895
","x: 234.34567260742188
y: 183.1727752685547
z: -0.3295094966888428
visibility: 0.999905526638031
","x: 235.3370361328125
y: 183.33148193359375
z: -0.3295953869819641
visibility: 0.9999057054519653
","x: 229.64747619628906
y: 181.63351440429688
z: -0.33231061697006226
visibility: 0.9998284578323364
","x: 227.87216186523438
y: 180.89804077148438
z: -0.33235442638397217
visibility: 0.9997881650924683
","x: 225.97821044921875
y: 180.1233673095703
z: -0.33234184980392456
visibility: 0.9997681975364685
","x: 233.98074340820312
y: 183.7897491455078
z: -0.19508036971092224
visibility: 0.9999305605888367
","x: 220.0242919921875
y: 180.16893005371094
z: -0.20699679851531982
visibility: 0.999538004398346
","x: 231.63011169433594
y: 199.73191833496094
z: -0.29428011178970337
visibility: 0.9999464750289917
","x: 226.6101837158203
y: 198.9698028564453
z: -0.2972138524055481
visibility: 0.9998752474784851
","x: 246.80039978027344
y: 225.1829833984375
z: -0.09470681846141815
visibility: 0.9999973177909851
","x: 196.06300354003906
y: 222.23289489746094
z: -0.08018214255571365
visibility: 0.9998106956481934
","x: 270.86627197265625
y: 253.80474853515625
z: -0.3367886543273926
visibility: 0.9981535077095032
","x: 172.2791748046875
y: 261.7501525878906
z: -0.0857183039188385
visibility: 0.9260925054550171
","x: 272.4969177246094
y: 261.29541015625
z: -0.6486752033233643
visibility: 0.9924687147140503
","x: 145.4696502685547
y: 300.8175048828125
z: -0.22160795331001282
visibility: 0.97181236743927
","x: 273.40704345703125
y: 264.24456787109375
z: -0.707535445690155
visibility: 0.9844072461128235
","x: 136.6721954345703
y: 301.3436584472656
z: -0.25008219480514526
visibility: 0.9506210088729858
","x: 268.96246337890625
y: 259.34173583984375
z: -0.7116754055023193
visibility: 0.9854142665863037
","x: 136.40994262695312
y: 297.65130615234375
z: -0.28798454999923706
visibility: 0.9596182703971863
","x: 267.6385803222656
y: 259.4637451171875
z: -0.6582627892494202
visibility: 0.9812619090080261
","x: 139.65328979492188
y: 297.28338623046875
z: -0.2413874864578247
visibility: 0.958268404006958
","x: 234.56649780273438
y: 350.194580078125
z: -0.05153241008520126
visibility: 0.9998849630355835
","x: 209.65292358398438
y: 349.93853759765625
z: 0.05161469057202339
visibility: 0.9998840093612671
","x: 223.112060546875
y: 435.9647216796875
z: -0.16433563828468323
visibility: 0.9979202151298523
","x: 195.92491149902344
y: 433.7153625488281
z: 0.03225218132138252
visibility: 0.987823486328125
","x: 228.62026977539062
y: 511.1231994628906
z: 0.005267609842121601
visibility: 0.9974165558815002
","x: 223.22906494140625
y: 448.2620544433594
z: 0.36589518189430237
visibility: 0.9799236059188843
","x: 233.81968688964844
y: 521.4954223632812
z: 0.017308702692389488
visibility: 0.9283164739608765
","x: 230.01792907714844
y: 439.1759948730469
z: 0.39987969398498535
visibility: 0.964853823184967
","x: 219.9878692626953
y: 539.8145751953125
z: -0.11054376512765884
visibility: 0.994497537612915
","x: 226.30499267578125
y: 485.1203918457031
z: 0.3538053333759308
visibility: 0.97907954454422
",,,,,,,,,,,,,,,,,,,,,,,,,,,,,,,,,,,,,,,,,,
3,"x: 226.65382385253906
y: 190.5134735107422
z: -0.5107454061508179
visibility: 0.9999707341194153
","x: 229.4446258544922
y: 181.52540588378906
z: -0.5025049448013306
visibility: 0.9998944401741028
","x: 231.04026794433594
y: 181.54420471191406
z: -0.5024453997612
visibility: 0.999911904335022
","x: 232.5861358642578
y: 181.57000732421875
z: -0.5025069117546082
visibility: 0.9999123811721802
","x: 224.99366760253906
y: 180.37649536132812
z: -0.49716171622276306
visibility: 0.9998413920402527
","x: 223.3893280029297
y: 179.62425231933594
z: -0.4972531795501709
visibility: 0.9998047947883606
","x: 221.69395446777344
y: 178.7633056640625
z: -0.4972561299800873
visibility: 0.9997872114181519
","x: 234.5623779296875
y: 182.1087646484375
z: -0.3925740122795105
visibility: 0.9999334216117859
","x: 218.25123596191406
y: 178.08163452148438
z: -0.36491382122039795
visibility: 0.9995797276496887
","x: 227.8999786376953
y: 198.8300323486328
z: -0.4647008776664734
visibility: 0.9999511241912842
","x: 222.9632110595703
y: 197.82264709472656
z: -0.4568648934364319
visibility: 0.9998862743377686
","x: 251.06869506835938
y: 218.84524536132812
z: -0.30448833107948303
visibility: 0.999997079372406
","x: 199.01438903808594
y: 217.76904296875
z: -0.2258485108613968
visibility: 0.99982750415802
","x: 285.5152587890625
y: 244.8236083984375
z: -0.49245214462280273
visibility: 0.9983011484146118
","x: 171.50607299804688
y: 246.4924774169922
z: -0.2076738327741623
visibility: 0.9331734776496887
","x: 280.6287536621094
y: 215.7569580078125
z: -0.7365566492080688
visibility: 0.9928716421127319
","x: 142.78404235839844
y: 271.39935302734375
z: -0.3001452088356018
visibility: 0.9737672209739685
","x: 278.9436950683594
y: 204.24058532714844
z: -0.7866276502609253
visibility: 0.9844405651092529
","x: 133.08200073242188
y: 276.8796081542969
z: -0.31861257553100586
visibility: 0.952308177947998
","x: 274.7581787109375
y: 201.8893280029297
z: -0.7711153030395508
visibility: 0.9852789044380188
","x: 133.1953887939453
y: 276.85296630859375
z: -0.3556690216064453
visibility: 0.9607552289962769
","x: 273.9540710449219
y: 206.0014190673828
z: -0.7368891835212708
visibility: 0.9809954762458801
","x: 136.74473571777344
y: 276.3412170410156
z: -0.3186890482902527
visibility: 0.9596129655838013
","x: 236.78897094726562
y: 342.0078125
z: -0.046258408576250076
visibility: 0.9998869895935059
","x: 211.40216064453125
y: 335.7405090332031
z: 0.046134546399116516
visibility: 0.9998613595962524
","x: 223.85658264160156
y: 430.8392639160156
z: -0.05963769555091858
visibility: 0.9974508285522461
","x: 195.3546905517578
y: 412.7502746582031
z: 0.12886859476566315
visibility: 0.9849454760551453
","x: 229.3785400390625
y: 511.1745910644531
z: 0.08211363852024078
visibility: 0.9971188902854919
","x: 198.27626037597656
y: 463.82080078125
z: 0.40993064641952515
visibility: 0.9786440134048462
","x: 233.99258422851562
y: 522.173095703125
z: 0.05522981286048889
visibility: 0.9106529951095581
","x: 194.6289825439453
y: 469.4729309082031
z: 0.433084636926651
visibility: 0.9557756185531616
","x: 219.94015502929688
y: 539.8801879882812
z: -0.01977427676320076
visibility: 0.9936302304267883
","x: 205.61334228515625
y: 499.29925537109375
z: 0.33083873987197876
visibility: 0.9787260293960571
","x: 139.31126403808594
y: 268.31298828125
z: 0.0
","x: 134.9741973876953
y: 265.2695007324219
z: -0.0017767763929441571
","x: 130.3011474609375
y: 264.7780456542969
z: -0.002889294410124421
","x: 126.74562072753906
y: 267.1900329589844
z: -0.004709348548203707
","x: 124.38395690917969
y: 269.93585205078125
z: -0.005729107651859522
","x: 125.01509857177734
y: 268.3970031738281
z: 0.0020053123589605093
","x: 121.1065444946289
y: 273.71832275390625
z: -0.0010804710909724236
","x: 123.02764892578125
y: 275.5174560546875
z: -0.0023790523409843445
","x: 125.35662078857422
y: 275.28912353515625
z: -0.0025508760008960962
","x: 125.72113037109375
y: 273.1015930175781
z: 0.0008279116009362042
","x: 121.94294738769531
y: 277.95550537109375
z: -0.00225687213242054
","x: 124.54621124267578
y: 278.9168701171875
z: -0.0031409920193254948
","x: 127.22624206542969
y: 277.76654052734375
z: -0.0027182071935385466
","x: 127.1202392578125
y: 277.27734375
z: -0.0012488955399021506
","x: 123.8581771850586
y: 282.4472351074219
z: -0.004018499981611967
","x: 125.98265838623047
y: 282.4438781738281
z: -0.0036641962360590696
","x: 128.27383422851562
y: 280.4596252441406
z: -0.0025139034260064363
","x: 129.201171875
y: 280.9747619628906
z: -0.0038626212626695633
","x: 126.52692413330078
y: 285.6173400878906
z: -0.00537513941526413
","x: 127.48445129394531
y: 285.4922790527344
z: -0.004857745952904224
","x: 128.84364318847656
y: 283.443603515625
z: -0.003746687900274992
","x: 278.9996337890625
y: 215.76995849609375
z: 0.0
","x: 274.0064392089844
y: 211.82086181640625
z: -0.0013787377392873168
","x: 269.8904113769531
y: 205.3875732421875
z: -0.0028918092139065266
","x: 268.2782287597656
y: 199.20526123046875
z: -0.005357187706977129
","x: 269.21502685546875
y: 194.58656311035156
z: -0.0068888296373188496
","x: 272.6204833984375
y: 194.01779174804688
z: 0.0009716186905279756
","x: 271.14617919921875
y: 186.718505859375
z: -0.003353315405547619
","x: 270.9317626953125
y: 192.69171142578125
z: -0.004361538216471672
","x: 271.5891418457031
y: 197.05076599121094
z: -0.0042026229202747345
","x: 275.4847106933594
y: 193.65150451660156
z: -0.0009017580305226147
","x: 274.1147155761719
y: 188.4292755126953
z: -0.005611400585621595
","x: 273.9456787109375
y: 196.13748168945312
z: -0.005353004205971956
","x: 274.6211853027344
y: 199.05357360839844
z: -0.003765834029763937
","x: 278.49566650390625
y: 194.18521118164062
z: -0.003741977969184518
","x: 276.9600524902344
y: 189.79031372070312
z: -0.00822879932820797
","x: 276.643310546875
y: 197.09317016601562
z: -0.006286608055233955
","x: 277.31536865234375
y: 199.99464416503906
z: -0.0036112023517489433
","x: 281.836181640625
y: 195.3997802734375
z: -0.007054417859762907
","x: 280.2591247558594
y: 190.9674835205078
z: -0.008992988616228104
","x: 279.6395263671875
y: 196.02952575683594
z: -0.007249366957694292
","x: 279.99725341796875
y: 198.92701721191406
z: -0.005018323194235563
"
4,"x: 226.65382385253906
y: 190.5134735107422
z: -0.5107454061508179
visibility: 0.9999707341194153
","x: 229.4446258544922
y: 181.52540588378906
z: -0.5025049448013306
visibility: 0.9998944401741028
","x: 231.04026794433594
y: 181.54420471191406
z: -0.5024453997612
visibility: 0.999911904335022
","x: 232.5861358642578
y: 181.57000732421875
z: -0.5025069117546082
visibility: 0.9999123811721802
","x: 224.99366760253906
y: 180.37649536132812
z: -0.49716171622276306
visibility: 0.9998413920402527
","x: 223.3893280029297
y: 179.62425231933594
z: -0.4972531795501709
visibility: 0.9998047947883606
","x: 221.69395446777344
y: 178.7633056640625
z: -0.4972561299800873
visibility: 0.9997872114181519
","x: 234.5623779296875
y: 182.1087646484375
z: -0.3925740122795105
visibility: 0.9999334216117859
","x: 218.25123596191406
y: 178.08163452148438
z: -0.36491382122039795
visibility: 0.9995797276496887
","x: 227.8999786376953
y: 198.8300323486328
z: -0.4647008776664734
visibility: 0.9999511241912842
","x: 222.9632110595703
y: 197.82264709472656
z: -0.4568648934364319
visibility: 0.9998862743377686
","x: 251.06869506835938
y: 218.84524536132812
z: -0.30448833107948303
visibility: 0.999997079372406
","x: 199.01438903808594
y: 217.76904296875
z: -0.2258485108613968
visibility: 0.99982750415802
","x: 285.5152587890625
y: 244.8236083984375
z: -0.49245214462280273
visibility: 0.9983011484146118
","x: 171.50607299804688
y: 246.4924774169922
z: -0.2076738327741623
visibility: 0.9331734776496887
","x: 280.6287536621094
y: 215.7569580078125
z: -0.7365566492080688
visibility: 0.9928716421127319
","x: 142.78404235839844
y: 271.39935302734375
z: -0.3001452088356018
visibility: 0.9737672209739685
","x: 278.9436950683594
y: 204.24058532714844
z: -0.7866276502609253
visibility: 0.9844405651092529
","x: 133.08200073242188
y: 276.8796081542969
z: -0.31861257553100586
visibility: 0.952308177947998
","x: 274.7581787109375
y: 201.8893280029297
z: -0.7711153030395508
visibility: 0.9852789044380188
","x: 133.1953887939453
y: 276.85296630859375
z: -0.3556690216064453
visibility: 0.9607552289962769
","x: 273.9540710449219
y: 206.0014190673828
z: -0.7368891835212708
visibility: 0.9809954762458801
","x: 136.74473571777344
y: 276.3412170410156
z: -0.3186890482902527
visibility: 0.9596129655838013
","x: 236.78897094726562
y: 342.0078125
z: -0.046258408576250076
visibility: 0.9998869895935059
","x: 211.40216064453125
y: 335.7405090332031
z: 0.046134546399116516
visibility: 0.9998613595962524
","x: 223.85658264160156
y: 430.8392639160156
z: -0.05963769555091858
visibility: 0.9974508285522461
","x: 195.3546905517578
y: 412.7502746582031
z: 0.12886859476566315
visibility: 0.9849454760551453
","x: 229.3785400390625
y: 511.1745910644531
z: 0.08211363852024078
visibility: 0.9971188902854919
","x: 198.27626037597656
y: 463.82080078125
z: 0.40993064641952515
visibility: 0.9786440134048462
","x: 233.99258422851562
y: 522.173095703125
z: 0.05522981286048889
visibility: 0.9106529951095581
","x: 194.6289825439453
y: 469.4729309082031
z: 0.433084636926651
visibility: 0.9557756185531616
","x: 219.94015502929688
y: 539.8801879882812
z: -0.01977427676320076
visibility: 0.9936302304267883
","x: 205.61334228515625
y: 499.29925537109375
z: 0.33083873987197876
visibility: 0.9787260293960571
","x: 139.31126403808594
y: 268.31298828125
z: 0.0
","x: 134.9741973876953
y: 265.2695007324219
z: -0.0017767763929441571
","x: 130.3011474609375
y: 264.7780456542969
z: -0.002889294410124421
","x: 126.74562072753906
y: 267.1900329589844
z: -0.004709348548203707
","x: 124.38395690917969
y: 269.93585205078125
z: -0.005729107651859522
","x: 125.01509857177734
y: 268.3970031738281
z: 0.0020053123589605093
","x: 121.1065444946289
y: 273.71832275390625
z: -0.0010804710909724236
","x: 123.02764892578125
y: 275.5174560546875
z: -0.0023790523409843445
","x: 125.35662078857422
y: 275.28912353515625
z: -0.0025508760008960962
","x: 125.72113037109375
y: 273.1015930175781
z: 0.0008279116009362042
","x: 121.94294738769531
y: 277.95550537109375
z: -0.00225687213242054
","x: 124.54621124267578
y: 278.9168701171875
z: -0.0031409920193254948
","x: 127.22624206542969
y: 277.76654052734375
z: -0.0027182071935385466
","x: 127.1202392578125
y: 277.27734375
z: -0.0012488955399021506
","x: 123.8581771850586
y: 282.4472351074219
z: -0.004018499981611967
","x: 125.98265838623047
y: 282.4438781738281
z: -0.0036641962360590696
","x: 128.27383422851562
y: 280.4596252441406
z: -0.0025139034260064363
","x: 129.201171875
y: 280.9747619628906
z: -0.0038626212626695633
","x: 126.52692413330078
y: 285.6173400878906
z: -0.00537513941526413
","x: 127.48445129394531
y: 285.4922790527344
z: -0.004857745952904224
","x: 128.84364318847656
y: 283.443603515625
z: -0.003746687900274992
","x: 278.9996337890625
y: 215.76995849609375
z: 0.0
","x: 274.0064392089844
y: 211.82086181640625
z: -0.0013787377392873168
","x: 269.8904113769531
y: 205.3875732421875
z: -0.0028918092139065266
","x: 268.2782287597656
y: 199.20526123046875
z: -0.005357187706977129
","x: 269.21502685546875
y: 194.58656311035156
z: -0.0068888296373188496
","x: 272.6204833984375
y: 194.01779174804688
z: 0.0009716186905279756
","x: 271.14617919921875
y: 186.718505859375
z: -0.003353315405547619
","x: 270.9317626953125
y: 192.69171142578125
z: -0.004361538216471672
","x: 271.5891418457031
y: 197.05076599121094
z: -0.0042026229202747345
","x: 275.4847106933594
y: 193.65150451660156
z: -0.0009017580305226147
","x: 274.1147155761719
y: 188.4292755126953
z: -0.005611400585621595
","x: 273.9456787109375
y: 196.13748168945312
z: -0.005353004205971956
","x: 274.6211853027344
y: 199.05357360839844
z: -0.003765834029763937
","x: 278.49566650390625
y: 194.18521118164062
z: -0.003741977969184518
","x: 276.9600524902344
y: 189.79031372070312
z: -0.00822879932820797
","x: 276.643310546875
y: 197.09317016601562
z: -0.006286608055233955
","x: 277.31536865234375
y: 199.99464416503906
z: -0.0036112023517489433
","x: 281.836181640625
y: 195.3997802734375
z: -0.007054417859762907
","x: 280.2591247558594
y: 190.9674835205078
z: -0.008992988616228104
","x: 279.6395263671875
y: 196.02952575683594
z: -0.007249366957694292
","x: 279.99725341796875
y: 198.92701721191406
z: -0.005018323194235563
"
5,"x: 226.65382385253906
y: 190.5134735107422
z: -0.5107454061508179
visibility: 0.9999707341194153
","x: 229.4446258544922
y: 181.52540588378906
z: -0.5025049448013306
visibility: 0.9998944401741028
","x: 231.04026794433594
y: 181.54420471191406
z: -0.5024453997612
visibility: 0.999911904335022
","x: 232.5861358642578
y: 181.57000732421875
z: -0.5025069117546082
visibility: 0.9999123811721802
","x: 224.99366760253906
y: 180.37649536132812
z: -0.49716171622276306
visibility: 0.9998413920402527
","x: 223.3893280029297
y: 179.62425231933594
z: -0.4972531795501709
visibility: 0.9998047947883606
","x: 221.69395446777344
y: 178.7633056640625
z: -0.4972561299800873
visibility: 0.9997872114181519
","x: 234.5623779296875
y: 182.1087646484375
z: -0.3925740122795105
visibility: 0.9999334216117859
","x: 218.25123596191406
y: 178.08163452148438
z: -0.36491382122039795
visibility: 0.9995797276496887
","x: 227.8999786376953
y: 198.8300323486328
z: -0.4647008776664734
visibility: 0.9999511241912842
","x: 222.9632110595703
y: 197.82264709472656
z: -0.4568648934364319
visibility: 0.9998862743377686
","x: 251.06869506835938
y: 218.84524536132812
z: -0.30448833107948303
visibility: 0.999997079372406
","x: 199.01438903808594
y: 217.76904296875
z: -0.2258485108613968
visibility: 0.99982750415802
","x: 285.5152587890625
y: 244.8236083984375
z: -0.49245214462280273
visibility: 0.9983011484146118
","x: 171.50607299804688
y: 246.4924774169922
z: -0.2076738327741623
visibility: 0.9331734776496887
","x: 280.6287536621094
y: 215.7569580078125
z: -0.7365566492080688
visibility: 0.9928716421127319
","x: 142.78404235839844
y: 271.39935302734375
z: -0.3001452088356018
visibility: 0.9737672209739685
","x: 278.9436950683594
y: 204.24058532714844
z: -0.7866276502609253
visibility: 0.9844405651092529
","x: 133.08200073242188
y: 276.8796081542969
z: -0.31861257553100586
visibility: 0.952308177947998
","x: 274.7581787109375
y: 201.8893280029297
z: -0.7711153030395508
visibility: 0.9852789044380188
","x: 133.1953887939453
y: 276.85296630859375
z: -0.3556690216064453
visibility: 0.9607552289962769
","x: 273.9540710449219
y: 206.0014190673828
z: -0.7368891835212708
visibility: 0.9809954762458801
","x: 136.74473571777344
y: 276.3412170410156
z: -0.3186890482902527
visibility: 0.9596129655838013
","x: 236.78897094726562
y: 342.0078125
z: -0.046258408576250076
visibility: 0.9998869895935059
","x: 211.40216064453125
y: 335.7405090332031
z: 0.046134546399116516
visibility: 0.9998613595962524
","x: 223.85658264160156
y: 430.8392639160156
z: -0.05963769555091858
visibility: 0.9974508285522461
","x: 195.3546905517578
y: 412.7502746582031
z: 0.12886859476566315
visibility: 0.9849454760551453
","x: 229.3785400390625
y: 511.1745910644531
z: 0.08211363852024078
visibility: 0.9971188902854919
","x: 198.27626037597656
y: 463.82080078125
z: 0.40993064641952515
visibility: 0.9786440134048462
","x: 233.99258422851562
y: 522.173095703125
z: 0.05522981286048889
visibility: 0.9106529951095581
","x: 194.6289825439453
y: 469.4729309082031
z: 0.433084636926651
visibility: 0.9557756185531616
","x: 219.94015502929688
y: 539.8801879882812
z: -0.01977427676320076
visibility: 0.9936302304267883
","x: 205.61334228515625
y: 499.29925537109375
z: 0.33083873987197876
visibility: 0.9787260293960571
","x: 139.31126403808594
y: 268.31298828125
z: 0.0
","x: 134.9741973876953
y: 265.2695007324219
z: -0.0017767763929441571
","x: 130.3011474609375
y: 264.7780456542969
z: -0.002889294410124421
","x: 126.74562072753906
y: 267.1900329589844
z: -0.004709348548203707
","x: 124.38395690917969
y: 269.93585205078125
z: -0.005729107651859522
","x: 125.01509857177734
y: 268.3970031738281
z: 0.0020053123589605093
","x: 121.1065444946289
y: 273.71832275390625
z: -0.0010804710909724236
","x: 123.02764892578125
y: 275.5174560546875
z: -0.0023790523409843445
","x: 125.35662078857422
y: 275.28912353515625
z: -0.0025508760008960962
","x: 125.72113037109375
y: 273.1015930175781
z: 0.0008279116009362042
","x: 121.94294738769531
y: 277.95550537109375
z: -0.00225687213242054
","x: 124.54621124267578
y: 278.9168701171875
z: -0.0031409920193254948
","x: 127.22624206542969
y: 277.76654052734375
z: -0.0027182071935385466
","x: 127.1202392578125
y: 277.27734375
z: -0.0012488955399021506
","x: 123.8581771850586
y: 282.4472351074219
z: -0.004018499981611967
","x: 125.98265838623047
y: 282.4438781738281
z: -0.0036641962360590696
","x: 128.27383422851562
y: 280.4596252441406
z: -0.0025139034260064363
","x: 129.201171875
y: 280.9747619628906
z: -0.0038626212626695633
","x: 126.52692413330078
y: 285.6173400878906
z: -0.00537513941526413
","x: 127.48445129394531
y: 285.4922790527344
z: -0.004857745952904224
","x: 128.84364318847656
y: 283.443603515625
z: -0.003746687900274992
","x: 278.9996337890625
y: 215.76995849609375
z: 0.0
","x: 274.0064392089844
y: 211.82086181640625
z: -0.0013787377392873168
","x: 269.8904113769531
y: 205.3875732421875
z: -0.0028918092139065266
","x: 268.2782287597656
y: 199.20526123046875
z: -0.005357187706977129
","x: 269.21502685546875
y: 194.58656311035156
z: -0.0068888296373188496
","x: 272.6204833984375
y: 194.01779174804688
z: 0.0009716186905279756
","x: 271.14617919921875
y: 186.718505859375
z: -0.003353315405547619
","x: 270.9317626953125
y: 192.69171142578125
z: -0.004361538216471672
","x: 271.5891418457031
y: 197.05076599121094
z: -0.0042026229202747345
","x: 275.4847106933594
y: 193.65150451660156
z: -0.0009017580305226147
","x: 274.1147155761719
y: 188.4292755126953
z: -0.005611400585621595
","x: 273.9456787109375
y: 196.13748168945312
z: -0.005353004205971956
","x: 274.6211853027344
y: 199.05357360839844
z: -0.003765834029763937
","x: 278.49566650390625
y: 194.18521118164062
z: -0.003741977969184518
","x: 276.9600524902344
y: 189.79031372070312
z: -0.00822879932820797
","x: 276.643310546875
y: 197.09317016601562
z: -0.006286608055233955
","x: 277.31536865234375
y: 199.99464416503906
z: -0.0036112023517489433
","x: 281.836181640625
y: 195.3997802734375
z: -0.007054417859762907
","x: 280.2591247558594
y: 190.9674835205078
z: -0.008992988616228104
","x: 279.6395263671875
y: 196.02952575683594
z: -0.007249366957694292
","x: 279.99725341796875
y: 198.92701721191406
z: -0.005018323194235563
"
6,"x: 224.49356079101562
y: 187.57205200195312
z: -0.5102670788764954
visibility: 0.9999725222587585
","x: 227.66529846191406
y: 178.52517700195312
z: -0.4965210556983948
visibility: 0.9998996257781982
","x: 229.3320770263672
y: 178.2113800048828
z: -0.49648699164390564
visibility: 0.9999166131019592
","x: 230.91896057128906
y: 177.90342712402344
z: -0.4965452253818512
visibility: 0.9999169707298279
","x: 222.65830993652344
y: 178.15423583984375
z: -0.4906883239746094
visibility: 0.9998506307601929
","x: 220.9107666015625
y: 177.57443237304688
z: -0.4907795488834381
visibility: 0.9998176097869873
","x: 219.29452514648438
y: 176.89369201660156
z: -0.490795761346817
visibility: 0.9998003840446472
","x: 234.09877014160156
y: 178.97869873046875
z: -0.3651462495326996
visibility: 0.9999332427978516
","x: 217.11566162109375
y: 177.02279663085938
z: -0.3362022042274475
visibility: 0.9996150732040405
","x: 227.0767364501953
y: 195.86785888671875
z: -0.45796018838882446
visibility: 0.9999542832374573
","x: 221.02308654785156
y: 195.1814422607422
z: -0.44978076219558716
visibility: 0.9998950958251953
","x: 253.85787963867188
y: 213.86434936523438
z: -0.24675261974334717
visibility: 0.9999967813491821
","x: 201.24534606933594
y: 215.60264587402344
z: -0.19893060624599457
visibility: 0.9998420476913452
","x: 292.3876037597656
y: 236.73001098632812
z: -0.41044920682907104
visibility: 0.9984548687934875
","x: 175.49609375
y: 247.30062866210938
z: -0.13332045078277588
visibility: 0.9395546317100525
","x: 281.7356262207031
y: 201.1312713623047
z: -0.6609835624694824
visibility: 0.9934586882591248
","x: 145.05690002441406
y: 270.2567443847656
z: -0.20295453071594238
visibility: 0.9756135940551758
","x: 278.7091979980469
y: 189.20408630371094
z: -0.706606924533844
visibility: 0.9852275252342224
","x: 135.62098693847656
y: 276.33026123046875
z: -0.2201249897480011
visibility: 0.9542293548583984
","x: 274.19439697265625
y: 187.15740966796875
z: -0.697954535484314
visibility: 0.9859696626663208
","x: 135.6842803955078
y: 275.9060974121094
z: -0.25688543915748596
visibility: 0.9622253775596619
","x: 273.6367492675781
y: 191.5147705078125
z: -0.6627296209335327
visibility: 0.981781542301178
","x: 138.75155639648438
y: 275.3707580566406
z: -0.2204001396894455
visibility: 0.9608660340309143
","x: 237.58445739746094
y: 339.6580505371094
z: 0.0027841078117489815
visibility: 0.9998796582221985
","x: 212.2295379638672
y: 332.3101806640625
z: -0.0028965326491743326
visibility: 0.9998574256896973
","x: 225.05764770507812
y: 428.79815673828125
z: 0.022822825238108635
visibility: 0.9949632287025452
","x: 216.1039581298828
y: 415.6221008300781
z: -0.11902961879968643
visibility: 0.9856019020080566
","x: 229.54022216796875
y: 510.90203857421875
z: 0.2554096579551697
visibility: 0.9957808256149292
","x: 191.1544189453125
y: 466.9506530761719
z: 0.05181451514363289
visibility: 0.9800658822059631
","x: 232.99607849121094
y: 522.0219116210938
z: 0.269299179315567
visibility: 0.9010953903198242
","x: 179.38046264648438
y: 479.722900390625
z: 0.06189459562301636
visibility: 0.9480419754981995
","x: 220.12606811523438
y: 537.375244140625
z: 0.11986283212900162
visibility: 0.9916502237319946
","x: 191.09646606445312
y: 525.4738159179688
z: -0.09142542630434036
visibility: 0.9800302386283875
",,,,,,,,,,,,,,,,,,,,,,"x: 279.5137939453125
y: 200.4240264892578
z: 0.0
","x: 273.9785461425781
y: 197.71823120117188
z: -0.001455034944228828
","x: 269.2104187011719
y: 192.21231079101562
z: -0.0035233262460678816
","x: 267.3934020996094
y: 186.33042907714844
z: -0.006618479732424021
","x: 269.00921630859375
y: 181.58306884765625
z: -0.008783867582678795
","x: 270.80316162109375
y: 180.41461181640625
z: -0.00014925445429980755
","x: 268.3568420410156
y: 174.31944274902344
z: -0.005612293723970652
","x: 268.69952392578125
y: 181.07003784179688
z: -0.007228958420455456
","x: 269.7274475097656
y: 184.82589721679688
z: -0.0075291055254638195
","x: 273.763671875
y: 179.30162048339844
z: -0.0026466709095984697
","x: 270.89453125
y: 176.1514129638672
z: -0.008705530315637589
","x: 271.9079895019531
y: 184.05084228515625
z: -0.0086048673838377
","x: 273.2111511230469
y: 185.0379638671875
z: -0.0071142022497951984
","x: 276.88946533203125
y: 179.13858032226562
z: -0.006223241798579693
","x: 274.1052551269531
y: 177.17059326171875
z: -0.011807662434875965
","x: 274.7716979980469
y: 184.56764221191406
z: -0.010035564191639423
","x: 275.89019775390625
y: 185.43392944335938
z: -0.007422060240060091
","x: 280.3270263671875
y: 179.4249725341797
z: -0.010280112735927105
","x: 277.457763671875
y: 178.45855712890625
z: -0.012996313162147999
","x: 277.4472961425781
y: 183.70359802246094
z: -0.01152998860925436
","x: 278.3681945800781
y: 184.77891540527344
z: -0.009514114819467068
"
7,"x: 224.49356079101562
y: 187.57205200195312
z: -0.5102670788764954
visibility: 0.9999725222587585
","x: 227.66529846191406
y: 178.52517700195312
z: -0.4965210556983948
visibility: 0.9998996257781982
","x: 229.3320770263672
y: 178.2113800048828
z: -0.49648699164390564
visibility: 0.9999166131019592
","x: 230.91896057128906
y: 177.90342712402344
z: -0.4965452253818512
visibility: 0.9999169707298279
","x: 222.65830993652344
y: 178.15423583984375
z: -0.4906883239746094
visibility: 0.9998506307601929
","x: 220.9107666015625
y: 177.57443237304688
z: -0.4907795488834381
visibility: 0.9998176097869873
","x: 219.29452514648438
y: 176.89369201660156
z: -0.490795761346817
visibility: 0.9998003840446472
","x: 234.09877014160156
y: 178.97869873046875
z: -0.3651462495326996
visibility: 0.9999332427978516
","x: 217.11566162109375
y: 177.02279663085938
z: -0.3362022042274475
visibility: 0.9996150732040405
","x: 227.0767364501953
y: 195.86785888671875
z: -0.45796018838882446
visibility: 0.9999542832374573
","x: 221.02308654785156
y: 195.1814422607422
z: -0.44978076219558716
visibility: 0.9998950958251953
","x: 253.85787963867188
y: 213.86434936523438
z: -0.24675261974334717
visibility: 0.9999967813491821
","x: 201.24534606933594
y: 215.60264587402344
z: -0.19893060624599457
visibility: 0.9998420476913452
","x: 292.3876037597656
y: 236.73001098632812
z: -0.41044920682907104
visibility: 0.9984548687934875
","x: 175.49609375
y: 247.30062866210938
z: -0.13332045078277588
visibility: 0.9395546317100525
","x: 281.7356262207031
y: 201.1312713623047
z: -0.6609835624694824
visibility: 0.9934586882591248
","x: 145.05690002441406
y: 270.2567443847656
z: -0.20295453071594238
visibility: 0.9756135940551758
","x: 278.7091979980469
y: 189.20408630371094
z: -0.706606924533844
visibility: 0.9852275252342224
","x: 135.62098693847656
y: 276.33026123046875
z: -0.2201249897480011
visibility: 0.9542293548583984
","x: 274.19439697265625
y: 187.15740966796875
z: -0.697954535484314
visibility: 0.9859696626663208
","x: 135.6842803955078
y: 275.9060974121094
z: -0.25688543915748596
visibility: 0.9622253775596619
","x: 273.6367492675781
y: 191.5147705078125
z: -0.6627296209335327
visibility: 0.981781542301178
","x: 138.75155639648438
y: 275.3707580566406
z: -0.2204001396894455
visibility: 0.9608660340309143
","x: 237.58445739746094
y: 339.6580505371094
z: 0.0027841078117489815
visibility: 0.9998796582221985
","x: 212.2295379638672
y: 332.3101806640625
z: -0.0028965326491743326
visibility: 0.9998574256896973
","x: 225.05764770507812
y: 428.79815673828125
z: 0.022822825238108635
visibility: 0.9949632287025452
","x: 216.1039581298828
y: 415.6221008300781
z: -0.11902961879968643
visibility: 0.9856019020080566
","x: 229.54022216796875
y: 510.90203857421875
z: 0.2554096579551697
visibility: 0.9957808256149292
","x: 191.1544189453125
y: 466.9506530761719
z: 0.05181451514363289
visibility: 0.9800658822059631
","x: 232.99607849121094
y: 522.0219116210938
z: 0.269299179315567
visibility: 0.9010953903198242
","x: 179.38046264648438
y: 479.722900390625
z: 0.06189459562301636
visibility: 0.9480419754981995
","x: 220.12606811523438
y: 537.375244140625
z: 0.11986283212900162
visibility: 0.9916502237319946
","x: 191.09646606445312
y: 525.4738159179688
z: -0.09142542630434036
visibility: 0.9800302386283875
",,,,,,,,,,,,,,,,,,,,,,"x: 279.5137939453125
y: 200.4240264892578
z: 0.0
","x: 273.9785461425781
y: 197.71823120117188
z: -0.001455034944228828
","x: 269.2104187011719
y: 192.21231079101562
z: -0.0035233262460678816
","x: 267.3934020996094
y: 186.33042907714844
z: -0.006618479732424021
","x: 269.00921630859375
y: 181.58306884765625
z: -0.008783867582678795
","x: 270.80316162109375
y: 180.41461181640625
z: -0.00014925445429980755
","x: 268.3568420410156
y: 174.31944274902344
z: -0.005612293723970652
","x: 268.69952392578125
y: 181.07003784179688
z: -0.007228958420455456
","x: 269.7274475097656
y: 184.82589721679688
z: -0.0075291055254638195
","x: 273.763671875
y: 179.30162048339844
z: -0.0026466709095984697
","x: 270.89453125
y: 176.1514129638672
z: -0.008705530315637589
","x: 271.9079895019531
y: 184.05084228515625
z: -0.0086048673838377
","x: 273.2111511230469
y: 185.0379638671875
z: -0.0071142022497951984
","x: 276.88946533203125
y: 179.13858032226562
z: -0.006223241798579693
","x: 274.1052551269531
y: 177.17059326171875
z: -0.011807662434875965
","x: 274.7716979980469
y: 184.56764221191406
z: -0.010035564191639423
","x: 275.89019775390625
y: 185.43392944335938
z: -0.007422060240060091
","x: 280.3270263671875
y: 179.4249725341797
z: -0.010280112735927105
","x: 277.457763671875
y: 178.45855712890625
z: -0.012996313162147999
","x: 277.4472961425781
y: 183.70359802246094
z: -0.01152998860925436
","x: 278.3681945800781
y: 184.77891540527344
z: -0.009514114819467068
"
8,"x: 223.0616455078125
y: 185.2030029296875
z: -0.501916229724884
visibility: 0.9999750256538391
","x: 226.14907836914062
y: 176.11695861816406
z: -0.4885405898094177
visibility: 0.9999087452888489
","x: 228.00160217285156
y: 175.72454833984375
z: -0.48851221799850464
visibility: 0.9999242424964905
","x: 229.78932189941406
y: 175.34030151367188
z: -0.4885692000389099
visibility: 0.9999244213104248
","x: 221.26284790039062
y: 176.01539611816406
z: -0.4842342734336853
visibility: 0.9998646378517151
","x: 219.6677703857422
y: 175.5685272216797
z: -0.48432818055152893
visibility: 0.9998349547386169
","x: 218.1313934326172
y: 175.09268188476562
z: -0.4843105375766754
visibility: 0.9998189210891724
","x: 233.20367431640625
y: 177.14608764648438
z: -0.35339006781578064
visibility: 0.9999383687973022
","x: 216.31675720214844
y: 176.29641723632812
z: -0.3324716091156006
visibility: 0.9996529221534729
","x: 226.10317993164062
y: 194.1552734375
z: -0.44767484068870544
visibility: 0.999958336353302
","x: 219.95379638671875
y: 193.2711181640625
z: -0.44177716970443726
visibility: 0.9999051094055176
","x: 253.19223022460938
y: 212.53933715820312
z: -0.22272677719593048
visibility: 0.9999967217445374
","x: 201.8328857421875
y: 216.14378356933594
z: -0.20440168678760529
visibility: 0.9998573660850525
","x: 289.1763610839844
y: 235.92898559570312
z: -0.3704475462436676
visibility: 0.9985924959182739
","x: 179.60177612304688
y: 249.79763793945312
z: -0.10459347814321518
visibility: 0.9453977942466736
","x: 277.70880126953125
y: 200.52316284179688
z: -0.6253688335418701
visibility: 0.9940403699874878
","x: 153.22239685058594
y: 271.5224914550781
z: -0.1664922535419464
visibility: 0.9775557518005371
","x: 274.50262451171875
y: 190.90045166015625
z: -0.6737412214279175
visibility: 0.9862302541732788
","x: 144.6212158203125
y: 278.8270263671875
z: -0.15425178408622742
visibility: 0.957120954990387
","x: 269.7487487792969
y: 188.53704833984375
z: -0.663223147392273
visibility: 0.9869003891944885
","x: 144.4746551513672
y: 278.6059265136719
z: -0.19329771399497986
visibility: 0.9645281434059143
","x: 269.76055908203125
y: 192.05690002441406
z: -0.626538872718811
visibility: 0.9828782081604004
","x: 147.3721466064453
y: 277.51904296875
z: -0.17040297389030457
visibility: 0.9629374146461487
","x: 239.75567626953125
y: 338.63458251953125
z: 0.035131264477968216
visibility: 0.9998839497566223
","x: 212.69911193847656
y: 333.65240478515625
z: -0.03522191941738129
visibility: 0.9998659491539001
","x: 239.38026428222656
y: 426.46282958984375
z: 0.04590349644422531
visibility: 0.9909113645553589
","x: 222.7033233642578
y: 416.3840026855469
z: -0.19472955167293549
visibility: 0.9868025779724121
","x: 231.7622833251953
y: 512.9199829101562
z: 0.20958220958709717
visibility: 0.9946883320808411
","x: 194.85791015625
y: 489.74798583984375
z: -0.06530113518238068
visibility: 0.9816992878913879
","x: 229.8643798828125
y: 525.54736328125
z: 0.21913361549377441
visibility: 0.9064717888832092
","x: 180.87240600585938
y: 497.7923278808594
z: -0.059350091964006424
visibility: 0.9460374116897583
","x: 244.97694396972656
y: 536.2149658203125
z: 0.09540717303752899
visibility: 0.9907334446907043
","x: 196.90811157226562
y: 536.7225952148438
z: -0.19676783680915833
visibility: 0.9815270900726318
",,,,,,,,,,,,,,,,,,,,,,"x: 276.78887939453125
y: 203.20252990722656
z: 0.0
","x: 271.35382080078125
y: 199.73959350585938
z: -0.00021819831454195082
","x: 267.31060791015625
y: 193.99227905273438
z: -0.0019560116343200207
","x: 265.68243408203125
y: 189.0879669189453
z: -0.004652564879506826
","x: 266.6667785644531
y: 184.8906707763672
z: -0.006702708546072245
","x: 269.15960693359375
y: 179.21945190429688
z: 0.0006583050126209855
","x: 265.16168212890625
y: 177.96873474121094
z: -0.003063675481826067
","x: 263.485107421875
y: 183.77389526367188
z: -0.004856628831475973
","x: 263.17864990234375
y: 188.68453979492188
z: -0.005537680350244045
","x: 271.697998046875
y: 177.73046875
z: -0.002153656678274274
","x: 267.53277587890625
y: 178.22296142578125
z: -0.005145985167473555
","x: 266.17803955078125
y: 184.7818145751953
z: -0.005931893363595009
","x: 265.9362487792969
y: 189.12747192382812
z: -0.006259104702621698
","x: 274.50152587890625
y: 178.15814208984375
z: -0.005647304002195597
","x: 269.927978515625
y: 179.46661376953125
z: -0.008078583516180515
","x: 268.46807861328125
y: 185.43972778320312
z: -0.007732545956969261
","x: 267.9349060058594
y: 189.2802276611328
z: -0.007367298472672701
","x: 277.2200927734375
y: 180.32113647460938
z: -0.009515426121652126
","x: 272.89105224609375
y: 182.1373748779297
z: -0.010524540208280087
","x: 271.0881652832031
y: 186.77203369140625
z: -0.009721700102090836
","x: 270.26837158203125
y: 190.29855346679688
z: -0.00903245434165001
"
9,"x: 223.0616455078125
y: 185.2030029296875
z: -0.501916229724884
visibility: 0.9999750256538391
","x: 226.14907836914062
y: 176.11695861816406
z: -0.4885405898094177
visibility: 0.9999087452888489
","x: 228.00160217285156
y: 175.72454833984375
z: -0.48851221799850464
visibility: 0.9999242424964905
","x: 229.78932189941406
y: 175.34030151367188
z: -0.4885692000389099
visibility: 0.9999244213104248
","x: 221.26284790039062
y: 176.01539611816406
z: -0.4842342734336853
visibility: 0.9998646378517151
","x: 219.6677703857422
y: 175.5685272216797
z: -0.48432818055152893
visibility: 0.9998349547386169
","x: 218.1313934326172
y: 175.09268188476562
z: -0.4843105375766754
visibility: 0.9998189210891724
","x: 233.20367431640625
y: 177.14608764648438
z: -0.35339006781578064
visibility: 0.9999383687973022
","x: 216.31675720214844
y: 176.29641723632812
z: -0.3324716091156006
visibility: 0.9996529221534729
","x: 226.10317993164062
y: 194.1552734375
z: -0.44767484068870544
visibility: 0.999958336353302
","x: 219.95379638671875
y: 193.2711181640625
z: -0.44177716970443726
visibility: 0.9999051094055176
","x: 253.19223022460938
y: 212.53933715820312
z: -0.22272677719593048
visibility: 0.9999967217445374
","x: 201.8328857421875
y: 216.14378356933594
z: -0.20440168678760529
visibility: 0.9998573660850525
","x: 289.1763610839844
y: 235.92898559570312
z: -0.3704475462436676
visibility: 0.9985924959182739
","x: 179.60177612304688
y: 249.79763793945312
z: -0.10459347814321518
visibility: 0.9453977942466736
","x: 277.70880126953125
y: 200.52316284179688
z: -0.6253688335418701
visibility: 0.9940403699874878
","x: 153.22239685058594
y: 271.5224914550781
z: -0.1664922535419464
visibility: 0.9775557518005371
","x: 274.50262451171875
y: 190.90045166015625
z: -0.6737412214279175
visibility: 0.9862302541732788
","x: 144.6212158203125
y: 278.8270263671875
z: -0.15425178408622742
visibility: 0.957120954990387
","x: 269.7487487792969
y: 188.53704833984375
z: -0.663223147392273
visibility: 0.9869003891944885
","x: 144.4746551513672
y: 278.6059265136719
z: -0.19329771399497986
visibility: 0.9645281434059143
","x: 269.76055908203125
y: 192.05690002441406
z: -0.626538872718811
visibility: 0.9828782081604004
","x: 147.3721466064453
y: 277.51904296875
z: -0.17040297389030457
visibility: 0.9629374146461487
","x: 239.75567626953125
y: 338.63458251953125
z: 0.035131264477968216
visibility: 0.9998839497566223
","x: 212.69911193847656
y: 333.65240478515625
z: -0.03522191941738129
visibility: 0.9998659491539001
","x: 239.38026428222656
y: 426.46282958984375
z: 0.04590349644422531
visibility: 0.9909113645553589
","x: 222.7033233642578
y: 416.3840026855469
z: -0.19472955167293549
visibility: 0.9868025779724121
","x: 231.7622833251953
y: 512.9199829101562
z: 0.20958220958709717
visibility: 0.9946883320808411
","x: 194.85791015625
y: 489.74798583984375
z: -0.06530113518238068
visibility: 0.9816992878913879
","x: 229.8643798828125
y: 525.54736328125
z: 0.21913361549377441
visibility: 0.9064717888832092
","x: 180.87240600585938
y: 497.7923278808594
z: -0.059350091964006424
visibility: 0.9460374116897583
","x: 244.97694396972656
y: 536.2149658203125
z: 0.09540717303752899
visibility: 0.9907334446907043
","x: 196.90811157226562
y: 536.7225952148438
z: -0.19676783680915833
visibility: 0.9815270900726318
",,,,,,,,,,,,,,,,,,,,,,"x: 276.78887939453125
y: 203.20252990722656
z: 0.0
","x: 271.35382080078125
y: 199.73959350585938
z: -0.00021819831454195082
","x: 267.31060791015625
y: 193.99227905273438
z: -0.0019560116343200207
","x: 265.68243408203125
y: 189.0879669189453
z: -0.004652564879506826
","x: 266.6667785644531
y: 184.8906707763672
z: -0.006702708546072245
","x: 269.15960693359375
y: 179.21945190429688
z: 0.0006583050126209855
","x: 265.16168212890625
y: 177.96873474121094
z: -0.003063675481826067
","x: 263.485107421875
y: 183.77389526367188
z: -0.004856628831475973
","x: 263.17864990234375
y: 188.68453979492188
z: -0.005537680350244045
","x: 271.697998046875
y: 177.73046875
z: -0.002153656678274274
","x: 267.53277587890625
y: 178.22296142578125
z: -0.005145985167473555
","x: 266.17803955078125
y: 184.7818145751953
z: -0.005931893363595009
","x: 265.9362487792969
y: 189.12747192382812
z: -0.006259104702621698
","x: 274.50152587890625
y: 178.15814208984375
z: -0.005647304002195597
","x: 269.927978515625
y: 179.46661376953125
z: -0.008078583516180515
","x: 268.46807861328125
y: 185.43972778320312
z: -0.007732545956969261
","x: 267.9349060058594
y: 189.2802276611328
z: -0.007367298472672701
","x: 277.2200927734375
y: 180.32113647460938
z: -0.009515426121652126
","x: 272.89105224609375
y: 182.1373748779297
z: -0.010524540208280087
","x: 271.0881652832031
y: 186.77203369140625
z: -0.009721700102090836
","x: 270.26837158203125
y: 190.29855346679688
z: -0.00903245434165001
"
10,"x: 222.23411560058594
y: 182.052490234375
z: -0.515678346157074
visibility: 0.9999773502349854
","x: 225.26661682128906
y: 173.5240020751953
z: -0.5035825967788696
visibility: 0.9999172687530518
","x: 227.03627014160156
y: 173.15640258789062
z: -0.5035704374313354
visibility: 0.9999311566352844
","x: 228.85365295410156
y: 172.73028564453125
z: -0.5036698579788208
visibility: 0.9999313354492188
","x: 220.36473083496094
y: 173.37730407714844
z: -0.49684691429138184
visibility: 0.9998775720596313
","x: 218.79397583007812
y: 172.89549255371094
z: -0.49689435958862305
visibility: 0.9998505711555481
","x: 217.36610412597656
y: 172.3343048095703
z: -0.49686187505722046
visibility: 0.9998360872268677
","x: 231.88714599609375
y: 174.26634216308594
z: -0.3758278489112854
visibility: 0.9999438524246216
","x: 215.23719787597656
y: 173.51687622070312
z: -0.34368911385536194
visibility: 0.9996870756149292
","x: 225.07522583007812
y: 190.58999633789062
z: -0.4643438458442688
visibility: 0.999962329864502
","x: 219.0263214111328
y: 190.00872802734375
z: -0.4550618529319763
visibility: 0.9999143481254578
","x: 250.4571533203125
y: 209.40286254882812
z: -0.2609158754348755
visibility: 0.9999966025352478
","x: 201.32473754882812
y: 213.81097412109375
z: -0.2062632143497467
visibility: 0.9998710751533508
","x: 285.9801940917969
y: 236.2601318359375
z: -0.4255482256412506
visibility: 0.9987233877182007
","x: 181.9336395263672
y: 253.072998046875
z: -0.1417546570301056
visibility: 0.9505701661109924
","x: 272.549560546875
y: 209.2238006591797
z: -0.6601371169090271
visibility: 0.9945952296257019
","x: 158.30194091796875
y: 283.93695068359375
z: -0.2208820879459381
visibility: 0.9794456362724304
","x: 268.563232421875
y: 203.82473754882812
z: -0.7148630619049072
visibility: 0.987324595451355
","x: 150.5663299560547
y: 295.1011962890625
z: -0.24069657921791077
visibility: 0.9602235555648804
","x: 264.1170654296875
y: 200.76669311523438
z: -0.7027971744537354
visibility: 0.987903356552124
","x: 150.9156494140625
y: 295.78076171875
z: -0.28149038553237915
visibility: 0.9669815301895142
","x: 264.5722351074219
y: 203.3824005126953
z: -0.6605223417282104
visibility: 0.9840344786643982
","x: 153.74693298339844
y: 293.5464172363281
z: -0.23873713612556458
visibility: 0.9652889966964722
","x: 241.86083984375
y: 336.62860107421875
z: 8.734610673855059e-06
visibility: 0.9998874068260193
","x: 213.34884643554688
y: 333.9540100097656
z: 1.818886630644556e-05
visibility: 0.9998739957809448
","x: 253.4053192138672
y: 422.66583251953125
z: -0.09777355939149857
visibility: 0.9912407398223877
","x: 207.9114532470703
y: 417.2485656738281
z: -0.16917161643505096
visibility: 0.987858772277832
","x: 237.30638122558594
y: 511.3733215332031
z: 0.08965221047401428
visibility: 0.9945718050003052
","x: 208.55758666992188
y: 503.71295166015625
z: 0.019829802215099335
visibility: 0.9832646250724792
","x: 230.33740234375
y: 524.4766845703125
z: 0.09963735193014145
visibility: 0.9133403301239014
","x: 211.4324951171875
y: 513.947265625
z: 0.0289339367300272
visibility: 0.948188841342926
","x: 255.2024688720703
y: 534.4152221679688
z: -0.04672224074602127
visibility: 0.9908711314201355
","x: 198.7196044921875
y: 538.3917236328125
z: -0.12203697115182877
visibility: 0.9829241037368774
",,,,,,,,,,,,,,,,,,,,,,"x: 270.0406799316406
y: 213.3822021484375
z: 0.0
","x: 266.0173034667969
y: 214.346435546875
z: -0.00268099014647305
","x: 261.34161376953125
y: 211.71975708007812
z: -0.005652709398418665
","x: 259.0227966308594
y: 208.51651000976562
z: -0.009188264608383179
","x: 259.11419677734375
y: 204.7222900390625
z: -0.012064709328114986
","x: 260.65338134765625
y: 199.15513610839844
z: -0.003393579972907901
","x: 258.281494140625
y: 198.21356201171875
z: -0.009575847536325455
","x: 258.78656005859375
y: 204.21792602539062
z: -0.01177229918539524
","x: 259.8755187988281
y: 207.47256469726562
z: -0.01235300861299038
","x: 263.2833557128906
y: 196.70541381835938
z: -0.0051908851601183414
","x: 261.01434326171875
y: 197.7165069580078
z: -0.012020672671496868
","x: 262.6063537597656
y: 205.16073608398438
z: -0.012006664648652077
","x: 263.59234619140625
y: 206.35400390625
z: -0.01056536752730608
","x: 266.2522277832031
y: 195.7770538330078
z: -0.00798896886408329
","x: 263.9233093261719
y: 197.1397705078125
z: -0.014316144399344921
","x: 265.1903381347656
y: 203.8032684326172
z: -0.012493194080889225
","x: 266.0503845214844
y: 204.6927032470703
z: -0.009814402088522911
","x: 269.5593566894531
y: 195.7437744140625
z: -0.011257417500019073
","x: 267.22198486328125
y: 197.3898162841797
z: -0.014809648506343365
","x: 267.80999755859375
y: 202.227783203125
z: -0.01353470329195261
","x: 268.530517578125
y: 202.7945556640625
z: -0.011581704020500183
"
11,"x: 222.23411560058594
y: 182.052490234375
z: -0.515678346157074
visibility: 0.9999773502349854
","x: 225.26661682128906
y: 173.5240020751953
z: -0.5035825967788696
visibility: 0.9999172687530518
","x: 227.03627014160156
y: 173.15640258789062
z: -0.5035704374313354
visibility: 0.9999311566352844
","x: 228.85365295410156
y: 172.73028564453125
z: -0.5036698579788208
visibility: 0.9999313354492188
","x: 220.36473083496094
y: 173.37730407714844
z: -0.49684691429138184
visibility: 0.9998775720596313
","x: 218.79397583007812
y: 172.89549255371094
z: -0.49689435958862305
visibility: 0.9998505711555481
","x: 217.36610412597656
y: 172.3343048095703
z: -0.49686187505722046
visibility: 0.9998360872268677
","x: 231.88714599609375
y: 174.26634216308594
z: -0.3758278489112854
visibility: 0.9999438524246216
","x: 215.23719787597656
y: 173.51687622070312
z: -0.34368911385536194
visibility: 0.9996870756149292
","x: 225.07522583007812
y: 190.58999633789062
z: -0.4643438458442688
visibility: 0.999962329864502
","x: 219.0263214111328
y: 190.00872802734375
z: -0.4550618529319763
visibility: 0.9999143481254578
","x: 250.4571533203125
y: 209.40286254882812
z: -0.2609158754348755
visibility: 0.9999966025352478
","x: 201.32473754882812
y: 213.81097412109375
z: -0.2062632143497467
visibility: 0.9998710751533508
","x: 285.9801940917969
y: 236.2601318359375
z: -0.4255482256412506
visibility: 0.9987233877182007
","x: 181.9336395263672
y: 253.072998046875
z: -0.1417546570301056
visibility: 0.9505701661109924
","x: 272.549560546875
y: 209.2238006591797
z: -0.6601371169090271
visibility: 0.9945952296257019
","x: 158.30194091796875
y: 283.93695068359375
z: -0.2208820879459381
visibility: 0.9794456362724304
","x: 268.563232421875
y: 203.82473754882812
z: -0.7148630619049072
visibility: 0.987324595451355
","x: 150.5663299560547
y: 295.1011962890625
z: -0.24069657921791077
visibility: 0.9602235555648804
","x: 264.1170654296875
y: 200.76669311523438
z: -0.7027971744537354
visibility: 0.987903356552124
","x: 150.9156494140625
y: 295.78076171875
z: -0.28149038553237915
visibility: 0.9669815301895142
","x: 264.5722351074219
y: 203.3824005126953
z: -0.6605223417282104
visibility: 0.9840344786643982
","x: 153.74693298339844
y: 293.5464172363281
z: -0.23873713612556458
visibility: 0.9652889966964722
","x: 241.86083984375
y: 336.62860107421875
z: 8.734610673855059e-06
visibility: 0.9998874068260193
","x: 213.34884643554688
y: 333.9540100097656
z: 1.818886630644556e-05
visibility: 0.9998739957809448
","x: 253.4053192138672
y: 422.66583251953125
z: -0.09777355939149857
visibility: 0.9912407398223877
","x: 207.9114532470703
y: 417.2485656738281
z: -0.16917161643505096
visibility: 0.987858772277832
","x: 237.30638122558594
y: 511.3733215332031
z: 0.08965221047401428
visibility: 0.9945718050003052
","x: 208.55758666992188
y: 503.71295166015625
z: 0.019829802215099335
visibility: 0.9832646250724792
","x: 230.33740234375
y: 524.4766845703125
z: 0.09963735193014145
visibility: 0.9133403301239014
","x: 211.4324951171875
y: 513.947265625
z: 0.0289339367300272
visibility: 0.948188841342926
","x: 255.2024688720703
y: 534.4152221679688
z: -0.04672224074602127
visibility: 0.9908711314201355
","x: 198.7196044921875
y: 538.3917236328125
z: -0.12203697115182877
visibility: 0.9829241037368774
",,,,,,,,,,,,,,,,,,,,,,"x: 270.0406799316406
y: 213.3822021484375
z: 0.0
","x: 266.0173034667969
y: 214.346435546875
z: -0.00268099014647305
","x: 261.34161376953125
y: 211.71975708007812
z: -0.005652709398418665
","x: 259.0227966308594
y: 208.51651000976562
z: -0.009188264608383179
","x: 259.11419677734375
y: 204.7222900390625
z: -0.012064709328114986
","x: 260.65338134765625
y: 199.15513610839844
z: -0.003393579972907901
","x: 258.281494140625
y: 198.21356201171875
z: -0.009575847536325455
","x: 258.78656005859375
y: 204.21792602539062
z: -0.01177229918539524
","x: 259.8755187988281
y: 207.47256469726562
z: -0.01235300861299038
","x: 263.2833557128906
y: 196.70541381835938
z: -0.0051908851601183414
","x: 261.01434326171875
y: 197.7165069580078
z: -0.012020672671496868
","x: 262.6063537597656
y: 205.16073608398438
z: -0.012006664648652077
","x: 263.59234619140625
y: 206.35400390625
z: -0.01056536752730608
","x: 266.2522277832031
y: 195.7770538330078
z: -0.00798896886408329
","x: 263.9233093261719
y: 197.1397705078125
z: -0.014316144399344921
","x: 265.1903381347656
y: 203.8032684326172
z: -0.012493194080889225
","x: 266.0503845214844
y: 204.6927032470703
z: -0.009814402088522911
","x: 269.5593566894531
y: 195.7437744140625
z: -0.011257417500019073
","x: 267.22198486328125
y: 197.3898162841797
z: -0.014809648506343365
","x: 267.80999755859375
y: 202.227783203125
z: -0.01353470329195261
","x: 268.530517578125
y: 202.7945556640625
z: -0.011581704020500183
"
12,"x: 221.56231689453125
y: 179.55364990234375
z: -0.505395233631134
visibility: 0.999979555606842
","x: 224.6071014404297
y: 170.89356994628906
z: -0.48886722326278687
visibility: 0.9999251365661621
","x: 226.38414001464844
y: 170.56243896484375
z: -0.4888443350791931
visibility: 0.9999377131462097
","x: 228.2039337158203
y: 170.1332244873047
z: -0.4889295697212219
visibility: 0.9999378323554993
","x: 219.67861938476562
y: 170.70115661621094
z: -0.48078346252441406
visibility: 0.9998892545700073
","x: 218.1123046875
y: 170.23822021484375
z: -0.4808211326599121
visibility: 0.9998648762702942
","x: 216.74606323242188
y: 169.67547607421875
z: -0.4807767868041992
visibility: 0.9998517632484436
","x: 231.25279235839844
y: 171.7887725830078
z: -0.3506179451942444
visibility: 0.9999492168426514
","x: 214.53662109375
y: 171.14744567871094
z: -0.3118906319141388
visibility: 0.9997180104255676
","x: 224.27554321289062
y: 187.99343872070312
z: -0.4513387084007263
visibility: 0.999966025352478
","x: 218.26596069335938
y: 187.55728149414062
z: -0.4399165213108063
visibility: 0.9999227523803711
","x: 249.83302307128906
y: 207.956787109375
z: -0.24255959689617157
visibility: 0.9999967813491821
","x: 200.23251342773438
y: 211.752197265625
z: -0.16533322632312775
visibility: 0.999883234500885
","x: 286.0097351074219
y: 233.25039672851562
z: -0.4167260229587555
visibility: 0.9988387227058411
","x: 181.5667724609375
y: 254.6613311767578
z: -0.09316765516996384
visibility: 0.9552518725395203
","x: 274.6081848144531
y: 207.10275268554688
z: -0.6829007267951965
visibility: 0.9950839281082153
","x: 157.7537384033203
y: 291.8922119140625
z: -0.17902110517024994
visibility: 0.9812344312667847
","x: 270.2247314453125
y: 202.33843994140625
z: -0.739216148853302
visibility: 0.988249659538269
","x: 149.7606964111328
y: 302.1758728027344
z: -0.20031163096427917
visibility: 0.9632853269577026
","x: 265.7963562011719
y: 198.6935272216797
z: -0.7282248139381409
visibility: 0.9887486100196838
","x: 149.96066284179688
y: 302.7962646484375
z: -0.24097757041454315
visibility: 0.9694347977638245
","x: 266.37689208984375
y: 201.20657348632812
z: -0.6840887069702148
visibility: 0.9849590063095093
","x: 152.89120483398438
y: 301.1165466308594
z: -0.19918273389339447
visibility: 0.9676814079284668
","x: 243.73220825195312
y: 336.0865783691406
z: -0.010376832447946072
visibility: 0.999894380569458
","x: 213.09567260742188
y: 335.2865905761719
z: 0.010399113409221172
visibility: 0.9998814463615417
","x: 258.918701171875
y: 418.1405029296875
z: -0.2531954348087311
visibility: 0.9918490648269653
","x: 202.02593994140625
y: 415.4508056640625
z: -0.23940321803092957
visibility: 0.9889244437217712
","x: 244.27127075195312
y: 504.8037109375
z: 0.0026973304338753223
visibility: 0.9947346448898315
","x: 208.63302612304688
y: 504.2989807128906
z: 0.015136949717998505
visibility: 0.9847461581230164
","x: 235.4645233154297
y: 516.876953125
z: 0.01972542144358158
visibility: 0.9192140102386475
","x: 215.00767517089844
y: 513.9534912109375
z: 0.030833568423986435
visibility: 0.9508954882621765
","x: 254.46945190429688
y: 534.7711791992188
z: -0.1408471018075943
visibility: 0.9912796020507812
","x: 199.40097045898438
y: 539.77734375
z: -0.12011164426803589
visibility: 0.9842889308929443
",,,,,,,,,,,,,,,,,,,,,,"x: 272.05303955078125
y: 210.90234375
z: 0.0
","x: 267.50732421875
y: 211.6270294189453
z: -0.0026704922784119844
","x: 262.72283935546875
y: 209.6043701171875
z: -0.005597591400146484
","x: 260.29925537109375
y: 206.35009765625
z: -0.008742798119783401
","x: 261.0759582519531
y: 203.0707550048828
z: -0.010994468815624714
","x: 262.35528564453125
y: 194.59042358398438
z: -0.0033484932500869036
","x: 260.2485046386719
y: 196.06515502929688
z: -0.008470484055578709
","x: 261.3135070800781
y: 202.33499145507812
z: -0.010134521871805191
","x: 262.4874267578125
y: 204.812744140625
z: -0.01060010027140379
","x: 265.20111083984375
y: 192.16458129882812
z: -0.004861574154347181
","x: 263.471923828125
y: 196.12069702148438
z: -0.010465034283697605
","x: 264.8429260253906
y: 203.18414306640625
z: -0.010103779844939709
","x: 265.79400634765625
y: 204.00466918945312
z: -0.008858487010002136
","x: 268.2431945800781
y: 191.75595092773438
z: -0.007195810787379742
","x: 266.7856750488281
y: 195.98971557617188
z: -0.012280323542654514
","x: 267.6917724609375
y: 202.05538940429688
z: -0.010666635818779469
","x: 268.2698974609375
y: 202.3002471923828
z: -0.008488609455525875
","x: 271.3306579589844
y: 192.56756591796875
z: -0.009949463419616222
","x: 269.8939514160156
y: 195.91529846191406
z: -0.012415590696036816
","x: 270.2210693359375
y: 200.20901489257812
z: -0.011233574710786343
","x: 270.57244873046875
y: 200.1966552734375
z: -0.009672463871538639
"
13,"x: 221.56231689453125
y: 179.55364990234375
z: -0.505395233631134
visibility: 0.999979555606842
","x: 224.6071014404297
y: 170.89356994628906
z: -0.48886722326278687
visibility: 0.9999251365661621
","x: 226.38414001464844
y: 170.56243896484375
z: -0.4888443350791931
visibility: 0.9999377131462097
","x: 228.2039337158203
y: 170.1332244873047
z: -0.4889295697212219
visibility: 0.9999378323554993
","x: 219.67861938476562
y: 170.70115661621094
z: -0.48078346252441406
visibility: 0.9998892545700073
","x: 218.1123046875
y: 170.23822021484375
z: -0.4808211326599121
visibility: 0.9998648762702942
","x: 216.74606323242188
y: 169.67547607421875
z: -0.4807767868041992
visibility: 0.9998517632484436
","x: 231.25279235839844
y: 171.7887725830078
z: -0.3506179451942444
visibility: 0.9999492168426514
","x: 214.53662109375
y: 171.14744567871094
z: -0.3118906319141388
visibility: 0.9997180104255676
","x: 224.27554321289062
y: 187.99343872070312
z: -0.4513387084007263
visibility: 0.999966025352478
","x: 218.26596069335938
y: 187.55728149414062
z: -0.4399165213108063
visibility: 0.9999227523803711
","x: 249.83302307128906
y: 207.956787109375
z: -0.24255959689617157
visibility: 0.9999967813491821
","x: 200.23251342773438
y: 211.752197265625
z: -0.16533322632312775
visibility: 0.999883234500885
","x: 286.0097351074219
y: 233.25039672851562
z: -0.4167260229587555
visibility: 0.9988387227058411
","x: 181.5667724609375
y: 254.6613311767578
z: -0.09316765516996384
visibility: 0.9552518725395203
","x: 274.6081848144531
y: 207.10275268554688
z: -0.6829007267951965
visibility: 0.9950839281082153
","x: 157.7537384033203
y: 291.8922119140625
z: -0.17902110517024994
visibility: 0.9812344312667847
","x: 270.2247314453125
y: 202.33843994140625
z: -0.739216148853302
visibility: 0.988249659538269
","x: 149.7606964111328
y: 302.1758728027344
z: -0.20031163096427917
visibility: 0.9632853269577026
","x: 265.7963562011719
y: 198.6935272216797
z: -0.7282248139381409
visibility: 0.9887486100196838
","x: 149.96066284179688
y: 302.7962646484375
z: -0.24097757041454315
visibility: 0.9694347977638245
","x: 266.37689208984375
y: 201.20657348632812
z: -0.6840887069702148
visibility: 0.9849590063095093
","x: 152.89120483398438
y: 301.1165466308594
z: -0.19918273389339447
visibility: 0.9676814079284668
","x: 243.73220825195312
y: 336.0865783691406
z: -0.010376832447946072
visibility: 0.999894380569458
","x: 213.09567260742188
y: 335.2865905761719
z: 0.010399113409221172
visibility: 0.9998814463615417
","x: 258.918701171875
y: 418.1405029296875
z: -0.2531954348087311
visibility: 0.9918490648269653
","x: 202.02593994140625
y: 415.4508056640625
z: -0.23940321803092957
visibility: 0.9889244437217712
","x: 244.27127075195312
y: 504.8037109375
z: 0.0026973304338753223
visibility: 0.9947346448898315
","x: 208.63302612304688
y: 504.2989807128906
z: 0.015136949717998505
visibility: 0.9847461581230164
","x: 235.4645233154297
y: 516.876953125
z: 0.01972542144358158
visibility: 0.9192140102386475
","x: 215.00767517089844
y: 513.9534912109375
z: 0.030833568423986435
visibility: 0.9508954882621765
","x: 254.46945190429688
y: 534.7711791992188
z: -0.1408471018075943
visibility: 0.9912796020507812
","x: 199.40097045898438
y: 539.77734375
z: -0.12011164426803589
visibility: 0.9842889308929443
",,,,,,,,,,,,,,,,,,,,,,"x: 272.05303955078125
y: 210.90234375
z: 0.0
","x: 267.50732421875
y: 211.6270294189453
z: -0.0026704922784119844
","x: 262.72283935546875
y: 209.6043701171875
z: -0.005597591400146484
","x: 260.29925537109375
y: 206.35009765625
z: -0.008742798119783401
","x: 261.0759582519531
y: 203.0707550048828
z: -0.010994468815624714
","x: 262.35528564453125
y: 194.59042358398438
z: -0.0033484932500869036
","x: 260.2485046386719
y: 196.06515502929688
z: -0.008470484055578709
","x: 261.3135070800781
y: 202.33499145507812
z: -0.010134521871805191
","x: 262.4874267578125
y: 204.812744140625
z: -0.01060010027140379
","x: 265.20111083984375
y: 192.16458129882812
z: -0.004861574154347181
","x: 263.471923828125
y: 196.12069702148438
z: -0.010465034283697605
","x: 264.8429260253906
y: 203.18414306640625
z: -0.010103779844939709
","x: 265.79400634765625
y: 204.00466918945312
z: -0.008858487010002136
","x: 268.2431945800781
y: 191.75595092773438
z: -0.007195810787379742
","x: 266.7856750488281
y: 195.98971557617188
z: -0.012280323542654514
","x: 267.6917724609375
y: 202.05538940429688
z: -0.010666635818779469
","x: 268.2698974609375
y: 202.3002471923828
z: -0.008488609455525875
","x: 271.3306579589844
y: 192.56756591796875
z: -0.009949463419616222
","x: 269.8939514160156
y: 195.91529846191406
z: -0.012415590696036816
","x: 270.2210693359375
y: 200.20901489257812
z: -0.011233574710786343
","x: 270.57244873046875
y: 200.1966552734375
z: -0.009672463871538639
"
14,"x: 221.40623474121094
y: 176.38731384277344
z: -0.47324448823928833
visibility: 0.9999814629554749
","x: 224.42893981933594
y: 167.94668579101562
z: -0.4575713276863098
visibility: 0.9999319911003113
","x: 226.2060089111328
y: 167.663818359375
z: -0.45755571126937866
visibility: 0.9999434947967529
","x: 228.0321044921875
y: 167.3032989501953
z: -0.4576192796230316
visibility: 0.9999434947967529
","x: 219.479248046875
y: 167.68121337890625
z: -0.4496234357357025
visibility: 0.9998994469642639
","x: 217.88204956054688
y: 167.21788024902344
z: -0.44964441657066345
visibility: 0.9998774528503418
","x: 216.51390075683594
y: 166.65464782714844
z: -0.44959765672683716
visibility: 0.9998655319213867
","x: 231.0129852294922
y: 169.07769775390625
z: -0.32380375266075134
visibility: 0.9999539256095886
","x: 214.2346954345703
y: 168.05804443359375
z: -0.2888273596763611
visibility: 0.9997455477714539
","x: 224.0130615234375
y: 184.95440673828125
z: -0.4201573431491852
visibility: 0.9999693036079407
","x: 218.01821899414062
y: 184.40476989746094
z: -0.4087792932987213
visibility: 0.9999302625656128
","x: 248.7099609375
y: 203.51559448242188
z: -0.23245875537395477
visibility: 0.9999969601631165
","x: 199.97918701171875
y: 209.48150634765625
z: -0.14691980183124542
visibility: 0.9998937845230103
","x: 284.6213073730469
y: 224.6092071533203
z: -0.3972680866718292
visibility: 0.9989376664161682
","x: 182.49078369140625
y: 255.53953552246094
z: -0.037366513162851334
visibility: 0.9593701362609863
","x: 274.456298828125
y: 201.45870971679688
z: -0.6649332046508789
visibility: 0.9954851269721985
","x: 157.74754333496094
y: 293.36492919921875
z: -0.11784479767084122
visibility: 0.98282790184021
","x: 271.43701171875
y: 197.42967224121094
z: -0.719680666923523
visibility: 0.9888805150985718
","x: 149.73130798339844
y: 303.73773193359375
z: -0.13604731857776642
visibility: 0.9659183621406555
","x: 266.8280334472656
y: 194.71478271484375
z: -0.7100465893745422
visibility: 0.9893032908439636
","x: 149.7434539794922
y: 304.0628967285156
z: -0.17575252056121826
visibility: 0.971567690372467
","x: 267.09039306640625
y: 197.41253662109375
z: -0.6667388677597046
visibility: 0.9854663610458374
","x: 152.68756103515625
y: 302.3794250488281
z: -0.1358676701784134
visibility: 0.9697721600532532
","x: 244.1090087890625
y: 333.8069152832031
z: -0.013736585155129433
visibility: 0.9998980164527893
","x: 213.68634033203125
y: 334.4234619140625
z: 0.013732845894992352
visibility: 0.9998860955238342
","x: 258.4141845703125
y: 415.66552734375
z: -0.17070713639259338
visibility: 0.9924366474151611
","x: 199.7977752685547
y: 413.53369140625
z: -0.17046940326690674
visibility: 0.9898468852043152
","x: 253.55686950683594
y: 497.66802978515625
z: 0.0415358766913414
visibility: 0.9949177503585815
","x: 206.8026580810547
y: 503.4757995605469
z: 0.07545064389705658
visibility: 0.986045777797699
","x: 250.2133331298828
y: 506.2122802734375
z: 0.06243891641497612
visibility: 0.9199294447898865
","x: 213.19313049316406
y: 512.7623291015625
z: 0.0913269892334938
visibility: 0.9529946446418762
","x: 254.0989532470703
y: 532.9322509765625
z: -0.04447310045361519
visibility: 0.9916438460350037
","x: 198.67648315429688
y: 538.983642578125
z: -0.049969855695962906
visibility: 0.9855322241783142
",,,,,,,,,,,,,,,,,,,,,,"x: 274.6510314941406
y: 205.08316040039062
z: 0.0
","x: 269.5205383300781
y: 206.00462341308594
z: -0.001068457611836493
","x: 264.4825744628906
y: 204.9003448486328
z: -0.0023491878528147936
","x: 261.8097229003906
y: 202.17935180664062
z: -0.004105923231691122
","x: 261.9010009765625
y: 199.08090209960938
z: -0.005120502784848213
","x: 263.8965148925781
y: 193.42201232910156
z: 0.00011407301644794643
","x: 262.3320007324219
y: 194.03160095214844
z: -0.002762662246823311
","x: 263.61041259765625
y: 198.92575073242188
z: -0.0035124490968883038
","x: 264.8740539550781
y: 200.84262084960938
z: -0.003525190055370331
","x: 266.41522216796875
y: 190.65304565429688
z: -0.0011439636582508683
","x: 265.21429443359375
y: 192.1536102294922
z: -0.003982230555266142
","x: 266.4400329589844
y: 197.60897827148438
z: -0.003586758393794298
","x: 267.52093505859375
y: 199.188232421875
z: -0.0027359912637621164
","x: 269.0115661621094
y: 189.42457580566406
z: -0.00300204218365252
","x: 268.0611572265625
y: 191.30709838867188
z: -0.005874411202967167
","x: 268.9958801269531
y: 196.37306213378906
z: -0.004690953996032476
","x: 269.85882568359375
y: 197.43331909179688
z: -0.003166448324918747
","x: 271.7091979980469
y: 189.128662109375
z: -0.0051554106175899506
","x: 270.8096008300781
y: 191.03253173828125
z: -0.0064682732336223125
","x: 271.4266357421875
y: 194.9832000732422
z: -0.005525751505047083
","x: 272.05010986328125
y: 195.76795959472656
z: -0.0042812032625079155
"
15,"x: 221.40623474121094
y: 176.38731384277344
z: -0.47324448823928833
visibility: 0.9999814629554749
","x: 224.42893981933594
y: 167.94668579101562
z: -0.4575713276863098
visibility: 0.9999319911003113
","x: 226.2060089111328
y: 167.663818359375
z: -0.45755571126937866
visibility: 0.9999434947967529
","x: 228.0321044921875
y: 167.3032989501953
z: -0.4576192796230316
visibility: 0.9999434947967529
","x: 219.479248046875
y: 167.68121337890625
z: -0.4496234357357025
visibility: 0.9998994469642639
","x: 217.88204956054688
y: 167.21788024902344
z: -0.44964441657066345
visibility: 0.9998774528503418
","x: 216.51390075683594
y: 166.65464782714844
z: -0.44959765672683716
visibility: 0.9998655319213867
","x: 231.0129852294922
y: 169.07769775390625
z: -0.32380375266075134
visibility: 0.9999539256095886
","x: 214.2346954345703
y: 168.05804443359375
z: -0.2888273596763611
visibility: 0.9997455477714539
","x: 224.0130615234375
y: 184.95440673828125
z: -0.4201573431491852
visibility: 0.9999693036079407
","x: 218.01821899414062
y: 184.40476989746094
z: -0.4087792932987213
visibility: 0.9999302625656128
","x: 248.7099609375
y: 203.51559448242188
z: -0.23245875537395477
visibility: 0.9999969601631165
","x: 199.97918701171875
y: 209.48150634765625
z: -0.14691980183124542
visibility: 0.9998937845230103
","x: 284.6213073730469
y: 224.6092071533203
z: -0.3972680866718292
visibility: 0.9989376664161682
","x: 182.49078369140625
y: 255.53953552246094
z: -0.037366513162851334
visibility: 0.9593701362609863
","x: 274.456298828125
y: 201.45870971679688
z: -0.6649332046508789
visibility: 0.9954851269721985
","x: 157.74754333496094
y: 293.36492919921875
z: -0.11784479767084122
visibility: 0.98282790184021
","x: 271.43701171875
y: 197.42967224121094
z: -0.719680666923523
visibility: 0.9888805150985718
","x: 149.73130798339844
y: 303.73773193359375
z: -0.13604731857776642
visibility: 0.9659183621406555
","x: 266.8280334472656
y: 194.71478271484375
z: -0.7100465893745422
visibility: 0.9893032908439636
","x: 149.7434539794922
y: 304.0628967285156
z: -0.17575252056121826
visibility: 0.971567690372467
","x: 267.09039306640625
y: 197.41253662109375
z: -0.6667388677597046
visibility: 0.9854663610458374
","x: 152.68756103515625
y: 302.3794250488281
z: -0.1358676701784134
visibility: 0.9697721600532532
","x: 244.1090087890625
y: 333.8069152832031
z: -0.013736585155129433
visibility: 0.9998980164527893
","x: 213.68634033203125
y: 334.4234619140625
z: 0.013732845894992352
visibility: 0.9998860955238342
","x: 258.4141845703125
y: 415.66552734375
z: -0.17070713639259338
visibility: 0.9924366474151611
","x: 199.7977752685547
y: 413.53369140625
z: -0.17046940326690674
visibility: 0.9898468852043152
","x: 253.55686950683594
y: 497.66802978515625
z: 0.0415358766913414
visibility: 0.9949177503585815
","x: 206.8026580810547
y: 503.4757995605469
z: 0.07545064389705658
visibility: 0.986045777797699
","x: 250.2133331298828
y: 506.2122802734375
z: 0.06243891641497612
visibility: 0.9199294447898865
","x: 213.19313049316406
y: 512.7623291015625
z: 0.0913269892334938
visibility: 0.9529946446418762
","x: 254.0989532470703
y: 532.9322509765625
z: -0.04447310045361519
visibility: 0.9916438460350037
","x: 198.67648315429688
y: 538.983642578125
z: -0.049969855695962906
visibility: 0.9855322241783142
",,,,,,,,,,,,,,,,,,,,,,"x: 274.6510314941406
y: 205.08316040039062
z: 0.0
","x: 269.5205383300781
y: 206.00462341308594
z: -0.001068457611836493
","x: 264.4825744628906
y: 204.9003448486328
z: -0.0023491878528147936
","x: 261.8097229003906
y: 202.17935180664062
z: -0.004105923231691122
","x: 261.9010009765625
y: 199.08090209960938
z: -0.005120502784848213
","x: 263.8965148925781
y: 193.42201232910156
z: 0.00011407301644794643
","x: 262.3320007324219
y: 194.03160095214844
z: -0.002762662246823311
","x: 263.61041259765625
y: 198.92575073242188
z: -0.0035124490968883038
","x: 264.8740539550781
y: 200.84262084960938
z: -0.003525190055370331
","x: 266.41522216796875
y: 190.65304565429688
z: -0.0011439636582508683
","x: 265.21429443359375
y: 192.1536102294922
z: -0.003982230555266142
","x: 266.4400329589844
y: 197.60897827148438
z: -0.003586758393794298
","x: 267.52093505859375
y: 199.188232421875
z: -0.0027359912637621164
","x: 269.0115661621094
y: 189.42457580566406
z: -0.00300204218365252
","x: 268.0611572265625
y: 191.30709838867188
z: -0.005874411202967167
","x: 268.9958801269531
y: 196.37306213378906
z: -0.004690953996032476
","x: 269.85882568359375
y: 197.43331909179688
z: -0.003166448324918747
","x: 271.7091979980469
y: 189.128662109375
z: -0.0051554106175899506
","x: 270.8096008300781
y: 191.03253173828125
z: -0.0064682732336223125
","x: 271.4266357421875
y: 194.9832000732422
z: -0.005525751505047083
","x: 272.05010986328125
y: 195.76795959472656
z: -0.0042812032625079155
"
16,"x: 221.7827606201172
y: 171.4544677734375
z: -0.44451984763145447
visibility: 0.999982476234436
","x: 224.5294189453125
y: 162.6630401611328
z: -0.4430620074272156
visibility: 0.9999353289604187
","x: 226.3209228515625
y: 162.22479248046875
z: -0.44310006499290466
visibility: 0.9999464750289917
","x: 228.0901641845703
y: 161.83164978027344
z: -0.4431172311306
visibility: 0.9999461770057678
","x: 219.53616333007812
y: 162.7860107421875
z: -0.4231444299221039
visibility: 0.9999052882194519
","x: 217.88815307617188
y: 162.39874267578125
z: -0.42309507727622986
visibility: 0.9998847842216492
","x: 216.4423065185547
y: 161.94129943847656
z: -0.42306265234947205
visibility: 0.9998737573623657
","x: 230.71212768554688
y: 162.0631103515625
z: -0.3113154172897339
visibility: 0.9999563694000244
","x: 214.2657470703125
y: 162.64987182617188
z: -0.2622244954109192
visibility: 0.9997668862342834
","x: 224.45556640625
y: 179.33340454101562
z: -0.4034200608730316
visibility: 0.9999716877937317
","x: 218.3690643310547
y: 179.2398681640625
z: -0.37872153520584106
visibility: 0.9999362230300903
","x: 249.0625762939453
y: 197.7182159423828
z: -0.23374049365520477
visibility: 0.9999969601631165
","x: 200.84413146972656
y: 204.224365234375
z: -0.09999896585941315
visibility: 0.999903678894043
","x: 282.8974304199219
y: 219.65817260742188
z: -0.4317445158958435
visibility: 0.9990200400352478
","x: 182.58016967773438
y: 255.2102508544922
z: 0.009013280272483826
visibility: 0.9624113440513611
","x: 275.81201171875
y: 195.1712188720703
z: -0.6880484223365784
visibility: 0.9957666993141174
","x: 157.04127502441406
y: 292.1983947753906
z: -0.05906548351049423
visibility: 0.9839620590209961
","x: 273.8230285644531
y: 187.73385620117188
z: -0.7395660877227783
visibility: 0.9891946911811829
","x: 148.7420654296875
y: 302.53521728515625
z: -0.07016834616661072
visibility: 0.9675279259681702
","x: 269.3419189453125
y: 184.95654296875
z: -0.7269980311393738
visibility: 0.9894999265670776
","x: 148.65518188476562
y: 302.5980529785156
z: -0.11601205170154572
visibility: 0.9728444814682007
","x: 269.2970886230469
y: 188.3548126220703
z: -0.6885511875152588
visibility: 0.9854418635368347
","x: 151.60296630859375
y: 300.6731872558594
z: -0.0794295221567154
visibility: 0.9710261225700378
","x: 243.07574462890625
y: 330.7340087890625
z: -0.04385310038924217
visibility: 0.9998981952667236
","x: 214.5808868408203
y: 331.9106750488281
z: 0.04386702924966812
visibility: 0.9998936653137207
","x: 252.39712524414062
y: 413.82763671875
z: 0.028215518221259117
visibility: 0.9929984211921692
","x: 206.03086853027344
y: 414.9937438964844
z: -0.04368411377072334
visibility: 0.9906805157661438
","x: 258.9821472167969
y: 496.1494140625
z: 0.2617354989051819
visibility: 0.9952449202537537
","x: 208.9325714111328
y: 508.17059326171875
z: 0.10217456519603729
visibility: 0.9873230457305908
","x: 262.06585693359375
y: 505.4100341796875
z: 0.2770520746707916
visibility: 0.9192789196968079
","x: 214.92311096191406
y: 518.919189453125
z: 0.09557589888572693
visibility: 0.9560414552688599
","x: 251.3211212158203
y: 531.3326416015625
z: 0.12817303836345673
visibility: 0.9921610355377197
","x: 197.7625274658203
y: 539.828857421875
z: -0.021678948774933815
visibility: 0.9868135452270508
",,,,,,,,,,,,,,,,,,,,,,"x: 276.0269775390625
y: 190.24227905273438
z: 0.0
","x: 271.5981750488281
y: 192.5171661376953
z: -0.002847237978130579
","x: 267.0284423828125
y: 192.55352783203125
z: -0.005921644624322653
","x: 264.6811218261719
y: 190.4173583984375
z: -0.009294499643146992
","x: 265.0437927246094
y: 186.31304931640625
z: -0.011816541664302349
","x: 263.92822265625
y: 176.82254028320312
z: -0.0026986992452293634
","x: 262.95733642578125
y: 178.2901611328125
z: -0.007433550897985697
","x: 264.53314208984375
y: 184.29063415527344
z: -0.009323510341346264
","x: 265.8251037597656
y: 187.0634765625
z: -0.009987830184400082
","x: 266.6800537109375
y: 173.15345764160156
z: -0.0041523464024066925
","x: 266.31195068359375
y: 176.349365234375
z: -0.00867614895105362
","x: 267.9458923339844
y: 182.75741577148438
z: -0.008803210221230984
","x: 268.84259033203125
y: 184.7061309814453
z: -0.008280887268483639
","x: 269.99676513671875
y: 171.424560546875
z: -0.006436959374696016
","x: 269.523193359375
y: 175.10470581054688
z: -0.010652695782482624
","x: 270.7181701660156
y: 180.72401428222656
z: -0.00956815481185913
","x: 271.15472412109375
y: 182.41647338867188
z: -0.008069946430623531
","x: 273.5132751464844
y: 171.1156463623047
z: -0.009211873635649681
","x: 272.7667236328125
y: 173.9810333251953
z: -0.011450991034507751
","x: 273.2242431640625
y: 178.17543029785156
z: -0.010568613186478615
","x: 273.38812255859375
y: 179.52252197265625
z: -0.009355643764138222
"
17,"x: 221.7827606201172
y: 171.4544677734375
z: -0.44451984763145447
visibility: 0.999982476234436
","x: 224.5294189453125
y: 162.6630401611328
z: -0.4430620074272156
visibility: 0.9999353289604187
","x: 226.3209228515625
y: 162.22479248046875
z: -0.44310006499290466
visibility: 0.9999464750289917
","x: 228.0901641845703
y: 161.83164978027344
z: -0.4431172311306
visibility: 0.9999461770057678
","x: 219.53616333007812
y: 162.7860107421875
z: -0.4231444299221039
visibility: 0.9999052882194519
","x: 217.88815307617188
y: 162.39874267578125
z: -0.42309507727622986
visibility: 0.9998847842216492
","x: 216.4423065185547
y: 161.94129943847656
z: -0.42306265234947205
visibility: 0.9998737573623657
","x: 230.71212768554688
y: 162.0631103515625
z: -0.3113154172897339
visibility: 0.9999563694000244
","x: 214.2657470703125
y: 162.64987182617188
z: -0.2622244954109192
visibility: 0.9997668862342834
","x: 224.45556640625
y: 179.33340454101562
z: -0.4034200608730316
visibility: 0.9999716877937317
","x: 218.3690643310547
y: 179.2398681640625
z: -0.37872153520584106
visibility: 0.9999362230300903
","x: 249.0625762939453
y: 197.7182159423828
z: -0.23374049365520477
visibility: 0.9999969601631165
","x: 200.84413146972656
y: 204.224365234375
z: -0.09999896585941315
visibility: 0.999903678894043
","x: 282.8974304199219
y: 219.65817260742188
z: -0.4317445158958435
visibility: 0.9990200400352478
","x: 182.58016967773438
y: 255.2102508544922
z: 0.009013280272483826
visibility: 0.9624113440513611
","x: 275.81201171875
y: 195.1712188720703
z: -0.6880484223365784
visibility: 0.9957666993141174
","x: 157.04127502441406
y: 292.1983947753906
z: -0.05906548351049423
visibility: 0.9839620590209961
","x: 273.8230285644531
y: 187.73385620117188
z: -0.7395660877227783
visibility: 0.9891946911811829
","x: 148.7420654296875
y: 302.53521728515625
z: -0.07016834616661072
visibility: 0.9675279259681702
","x: 269.3419189453125
y: 184.95654296875
z: -0.7269980311393738
visibility: 0.9894999265670776
","x: 148.65518188476562
y: 302.5980529785156
z: -0.11601205170154572
visibility: 0.9728444814682007
","x: 269.2970886230469
y: 188.3548126220703
z: -0.6885511875152588
visibility: 0.9854418635368347
","x: 151.60296630859375
y: 300.6731872558594
z: -0.0794295221567154
visibility: 0.9710261225700378
","x: 243.07574462890625
y: 330.7340087890625
z: -0.04385310038924217
visibility: 0.9998981952667236
","x: 214.5808868408203
y: 331.9106750488281
z: 0.04386702924966812
visibility: 0.9998936653137207
","x: 252.39712524414062
y: 413.82763671875
z: 0.028215518221259117
visibility: 0.9929984211921692
","x: 206.03086853027344
y: 414.9937438964844
z: -0.04368411377072334
visibility: 0.9906805157661438
","x: 258.9821472167969
y: 496.1494140625
z: 0.2617354989051819
visibility: 0.9952449202537537
","x: 208.9325714111328
y: 508.17059326171875
z: 0.10217456519603729
visibility: 0.9873230457305908
","x: 262.06585693359375
y: 505.4100341796875
z: 0.2770520746707916
visibility: 0.9192789196968079
","x: 214.92311096191406
y: 518.919189453125
z: 0.09557589888572693
visibility: 0.9560414552688599
","x: 251.3211212158203
y: 531.3326416015625
z: 0.12817303836345673
visibility: 0.9921610355377197
","x: 197.7625274658203
y: 539.828857421875
z: -0.021678948774933815
visibility: 0.9868135452270508
",,,,,,,,,,,,,,,,,,,,,,"x: 276.0269775390625
y: 190.24227905273438
z: 0.0
","x: 271.5981750488281
y: 192.5171661376953
z: -0.002847237978130579
","x: 267.0284423828125
y: 192.55352783203125
z: -0.005921644624322653
","x: 264.6811218261719
y: 190.4173583984375
z: -0.009294499643146992
","x: 265.0437927246094
y: 186.31304931640625
z: -0.011816541664302349
","x: 263.92822265625
y: 176.82254028320312
z: -0.0026986992452293634
","x: 262.95733642578125
y: 178.2901611328125
z: -0.007433550897985697
","x: 264.53314208984375
y: 184.29063415527344
z: -0.009323510341346264
","x: 265.8251037597656
y: 187.0634765625
z: -0.009987830184400082
","x: 266.6800537109375
y: 173.15345764160156
z: -0.0041523464024066925
","x: 266.31195068359375
y: 176.349365234375
z: -0.00867614895105362
","x: 267.9458923339844
y: 182.75741577148438
z: -0.008803210221230984
","x: 268.84259033203125
y: 184.7061309814453
z: -0.008280887268483639
","x: 269.99676513671875
y: 171.424560546875
z: -0.006436959374696016
","x: 269.523193359375
y: 175.10470581054688
z: -0.010652695782482624
","x: 270.7181701660156
y: 180.72401428222656
z: -0.00956815481185913
","x: 271.15472412109375
y: 182.41647338867188
z: -0.008069946430623531
","x: 273.5132751464844
y: 171.1156463623047
z: -0.009211873635649681
","x: 272.7667236328125
y: 173.9810333251953
z: -0.011450991034507751
","x: 273.2242431640625
y: 178.17543029785156
z: -0.010568613186478615
","x: 273.38812255859375
y: 179.52252197265625
z: -0.009355643764138222
"
18,"x: 223.411865234375
y: 163.2964324951172
z: -0.4426640570163727
visibility: 0.999983549118042
","x: 226.19229125976562
y: 153.59820556640625
z: -0.4357057511806488
visibility: 0.999939501285553
","x: 227.88587951660156
y: 153.18490600585938
z: -0.43570685386657715
visibility: 0.9999502301216125
","x: 229.56060791015625
y: 152.75982666015625
z: -0.43571537733078003
visibility: 0.9999497532844543
","x: 221.10980224609375
y: 153.65185546875
z: -0.4196673333644867
visibility: 0.9999111294746399
","x: 219.402587890625
y: 153.3299560546875
z: -0.4196498394012451
visibility: 0.9998924732208252
","x: 217.71751403808594
y: 152.86077880859375
z: -0.41960686445236206
visibility: 0.9998811483383179
","x: 231.74365234375
y: 152.0511474609375
z: -0.31086307764053345
visibility: 0.9999592900276184
","x: 214.93809509277344
y: 152.84878540039062
z: -0.26262569427490234
visibility: 0.9997862577438354
","x: 226.14315795898438
y: 171.1414337158203
z: -0.39736050367355347
visibility: 0.9999739527702332
","x: 219.9576416015625
y: 171.4647674560547
z: -0.37728452682495117
visibility: 0.9999415874481201
","x: 251.43911743164062
y: 190.64730834960938
z: -0.2177135944366455
visibility: 0.9999969005584717
","x: 201.54226684570312
y: 195.87937927246094
z: -0.10268088430166245
visibility: 0.9999110102653503
","x: 282.3271484375
y: 223.92112731933594
z: -0.39337942004203796
visibility: 0.9990857839584351
","x: 187.5543670654297
y: 253.06593322753906
z: 0.0052749100141227245
visibility: 0.9641813039779663
","x: 274.7021179199219
y: 178.49002075195312
z: -0.6465529203414917
visibility: 0.9960685968399048
","x: 160.58804321289062
y: 284.4582824707031
z: -0.071966752409935
visibility: 0.9844419956207275
","x: 271.8487548828125
y: 164.5781707763672
z: -0.6983378529548645
visibility: 0.9897196888923645
","x: 151.70481872558594
y: 295.3264465332031
z: -0.08583377301692963
visibility: 0.9681176543235779
","x: 268.4511413574219
y: 161.15419006347656
z: -0.6913400292396545
visibility: 0.989955723285675
","x: 150.81422424316406
y: 293.41119384765625
z: -0.13357491791248322
visibility: 0.9732930660247803
","x: 268.08294677734375
y: 166.39523315429688
z: -0.6493893265724182
visibility: 0.9859195351600647
","x: 154.43966674804688
y: 290.39862060546875
z: -0.09341079741716385
visibility: 0.9712653756141663
","x: 244.57688903808594
y: 326.3011474609375
z: -0.04135147109627724
visibility: 0.9998946189880371
","x: 215.43292236328125
y: 327.9886474609375
z: 0.041350819170475006
visibility: 0.9998871088027954
","x: 253.53887939453125
y: 412.7792663574219
z: -0.00579349510371685
visibility: 0.9935764074325562
","x: 210.3955078125
y: 415.488037109375
z: 0.02430346980690956
visibility: 0.9914199709892273
","x: 260.7497863769531
y: 494.9707336425781
z: 0.2101554423570633
visibility: 0.9955726265907288
","x: 207.90988159179688
y: 506.41619873046875
z: 0.2065151184797287
visibility: 0.988446831703186
","x: 264.25390625
y: 504.1869812011719
z: 0.22348937392234802
visibility: 0.920845091342926
","x: 213.09730529785156
y: 516.8905029296875
z: 0.21507975459098816
visibility: 0.9577657580375671
","x: 251.10940551757812
y: 529.8494262695312
z: 0.0715145543217659
visibility: 0.9926576614379883
","x: 198.83102416992188
y: 538.6281127929688
z: 0.07482890784740448
visibility: 0.9879026412963867
","x: 158.35430908203125
y: 282.6251525878906
z: 0.0
","x: 153.19815063476562
y: 281.92486572265625
z: 0.0002185473422287032
","x: 148.80755615234375
y: 283.6703186035156
z: -3.1341616704594344e-05
","x: 145.90805053710938
y: 288.0551452636719
z: -0.0014056800864636898
","x: 143.97779846191406
y: 291.8293151855469
z: -0.0019257032545283437
","x: 144.0098876953125
y: 288.0846862792969
z: 0.0033141779713332653
","x: 138.48622131347656
y: 292.4203796386719
z: 0.0009309205343015492
","x: 139.6875
y: 291.0413513183594
z: 0.0005363778327591717
","x: 141.9466552734375
y: 288.7342529296875
z: 0.0010224601719528437
","x: 145.19454956054688
y: 292.0078430175781
z: 0.001481237937696278
","x: 140.35043334960938
y: 296.10675048828125
z: -0.0008719686302356422
","x: 142.45297241210938
y: 293.83856201171875
z: -0.0008448836742900312
","x: 145.2538299560547
y: 291.05853271484375
z: 0.00023323023924604058
","x: 147.09561157226562
y: 295.5603332519531
z: -0.0010492614237591624
","x: 143.9517364501953
y: 298.6898498535156
z: -0.0030114902183413506
","x: 146.1421661376953
y: 296.1715393066406
z: -0.002021442400291562
","x: 148.45755004882812
y: 293.6986999511719
z: -0.0004273149825166911
","x: 149.5845947265625
y: 299.19403076171875
z: -0.004008318297564983
","x: 146.80491638183594
y: 302.2326965332031
z: -0.004818255547434092
","x: 147.69342041015625
y: 301.005126953125
z: -0.0039024173747748137
","x: 149.23753356933594
y: 299.2065124511719
z: -0.0024993938859552145
","x: 273.70672607421875
y: 173.84677124023438
z: 0.0
","x: 267.79876708984375
y: 171.18186950683594
z: -0.0009226474794559181
","x: 263.0074157714844
y: 166.745361328125
z: -0.002322580898180604
","x: 261.1866149902344
y: 160.6851806640625
z: -0.0049201552756130695
","x: 262.03778076171875
y: 155.4371337890625
z: -0.006634801160544157
","x: 263.0375671386719
y: 153.52674865722656
z: 0.0018040218856185675
","x: 261.05224609375
y: 146.79232788085938
z: -0.0019856516737490892
","x: 262.1400451660156
y: 153.3963623046875
z: -0.0030100480653345585
","x: 263.42852783203125
y: 158.42393493652344
z: -0.002942650578916073
","x: 265.7903747558594
y: 151.62144470214844
z: -0.0005365526303648949
","x: 264.0194091796875
y: 145.8456268310547
z: -0.004458594601601362
","x: 265.134765625
y: 153.69871520996094
z: -0.004609744995832443
","x: 266.412353515625
y: 158.78297424316406
z: -0.0035160360857844353
","x: 268.79876708984375
y: 150.686767578125
z: -0.0037573780864477158
","x: 266.9974060058594
y: 145.53439331054688
z: -0.007294415961951017
","x: 267.6942138671875
y: 152.95529174804688
z: -0.005591311026364565
","x: 268.8754577636719
y: 158.0751190185547
z: -0.003395071253180504
","x: 272.0387878417969
y: 150.6775665283203
z: -0.0075075882486999035
","x: 270.27923583984375
y: 145.57406616210938
z: -0.008675017394125462
","x: 270.2370300292969
y: 150.93089294433594
z: -0.006828775629401207
","x: 271.02276611328125
y: 155.88685607910156
z: -0.004760740790516138
"
19,"x: 223.411865234375
y: 163.2964324951172
z: -0.4426640570163727
visibility: 0.999983549118042
","x: 226.19229125976562
y: 153.59820556640625
z: -0.4357057511806488
visibility: 0.999939501285553
","x: 227.88587951660156
y: 153.18490600585938
z: -0.43570685386657715
visibility: 0.9999502301216125
","x: 229.56060791015625
y: 152.75982666015625
z: -0.43571537733078003
visibility: 0.9999497532844543
","x: 221.10980224609375
y: 153.65185546875
z: -0.4196673333644867
visibility: 0.9999111294746399
","x: 219.402587890625
y: 153.3299560546875
z: -0.4196498394012451
visibility: 0.9998924732208252
","x: 217.71751403808594
y: 152.86077880859375
z: -0.41960686445236206
visibility: 0.9998811483383179
","x: 231.74365234375
y: 152.0511474609375
z: -0.31086307764053345
visibility: 0.9999592900276184
","x: 214.93809509277344
y: 152.84878540039062
z: -0.26262569427490234
visibility: 0.9997862577438354
","x: 226.14315795898438
y: 171.1414337158203
z: -0.39736050367355347
visibility: 0.9999739527702332
","x: 219.9576416015625
y: 171.4647674560547
z: -0.37728452682495117
visibility: 0.9999415874481201
","x: 251.43911743164062
y: 190.64730834960938
z: -0.2177135944366455
visibility: 0.9999969005584717
","x: 201.54226684570312
y: 195.87937927246094
z: -0.10268088430166245
visibility: 0.9999110102653503
","x: 282.3271484375
y: 223.92112731933594
z: -0.39337942004203796
visibility: 0.9990857839584351
","x: 187.5543670654297
y: 253.06593322753906
z: 0.0052749100141227245
visibility: 0.9641813039779663
","x: 274.7021179199219
y: 178.49002075195312
z: -0.6465529203414917
visibility: 0.9960685968399048
","x: 160.58804321289062
y: 284.4582824707031
z: -0.071966752409935
visibility: 0.9844419956207275
","x: 271.8487548828125
y: 164.5781707763672
z: -0.6983378529548645
visibility: 0.9897196888923645
","x: 151.70481872558594
y: 295.3264465332031
z: -0.08583377301692963
visibility: 0.9681176543235779
","x: 268.4511413574219
y: 161.15419006347656
z: -0.6913400292396545
visibility: 0.989955723285675
","x: 150.81422424316406
y: 293.41119384765625
z: -0.13357491791248322
visibility: 0.9732930660247803
","x: 268.08294677734375
y: 166.39523315429688
z: -0.6493893265724182
visibility: 0.9859195351600647
","x: 154.43966674804688
y: 290.39862060546875
z: -0.09341079741716385
visibility: 0.9712653756141663
","x: 244.57688903808594
y: 326.3011474609375
z: -0.04135147109627724
visibility: 0.9998946189880371
","x: 215.43292236328125
y: 327.9886474609375
z: 0.041350819170475006
visibility: 0.9998871088027954
","x: 253.53887939453125
y: 412.7792663574219
z: -0.00579349510371685
visibility: 0.9935764074325562
","x: 210.3955078125
y: 415.488037109375
z: 0.02430346980690956
visibility: 0.9914199709892273
","x: 260.7497863769531
y: 494.9707336425781
z: 0.2101554423570633
visibility: 0.9955726265907288
","x: 207.90988159179688
y: 506.41619873046875
z: 0.2065151184797287
visibility: 0.988446831703186
","x: 264.25390625
y: 504.1869812011719
z: 0.22348937392234802
visibility: 0.920845091342926
","x: 213.09730529785156
y: 516.8905029296875
z: 0.21507975459098816
visibility: 0.9577657580375671
","x: 251.10940551757812
y: 529.8494262695312
z: 0.0715145543217659
visibility: 0.9926576614379883
","x: 198.83102416992188
y: 538.6281127929688
z: 0.07482890784740448
visibility: 0.9879026412963867
","x: 158.35430908203125
y: 282.6251525878906
z: 0.0
","x: 153.19815063476562
y: 281.92486572265625
z: 0.0002185473422287032
","x: 148.80755615234375
y: 283.6703186035156
z: -3.1341616704594344e-05
","x: 145.90805053710938
y: 288.0551452636719
z: -0.0014056800864636898
","x: 143.97779846191406
y: 291.8293151855469
z: -0.0019257032545283437
","x: 144.0098876953125
y: 288.0846862792969
z: 0.0033141779713332653
","x: 138.48622131347656
y: 292.4203796386719
z: 0.0009309205343015492
","x: 139.6875
y: 291.0413513183594
z: 0.0005363778327591717
","x: 141.9466552734375
y: 288.7342529296875
z: 0.0010224601719528437
","x: 145.19454956054688
y: 292.0078430175781
z: 0.001481237937696278
","x: 140.35043334960938
y: 296.10675048828125
z: -0.0008719686302356422
","x: 142.45297241210938
y: 293.83856201171875
z: -0.0008448836742900312
","x: 145.2538299560547
y: 291.05853271484375
z: 0.00023323023924604058
","x: 147.09561157226562
y: 295.5603332519531
z: -0.0010492614237591624
","x: 143.9517364501953
y: 298.6898498535156
z: -0.0030114902183413506
","x: 146.1421661376953
y: 296.1715393066406
z: -0.002021442400291562
","x: 148.45755004882812
y: 293.6986999511719
z: -0.0004273149825166911
","x: 149.5845947265625
y: 299.19403076171875
z: -0.004008318297564983
","x: 146.80491638183594
y: 302.2326965332031
z: -0.004818255547434092
","x: 147.69342041015625
y: 301.005126953125
z: -0.0039024173747748137
","x: 149.23753356933594
y: 299.2065124511719
z: -0.0024993938859552145
","x: 273.70672607421875
y: 173.84677124023438
z: 0.0
","x: 267.79876708984375
y: 171.18186950683594
z: -0.0009226474794559181
","x: 263.0074157714844
y: 166.745361328125
z: -0.002322580898180604
","x: 261.1866149902344
y: 160.6851806640625
z: -0.0049201552756130695
","x: 262.03778076171875
y: 155.4371337890625
z: -0.006634801160544157
","x: 263.0375671386719
y: 153.52674865722656
z: 0.0018040218856185675
","x: 261.05224609375
y: 146.79232788085938
z: -0.0019856516737490892
","x: 262.1400451660156
y: 153.3963623046875
z: -0.0030100480653345585
","x: 263.42852783203125
y: 158.42393493652344
z: -0.002942650578916073
","x: 265.7903747558594
y: 151.62144470214844
z: -0.0005365526303648949
","x: 264.0194091796875
y: 145.8456268310547
z: -0.004458594601601362
","x: 265.134765625
y: 153.69871520996094
z: -0.004609744995832443
","x: 266.412353515625
y: 158.78297424316406
z: -0.0035160360857844353
","x: 268.79876708984375
y: 150.686767578125
z: -0.0037573780864477158
","x: 266.9974060058594
y: 145.53439331054688
z: -0.007294415961951017
","x: 267.6942138671875
y: 152.95529174804688
z: -0.005591311026364565
","x: 268.8754577636719
y: 158.0751190185547
z: -0.003395071253180504
","x: 272.0387878417969
y: 150.6775665283203
z: -0.0075075882486999035
","x: 270.27923583984375
y: 145.57406616210938
z: -0.008675017394125462
","x: 270.2370300292969
y: 150.93089294433594
z: -0.006828775629401207
","x: 271.02276611328125
y: 155.88685607910156
z: -0.004760740790516138
"
20,"x: 223.411865234375
y: 163.2964324951172
z: -0.4426640570163727
visibility: 0.999983549118042
","x: 226.19229125976562
y: 153.59820556640625
z: -0.4357057511806488
visibility: 0.999939501285553
","x: 227.88587951660156
y: 153.18490600585938
z: -0.43570685386657715
visibility: 0.9999502301216125
