uscmakers/ReverseChoreography/data/2_humble_kendrick_lamar.csv
,NOSE,LEFT_EYE_INNER,LEFT_EYE,LEFT_EYE_OUTER,RIGHT_EYE_INNER,RIGHT_EYE,RIGHT_EYE_OUTER,LEFT_EAR,RIGHT_EAR,MOUTH_LEFT,MOUTH_RIGHT,LEFT_SHOULDER,RIGHT_SHOULDER,LEFT_ELBOW,RIGHT_ELBOW,LEFT_WRIST,RIGHT_WRIST,LEFT_PINKY,RIGHT_PINKY,LEFT_INDEX,RIGHT_INDEX,LEFT_THUMB,RIGHT_THUMB,LEFT_HIP,RIGHT_HIP,LEFT_KNEE,RIGHT_KNEE,LEFT_ANKLE,RIGHT_ANKLE,LEFT_HEEL,RIGHT_HEEL,LEFT_FOOT_INDEX,RIGHT_FOOT_INDEX,WRIST2,THUMB_CPC2,THUMB_MCP2,THUMB_IP2,THUMB_TIP2,INDEX_FINGER_MCP2,INDEX_FINGER_PIP2,INDEX_FINGER_DIP2,INDEX_FINGER_TIP2,MIDDLE_FINGER_MCP2,MIDDLE_FINGER_PIP2,MIDDLE_FINGER_DIP2,MIDDLE_FINGER_TIP2,RING_FINGER_PIP2,RING_FINGER_DIP2,RING_FINGER_TIP2,RING_FINGER_MCP2,PINKY_MCP2,PINKY_PIP2,PINKY_DIP2,PINKY_TIP2,WRIST,THUMB_CPC,THUMB_MCP,THUMB_IP,THUMB_TIP,INDEX_FINGER_MCP,INDEX_FINGER_PIP,INDEX_FINGER_DIP,INDEX_FINGER_TIP,MIDDLE_FINGER_MCP,MIDDLE_FINGER_PIP,MIDDLE_FINGER_DIP,MIDDLE_FINGER_TIP,RING_FINGER_PIP,RING_FINGER_DIP,RING_FINGER_TIP,RING_FINGER_MCP,PINKY_MCP,PINKY_PIP,PINKY_DIP,PINKY_TIP
0,"x: 176.56396484375
y: 186.00497436523438
z: -0.31224262714385986
visibility: 0.9999810457229614
","x: 178.45448303222656
y: 178.43458557128906
z: -0.3050689101219177
visibility: 0.9999499320983887
","x: 179.9319305419922
y: 177.87644958496094
z: -0.30511274933815
visibility: 0.9999613761901855
","x: 181.52279663085938
y: 177.32699584960938
z: -0.3051498234272003
visibility: 0.9999685287475586
","x: 175.09921264648438
y: 179.50466918945312
z: -0.2890048623085022
visibility: 0.9999018907546997
","x: 174.16958618164062
y: 179.708251953125
z: -0.2889939248561859
visibility: 0.9998881816864014
","x: 173.30126953125
y: 179.90908813476562
z: -0.28893908858299255
visibility: 0.9998641014099121
","x: 185.37652587890625
y: 178.72586059570312
z: -0.2260981798171997
visibility: 0.9999691247940063
","x: 174.21975708007812
y: 181.57504272460938
z: -0.1496269404888153
visibility: 0.9995583891868591
","x: 180.5231170654297
y: 193.24826049804688
z: -0.28043287992477417
visibility: 0.9999858140945435
","x: 176.12652587890625
y: 194.59573364257812
z: -0.2587229609489441
visibility: 0.999945878982544
","x: 201.87380981445312
y: 221.19439697265625
z: -0.19034500420093536
visibility: 0.9999977350234985
","x: 173.996337890625
y: 220.17608642578125
z: -0.0007049140986055136
visibility: 0.9994925260543823
","x: 229.13250732421875
y: 262.1439208984375
z: -0.19221623241901398
visibility: 0.9996517896652222
","x: 175.6102752685547
y: 271.1853332519531
z: 0.10664220154285431
visibility: 0.6372599005699158
","x: 221.31788635253906
y: 313.2809143066406
z: -0.26412737369537354
visibility: 0.998678982257843
","x: 153.78965759277344
y: 288.6745910644531
z: -0.001129506854340434
visibility: 0.913347065448761
","x: 218.80841064453125
y: 328.9638977050781
z: -0.29635918140411377
visibility: 0.9948086738586426
","x: 146.7052459716797
y: 292.00250244140625
z: -0.02350504696369171
visibility: 0.8834145665168762
","x: 214.94468688964844
y: 323.39019775390625
z: -0.31144797801971436
visibility: 0.9950057864189148
","x: 145.3134002685547
y: 289.60986328125
z: -0.06287561357021332
visibility: 0.8969206213951111
","x: 215.23484802246094
y: 318.75360107421875
z: -0.2684733271598816
visibility: 0.9906056523323059
","x: 147.83766174316406
y: 289.00469970703125
z: -0.020446669310331345
visibility: 0.8668450713157654
","x: 204.76290893554688
y: 335.31414794921875
z: -0.045743729919195175
visibility: 0.9999086856842041
","x: 182.30992126464844
y: 335.48077392578125
z: 0.045662254095077515
visibility: 0.9995978474617004
","x: 227.1736602783203
y: 403.1331787109375
z: -0.07751151919364929
visibility: 0.9993669390678406
","x: 167.43634033203125
y: 404.89117431640625
z: -0.003547233296558261
visibility: 0.9982348680496216
","x: 259.23828125
y: 469.4327087402344
z: 0.061089228838682175
visibility: 0.9996211528778076
","x: 159.5082244873047
y: 477.9217529296875
z: 0.20848079025745392
visibility: 0.9978983402252197
","x: 264.88922119140625
y: 477.7415466308594
z: 0.0671401098370552
visibility: 0.9475367069244385
","x: 160.13983154296875
y: 486.9400634765625
z: 0.22386404871940613
visibility: 0.957400381565094
","x: 252.1025848388672
y: 507.9898376464844
z: -0.08046350628137589
visibility: 0.9985200762748718
","x: 160.83509826660156
y: 504.0585021972656
z: 0.11812625825405121
visibility: 0.9961089491844177
",,,,,,,,,,,,,,,,,,,,,,,,,,,,,,,,,,,,,,,,,,
1,"x: 185.21145629882812
y: 216.93785095214844
z: -0.31433236598968506
visibility: 0.9999720454216003
","x: 187.6822509765625
y: 207.643798828125
z: -0.3199152946472168
visibility: 0.9999287724494934
","x: 189.43051147460938
y: 206.80032348632812
z: -0.3198973834514618
visibility: 0.9999454021453857
","x: 191.21630859375
y: 205.90406799316406
z: -0.3199120759963989
visibility: 0.999954104423523
","x: 184.1993865966797
y: 208.10244750976562
z: -0.29834994673728943
visibility: 0.9998762607574463
","x: 183.53321838378906
y: 207.68426513671875
z: -0.29838472604751587
visibility: 0.9998607039451599
","x: 182.964111328125
y: 207.19073486328125
z: -0.29832562804222107
visibility: 0.9998316168785095
","x: 197.20126342773438
y: 203.66122436523438
z: -0.27901455760002136
visibility: 0.9999617338180542
","x: 185.9409637451172
y: 204.1378936767578
z: -0.17575626075267792
visibility: 0.9995054602622986
","x: 190.02789306640625
y: 222.53231811523438
z: -0.2917456030845642
visibility: 0.9999818205833435
","x: 186.17422485351562
y: 222.216064453125
z: -0.26303166151046753
visibility: 0.999928891658783
","x: 220.84579467773438
y: 237.0539093017578
z: -0.2414691001176834
visibility: 0.9999977350234985
","x: 188.46728515625
y: 232.4705810546875
z: -0.011968065053224564
visibility: 0.9995375275611877
","x: 246.9461669921875
y: 270.9502868652344
z: -0.2320077121257782
visibility: 0.9996636509895325
","x: 189.87338256835938
y: 267.2823486328125
z: 0.20122799277305603
visibility: 0.6106181740760803
","x: 239.45777893066406
y: 325.58978271484375
z: -0.24574951827526093
visibility: 0.9986876249313354
","x: 177.57948303222656
y: 290.8095397949219
z: 0.24594846367835999
visibility: 0.9076512455940247
","x: 234.42494201660156
y: 337.54327392578125
z: -0.26684117317199707
visibility: 0.9948240518569946
","x: 172.5153045654297
y: 297.7207336425781
z: 0.2570444643497467
visibility: 0.8789944052696228
","x: 231.72073364257812
y: 331.998046875
z: -0.27807265520095825
visibility: 0.9949981570243835
","x: 171.73129272460938
y: 298.6644592285156
z: 0.21813853085041046
visibility: 0.8927721381187439
","x: 232.6770782470703
y: 328.34619140625
z: -0.24635477364063263
visibility: 0.9904860258102417
","x: 173.99514770507812
y: 296.8694763183594
z: 0.23198208212852478
visibility: 0.8647576570510864
","x: 225.13099670410156
y: 345.66876220703125
z: -0.060189832001924515
visibility: 0.9998752474784851
","x: 203.37606811523438
y: 345.8846435546875
z: 0.06014364957809448
visibility: 0.9995944499969482
","x: 240.67262268066406
y: 420.2292175292969
z: -0.06849601119756699
visibility: 0.9991753697395325
","x: 183.77085876464844
y: 415.0556640625
z: -0.005071169696748257
visibility: 0.9976790547370911
","x: 271.89263916015625
y: 475.3773498535156
z: 0.052659012377262115
visibility: 0.9994975328445435
","x: 171.19754028320312
y: 479.3605041503906
z: 0.11374306678771973
visibility: 0.9977350831031799
","x: 278.3397216796875
y: 484.15948486328125
z: 0.05685684084892273
visibility: 0.9442474842071533
","x: 175.01092529296875
y: 491.3138427734375
z: 0.1192893385887146
visibility: 0.9591273665428162
","x: 262.7563171386719
y: 507.973388671875
z: -0.07116176187992096
visibility: 0.9981297850608826
","x: 160.63839721679688
y: 503.9279479980469
z: 0.029756996780633926
visibility: 0.9959352612495422
","x: 241.56248474121094
y: 333.59320068359375
z: 0.0
","x: 237.9345245361328
y: 330.24072265625
z: -0.003747212467715144
","x: 233.3740234375
y: 330.0079040527344
z: -0.005330956075340509
","x: 229.4710693359375
y: 330.3536682128906
z: -0.0061400774866342545
","x: 226.67489624023438
y: 331.0408020019531
z: -0.006541415583342314
","x: 233.8173828125
y: 341.0751647949219
z: -0.0032154012005776167
","x: 230.08096313476562
y: 346.2672119140625
z: -0.004004928283393383
","x: 227.3583526611328
y: 348.26080322265625
z: -0.004208717029541731
","x: 225.38235473632812
y: 349.5545959472656
z: -0.004160019103437662
","x: 234.57650756835938
y: 344.5738220214844
z: -0.0017630485817790031
","x: 230.6046600341797
y: 349.43353271484375
z: -0.0021188196260482073
","x: 227.6549072265625
y: 350.7170104980469
z: -0.002010107971727848
","x: 225.31109619140625
y: 351.37091064453125
z: -0.001946276635862887
","x: 234.98741149902344
y: 346.3711853027344
z: -0.0006075339042581618
","x: 231.089599609375
y: 350.3898620605469
z: -0.00135450076777488
","x: 228.4158935546875
y: 351.98760986328125
z: -0.0018315456109121442
","x: 226.3094940185547
y: 352.6229553222656
z: -0.0021140750031918287
","x: 235.18849182128906
y: 346.864990234375
z: 0.00021071225637570024
","x: 231.77420043945312
y: 350.50787353515625
z: -0.0005561545840464532
","x: 229.3633270263672
y: 352.0106201171875
z: -0.0010413436684757471
","x: 227.3355712890625
y: 352.521240234375
z: -0.001303487573750317
",,,,,,,,,,,,,,,,,,,,,
2,"x: 185.21145629882812
y: 216.93785095214844
z: -0.31433236598968506
visibility: 0.9999720454216003
","x: 187.6822509765625
y: 207.643798828125
z: -0.3199152946472168
visibility: 0.9999287724494934
","x: 189.43051147460938
y: 206.80032348632812
z: -0.3198973834514618
visibility: 0.9999454021453857
","x: 191.21630859375
y: 205.90406799316406
z: -0.3199120759963989
visibility: 0.999954104423523
","x: 184.1993865966797
y: 208.10244750976562
z: -0.29834994673728943
visibility: 0.9998762607574463
","x: 183.53321838378906
y: 207.68426513671875
z: -0.29838472604751587
visibility: 0.9998607039451599
","x: 182.964111328125
y: 207.19073486328125
z: -0.29832562804222107
visibility: 0.9998316168785095
","x: 197.20126342773438
y: 203.66122436523438
z: -0.27901455760002136
visibility: 0.9999617338180542
","x: 185.9409637451172
y: 204.1378936767578
z: -0.17575626075267792
visibility: 0.9995054602622986
","x: 190.02789306640625
y: 222.53231811523438
z: -0.2917456030845642
visibility: 0.9999818205833435
","x: 186.17422485351562
y: 222.216064453125
z: -0.26303166151046753
visibility: 0.999928891658783
","x: 220.84579467773438
y: 237.0539093017578
z: -0.2414691001176834
visibility: 0.9999977350234985
","x: 188.46728515625
y: 232.4705810546875
z: -0.011968065053224564
visibility: 0.9995375275611877
","x: 246.9461669921875
y: 270.9502868652344
z: -0.2320077121257782
visibility: 0.9996636509895325
","x: 189.87338256835938
y: 267.2823486328125
z: 0.20122799277305603
visibility: 0.6106181740760803
","x: 239.45777893066406
y: 325.58978271484375
z: -0.24574951827526093
visibility: 0.9986876249313354
","x: 177.57948303222656
y: 290.8095397949219
z: 0.24594846367835999
visibility: 0.9076512455940247
","x: 234.42494201660156
y: 337.54327392578125
z: -0.26684117317199707
visibility: 0.9948240518569946
","x: 172.5153045654297
y: 297.7207336425781
z: 0.2570444643497467
visibility: 0.8789944052696228
","x: 231.72073364257812
y: 331.998046875
z: -0.27807265520095825
visibility: 0.9949981570243835
","x: 171.73129272460938
y: 298.6644592285156
z: 0.21813853085041046
visibility: 0.8927721381187439
","x: 232.6770782470703
y: 328.34619140625
z: -0.24635477364063263
visibility: 0.9904860258102417
","x: 173.99514770507812
y: 296.8694763183594
z: 0.23198208212852478
visibility: 0.8647576570510864
","x: 225.13099670410156
y: 345.66876220703125
z: -0.060189832001924515
visibility: 0.9998752474784851
","x: 203.37606811523438
y: 345.8846435546875
z: 0.06014364957809448
visibility: 0.9995944499969482
","x: 240.67262268066406
y: 420.2292175292969
z: -0.06849601119756699
visibility: 0.9991753697395325
","x: 183.77085876464844
y: 415.0556640625
z: -0.005071169696748257
visibility: 0.9976790547370911
","x: 271.89263916015625
y: 475.3773498535156
z: 0.052659012377262115
visibility: 0.9994975328445435
","x: 171.19754028320312
y: 479.3605041503906
z: 0.11374306678771973
visibility: 0.9977350831031799
","x: 278.3397216796875
y: 484.15948486328125
z: 0.05685684084892273
visibility: 0.9442474842071533
","x: 175.01092529296875
y: 491.3138427734375
z: 0.1192893385887146
visibility: 0.9591273665428162
","x: 262.7563171386719
y: 507.973388671875
z: -0.07116176187992096
visibility: 0.9981297850608826
","x: 160.63839721679688
y: 503.9279479980469
z: 0.029756996780633926
visibility: 0.9959352612495422
","x: 241.56248474121094
y: 333.59320068359375
z: 0.0
","x: 237.9345245361328
y: 330.24072265625
z: -0.003747212467715144
","x: 233.3740234375
y: 330.0079040527344
z: -0.005330956075340509
","x: 229.4710693359375
y: 330.3536682128906
z: -0.0061400774866342545
","x: 226.67489624023438
y: 331.0408020019531
z: -0.006541415583342314
","x: 233.8173828125
y: 341.0751647949219
z: -0.0032154012005776167
","x: 230.08096313476562
y: 346.2672119140625
z: -0.004004928283393383
","x: 227.3583526611328
y: 348.26080322265625
z: -0.004208717029541731
","x: 225.38235473632812
y: 349.5545959472656
z: -0.004160019103437662
","x: 234.57650756835938
y: 344.5738220214844
z: -0.0017630485817790031
","x: 230.6046600341797
y: 349.43353271484375
z: -0.0021188196260482073
","x: 227.6549072265625
y: 350.7170104980469
z: -0.002010107971727848
","x: 225.31109619140625
y: 351.37091064453125
z: -0.001946276635862887
","x: 234.98741149902344
y: 346.3711853027344
z: -0.0006075339042581618
","x: 231.089599609375
y: 350.3898620605469
z: -0.00135450076777488
","x: 228.4158935546875
y: 351.98760986328125
z: -0.0018315456109121442
","x: 226.3094940185547
y: 352.6229553222656
z: -0.0021140750031918287
","x: 235.18849182128906
y: 346.864990234375
z: 0.00021071225637570024
","x: 231.77420043945312
y: 350.50787353515625
z: -0.0005561545840464532
","x: 229.3633270263672
y: 352.0106201171875
z: -0.0010413436684757471
","x: 227.3355712890625
y: 352.521240234375
z: -0.001303487573750317
",,,,,,,,,,,,,,,,,,,,,
3,"x: 215.64501953125
y: 206.3693084716797
z: -0.3486635386943817
visibility: 0.9999716877937317
","x: 219.66998291015625
y: 197.71282958984375
z: -0.3427509665489197
visibility: 0.9999245405197144
","x: 221.53167724609375
y: 197.05624389648438
z: -0.3426937758922577
visibility: 0.9999414682388306
","x: 223.36764526367188
y: 196.62045288085938
z: -0.34268665313720703
visibility: 0.9999495148658752
","x: 215.8372802734375
y: 199.41693115234375
z: -0.3264691233634949
visibility: 0.9998743534088135
","x: 214.97413635253906
y: 199.86575317382812
z: -0.3265209197998047
visibility: 0.9998610615730286
","x: 214.14073181152344
y: 200.42425537109375
z: -0.3264804184436798
visibility: 0.9998361468315125
","x: 227.74681091308594
y: 198.91297912597656
z: -0.2671982944011688
visibility: 0.999957799911499
","x: 215.0482940673828
y: 197.48008728027344
z: -0.1910971701145172
visibility: 0.9995311498641968
","x: 217.98651123046875
y: 212.77235412597656
z: -0.3177770972251892
visibility: 0.9999810457229614
","x: 213.63748168945312
y: 213.39419555664062
z: -0.2966341972351074
visibility: 0.9999302625656128
","x: 240.75279235839844
y: 239.779541015625
z: -0.2393631935119629
visibility: 0.9999975562095642
","x: 204.60479736328125
y: 230.0950927734375
z: -0.02487861178815365
visibility: 0.9995748400688171
","x: 267.1329650878906
y: 277.431396484375
z: -0.2595230042934418
visibility: 0.9996863603591919
","x: 192.358154296875
y: 252.35543823242188
z: 0.09064966440200806
visibility: 0.6438361406326294
","x: 250.98890686035156
y: 325.41033935546875
z: -0.31662946939468384
visibility: 0.9987507462501526
","x: 176.96116638183594
y: 274.8235778808594
z: 0.019962580874562263
visibility: 0.9157835245132446
","x: 244.1041717529297
y: 337.01043701171875
z: -0.3481888473033905
visibility: 0.9949632883071899
","x: 170.8783416748047
y: 278.63446044921875
z: 0.00819280557334423
visibility: 0.8886989951133728
","x: 241.7851104736328
y: 328.8546142578125
z: -0.3553582727909088
visibility: 0.9951083660125732
","x: 171.791259765625
y: 279.83526611328125
z: -0.018273135647177696
visibility: 0.9013059735298157
","x: 243.05963134765625
y: 327.15185546875
z: -0.3183586299419403
visibility: 0.9906418919563293
","x: 174.37332153320312
y: 279.8314514160156
z: 0.006274124141782522
visibility: 0.8758254647254944
","x: 237.2686004638672
y: 344.2511291503906
z: -0.07074801623821259
visibility: 0.9998725056648254
","x: 215.87022399902344
y: 343.9764099121094
z: 0.07064075022935867
visibility: 0.9996225237846375
","x: 244.26873779296875
y: 421.4344482421875
z: -0.10308166593313217
visibility: 0.9991899132728577
","x: 200.20382690429688
y: 413.2185363769531
z: 0.015165436081588268
visibility: 0.9976116418838501
","x: 274.6366271972656
y: 478.295654296875
z: 0.007553701288998127
visibility: 0.9995095133781433
","x: 214.088134765625
y: 478.9474792480469
z: 0.23517100512981415
visibility: 0.9977848529815674
","x: 281.98968505859375
y: 487.92010498046875
z: 0.010862918570637703
visibility: 0.9465311765670776
","x: 221.4093475341797
y: 490.33758544921875
z: 0.25057101249694824
visibility: 0.9620938301086426
","x: 263.0211181640625
y: 508.66436767578125
z: -0.12181098759174347
visibility: 0.9982067942619324
","x: 204.13961791992188
y: 505.1279296875
z: 0.17180000245571136
visibility: 0.9961100816726685
","x: 251.29832458496094
y: 328.3642883300781
z: 0.0
","x: 248.38563537597656
y: 322.8198547363281
z: -0.007231939118355513
","x: 244.28741455078125
y: 319.8843688964844
z: -0.009250341914594173
","x: 240.65924072265625
y: 317.5596923828125
z: -0.009333682246506214
","x: 237.67041015625
y: 315.5887145996094
z: -0.008852513507008553
","x: 241.72476196289062
y: 332.7883605957031
z: -0.006090715993195772
","x: 236.34011840820312
y: 335.0392150878906
z: -0.005607050843536854
","x: 233.4492950439453
y: 334.250732421875
z: -0.00467820605263114
","x: 231.58172607421875
y: 333.2833251953125
z: -0.0036306872498244047
","x: 242.37362670898438
y: 335.8932189941406
z: -0.0012304027331992984
","x: 236.81520080566406
y: 337.78619384765625
z: 0.0003792478237301111
","x: 233.93812561035156
y: 336.2632751464844
z: 0.001996528822928667
","x: 232.0541229248047
y: 334.5631408691406
z: 0.0031743233557790518
","x: 242.7217254638672
y: 337.0218200683594
z: 0.003290628083050251
","x: 238.01974487304688
y: 338.0914001464844
z: 0.004609261639416218
","x: 235.2141876220703
y: 337.34552001953125
z: 0.005062030628323555
","x: 233.37078857421875
y: 336.04656982421875
z: 0.005355569068342447
","x: 242.85336303710938
y: 336.9637756347656
z: 0.007205472327768803
","x: 239.02366638183594
y: 337.90374755859375
z: 0.008081267587840557
","x: 236.5056610107422
y: 337.32366943359375
z: 0.008275206200778484
","x: 234.80189514160156
y: 336.24554443359375
z: 0.008556189015507698
",,,,,,,,,,,,,,,,,,,,,
4,"x: 215.64501953125
y: 206.3693084716797
z: -0.3486635386943817
visibility: 0.9999716877937317
","x: 219.66998291015625
y: 197.71282958984375
z: -0.3427509665489197
visibility: 0.9999245405197144
","x: 221.53167724609375
y: 197.05624389648438
z: -0.3426937758922577
visibility: 0.9999414682388306
","x: 223.36764526367188
y: 196.62045288085938
z: -0.34268665313720703
visibility: 0.9999495148658752
","x: 215.8372802734375
y: 199.41693115234375
z: -0.3264691233634949
visibility: 0.9998743534088135
","x: 214.97413635253906
y: 199.86575317382812
z: -0.3265209197998047
visibility: 0.9998610615730286
","x: 214.14073181152344
y: 200.42425537109375
z: -0.3264804184436798
visibility: 0.9998361468315125
","x: 227.74681091308594
y: 198.91297912597656
z: -0.2671982944011688
visibility: 0.999957799911499
","x: 215.0482940673828
y: 197.48008728027344
z: -0.1910971701145172
visibility: 0.9995311498641968
","x: 217.98651123046875
y: 212.77235412597656
z: -0.3177770972251892
visibility: 0.9999810457229614
","x: 213.63748168945312
y: 213.39419555664062
z: -0.2966341972351074
visibility: 0.9999302625656128
","x: 240.75279235839844
y: 239.779541015625
z: -0.2393631935119629
visibility: 0.9999975562095642
","x: 204.60479736328125
y: 230.0950927734375
z: -0.02487861178815365
visibility: 0.9995748400688171
","x: 267.1329650878906
y: 277.431396484375
z: -0.2595230042934418
visibility: 0.9996863603591919
","x: 192.358154296875
y: 252.35543823242188
z: 0.09064966440200806
visibility: 0.6438361406326294
","x: 250.98890686035156
y: 325.41033935546875
z: -0.31662946939468384
visibility: 0.9987507462501526
","x: 176.96116638183594
y: 274.8235778808594
z: 0.019962580874562263
visibility: 0.9157835245132446
","x: 244.1041717529297
y: 337.01043701171875
z: -0.3481888473033905
visibility: 0.9949632883071899
","x: 170.8783416748047
y: 278.63446044921875
z: 0.00819280557334423
visibility: 0.8886989951133728
","x: 241.7851104736328
y: 328.8546142578125
z: -0.3553582727909088
visibility: 0.9951083660125732
","x: 171.791259765625
y: 279.83526611328125
z: -0.018273135647177696
visibility: 0.9013059735298157
","x: 243.05963134765625
y: 327.15185546875
z: -0.3183586299419403
visibility: 0.9906418919563293
","x: 174.37332153320312
y: 279.8314514160156
z: 0.006274124141782522
visibility: 0.8758254647254944
","x: 237.2686004638672
y: 344.2511291503906
z: -0.07074801623821259
visibility: 0.9998725056648254
","x: 215.87022399902344
y: 343.9764099121094
z: 0.07064075022935867
visibility: 0.9996225237846375
","x: 244.26873779296875
y: 421.4344482421875
z: -0.10308166593313217
visibility: 0.9991899132728577
","x: 200.20382690429688
y: 413.2185363769531
z: 0.015165436081588268
visibility: 0.9976116418838501
","x: 274.6366271972656
y: 478.295654296875
z: 0.007553701288998127
visibility: 0.9995095133781433
","x: 214.088134765625
y: 478.9474792480469
z: 0.23517100512981415
visibility: 0.9977848529815674
","x: 281.98968505859375
y: 487.92010498046875
z: 0.010862918570637703
visibility: 0.9465311765670776
","x: 221.4093475341797
y: 490.33758544921875
z: 0.25057101249694824
visibility: 0.9620938301086426
","x: 263.0211181640625
y: 508.66436767578125
z: -0.12181098759174347
visibility: 0.9982067942619324
","x: 204.13961791992188
y: 505.1279296875
z: 0.17180000245571136
visibility: 0.9961100816726685
","x: 251.29832458496094
y: 328.3642883300781
z: 0.0
","x: 248.38563537597656
y: 322.8198547363281
z: -0.007231939118355513
","x: 244.28741455078125
y: 319.8843688964844
z: -0.009250341914594173
","x: 240.65924072265625
y: 317.5596923828125
z: -0.009333682246506214
","x: 237.67041015625
y: 315.5887145996094
z: -0.008852513507008553
","x: 241.72476196289062
y: 332.7883605957031
z: -0.006090715993195772
","x: 236.34011840820312
y: 335.0392150878906
z: -0.005607050843536854
","x: 233.4492950439453
y: 334.250732421875
z: -0.00467820605263114
","x: 231.58172607421875
y: 333.2833251953125
z: -0.0036306872498244047
","x: 242.37362670898438
y: 335.8932189941406
z: -0.0012304027331992984
","x: 236.81520080566406
y: 337.78619384765625
z: 0.0003792478237301111
","x: 233.93812561035156
y: 336.2632751464844
z: 0.001996528822928667
","x: 232.0541229248047
y: 334.5631408691406
z: 0.0031743233557790518
","x: 242.7217254638672
y: 337.0218200683594
z: 0.003290628083050251
","x: 238.01974487304688
y: 338.0914001464844
z: 0.004609261639416218
","x: 235.2141876220703
y: 337.34552001953125
z: 0.005062030628323555
","x: 233.37078857421875
y: 336.04656982421875
z: 0.005355569068342447
","x: 242.85336303710938
y: 336.9637756347656
z: 0.007205472327768803
","x: 239.02366638183594
y: 337.90374755859375
z: 0.008081267587840557
","x: 236.5056610107422
y: 337.32366943359375
z: 0.008275206200778484
","x: 234.80189514160156
y: 336.24554443359375
z: 0.008556189015507698
",,,,,,,,,,,,,,,,,,,,,
5,"x: 238.5023193359375
y: 202.08383178710938
z: -0.375169575214386
visibility: 0.9999736547470093
","x: 240.7766571044922
y: 193.82244873046875
z: -0.36364156007766724
visibility: 0.9999288320541382
","x: 242.19143676757812
y: 193.3771514892578
z: -0.3636133074760437
visibility: 0.9999446868896484
","x: 243.5263214111328
y: 193.0989990234375
z: -0.3636384606361389
visibility: 0.9999515414237976
","x: 236.52978515625
y: 195.18984985351562
z: -0.3566131591796875
visibility: 0.9998823404312134
","x: 235.09915161132812
y: 195.67308044433594
z: -0.35664013028144836
visibility: 0.9998704195022583
","x: 233.58538818359375
y: 196.311279296875
z: -0.35659879446029663
visibility: 0.999847948551178
","x: 245.3762664794922
y: 195.39373779296875
z: -0.26332414150238037
visibility: 0.9999599456787109
","x: 230.96542358398438
y: 194.42282104492188
z: -0.22995145618915558
visibility: 0.9995724558830261
","x: 240.23855590820312
y: 208.939697265625
z: -0.33413124084472656
visibility: 0.9999820590019226
","x: 235.4853057861328
y: 209.6543731689453
z: -0.32535430788993835
visibility: 0.9999357461929321
","x: 253.81982421875
y: 243.146728515625
z: -0.22484619915485382
visibility: 0.999997615814209
","x: 215.6637725830078
y: 229.89610290527344
z: -0.06063992902636528
visibility: 0.9996129274368286
","x: 274.4359130859375
y: 291.3204345703125
z: -0.2352944314479828
visibility: 0.9996988773345947
","x: 197.25242614746094
y: 252.1533203125
z: 0.050934769213199615
visibility: 0.6768746376037598
","x: 253.4434356689453
y: 324.991943359375
z: -0.33630120754241943
visibility: 0.9988158941268921
","x: 179.45071411132812
y: 273.56707763671875
z: -0.029559558257460594
visibility: 0.9233844876289368
","x: 246.70889282226562
y: 336.22430419921875
z: -0.37358251214027405
visibility: 0.9951592683792114
","x: 173.39279174804688
y: 277.943115234375
z: -0.04767782613635063
visibility: 0.8978040814399719
","x: 244.6745147705078
y: 326.77880859375
z: -0.3813541829586029
visibility: 0.9952768087387085
","x: 174.171630859375
y: 278.4977111816406
z: -0.080886110663414
visibility: 0.9094046950340271
","x: 246.33673095703125
y: 326.771728515625
z: -0.3392769694328308
visibility: 0.990924596786499
","x: 176.6636962890625
y: 278.3645324707031
z: -0.045248184353113174
visibility: 0.8862158060073853
","x: 246.42259216308594
y: 343.3694152832031
z: -0.06657156348228455
visibility: 0.9998654723167419
","x: 224.0612030029297
y: 343.1754150390625
z: 0.06658955663442612
visibility: 0.9996510148048401
","x: 254.70643615722656
y: 420.6637268066406
z: -0.04417022317647934
visibility: 0.9991889595985413
","x: 206.78871154785156
y: 412.812744140625
z: -0.049052514135837555
visibility: 0.9976893067359924
","x: 273.9677429199219
y: 481.92010498046875
z: 0.17949680984020233
visibility: 0.999491274356842
","x: 228.98886108398438
y: 479.1009826660156
z: 0.1712290495634079
visibility: 0.9978463053703308
","x: 279.06365966796875
y: 491.60052490234375
z: 0.19485583901405334
visibility: 0.94682377576828
","x: 235.34962463378906
y: 489.76739501953125
z: 0.18699589371681213
visibility: 0.9646758437156677
","x: 263.7893371582031
y: 508.43463134765625
z: 0.07079838216304779
visibility: 0.9981954097747803
","x: 218.83837890625
y: 507.8433532714844
z: 0.0987582579255104
visibility: 0.9962514042854309
","x: 250.32308959960938
y: 329.35174560546875
z: 0.0
","x: 249.0873260498047
y: 324.6923828125
z: -0.007522254250943661
","x: 246.27711486816406
y: 321.4866943359375
z: -0.011098030023276806
","x: 243.55027770996094
y: 317.7572937011719
z: -0.013463937677443027
","x: 241.68545532226562
y: 313.0514831542969
z: -0.015524513088166714
","x: 241.79881286621094
y: 330.5845642089844
z: -0.008888489566743374
","x: 236.8150634765625
y: 329.49468994140625
z: -0.012461435049772263
","x: 233.69952392578125
y: 326.0362243652344
z: -0.014875228516757488
","x: 231.7527618408203
y: 322.62451171875
z: -0.016155626624822617
","x: 240.62913513183594
y: 332.1398620605469
z: -0.0064805191941559315
","x: 234.9906768798828
y: 330.9267883300781
z: -0.009847147390246391
","x: 231.4751739501953
y: 326.7425537109375
z: -0.012428130023181438
","x: 229.1521453857422
y: 322.3367004394531
z: -0.014195684343576431
","x: 239.90110778808594
y: 332.5078125
z: -0.004543893504887819
","x: 234.76759338378906
y: 331.23272705078125
z: -0.00754668191075325
","x: 231.8045654296875
y: 327.2256164550781
z: -0.010252914391458035
","x: 229.81349182128906
y: 323.0253601074219
z: -0.012033013626933098
","x: 239.63613891601562
y: 331.73077392578125
z: -0.0031781073193997145
","x: 235.7167510986328
y: 330.5028991699219
z: -0.0055001568980515
","x: 233.26173400878906
y: 327.8033752441406
z: -0.007337905000895262
","x: 231.5943145751953
y: 324.6686096191406
z: -0.008582180365920067
",,,,,,,,,,,,,,,,,,,,,
6,"x: 238.5023193359375
y: 202.08383178710938
z: -0.375169575214386
visibility: 0.9999736547470093
","x: 240.7766571044922
y: 193.82244873046875
z: -0.36364156007766724
visibility: 0.9999288320541382
","x: 242.19143676757812
y: 193.3771514892578
z: -0.3636133074760437
visibility: 0.9999446868896484
","x: 243.5263214111328
y: 193.0989990234375
z: -0.3636384606361389
visibility: 0.9999515414237976
","x: 236.52978515625
y: 195.18984985351562
z: -0.3566131591796875
visibility: 0.9998823404312134
","x: 235.09915161132812
y: 195.67308044433594
z: -0.35664013028144836
visibility: 0.9998704195022583
","x: 233.58538818359375
y: 196.311279296875
z: -0.35659879446029663
visibility: 0.999847948551178
","x: 245.3762664794922
y: 195.39373779296875
z: -0.26332414150238037
visibility: 0.9999599456787109
","x: 230.96542358398438
y: 194.42282104492188
z: -0.22995145618915558
visibility: 0.9995724558830261
","x: 240.23855590820312
y: 208.939697265625
z: -0.33413124084472656
visibility: 0.9999820590019226
","x: 235.4853057861328
y: 209.6543731689453
z: -0.32535430788993835
visibility: 0.9999357461929321
","x: 253.81982421875
y: 243.146728515625
z: -0.22484619915485382
visibility: 0.999997615814209
","x: 215.6637725830078
y: 229.89610290527344
z: -0.06063992902636528
visibility: 0.9996129274368286
","x: 274.4359130859375
y: 291.3204345703125
z: -0.2352944314479828
visibility: 0.9996988773345947
","x: 197.25242614746094
y: 252.1533203125
z: 0.050934769213199615
visibility: 0.6768746376037598
","x: 253.4434356689453
y: 324.991943359375
z: -0.33630120754241943
visibility: 0.9988158941268921
","x: 179.45071411132812
y: 273.56707763671875
z: -0.029559558257460594
visibility: 0.9233844876289368
","x: 246.70889282226562
y: 336.22430419921875
z: -0.37358251214027405
visibility: 0.9951592683792114
","x: 173.39279174804688
y: 277.943115234375
z: -0.04767782613635063
visibility: 0.8978040814399719
","x: 244.6745147705078
y: 326.77880859375
z: -0.3813541829586029
visibility: 0.9952768087387085
","x: 174.171630859375
y: 278.4977111816406
z: -0.080886110663414
visibility: 0.9094046950340271
","x: 246.33673095703125
y: 326.771728515625
z: -0.3392769694328308
visibility: 0.990924596786499
","x: 176.6636962890625
y: 278.3645324707031
z: -0.045248184353113174
visibility: 0.8862158060073853
","x: 246.42259216308594
y: 343.3694152832031
z: -0.06657156348228455
visibility: 0.9998654723167419
","x: 224.0612030029297
y: 343.1754150390625
z: 0.06658955663442612
visibility: 0.9996510148048401
","x: 254.70643615722656
y: 420.6637268066406
z: -0.04417022317647934
visibility: 0.9991889595985413
","x: 206.78871154785156
y: 412.812744140625
z: -0.049052514135837555
visibility: 0.9976893067359924
","x: 273.9677429199219
y: 481.92010498046875
z: 0.17949680984020233
visibility: 0.999491274356842
","x: 228.98886108398438
y: 479.1009826660156
z: 0.1712290495634079
visibility: 0.9978463053703308
","x: 279.06365966796875
y: 491.60052490234375
z: 0.19485583901405334
visibility: 0.94682377576828
","x: 235.34962463378906
y: 489.76739501953125
z: 0.18699589371681213
visibility: 0.9646758437156677
","x: 263.7893371582031
y: 508.43463134765625
z: 0.07079838216304779
visibility: 0.9981954097747803
","x: 218.83837890625
y: 507.8433532714844
z: 0.0987582579255104
visibility: 0.9962514042854309
","x: 250.32308959960938
y: 329.35174560546875
z: 0.0
","x: 249.0873260498047
y: 324.6923828125
z: -0.007522254250943661
","x: 246.27711486816406
y: 321.4866943359375
z: -0.011098030023276806
","x: 243.55027770996094
y: 317.7572937011719
z: -0.013463937677443027
","x: 241.68545532226562
y: 313.0514831542969
z: -0.015524513088166714
","x: 241.79881286621094
y: 330.5845642089844
z: -0.008888489566743374
","x: 236.8150634765625
y: 329.49468994140625
z: -0.012461435049772263
","x: 233.69952392578125
y: 326.0362243652344
z: -0.014875228516757488
","x: 231.7527618408203
y: 322.62451171875
z: -0.016155626624822617
","x: 240.62913513183594
y: 332.1398620605469
z: -0.0064805191941559315
","x: 234.9906768798828
y: 330.9267883300781
z: -0.009847147390246391
","x: 231.4751739501953
y: 326.7425537109375
z: -0.012428130023181438
","x: 229.1521453857422
y: 322.3367004394531
z: -0.014195684343576431
","x: 239.90110778808594
y: 332.5078125
z: -0.004543893504887819
","x: 234.76759338378906
y: 331.23272705078125
z: -0.00754668191075325
","x: 231.8045654296875
y: 327.2256164550781
z: -0.010252914391458035
","x: 229.81349182128906
y: 323.0253601074219
z: -0.012033013626933098
","x: 239.63613891601562
y: 331.73077392578125
z: -0.0031781073193997145
","x: 235.7167510986328
y: 330.5028991699219
z: -0.0055001568980515
","x: 233.26173400878906
y: 327.8033752441406
z: -0.007337905000895262
","x: 231.5943145751953
y: 324.6686096191406
z: -0.008582180365920067
",,,,,,,,,,,,,,,,,,,,,
7,"x: 238.9940185546875
y: 200.83523559570312
z: -0.3557736575603485
visibility: 0.9999755620956421
","x: 242.3004913330078
y: 192.59854125976562
z: -0.34458327293395996
visibility: 0.999933660030365
","x: 243.92503356933594
y: 191.8990478515625
z: -0.3445712625980377
visibility: 0.9999480247497559
","x: 245.43673706054688
y: 191.4153289794922
z: -0.34459787607192993
visibility: 0.9999538064002991
","x: 237.58502197265625
y: 194.74447631835938
z: -0.33662277460098267
visibility: 0.999890923500061
","x: 236.1532745361328
y: 194.4725799560547
z: -0.33667176961898804
visibility: 0.9998801350593567
","x: 234.76162719726562
y: 194.31597900390625
z: -0.3366607427597046
visibility: 0.9998605251312256
","x: 248.28591918945312
y: 193.40187072753906
z: -0.23459979891777039
visibility: 0.9999614357948303
","x: 233.95469665527344
y: 192.83883666992188
z: -0.20780548453330994
visibility: 0.999613344669342
","x: 241.52906799316406
y: 208.19720458984375
z: -0.3165258765220642
visibility: 0.9999831914901733
","x: 236.1765594482422
y: 208.71151733398438
z: -0.3050912618637085
visibility: 0.9999414086341858
","x: 258.2652893066406
y: 241.4547119140625
z: -0.1685227006673813
visibility: 0.9999964833259583
","x: 220.35159301757812
y: 225.15032958984375
z: -0.05244014784693718
visibility: 0.9996498823165894
","x: 268.08856201171875
y: 299.76007080078125
z: -0.1677584946155548
visibility: 0.999391496181488
","x: 198.78602600097656
y: 245.84371948242188
z: 0.07517541944980621
visibility: 0.7058004140853882
","x: 243.6107177734375
y: 316.0840148925781
z: -0.26979294419288635
visibility: 0.9982700347900391
","x: 178.7440948486328
y: 264.24041748046875
z: 0.06871233880519867
visibility: 0.9287973642349243
","x: 239.52944946289062
y: 313.3191223144531
z: -0.2960931658744812
visibility: 0.9932236671447754
","x: 171.8686981201172
y: 272.1832580566406
z: 0.059118323028087616
visibility: 0.9033395051956177
","x: 235.77085876464844
y: 306.0614013671875
z: -0.3064700961112976
visibility: 0.9932987093925476
","x: 173.17898559570312
y: 274.8564453125
z: 0.028033152222633362
visibility: 0.9142695665359497
","x: 236.87228393554688
y: 306.6284484863281
z: -0.27434346079826355
visibility: 0.9873533248901367
","x: 175.75917053222656
y: 273.79010009765625
z: 0.05533456802368164
visibility: 0.8931695818901062
","x: 251.41053771972656
y: 341.7738342285156
z: -0.030568402260541916
visibility: 0.9998440742492676
","x: 227.87213134765625
y: 338.439453125
z: 0.030450085178017616
visibility: 0.9996793866157532
","x: 263.56976318359375
y: 418.44000244140625
z: -0.05686940997838974
visibility: 0.999070942401886
","x: 206.1358184814453
y: 408.19439697265625
z: -0.19700667262077332
visibility: 0.9978375434875488
","x: 271.3437194824219
y: 481.1697692871094
z: 0.212476447224617
visibility: 0.999289870262146
","x: 223.56884765625
y: 478.4320068359375
z: 0.052260082215070724
visibility: 0.9979109764099121
","x: 276.3646545410156
y: 490.55352783203125
z: 0.23296555876731873
visibility: 0.9403936862945557
","x: 230.1401824951172
y: 486.0166931152344
z: 0.07076263427734375
visibility: 0.9657179713249207
","x: 268.9066162109375
y: 508.2621765136719
z: 0.10061420500278473
visibility: 0.9978424310684204
","x: 220.76084899902344
y: 509.1110534667969
z: -0.052034277468919754
visibility: 0.9963774681091309
","x: 239.81619262695312
y: 315.0350341796875
z: 0.0
","x: 240.1251983642578
y: 309.769775390625
z: -0.00893463660031557
","x: 238.8870849609375
y: 303.0888671875
z: -0.013217367231845856
","x: 237.90040588378906
y: 297.65875244140625
z: -0.015465455129742622
","x: 237.37374877929688
y: 293.322998046875
z: -0.017271410673856735
","x: 232.5716094970703
y: 307.99774169921875
z: -0.012312381528317928
","x: 227.74169921875
y: 304.9198913574219
z: -0.015892960131168365
","x: 224.7825927734375
y: 301.1976013183594
z: -0.017989283427596092
","x: 222.65306091308594
y: 298.1376953125
z: -0.019082291051745415
","x: 231.09332275390625
y: 309.8216552734375
z: -0.008481725119054317
","x: 226.20559692382812
y: 305.8958740234375
z: -0.012099617160856724
","x: 223.3226776123047
y: 301.2838439941406
z: -0.014214974828064442
","x: 221.26246643066406
y: 296.9149475097656
z: -0.015572184696793556
","x: 230.37957763671875
y: 310.28912353515625
z: -0.004907127469778061
","x: 226.28248596191406
y: 306.25146484375
z: -0.008188411593437195
","x: 223.6840057373047
y: 302.2481689453125
z: -0.010859938338398933
","x: 221.70860290527344
y: 298.42803955078125
z: -0.012471387162804604
","x: 230.275390625
y: 310.2957763671875
z: -0.0018638906767591834
","x: 226.9285125732422
y: 306.9659729003906
z: -0.0040187896229326725
","x: 224.6432342529297
y: 303.9765930175781
z: -0.00584366312250495
","x: 223.03585815429688
y: 300.9765930175781
z: -0.007136561442166567
",,,,,,,,,,,,,,,,,,,,,
8,"x: 238.9940185546875
y: 200.83523559570312
z: -0.3557736575603485
visibility: 0.9999755620956421
","x: 242.3004913330078
y: 192.59854125976562
z: -0.34458327293395996
visibility: 0.999933660030365
","x: 243.92503356933594
y: 191.8990478515625
z: -0.3445712625980377
visibility: 0.9999480247497559
","x: 245.43673706054688
y: 191.4153289794922
z: -0.34459787607192993
visibility: 0.9999538064002991
","x: 237.58502197265625
y: 194.74447631835938
z: -0.33662277460098267
visibility: 0.999890923500061
","x: 236.1532745361328
y: 194.4725799560547
z: -0.33667176961898804
visibility: 0.9998801350593567
","x: 234.76162719726562
y: 194.31597900390625
z: -0.3366607427597046
visibility: 0.9998605251312256
","x: 248.28591918945312
y: 193.40187072753906
z: -0.23459979891777039
visibility: 0.9999614357948303
","x: 233.95469665527344
y: 192.83883666992188
z: -0.20780548453330994
visibility: 0.999613344669342
","x: 241.52906799316406
y: 208.19720458984375
z: -0.3165258765220642
visibility: 0.9999831914901733
","x: 236.1765594482422
y: 208.71151733398438
z: -0.3050912618637085
visibility: 0.9999414086341858
","x: 258.2652893066406
y: 241.4547119140625
z: -0.1685227006673813
visibility: 0.9999964833259583
","x: 220.35159301757812
y: 225.15032958984375
z: -0.05244014784693718
visibility: 0.9996498823165894
","x: 268.08856201171875
y: 299.76007080078125
z: -0.1677584946155548
visibility: 0.999391496181488
","x: 198.78602600097656
y: 245.84371948242188
z: 0.07517541944980621
visibility: 0.7058004140853882
","x: 243.6107177734375
y: 316.0840148925781
z: -0.26979294419288635
visibility: 0.9982700347900391
","x: 178.7440948486328
y: 264.24041748046875
z: 0.06871233880519867
visibility: 0.9287973642349243
","x: 239.52944946289062
y: 313.3191223144531
z: -0.2960931658744812
visibility: 0.9932236671447754
","x: 171.8686981201172
y: 272.1832580566406
z: 0.059118323028087616
visibility: 0.9033395051956177
","x: 235.77085876464844
y: 306.0614013671875
z: -0.3064700961112976
visibility: 0.9932987093925476
","x: 173.17898559570312
y: 274.8564453125
z: 0.028033152222633362
visibility: 0.9142695665359497
","x: 236.87228393554688
y: 306.6284484863281
z: -0.27434346079826355
visibility: 0.9873533248901367
","x: 175.75917053222656
y: 273.79010009765625
z: 0.05533456802368164
visibility: 0.8931695818901062
","x: 251.41053771972656
y: 341.7738342285156
z: -0.030568402260541916
visibility: 0.9998440742492676
","x: 227.87213134765625
y: 338.439453125
z: 0.030450085178017616
visibility: 0.9996793866157532
","x: 263.56976318359375
y: 418.44000244140625
z: -0.05686940997838974
visibility: 0.999070942401886
","x: 206.1358184814453
y: 408.19439697265625
z: -0.19700667262077332
visibility: 0.9978375434875488
","x: 271.3437194824219
y: 481.1697692871094
z: 0.212476447224617
visibility: 0.999289870262146
","x: 223.56884765625
y: 478.4320068359375
z: 0.052260082215070724
visibility: 0.9979109764099121
","x: 276.3646545410156
y: 490.55352783203125
z: 0.23296555876731873
visibility: 0.9403936862945557
","x: 230.1401824951172
y: 486.0166931152344
z: 0.07076263427734375
visibility: 0.9657179713249207
","x: 268.9066162109375
y: 508.2621765136719
z: 0.10061420500278473
visibility: 0.9978424310684204
","x: 220.76084899902344
y: 509.1110534667969
z: -0.052034277468919754
visibility: 0.9963774681091309
","x: 239.81619262695312
y: 315.0350341796875
z: 0.0
","x: 240.1251983642578
y: 309.769775390625
z: -0.00893463660031557
","x: 238.8870849609375
y: 303.0888671875
z: -0.013217367231845856
","x: 237.90040588378906
y: 297.65875244140625
z: -0.015465455129742622
","x: 237.37374877929688
y: 293.322998046875
z: -0.017271410673856735
","x: 232.5716094970703
y: 307.99774169921875
z: -0.012312381528317928
","x: 227.74169921875
y: 304.9198913574219
z: -0.015892960131168365
","x: 224.7825927734375
y: 301.1976013183594
z: -0.017989283427596092
","x: 222.65306091308594
y: 298.1376953125
z: -0.019082291051745415
","x: 231.09332275390625
y: 309.8216552734375
z: -0.008481725119054317
","x: 226.20559692382812
y: 305.8958740234375
z: -0.012099617160856724
","x: 223.3226776123047
y: 301.2838439941406
z: -0.014214974828064442
","x: 221.26246643066406
y: 296.9149475097656
z: -0.015572184696793556
","x: 230.37957763671875
y: 310.28912353515625
z: -0.004907127469778061
","x: 226.28248596191406
y: 306.25146484375
z: -0.008188411593437195
","x: 223.6840057373047
y: 302.2481689453125
z: -0.010859938338398933
","x: 221.70860290527344
y: 298.42803955078125
z: -0.012471387162804604
","x: 230.275390625
y: 310.2957763671875
z: -0.0018638906767591834
","x: 226.9285125732422
y: 306.9659729003906
z: -0.0040187896229326725
","x: 224.6432342529297
y: 303.9765930175781
z: -0.00584366312250495
","x: 223.03585815429688
y: 300.9765930175781
z: -0.007136561442166567
",,,,,,,,,,,,,,,,,,,,,
9,"x: 235.64735412597656
y: 197.7163543701172
z: -0.2891889810562134
visibility: 0.9999518990516663
","x: 238.56982421875
y: 190.08140563964844
z: -0.2775248885154724
visibility: 0.9998687505722046
","x: 240.09207153320312
y: 189.65135192871094
z: -0.2775391638278961
visibility: 0.9998705387115479
","x: 241.73760986328125
y: 189.3838653564453
z: -0.2775697708129883
visibility: 0.9998807907104492
","x: 234.8461151123047
y: 191.59628295898438
z: -0.26820749044418335
visibility: 0.9998008608818054
","x: 233.85684204101562
y: 191.37783813476562
z: -0.26823878288269043
visibility: 0.9997590780258179
","x: 232.93380737304688
y: 191.31285095214844
z: -0.2682897448539734
visibility: 0.9997501969337463
","x: 246.6057891845703
y: 192.31361389160156
z: -0.1790960282087326
visibility: 0.9998416304588318
","x: 234.0662841796875
y: 191.6173553466797
z: -0.13891199231147766
visibility: 0.9994272589683533
","x: 239.09278869628906
y: 205.0501708984375
z: -0.250775545835495
visibility: 0.9999620914459229
","x: 234.38868713378906
y: 204.66616821289062
z: -0.2393028438091278
visibility: 0.9999200701713562
","x: 259.6798095703125
y: 239.6544189453125
z: -0.127213254570961
visibility: 0.9999743103981018
","x: 223.05332946777344
y: 223.36572265625
z: -0.05162046477198601
visibility: 0.9996708631515503
","x: 259.7355041503906
y: 302.51934814453125
z: -0.17855025827884674
visibility: 0.9983678460121155
","x: 199.5944366455078
y: 239.9936065673828
z: 0.03548704460263252
visibility: 0.7324768304824829
","x: 232.45526123046875
y: 294.25897216796875
z: -0.3183974325656891
visibility: 0.997434675693512
","x: 177.69561767578125
y: 252.2060546875
z: -0.07825978100299835
visibility: 0.9326975345611572
","x: 226.6111297607422
y: 288.62469482421875
z: -0.35779380798339844
visibility: 0.991308867931366
","x: 169.84500122070312
y: 259.5382385253906
z: -0.10643130540847778
visibility: 0.9069337844848633
","x: 226.28343200683594
y: 281.04864501953125
z: -0.35964083671569824
visibility: 0.9913406372070312
","x: 170.9910125732422
y: 261.4499206542969
z: -0.1358732283115387
visibility: 0.9173569083213806
","x: 228.23239135742188
y: 282.0004577636719
z: -0.3209250271320343
visibility: 0.9837397336959839
","x: 173.73037719726562
y: 260.6399230957031
z: -0.0947318896651268
visibility: 0.8978835940361023
","x: 253.10888671875
y: 341.4332275390625
z: -0.01151394285261631
visibility: 0.9998124837875366
","x: 228.1999053955078
y: 338.0741882324219
z: 0.01138143427670002
visibility: 0.9996728301048279
","x: 268.4576110839844
y: 417.8365783691406
z: -0.06289215385913849
visibility: 0.998815655708313
","x: 213.5033416748047
y: 409.5791320800781
z: -0.10651030391454697
visibility: 0.997839093208313
","x: 271.1753234863281
y: 481.3388366699219
z: 0.17371810972690582
visibility: 0.9987829327583313
","x: 214.39132690429688
y: 478.6295166015625
z: 0.12612956762313843
visibility: 0.997637152671814
","x: 265.1364440917969
y: 490.4285888671875
z: 0.19254127144813538
visibility: 0.9369898438453674
","x: 214.87045288085938
y: 486.1291198730469
z: 0.1431436538696289
visibility: 0.9598228335380554
","x: 271.24591064453125
y: 508.2455139160156
z: 0.07177998125553131
visibility: 0.9970183372497559
","x: 220.27920532226562
y: 508.0736999511719
z: 0.029177004471421242
visibility: 0.995908796787262
","x: 226.62403869628906
y: 296.38592529296875
z: 0.0
","x: 228.0666961669922
y: 290.6063537597656
z: -0.006901219021528959
","x: 228.34239196777344
y: 283.1235046386719
z: -0.00998688954859972
","x: 228.49684143066406
y: 277.150390625
z: -0.011340554803609848
","x: 229.0748748779297
y: 273.9569396972656
z: -0.012253064662218094
","x: 222.395751953125
y: 285.7768249511719
z: -0.010021795518696308
","x: 218.52154541015625
y: 280.1563720703125
z: -0.012510574422776699
","x: 216.7113037109375
y: 275.1601867675781
z: -0.01347972173243761
","x: 215.32908630371094
y: 271.04876708984375
z: -0.013782177120447159
","x: 220.46206665039062
y: 286.9965515136719
z: -0.0068817599676549435
","x: 216.95513916015625
y: 279.7772521972656
z: -0.009163381531834602
","x: 215.58822631835938
y: 274.14862060546875
z: -0.009679850190877914
","x: 214.835693359375
y: 269.3050842285156
z: -0.009912760928273201
","x: 219.54782104492188
y: 286.97314453125
z: -0.003914049826562405
","x: 216.82017517089844
y: 280.09381103515625
z: -0.0061052581295371056
","x: 215.4219207763672
y: 275.02545166015625
z: -0.007328044157475233
","x: 214.60423278808594
y: 270.5967712402344
z: -0.007971812039613724
","x: 219.36468505859375
y: 286.5030517578125
z: -0.0013893290888518095
","x: 217.18923950195312
y: 280.7418518066406
z: -0.0029551151674240828
","x: 215.83148193359375
y: 276.3154296875
z: -0.003970399033278227
","x: 215.10768127441406
y: 272.361572265625
z: -0.004575079306960106
",,,,,,,,,,,,,,,,,,,,,
10,"x: 235.64735412597656
y: 197.7163543701172
z: -0.2891889810562134
visibility: 0.9999518990516663
","x: 238.56982421875
y: 190.08140563964844
z: -0.2775248885154724
visibility: 0.9998687505722046
","x: 240.09207153320312
y: 189.65135192871094
z: -0.2775391638278961
visibility: 0.9998705387115479
","x: 241.73760986328125
y: 189.3838653564453
z: -0.2775697708129883
visibility: 0.9998807907104492
","x: 234.8461151123047
y: 191.59628295898438
z: -0.26820749044418335
visibility: 0.9998008608818054
","x: 233.85684204101562
y: 191.37783813476562
z: -0.26823878288269043
visibility: 0.9997590780258179
","x: 232.93380737304688
y: 191.31285095214844
z: -0.2682897448539734
visibility: 0.9997501969337463
","x: 246.6057891845703
y: 192.31361389160156
z: -0.1790960282087326
visibility: 0.9998416304588318
","x: 234.0662841796875
y: 191.6173553466797
z: -0.13891199231147766
visibility: 0.9994272589683533
","x: 239.09278869628906
y: 205.0501708984375
z: -0.250775545835495
visibility: 0.9999620914459229
","x: 234.38868713378906
y: 204.66616821289062
z: -0.2393028438091278
visibility: 0.9999200701713562
","x: 259.6798095703125
y: 239.6544189453125
z: -0.127213254570961
visibility: 0.9999743103981018
","x: 223.05332946777344
y: 223.36572265625
z: -0.05162046477198601
visibility: 0.9996708631515503
","x: 259.7355041503906
y: 302.51934814453125
z: -0.17855025827884674
visibility: 0.9983678460121155
","x: 199.5944366455078
y: 239.9936065673828
z: 0.03548704460263252
visibility: 0.7324768304824829
","x: 232.45526123046875
y: 294.25897216796875
z: -0.3183974325656891
visibility: 0.997434675693512
","x: 177.69561767578125
y: 252.2060546875
z: -0.07825978100299835
visibility: 0.9326975345611572
","x: 226.6111297607422
y: 288.62469482421875
z: -0.35779380798339844
visibility: 0.991308867931366
","x: 169.84500122070312
y: 259.5382385253906
z: -0.10643130540847778
visibility: 0.9069337844848633
","x: 226.28343200683594
y: 281.04864501953125
z: -0.35964083671569824
visibility: 0.9913406372070312
","x: 170.9910125732422
y: 261.4499206542969
z: -0.1358732283115387
visibility: 0.9173569083213806
","x: 228.23239135742188
y: 282.0004577636719
z: -0.3209250271320343
visibility: 0.9837397336959839
","x: 173.73037719726562
y: 260.6399230957031
z: -0.0947318896651268
visibility: 0.8978835940361023
","x: 253.10888671875
y: 341.4332275390625
z: -0.01151394285261631
visibility: 0.9998124837875366
","x: 228.1999053955078
y: 338.0741882324219
z: 0.01138143427670002
visibility: 0.9996728301048279
","x: 268.4576110839844
y: 417.8365783691406
z: -0.06289215385913849
visibility: 0.998815655708313
","x: 213.5033416748047
y: 409.5791320800781
z: -0.10651030391454697
visibility: 0.997839093208313
","x: 271.1753234863281
y: 481.3388366699219
z: 0.17371810972690582
visibility: 0.9987829327583313
","x: 214.39132690429688
y: 478.6295166015625
z: 0.12612956762313843
visibility: 0.997637152671814
","x: 265.1364440917969
y: 490.4285888671875
z: 0.19254127144813538
visibility: 0.9369898438453674
","x: 214.87045288085938
y: 486.1291198730469
z: 0.1431436538696289
visibility: 0.9598228335380554
","x: 271.24591064453125
y: 508.2455139160156
z: 0.07177998125553131
visibility: 0.9970183372497559
","x: 220.27920532226562
y: 508.0736999511719
z: 0.029177004471421242
visibility: 0.995908796787262
","x: 226.62403869628906
y: 296.38592529296875
z: 0.0
","x: 228.0666961669922
y: 290.6063537597656
z: -0.006901219021528959
","x: 228.34239196777344
y: 283.1235046386719
z: -0.00998688954859972
","x: 228.49684143066406
y: 277.150390625
z: -0.011340554803609848
","x: 229.0748748779297
y: 273.9569396972656
z: -0.012253064662218094
","x: 222.395751953125
y: 285.7768249511719
z: -0.010021795518696308
","x: 218.52154541015625
y: 280.1563720703125
z: -0.012510574422776699
","x: 216.7113037109375
y: 275.1601867675781
z: -0.01347972173243761
","x: 215.32908630371094
y: 271.04876708984375
z: -0.013782177120447159
","x: 220.46206665039062
y: 286.9965515136719
z: -0.0068817599676549435
","x: 216.95513916015625
y: 279.7772521972656
z: -0.009163381531834602
","x: 215.58822631835938
y: 274.14862060546875
z: -0.009679850190877914
","x: 214.835693359375
y: 269.3050842285156
z: -0.009912760928273201
","x: 219.54782104492188
y: 286.97314453125
z: -0.003914049826562405
","x: 216.82017517089844
y: 280.09381103515625
z: -0.0061052581295371056
","x: 215.4219207763672
y: 275.02545166015625
z: -0.007328044157475233
","x: 214.60423278808594
y: 270.5967712402344
z: -0.007971812039613724
","x: 219.36468505859375
y: 286.5030517578125
z: -0.0013893290888518095
","x: 217.18923950195312
y: 280.7418518066406
z: -0.0029551151674240828
","x: 215.83148193359375
y: 276.3154296875
z: -0.003970399033278227
","x: 215.10768127441406
y: 272.361572265625
z: -0.004575079306960106
",,,,,,,,,,,,,,,,,,,,,
11,"x: 236.855712890625
y: 199.39955139160156
z: -0.3059028387069702
visibility: 0.9999457597732544
","x: 240.03018188476562
y: 191.05474853515625
z: -0.30443626642227173
visibility: 0.9998557567596436
","x: 241.7758331298828
y: 190.46446228027344
z: -0.3044322431087494
visibility: 0.9998586177825928
","x: 243.44781494140625
y: 189.97747802734375
z: -0.3044406473636627
visibility: 0.9998659491539001
","x: 235.5755615234375
y: 192.0850830078125
z: -0.29285964369773865
visibility: 0.9997677803039551
","x: 234.29107666015625
y: 191.8427276611328
z: -0.2928944528102875
visibility: 0.9997143149375916
","x: 233.09230041503906
y: 191.63970947265625
z: -0.29296261072158813
visibility: 0.9996997714042664
","x: 247.5423126220703
y: 191.992919921875
z: -0.2126384973526001
visibility: 0.9998323917388916
","x: 232.90260314941406
y: 192.2181854248047
z: -0.16052395105361938
visibility: 0.9993654489517212
","x: 240.3687286376953
y: 207.4617156982422
z: -0.26110589504241943
visibility: 0.999958336353302
","x: 235.1641845703125
y: 207.24143981933594
z: -0.2486000955104828
visibility: 0.999913215637207
","x: 262.793212890625
y: 239.98414611816406
z: -0.1436096876859665
visibility: 0.9999730587005615
","x: 224.5030059814453
y: 222.6943817138672
z: -0.04244472458958626
visibility: 0.9996930360794067
","x: 263.3660583496094
y: 306.04827880859375
z: -0.2726586163043976
visibility: 0.9981174468994141
","x: 200.3393096923828
y: 235.20440673828125
z: 0.062340766191482544
visibility: 0.7555406093597412
","x: 235.3369903564453
y: 294.0163879394531
z: -0.4490521550178528
visibility: 0.997276246547699
","x: 177.03512573242188
y: 243.1998291015625
z: -0.03738466650247574
visibility: 0.9365051984786987
","x: 229.2943572998047
y: 288.275390625
z: -0.49081769585609436
visibility: 0.9910366535186768
","x: 168.56881713867188
y: 245.6649627685547
z: -0.07356255501508713
visibility: 0.910332977771759
","x: 229.5989990234375
y: 279.7793884277344
z: -0.4927535951137543
visibility: 0.9910472631454468
","x: 169.51092529296875
y: 248.064208984375
z: -0.10072332620620728
visibility: 0.9205455183982849
","x: 231.0956573486328
y: 280.8385009765625
z: -0.4516336917877197
visibility: 0.9830756783485413
","x: 172.56727600097656
y: 248.93267822265625
z: -0.05123217776417732
visibility: 0.9028652906417847
","x: 253.69586181640625
y: 341.331787109375
z: -0.02482670359313488
visibility: 0.9997711181640625
","x: 230.63136291503906
y: 337.7903747558594
z: 0.02470366843044758
visibility: 0.9996566772460938
","x: 258.871826171875
y: 419.2059326171875
z: -0.0056534418836236
visibility: 0.9987058043479919
","x: 225.46063232421875
y: 414.3440246582031
z: 0.015473200008273125
visibility: 0.9977890253067017
","x: 272.7896728515625
y: 482.06793212890625
z: 0.22328361868858337
visibility: 0.9986282587051392
","x: 220.6250762939453
y: 480.48870849609375
z: 0.20729775726795197
visibility: 0.9975979328155518
","x: 274.06231689453125
y: 490.5546875
z: 0.23976397514343262
visibility: 0.9298216700553894
","x: 221.51873779296875
y: 488.69140625
z: 0.22037997841835022
visibility: 0.9584199786186218
","x: 267.9940185546875
y: 509.07366943359375
z: 0.11057589948177338
visibility: 0.9967767596244812
","x: 221.61074829101562
y: 507.8623046875
z: 0.0974358469247818
visibility: 0.9959273934364319
",,,,,,,,,,,,,,,,,,,,,,,,,,,,,,,,,,,,,,,,,,
12,"x: 234.02198791503906
y: 199.01263427734375
z: -0.3123689889907837
visibility: 0.9999398589134216
","x: 236.46066284179688
y: 190.7870330810547
z: -0.30521708726882935
visibility: 0.999836802482605
","x: 237.88699340820312
y: 190.2779998779297
z: -0.30518466234207153
visibility: 0.9998432993888855
","x: 239.43667602539062
y: 189.83460998535156
z: -0.3052549958229065
visibility: 0.9998517036437988
","x: 233.618408203125
y: 191.56109619140625
z: -0.29614442586898804
visibility: 0.9997389316558838
","x: 232.96170043945312
y: 191.37152099609375
z: -0.2961762547492981
visibility: 0.9996810555458069
","x: 232.31532287597656
y: 191.21096801757812
z: -0.29620733857154846
visibility: 0.99966961145401
","x: 244.82130432128906
y: 191.93048095703125
z: -0.2539248466491699
visibility: 0.9998301863670349
","x: 233.6244659423828
y: 192.58444213867188
z: -0.17152079939842224
visibility: 0.9993523359298706
","x: 237.41748046875
y: 206.94586181640625
z: -0.2651292681694031
visibility: 0.9999565482139587
","x: 233.49586486816406
y: 206.8938446044922
z: -0.25821396708488464
visibility: 0.9999074935913086
","x: 263.06427001953125
y: 240.34658813476562
z: -0.21668484807014465
visibility: 0.9999738335609436
","x: 223.04119873046875
y: 222.79974365234375
z: -0.04182741791009903
visibility: 0.9997164607048035
","x: 274.3974914550781
y: 301.4488830566406
z: -0.2911742925643921
visibility: 0.9981751441955566
","x: 198.0876922607422
y: 228.94525146484375
z: 0.05922814458608627
visibility: 0.7754303812980652
","x: 243.27566528320312
y: 299.52069091796875
z: -0.40525102615356445
visibility: 0.9971387982368469
","x: 174.9204559326172
y: 236.03921508789062
z: -0.011047393083572388
visibility: 0.9386085271835327
","x: 236.228759765625
y: 299.1180114746094
z: -0.4423632025718689
visibility: 0.9905472993850708
","x: 167.18231201171875
y: 237.8656005859375
z: -0.03478296473622322
visibility: 0.910427987575531
","x: 236.04995727539062
y: 291.71209716796875
z: -0.4435940682888031
visibility: 0.990462064743042
","x: 167.8511505126953
y: 240.46026611328125
z: -0.07177563011646271
visibility: 0.9206991791725159
","x: 237.91445922851562
y: 291.42315673828125
z: -0.40581852197647095
visibility: 0.9816964864730835
","x: 170.4901580810547
y: 241.3921356201172
z: -0.027022410184144974
visibility: 0.9049798250198364
","x: 255.1356658935547
y: 341.1257629394531
z: -0.045029327273368835
visibility: 0.9997192025184631
","x: 232.18551635742188
y: 338.25006103515625
z: 0.0449998565018177
visibility: 0.9996755123138428
","x: 258.5986022949219
y: 421.4959716796875
z: -0.022454004734754562
visibility: 0.9987310767173767
","x: 218.9485626220703
y: 413.9517517089844
z: -0.02582300268113613
visibility: 0.9979139566421509
","x: 273.50164794921875
y: 482.83563232421875
z: 0.23175302147865295
visibility: 0.9986728429794312
","x: 227.2632598876953
y: 480.8540344238281
z: 0.17696061730384827
visibility: 0.9977552890777588
","x: 276.6402587890625
y: 490.9154968261719
z: 0.2503206133842468
visibility: 0.9307161569595337
","x: 231.9256591796875
y: 489.3893737792969
z: 0.18982712924480438
visibility: 0.9614757299423218
","x: 267.4766845703125
y: 509.1160888671875
z: 0.12438061088323593
visibility: 0.9968718886375427
","x: 217.06961059570312
y: 508.8406066894531
z: 0.07494129240512848
visibility: 0.996189534664154
",,,,,,,,,,,,,,,,,,,,,,,,,,,,,,,,,,,,,,,,,,
13,"x: 227.46739196777344
y: 203.5405731201172
z: -0.27644744515419006
visibility: 0.9999310374259949
","x: 229.76104736328125
y: 196.12989807128906
z: -0.2909717261791229
visibility: 0.9998101592063904
","x: 230.94432067871094
y: 195.4664764404297
z: -0.2909395694732666
visibility: 0.9998143315315247
","x: 232.2252655029297
y: 194.7018585205078
z: -0.29097750782966614
visibility: 0.9998288154602051
","x: 227.97280883789062
y: 196.71913146972656
z: -0.2625695765018463
visibility: 0.9997092485427856
","x: 227.88449096679688
y: 196.48324584960938
z: -0.2626212537288666
visibility: 0.9996435642242432
","x: 227.84120178222656
y: 196.16909790039062
z: -0.2626766562461853
visibility: 0.9996500611305237
","x: 238.69345092773438
y: 194.407958984375
z: -0.29320311546325684
visibility: 0.9998144507408142
","x: 232.6237335205078
y: 195.51185607910156
z: -0.16389869153499603
visibility: 0.9993480443954468
","x: 231.40219116210938
y: 209.86148071289062
z: -0.2690240740776062
visibility: 0.9999468922615051
","x: 229.17098999023438
y: 209.8516082763672
z: -0.23412951827049255
visibility: 0.9998928308486938
","x: 259.2406921386719
y: 240.95751953125
z: -0.3008318245410919
visibility: 0.9999727606773376
","x: 226.58856201171875
y: 222.78994750976562
z: -0.039165399968624115
visibility: 0.999742329120636
","x: 268.00494384765625
y: 301.6918029785156
z: -0.3842061161994934
visibility: 0.9981371164321899
","x: 200.3423309326172
y: 211.90341186523438
z: 0.03755616769194603
visibility: 0.7928130626678467
","x: 240.8118133544922
y: 320.7142333984375
z: -0.4285760521888733
visibility: 0.9965712428092957
","x: 174.0367889404297
y: 199.8983917236328
z: -0.025334421545267105
visibility: 0.9398906230926514
","x: 234.18264770507812
y: 327.1352844238281
z: -0.46422234177589417
visibility: 0.9888783693313599
","x: 166.80751037597656
y: 201.74752807617188
z: -0.042862869799137115
visibility: 0.9082709550857544
","x: 233.5907745361328
y: 321.46038818359375
z: -0.4643588960170746
visibility: 0.988704264163971
","x: 167.70884704589844
y: 203.12167358398438
z: -0.07569802552461624
visibility: 0.91898113489151
","x: 237.78724670410156
y: 319.28204345703125
z: -0.4282051920890808
visibility: 0.9774638414382935
","x: 170.43789672851562
y: 203.3575439453125
z: -0.04440256580710411
visibility: 0.9053407907485962
","x: 256.32757568359375
y: 341.7504577636719
z: -0.07523009926080704
visibility: 0.9996926188468933
","x: 236.7333984375
y: 338.5765075683594
z: 0.07512624561786652
visibility: 0.9997062087059021
","x: 258.6741027832031
y: 420.29180908203125
z: 0.02089224010705948
visibility: 0.9985774159431458
","x: 214.9528045654297
y: 403.3305358886719
z: -0.10907719284296036
visibility: 0.9979773759841919
","x: 273.65399169921875
y: 482.1659851074219
z: 0.24835205078125
visibility: 0.9986401200294495
","x: 229.63111877441406
y: 480.76849365234375
z: 0.02691386640071869
visibility: 0.9978139400482178
","x: 277.87176513671875
y: 490.390625
z: 0.2648746967315674
visibility: 0.930519163608551
","x: 234.6593017578125
y: 490.628662109375
z: 0.033615145832300186
visibility: 0.9643074870109558
","x: 266.7539367675781
y: 508.850341796875
z: 0.15469668805599213
visibility: 0.9967940449714661
","x: 215.3044891357422
y: 508.20654296875
z: -0.0645800232887268
visibility: 0.9963593482971191
",,,,,,,,,,,,,,,,,,,,,,,,,,,,,,,,,,,,,,,,,,
14,"x: 224.90635681152344
y: 212.9217529296875
z: -0.34322020411491394
visibility: 0.9999352097511292
","x: 226.5795135498047
y: 204.9656982421875
z: -0.3620414435863495
visibility: 0.9998236894607544
","x: 227.7967529296875
y: 204.27920532226562
z: -0.36202144622802734
visibility: 0.9998268485069275
","x: 229.10206604003906
y: 203.42083740234375
z: -0.3620797395706177
visibility: 0.999841034412384
","x: 224.6442413330078
y: 205.31069946289062
z: -0.3303036093711853
visibility: 0.9997295141220093
","x: 224.5045166015625
y: 205.00509643554688
z: -0.330366849899292
visibility: 0.9996668696403503
","x: 224.42813110351562
y: 204.5647430419922
z: -0.33039090037345886
visibility: 0.9996747970581055
","x: 235.2098846435547
y: 201.17950439453125
z: -0.367422878742218
visibility: 0.9998286962509155
","x: 229.08419799804688
y: 201.842041015625
z: -0.229390949010849
visibility: 0.9993981122970581
","x: 228.9409637451172
y: 218.09194946289062
z: -0.340421587228775
visibility: 0.9999498128890991
","x: 226.9903564453125
y: 217.89808654785156
z: -0.2996087074279785
visibility: 0.9998993873596191
","x: 255.9994354248047
y: 245.04324340820312
z: -0.371551513671875
visibility: 0.99997478723526
","x: 230.6646270751953
y: 223.01544189453125
z: -0.08509565889835358
visibility: 0.9997673630714417
","x: 267.4931640625
y: 313.37420654296875
z: -0.43939560651779175
visibility: 0.9982158541679382
","x: 205.98416137695312
y: 206.19671630859375
z: 0.01908162608742714
visibility: 0.8096503615379333
","x: 234.0418243408203
y: 345.6961669921875
z: -0.4663490355014801
visibility: 0.9966076016426086
","x: 180.91786193847656
y: 186.72372436523438
z: -0.01389420498162508
visibility: 0.943729043006897
","x: 226.4571990966797
y: 352.6878356933594
z: -0.5054308176040649
visibility: 0.9890421032905579
","x: 172.7177276611328
y: 185.02061462402344
z: -0.02976929023861885
visibility: 0.9123163819313049
","x: 224.75326538085938
y: 348.02862548828125
z: -0.5116902589797974
visibility: 0.9888895750045776
","x: 173.02732849121094
y: 185.6981658935547
z: -0.06326018273830414
visibility: 0.9224255681037903
","x: 227.78179931640625
y: 345.8563232421875
z: -0.46790891885757446
visibility: 0.9774641990661621
","x: 176.13929748535156
y: 187.12867736816406
z: -0.03225972130894661
visibility: 0.9101573824882507
","x: 257.694580078125
y: 343.2785339355469
z: -0.082616426050663
visibility: 0.9997139573097229
","x: 239.7037353515625
y: 339.1508483886719
z: 0.08256445825099945
visibility: 0.9997349977493286
","x: 256.647705078125
y: 421.94232177734375
z: 0.034154217690229416
visibility: 0.9983820915222168
","x: 225.84307861328125
y: 404.5860595703125
z: -0.06748227030038834
visibility: 0.9978758096694946
","x: 272.79302978515625
y: 482.67584228515625
z: 0.2622670531272888
visibility: 0.9985713362693787
","x: 232.59727478027344
y: 484.05084228515625
z: 0.07786519080400467
visibility: 0.9977545142173767
","x: 278.5796813964844
y: 490.05548095703125
z: 0.2796151638031006
visibility: 0.9329245090484619
","x: 237.2850341796875
y: 494.61834716796875
z: 0.08447055518627167
visibility: 0.9661932587623596
","x: 266.38385009765625
y: 508.840576171875
z: 0.18501751124858856
visibility: 0.9967319369316101
","x: 216.59657287597656
y: 508.1424255371094
z: -0.012505009770393372
visibility: 0.9964146018028259
",,,,,,,,,,,,,,,,,,,,,,,,,,,,,,,,,,,,,,,,,,
15,"x: 223.30738830566406
y: 210.374755859375
z: -0.2232522964477539
visibility: 0.9999379515647888
","x: 225.70907592773438
y: 202.2982635498047
z: -0.24125239253044128
visibility: 0.9998355507850647
","x: 227.69680786132812
y: 201.66567993164062
z: -0.24125543236732483
visibility: 0.9998379945755005
","x: 228.22537231445312
y: 200.90928649902344
z: -0.24127396941184998
visibility: 0.9998520016670227
","x: 222.68109130859375
y: 202.60678100585938
z: -0.21161285042762756
visibility: 0.9997484683990479
","x: 222.4293975830078
y: 202.26385498046875
z: -0.21165971457958221
visibility: 0.9996891617774963
","x: 222.32272338867188
y: 201.8212890625
z: -0.21168632805347443
visibility: 0.9996973872184753
","x: 233.8361358642578
y: 199.80078125
z: -0.2756138741970062
visibility: 0.9998415112495422
","x: 226.9645233154297
y: 200.0882110595703
z: -0.12960341572761536
visibility: 0.999447226524353
","x: 227.09378051757812
y: 216.04653930664062
z: -0.22555962204933167
visibility: 0.9999518394470215
","x: 224.49282836914062
y: 216.09457397460938
z: -0.1871870458126068
visibility: 0.9999042749404907
","x: 252.37875366210938
y: 243.9663543701172
z: -0.294288694858551
visibility: 0.9999764561653137
","x: 228.5028533935547
y: 224.21365356445312
z: 0.00744582200422883
visibility: 0.9997884035110474
","x: 258.33172607421875
y: 307.58416748046875
z: -0.3545890748500824
visibility: 0.9981876015663147
","x: 207.99342346191406
y: 210.10140991210938
z: 0.16395029425621033
visibility: 0.8147088885307312
","x: 233.69078063964844
y: 347.16510009765625
z: -0.4276978373527527
visibility: 0.9965510368347168
","x: 186.27737426757812
y: 188.9156494140625
z: 0.22072692215442657
visibility: 0.9439527988433838
","x: 226.44615173339844
y: 356.3632507324219
z: -0.4342416226863861
visibility: 0.9891090989112854
","x: 177.8523406982422
y: 185.55258178710938
z: 0.22603273391723633
visibility: 0.9109888672828674
","x: 224.46810913085938
y: 352.4557189941406
z: -0.45418769121170044
visibility: 0.9889663457870483
","x: 178.10549926757812
y: 185.44729614257812
z: 0.20014794170856476
visibility: 0.9211442470550537
","x: 226.96026611328125
y: 349.88958740234375
z: -0.4272979199886322
visibility: 0.9772779941558838
","x: 181.1601104736328
y: 187.4188995361328
z: 0.20778723061084747
visibility: 0.910327672958374
","x: 255.88148498535156
y: 344.51275634765625
z: -0.08748991787433624
visibility: 0.9997327923774719
","x: 239.35162353515625
y: 341.7147216796875
z: 0.08743781596422195
visibility: 0.9997608661651611
","x: 256.23980712890625
y: 422.269775390625
z: 0.01928190514445305
visibility: 0.9982222318649292
","x: 222.17843627929688
y: 404.8948974609375
z: -0.06284640729427338
visibility: 0.9978780746459961
","x: 273.0224304199219
y: 482.5928955078125
z: 0.22604505717754364
visibility: 0.9985440969467163
","x: 232.9134521484375
y: 483.9324951171875
z: 0.06179341673851013
visibility: 0.9977471828460693
","x: 278.7987060546875
y: 490.3554992675781
z: 0.24211184680461884
visibility: 0.9360679388046265
","x: 238.61293029785156
y: 495.55682373046875
z: 0.06746035814285278
visibility: 0.9684692025184631
","x: 265.9333801269531
y: 508.4133605957031
z: 0.15460139513015747
visibility: 0.9967622756958008
","x: 216.30459594726562
y: 507.09149169921875
z: -0.013188344426453114
visibility: 0.9964773058891296
","x: 228.716552734375
y: 351.78228759765625
z: 0.0
","x: 225.02664184570312
y: 354.9351501464844
z: 0.0004583100671879947
","x: 222.0758819580078
y: 357.14886474609375
z: -0.00029214503592811525
","x: 219.83248901367188
y: 357.2521667480469
z: -0.0017944421852007508
","x: 218.4157257080078
y: 356.39288330078125
z: -0.0031282647978514433
","x: 221.37667846679688
y: 361.6266174316406
z: -0.0009114957647398114
","x: 218.22256469726562
y: 365.43695068359375
z: -0.0037378876004368067
","x: 216.17489624023438
y: 367.1201171875
z: -0.005192807875573635
","x: 214.44358825683594
y: 368.0400085449219
z: -0.006039856001734734
","x: 221.52938842773438
y: 359.51458740234375
z: -0.0033024156000465155
","x: 217.75662231445312
y: 362.2448425292969
z: -0.006573536898940802
","x: 214.93031311035156
y: 362.9742736816406
z: -0.00770991574972868
","x: 212.57272338867188
y: 363.14501953125
z: -0.008337513543665409
","x: 222.0002899169922
y: 356.6585998535156
z: -0.005905896425247192
","x: 218.98048400878906
y: 354.31341552734375
z: -0.00884547270834446
","x: 217.71432495117188
y: 351.0689697265625
z: -0.008608655072748661
","x: 216.8161163330078
y: 348.23260498046875
z: -0.008021935820579529
","x: 222.73721313476562
y: 353.09112548828125
z: -0.008752863854169846
","x: 220.2020263671875
y: 350.52655029296875
z: -0.011029374785721302
","x: 218.91168212890625
y: 348.5616760253906
z: -0.011128676123917103
","x: 217.82958984375
y: 346.75103759765625
z: -0.010809788480401039
","x: 187.53858947753906
y: 186.01844787597656
z: 0.0
","x: 185.30300903320312
y: 189.2642364501953
z: -0.0009739376255311072
","x: 182.3656005859375
y: 191.26817321777344
z: -0.0024886212777346373
","x: 180.04150390625
y: 193.45669555664062
z: -0.004505280405282974
","x: 178.1121368408203
y: 195.6218719482422
z: -0.0064229462295770645
","x: 177.68052673339844
y: 183.98040771484375
z: 0.0005300729535520077
","x: 173.6217803955078
y: 185.93536376953125
z: -0.0018004605080932379
","x: 171.05926513671875
y: 187.45233154296875
z: -0.0034198265057057142
","x: 168.96278381347656
y: 188.94509887695312
z: -0.004252822138369083
","x: 177.44386291503906
y: 181.22842407226562
z: -0.0009878005366772413
","x: 173.224853515625
y: 179.90286254882812
z: -0.002872926415875554
","x: 170.51104736328125
y: 179.70272827148438
z: -0.0040092612616717815
","x: 168.1367645263672
y: 179.9323272705078
z: -0.004725037608295679
","x: 177.6830291748047
y: 179.52587890625
z: -0.00308158784173429
","x: 173.6348876953125
y: 177.52389526367188
z: -0.005077981855720282
","x: 170.97735595703125
y: 177.1383514404297
z: -0.005868217907845974
","x: 168.7736358642578
y: 177.046142578125
z: -0.006288215052336454
","x: 178.30386352539062
y: 178.53843688964844
z: -0.0055100684985518456
","x: 174.93357849121094
y: 176.59097290039062
z: -0.006959272548556328
","x: 172.56329345703125
y: 175.9728240966797
z: -0.00737245986238122
","x: 170.5673828125
y: 175.7728729248047
z: -0.0075703151524066925
"
16,"x: 223.30738830566406
y: 210.374755859375
z: -0.2232522964477539
visibility: 0.9999379515647888
","x: 225.70907592773438
y: 202.2982635498047
z: -0.24125239253044128
visibility: 0.9998355507850647
","x: 227.69680786132812
y: 201.66567993164062
z: -0.24125543236732483
visibility: 0.9998379945755005
","x: 228.22537231445312
y: 200.90928649902344
z: -0.24127396941184998
visibility: 0.9998520016670227
","x: 222.68109130859375
y: 202.60678100585938
z: -0.21161285042762756
visibility: 0.9997484683990479
","x: 222.4293975830078
y: 202.26385498046875
z: -0.21165971457958221
visibility: 0.9996891617774963
","x: 222.32272338867188
y: 201.8212890625
z: -0.21168632805347443
visibility: 0.9996973872184753
","x: 233.8361358642578
y: 199.80078125
z: -0.2756138741970062
visibility: 0.9998415112495422
","x: 226.9645233154297
y: 200.0882110595703
z: -0.12960341572761536
visibility: 0.999447226524353
","x: 227.09378051757812
y: 216.04653930664062
z: -0.22555962204933167
visibility: 0.9999518394470215
","x: 224.49282836914062
y: 216.09457397460938
z: -0.1871870458126068
visibility: 0.9999042749404907
","x: 252.37875366210938
y: 243.9663543701172
z: -0.294288694858551
visibility: 0.9999764561653137
","x: 228.5028533935547
y: 224.21365356445312
z: 0.00744582200422883
visibility: 0.9997884035110474
","x: 258.33172607421875
y: 307.58416748046875
z: -0.3545890748500824
visibility: 0.9981876015663147
","x: 207.99342346191406
y: 210.10140991210938
z: 0.16395029425621033
visibility: 0.8147088885307312
","x: 233.69078063964844
y: 347.16510009765625
z: -0.4276978373527527
visibility: 0.9965510368347168
","x: 186.27737426757812
y: 188.9156494140625
z: 0.22072692215442657
visibility: 0.9439527988433838
","x: 226.44615173339844
y: 356.3632507324219
z: -0.4342416226863861
visibility: 0.9891090989112854
","x: 177.8523406982422
y: 185.55258178710938
z: 0.22603273391723633
visibility: 0.9109888672828674
","x: 224.46810913085938
y: 352.4557189941406
z: -0.45418769121170044
visibility: 0.9889663457870483
","x: 178.10549926757812
y: 185.44729614257812
z: 0.20014794170856476
visibility: 0.9211442470550537
","x: 226.96026611328125
y: 349.88958740234375
z: -0.4272979199886322
visibility: 0.9772779941558838
","x: 181.1601104736328
y: 187.4188995361328
z: 0.20778723061084747
visibility: 0.910327672958374
","x: 255.88148498535156
y: 344.51275634765625
z: -0.08748991787433624
visibility: 0.9997327923774719
","x: 239.35162353515625
y: 341.7147216796875
z: 0.08743781596422195
visibility: 0.9997608661651611
","x: 256.23980712890625
y: 422.269775390625
z: 0.01928190514445305
visibility: 0.9982222318649292
","x: 222.17843627929688
y: 404.8948974609375
z: -0.06284640729427338
visibility: 0.9978780746459961
","x: 273.0224304199219
y: 482.5928955078125
z: 0.22604505717754364
visibility: 0.9985440969467163
","x: 232.9134521484375
y: 483.9324951171875
z: 0.06179341673851013
visibility: 0.9977471828460693
","x: 278.7987060546875
y: 490.3554992675781
z: 0.24211184680461884
visibility: 0.9360679388046265
","x: 238.61293029785156
y: 495.55682373046875
z: 0.06746035814285278
visibility: 0.9684692025184631
","x: 265.9333801269531
y: 508.4133605957031
z: 0.15460139513015747
visibility: 0.9967622756958008
","x: 216.30459594726562
y: 507.09149169921875
z: -0.013188344426453114
visibility: 0.9964773058891296
","x: 228.716552734375
y: 351.78228759765625
z: 0.0
","x: 225.02664184570312
y: 354.9351501464844
z: 0.0004583100671879947
","x: 222.0758819580078
y: 357.14886474609375
z: -0.00029214503592811525
","x: 219.83248901367188
y: 357.2521667480469
z: -0.0017944421852007508
","x: 218.4157257080078
y: 356.39288330078125
z: -0.0031282647978514433
","x: 221.37667846679688
y: 361.6266174316406
z: -0.0009114957647398114
","x: 218.22256469726562
y: 365.43695068359375
z: -0.0037378876004368067
","x: 216.17489624023438
y: 367.1201171875
z: -0.005192807875573635
","x: 214.44358825683594
y: 368.0400085449219
z: -0.006039856001734734
","x: 221.52938842773438
y: 359.51458740234375
z: -0.0033024156000465155
","x: 217.75662231445312
y: 362.2448425292969
z: -0.006573536898940802
","x: 214.93031311035156
y: 362.9742736816406
z: -0.00770991574972868
","x: 212.57272338867188
y: 363.14501953125
z: -0.008337513543665409
","x: 222.0002899169922
y: 356.6585998535156
z: -0.005905896425247192
","x: 218.98048400878906
y: 354.31341552734375
z: -0.00884547270834446
","x: 217.71432495117188
y: 351.0689697265625
z: -0.008608655072748661
","x: 216.8161163330078
y: 348.23260498046875
z: -0.008021935820579529
","x: 222.73721313476562
y: 353.09112548828125
z: -0.008752863854169846
","x: 220.2020263671875
y: 350.52655029296875
z: -0.011029374785721302
","x: 218.91168212890625
y: 348.5616760253906
z: -0.011128676123917103
","x: 217.82958984375
y: 346.75103759765625
z: -0.010809788480401039
","x: 187.53858947753906
y: 186.01844787597656
z: 0.0
","x: 185.30300903320312
y: 189.2642364501953
z: -0.0009739376255311072
","x: 182.3656005859375
y: 191.26817321777344
z: -0.0024886212777346373
","x: 180.04150390625
y: 193.45669555664062
z: -0.004505280405282974
","x: 178.1121368408203
y: 195.6218719482422
z: -0.0064229462295770645
","x: 177.68052673339844
y: 183.98040771484375
z: 0.0005300729535520077
","x: 173.6217803955078
y: 185.93536376953125
z: -0.0018004605080932379
","x: 171.05926513671875
y: 187.45233154296875
z: -0.0034198265057057142
","x: 168.96278381347656
y: 188.94509887695312
z: -0.004252822138369083
","x: 177.44386291503906
y: 181.22842407226562
z: -0.0009878005366772413
","x: 173.224853515625
y: 179.90286254882812
z: -0.002872926415875554
","x: 170.51104736328125
y: 179.70272827148438
z: -0.0040092612616717815
","x: 168.1367645263672
y: 179.9323272705078
z: -0.004725037608295679
","x: 177.6830291748047
y: 179.52587890625
z: -0.00308158784173429
","x: 173.6348876953125
y: 177.52389526367188
z: -0.005077981855720282
","x: 170.97735595703125
y: 177.1383514404297
z: -0.005868217907845974
","x: 168.7736358642578
y: 177.046142578125
z: -0.006288215052336454
","x: 178.30386352539062
y: 178.53843688964844
z: -0.0055100684985518456
","x: 174.93357849121094
y: 176.59097290039062
z: -0.006959272548556328
","x: 172.56329345703125
y: 175.9728240966797
z: -0.00737245986238122
","x: 170.5673828125
y: 175.7728729248047
z: -0.0075703151524066925
"
17,"x: 223.30738830566406
y: 210.374755859375
z: -0.2232522964477539
visibility: 0.9999379515647888
","x: 225.70907592773438
y: 202.2982635498047
z: -0.24125239253044128
visibility: 0.9998355507850647
","x: 227.69680786132812
y: 201.66567993164062
z: -0.24125543236732483
visibility: 0.9998379945755005
","x: 228.22537231445312
y: 200.90928649902344
z: -0.24127396941184998
visibility: 0.9998520016670227
","x: 222.68109130859375
y: 202.60678100585938
z: -0.21161285042762756
visibility: 0.9997484683990479
","x: 222.4293975830078
y: 202.26385498046875
z: -0.21165971457958221
visibility: 0.9996891617774963
","x: 222.32272338867188
y: 201.8212890625
z: -0.21168632805347443
visibility: 0.9996973872184753
","x: 233.8361358642578
y: 199.80078125
z: -0.2756138741970062
visibility: 0.9998415112495422
","x: 226.9645233154297
y: 200.0882110595703
z: -0.12960341572761536
visibility: 0.999447226524353
","x: 227.09378051757812
y: 216.04653930664062
z: -0.22555962204933167
visibility: 0.9999518394470215
","x: 224.49282836914062
y: 216.09457397460938
z: -0.1871870458126068
visibility: 0.9999042749404907
","x: 252.37875366210938
y: 243.9663543701172
z: -0.294288694858551
visibility: 0.9999764561653137
","x: 228.5028533935547
y: 224.21365356445312
z: 0.00744582200422883
visibility: 0.9997884035110474
","x: 258.33172607421875
y: 307.58416748046875
z: -0.3545890748500824
visibility: 0.9981876015663147
","x: 207.99342346191406
y: 210.10140991210938
z: 0.16395029425621033
visibility: 0.8147088885307312
","x: 233.69078063964844
y: 347.16510009765625
z: -0.4276978373527527
visibility: 0.9965510368347168
","x: 186.27737426757812
y: 188.9156494140625
z: 0.22072692215442657
visibility: 0.9439527988433838
","x: 226.44615173339844
y: 356.3632507324219
z: -0.4342416226863861
visibility: 0.9891090989112854
","x: 177.8523406982422
y: 185.55258178710938
z: 0.22603273391723633
visibility: 0.9109888672828674
","x: 224.46810913085938
y: 352.4557189941406
z: -0.45418769121170044
visibility: 0.9889663457870483
","x: 178.10549926757812
y: 185.44729614257812
z: 0.20014794170856476
visibility: 0.9211442470550537
","x: 226.96026611328125
y: 349.88958740234375
z: -0.4272979199886322
visibility: 0.9772779941558838
","x: 181.1601104736328
y: 187.4188995361328
z: 0.20778723061084747
visibility: 0.910327672958374
","x: 255.88148498535156
y: 344.51275634765625
z: -0.08748991787433624
visibility: 0.9997327923774719
","x: 239.35162353515625
y: 341.7147216796875
z: 0.08743781596422195
visibility: 0.9997608661651611
","x: 256.23980712890625
y: 422.269775390625
z: 0.01928190514445305
visibility: 0.9982222318649292
","x: 222.17843627929688
y: 404.8948974609375
z: -0.06284640729427338
visibility: 0.9978780746459961
","x: 273.0224304199219
y: 482.5928955078125
z: 0.22604505717754364
visibility: 0.9985440969467163
","x: 232.9134521484375
y: 483.9324951171875
z: 0.06179341673851013
visibility: 0.9977471828460693
","x: 278.7987060546875
y: 490.3554992675781
z: 0.24211184680461884
visibility: 0.9360679388046265
","x: 238.61293029785156
y: 495.55682373046875
z: 0.06746035814285278
visibility: 0.9684692025184631
","x: 265.9333801269531
y: 508.4133605957031
z: 0.15460139513015747
visibility: 0.9967622756958008
","x: 216.30459594726562
y: 507.09149169921875
z: -0.013188344426453114
visibility: 0.9964773058891296
","x: 228.716552734375
y: 351.78228759765625
z: 0.0
","x: 225.02664184570312
y: 354.9351501464844
z: 0.0004583100671879947
","x: 222.0758819580078
y: 357.14886474609375
z: -0.00029214503592811525
","x: 219.83248901367188
y: 357.2521667480469
z: -0.0017944421852007508
","x: 218.4157257080078
y: 356.39288330078125
z: -0.0031282647978514433
","x: 221.37667846679688
y: 361.6266174316406
z: -0.0009114957647398114
","x: 218.22256469726562
y: 365.43695068359375
z: -0.0037378876004368067
","x: 216.17489624023438
y: 367.1201171875
z: -0.005192807875573635
","x: 214.44358825683594
y: 368.0400085449219
z: -0.006039856001734734
","x: 221.52938842773438
y: 359.51458740234375
z: -0.0033024156000465155
","x: 217.75662231445312
y: 362.2448425292969
z: -0.006573536898940802
","x: 214.93031311035156
y: 362.9742736816406
z: -0.00770991574972868
","x: 212.57272338867188
y: 363.14501953125
z: -0.008337513543665409
","x: 222.0002899169922
y: 356.6585998535156
z: -0.005905896425247192
","x: 218.98048400878906
y: 354.31341552734375
z: -0.00884547270834446
","x: 217.71432495117188
y: 351.0689697265625
z: -0.008608655072748661
","x: 216.8161163330078
y: 348.23260498046875
z: -0.008021935820579529
","x: 222.73721313476562
y: 353.09112548828125
z: -0.008752863854169846
","x: 220.2020263671875
y: 350.52655029296875
z: -0.011029374785721302
","x: 218.91168212890625
y: 348.5616760253906
z: -0.011128676123917103
","x: 217.82958984375
y: 346.75103759765625
z: -0.010809788480401039
","x: 187.53858947753906
y: 186.01844787597656
z: 0.0
","x: 185.30300903320312
y: 189.2642364501953
z: -0.0009739376255311072
","x: 182.3656005859375
y: 191.26817321777344
z: -0.0024886212777346373
","x: 180.04150390625
y: 193.45669555664062
z: -0.004505280405282974
","x: 178.1121368408203
y: 195.6218719482422
z: -0.0064229462295770645
","x: 177.68052673339844
y: 183.98040771484375
z: 0.0005300729535520077
","x: 173.6217803955078
y: 185.93536376953125
z: -0.0018004605080932379
","x: 171.05926513671875
y: 187.45233154296875
z: -0.0034198265057057142
","x: 168.96278381347656
y: 188.94509887695312
z: -0.004252822138369083
","x: 177.44386291503906
y: 181.22842407226562
z: -0.0009878005366772413
","x: 173.224853515625
y: 179.90286254882812
z: -0.002872926415875554
","x: 170.51104736328125
y: 179.70272827148438
z: -0.0040092612616717815
","x: 168.1367645263672
y: 179.9323272705078
z: -0.004725037608295679
","x: 177.6830291748047
y: 179.52587890625
z: -0.00308158784173429
","x: 173.6348876953125
y: 177.52389526367188
z: -0.005077981855720282
","x: 170.97735595703125
y: 177.1383514404297
z: -0.005868217907845974
","x: 168.7736358642578
y: 177.046142578125
z: -0.006288215052336454
","x: 178.30386352539062
y: 178.53843688964844
z: -0.0055100684985518456
","x: 174.93357849121094
y: 176.59097290039062
z: -0.006959272548556328
","x: 172.56329345703125
y: 175.9728240966797
z: -0.00737245986238122
","x: 170.5673828125
y: 175.7728729248047
z: -0.0075703151524066925
"
18,"x: 221.55706787109375
y: 208.31063842773438
z: -0.22025907039642334
visibility: 0.9999387860298157
","x: 223.06121826171875
y: 200.3350067138672
z: -0.23788103461265564
visibility: 0.9998446702957153
","x: 224.1949462890625
y: 199.7797393798828
z: -0.23787462711334229
visibility: 0.9998478293418884
","x: 224.62490844726562
y: 199.12147521972656
z: -0.23789377510547638
visibility: 0.9998614192008972
","x: 222.331787109375
y: 200.6448516845703
z: -0.20948150753974915
visibility: 0.9997618794441223
","x: 221.8223876953125
y: 200.3703155517578
z: -0.209515780210495
visibility: 0.9997059106826782
","x: 221.24034118652344
y: 200.02403259277344
z: -0.20951740443706512
visibility: 0.9997128844261169
","x: 231.2421875
y: 198.7113037109375
z: -0.26030033826828003
visibility: 0.999853789806366
","x: 225.1610565185547
y: 199.23883056640625
z: -0.12767672538757324
visibility: 0.9994881749153137
","x: 225.43785095214844
y: 215.33587646484375
z: -0.2211514711380005
visibility: 0.9999531507492065
","x: 223.47572326660156
y: 214.83392333984375
z: -0.18459205329418182
visibility: 0.999905526638031
","x: 248.70774841308594
y: 243.24801635742188
z: -0.2904289960861206
visibility: 0.9999783635139465
","x: 228.48377990722656
y: 223.920654296875
z: 0.015933867543935776
visibility: 0.9998021721839905
","x: 252.8708038330078
y: 304.39105224609375
z: -0.3498220145702362
visibility: 0.99827641248703
","x: 212.55416870117188
y: 208.4761199951172
z: 0.1938457190990448
visibility: 0.7971854209899902
","x: 232.99855041503906
y: 345.59686279296875
z: -0.3695729374885559
visibility: 0.9967023134231567
","x: 198.2102508544922
y: 190.7201385498047
z: 0.28631263971328735
visibility: 0.9358104467391968
","x: 226.52557373046875
y: 355.47265625
z: -0.3873923122882843
visibility: 0.9896289706230164
","x: 190.8571014404297
y: 184.14488220214844
z: 0.29757341742515564
visibility: 0.900205671787262
","x: 224.29348754882812
y: 352.1774597167969
z: -0.4000454545021057
visibility: 0.9894920587539673
","x: 191.83773803710938
y: 184.839599609375
z: 0.2769515812397003
visibility: 0.9106321334838867
","x: 226.40658569335938
y: 349.3534851074219
z: -0.36930689215660095
visibility: 0.9782040119171143
","x: 194.89361572265625
y: 188.35140991210938
z: 0.27683109045028687
visibility: 0.9008989930152893
","x: 253.06228637695312
y: 344.17620849609375
z: -0.08916458487510681
visibility: 0.9997488856315613
","x: 236.91014099121094
y: 341.64404296875
z: 0.08909574896097183
visibility: 0.9997822046279907
","x: 255.18634033203125
y: 421.6265869140625
z: -0.011915688402950764
visibility: 0.9981002807617188
","x: 221.14955139160156
y: 405.2345275878906
z: -0.017211826518177986
visibility: 0.9976804852485657
","x: 272.9906005859375
y: 483.206298828125
z: 0.12987428903579712
visibility: 0.9985640048980713
","x: 231.5269317626953
y: 483.6534423828125
z: 0.08697833865880966
visibility: 0.9976180791854858
","x: 278.6714782714844
y: 491.0699768066406
z: 0.14033851027488708
visibility: 0.9399372339248657
","x: 238.41567993164062
y: 495.1128845214844
z: 0.10219067335128784
visibility: 0.97013920545578
","x: 265.7023010253906
y: 509.0013427734375
z: 0.054532986134290695
visibility: 0.9968852400779724
","x: 215.39898681640625
y: 506.98785400390625
z: 0.04076661914587021
visibility: 0.9964207410812378
","x: 228.16433715820312
y: 349.91436767578125
z: 0.0
","x: 225.47747802734375
y: 354.1731262207031
z: -0.00024999462766572833
","x: 222.503173828125
y: 357.60504150390625
z: -0.0004979567020200193
","x: 219.90597534179688
y: 359.0289611816406
z: -0.0012489099754020572
","x: 217.90724182128906
y: 359.6335144042969
z: -0.0018101107561960816
","x: 221.02313232421875
y: 360.3026123046875
z: 0.0009345366270281374
","x: 217.71551513671875
y: 363.024658203125
z: -0.0004875594167970121
","x: 215.44715881347656
y: 364.3780822753906
z: -0.0013139754300937057
","x: 213.60096740722656
y: 365.31439208984375
z: -0.0018238684860989451
","x: 220.6509552001953
y: 358.1308288574219
z: -0.0003136317536700517
","x: 217.95443725585938
y: 361.3430480957031
z: -0.001726038521155715
","x: 215.97967529296875
y: 363.1877136230469
z: -0.0023274158593267202
","x: 214.316162109375
y: 364.49468994140625
z: -0.0027112734969705343
","x: 220.7605743408203
y: 354.94354248046875
z: -0.0019062911160290241
","x: 218.33644104003906
y: 354.18438720703125
z: -0.0035883861128240824
","x: 217.423583984375
y: 352.4386291503906
z: -0.0037563194055110216
","x: 216.90206909179688
y: 350.9688720703125
z: -0.0035299998708069324
","x: 221.22776794433594
y: 350.96441650390625
z: -0.003777689067646861
","x: 219.27792358398438
y: 349.0528869628906
z: -0.005255688447505236
","x: 218.45909118652344
y: 347.3662109375
z: -0.005460813175886869
","x: 217.95285034179688
y: 345.7789306640625
z: -0.005241598933935165
","x: 197.75604248046875
y: 185.6887969970703
z: 0.0
","x: 194.13475036621094
y: 188.2880859375
z: -0.001258915290236473
","x: 189.86598205566406
y: 188.738525390625
z: -0.0021790682803839445
","x: 187.95599365234375
y: 186.88211059570312
z: -0.003340482944622636
","x: 188.56170654296875
y: 183.64727783203125
z: -0.004280270542949438
","x: 187.882568359375
y: 178.68060302734375
z: -2.5718869437696412e-05
","x: 183.78775024414062
y: 178.18740844726562
z: -0.0021726989652961493
","x: 181.2318115234375
y: 178.94898986816406
z: -0.0035003942903131247
","x: 179.19876098632812
y: 179.76914978027344
z: -0.004203451331704855
","x: 188.67413330078125
y: 175.7482147216797
z: -0.0011486044386401772
","x: 184.5679168701172
y: 173.53939819335938
z: -0.0028977040201425552
","x: 181.8472900390625
y: 173.309326171875
z: -0.0037076370790600777
","x: 179.50473022460938
y: 173.3359375
z: -0.004382053390145302
","x: 189.9351348876953
y: 174.18460083007812
z: -0.0028352676890790462
","x: 186.6118927001953
y: 173.0233917236328
z: -0.004923620261251926
","x: 184.54629516601562
y: 172.96975708007812
z: -0.0056942603550851345
","x: 182.83184814453125
y: 172.93211364746094
z: -0.006021719891577959
","x: 191.54286193847656
y: 173.783935546875
z: -0.004850266966968775
","x: 188.82723999023438
y: 174.4176025390625
z: -0.006196507252752781
","x: 187.62396240234375
y: 176.26144409179688
z: -0.006475964095443487
","x: 186.84811401367188
y: 177.85153198242188
z: -0.00656468840315938
"
19,"x: 221.55706787109375
y: 208.31063842773438
z: -0.22025907039642334
visibility: 0.9999387860298157
","x: 223.06121826171875
y: 200.3350067138672
z: -0.23788103461265564
visibility: 0.9998446702957153
","x: 224.1949462890625
y: 199.7797393798828
z: -0.23787462711334229
visibility: 0.9998478293418884
","x: 224.62490844726562
y: 199.12147521972656
z: -0.23789377510547638
visibility: 0.9998614192008972
","x: 222.331787109375
y: 200.6448516845703
z: -0.20948150753974915
visibility: 0.9997618794441223
","x: 221.8223876953125
y: 200.3703155517578
z: -0.209515780210495
visibility: 0.9997059106826782
","x: 221.24034118652344
y: 200.02403259277344
z: -0.20951740443706512
visibility: 0.9997128844261169
","x: 231.2421875
y: 198.7113037109375
z: -0.26030033826828003
visibility: 0.999853789806366
","x: 225.1610565185547
y: 199.23883056640625
z: -0.12767672538757324
visibility: 0.9994881749153137
","x: 225.43785095214844
y: 215.33587646484375
z: -0.2211514711380005
visibility: 0.9999531507492065
","x: 223.47572326660156
y: 214.83392333984375
z: -0.18459205329418182
visibility: 0.999905526638031
","x: 248.70774841308594
y: 243.24801635742188
z: -0.2904289960861206
visibility: 0.9999783635139465
","x: 228.48377990722656
y: 223.920654296875
z: 0.015933867543935776
visibility: 0.9998021721839905
","x: 252.8708038330078
y: 304.39105224609375
z: -0.3498220145702362
visibility: 0.99827641248703
","x: 212.55416870117188
y: 208.4761199951172
z: 0.1938457190990448
visibility: 0.7971854209899902
","x: 232.99855041503906
y: 345.59686279296875
z: -0.3695729374885559
visibility: 0.9967023134231567
","x: 198.2102508544922
y: 190.7201385498047
z: 0.28631263971328735
visibility: 0.9358104467391968
","x: 226.52557373046875
y: 355.47265625
z: -0.3873923122882843
visibility: 0.9896289706230164
","x: 190.8571014404297
y: 184.14488220214844
z: 0.29757341742515564
visibility: 0.900205671787262
","x: 224.29348754882812
y: 352.1774597167969
z: -0.4000454545021057
visibility: 0.9894920587539673
","x: 191.83773803710938
y: 184.839599609375
z: 0.2769515812397003
visibility: 0.9106321334838867
","x: 226.40658569335938
y: 349.3534851074219
z: -0.36930689215660095
visibility: 0.9782040119171143
","x: 194.89361572265625
y: 188.35140991210938
z: 0.27683109045028687
visibility: 0.9008989930152893
","x: 253.06228637695312
y: 344.17620849609375
z: -0.08916458487510681
visibility: 0.9997488856315613
","x: 236.91014099121094
y: 341.64404296875
z: 0.08909574896097183
visibility: 0.9997822046279907
","x: 255.18634033203125
y: 421.6265869140625
z: -0.011915688402950764
visibility: 0.9981002807617188
","x: 221.14955139160156
y: 405.2345275878906
z: -0.017211826518177986
visibility: 0.9976804852485657
","x: 272.9906005859375
y: 483.206298828125
z: 0.12987428903579712
visibility: 0.9985640048980713
","x: 231.5269317626953
y: 483.6534423828125
z: 0.08697833865880966
visibility: 0.9976180791854858
","x: 278.6714782714844
y: 491.0699768066406
z: 0.14033851027488708
visibility: 0.9399372339248657
","x: 238.41567993164062
y: 495.1128845214844
z: 0.10219067335128784
visibility: 0.97013920545578
","x: 265.7023010253906
y: 509.0013427734375
z: 0.054532986134290695
visibility: 0.9968852400779724
","x: 215.39898681640625
y: 506.98785400390625
z: 0.04076661914587021
visibility: 0.9964207410812378
","x: 228.16433715820312
y: 349.91436767578125
z: 0.0
","x: 225.47747802734375
y: 354.1731262207031
z: -0.00024999462766572833
","x: 222.503173828125
y: 357.60504150390625
z: -0.0004979567020200193
","x: 219.90597534179688
y: 359.0289611816406
z: -0.0012489099754020572
","x: 217.90724182128906
y: 359.6335144042969
z: -0.0018101107561960816
","x: 221.02313232421875
y: 360.3026123046875
z: 0.0009345366270281374
","x: 217.71551513671875
y: 363.024658203125
z: -0.0004875594167970121
","x: 215.44715881347656
y: 364.3780822753906
z: -0.0013139754300937057
","x: 213.60096740722656
y: 365.31439208984375
z: -0.0018238684860989451
","x: 220.6509552001953
y: 358.1308288574219
z: -0.0003136317536700517
","x: 217.95443725585938
y: 361.3430480957031
z: -0.001726038521155715
","x: 215.97967529296875
y: 363.1877136230469
z: -0.0023274158593267202
","x: 214.316162109375
y: 364.49468994140625
z: -0.0027112734969705343
","x: 220.7605743408203
y: 354.94354248046875
z: -0.0019062911160290241
","x: 218.33644104003906
y: 354.18438720703125
z: -0.0035883861128240824
","x: 217.423583984375
y: 352.4386291503906
z: -0.0037563194055110216
","x: 216.90206909179688
y: 350.9688720703125
z: -0.0035299998708069324
","x: 221.22776794433594
y: 350.96441650390625
z: -0.003777689067646861
","x: 219.27792358398438
y: 349.0528869628906
z: -0.005255688447505236
","x: 218.45909118652344
y: 347.3662109375
z: -0.005460813175886869
","x: 217.95285034179688
y: 345.7789306640625
z: -0.005241598933935165
","x: 197.75604248046875
y: 185.6887969970703
z: 0.0
","x: 194.13475036621094
y: 188.2880859375
z: -0.001258915290236473
","x: 189.86598205566406
y: 188.738525390625
z: -0.0021790682803839445
","x: 187.95599365234375
y: 186.88211059570312
z: -0.003340482944622636
","x: 188.56170654296875
y: 183.64727783203125
z: -0.004280270542949438
","x: 187.882568359375
y: 178.68060302734375
z: -2.5718869437696412e-05
","x: 183.78775024414062
y: 178.18740844726562
z: -0.0021726989652961493
","x: 181.2318115234375
y: 178.94898986816406
z: -0.0035003942903131247
","x: 179.19876098632812
y: 179.76914978027344
z: -0.004203451331704855
","x: 188.67413330078125
y: 175.7482147216797
z: -0.0011486044386401772
","x: 184.5679168701172
y: 173.53939819335938
z: -0.0028977040201425552
","x: 181.8472900390625
y: 173.309326171875
z: -0.0037076370790600777
","x: 179.50473022460938
y: 173.3359375
z: -0.004382053390145302
","x: 189.9351348876953
y: 174.18460083007812
z: -0.0028352676890790462
","x: 186.6118927001953
y: 173.0233917236328
z: -0.004923620261251926
","x: 184.54629516601562
y: 172.96975708007812
z: -0.0056942603550851345
","x: 182.83184814453125
y: 172.93211364746094
z: -0.006021719891577959
","x: 191.54286193847656
y: 173.783935546875
z: -0.004850266966968775
","x: 188.82723999023438
y: 174.4176025390625
z: -0.006196507252752781
","x: 187.62396240234375
y: 176.26144409179688
z: -0.006475964095443487
","x: 186.84811401367188
y: 177.85153198242188
z: -0.00656468840315938
"
20,"x: 221.55706787109375
y: 208.31063842773438
z: -0.22025907039642334
visibility: 0.9999387860298157
","x: 223.06121826171875
y: 200.3350067138672
z: -0.23788103461265564
visibility: 0.9998446702957153
","x: 224.1949462890625
y: 199.7797393798828
z: -0.23787462711334229
visibility: 0.9998478293418884
","x: 224.62490844726562
y: 199.12147521972656
z: -0.23789377510547638
visibility: 0.9998614192008972
","x: 222.331787109375
y: 200.6448516845703
z: -0.20948150753974915
visibility: 0.9997618794441223
","x: 221.8223876953125
y: 200.3703155517578
z: -0.209515780210495
visibility: 0.9997059106826782
","x: 221.24034118652344
y: 200.02403259277344
z: -0.20951740443706512
visibility: 0.9997128844261169
","x: 231.2421875
y: 198.7113037109375
z: -0.26030033826828003
visibility: 0.999853789806366
","x: 225.1610565185547
y: 199.23883056640625
z: -0.12767672538757324
visibility: 0.9994881749153137
","x: 225.43785095214844
y: 215.33587646484375
z: -0.2211514711380005
visibility: 0.9999531507492065
","x: 223.47572326660156
y: 214.83392333984375
z: -0.18459205329418182
visibility: 0.999905526638031
","x: 248.70774841308594
y: 243.24801635742188
z: -0.2904289960861206
visibility: 0.9999783635139465
","x: 228.48377990722656
y: 223.920654296875
z: 0.015933867543935776
visibility: 0.9998021721839905
","x: 252.8708038330078
y: 304.39105224609375
z: -0.3498220145702362
visibility: 0.99827641248703
","x: 212.55416870117188
y: 208.4761199951172
z: 0.1938457190990448
visibility: 0.7971854209899902
","x: 232.99855041503906
y: 345.59686279296875
z: -0.3695729374885559
visibility: 0.9967023134231567
","x: 198.2102508544922
y: 190.7201385498047
z: 0.28631263971328735
visibility: 0.9358104467391968
","x: 226.52557373046875
y: 355.47265625
z: -0.3873923122882843
visibility: 0.9896289706230164
","x: 190.8571014404297
y: 184.14488220214844
z: 0.29757341742515564
visibility: 0.900205671787262
","x: 224.29348754882812
y: 352.1774597167969
z: -0.4000454545021057
visibility: 0.9894920587539673
","x: 191.83773803710938
y: 184.839599609375
z: 0.2769515812397003
visibility: 0.9106321334838867
","x: 226.40658569335938
y: 349.3534851074219
z: -0.36930689215660095
visibility: 0.9782040119171143
","x: 194.89361572265625
y: 188.35140991210938
z: 0.27683109045028687
visibility: 0.9008989930152893
","x: 253.06228637695312
y: 344.17620849609375
z: -0.08916458487510681
visibility: 0.9997488856315613
","x: 236.91014099121094
y: 341.64404296875
z: 0.08909574896097183
visibility: 0.9997822046279907
","x: 255.18634033203125
y: 421.6265869140625
z: -0.011915688402950764
visibility: 0.9981002807617188
","x: 221.14955139160156
y: 405.2345275878906
z: -0.017211826518177986
visibility: 0.9976804852485657
","x: 272.9906005859375
y: 483.206298828125
z: 0.12987428903579712
visibility: 0.9985640048980713
","x: 231.5269317626953
y: 483.6534423828125
z: 0.08697833865880966
visibility: 0.9976180791854858
","x: 278.6714782714844
y: 491.0699768066406
z: 0.14033851027488708
visibility: 0.9399372339248657
","x: 238.41567993164062
y: 495.1128845214844
z: 0.10219067335128784
visibility: 0.97013920545578
","x: 265.7023010253906
y: 509.0013427734375
z: 0.054532986134290695
visibility: 0.9968852400779724
