uscmakers/ReverseChoreography/data/2_jupiter_love_trey_songz.csv
,NOSE,LEFT_EYE_INNER,LEFT_EYE,LEFT_EYE_OUTER,RIGHT_EYE_INNER,RIGHT_EYE,RIGHT_EYE_OUTER,LEFT_EAR,RIGHT_EAR,MOUTH_LEFT,MOUTH_RIGHT,LEFT_SHOULDER,RIGHT_SHOULDER,LEFT_ELBOW,RIGHT_ELBOW,LEFT_WRIST,RIGHT_WRIST,LEFT_PINKY,RIGHT_PINKY,LEFT_INDEX,RIGHT_INDEX,LEFT_THUMB,RIGHT_THUMB,LEFT_HIP,RIGHT_HIP,LEFT_KNEE,RIGHT_KNEE,LEFT_ANKLE,RIGHT_ANKLE,LEFT_HEEL,RIGHT_HEEL,LEFT_FOOT_INDEX,RIGHT_FOOT_INDEX,WRIST,THUMB_CPC,THUMB_MCP,THUMB_IP,THUMB_TIP,INDEX_FINGER_MCP,INDEX_FINGER_PIP,INDEX_FINGER_DIP,INDEX_FINGER_TIP,MIDDLE_FINGER_MCP,MIDDLE_FINGER_PIP,MIDDLE_FINGER_DIP,MIDDLE_FINGER_TIP,RING_FINGER_PIP,RING_FINGER_DIP,RING_FINGER_TIP,RING_FINGER_MCP,PINKY_MCP,PINKY_PIP,PINKY_DIP,PINKY_TIP,WRIST2,THUMB_CPC2,THUMB_MCP2,THUMB_IP2,THUMB_TIP2,INDEX_FINGER_MCP2,INDEX_FINGER_PIP2,INDEX_FINGER_DIP2,INDEX_FINGER_TIP2,MIDDLE_FINGER_MCP2,MIDDLE_FINGER_PIP2,MIDDLE_FINGER_DIP2,MIDDLE_FINGER_TIP2,RING_FINGER_PIP2,RING_FINGER_DIP2,RING_FINGER_TIP2,RING_FINGER_MCP2,PINKY_MCP2,PINKY_PIP2,PINKY_DIP2,PINKY_TIP2
0,"x: 148.99301147460938
y: 160.64955139160156
z: -0.38387542963027954
visibility: 0.9999672174453735
","x: 148.51280212402344
y: 151.38589477539062
z: -0.36256223917007446
visibility: 0.9998824596405029
","x: 149.17982482910156
y: 151.35052490234375
z: -0.36257025599479675
visibility: 0.9998717308044434
","x: 149.76934814453125
y: 151.30184936523438
z: -0.3626563251018524
visibility: 0.9998155236244202
","x: 145.0952606201172
y: 151.25784301757812
z: -0.3753797709941864
visibility: 0.9999418258666992
","x: 143.22093200683594
y: 151.2982177734375
z: -0.3754269778728485
visibility: 0.9999475479125977
","x: 141.02218627929688
y: 151.5135498046875
z: -0.3754563331604004
visibility: 0.9999436140060425
","x: 146.50787353515625
y: 154.96029663085938
z: -0.2223142683506012
visibility: 0.9998825788497925
","x: 133.23123168945312
y: 156.761474609375
z: -0.28085392713546753
visibility: 0.9999619722366333
","x: 149.72695922851562
y: 168.92942810058594
z: -0.329563170671463
visibility: 0.9999822378158569
","x: 145.43588256835938
y: 169.6501922607422
z: -0.3467852473258972
visibility: 0.9999933242797852
","x: 164.70294189453125
y: 198.77633666992188
z: -0.1517912596464157
visibility: 0.9999480247497559
","x: 114.44741821289062
y: 226.1524658203125
z: -0.16642041504383087
visibility: 0.999991774559021
","x: 196.0242156982422
y: 220.08547973632812
z: -0.25389009714126587
visibility: 0.9737825393676758
","x: 119.73928833007812
y: 287.5024719238281
z: -0.04539047181606293
visibility: 0.9490479230880737
","x: 182.9762725830078
y: 214.04354858398438
z: -0.4950721859931946
visibility: 0.837651252746582
","x: 132.07778930664062
y: 342.97076416015625
z: -0.00614624610170722
visibility: 0.8412808179855347
","x: 178.79940795898438
y: 216.8633270263672
z: -0.5500048398971558
visibility: 0.6967739462852478
","x: 133.614990234375
y: 361.92681884765625
z: -0.011242354288697243
visibility: 0.7722390294075012
","x: 172.79806518554688
y: 215.18736267089844
z: -0.5483367443084717
visibility: 0.6711214184761047
","x: 137.30654907226562
y: 359.7821350097656
z: -0.03768719732761383
visibility: 0.773139476776123
","x: 174.18215942382812
y: 213.4575653076172
z: -0.5015128254890442
visibility: 0.6016868352890015
","x: 137.6654052734375
y: 353.8017578125
z: -0.01243672613054514
visibility: 0.7216450572013855
","x: 177.99990844726562
y: 331.1803894042969
z: -0.0008187458151951432
visibility: 0.9998289346694946
","x: 151.0224609375
y: 347.1141357421875
z: 0.000980059034191072
visibility: 0.9999603033065796
","x: 212.554931640625
y: 373.6979675292969
z: -0.053930722177028656
visibility: 0.9933323264122009
","x: 151.74923706054688
y: 442.3748779296875
z: -0.0264247115701437
visibility: 0.9957629442214966
","x: 189.959228515625
y: 386.6983337402344
z: 0.4501081109046936
visibility: 0.8940694332122803
","x: 157.45603942871094
y: 518.709716796875
z: 0.2718695402145386
visibility: 0.9964886903762817
","x: 184.96681213378906
y: 382.7518005371094
z: 0.499381959438324
visibility: 0.8182752728462219
","x: 163.1870574951172
y: 530.638916015625
z: 0.2944566607475281
visibility: 0.9712849259376526
","x: 200.79440307617188
y: 418.56085205078125
z: 0.44450488686561584
visibility: 0.9056215882301331
","x: 148.91241455078125
y: 552.96484375
z: 0.16164755821228027
visibility: 0.9904608130455017
",,,,,,,,,,,,,,,,,,,,,,,,,,,,,,,,,,,,,,,,,,
1,"x: 168.7812957763672
y: 157.23736572265625
z: -0.04729436710476875
visibility: 0.9997192621231079
","x: 166.1959991455078
y: 149.4495086669922
z: -0.03320891037583351
visibility: 0.999527633190155
","x: 165.5071258544922
y: 149.30540466308594
z: -0.033268414437770844
visibility: 0.999504566192627
","x: 164.68875122070312
y: 149.10902404785156
z: -0.03330259770154953
visibility: 0.9995203614234924
","x: 166.4871368408203
y: 149.17401123046875
z: -0.07444506883621216
visibility: 0.9996201992034912
","x: 166.09866333007812
y: 148.88156127929688
z: -0.07446692883968353
visibility: 0.9996615052223206
","x: 165.6315460205078
y: 148.53761291503906
z: -0.07454730570316315
visibility: 0.9996827244758606
","x: 158.80221557617188
y: 152.64967346191406
z: 0.03151940554380417
visibility: 0.9990103840827942
","x: 160.4582061767578
y: 151.99368286132812
z: -0.15478286147117615
visibility: 0.9996130466461182
","x: 166.95960998535156
y: 165.55999755859375
z: -0.019485963508486748
visibility: 0.9993734359741211
","x: 167.22227478027344
y: 165.75926208496094
z: -0.07403872907161713
visibility: 0.9996229410171509
","x: 156.14279174804688
y: 198.46229553222656
z: 0.13803386688232422
visibility: 0.9993422627449036
","x: 154.6421356201172
y: 201.4613037109375
z: -0.24105176329612732
visibility: 0.9999697804450989
","x: 166.173828125
y: 277.8257141113281
z: 0.20430859923362732
visibility: 0.8792176842689514
","x: 176.13272094726562
y: 261.65087890625
z: -0.28644371032714844
visibility: 0.9538224935531616
","x: 175.77432250976562
y: 320.31683349609375
z: 0.1707129180431366
visibility: 0.7568691372871399
","x: 215.76905822753906
y: 255.8780059814453
z: -0.24526973068714142
visibility: 0.8555973768234253
","x: 177.13780212402344
y: 332.8744812011719
z: 0.17307326197624207
visibility: 0.6309887766838074
","x: 228.30845642089844
y: 252.9460906982422
z: -0.27796533703804016
visibility: 0.7922583222389221
","x: 175.7611846923828
y: 327.564453125
z: 0.14707766473293304
visibility: 0.6079803705215454
","x: 227.9845428466797
y: 244.52513122558594
z: -0.263021320104599
visibility: 0.7929455041885376
","x: 175.2486572265625
y: 322.3343505859375
z: 0.15654262900352478
visibility: 0.5455498099327087
","x: 222.79708862304688
y: 245.34054565429688
z: -0.23742154240608215
visibility: 0.7426191568374634
","x: 178.3979949951172
y: 330.51116943359375
z: 0.10144464671611786
visibility: 0.9996541738510132
","x: 165.5233154296875
y: 338.69024658203125
z: -0.10148906707763672
visibility: 0.9997524619102478
","x: 210.5254669189453
y: 377.7494812011719
z: 0.02954082190990448
visibility: 0.9875175356864929
","x: 170.95066833496094
y: 429.01226806640625
z: -0.16586659848690033
visibility: 0.9954416155815125
","x: 203.39892578125
y: 471.1898498535156
z: 0.15264813601970673
visibility: 0.9007624983787537
","x: 161.11573791503906
y: 518.7110595703125
z: -0.07980617880821228
visibility: 0.9961077570915222
","x: 200.02606201171875
y: 483.9265441894531
z: 0.15883903205394745
visibility: 0.8279843926429749
","x: 160.2605743408203
y: 531.6107788085938
z: -0.07644443213939667
visibility: 0.9660242199897766
","x: 220.8029022216797
y: 502.4299621582031
z: 0.08895421028137207
visibility: 0.9124240875244141
","x: 180.2145538330078
y: 546.9068603515625
z: -0.1822691410779953
visibility: 0.9904474020004272
","x: 219.94151306152344
y: 255.12490844726562
z: 0.0
","x: 223.2882843017578
y: 246.3115692138672
z: -0.002306925365701318
","x: 227.81982421875
y: 238.33763122558594
z: -0.005065730307251215
","x: 231.1241912841797
y: 231.45394897460938
z: -0.008263597264885902
","x: 233.08340454101562
y: 224.9434051513672
z: -0.011357858777046204
","x: 236.44903564453125
y: 245.2284393310547
z: -0.0018433660734444857
","x: 242.98861694335938
y: 242.32745361328125
z: -0.004648835863918066
","x: 246.86502075195312
y: 240.42623901367188
z: -0.006552696693688631
","x: 249.86520385742188
y: 239.01197814941406
z: -0.007700156886130571
","x: 236.8994140625
y: 252.271728515625
z: -0.003413480706512928
","x: 243.98731994628906
y: 250.6940460205078
z: -0.005700615234673023
","x: 248.1563720703125
y: 249.00328063964844
z: -0.007129576988518238
","x: 251.39076232910156
y: 247.71066284179688
z: -0.008173028007149696
","x: 236.20387268066406
y: 258.7547302246094
z: -0.005477044731378555
","x: 242.90621948242188
y: 257.35345458984375
z: -0.008043184876441956
","x: 246.6202392578125
y: 255.3724822998047
z: -0.009108179248869419
","x: 249.37307739257812
y: 254.0253448486328
z: -0.009730763733386993
","x: 234.70623779296875
y: 264.69549560546875
z: -0.007974160835146904
","x: 240.1088104248047
y: 263.7969665527344
z: -0.00967429019510746
","x: 243.01104736328125
y: 261.68475341796875
z: -0.010074093006551266
","x: 245.12799072265625
y: 260.1148376464844
z: -0.010315094143152237
",,,,,,,,,,,,,,,,,,,,,
2,"x: 168.7812957763672
y: 157.23736572265625
z: -0.04729436710476875
visibility: 0.9997192621231079
","x: 166.1959991455078
y: 149.4495086669922
z: -0.03320891037583351
visibility: 0.999527633190155
","x: 165.5071258544922
y: 149.30540466308594
z: -0.033268414437770844
visibility: 0.999504566192627
","x: 164.68875122070312
y: 149.10902404785156
z: -0.03330259770154953
visibility: 0.9995203614234924
","x: 166.4871368408203
y: 149.17401123046875
z: -0.07444506883621216
visibility: 0.9996201992034912
","x: 166.09866333007812
y: 148.88156127929688
z: -0.07446692883968353
visibility: 0.9996615052223206
","x: 165.6315460205078
y: 148.53761291503906
z: -0.07454730570316315
visibility: 0.9996827244758606
","x: 158.80221557617188
y: 152.64967346191406
z: 0.03151940554380417
visibility: 0.9990103840827942
","x: 160.4582061767578
y: 151.99368286132812
z: -0.15478286147117615
visibility: 0.9996130466461182
","x: 166.95960998535156
y: 165.55999755859375
z: -0.019485963508486748
visibility: 0.9993734359741211
","x: 167.22227478027344
y: 165.75926208496094
z: -0.07403872907161713
visibility: 0.9996229410171509
","x: 156.14279174804688
y: 198.46229553222656
z: 0.13803386688232422
visibility: 0.9993422627449036
","x: 154.6421356201172
y: 201.4613037109375
z: -0.24105176329612732
visibility: 0.9999697804450989
","x: 166.173828125
y: 277.8257141113281
z: 0.20430859923362732
visibility: 0.8792176842689514
","x: 176.13272094726562
y: 261.65087890625
z: -0.28644371032714844
visibility: 0.9538224935531616
","x: 175.77432250976562
y: 320.31683349609375
z: 0.1707129180431366
visibility: 0.7568691372871399
","x: 215.76905822753906
y: 255.8780059814453
z: -0.24526973068714142
visibility: 0.8555973768234253
","x: 177.13780212402344
y: 332.8744812011719
z: 0.17307326197624207
visibility: 0.6309887766838074
","x: 228.30845642089844
y: 252.9460906982422
z: -0.27796533703804016
visibility: 0.7922583222389221
","x: 175.7611846923828
y: 327.564453125
z: 0.14707766473293304
visibility: 0.6079803705215454
","x: 227.9845428466797
y: 244.52513122558594
z: -0.263021320104599
visibility: 0.7929455041885376
","x: 175.2486572265625
y: 322.3343505859375
z: 0.15654262900352478
visibility: 0.5455498099327087
","x: 222.79708862304688
y: 245.34054565429688
z: -0.23742154240608215
visibility: 0.7426191568374634
","x: 178.3979949951172
y: 330.51116943359375
z: 0.10144464671611786
visibility: 0.9996541738510132
","x: 165.5233154296875
y: 338.69024658203125
z: -0.10148906707763672
visibility: 0.9997524619102478
","x: 210.5254669189453
y: 377.7494812011719
z: 0.02954082190990448
visibility: 0.9875175356864929
","x: 170.95066833496094
y: 429.01226806640625
z: -0.16586659848690033
visibility: 0.9954416155815125
","x: 203.39892578125
y: 471.1898498535156
z: 0.15264813601970673
visibility: 0.9007624983787537
","x: 161.11573791503906
y: 518.7110595703125
z: -0.07980617880821228
visibility: 0.9961077570915222
","x: 200.02606201171875
y: 483.9265441894531
z: 0.15883903205394745
visibility: 0.8279843926429749
","x: 160.2605743408203
y: 531.6107788085938
z: -0.07644443213939667
visibility: 0.9660242199897766
","x: 220.8029022216797
y: 502.4299621582031
z: 0.08895421028137207
visibility: 0.9124240875244141
","x: 180.2145538330078
y: 546.9068603515625
z: -0.1822691410779953
visibility: 0.9904474020004272
","x: 219.94151306152344
y: 255.12490844726562
z: 0.0
","x: 223.2882843017578
y: 246.3115692138672
z: -0.002306925365701318
","x: 227.81982421875
y: 238.33763122558594
z: -0.005065730307251215
","x: 231.1241912841797
y: 231.45394897460938
z: -0.008263597264885902
","x: 233.08340454101562
y: 224.9434051513672
z: -0.011357858777046204
","x: 236.44903564453125
y: 245.2284393310547
z: -0.0018433660734444857
","x: 242.98861694335938
y: 242.32745361328125
z: -0.004648835863918066
","x: 246.86502075195312
y: 240.42623901367188
z: -0.006552696693688631
","x: 249.86520385742188
y: 239.01197814941406
z: -0.007700156886130571
","x: 236.8994140625
y: 252.271728515625
z: -0.003413480706512928
","x: 243.98731994628906
y: 250.6940460205078
z: -0.005700615234673023
","x: 248.1563720703125
y: 249.00328063964844
z: -0.007129576988518238
","x: 251.39076232910156
y: 247.71066284179688
z: -0.008173028007149696
","x: 236.20387268066406
y: 258.7547302246094
z: -0.005477044731378555
","x: 242.90621948242188
y: 257.35345458984375
z: -0.008043184876441956
","x: 246.6202392578125
y: 255.3724822998047
z: -0.009108179248869419
","x: 249.37307739257812
y: 254.0253448486328
z: -0.009730763733386993
","x: 234.70623779296875
y: 264.69549560546875
z: -0.007974160835146904
","x: 240.1088104248047
y: 263.7969665527344
z: -0.00967429019510746
","x: 243.01104736328125
y: 261.68475341796875
z: -0.010074093006551266
","x: 245.12799072265625
y: 260.1148376464844
z: -0.010315094143152237
",,,,,,,,,,,,,,,,,,,,,
3,"x: 179.8496551513672
y: 157.04319763183594
z: -0.0965910404920578
visibility: 0.9997046589851379
","x: 176.8550567626953
y: 149.43959045410156
z: -0.08559276908636093
visibility: 0.9995230436325073
","x: 175.99588012695312
y: 149.26638793945312
z: -0.08560810983181
visibility: 0.9994785189628601
","x: 175.0321502685547
y: 149.031982421875
z: -0.08566030859947205
visibility: 0.9995146989822388
","x: 177.21910095214844
y: 149.20632934570312
z: -0.12163981050252914
visibility: 0.9996334910392761
","x: 176.70249938964844
y: 148.9241943359375
z: -0.12167255580425262
visibility: 0.9996716380119324
","x: 176.12376403808594
y: 148.60487365722656
z: -0.12181134521961212
visibility: 0.9996965527534485
","x: 168.58990478515625
y: 152.52940368652344
z: -0.010857736691832542
visibility: 0.9989851713180542
","x: 170.37258911132812
y: 152.31228637695312
z: -0.17456108331680298
visibility: 0.9996247291564941
","x: 177.80181884765625
y: 165.25531005859375
z: -0.06395404040813446
visibility: 0.9993019700050354
","x: 177.90484619140625
y: 165.61936950683594
z: -0.11209295690059662
visibility: 0.9995677471160889
","x: 156.59886169433594
y: 198.54681396484375
z: 0.1404244750738144
visibility: 0.9990089535713196
","x: 169.5983123779297
y: 196.8752899169922
z: -0.262222021818161
visibility: 0.9999662637710571
","x: 165.94601440429688
y: 239.65740966796875
z: 0.3825513422489166
visibility: 0.7992265820503235
","x: 206.4808349609375
y: 237.60206604003906
z: -0.3096466362476349
visibility: 0.9579856395721436
","x: 169.48318481445312
y: 215.38526916503906
z: 0.589028000831604
visibility: 0.6902250051498413
","x: 246.02371215820312
y: 222.86131286621094
z: -0.2828647494316101
visibility: 0.8683326244354248
","x: 167.3586883544922
y: 209.9493408203125
z: 0.6335076093673706
visibility: 0.5775291919708252
","x: 258.35784912109375
y: 218.24807739257812
z: -0.31757408380508423
visibility: 0.8100669384002686
","x: 169.6256103515625
y: 203.17335510253906
z: 0.6135752201080322
visibility: 0.5569461584091187
","x: 257.2991638183594
y: 209.5359649658203
z: -0.3108974099159241
visibility: 0.8106222152709961
","x: 171.14039611816406
y: 204.86634826660156
z: 0.5858580470085144
visibility: 0.5016405582427979
","x: 253.12294006347656
y: 210.95101928710938
z: -0.2784891426563263
visibility: 0.7610365748405457
","x: 180.55064392089844
y: 330.51470947265625
z: 0.12025775015354156
visibility: 0.9996171593666077
","x: 171.7894287109375
y: 335.23333740234375
z: -0.12039285898208618
visibility: 0.9997294545173645
","x: 200.711669921875
y: 407.0260925292969
z: 0.2567116618156433
visibility: 0.9554116725921631
","x: 173.02935791015625
y: 429.71356201171875
z: -0.09259766340255737
visibility: 0.9941880106925964
","x: 207.661376953125
y: 494.2624206542969
z: 0.4208645224571228
visibility: 0.9026473760604858
","x: 162.4729461669922
y: 519.716552734375
z: 0.0433829203248024
visibility: 0.9960520267486572
","x: 204.20977783203125
y: 511.5119934082031
z: 0.405216783285141
visibility: 0.8361933827400208
","x: 158.28182983398438
y: 533.017822265625
z: 0.051003001630306244
visibility: 0.9664655327796936
","x: 229.15904235839844
y: 510.9323425292969
z: 0.33472079038619995
visibility: 0.9165169596672058
","x: 182.7094268798828
y: 547.4480590820312
z: -0.05041766166687012
visibility: 0.990809440612793
","x: 248.95826721191406
y: 220.50555419921875
z: 0.0
","x: 250.87060546875
y: 208.8389434814453
z: -0.0018815099028870463
","x: 254.0225830078125
y: 198.7362060546875
z: -0.0036865239962935448
","x: 256.5754089355469
y: 191.07754516601562
z: -0.0051025706343352795
","x: 258.1993103027344
y: 185.7501983642578
z: -0.006083230953663588
","x: 262.3261413574219
y: 206.9386444091797
z: -0.0031409889925271273
","x: 269.4384460449219
y: 203.0602264404297
z: -0.004232578910887241
","x: 273.2150573730469
y: 201.23373413085938
z: -0.004121186677366495
","x: 276.2294921875
y: 200.1678466796875
z: -0.0037834818940609694
","x: 263.52813720703125
y: 213.10079956054688
z: -0.0029855191241949797
","x: 270.6073303222656
y: 209.22914123535156
z: -0.0037857862189412117
","x: 274.464599609375
y: 206.9180450439453
z: -0.003216901794075966
","x: 277.369873046875
y: 205.29507446289062
z: -0.002801982220262289
","x: 263.76739501953125
y: 217.63710021972656
z: -0.0028317535761743784
","x: 270.0295104980469
y: 214.18885803222656
z: -0.003925621975213289
","x: 273.482177734375
y: 211.81805419921875
z: -0.0038790544494986534
","x: 276.00091552734375
y: 210.1563262939453
z: -0.003693285398185253
","x: 263.38995361328125
y: 220.65530395507812
z: -0.002925225766375661
","x: 268.1245422363281
y: 218.07049560546875
z: -0.003692096332088113
","x: 270.9314270019531
y: 215.96804809570312
z: -0.003778180107474327
","x: 273.0219421386719
y: 214.1461181640625
z: -0.0036585070192813873
",,,,,,,,,,,,,,,,,,,,,
4,"x: 179.8496551513672
y: 157.04319763183594
z: -0.0965910404920578
visibility: 0.9997046589851379
","x: 176.8550567626953
y: 149.43959045410156
z: -0.08559276908636093
visibility: 0.9995230436325073
","x: 175.99588012695312
y: 149.26638793945312
z: -0.08560810983181
visibility: 0.9994785189628601
","x: 175.0321502685547
y: 149.031982421875
z: -0.08566030859947205
visibility: 0.9995146989822388
","x: 177.21910095214844
y: 149.20632934570312
z: -0.12163981050252914
visibility: 0.9996334910392761
","x: 176.70249938964844
y: 148.9241943359375
z: -0.12167255580425262
visibility: 0.9996716380119324
","x: 176.12376403808594
y: 148.60487365722656
z: -0.12181134521961212
visibility: 0.9996965527534485
","x: 168.58990478515625
y: 152.52940368652344
z: -0.010857736691832542
visibility: 0.9989851713180542
","x: 170.37258911132812
y: 152.31228637695312
z: -0.17456108331680298
visibility: 0.9996247291564941
","x: 177.80181884765625
y: 165.25531005859375
z: -0.06395404040813446
visibility: 0.9993019700050354
","x: 177.90484619140625
y: 165.61936950683594
z: -0.11209295690059662
visibility: 0.9995677471160889
","x: 156.59886169433594
y: 198.54681396484375
z: 0.1404244750738144
visibility: 0.9990089535713196
","x: 169.5983123779297
y: 196.8752899169922
z: -0.262222021818161
visibility: 0.9999662637710571
","x: 165.94601440429688
y: 239.65740966796875
z: 0.3825513422489166
visibility: 0.7992265820503235
","x: 206.4808349609375
y: 237.60206604003906
z: -0.3096466362476349
visibility: 0.9579856395721436
","x: 169.48318481445312
y: 215.38526916503906
z: 0.589028000831604
visibility: 0.6902250051498413
","x: 246.02371215820312
y: 222.86131286621094
z: -0.2828647494316101
visibility: 0.8683326244354248
","x: 167.3586883544922
y: 209.9493408203125
z: 0.6335076093673706
visibility: 0.5775291919708252
","x: 258.35784912109375
y: 218.24807739257812
z: -0.31757408380508423
visibility: 0.8100669384002686
","x: 169.6256103515625
y: 203.17335510253906
z: 0.6135752201080322
visibility: 0.5569461584091187
","x: 257.2991638183594
y: 209.5359649658203
z: -0.3108974099159241
visibility: 0.8106222152709961
","x: 171.14039611816406
y: 204.86634826660156
z: 0.5858580470085144
visibility: 0.5016405582427979
","x: 253.12294006347656
y: 210.95101928710938
z: -0.2784891426563263
visibility: 0.7610365748405457
","x: 180.55064392089844
y: 330.51470947265625
z: 0.12025775015354156
visibility: 0.9996171593666077
","x: 171.7894287109375
y: 335.23333740234375
z: -0.12039285898208618
visibility: 0.9997294545173645
","x: 200.711669921875
y: 407.0260925292969
z: 0.2567116618156433
visibility: 0.9554116725921631
","x: 173.02935791015625
y: 429.71356201171875
z: -0.09259766340255737
visibility: 0.9941880106925964
","x: 207.661376953125
y: 494.2624206542969
z: 0.4208645224571228
visibility: 0.9026473760604858
","x: 162.4729461669922
y: 519.716552734375
z: 0.0433829203248024
visibility: 0.9960520267486572
","x: 204.20977783203125
y: 511.5119934082031
z: 0.405216783285141
visibility: 0.8361933827400208
","x: 158.28182983398438
y: 533.017822265625
z: 0.051003001630306244
visibility: 0.9664655327796936
","x: 229.15904235839844
y: 510.9323425292969
z: 0.33472079038619995
visibility: 0.9165169596672058
","x: 182.7094268798828
y: 547.4480590820312
z: -0.05041766166687012
visibility: 0.990809440612793
","x: 248.95826721191406
y: 220.50555419921875
z: 0.0
","x: 250.87060546875
y: 208.8389434814453
z: -0.0018815099028870463
","x: 254.0225830078125
y: 198.7362060546875
z: -0.0036865239962935448
","x: 256.5754089355469
y: 191.07754516601562
z: -0.0051025706343352795
","x: 258.1993103027344
y: 185.7501983642578
z: -0.006083230953663588
","x: 262.3261413574219
y: 206.9386444091797
z: -0.0031409889925271273
","x: 269.4384460449219
y: 203.0602264404297
z: -0.004232578910887241
","x: 273.2150573730469
y: 201.23373413085938
z: -0.004121186677366495
","x: 276.2294921875
y: 200.1678466796875
z: -0.0037834818940609694
","x: 263.52813720703125
y: 213.10079956054688
z: -0.0029855191241949797
","x: 270.6073303222656
y: 209.22914123535156
z: -0.0037857862189412117
","x: 274.464599609375
y: 206.9180450439453
z: -0.003216901794075966
","x: 277.369873046875
y: 205.29507446289062
z: -0.002801982220262289
","x: 263.76739501953125
y: 217.63710021972656
z: -0.0028317535761743784
","x: 270.0295104980469
y: 214.18885803222656
z: -0.003925621975213289
","x: 273.482177734375
y: 211.81805419921875
z: -0.0038790544494986534
","x: 276.00091552734375
y: 210.1563262939453
z: -0.003693285398185253
","x: 263.38995361328125
y: 220.65530395507812
z: -0.002925225766375661
","x: 268.1245422363281
y: 218.07049560546875
z: -0.003692096332088113
","x: 270.9314270019531
y: 215.96804809570312
z: -0.003778180107474327
","x: 273.0219421386719
y: 214.1461181640625
z: -0.0036585070192813873
",,,,,,,,,,,,,,,,,,,,,
5,"x: 188.05746459960938
y: 156.92178344726562
z: -0.135646253824234
visibility: 0.9997334480285645
","x: 184.72952270507812
y: 149.1990203857422
z: -0.1237698346376419
visibility: 0.9995698928833008
","x: 183.82533264160156
y: 149.0650634765625
z: -0.12372531741857529
visibility: 0.9995289444923401
","x: 182.80902099609375
y: 148.86630249023438
z: -0.12375110387802124
visibility: 0.9995619654655457
","x: 185.42320251464844
y: 149.01083374023438
z: -0.1579570174217224
visibility: 0.9996698498725891
","x: 185.10694885253906
y: 148.79873657226562
z: -0.15799570083618164
visibility: 0.9997041821479797
","x: 184.7344207763672
y: 148.5560302734375
z: -0.15810717642307281
visibility: 0.9997266530990601
","x: 176.95758056640625
y: 152.49630737304688
z: -0.046766042709350586
visibility: 0.9990838170051575
","x: 180.0552978515625
y: 152.59603881835938
z: -0.20198564231395721
visibility: 0.9996618032455444
","x: 186.19789123535156
y: 165.2705535888672
z: -0.10229523479938507
visibility: 0.9993644952774048
","x: 186.69944763183594
y: 165.64007568359375
z: -0.14849969744682312
visibility: 0.999606728553772
","x: 164.03125
y: 198.50592041015625
z: 0.10536961257457733
visibility: 0.998996376991272
","x: 184.1139678955078
y: 201.71163940429688
z: -0.29079824686050415
visibility: 0.9999673366546631
","x: 160.5593719482422
y: 185.60423278808594
z: 0.4095994830131531
visibility: 0.7785465717315674
","x: 224.6356964111328
y: 230.95849609375
z: -0.3504551351070404
visibility: 0.962090790271759
","x: 157.2628631591797
y: 148.1642608642578
z: 0.7110288739204407
visibility: 0.6968681812286377
","x: 263.26495361328125
y: 223.55136108398438
z: -0.3251344561576843
visibility: 0.881161630153656
","x: 153.38980102539062
y: 137.0445098876953
z: 0.7676868438720703
visibility: 0.5890243649482727
","x: 272.3558349609375
y: 219.51499938964844
z: -0.3546004891395569
visibility: 0.8282470703125
","x: 154.7718505859375
y: 134.72012329101562
z: 0.7479215860366821
visibility: 0.5701432824134827
","x: 272.3334655761719
y: 210.6139373779297
z: -0.3526684641838074
visibility: 0.8287357091903687
","x: 156.54730224609375
y: 139.08619689941406
z: 0.7103757262229919
visibility: 0.5192208886146545
","x: 269.3731384277344
y: 212.94125366210938
z: -0.32190436124801636
visibility: 0.7826971411705017
","x: 186.34571838378906
y: 330.2845458984375
z: 0.11796864122152328
visibility: 0.9996326565742493
","x: 180.54525756835938
y: 334.603515625
z: -0.11834654957056046
visibility: 0.9997432231903076
","x: 199.19757080078125
y: 413.3262939453125
z: 0.24723613262176514
visibility: 0.9333958625793457
","x: 177.05787658691406
y: 428.99432373046875
z: -0.0979461818933487
visibility: 0.9923832416534424
","x: 207.85667419433594
y: 497.7542724609375
z: 0.4274040162563324
visibility: 0.9019060134887695
","x: 162.31427001953125
y: 519.9591674804688
z: -0.023095207288861275
visibility: 0.99581378698349
","x: 203.5894775390625
y: 515.7606201171875
z: 0.41978079080581665
visibility: 0.8407097458839417
","x: 155.63217163085938
y: 532.8612670898438
z: -0.018735641613602638
visibility: 0.9664245843887329
","x: 229.7923583984375
y: 512.8314208984375
z: 0.37520191073417664
visibility: 0.9180281758308411
","x: 180.98788452148438
y: 547.7463989257812
z: -0.10775449126958847
visibility: 0.9909423589706421
","x: 263.750244140625
y: 219.32586669921875
z: 0.0
","x: 266.4305114746094
y: 209.56130981445312
z: -0.001653457758948207
","x: 270.3097229003906
y: 201.1817169189453
z: -0.0038753163535147905
","x: 272.620361328125
y: 194.7578125
z: -0.006264666095376015
","x: 273.2232360839844
y: 189.42141723632812
z: -0.008496866561472416
","x: 277.2226867675781
y: 210.19647216796875
z: -0.0028406281489878893
","x: 283.84393310546875
y: 209.4011688232422
z: -0.005692162085324526
","x: 287.61749267578125
y: 209.17416381835938
z: -0.00727953901514411
","x: 290.5879821777344
y: 208.94271850585938
z: -0.008170158602297306
","x: 277.3633117675781
y: 214.4265594482422
z: -0.004012417979538441
","x: 284.04010009765625
y: 213.90505981445312
z: -0.006784731522202492
","x: 288.04266357421875
y: 213.1237030029297
z: -0.007739513646811247
","x: 291.227783203125
y: 212.31832885742188
z: -0.008390490896999836
","x: 276.7747802734375
y: 217.69407653808594
z: -0.005415981635451317
","x: 282.63995361328125
y: 216.8173370361328
z: -0.008360950276255608
","x: 286.3009033203125
y: 215.6018829345703
z: -0.009088540449738503
","x: 289.1780700683594
y: 214.44418334960938
z: -0.009332746267318726
","x: 275.7043762207031
y: 219.91290283203125
z: -0.007098149973899126
","x: 280.107421875
y: 219.2780303955078
z: -0.009243731386959553
","x: 282.8213806152344
y: 217.92015075683594
z: -0.009614729322493076
","x: 285.03741455078125
y: 216.638671875
z: -0.009691006503999233
","x: 153.58404541015625
y: 139.734130859375
z: 0.0
","x: 150.18238830566406
y: 138.53628540039062
z: -0.001156893209554255
","x: 146.9824676513672
y: 135.37953186035156
z: -0.0022139842621982098
","x: 145.22860717773438
y: 132.04837036132812
z: -0.0037422298919409513
","x: 144.3296661376953
y: 129.6611328125
z: -0.005265075713396072
","x: 147.71243286132812
y: 125.91177368164062
z: 0.00044268136844038963
","x: 145.7645721435547
y: 120.52123260498047
z: -0.0013331883819773793
","x: 144.5758056640625
y: 116.44247436523438
z: -0.0028467595111578703
","x: 143.77635192871094
y: 113.14949798583984
z: -0.003854757873341441
","x: 149.8428955078125
y: 124.00724792480469
z: -0.0007964588003233075
","x: 148.57994079589844
y: 118.01082611083984
z: -0.002152001950889826
","x: 147.86160278320312
y: 113.44941711425781
z: -0.003405200084671378
","x: 147.4169464111328
y: 109.7117691040039
z: -0.00441884808242321
","x: 152.1466522216797
y: 123.59005737304688
z: -0.002505518728867173
","x: 151.31468200683594
y: 118.00379943847656
z: -0.0042563993483781815
","x: 150.62091064453125
y: 114.39553833007812
z: -0.005467080511152744
","x: 150.1862030029297
y: 111.97969055175781
z: -0.006257541012018919
","x: 154.72640991210938
y: 124.48583984375
z: -0.004513986874371767
","x: 154.66900634765625
y: 120.59762573242188
z: -0.0058580548502504826
","x: 154.5536651611328
y: 119.16929626464844
z: -0.006415285635739565
","x: 154.5678253173828
y: 118.74961853027344
z: -0.0067634377628564835
"
6,"x: 188.05746459960938
y: 156.92178344726562
z: -0.135646253824234
visibility: 0.9997334480285645
","x: 184.72952270507812
y: 149.1990203857422
z: -0.1237698346376419
visibility: 0.9995698928833008
","x: 183.82533264160156
y: 149.0650634765625
z: -0.12372531741857529
visibility: 0.9995289444923401
","x: 182.80902099609375
y: 148.86630249023438
z: -0.12375110387802124
visibility: 0.9995619654655457
","x: 185.42320251464844
y: 149.01083374023438
z: -0.1579570174217224
visibility: 0.9996698498725891
","x: 185.10694885253906
y: 148.79873657226562
z: -0.15799570083618164
visibility: 0.9997041821479797
","x: 184.7344207763672
y: 148.5560302734375
z: -0.15810717642307281
visibility: 0.9997266530990601
","x: 176.95758056640625
y: 152.49630737304688
z: -0.046766042709350586
visibility: 0.9990838170051575
","x: 180.0552978515625
y: 152.59603881835938
z: -0.20198564231395721
visibility: 0.9996618032455444
","x: 186.19789123535156
y: 165.2705535888672
z: -0.10229523479938507
visibility: 0.9993644952774048
","x: 186.69944763183594
y: 165.64007568359375
z: -0.14849969744682312
visibility: 0.999606728553772
","x: 164.03125
y: 198.50592041015625
z: 0.10536961257457733
visibility: 0.998996376991272
","x: 184.1139678955078
y: 201.71163940429688
z: -0.29079824686050415
visibility: 0.9999673366546631
","x: 160.5593719482422
y: 185.60423278808594
z: 0.4095994830131531
visibility: 0.7785465717315674
","x: 224.6356964111328
y: 230.95849609375
z: -0.3504551351070404
visibility: 0.962090790271759
","x: 157.2628631591797
y: 148.1642608642578
z: 0.7110288739204407
visibility: 0.6968681812286377
","x: 263.26495361328125
y: 223.55136108398438
z: -0.3251344561576843
visibility: 0.881161630153656
","x: 153.38980102539062
y: 137.0445098876953
z: 0.7676868438720703
visibility: 0.5890243649482727
","x: 272.3558349609375
y: 219.51499938964844
z: -0.3546004891395569
visibility: 0.8282470703125
","x: 154.7718505859375
y: 134.72012329101562
z: 0.7479215860366821
visibility: 0.5701432824134827
","x: 272.3334655761719
y: 210.6139373779297
z: -0.3526684641838074
visibility: 0.8287357091903687
","x: 156.54730224609375
y: 139.08619689941406
z: 0.7103757262229919
visibility: 0.5192208886146545
","x: 269.3731384277344
y: 212.94125366210938
z: -0.32190436124801636
visibility: 0.7826971411705017
","x: 186.34571838378906
y: 330.2845458984375
z: 0.11796864122152328
visibility: 0.9996326565742493
","x: 180.54525756835938
y: 334.603515625
z: -0.11834654957056046
visibility: 0.9997432231903076
","x: 199.19757080078125
y: 413.3262939453125
z: 0.24723613262176514
visibility: 0.9333958625793457
","x: 177.05787658691406
y: 428.99432373046875
z: -0.0979461818933487
visibility: 0.9923832416534424
","x: 207.85667419433594
y: 497.7542724609375
z: 0.4274040162563324
visibility: 0.9019060134887695
","x: 162.31427001953125
y: 519.9591674804688
z: -0.023095207288861275
visibility: 0.99581378698349
","x: 203.5894775390625
y: 515.7606201171875
z: 0.41978079080581665
visibility: 0.8407097458839417
","x: 155.63217163085938
y: 532.8612670898438
z: -0.018735641613602638
visibility: 0.9664245843887329
","x: 229.7923583984375
y: 512.8314208984375
z: 0.37520191073417664
visibility: 0.9180281758308411
","x: 180.98788452148438
y: 547.7463989257812
z: -0.10775449126958847
visibility: 0.9909423589706421
","x: 263.750244140625
y: 219.32586669921875
z: 0.0
","x: 266.4305114746094
y: 209.56130981445312
z: -0.001653457758948207
","x: 270.3097229003906
y: 201.1817169189453
z: -0.0038753163535147905
","x: 272.620361328125
y: 194.7578125
z: -0.006264666095376015
","x: 273.2232360839844
y: 189.42141723632812
z: -0.008496866561472416
","x: 277.2226867675781
y: 210.19647216796875
z: -0.0028406281489878893
","x: 283.84393310546875
y: 209.4011688232422
z: -0.005692162085324526
","x: 287.61749267578125
y: 209.17416381835938
z: -0.00727953901514411
","x: 290.5879821777344
y: 208.94271850585938
z: -0.008170158602297306
","x: 277.3633117675781
y: 214.4265594482422
z: -0.004012417979538441
","x: 284.04010009765625
y: 213.90505981445312
z: -0.006784731522202492
","x: 288.04266357421875
y: 213.1237030029297
z: -0.007739513646811247
","x: 291.227783203125
y: 212.31832885742188
z: -0.008390490896999836
","x: 276.7747802734375
y: 217.69407653808594
z: -0.005415981635451317
","x: 282.63995361328125
y: 216.8173370361328
z: -0.008360950276255608
","x: 286.3009033203125
y: 215.6018829345703
z: -0.009088540449738503
","x: 289.1780700683594
y: 214.44418334960938
z: -0.009332746267318726
","x: 275.7043762207031
y: 219.91290283203125
z: -0.007098149973899126
","x: 280.107421875
y: 219.2780303955078
z: -0.009243731386959553
","x: 282.8213806152344
y: 217.92015075683594
z: -0.009614729322493076
","x: 285.03741455078125
y: 216.638671875
z: -0.009691006503999233
","x: 153.58404541015625
y: 139.734130859375
z: 0.0
","x: 150.18238830566406
y: 138.53628540039062
z: -0.001156893209554255
","x: 146.9824676513672
y: 135.37953186035156
z: -0.0022139842621982098
","x: 145.22860717773438
y: 132.04837036132812
z: -0.0037422298919409513
","x: 144.3296661376953
y: 129.6611328125
z: -0.005265075713396072
","x: 147.71243286132812
y: 125.91177368164062
z: 0.00044268136844038963
","x: 145.7645721435547
y: 120.52123260498047
z: -0.0013331883819773793
","x: 144.5758056640625
y: 116.44247436523438
z: -0.0028467595111578703
","x: 143.77635192871094
y: 113.14949798583984
z: -0.003854757873341441
","x: 149.8428955078125
y: 124.00724792480469
z: -0.0007964588003233075
","x: 148.57994079589844
y: 118.01082611083984
z: -0.002152001950889826
","x: 147.86160278320312
y: 113.44941711425781
z: -0.003405200084671378
","x: 147.4169464111328
y: 109.7117691040039
z: -0.00441884808242321
","x: 152.1466522216797
y: 123.59005737304688
z: -0.002505518728867173
","x: 151.31468200683594
y: 118.00379943847656
z: -0.0042563993483781815
","x: 150.62091064453125
y: 114.39553833007812
z: -0.005467080511152744
","x: 150.1862030029297
y: 111.97969055175781
z: -0.006257541012018919
","x: 154.72640991210938
y: 124.48583984375
z: -0.004513986874371767
","x: 154.66900634765625
y: 120.59762573242188
z: -0.0058580548502504826
","x: 154.5536651611328
y: 119.16929626464844
z: -0.006415285635739565
","x: 154.5678253173828
y: 118.74961853027344
z: -0.0067634377628564835
"
7,"x: 188.05746459960938
y: 156.92178344726562
z: -0.135646253824234
visibility: 0.9997334480285645
","x: 184.72952270507812
y: 149.1990203857422
z: -0.1237698346376419
visibility: 0.9995698928833008
","x: 183.82533264160156
y: 149.0650634765625
z: -0.12372531741857529
visibility: 0.9995289444923401
","x: 182.80902099609375
y: 148.86630249023438
z: -0.12375110387802124
visibility: 0.9995619654655457
","x: 185.42320251464844
y: 149.01083374023438
z: -0.1579570174217224
visibility: 0.9996698498725891
","x: 185.10694885253906
y: 148.79873657226562
z: -0.15799570083618164
visibility: 0.9997041821479797
","x: 184.7344207763672
y: 148.5560302734375
z: -0.15810717642307281
visibility: 0.9997266530990601
","x: 176.95758056640625
y: 152.49630737304688
z: -0.046766042709350586
visibility: 0.9990838170051575
","x: 180.0552978515625
y: 152.59603881835938
z: -0.20198564231395721
visibility: 0.9996618032455444
","x: 186.19789123535156
y: 165.2705535888672
z: -0.10229523479938507
visibility: 0.9993644952774048
","x: 186.69944763183594
y: 165.64007568359375
z: -0.14849969744682312
visibility: 0.999606728553772
","x: 164.03125
y: 198.50592041015625
z: 0.10536961257457733
visibility: 0.998996376991272
","x: 184.1139678955078
y: 201.71163940429688
z: -0.29079824686050415
visibility: 0.9999673366546631
","x: 160.5593719482422
y: 185.60423278808594
z: 0.4095994830131531
visibility: 0.7785465717315674
","x: 224.6356964111328
y: 230.95849609375
z: -0.3504551351070404
visibility: 0.962090790271759
","x: 157.2628631591797
y: 148.1642608642578
z: 0.7110288739204407
visibility: 0.6968681812286377
","x: 263.26495361328125
y: 223.55136108398438
z: -0.3251344561576843
visibility: 0.881161630153656
","x: 153.38980102539062
y: 137.0445098876953
z: 0.7676868438720703
visibility: 0.5890243649482727
","x: 272.3558349609375
y: 219.51499938964844
z: -0.3546004891395569
visibility: 0.8282470703125
","x: 154.7718505859375
y: 134.72012329101562
z: 0.7479215860366821
visibility: 0.5701432824134827
","x: 272.3334655761719
y: 210.6139373779297
z: -0.3526684641838074
visibility: 0.8287357091903687
","x: 156.54730224609375
y: 139.08619689941406
z: 0.7103757262229919
visibility: 0.5192208886146545
","x: 269.3731384277344
y: 212.94125366210938
z: -0.32190436124801636
visibility: 0.7826971411705017
","x: 186.34571838378906
y: 330.2845458984375
z: 0.11796864122152328
visibility: 0.9996326565742493
","x: 180.54525756835938
y: 334.603515625
z: -0.11834654957056046
visibility: 0.9997432231903076
","x: 199.19757080078125
y: 413.3262939453125
z: 0.24723613262176514
visibility: 0.9333958625793457
","x: 177.05787658691406
y: 428.99432373046875
z: -0.0979461818933487
visibility: 0.9923832416534424
","x: 207.85667419433594
y: 497.7542724609375
z: 0.4274040162563324
visibility: 0.9019060134887695
","x: 162.31427001953125
y: 519.9591674804688
z: -0.023095207288861275
visibility: 0.99581378698349
","x: 203.5894775390625
y: 515.7606201171875
z: 0.41978079080581665
visibility: 0.8407097458839417
","x: 155.63217163085938
y: 532.8612670898438
z: -0.018735641613602638
visibility: 0.9664245843887329
","x: 229.7923583984375
y: 512.8314208984375
z: 0.37520191073417664
visibility: 0.9180281758308411
","x: 180.98788452148438
y: 547.7463989257812
z: -0.10775449126958847
visibility: 0.9909423589706421
","x: 263.750244140625
y: 219.32586669921875
z: 0.0
","x: 266.4305114746094
y: 209.56130981445312
z: -0.001653457758948207
","x: 270.3097229003906
y: 201.1817169189453
z: -0.0038753163535147905
","x: 272.620361328125
y: 194.7578125
z: -0.006264666095376015
","x: 273.2232360839844
y: 189.42141723632812
z: -0.008496866561472416
","x: 277.2226867675781
y: 210.19647216796875
z: -0.0028406281489878893
","x: 283.84393310546875
y: 209.4011688232422
z: -0.005692162085324526
","x: 287.61749267578125
y: 209.17416381835938
z: -0.00727953901514411
","x: 290.5879821777344
y: 208.94271850585938
z: -0.008170158602297306
","x: 277.3633117675781
y: 214.4265594482422
z: -0.004012417979538441
","x: 284.04010009765625
y: 213.90505981445312
z: -0.006784731522202492
","x: 288.04266357421875
y: 213.1237030029297
z: -0.007739513646811247
","x: 291.227783203125
y: 212.31832885742188
z: -0.008390490896999836
","x: 276.7747802734375
y: 217.69407653808594
z: -0.005415981635451317
","x: 282.63995361328125
y: 216.8173370361328
z: -0.008360950276255608
","x: 286.3009033203125
y: 215.6018829345703
z: -0.009088540449738503
","x: 289.1780700683594
y: 214.44418334960938
z: -0.009332746267318726
","x: 275.7043762207031
y: 219.91290283203125
z: -0.007098149973899126
","x: 280.107421875
y: 219.2780303955078
z: -0.009243731386959553
","x: 282.8213806152344
y: 217.92015075683594
z: -0.009614729322493076
","x: 285.03741455078125
y: 216.638671875
z: -0.009691006503999233
","x: 153.58404541015625
y: 139.734130859375
z: 0.0
","x: 150.18238830566406
y: 138.53628540039062
z: -0.001156893209554255
","x: 146.9824676513672
y: 135.37953186035156
z: -0.0022139842621982098
","x: 145.22860717773438
y: 132.04837036132812
z: -0.0037422298919409513
","x: 144.3296661376953
y: 129.6611328125
z: -0.005265075713396072
","x: 147.71243286132812
y: 125.91177368164062
z: 0.00044268136844038963
","x: 145.7645721435547
y: 120.52123260498047
z: -0.0013331883819773793
","x: 144.5758056640625
y: 116.44247436523438
z: -0.0028467595111578703
","x: 143.77635192871094
y: 113.14949798583984
z: -0.003854757873341441
","x: 149.8428955078125
y: 124.00724792480469
z: -0.0007964588003233075
","x: 148.57994079589844
y: 118.01082611083984
z: -0.002152001950889826
","x: 147.86160278320312
y: 113.44941711425781
z: -0.003405200084671378
","x: 147.4169464111328
y: 109.7117691040039
z: -0.00441884808242321
","x: 152.1466522216797
y: 123.59005737304688
z: -0.002505518728867173
","x: 151.31468200683594
y: 118.00379943847656
z: -0.0042563993483781815
","x: 150.62091064453125
y: 114.39553833007812
z: -0.005467080511152744
","x: 150.1862030029297
y: 111.97969055175781
z: -0.006257541012018919
","x: 154.72640991210938
y: 124.48583984375
z: -0.004513986874371767
","x: 154.66900634765625
y: 120.59762573242188
z: -0.0058580548502504826
","x: 154.5536651611328
y: 119.16929626464844
z: -0.006415285635739565
","x: 154.5678253173828
y: 118.74961853027344
z: -0.0067634377628564835
"
8,"x: 190.94349670410156
y: 157.68679809570312
z: -0.149941086769104
visibility: 0.9997594356536865
","x: 187.7327117919922
y: 149.92620849609375
z: -0.13716137409210205
visibility: 0.9996120929718018
","x: 187.171875
y: 149.7152099609375
z: -0.13712945580482483
visibility: 0.9995743036270142
","x: 186.57061767578125
y: 149.46218872070312
z: -0.13715176284313202
visibility: 0.9996045827865601
","x: 187.82310485839844
y: 150.21145629882812
z: -0.1706899255514145
visibility: 0.9997026324272156
","x: 187.3743133544922
y: 150.24899291992188
z: -0.17073242366313934
visibility: 0.9997335076332092
","x: 186.88900756835938
y: 150.28805541992188
z: -0.17083702981472015
visibility: 0.9997537732124329
","x: 181.88070678710938
y: 153.05079650878906
z: -0.057620394974946976
visibility: 0.9991724491119385
","x: 182.67161560058594
y: 154.17222595214844
z: -0.21073052287101746
visibility: 0.9996951818466187
","x: 189.8800048828125
y: 165.5572509765625
z: -0.11597664654254913
visibility: 0.9994212985038757
","x: 189.82965087890625
y: 166.14149475097656
z: -0.1613347977399826
visibility: 0.9996420741081238
","x: 168.5262908935547
y: 198.5777130126953
z: 0.09193519502878189
visibility: 0.998996376991272
","x: 186.26194763183594
y: 204.69256591796875
z: -0.2945382297039032
visibility: 0.9999685883522034
","x: 160.4239959716797
y: 179.5468292236328
z: 0.3908660411834717
visibility: 0.7669151425361633
","x: 226.48764038085938
y: 229.5474853515625
z: -0.3652244806289673
visibility: 0.9658170938491821
","x: 155.78134155273438
y: 142.18228149414062
z: 0.677384614944458
visibility: 0.7091284990310669
","x: 264.3062438964844
y: 224.49310302734375
z: -0.3518602252006531
visibility: 0.8928273916244507
","x: 152.08627319335938
y: 133.14390563964844
z: 0.728698194026947
visibility: 0.6065928339958191
","x: 274.48516845703125
y: 218.37750244140625
z: -0.3838127553462982
visibility: 0.8448584079742432
","x: 153.52525329589844
y: 131.27871704101562
z: 0.7105296850204468
visibility: 0.5891170501708984
","x: 274.0097961425781
y: 211.7292022705078
z: -0.38241520524024963
visibility: 0.8452861309051514
","x: 155.12960815429688
y: 135.3355712890625
z: 0.6767173409461975
visibility: 0.5416272878646851
","x: 270.5244140625
y: 215.08314514160156
z: -0.34921419620513916
visibility: 0.8028352856636047
","x: 189.71966552734375
y: 330.2583312988281
z: 0.11601344496011734
visibility: 0.9996384382247925
","x: 181.91311645507812
y: 334.21319580078125
z: -0.11642427742481232
visibility: 0.9997531175613403
","x: 198.8884735107422
y: 413.82672119140625
z: 0.24529226124286652
visibility: 0.9184913039207458
","x: 179.57542419433594
y: 426.70233154296875
z: -0.10157620906829834
visibility: 0.991247296333313
","x: 207.67750549316406
y: 497.7336120605469
z: 0.42868947982788086
visibility: 0.9029821753501892
","x: 162.16790771484375
y: 519.8823852539062
z: -0.03571202605962753
visibility: 0.9956858158111572
","x: 203.28610229492188
y: 515.2750244140625
z: 0.4283042848110199
visibility: 0.8460599780082703
","x: 154.546875
y: 532.135986328125
z: -0.032509077340364456
visibility: 0.9663726687431335
","x: 229.38780212402344
y: 512.2064208984375
z: 0.3879545331001282
visibility: 0.9210992455482483
","x: 181.65814208984375
y: 548.0994262695312
z: -0.1244688481092453
visibility: 0.9911787509918213
","x: 265.8309631347656
y: 221.98355102539062
z: 0.0
","x: 268.46923828125
y: 211.30523681640625
z: -0.002088736044242978
","x: 271.6605224609375
y: 202.64967346191406
z: -0.004077136516571045
","x: 273.5392150878906
y: 196.01861572265625
z: -0.0057112653739750385
","x: 274.351806640625
y: 191.53802490234375
z: -0.007118311244994402
","x: 277.91815185546875
y: 214.321044921875
z: -0.0038717039860785007
","x: 284.49383544921875
y: 212.63430786132812
z: -0.005661899223923683
","x: 288.3438415527344
y: 211.5141143798828
z: -0.006602170877158642
","x: 291.51470947265625
y: 210.62635803222656
z: -0.007049969397485256
","x: 278.65350341796875
y: 218.56031799316406
z: -0.003586928825825453
","x: 285.4029541015625
y: 216.6160430908203
z: -0.005247545428574085
","x: 289.2887268066406
y: 214.91531372070312
z: -0.0054472144693136215
","x: 292.6328125
y: 213.3790740966797
z: -0.0056654163636267185
","x: 278.70184326171875
y: 221.09693908691406
z: -0.0033201801124960184
","x: 284.6356506347656
y: 218.89871215820312
z: -0.004591924604028463
","x: 288.18695068359375
y: 217.10235595703125
z: -0.004654402378946543
","x: 291.0721130371094
y: 215.59774780273438
z: -0.00468854047358036
","x: 278.3746643066406
y: 222.03468322753906
z: -0.0033420065883547068
","x: 283.06982421875
y: 219.82164001464844
z: -0.004138965625315905
","x: 286.09320068359375
y: 217.86520385742188
z: -0.0041990941390395164
","x: 288.45025634765625
y: 216.21847534179688
z: -0.004149563144892454
","x: 154.81173706054688
y: 139.72085571289062
z: 0.0
","x: 151.2875518798828
y: 138.5848388671875
z: -0.0014342674985527992
","x: 147.9320526123047
y: 135.15679931640625
z: -0.0024357952643185854
","x: 145.58326721191406
y: 132.04937744140625
z: -0.0038055768236517906
","x: 143.6458740234375
y: 130.4049530029297
z: -0.0051665459759533405
","x: 148.9893798828125
y: 125.49911499023438
z: 0.0005450777825899422
","x: 147.130615234375
y: 120.1180648803711
z: -0.0012902554590255022
","x: 146.00634765625
y: 116.31903839111328
z: -0.0028523646760731936
","x: 145.2373046875
y: 113.17626953125
z: -0.0039451648481190205
","x: 151.17742919921875
y: 123.85453796386719
z: -0.0006472798995673656
","x: 150.3013153076172
y: 117.52830505371094
z: -0.0020408008713275194
","x: 149.8589324951172
y: 113.09619903564453
z: -0.003418728243559599
","x: 149.69650268554688
y: 109.3125991821289
z: -0.004579869564622641
","x: 153.48219299316406
y: 124.0049057006836
z: -0.0023920254316180944
","x: 153.1319122314453
y: 118.21745300292969
z: -0.0043456279672682285
","x: 152.96116638183594
y: 114.423583984375
z: -0.005796417593955994
","x: 152.92770385742188
y: 111.38675689697266
z: -0.006765019614249468
","x: 155.98733520507812
y: 125.66056060791016
z: -0.004442438017576933
","x: 156.2998046875
y: 121.86917114257812
z: -0.006192769389599562
","x: 156.48548889160156
y: 119.9447021484375
z: -0.007124709896743298
","x: 156.69737243652344
y: 118.45928955078125
z: -0.007716682273894548
"
9,"x: 190.94349670410156
y: 157.68679809570312
z: -0.149941086769104
visibility: 0.9997594356536865
","x: 187.7327117919922
y: 149.92620849609375
z: -0.13716137409210205
visibility: 0.9996120929718018
","x: 187.171875
y: 149.7152099609375
z: -0.13712945580482483
visibility: 0.9995743036270142
","x: 186.57061767578125
y: 149.46218872070312
z: -0.13715176284313202
visibility: 0.9996045827865601
","x: 187.82310485839844
y: 150.21145629882812
z: -0.1706899255514145
visibility: 0.9997026324272156
","x: 187.3743133544922
y: 150.24899291992188
z: -0.17073242366313934
visibility: 0.9997335076332092
","x: 186.88900756835938
y: 150.28805541992188
z: -0.17083702981472015
visibility: 0.9997537732124329
","x: 181.88070678710938
y: 153.05079650878906
z: -0.057620394974946976
visibility: 0.9991724491119385
","x: 182.67161560058594
y: 154.17222595214844
z: -0.21073052287101746
visibility: 0.9996951818466187
","x: 189.8800048828125
y: 165.5572509765625
z: -0.11597664654254913
visibility: 0.9994212985038757
","x: 189.82965087890625
y: 166.14149475097656
z: -0.1613347977399826
visibility: 0.9996420741081238
","x: 168.5262908935547
y: 198.5777130126953
z: 0.09193519502878189
visibility: 0.998996376991272
","x: 186.26194763183594
y: 204.69256591796875
z: -0.2945382297039032
visibility: 0.9999685883522034
","x: 160.4239959716797
y: 179.5468292236328
z: 0.3908660411834717
visibility: 0.7669151425361633
","x: 226.48764038085938
y: 229.5474853515625
z: -0.3652244806289673
visibility: 0.9658170938491821
","x: 155.78134155273438
y: 142.18228149414062
z: 0.677384614944458
visibility: 0.7091284990310669
","x: 264.3062438964844
y: 224.49310302734375
z: -0.3518602252006531
visibility: 0.8928273916244507
","x: 152.08627319335938
y: 133.14390563964844
z: 0.728698194026947
visibility: 0.6065928339958191
","x: 274.48516845703125
y: 218.37750244140625
z: -0.3838127553462982
visibility: 0.8448584079742432
","x: 153.52525329589844
y: 131.27871704101562
z: 0.7105296850204468
visibility: 0.5891170501708984
","x: 274.0097961425781
y: 211.7292022705078
z: -0.38241520524024963
visibility: 0.8452861309051514
","x: 155.12960815429688
y: 135.3355712890625
z: 0.6767173409461975
visibility: 0.5416272878646851
","x: 270.5244140625
y: 215.08314514160156
z: -0.34921419620513916
visibility: 0.8028352856636047
","x: 189.71966552734375
y: 330.2583312988281
z: 0.11601344496011734
visibility: 0.9996384382247925
","x: 181.91311645507812
y: 334.21319580078125
z: -0.11642427742481232
visibility: 0.9997531175613403
","x: 198.8884735107422
y: 413.82672119140625
z: 0.24529226124286652
visibility: 0.9184913039207458
","x: 179.57542419433594
y: 426.70233154296875
z: -0.10157620906829834
visibility: 0.991247296333313
","x: 207.67750549316406
y: 497.7336120605469
z: 0.42868947982788086
visibility: 0.9029821753501892
","x: 162.16790771484375
y: 519.8823852539062
z: -0.03571202605962753
visibility: 0.9956858158111572
","x: 203.28610229492188
y: 515.2750244140625
z: 0.4283042848110199
visibility: 0.8460599780082703
","x: 154.546875
y: 532.135986328125
z: -0.032509077340364456
visibility: 0.9663726687431335
","x: 229.38780212402344
y: 512.2064208984375
z: 0.3879545331001282
visibility: 0.9210992455482483
","x: 181.65814208984375
y: 548.0994262695312
z: -0.1244688481092453
visibility: 0.9911787509918213
","x: 265.8309631347656
y: 221.98355102539062
z: 0.0
","x: 268.46923828125
y: 211.30523681640625
z: -0.002088736044242978
","x: 271.6605224609375
y: 202.64967346191406
z: -0.004077136516571045
","x: 273.5392150878906
y: 196.01861572265625
z: -0.0057112653739750385
","x: 274.351806640625
y: 191.53802490234375
z: -0.007118311244994402
","x: 277.91815185546875
y: 214.321044921875
z: -0.0038717039860785007
","x: 284.49383544921875
y: 212.63430786132812
z: -0.005661899223923683
","x: 288.3438415527344
y: 211.5141143798828
z: -0.006602170877158642
","x: 291.51470947265625
y: 210.62635803222656
z: -0.007049969397485256
","x: 278.65350341796875
y: 218.56031799316406
z: -0.003586928825825453
","x: 285.4029541015625
y: 216.6160430908203
z: -0.005247545428574085
","x: 289.2887268066406
y: 214.91531372070312
z: -0.0054472144693136215
","x: 292.6328125
y: 213.3790740966797
z: -0.0056654163636267185
","x: 278.70184326171875
y: 221.09693908691406
z: -0.0033201801124960184
","x: 284.6356506347656
y: 218.89871215820312
z: -0.004591924604028463
","x: 288.18695068359375
y: 217.10235595703125
z: -0.004654402378946543
","x: 291.0721130371094
y: 215.59774780273438
z: -0.00468854047358036
","x: 278.3746643066406
y: 222.03468322753906
z: -0.0033420065883547068
","x: 283.06982421875
y: 219.82164001464844
z: -0.004138965625315905
","x: 286.09320068359375
y: 217.86520385742188
z: -0.0041990941390395164
","x: 288.45025634765625
y: 216.21847534179688
z: -0.004149563144892454
","x: 154.81173706054688
y: 139.72085571289062
z: 0.0
","x: 151.2875518798828
y: 138.5848388671875
z: -0.0014342674985527992
","x: 147.9320526123047
y: 135.15679931640625
z: -0.0024357952643185854
","x: 145.58326721191406
y: 132.04937744140625
z: -0.0038055768236517906
","x: 143.6458740234375
y: 130.4049530029297
z: -0.0051665459759533405
","x: 148.9893798828125
y: 125.49911499023438
z: 0.0005450777825899422
","x: 147.130615234375
y: 120.1180648803711
z: -0.0012902554590255022
","x: 146.00634765625
y: 116.31903839111328
z: -0.0028523646760731936
","x: 145.2373046875
y: 113.17626953125
z: -0.0039451648481190205
","x: 151.17742919921875
y: 123.85453796386719
z: -0.0006472798995673656
","x: 150.3013153076172
y: 117.52830505371094
z: -0.0020408008713275194
","x: 149.8589324951172
y: 113.09619903564453
z: -0.003418728243559599
","x: 149.69650268554688
y: 109.3125991821289
z: -0.004579869564622641
","x: 153.48219299316406
y: 124.0049057006836
z: -0.0023920254316180944
","x: 153.1319122314453
y: 118.21745300292969
z: -0.0043456279672682285
","x: 152.96116638183594
y: 114.423583984375
z: -0.005796417593955994
","x: 152.92770385742188
y: 111.38675689697266
z: -0.006765019614249468
","x: 155.98733520507812
y: 125.66056060791016
z: -0.004442438017576933
","x: 156.2998046875
y: 121.86917114257812
z: -0.006192769389599562
","x: 156.48548889160156
y: 119.9447021484375
z: -0.007124709896743298
","x: 156.69737243652344
y: 118.45928955078125
z: -0.007716682273894548
"
10,"x: 190.94349670410156
y: 157.68679809570312
z: -0.149941086769104
visibility: 0.9997594356536865
","x: 187.7327117919922
y: 149.92620849609375
z: -0.13716137409210205
visibility: 0.9996120929718018
","x: 187.171875
y: 149.7152099609375
z: -0.13712945580482483
visibility: 0.9995743036270142
","x: 186.57061767578125
y: 149.46218872070312
z: -0.13715176284313202
visibility: 0.9996045827865601
","x: 187.82310485839844
y: 150.21145629882812
z: -0.1706899255514145
visibility: 0.9997026324272156
","x: 187.3743133544922
y: 150.24899291992188
z: -0.17073242366313934
visibility: 0.9997335076332092
","x: 186.88900756835938
y: 150.28805541992188
z: -0.17083702981472015
visibility: 0.9997537732124329
","x: 181.88070678710938
y: 153.05079650878906
z: -0.057620394974946976
visibility: 0.9991724491119385
","x: 182.67161560058594
y: 154.17222595214844
z: -0.21073052287101746
visibility: 0.9996951818466187
","x: 189.8800048828125
y: 165.5572509765625
z: -0.11597664654254913
visibility: 0.9994212985038757
","x: 189.82965087890625
y: 166.14149475097656
z: -0.1613347977399826
visibility: 0.9996420741081238
","x: 168.5262908935547
y: 198.5777130126953
z: 0.09193519502878189
visibility: 0.998996376991272
","x: 186.26194763183594
y: 204.69256591796875
z: -0.2945382297039032
visibility: 0.9999685883522034
","x: 160.4239959716797
y: 179.5468292236328
z: 0.3908660411834717
visibility: 0.7669151425361633
","x: 226.48764038085938
y: 229.5474853515625
z: -0.3652244806289673
visibility: 0.9658170938491821
","x: 155.78134155273438
y: 142.18228149414062
z: 0.677384614944458
visibility: 0.7091284990310669
","x: 264.3062438964844
y: 224.49310302734375
z: -0.3518602252006531
visibility: 0.8928273916244507
","x: 152.08627319335938
y: 133.14390563964844
z: 0.728698194026947
visibility: 0.6065928339958191
","x: 274.48516845703125
y: 218.37750244140625
z: -0.3838127553462982
visibility: 0.8448584079742432
","x: 153.52525329589844
y: 131.27871704101562
z: 0.7105296850204468
visibility: 0.5891170501708984
","x: 274.0097961425781
y: 211.7292022705078
z: -0.38241520524024963
visibility: 0.8452861309051514
","x: 155.12960815429688
y: 135.3355712890625
z: 0.6767173409461975
visibility: 0.5416272878646851
","x: 270.5244140625
y: 215.08314514160156
z: -0.34921419620513916
visibility: 0.8028352856636047
","x: 189.71966552734375
y: 330.2583312988281
z: 0.11601344496011734
visibility: 0.9996384382247925
","x: 181.91311645507812
y: 334.21319580078125
z: -0.11642427742481232
visibility: 0.9997531175613403
","x: 198.8884735107422
y: 413.82672119140625
z: 0.24529226124286652
visibility: 0.9184913039207458
","x: 179.57542419433594
y: 426.70233154296875
z: -0.10157620906829834
visibility: 0.991247296333313
","x: 207.67750549316406
y: 497.7336120605469
z: 0.42868947982788086
visibility: 0.9029821753501892
","x: 162.16790771484375
y: 519.8823852539062
z: -0.03571202605962753
visibility: 0.9956858158111572
","x: 203.28610229492188
y: 515.2750244140625
z: 0.4283042848110199
visibility: 0.8460599780082703
","x: 154.546875
y: 532.135986328125
z: -0.032509077340364456
visibility: 0.9663726687431335
","x: 229.38780212402344
y: 512.2064208984375
z: 0.3879545331001282
visibility: 0.9210992455482483
","x: 181.65814208984375
y: 548.0994262695312
z: -0.1244688481092453
visibility: 0.9911787509918213
","x: 265.8309631347656
y: 221.98355102539062
z: 0.0
","x: 268.46923828125
y: 211.30523681640625
z: -0.002088736044242978
","x: 271.6605224609375
y: 202.64967346191406
z: -0.004077136516571045
","x: 273.5392150878906
y: 196.01861572265625
z: -0.0057112653739750385
","x: 274.351806640625
y: 191.53802490234375
z: -0.007118311244994402
","x: 277.91815185546875
y: 214.321044921875
z: -0.0038717039860785007
","x: 284.49383544921875
y: 212.63430786132812
z: -0.005661899223923683
","x: 288.3438415527344
y: 211.5141143798828
z: -0.006602170877158642
","x: 291.51470947265625
y: 210.62635803222656
z: -0.007049969397485256
","x: 278.65350341796875
y: 218.56031799316406
z: -0.003586928825825453
","x: 285.4029541015625
y: 216.6160430908203
z: -0.005247545428574085
","x: 289.2887268066406
y: 214.91531372070312
z: -0.0054472144693136215
","x: 292.6328125
y: 213.3790740966797
z: -0.0056654163636267185
","x: 278.70184326171875
y: 221.09693908691406
z: -0.0033201801124960184
","x: 284.6356506347656
y: 218.89871215820312
z: -0.004591924604028463
","x: 288.18695068359375
y: 217.10235595703125
z: -0.004654402378946543
","x: 291.0721130371094
y: 215.59774780273438
z: -0.00468854047358036
","x: 278.3746643066406
y: 222.03468322753906
z: -0.0033420065883547068
","x: 283.06982421875
y: 219.82164001464844
z: -0.004138965625315905
","x: 286.09320068359375
y: 217.86520385742188
z: -0.0041990941390395164
","x: 288.45025634765625
y: 216.21847534179688
z: -0.004149563144892454
","x: 154.81173706054688
y: 139.72085571289062
z: 0.0
","x: 151.2875518798828
y: 138.5848388671875
z: -0.0014342674985527992
","x: 147.9320526123047
y: 135.15679931640625
z: -0.0024357952643185854
","x: 145.58326721191406
y: 132.04937744140625
z: -0.0038055768236517906
","x: 143.6458740234375
y: 130.4049530029297
z: -0.0051665459759533405
","x: 148.9893798828125
y: 125.49911499023438
z: 0.0005450777825899422
","x: 147.130615234375
y: 120.1180648803711
z: -0.0012902554590255022
","x: 146.00634765625
y: 116.31903839111328
z: -0.0028523646760731936
","x: 145.2373046875
y: 113.17626953125
z: -0.0039451648481190205
","x: 151.17742919921875
y: 123.85453796386719
z: -0.0006472798995673656
","x: 150.3013153076172
y: 117.52830505371094
z: -0.0020408008713275194
","x: 149.8589324951172
y: 113.09619903564453
z: -0.003418728243559599
","x: 149.69650268554688
y: 109.3125991821289
z: -0.004579869564622641
","x: 153.48219299316406
y: 124.0049057006836
z: -0.0023920254316180944
","x: 153.1319122314453
y: 118.21745300292969
z: -0.0043456279672682285
","x: 152.96116638183594
y: 114.423583984375
z: -0.005796417593955994
","x: 152.92770385742188
y: 111.38675689697266
z: -0.006765019614249468
","x: 155.98733520507812
y: 125.66056060791016
z: -0.004442438017576933
","x: 156.2998046875
y: 121.86917114257812
z: -0.006192769389599562
","x: 156.48548889160156
y: 119.9447021484375
z: -0.007124709896743298
","x: 156.69737243652344
y: 118.45928955078125
z: -0.007716682273894548
"
11,"x: 191.5542755126953
y: 157.7476043701172
z: -0.07094787061214447
visibility: 0.9997804164886475
","x: 188.78445434570312
y: 150.00352478027344
z: -0.06012958288192749
visibility: 0.9996467232704163
","x: 188.18556213378906
y: 149.7914581298828
z: -0.06011063978075981
visibility: 0.9996092319488525
","x: 187.59901428222656
y: 149.546875
z: -0.06013993173837662
visibility: 0.9996390342712402
","x: 189.3191375732422
y: 150.39511108398438
z: -0.09318816661834717
visibility: 0.9997308850288391
","x: 189.09986877441406
y: 150.5025634765625
z: -0.09322364628314972
visibility: 0.9997584819793701
","x: 188.8917236328125
y: 150.62518310546875
z: -0.09335289895534515
visibility: 0.9997771978378296
","x: 183.10498046875
y: 153.1986846923828
z: 0.005987735465168953
visibility: 0.9992439150810242
","x: 185.08351135253906
y: 154.39794921875
z: -0.14601247012615204
visibility: 0.9997230768203735
","x: 190.40853881835938
y: 165.60757446289062
z: -0.04206578806042671
visibility: 0.9994558095932007
","x: 190.7574005126953
y: 166.2097930908203
z: -0.0867151990532875
visibility: 0.9996617436408997
","x: 172.45936584472656
y: 198.4695281982422
z: 0.13867422938346863
visibility: 0.9989069104194641
","x: 186.0118865966797
y: 203.5216064453125
z: -0.2669604420661926
visibility: 0.999968409538269
","x: 165.31056213378906
y: 179.07711791992188
z: 0.4197574257850647
visibility: 0.7298506498336792
","x: 222.88711547851562
y: 232.77108764648438
z: -0.2890639007091522
visibility: 0.9690676927566528
","x: 162.08059692382812
y: 139.05215454101562
z: 0.6990287899971008
visibility: 0.7004385590553284
","x: 262.458984375
y: 229.38316345214844
z: -0.2651366889476776
visibility: 0.9031288623809814
","x: 157.82749938964844
y: 130.78172302246094
z: 0.7485071420669556
visibility: 0.6031554937362671
","x: 272.88818359375
y: 224.72525024414062
z: -0.291535884141922
visibility: 0.8594671487808228
","x: 158.46424865722656
y: 130.2353973388672
z: 0.7304146885871887
visibility: 0.5873139500617981
","x: 272.5376281738281
y: 218.0935516357422
z: -0.29203465580940247
visibility: 0.8598241209983826
","x: 159.8056182861328
y: 134.44935607910156
z: 0.6977333426475525
visibility: 0.5447867512702942
","x: 268.5118713378906
y: 220.99371337890625
z: -0.2628327012062073
visibility: 0.820128858089447
","x: 191.1607666015625
y: 330.261474609375
z: 0.11259398609399796
visibility: 0.999610185623169
","x: 184.14805603027344
y: 333.6429138183594
z: -0.11291323602199554
visibility: 0.9997459053993225
","x: 198.0323028564453
y: 415.668212890625
z: 0.22338373959064484
visibility: 0.888676106929779
","x: 179.8795623779297
y: 426.9442443847656
z: -0.0973968356847763
visibility: 0.9884154200553894
","x: 206.5400390625
y: 499.119140625
z: 0.39064401388168335
visibility: 0.8975070714950562
","x: 162.11279296875
y: 519.4490966796875
z: -0.02561025880277157
visibility: 0.9952142834663391
","x: 203.02638244628906
y: 516.25390625
z: 0.39927011728286743
visibility: 0.846056342124939
","x: 154.7628631591797
y: 531.98828125
z: -0.021786775439977646
visibility: 0.9653424620628357
","x: 228.8613739013672
y: 513.5648193359375
z: 0.3554052710533142
visibility: 0.9201258420944214
","x: 181.32106018066406
y: 548.3544311523438
z: -0.10913803428411484
visibility: 0.9909666776657104
","x: 266.774658203125
y: 225.30584716796875
z: 0.0
","x: 268.86773681640625
y: 217.64193725585938
z: -0.00295050791464746
","x: 271.64971923828125
y: 210.06964111328125
z: -0.0053141298703849316
","x: 273.37322998046875
y: 203.2437744140625
z: -0.007272603455930948
","x: 274.6548156738281
y: 198.59423828125
z: -0.0089025953784585
","x: 278.43426513671875
y: 219.47634887695312
z: -0.0038292589597404003
","x: 285.1882019042969
y: 219.42449951171875
z: -0.00565705168992281
","x: 289.3982238769531
y: 219.03286743164062
z: -0.006609309930354357
","x: 292.65185546875
y: 218.6167755126953
z: -0.006891005672514439
","x: 279.0881652832031
y: 221.0870361328125
z: -0.002685594605281949
","x: 285.5901184082031
y: 220.2127685546875
z: -0.00372558506205678
","x: 289.2777099609375
y: 219.0762176513672
z: -0.0033181593753397465
","x: 292.166259765625
y: 217.97608947753906
z: -0.002914269920438528
","x: 279.08795166015625
y: 222.15562438964844
z: -0.0017554211663082242
","x: 284.60516357421875
y: 221.1363525390625
z: -0.0024378683883696795
","x: 287.94775390625
y: 219.7123565673828
z: -0.0018464287277311087
","x: 290.3539123535156
y: 218.27777099609375
z: -0.0012791537446901202
","x: 278.7636413574219
y: 222.6781005859375
z: -0.0012422065483406186
","x: 283.0481872558594
y: 221.57315063476562
z: -0.0013912394642829895
","x: 285.6037292480469
y: 220.04510498046875
z: -0.0008932895725592971
","x: 287.281982421875
y: 218.73406982421875
z: -0.00033358996734023094
","x: 160.7607421875
y: 134.48593139648438
z: 0.0
","x: 157.77496337890625
y: 133.83206176757812
z: -0.0022183426190167665
","x: 155.12466430664062
y: 131.28695678710938
z: -0.004340407904237509
","x: 153.65846252441406
y: 128.83279418945312
z: -0.0066650728695094585
","x: 152.5771026611328
y: 126.72442626953125
z: -0.009048803709447384
","x: 155.80056762695312
y: 121.11671447753906
z: -0.0034864621702581644
","x: 154.23681640625
y: 115.41001892089844
z: -0.006552011240273714
","x: 153.04241943359375
y: 111.5162353515625
z: -0.00873993244022131
","x: 152.16346740722656
y: 108.43379974365234
z: -0.010219884105026722
","x: 158.04649353027344
y: 119.77530670166016
z: -0.00469565112143755
","x: 157.78082275390625
y: 113.5146255493164
z: -0.0077818953432142735
","x: 157.67706298828125
y: 109.2994384765625
z: -0.009398313239216805
","x: 157.63140869140625
y: 105.82611846923828
z: -0.010587993077933788
","x: 160.38096618652344
y: 119.95194244384766
z: -0.006214720197021961
","x: 160.50701904296875
y: 114.43905639648438
z: -0.009527967311441898
","x: 160.52342224121094
y: 110.41925048828125
z: -0.010757711715996265
","x: 160.4041748046875
y: 107.17642974853516
z: -0.011496131308376789
","x: 162.7148895263672
y: 121.45867156982422
z: -0.0080089857801795
","x: 163.2229461669922
y: 117.35861206054688
z: -0.010630330070853233
","x: 163.38851928710938
y: 115.00426483154297
z: -0.01141335442662239
","x: 163.41102600097656
y: 113.22052001953125
z: -0.011865922249853611
"
12,"x: 191.5542755126953
y: 157.7476043701172
z: -0.07094787061214447
visibility: 0.9997804164886475
","x: 188.78445434570312
y: 150.00352478027344
z: -0.06012958288192749
visibility: 0.9996467232704163
","x: 188.18556213378906
y: 149.7914581298828
z: -0.06011063978075981
visibility: 0.9996092319488525
","x: 187.59901428222656
y: 149.546875
z: -0.06013993173837662
visibility: 0.9996390342712402
","x: 189.3191375732422
y: 150.39511108398438
z: -0.09318816661834717
visibility: 0.9997308850288391
","x: 189.09986877441406
y: 150.5025634765625
z: -0.09322364628314972
visibility: 0.9997584819793701
","x: 188.8917236328125
y: 150.62518310546875
z: -0.09335289895534515
visibility: 0.9997771978378296
","x: 183.10498046875
y: 153.1986846923828
z: 0.005987735465168953
visibility: 0.9992439150810242
","x: 185.08351135253906
y: 154.39794921875
z: -0.14601247012615204
visibility: 0.9997230768203735
","x: 190.40853881835938
y: 165.60757446289062
z: -0.04206578806042671
visibility: 0.9994558095932007
","x: 190.7574005126953
y: 166.2097930908203
z: -0.0867151990532875
visibility: 0.9996617436408997
","x: 172.45936584472656
y: 198.4695281982422
z: 0.13867422938346863
visibility: 0.9989069104194641
","x: 186.0118865966797
y: 203.5216064453125
z: -0.2669604420661926
visibility: 0.999968409538269
","x: 165.31056213378906
y: 179.07711791992188
z: 0.4197574257850647
visibility: 0.7298506498336792
","x: 222.88711547851562
y: 232.77108764648438
z: -0.2890639007091522
visibility: 0.9690676927566528
","x: 162.08059692382812
y: 139.05215454101562
z: 0.6990287899971008
visibility: 0.7004385590553284
","x: 262.458984375
y: 229.38316345214844
z: -0.2651366889476776
visibility: 0.9031288623809814
","x: 157.82749938964844
y: 130.78172302246094
z: 0.7485071420669556
visibility: 0.6031554937362671
","x: 272.88818359375
y: 224.72525024414062
z: -0.291535884141922
visibility: 0.8594671487808228
","x: 158.46424865722656
y: 130.2353973388672
z: 0.7304146885871887
visibility: 0.5873139500617981
","x: 272.5376281738281
y: 218.0935516357422
z: -0.29203465580940247
visibility: 0.8598241209983826
","x: 159.8056182861328
y: 134.44935607910156
z: 0.6977333426475525
visibility: 0.5447867512702942
","x: 268.5118713378906
y: 220.99371337890625
z: -0.2628327012062073
visibility: 0.820128858089447
","x: 191.1607666015625
y: 330.261474609375
z: 0.11259398609399796
visibility: 0.999610185623169
","x: 184.14805603027344
y: 333.6429138183594
z: -0.11291323602199554
visibility: 0.9997459053993225
","x: 198.0323028564453
y: 415.668212890625
z: 0.22338373959064484
visibility: 0.888676106929779
","x: 179.8795623779297
y: 426.9442443847656
z: -0.0973968356847763
visibility: 0.9884154200553894
","x: 206.5400390625
y: 499.119140625
z: 0.39064401388168335
visibility: 0.8975070714950562
","x: 162.11279296875
y: 519.4490966796875
z: -0.02561025880277157
visibility: 0.9952142834663391
","x: 203.02638244628906
y: 516.25390625
z: 0.39927011728286743
visibility: 0.846056342124939
","x: 154.7628631591797
y: 531.98828125
z: -0.021786775439977646
visibility: 0.9653424620628357
","x: 228.8613739013672
y: 513.5648193359375
z: 0.3554052710533142
visibility: 0.9201258420944214
","x: 181.32106018066406
y: 548.3544311523438
z: -0.10913803428411484
visibility: 0.9909666776657104
","x: 266.774658203125
y: 225.30584716796875
z: 0.0
","x: 268.86773681640625
y: 217.64193725585938
z: -0.00295050791464746
","x: 271.64971923828125
y: 210.06964111328125
z: -0.0053141298703849316
","x: 273.37322998046875
y: 203.2437744140625
z: -0.007272603455930948
","x: 274.6548156738281
y: 198.59423828125
z: -0.0089025953784585
","x: 278.43426513671875
y: 219.47634887695312
z: -0.0038292589597404003
","x: 285.1882019042969
y: 219.42449951171875
z: -0.00565705168992281
","x: 289.3982238769531
y: 219.03286743164062
z: -0.006609309930354357
","x: 292.65185546875
y: 218.6167755126953
z: -0.006891005672514439
","x: 279.0881652832031
y: 221.0870361328125
z: -0.002685594605281949
","x: 285.5901184082031
y: 220.2127685546875
z: -0.00372558506205678
","x: 289.2777099609375
y: 219.0762176513672
z: -0.0033181593753397465
","x: 292.166259765625
y: 217.97608947753906
z: -0.002914269920438528
","x: 279.08795166015625
y: 222.15562438964844
z: -0.0017554211663082242
","x: 284.60516357421875
y: 221.1363525390625
z: -0.0024378683883696795
","x: 287.94775390625
y: 219.7123565673828
z: -0.0018464287277311087
","x: 290.3539123535156
y: 218.27777099609375
z: -0.0012791537446901202
","x: 278.7636413574219
y: 222.6781005859375
z: -0.0012422065483406186
","x: 283.0481872558594
y: 221.57315063476562
z: -0.0013912394642829895
","x: 285.6037292480469
y: 220.04510498046875
z: -0.0008932895725592971
","x: 287.281982421875
y: 218.73406982421875
z: -0.00033358996734023094
","x: 160.7607421875
y: 134.48593139648438
z: 0.0
","x: 157.77496337890625
y: 133.83206176757812
z: -0.0022183426190167665
","x: 155.12466430664062
y: 131.28695678710938
z: -0.004340407904237509
","x: 153.65846252441406
y: 128.83279418945312
z: -0.0066650728695094585
","x: 152.5771026611328
y: 126.72442626953125
z: -0.009048803709447384
","x: 155.80056762695312
y: 121.11671447753906
z: -0.0034864621702581644
","x: 154.23681640625
y: 115.41001892089844
z: -0.006552011240273714
","x: 153.04241943359375
y: 111.5162353515625
z: -0.00873993244022131
","x: 152.16346740722656
y: 108.43379974365234
z: -0.010219884105026722
","x: 158.04649353027344
y: 119.77530670166016
z: -0.00469565112143755
","x: 157.78082275390625
y: 113.5146255493164
z: -0.0077818953432142735
","x: 157.67706298828125
y: 109.2994384765625
z: -0.009398313239216805
","x: 157.63140869140625
y: 105.82611846923828
z: -0.010587993077933788
","x: 160.38096618652344
y: 119.95194244384766
z: -0.006214720197021961
","x: 160.50701904296875
y: 114.43905639648438
z: -0.009527967311441898
","x: 160.52342224121094
y: 110.41925048828125
z: -0.010757711715996265
","x: 160.4041748046875
y: 107.17642974853516
z: -0.011496131308376789
","x: 162.7148895263672
y: 121.45867156982422
z: -0.0080089857801795
","x: 163.2229461669922
y: 117.35861206054688
z: -0.010630330070853233
","x: 163.38851928710938
y: 115.00426483154297
z: -0.01141335442662239
","x: 163.41102600097656
y: 113.22052001953125
z: -0.011865922249853611
"
13,"x: 191.5542755126953
y: 157.7476043701172
z: -0.07094787061214447
visibility: 0.9997804164886475
","x: 188.78445434570312
y: 150.00352478027344
z: -0.06012958288192749
visibility: 0.9996467232704163
","x: 188.18556213378906
y: 149.7914581298828
z: -0.06011063978075981
visibility: 0.9996092319488525
","x: 187.59901428222656
y: 149.546875
z: -0.06013993173837662
visibility: 0.9996390342712402
","x: 189.3191375732422
y: 150.39511108398438
z: -0.09318816661834717
visibility: 0.9997308850288391
","x: 189.09986877441406
y: 150.5025634765625
z: -0.09322364628314972
visibility: 0.9997584819793701
","x: 188.8917236328125
y: 150.62518310546875
z: -0.09335289895534515
visibility: 0.9997771978378296
","x: 183.10498046875
y: 153.1986846923828
z: 0.005987735465168953
visibility: 0.9992439150810242
","x: 185.08351135253906
y: 154.39794921875
z: -0.14601247012615204
visibility: 0.9997230768203735
","x: 190.40853881835938
y: 165.60757446289062
z: -0.04206578806042671
visibility: 0.9994558095932007
","x: 190.7574005126953
y: 166.2097930908203
z: -0.0867151990532875
visibility: 0.9996617436408997
","x: 172.45936584472656
y: 198.4695281982422
z: 0.13867422938346863
visibility: 0.9989069104194641
","x: 186.0118865966797
y: 203.5216064453125
z: -0.2669604420661926
visibility: 0.999968409538269
","x: 165.31056213378906
y: 179.07711791992188
z: 0.4197574257850647
visibility: 0.7298506498336792
","x: 222.88711547851562
y: 232.77108764648438
z: -0.2890639007091522
visibility: 0.9690676927566528
","x: 162.08059692382812
y: 139.05215454101562
z: 0.6990287899971008
visibility: 0.7004385590553284
","x: 262.458984375
y: 229.38316345214844
z: -0.2651366889476776
visibility: 0.9031288623809814
","x: 157.82749938964844
y: 130.78172302246094
z: 0.7485071420669556
visibility: 0.6031554937362671
","x: 272.88818359375
y: 224.72525024414062
z: -0.291535884141922
visibility: 0.8594671487808228
","x: 158.46424865722656
y: 130.2353973388672
z: 0.7304146885871887
visibility: 0.5873139500617981
","x: 272.5376281738281
y: 218.0935516357422
z: -0.29203465580940247
visibility: 0.8598241209983826
","x: 159.8056182861328
y: 134.44935607910156
z: 0.6977333426475525
visibility: 0.5447867512702942
","x: 268.5118713378906
y: 220.99371337890625
z: -0.2628327012062073
visibility: 0.820128858089447
","x: 191.1607666015625
y: 330.261474609375
z: 0.11259398609399796
visibility: 0.999610185623169
","x: 184.14805603027344
y: 333.6429138183594
z: -0.11291323602199554
visibility: 0.9997459053993225
","x: 198.0323028564453
y: 415.668212890625
z: 0.22338373959064484
visibility: 0.888676106929779
","x: 179.8795623779297
y: 426.9442443847656
z: -0.0973968356847763
visibility: 0.9884154200553894
","x: 206.5400390625
y: 499.119140625
z: 0.39064401388168335
visibility: 0.8975070714950562
","x: 162.11279296875
y: 519.4490966796875
z: -0.02561025880277157
visibility: 0.9952142834663391
","x: 203.02638244628906
y: 516.25390625
z: 0.39927011728286743
visibility: 0.846056342124939
","x: 154.7628631591797
y: 531.98828125
z: -0.021786775439977646
visibility: 0.9653424620628357
","x: 228.8613739013672
y: 513.5648193359375
z: 0.3554052710533142
visibility: 0.9201258420944214
","x: 181.32106018066406
y: 548.3544311523438
z: -0.10913803428411484
visibility: 0.9909666776657104
","x: 266.774658203125
y: 225.30584716796875
z: 0.0
","x: 268.86773681640625
y: 217.64193725585938
z: -0.00295050791464746
","x: 271.64971923828125
y: 210.06964111328125
z: -0.0053141298703849316
","x: 273.37322998046875
y: 203.2437744140625
z: -0.007272603455930948
","x: 274.6548156738281
y: 198.59423828125
z: -0.0089025953784585
","x: 278.43426513671875
y: 219.47634887695312
z: -0.0038292589597404003
","x: 285.1882019042969
y: 219.42449951171875
z: -0.00565705168992281
","x: 289.3982238769531
y: 219.03286743164062
z: -0.006609309930354357
","x: 292.65185546875
y: 218.6167755126953
z: -0.006891005672514439
","x: 279.0881652832031
y: 221.0870361328125
z: -0.002685594605281949
","x: 285.5901184082031
y: 220.2127685546875
z: -0.00372558506205678
","x: 289.2777099609375
y: 219.0762176513672
z: -0.0033181593753397465
","x: 292.166259765625
y: 217.97608947753906
z: -0.002914269920438528
","x: 279.08795166015625
y: 222.15562438964844
z: -0.0017554211663082242
","x: 284.60516357421875
y: 221.1363525390625
z: -0.0024378683883696795
","x: 287.94775390625
y: 219.7123565673828
z: -0.0018464287277311087
","x: 290.3539123535156
y: 218.27777099609375
z: -0.0012791537446901202
","x: 278.7636413574219
y: 222.6781005859375
z: -0.0012422065483406186
","x: 283.0481872558594
y: 221.57315063476562
z: -0.0013912394642829895
","x: 285.6037292480469
y: 220.04510498046875
z: -0.0008932895725592971
","x: 287.281982421875
y: 218.73406982421875
z: -0.00033358996734023094
","x: 160.7607421875
y: 134.48593139648438
z: 0.0
","x: 157.77496337890625
y: 133.83206176757812
z: -0.0022183426190167665
","x: 155.12466430664062
y: 131.28695678710938
z: -0.004340407904237509
","x: 153.65846252441406
y: 128.83279418945312
z: -0.0066650728695094585
","x: 152.5771026611328
y: 126.72442626953125
z: -0.009048803709447384
","x: 155.80056762695312
y: 121.11671447753906
z: -0.0034864621702581644
","x: 154.23681640625
y: 115.41001892089844
z: -0.006552011240273714
","x: 153.04241943359375
y: 111.5162353515625
z: -0.00873993244022131
","x: 152.16346740722656
y: 108.43379974365234
z: -0.010219884105026722
","x: 158.04649353027344
y: 119.77530670166016
z: -0.00469565112143755
","x: 157.78082275390625
y: 113.5146255493164
z: -0.0077818953432142735
","x: 157.67706298828125
y: 109.2994384765625
z: -0.009398313239216805
","x: 157.63140869140625
y: 105.82611846923828
z: -0.010587993077933788
","x: 160.38096618652344
y: 119.95194244384766
z: -0.006214720197021961
","x: 160.50701904296875
y: 114.43905639648438
z: -0.009527967311441898
","x: 160.52342224121094
y: 110.41925048828125
z: -0.010757711715996265
","x: 160.4041748046875
y: 107.17642974853516
z: -0.011496131308376789
","x: 162.7148895263672
y: 121.45867156982422
z: -0.0080089857801795
","x: 163.2229461669922
y: 117.35861206054688
z: -0.010630330070853233
","x: 163.38851928710938
y: 115.00426483154297
z: -0.01141335442662239
","x: 163.41102600097656
y: 113.22052001953125
z: -0.011865922249853611
"
14,"x: 193.50189208984375
y: 151.14686584472656
z: -0.14655694365501404
visibility: 0.9997796416282654
","x: 190.0137481689453
y: 145.05014038085938
z: -0.13490138947963715
visibility: 0.9996447563171387
","x: 189.37734985351562
y: 144.988525390625
z: -0.13494496047496796
visibility: 0.9996042251586914
","x: 188.6552734375
y: 144.960693359375
z: -0.13498082756996155
visibility: 0.9996405243873596
","x: 190.08969116210938
y: 145.84564208984375
z: -0.1711583286523819
visibility: 0.9997364282608032
","x: 189.5444793701172
y: 146.26626586914062
z: -0.17120042443275452
visibility: 0.9997620582580566
","x: 188.9289093017578
y: 146.685791015625
z: -0.17127525806427002
visibility: 0.9997805953025818
","x: 182.98973083496094
y: 151.0146942138672
z: -0.05289653688669205
visibility: 0.9992069005966187
","x: 183.9693603515625
y: 152.0865020751953
z: -0.23177365958690643
visibility: 0.9997289776802063
","x: 192.8554229736328
y: 159.6038360595703
z: -0.11148055642843246
visibility: 0.9994422793388367
","x: 192.76483154296875
y: 160.43112182617188
z: -0.15933242440223694
visibility: 0.9996519684791565
","x: 179.5146484375
y: 199.4080352783203
z: 0.0836830884218216
visibility: 0.9988933205604553
","x: 184.3681182861328
y: 204.8953857421875
z: -0.315208375453949
visibility: 0.9999617338180542
","x: 200.35191345214844
y: 218.77923583984375
z: 0.2120543271303177
visibility: 0.6674605011940002
","x: 221.885009765625
y: 235.53829956054688
z: -0.3369588851928711
visibility: 0.9716274738311768
","x: 225.65098571777344
y: 217.8563690185547
z: 0.20184111595153809
visibility: 0.6509615778923035
","x: 261.3055114746094
y: 233.62550354003906
z: -0.27518999576568604
visibility: 0.9111889600753784
","x: 229.58262634277344
y: 213.05641174316406
z: 0.19987276196479797
visibility: 0.56557697057724
","x: 271.7767028808594
y: 230.18292236328125
z: -0.3140755295753479
visibility: 0.8708779215812683
","x: 231.47445678710938
y: 208.10922241210938
z: 0.15076462924480438
visibility: 0.5528992414474487
","x: 271.80401611328125
y: 223.2318878173828
z: -0.3036908209323883
visibility: 0.8709169030189514
","x: 230.58639526367188
y: 211.03761291503906
z: 0.17474374175071716
visibility: 0.5155236721038818
","x: 268.0108337402344
y: 225.00303649902344
z: -0.27000391483306885
visibility: 0.8320866227149963
","x: 190.06117248535156
y: 330.6305236816406
z: 0.11716540157794952
visibility: 0.9995039701461792
","x: 182.6912841796875
y: 334.5061950683594
z: -0.11727020889520645
visibility: 0.9996984004974365
","x: 196.38986206054688
y: 418.7626647949219
z: 0.292774498462677
visibility: 0.8766873478889465
","x: 178.4842987060547
y: 426.6332702636719
z: -0.07121890783309937
visibility: 0.9889834523200989
","x: 205.89967346191406
y: 499.96728515625
z: 0.4850325584411621
visibility: 0.9038211107254028
","x: 162.3739471435547
y: 519.2897338867188
z: 0.04186725616455078
visibility: 0.9953992366790771
","x: 202.9548797607422
y: 516.045166015625
z: 0.4993419051170349
visibility: 0.8559290766716003
","x: 155.15203857421875
y: 532.0515747070312
z: 0.04856661334633827
visibility: 0.9659762978553772
","x: 229.05438232421875
y: 513.82421875
z: 0.44633087515830994
visibility: 0.9259594678878784
","x: 181.25827026367188
y: 548.4813842773438
z: -0.05568079277873039
visibility: 0.9913473129272461
","x: 265.92083740234375
y: 227.29461669921875
z: 0.0
","x: 266.77001953125
y: 220.69049072265625
z: -0.004700418561697006
","x: 269.6029052734375
y: 214.10916137695312
z: -0.00724131939932704
","x: 271.51617431640625
y: 207.88836669921875
z: -0.008866161108016968
","x: 272.35406494140625
y: 202.4066162109375
z: -0.010180363431572914
","x: 277.0404968261719
y: 223.08885192871094
z: -0.004531181883066893
","x: 283.4383239746094
y: 222.5715789794922
z: -0.006217354908585548
","x: 287.05426025390625
y: 221.451416015625
z: -0.007078280206769705
","x: 289.7786560058594
y: 220.40670776367188
z: -0.007331461645662785
","x: 277.9154052734375
y: 224.30467224121094
z: -0.0025098156183958054
","x: 284.184326171875
y: 222.73220825195312
z: -0.0037442410830408335
","x: 287.6994323730469
y: 220.66954040527344
z: -0.004042601212859154
","x: 290.3436279296875
y: 219.0604248046875
z: -0.004175112117081881
","x: 278.22442626953125
y: 224.6829071044922
z: -0.0008278093882836401
","x: 283.9284362792969
y: 223.0699005126953
z: -0.0020269062370061874
","x: 287.4124755859375
y: 220.7844696044922
z: -0.0028256899677217007
","x: 290.069580078125
y: 218.91555786132812
z: -0.0031712905038148165
","x: 278.19970703125
y: 224.61712646484375
z: 0.00040757606620900333
","x: 282.7406921386719
y: 223.42434692382812
z: -0.0003313181805424392
","x: 285.7806701660156
y: 221.5155792236328
z: -0.0009321232791990042
","x: 288.012939453125
y: 219.76417541503906
z: -0.0012072103563696146
",,,,,,,,,,,,,,,,,,,,,
15,"x: 193.50189208984375
y: 151.14686584472656
z: -0.14655694365501404
visibility: 0.9997796416282654
","x: 190.0137481689453
y: 145.05014038085938
z: -0.13490138947963715
visibility: 0.9996447563171387
","x: 189.37734985351562
y: 144.988525390625
z: -0.13494496047496796
visibility: 0.9996042251586914
","x: 188.6552734375
y: 144.960693359375
z: -0.13498082756996155
visibility: 0.9996405243873596
","x: 190.08969116210938
y: 145.84564208984375
z: -0.1711583286523819
visibility: 0.9997364282608032
","x: 189.5444793701172
y: 146.26626586914062
z: -0.17120042443275452
visibility: 0.9997620582580566
","x: 188.9289093017578
y: 146.685791015625
z: -0.17127525806427002
visibility: 0.9997805953025818
","x: 182.98973083496094
y: 151.0146942138672
z: -0.05289653688669205
visibility: 0.9992069005966187
","x: 183.9693603515625
y: 152.0865020751953
z: -0.23177365958690643
visibility: 0.9997289776802063
","x: 192.8554229736328
y: 159.6038360595703
z: -0.11148055642843246
visibility: 0.9994422793388367
","x: 192.76483154296875
y: 160.43112182617188
z: -0.15933242440223694
visibility: 0.9996519684791565
","x: 179.5146484375
y: 199.4080352783203
z: 0.0836830884218216
visibility: 0.9988933205604553
","x: 184.3681182861328
y: 204.8953857421875
z: -0.315208375453949
visibility: 0.9999617338180542
","x: 200.35191345214844
y: 218.77923583984375
z: 0.2120543271303177
visibility: 0.6674605011940002
","x: 221.885009765625
y: 235.53829956054688
z: -0.3369588851928711
visibility: 0.9716274738311768
","x: 225.65098571777344
y: 217.8563690185547
z: 0.20184111595153809
visibility: 0.6509615778923035
","x: 261.3055114746094
y: 233.62550354003906
z: -0.27518999576568604
visibility: 0.9111889600753784
","x: 229.58262634277344
y: 213.05641174316406
z: 0.19987276196479797
visibility: 0.56557697057724
","x: 271.7767028808594
y: 230.18292236328125
z: -0.3140755295753479
visibility: 0.8708779215812683
","x: 231.47445678710938
y: 208.10922241210938
z: 0.15076462924480438
visibility: 0.5528992414474487
","x: 271.80401611328125
y: 223.2318878173828
z: -0.3036908209323883
visibility: 0.8709169030189514
","x: 230.58639526367188
y: 211.03761291503906
z: 0.17474374175071716
visibility: 0.5155236721038818
","x: 268.0108337402344
y: 225.00303649902344
z: -0.27000391483306885
visibility: 0.8320866227149963
","x: 190.06117248535156
y: 330.6305236816406
z: 0.11716540157794952
visibility: 0.9995039701461792
","x: 182.6912841796875
y: 334.5061950683594
z: -0.11727020889520645
visibility: 0.9996984004974365
","x: 196.38986206054688
y: 418.7626647949219
z: 0.292774498462677
visibility: 0.8766873478889465
","x: 178.4842987060547
y: 426.6332702636719
z: -0.07121890783309937
visibility: 0.9889834523200989
","x: 205.89967346191406
y: 499.96728515625
z: 0.4850325584411621
visibility: 0.9038211107254028
","x: 162.3739471435547
y: 519.2897338867188
z: 0.04186725616455078
visibility: 0.9953992366790771
","x: 202.9548797607422
y: 516.045166015625
z: 0.4993419051170349
visibility: 0.8559290766716003
","x: 155.15203857421875
y: 532.0515747070312
z: 0.04856661334633827
visibility: 0.9659762978553772
","x: 229.05438232421875
y: 513.82421875
z: 0.44633087515830994
visibility: 0.9259594678878784
","x: 181.25827026367188
y: 548.4813842773438
z: -0.05568079277873039
visibility: 0.9913473129272461
","x: 265.92083740234375
y: 227.29461669921875
z: 0.0
","x: 266.77001953125
y: 220.69049072265625
z: -0.004700418561697006
","x: 269.6029052734375
y: 214.10916137695312
z: -0.00724131939932704
","x: 271.51617431640625
y: 207.88836669921875
z: -0.008866161108016968
","x: 272.35406494140625
y: 202.4066162109375
z: -0.010180363431572914
","x: 277.0404968261719
y: 223.08885192871094
z: -0.004531181883066893
","x: 283.4383239746094
y: 222.5715789794922
z: -0.006217354908585548
","x: 287.05426025390625
y: 221.451416015625
z: -0.007078280206769705
","x: 289.7786560058594
y: 220.40670776367188
z: -0.007331461645662785
","x: 277.9154052734375
y: 224.30467224121094
z: -0.0025098156183958054
","x: 284.184326171875
y: 222.73220825195312
z: -0.0037442410830408335
","x: 287.6994323730469
y: 220.66954040527344
z: -0.004042601212859154
","x: 290.3436279296875
y: 219.0604248046875
z: -0.004175112117081881
","x: 278.22442626953125
y: 224.6829071044922
z: -0.0008278093882836401
","x: 283.9284362792969
y: 223.0699005126953
z: -0.0020269062370061874
","x: 287.4124755859375
y: 220.7844696044922
z: -0.0028256899677217007
","x: 290.069580078125
y: 218.91555786132812
z: -0.0031712905038148165
","x: 278.19970703125
y: 224.61712646484375
z: 0.00040757606620900333
","x: 282.7406921386719
y: 223.42434692382812
z: -0.0003313181805424392
","x: 285.7806701660156
y: 221.5155792236328
z: -0.0009321232791990042
","x: 288.012939453125
y: 219.76417541503906
z: -0.0012072103563696146
",,,,,,,,,,,,,,,,,,,,,
16,"x: 191.01332092285156
y: 151.45489501953125
z: -0.15934021770954132
visibility: 0.9997872710227966
","x: 187.8632354736328
y: 145.34579467773438
z: -0.14642518758773804
visibility: 0.99965900182724
","x: 187.43124389648438
y: 145.2806396484375
z: -0.14646650850772858
visibility: 0.9996163845062256
","x: 186.92945861816406
y: 145.22549438476562
z: -0.14650118350982666
visibility: 0.9996554851531982
","x: 187.30393981933594
y: 146.09384155273438
z: -0.18276740610599518
visibility: 0.9997522830963135
","x: 186.52320861816406
y: 146.51258850097656
z: -0.18283432722091675
visibility: 0.9997761845588684
","x: 185.6487579345703
y: 146.92431640625
z: -0.18291179835796356
visibility: 0.9997949004173279
","x: 181.04190063476562
y: 151.18544006347656
z: -0.06050359085202217
visibility: 0.9992194175720215
","x: 180.155029296875
y: 152.20864868164062
z: -0.23030094802379608
visibility: 0.9997450709342957
","x: 190.4901580810547
y: 160.03207397460938
z: -0.12304667383432388
visibility: 0.9994500875473022
","x: 189.43975830078125
y: 160.8672332763672
z: -0.17093923687934875
visibility: 0.9996562004089355
","x: 180.1974639892578
y: 201.9085693359375
z: 0.09075237810611725
visibility: 0.9987781643867493
","x: 182.5656280517578
y: 205.7948455810547
z: -0.30380451679229736
visibility: 0.9999591112136841
","x: 192.7227020263672
y: 233.086181640625
z: 0.23722514510154724
visibility: 0.6055230498313904
","x: 217.80661010742188
y: 236.8565216064453
z: -0.3260660767555237
visibility: 0.9742648005485535
","x: 202.0652618408203
y: 241.88861083984375
z: 0.2693098187446594
visibility: 0.5907496809959412
","x: 259.4156494140625
y: 232.8855743408203
z: -0.2687007784843445
visibility: 0.9188579320907593
","x: 201.90731811523438
y: 244.3528594970703
z: 0.2789964973926544
visibility: 0.5150948166847229
","x: 269.9750061035156
y: 228.974365234375
z: -0.30678072571754456
visibility: 0.8815762996673584
","x: 202.18336486816406
y: 237.53985595703125
z: 0.24745643138885498
visibility: 0.5039576292037964
","x: 270.0168762207031
y: 222.9064178466797
z: -0.2998613715171814
visibility: 0.8814398646354675
","x: 203.19363403320312
y: 236.79119873046875
z: 0.2553756833076477
visibility: 0.4706439971923828
","x: 266.95538330078125
y: 224.4481658935547
z: -0.2643905580043793
visibility: 0.8436386585235596
","x: 189.5384521484375
y: 330.36297607421875
z: 0.11683283746242523
visibility: 0.9993854761123657
","x: 181.7361602783203
y: 333.702880859375
z: -0.11689622700214386
visibility: 0.9996693134307861
","x: 197.2565155029297
y: 417.01715087890625
z: 0.2643304765224457
visibility: 0.8669618368148804
","x: 177.98802185058594
y: 425.42822265625
z: -0.08448180556297302
visibility: 0.9894348382949829
","x: 205.69235229492188
y: 500.5392761230469
z: 0.4571000635623932
visibility: 0.909523606300354
","x: 162.58119201660156
y: 519.28564453125
z: 0.003426662879064679
visibility: 0.995600700378418
","x: 202.41122436523438
y: 517.3514404296875
z: 0.4745323061943054
visibility: 0.8646524548530579
","x: 155.528564453125
y: 532.0435791015625
z: 0.005752301309257746
visibility: 0.9666078090667725
","x: 229.6331024169922
y: 514.0033569335938
z: 0.4287737309932709
visibility: 0.9313100576400757
","x: 181.62937927246094
y: 548.63232421875
z: -0.10866256058216095
visibility: 0.9917864799499512
","x: 261.4938659667969
y: 232.48031616210938
z: 0.0
","x: 262.95220947265625
y: 224.0438995361328
z: -0.0074086575768888
","x: 266.3882751464844
y: 216.63568115234375
z: -0.010253110900521278
","x: 268.62091064453125
y: 210.16061401367188
z: -0.011151669546961784
","x: 270.0606384277344
y: 204.8120880126953
z: -0.011750813573598862
","x: 273.460693359375
y: 227.7572784423828
z: -0.008658796548843384
","x: 280.0843200683594
y: 225.62335205078125
z: -0.01032657828181982
","x: 283.9789123535156
y: 223.9959716796875
z: -0.011032688431441784
","x: 287.0452880859375
y: 222.2373809814453
z: -0.01112440973520279
","x: 274.0425720214844
y: 229.91607666015625
z: -0.004390214569866657
","x: 280.2088928222656
y: 227.39620971679688
z: -0.005131245590746403
","x: 283.7444152832031
y: 224.25070190429688
z: -0.005255898926407099
","x: 286.55511474609375
y: 221.63333129882812
z: -0.005445061717182398
","x: 274.0914611816406
y: 230.71356201171875
z: -0.0003308896557427943
","x: 279.46173095703125
y: 227.73077392578125
z: -0.0010674259392544627
","x: 282.7713317871094
y: 225.09381103515625
z: -0.002248394535854459
","x: 285.4267883300781
y: 222.90602111816406
z: -0.0030034708324819803
","x: 273.7235412597656
y: 230.40078735351562
z: 0.0031890443060547113
","x: 277.9610595703125
y: 227.7725067138672
z: 0.0026892104651778936
","x: 280.9338684082031
y: 225.59555053710938
z: 0.00169269647449255
","x: 283.0072021484375
y: 223.57806396484375
z: 0.001074263360351324
",,,,,,,,,,,,,,,,,,,,,
17,"x: 191.01332092285156
y: 151.45489501953125
z: -0.15934021770954132
visibility: 0.9997872710227966
","x: 187.8632354736328
y: 145.34579467773438
z: -0.14642518758773804
visibility: 0.99965900182724
","x: 187.43124389648438
y: 145.2806396484375
z: -0.14646650850772858
visibility: 0.9996163845062256
","x: 186.92945861816406
y: 145.22549438476562
z: -0.14650118350982666
visibility: 0.9996554851531982
","x: 187.30393981933594
y: 146.09384155273438
z: -0.18276740610599518
visibility: 0.9997522830963135
","x: 186.52320861816406
y: 146.51258850097656
z: -0.18283432722091675
visibility: 0.9997761845588684
","x: 185.6487579345703
y: 146.92431640625
z: -0.18291179835796356
visibility: 0.9997949004173279
","x: 181.04190063476562
y: 151.18544006347656
z: -0.06050359085202217
visibility: 0.9992194175720215
","x: 180.155029296875
y: 152.20864868164062
z: -0.23030094802379608
visibility: 0.9997450709342957
","x: 190.4901580810547
y: 160.03207397460938
z: -0.12304667383432388
visibility: 0.9994500875473022
","x: 189.43975830078125
y: 160.8672332763672
z: -0.17093923687934875
visibility: 0.9996562004089355
","x: 180.1974639892578
y: 201.9085693359375
z: 0.09075237810611725
visibility: 0.9987781643867493
","x: 182.5656280517578
y: 205.7948455810547
z: -0.30380451679229736
visibility: 0.9999591112136841
","x: 192.7227020263672
y: 233.086181640625
z: 0.23722514510154724
visibility: 0.6055230498313904
","x: 217.80661010742188
y: 236.8565216064453
z: -0.3260660767555237
visibility: 0.9742648005485535
","x: 202.0652618408203
y: 241.88861083984375
z: 0.2693098187446594
visibility: 0.5907496809959412
","x: 259.4156494140625
y: 232.8855743408203
z: -0.2687007784843445
visibility: 0.9188579320907593
","x: 201.90731811523438
y: 244.3528594970703
z: 0.2789964973926544
visibility: 0.5150948166847229
","x: 269.9750061035156
y: 228.974365234375
z: -0.30678072571754456
visibility: 0.8815762996673584
","x: 202.18336486816406
y: 237.53985595703125
z: 0.24745643138885498
visibility: 0.5039576292037964
","x: 270.0168762207031
y: 222.9064178466797
z: -0.2998613715171814
visibility: 0.8814398646354675
","x: 203.19363403320312
y: 236.79119873046875
z: 0.2553756833076477
visibility: 0.4706439971923828
","x: 266.95538330078125
y: 224.4481658935547
z: -0.2643905580043793
visibility: 0.8436386585235596
","x: 189.5384521484375
y: 330.36297607421875
z: 0.11683283746242523
visibility: 0.9993854761123657
","x: 181.7361602783203
y: 333.702880859375
z: -0.11689622700214386
visibility: 0.9996693134307861
","x: 197.2565155029297
y: 417.01715087890625
z: 0.2643304765224457
visibility: 0.8669618368148804
","x: 177.98802185058594
y: 425.42822265625
z: -0.08448180556297302
visibility: 0.9894348382949829
","x: 205.69235229492188
y: 500.5392761230469
z: 0.4571000635623932
visibility: 0.909523606300354
","x: 162.58119201660156
y: 519.28564453125
z: 0.003426662879064679
visibility: 0.995600700378418
","x: 202.41122436523438
y: 517.3514404296875
z: 0.4745323061943054
visibility: 0.8646524548530579
","x: 155.528564453125
y: 532.0435791015625
z: 0.005752301309257746
visibility: 0.9666078090667725
","x: 229.6331024169922
y: 514.0033569335938
z: 0.4287737309932709
visibility: 0.9313100576400757
","x: 181.62937927246094
y: 548.63232421875
z: -0.10866256058216095
visibility: 0.9917864799499512
","x: 261.4938659667969
y: 232.48031616210938
z: 0.0
","x: 262.95220947265625
y: 224.0438995361328
z: -0.0074086575768888
","x: 266.3882751464844
y: 216.63568115234375
z: -0.010253110900521278
","x: 268.62091064453125
y: 210.16061401367188
z: -0.011151669546961784
","x: 270.0606384277344
y: 204.8120880126953
z: -0.011750813573598862
","x: 273.460693359375
y: 227.7572784423828
z: -0.008658796548843384
","x: 280.0843200683594
y: 225.62335205078125
z: -0.01032657828181982
","x: 283.9789123535156
y: 223.9959716796875
z: -0.011032688431441784
","x: 287.0452880859375
y: 222.2373809814453
z: -0.01112440973520279
","x: 274.0425720214844
y: 229.91607666015625
z: -0.004390214569866657
","x: 280.2088928222656
y: 227.39620971679688
z: -0.005131245590746403
","x: 283.7444152832031
y: 224.25070190429688
z: -0.005255898926407099
","x: 286.55511474609375
y: 221.63333129882812
z: -0.005445061717182398
","x: 274.0914611816406
y: 230.71356201171875
z: -0.0003308896557427943
","x: 279.46173095703125
y: 227.73077392578125
z: -0.0010674259392544627
","x: 282.7713317871094
y: 225.09381103515625
z: -0.002248394535854459
","x: 285.4267883300781
y: 222.90602111816406
z: -0.0030034708324819803
","x: 273.7235412597656
y: 230.40078735351562
z: 0.0031890443060547113
","x: 277.9610595703125
y: 227.7725067138672
z: 0.0026892104651778936
","x: 280.9338684082031
y: 225.59555053710938
z: 0.00169269647449255
","x: 283.0072021484375
y: 223.57806396484375
z: 0.001074263360351324
",,,,,,,,,,,,,,,,,,,,,
18,"x: 190.16563415527344
y: 151.55352783203125
z: -0.16235604882240295
visibility: 0.9997934699058533
","x: 187.0291290283203
y: 145.33447265625
z: -0.14806759357452393
visibility: 0.9996678233146667
","x: 186.7118682861328
y: 145.25628662109375
z: -0.14811433851718903
visibility: 0.9996223449707031
","x: 186.3233184814453
y: 145.16966247558594
z: -0.14814332127571106
visibility: 0.999664306640625
","x: 186.1171875
y: 146.10867309570312
z: -0.1845197230577469
visibility: 0.9997643232345581
","x: 185.17300415039062
y: 146.57366943359375
z: -0.18458178639411926
visibility: 0.9997864961624146
","x: 184.1189727783203
y: 147.01817321777344
z: -0.1846475750207901
visibility: 0.9998053312301636
","x: 180.4514617919922
y: 151.2262420654297
z: -0.05855671688914299
visibility: 0.9991921782493591
","x: 178.4653778076172
y: 152.30711364746094
z: -0.22944548726081848
visibility: 0.9997553825378418
","x: 189.80767822265625
y: 160.11788940429688
z: -0.12512806057929993
visibility: 0.9994478821754456
","x: 188.27281188964844
y: 161.02481079101562
z: -0.17318376898765564
visibility: 0.9996564984321594
","x: 181.2816619873047
y: 203.09521484375
z: 0.09091746807098389
visibility: 0.99871426820755
","x: 182.0766143798828
y: 206.37118530273438
z: -0.29896190762519836
visibility: 0.9999560713768005
