uscmakers/ReverseChoreography/data/2_kilby_girl_backseat_lovers.csv
,NOSE,LEFT_EYE_INNER,LEFT_EYE,LEFT_EYE_OUTER,RIGHT_EYE_INNER,RIGHT_EYE,RIGHT_EYE_OUTER,LEFT_EAR,RIGHT_EAR,MOUTH_LEFT,MOUTH_RIGHT,LEFT_SHOULDER,RIGHT_SHOULDER,LEFT_ELBOW,RIGHT_ELBOW,LEFT_WRIST,RIGHT_WRIST,LEFT_PINKY,RIGHT_PINKY,LEFT_INDEX,RIGHT_INDEX,LEFT_THUMB,RIGHT_THUMB,LEFT_HIP,RIGHT_HIP,LEFT_KNEE,RIGHT_KNEE,LEFT_ANKLE,RIGHT_ANKLE,LEFT_HEEL,RIGHT_HEEL,LEFT_FOOT_INDEX,RIGHT_FOOT_INDEX,WRIST,THUMB_CPC,THUMB_MCP,THUMB_IP,THUMB_TIP,INDEX_FINGER_MCP,INDEX_FINGER_PIP,INDEX_FINGER_DIP,INDEX_FINGER_TIP,MIDDLE_FINGER_MCP,MIDDLE_FINGER_PIP,MIDDLE_FINGER_DIP,MIDDLE_FINGER_TIP,RING_FINGER_PIP,RING_FINGER_DIP,RING_FINGER_TIP,RING_FINGER_MCP,PINKY_MCP,PINKY_PIP,PINKY_DIP,PINKY_TIP,WRIST2,THUMB_CPC2,THUMB_MCP2,THUMB_IP2,THUMB_TIP2,INDEX_FINGER_MCP2,INDEX_FINGER_PIP2,INDEX_FINGER_DIP2,INDEX_FINGER_TIP2,MIDDLE_FINGER_MCP2,MIDDLE_FINGER_PIP2,MIDDLE_FINGER_DIP2,MIDDLE_FINGER_TIP2,RING_FINGER_PIP2,RING_FINGER_DIP2,RING_FINGER_TIP2,RING_FINGER_MCP2,PINKY_MCP2,PINKY_PIP2,PINKY_DIP2,PINKY_TIP2
0,"x: 221.69590759277344
y: 173.08815002441406
z: -0.34027618169784546
visibility: 0.999936580657959
","x: 221.12745666503906
y: 165.42190551757812
z: -0.3269861042499542
visibility: 0.9998534917831421
","x: 221.52328491210938
y: 165.32699584960938
z: -0.3269607126712799
visibility: 0.9998421669006348
","x: 221.94674682617188
y: 165.12533569335938
z: -0.3269871175289154
visibility: 0.999840497970581
","x: 219.13623046875
y: 165.64300537109375
z: -0.33127033710479736
visibility: 0.999785840511322
","x: 218.053466796875
y: 165.7498016357422
z: -0.33132404088974
visibility: 0.999758780002594
","x: 216.93795776367188
y: 165.75491333007812
z: -0.33126091957092285
visibility: 0.9997051358222961
","x: 219.61642456054688
y: 167.97865295410156
z: -0.22296258807182312
visibility: 0.9998231530189514
","x: 212.03878784179688
y: 168.6113739013672
z: -0.2463325560092926
visibility: 0.9995449185371399
","x: 221.61492919921875
y: 181.0423126220703
z: -0.2992854416370392
visibility: 0.9998989105224609
","x: 218.59117126464844
y: 182.05911254882812
z: -0.30582889914512634
visibility: 0.9998457431793213
","x: 238.29776000976562
y: 208.75042724609375
z: -0.17835931479930878
visibility: 0.9999706745147705
","x: 191.38243103027344
y: 216.6161346435547
z: -0.15158295631408691
visibility: 0.9998694658279419
","x: 260.197998046875
y: 257.3099670410156
z: -0.21236424148082733
visibility: 0.9958756566047668
","x: 163.8128204345703
y: 235.1446533203125
z: -0.22892391681671143
visibility: 0.9986544847488403
","x: 279.5369873046875
y: 302.32305908203125
z: -0.38404345512390137
visibility: 0.9953123331069946
","x: 143.5513458251953
y: 197.5230255126953
z: -0.40643852949142456
visibility: 0.9981258511543274
","x: 287.9136657714844
y: 314.31109619140625
z: -0.42495983839035034
visibility: 0.9858552813529968
","x: 135.2978057861328
y: 187.04742431640625
z: -0.44670382142066956
visibility: 0.99198979139328
","x: 286.6437072753906
y: 316.068603515625
z: -0.4576154351234436
visibility: 0.9879330992698669
","x: 135.47512817382812
y: 182.7792510986328
z: -0.46870341897010803
visibility: 0.9927353858947754
","x: 283.4054870605469
y: 312.30938720703125
z: -0.4024433493614197
visibility: 0.9859328866004944
","x: 139.28077697753906
y: 186.92623901367188
z: -0.4240722060203552
visibility: 0.9922521710395813
","x: 248.99139404296875
y: 333.6813659667969
z: -0.01374843716621399
visibility: 0.9997782111167908
","x: 222.1523895263672
y: 343.705322265625
z: 0.013752001337707043
visibility: 0.9998716115951538
","x: 261.85986328125
y: 415.16845703125
z: 0.057909585535526276
visibility: 0.9935770630836487
","x: 211.9761962890625
y: 418.34149169921875
z: 0.07202327251434326
visibility: 0.9915731549263
","x: 263.0907287597656
y: 492.824951171875
z: 0.28111886978149414
visibility: 0.9874911308288574
","x: 218.4344940185547
y: 498.8489074707031
z: 0.2969738245010376
visibility: 0.9897426962852478
","x: 259.7657165527344
y: 505.6082763671875
z: 0.29704055190086365
visibility: 0.9238210320472717
","x: 225.68798828125
y: 512.8533325195312
z: 0.3131008446216583
visibility: 0.9300082325935364
","x: 273.8439636230469
y: 520.329345703125
z: 0.18577122688293457
visibility: 0.9861077070236206
","x: 205.4381866455078
y: 527.0225830078125
z: 0.2072373628616333
visibility: 0.9882404804229736
",,,,,,,,,,,,,,,,,,,,,,,,,,,,,,,,,,,,,,,,,,
1,"x: 243.3839874267578
y: 166.42971801757812
z: -0.15932834148406982
visibility: 0.9999064207077026
","x: 240.85733032226562
y: 158.98184204101562
z: -0.14180997014045715
visibility: 0.9997307658195496
","x: 240.50213623046875
y: 158.7220458984375
z: -0.14189814031124115
visibility: 0.9997262358665466
","x: 240.05690002441406
y: 158.43508911132812
z: -0.14188246428966522
visibility: 0.9997236132621765
","x: 239.98248291015625
y: 159.2837677001953
z: -0.16732028126716614
visibility: 0.9997091293334961
","x: 239.02786254882812
y: 159.25242614746094
z: -0.16734716296195984
visibility: 0.9996857047080994
","x: 237.96853637695312
y: 159.20315551757812
z: -0.16739918291568756
visibility: 0.9996080994606018
","x: 233.95651245117188
y: 163.46539306640625
z: -0.043979059904813766
visibility: 0.9995143413543701
","x: 231.15504455566406
y: 164.42489624023438
z: -0.16155749559402466
visibility: 0.999394953250885
","x: 242.3466339111328
y: 174.32003784179688
z: -0.12174035608768463
visibility: 0.9998155236244202
","x: 241.18368530273438
y: 174.9383544921875
z: -0.15530963242053986
visibility: 0.9997687935829163
","x: 250.78900146484375
y: 206.375244140625
z: 0.01789964735507965
visibility: 0.9999677538871765
","x: 208.342529296875
y: 218.142822265625
z: -0.13979850709438324
visibility: 0.9998438954353333
","x: 279.5071716308594
y: 230.68875122070312
z: 0.0460648387670517
visibility: 0.9941625595092773
","x: 206.8480224609375
y: 277.6801452636719
z: -0.1620309054851532
visibility: 0.9967029094696045
","x: 313.72967529296875
y: 244.43128967285156
z: -0.08300046622753143
visibility: 0.9944292306900024
","x: 188.1260223388672
y: 321.58062744140625
z: -0.23650908470153809
visibility: 0.9964755773544312
","x: 321.3454895019531
y: 250.5818328857422
z: -0.10396157205104828
visibility: 0.9837612509727478
","x: 182.08758544921875
y: 332.3057861328125
z: -0.257871150970459
visibility: 0.9899799227714539
","x: 321.391357421875
y: 253.0890655517578
z: -0.1388504058122635
visibility: 0.9863369464874268
","x: 180.63418579101562
y: 331.048828125
z: -0.2989808917045593
visibility: 0.9909998178482056
","x: 318.8104248046875
y: 252.30764770507812
z: -0.10246584564447403
visibility: 0.9844295978546143
","x: 182.75643920898438
y: 327.9153747558594
z: -0.25519680976867676
visibility: 0.989700973033905
","x: 254.7427978515625
y: 333.3999328613281
z: 0.0472475029528141
visibility: 0.9997395277023315
","x: 231.7646942138672
y: 341.2672119140625
z: -0.047266602516174316
visibility: 0.9997475743293762
","x: 263.79803466796875
y: 415.0343322753906
z: 0.09708528220653534
visibility: 0.9894331097602844
","x: 235.80914306640625
y: 420.23236083984375
z: 0.022949034348130226
visibility: 0.9907423853874207
","x: 273.4395446777344
y: 493.6548156738281
z: 0.20020759105682373
visibility: 0.9865888953208923
","x: 221.20413208007812
y: 500.8069152832031
z: 0.19469663500785828
visibility: 0.9888801574707031
","x: 271.6124572753906
y: 508.6640625
z: 0.2038007229566574
visibility: 0.9265443086624146
","x: 220.4571990966797
y: 513.7068481445312
z: 0.20614635944366455
visibility: 0.9225878119468689
","x: 283.8741760253906
y: 518.3744506835938
z: 0.11432431638240814
visibility: 0.9855412244796753
","x: 235.51834106445312
y: 526.184814453125
z: 0.1105661392211914
visibility: 0.9869263172149658
",,,,,,,,,,,,,,,,,,,,,,,,,,,,,,,,,,,,,,,,,,
2,"x: 260.84033203125
y: 164.83351135253906
z: -0.16917620599269867
visibility: 0.9999053478240967
","x: 259.4654235839844
y: 157.23385620117188
z: -0.1497669219970703
visibility: 0.9997190833091736
","x: 259.3272399902344
y: 156.9268798828125
z: -0.1498335301876068
visibility: 0.9997113943099976
","x: 259.1023864746094
y: 156.55758666992188
z: -0.1498173177242279
visibility: 0.999707818031311
","x: 258.0330505371094
y: 157.09629821777344
z: -0.1790519505739212
visibility: 0.9997168183326721
","x: 256.824462890625
y: 156.66064453125
z: -0.17907661199569702
visibility: 0.9996978640556335
","x: 255.47447204589844
y: 156.14305114746094
z: -0.17910811305046082
visibility: 0.9996229410171509
","x: 252.37619018554688
y: 159.9466552734375
z: -0.04391339793801308
visibility: 0.9994339346885681
","x: 248.21800231933594
y: 159.80699157714844
z: -0.1790325939655304
visibility: 0.9994285702705383
","x: 259.6223449707031
y: 173.00889587402344
z: -0.12854579091072083
visibility: 0.9998094439506531
","x: 257.7626037597656
y: 173.16078186035156
z: -0.16759392619132996
visibility: 0.9997763633728027
","x: 264.03619384765625
y: 206.74415588378906
z: 0.04292226582765579
visibility: 0.9999669790267944
","x: 222.86407470703125
y: 213.5160675048828
z: -0.17156729102134705
visibility: 0.9998545050621033
","x: 291.8131408691406
y: 234.0747833251953
z: 0.10620997846126556
visibility: 0.9925258755683899
","x: 216.37107849121094
y: 274.06292724609375
z: -0.18242147564888
visibility: 0.9965051412582397
","x: 326.2003173828125
y: 239.98934936523438
z: -0.0006828848272562027
visibility: 0.9940505623817444
","x: 204.25245666503906
y: 324.33203125
z: -0.30483105778694153
visibility: 0.9962401390075684
","x: 334.3580627441406
y: 245.82847595214844
z: -0.019618816673755646
visibility: 0.9828869700431824
","x: 197.63589477539062
y: 339.2054748535156
z: -0.33659231662750244
visibility: 0.9898671507835388
","x: 334.373291015625
y: 245.4936981201172
z: -0.05924735590815544
visibility: 0.9857810139656067
","x: 197.69927978515625
y: 340.1683044433594
z: -0.37111812829971313
visibility: 0.9908843636512756
","x: 331.9473876953125
y: 244.3758544921875
z: -0.022555295377969742
visibility: 0.9839203357696533
","x: 201.1522216796875
y: 335.407958984375
z: -0.3215814530849457
visibility: 0.9891416430473328
","x: 260.0599365234375
y: 333.6693115234375
z: 0.07277913391590118
visibility: 0.9997208714485168
","x: 237.5321502685547
y: 338.11334228515625
z: -0.0728340595960617
visibility: 0.9996829628944397
","x: 270.0945739746094
y: 413.9571533203125
z: 0.13585613667964935
visibility: 0.9852474331855774
","x: 237.48683166503906
y: 421.8089294433594
z: -0.021128619089722633
visibility: 0.9912983775138855
","x: 275.8302001953125
y: 495.43048095703125
z: 0.23617461323738098
visibility: 0.9862299561500549
","x: 221.5685272216797
y: 501.3188171386719
z: 0.13454005122184753
visibility: 0.9894626140594482
","x: 272.15863037109375
y: 510.3983154296875
z: 0.24429026246070862
visibility: 0.9298637509346008
","x: 218.0124969482422
y: 513.7227783203125
z: 0.14453458786010742
visibility: 0.9242695569992065
","x: 292.6299133300781
y: 517.2188720703125
z: 0.13599416613578796
visibility: 0.9853746891021729
","x: 237.6368408203125
y: 526.3291625976562
z: 0.04503592476248741
visibility: 0.9873316884040833
",,,,,,,,,,,,,,,,,,,,,,,,,,,,,,,,,,,,,,,,,,
3,"x: 275.70172119140625
y: 165.40216064453125
z: -0.13760046660900116
visibility: 0.9999120831489563
","x: 274.0567626953125
y: 157.38333129882812
z: -0.1176191121339798
visibility: 0.9997381567955017
","x: 273.76446533203125
y: 157.4189453125
z: -0.11766780912876129
visibility: 0.9997305870056152
","x: 273.3792724609375
y: 157.32957458496094
z: -0.1176493912935257
visibility: 0.9997266530990601
","x: 272.9482116699219
y: 157.58084106445312
z: -0.1482749879360199
visibility: 0.9997398853302002
","x: 271.8890686035156
y: 157.5651397705078
z: -0.14829084277153015
visibility: 0.9997231960296631
","x: 270.70147705078125
y: 157.3382568359375
z: -0.14831215143203735
visibility: 0.9996539950370789
","x: 266.9662170410156
y: 160.691650390625
z: -0.01637273095548153
visibility: 0.9994577169418335
","x: 263.7959899902344
y: 160.75204467773438
z: -0.15943868458271027
visibility: 0.9994788765907288
","x: 273.8235778808594
y: 173.86968994140625
z: -0.09881727397441864
visibility: 0.9998196363449097
","x: 272.2393493652344
y: 173.36309814453125
z: -0.14006397128105164
visibility: 0.999794065952301
","x: 273.6706848144531
y: 213.67086791992188
z: 0.06750242412090302
visibility: 0.9999676942825317
","x: 234.7192840576172
y: 210.49002075195312
z: -0.17067866027355194
visibility: 0.9998668432235718
","x: 297.99383544921875
y: 239.33595275878906
z: 0.12481913715600967
visibility: 0.990512490272522
","x: 220.70693969726562
y: 267.16876220703125
z: -0.20691566169261932
visibility: 0.9964214563369751
","x: 330.6121520996094
y: 245.82374572753906
z: 0.020743023604154587
visibility: 0.9941257238388062
","x: 209.35366821289062
y: 316.60662841796875
z: -0.31094828248023987
visibility: 0.9961811900138855
","x: 339.4952087402344
y: 248.78599548339844
z: 0.0025884914211928844
visibility: 0.9832358956336975
","x: 202.82546997070312
y: 330.5216064453125
z: -0.3431226313114166
visibility: 0.9900289177894592
","x: 339.7100524902344
y: 246.88475036621094
z: -0.03745820373296738
visibility: 0.9861533045768738
","x: 204.56568908691406
y: 331.82379150390625
z: -0.37188225984573364
visibility: 0.9909951090812683
","x: 337.2724304199219
y: 246.6494140625
z: -0.0015594877768307924
visibility: 0.9843493103981018
","x: 207.9383544921875
y: 327.5973815917969
z: -0.32485848665237427
visibility: 0.9888894557952881
","x: 262.6009521484375
y: 336.66265869140625
z: 0.08184793591499329
visibility: 0.9997186064720154
","x: 241.18112182617188
y: 338.1622009277344
z: -0.0819336548447609
visibility: 0.9996699094772339
","x: 273.61932373046875
y: 414.06695556640625
z: 0.14243319630622864
visibility: 0.9806216359138489
","x: 237.87319946289062
y: 421.80914306640625
z: -0.05608789250254631
visibility: 0.9919538497924805
","x: 277.5875549316406
y: 497.0884704589844
z: 0.24580805003643036
visibility: 0.9855138063430786
","x: 222.69021606445312
y: 501.40191650390625
z: 0.06088576838374138
visibility: 0.99019855260849
","x: 273.0452880859375
y: 512.4891967773438
z: 0.2531779408454895
visibility: 0.9327762722969055
","x: 218.1873321533203
y: 514.052734375
z: 0.06663405150175095
visibility: 0.9274592399597168
","x: 296.0959167480469
y: 517.6180419921875
z: 0.17673981189727783
visibility: 0.985054612159729
","x: 238.09295654296875
y: 526.35546875
z: -0.03216841071844101
visibility: 0.9879830479621887
","x: 209.8914794921875
y: 314.56549072265625
z: 0.0
","x: 210.88528442382812
y: 320.76727294921875
z: -0.0010759963188320398
","x: 210.2147979736328
y: 328.4212646484375
z: -0.002240684349089861
","x: 209.870361328125
y: 334.6623229980469
z: -0.003508081892505288
","x: 210.21849060058594
y: 338.41790771484375
z: -0.004564130678772926
","x: 202.76080322265625
y: 330.0245666503906
z: -0.00046928325900807977
","x: 199.42916870117188
y: 336.7527770996094
z: -0.002133613917976618
","x: 197.3212890625
y: 341.2516784667969
z: -0.003107480937615037
","x: 195.6440887451172
y: 344.6248779296875
z: -0.0035654434468597174
","x: 201.36083984375
y: 329.47857666015625
z: -0.0012357640080153942
","x: 197.64083862304688
y: 336.58477783203125
z: -0.002618495374917984
","x: 195.39749145507812
y: 341.3869934082031
z: -0.0034625388216227293
","x: 193.52560424804688
y: 345.200439453125
z: -0.004144854843616486
","x: 200.84275817871094
y: 329.1466064453125
z: -0.0022695702500641346
","x: 197.3585205078125
y: 335.8980712890625
z: -0.0038937050849199295
","x: 195.3508758544922
y: 340.4718017578125
z: -0.004880573134869337
","x: 193.5896759033203
y: 344.0652160644531
z: -0.00549183739349246
","x: 200.96636962890625
y: 328.9196472167969
z: -0.003515802323818207
","x: 198.09718322753906
y: 334.3724365234375
z: -0.004690048284828663
","x: 196.42770385742188
y: 338.01239013671875
z: -0.00525923166424036
","x: 194.9523162841797
y: 340.9659118652344
z: -0.00562887080013752
",,,,,,,,,,,,,,,,,,,,,
4,"x: 275.70172119140625
y: 165.40216064453125
z: -0.13760046660900116
visibility: 0.9999120831489563
","x: 274.0567626953125
y: 157.38333129882812
z: -0.1176191121339798
visibility: 0.9997381567955017
","x: 273.76446533203125
y: 157.4189453125
z: -0.11766780912876129
visibility: 0.9997305870056152
","x: 273.3792724609375
y: 157.32957458496094
z: -0.1176493912935257
visibility: 0.9997266530990601
","x: 272.9482116699219
y: 157.58084106445312
z: -0.1482749879360199
visibility: 0.9997398853302002
","x: 271.8890686035156
y: 157.5651397705078
z: -0.14829084277153015
visibility: 0.9997231960296631
","x: 270.70147705078125
y: 157.3382568359375
z: -0.14831215143203735
visibility: 0.9996539950370789
","x: 266.9662170410156
y: 160.691650390625
z: -0.01637273095548153
visibility: 0.9994577169418335
","x: 263.7959899902344
y: 160.75204467773438
z: -0.15943868458271027
visibility: 0.9994788765907288
","x: 273.8235778808594
y: 173.86968994140625
z: -0.09881727397441864
visibility: 0.9998196363449097
","x: 272.2393493652344
y: 173.36309814453125
z: -0.14006397128105164
visibility: 0.999794065952301
","x: 273.6706848144531
y: 213.67086791992188
z: 0.06750242412090302
visibility: 0.9999676942825317
","x: 234.7192840576172
y: 210.49002075195312
z: -0.17067866027355194
visibility: 0.9998668432235718
","x: 297.99383544921875
y: 239.33595275878906
z: 0.12481913715600967
visibility: 0.990512490272522
","x: 220.70693969726562
y: 267.16876220703125
z: -0.20691566169261932
visibility: 0.9964214563369751
","x: 330.6121520996094
y: 245.82374572753906
z: 0.020743023604154587
visibility: 0.9941257238388062
","x: 209.35366821289062
y: 316.60662841796875
z: -0.31094828248023987
visibility: 0.9961811900138855
","x: 339.4952087402344
y: 248.78599548339844
z: 0.0025884914211928844
visibility: 0.9832358956336975
","x: 202.82546997070312
y: 330.5216064453125
z: -0.3431226313114166
visibility: 0.9900289177894592
","x: 339.7100524902344
y: 246.88475036621094
z: -0.03745820373296738
visibility: 0.9861533045768738
","x: 204.56568908691406
y: 331.82379150390625
z: -0.37188225984573364
visibility: 0.9909951090812683
","x: 337.2724304199219
y: 246.6494140625
z: -0.0015594877768307924
visibility: 0.9843493103981018
","x: 207.9383544921875
y: 327.5973815917969
z: -0.32485848665237427
visibility: 0.9888894557952881
","x: 262.6009521484375
y: 336.66265869140625
z: 0.08184793591499329
visibility: 0.9997186064720154
","x: 241.18112182617188
y: 338.1622009277344
z: -0.0819336548447609
visibility: 0.9996699094772339
","x: 273.61932373046875
y: 414.06695556640625
z: 0.14243319630622864
visibility: 0.9806216359138489
","x: 237.87319946289062
y: 421.80914306640625
z: -0.05608789250254631
visibility: 0.9919538497924805
","x: 277.5875549316406
y: 497.0884704589844
z: 0.24580805003643036
visibility: 0.9855138063430786
","x: 222.69021606445312
y: 501.40191650390625
z: 0.06088576838374138
visibility: 0.99019855260849
","x: 273.0452880859375
y: 512.4891967773438
z: 0.2531779408454895
visibility: 0.9327762722969055
","x: 218.1873321533203
y: 514.052734375
z: 0.06663405150175095
visibility: 0.9274592399597168
","x: 296.0959167480469
y: 517.6180419921875
z: 0.17673981189727783
visibility: 0.985054612159729
","x: 238.09295654296875
y: 526.35546875
z: -0.03216841071844101
visibility: 0.9879830479621887
","x: 209.8914794921875
y: 314.56549072265625
z: 0.0
","x: 210.88528442382812
y: 320.76727294921875
z: -0.0010759963188320398
","x: 210.2147979736328
y: 328.4212646484375
z: -0.002240684349089861
","x: 209.870361328125
y: 334.6623229980469
z: -0.003508081892505288
","x: 210.21849060058594
y: 338.41790771484375
z: -0.004564130678772926
","x: 202.76080322265625
y: 330.0245666503906
z: -0.00046928325900807977
","x: 199.42916870117188
y: 336.7527770996094
z: -0.002133613917976618
","x: 197.3212890625
y: 341.2516784667969
z: -0.003107480937615037
","x: 195.6440887451172
y: 344.6248779296875
z: -0.0035654434468597174
","x: 201.36083984375
y: 329.47857666015625
z: -0.0012357640080153942
","x: 197.64083862304688
y: 336.58477783203125
z: -0.002618495374917984
","x: 195.39749145507812
y: 341.3869934082031
z: -0.0034625388216227293
","x: 193.52560424804688
y: 345.200439453125
z: -0.004144854843616486
","x: 200.84275817871094
y: 329.1466064453125
z: -0.0022695702500641346
","x: 197.3585205078125
y: 335.8980712890625
z: -0.0038937050849199295
","x: 195.3508758544922
y: 340.4718017578125
z: -0.004880573134869337
","x: 193.5896759033203
y: 344.0652160644531
z: -0.00549183739349246
","x: 200.96636962890625
y: 328.9196472167969
z: -0.003515802323818207
","x: 198.09718322753906
y: 334.3724365234375
z: -0.004690048284828663
","x: 196.42770385742188
y: 338.01239013671875
z: -0.00525923166424036
","x: 194.9523162841797
y: 340.9659118652344
z: -0.00562887080013752
",,,,,,,,,,,,,,,,,,,,,
5,"x: 290.77081298828125
y: 174.58566284179688
z: -0.13730308413505554
visibility: 0.9999203085899353
","x: 290.2486572265625
y: 165.4452362060547
z: -0.11813481152057648
visibility: 0.9997624158859253
","x: 290.0945129394531
y: 165.2012481689453
z: -0.11814788728952408
visibility: 0.9997553825378418
","x: 289.8558654785156
y: 164.8160400390625
z: -0.11810749769210815
visibility: 0.9997513890266418
","x: 289.03131103515625
y: 164.1410675048828
z: -0.15006385743618011
visibility: 0.9997648000717163
","x: 288.0016174316406
y: 162.9214324951172
z: -0.15006817877292633
visibility: 0.9997497797012329
","x: 286.8584289550781
y: 161.5994415283203
z: -0.1500825136899948
visibility: 0.9996870756149292
","x: 282.55584716796875
y: 163.6142578125
z: -0.01755703054368496
visibility: 0.9995047450065613
","x: 279.3741760253906
y: 161.58319091796875
z: -0.16656257212162018
visibility: 0.9995298385620117
","x: 288.574462890625
y: 182.07568359375
z: -0.09806568920612335
visibility: 0.9998357892036438
","x: 286.7765197753906
y: 180.1883087158203
z: -0.14134752750396729
visibility: 0.999813973903656
","x: 283.59197998046875
y: 220.49838256835938
z: 0.0619029700756073
visibility: 0.999969482421875
","x: 245.91748046875
y: 205.76821899414062
z: -0.1734187752008438
visibility: 0.9998796582221985
","x: 302.83270263671875
y: 259.55084228515625
z: 0.08141858875751495
visibility: 0.9885908365249634
","x: 225.26649475097656
y: 261.9007263183594
z: -0.20919755101203918
visibility: 0.996579110622406
","x: 331.72430419921875
y: 250.40179443359375
z: -0.06249900534749031
visibility: 0.9943634867668152
","x: 210.76641845703125
y: 307.26934814453125
z: -0.2734827399253845
visibility: 0.9963651299476624
","x: 341.3865661621094
y: 250.1569366455078
z: -0.08532601594924927
visibility: 0.9840007424354553
","x: 203.96827697753906
y: 320.61602783203125
z: -0.2993500828742981
visibility: 0.9905694127082825
","x: 341.6604919433594
y: 246.6334686279297
z: -0.11655811965465546
visibility: 0.9867963790893555
","x: 206.1558380126953
y: 322.4627990722656
z: -0.32270410656929016
visibility: 0.9914644360542297
","x: 338.2085876464844
y: 246.5218505859375
z: -0.08212129771709442
visibility: 0.9850181937217712
","x: 209.6026153564453
y: 319.0086669921875
z: -0.283694326877594
visibility: 0.989249587059021
","x: 265.4096374511719
y: 338.891357421875
z: 0.07846298068761826
visibility: 0.9997265338897705
","x: 243.4818115234375
y: 338.363525390625
z: -0.07861591130495071
visibility: 0.999686598777771
","x: 275.6510314941406
y: 414.6846008300781
z: 0.15000943839550018
visibility: 0.9775808453559875
","x: 239.86590576171875
y: 422.0080871582031
z: -0.05534379929304123
visibility: 0.9925251603126526
","x: 278.49737548828125
y: 497.36376953125
z: 0.27584725618362427
visibility: 0.9845975637435913
","x: 223.0103759765625
y: 502.643310546875
z: 0.06525551527738571
visibility: 0.9908509850502014
","x: 272.74908447265625
y: 512.0112915039062
z: 0.28423988819122314
visibility: 0.9346222877502441
","x: 217.5506591796875
y: 514.8255004882812
z: 0.07175413519144058
visibility: 0.9303275942802429
","x: 294.99676513671875
y: 517.8864135742188
z: 0.22746238112449646
visibility: 0.984677791595459
","x: 237.842529296875
y: 526.25830078125
z: -0.02775689586997032
visibility: 0.9885329008102417
",,,,,,,,,,,,,,,,,,,,,,"x: 332.34283447265625
y: 251.55764770507812
z: 0.0
","x: 334.9030456542969
y: 249.45884704589844
z: -0.004486082121729851
","x: 338.7811279296875
y: 247.4833984375
z: -0.005164425820112228
","x: 342.5692138671875
y: 247.48406982421875
z: -0.005663139279931784
","x: 345.5538024902344
y: 248.14752197265625
z: -0.005719596985727549
","x: 343.3353271484375
y: 245.0283660888672
z: 0.002609172137454152
","x: 347.31512451171875
y: 244.9490509033203
z: 0.0014559702249243855
","x: 349.03350830078125
y: 247.00521850585938
z: 4.3939377064816654e-05
","x: 349.72894287109375
y: 249.08450317382812
z: -0.0006713143084198236
","x: 344.0747375488281
y: 247.90907287597656
z: 0.003792224219068885
","x: 348.3668212890625
y: 249.1080322265625
z: 0.0028332772199064493
","x: 350.18780517578125
y: 252.2617950439453
z: 0.0004965506377629936
","x: 350.9217834472656
y: 255.54664611816406
z: -0.0009718613000586629
","x: 344.0719299316406
y: 250.6317138671875
z: 0.003919112030416727
","x: 348.0660705566406
y: 252.26966857910156
z: 0.002205910161137581
","x: 349.5977783203125
y: 254.66201782226562
z: -0.000561869703233242
","x: 350.05523681640625
y: 257.2513732910156
z: -0.002058372600004077
","x: 343.38037109375
y: 253.37484741210938
z: 0.0034884747583419085
","x: 346.4039001464844
y: 255.2442626953125
z: 0.002016610000282526
","x: 347.575439453125
y: 257.31573486328125
z: 0.00022527261171489954
","x: 347.9145202636719
y: 259.4409484863281
z: -0.0007310095243155956
"
6,"x: 290.77081298828125
y: 174.58566284179688
z: -0.13730308413505554
visibility: 0.9999203085899353
","x: 290.2486572265625
y: 165.4452362060547
z: -0.11813481152057648
visibility: 0.9997624158859253
","x: 290.0945129394531
y: 165.2012481689453
z: -0.11814788728952408
visibility: 0.9997553825378418
","x: 289.8558654785156
y: 164.8160400390625
z: -0.11810749769210815
visibility: 0.9997513890266418
","x: 289.03131103515625
y: 164.1410675048828
z: -0.15006385743618011
visibility: 0.9997648000717163
","x: 288.0016174316406
y: 162.9214324951172
z: -0.15006817877292633
visibility: 0.9997497797012329
","x: 286.8584289550781
y: 161.5994415283203
z: -0.1500825136899948
visibility: 0.9996870756149292
","x: 282.55584716796875
y: 163.6142578125
z: -0.01755703054368496
visibility: 0.9995047450065613
","x: 279.3741760253906
y: 161.58319091796875
z: -0.16656257212162018
visibility: 0.9995298385620117
","x: 288.574462890625
y: 182.07568359375
z: -0.09806568920612335
visibility: 0.9998357892036438
","x: 286.7765197753906
y: 180.1883087158203
z: -0.14134752750396729
visibility: 0.999813973903656
","x: 283.59197998046875
y: 220.49838256835938
z: 0.0619029700756073
visibility: 0.999969482421875
","x: 245.91748046875
y: 205.76821899414062
z: -0.1734187752008438
visibility: 0.9998796582221985
","x: 302.83270263671875
y: 259.55084228515625
z: 0.08141858875751495
visibility: 0.9885908365249634
","x: 225.26649475097656
y: 261.9007263183594
z: -0.20919755101203918
visibility: 0.996579110622406
","x: 331.72430419921875
y: 250.40179443359375
z: -0.06249900534749031
visibility: 0.9943634867668152
","x: 210.76641845703125
y: 307.26934814453125
z: -0.2734827399253845
visibility: 0.9963651299476624
","x: 341.3865661621094
y: 250.1569366455078
z: -0.08532601594924927
visibility: 0.9840007424354553
","x: 203.96827697753906
y: 320.61602783203125
z: -0.2993500828742981
visibility: 0.9905694127082825
","x: 341.6604919433594
y: 246.6334686279297
z: -0.11655811965465546
visibility: 0.9867963790893555
","x: 206.1558380126953
y: 322.4627990722656
z: -0.32270410656929016
visibility: 0.9914644360542297
","x: 338.2085876464844
y: 246.5218505859375
z: -0.08212129771709442
visibility: 0.9850181937217712
","x: 209.6026153564453
y: 319.0086669921875
z: -0.283694326877594
visibility: 0.989249587059021
","x: 265.4096374511719
y: 338.891357421875
z: 0.07846298068761826
visibility: 0.9997265338897705
","x: 243.4818115234375
y: 338.363525390625
z: -0.07861591130495071
visibility: 0.999686598777771
","x: 275.6510314941406
y: 414.6846008300781
z: 0.15000943839550018
visibility: 0.9775808453559875
","x: 239.86590576171875
y: 422.0080871582031
z: -0.05534379929304123
visibility: 0.9925251603126526
","x: 278.49737548828125
y: 497.36376953125
z: 0.27584725618362427
visibility: 0.9845975637435913
","x: 223.0103759765625
y: 502.643310546875
z: 0.06525551527738571
visibility: 0.9908509850502014
","x: 272.74908447265625
y: 512.0112915039062
z: 0.28423988819122314
visibility: 0.9346222877502441
","x: 217.5506591796875
y: 514.8255004882812
z: 0.07175413519144058
visibility: 0.9303275942802429
","x: 294.99676513671875
y: 517.8864135742188
z: 0.22746238112449646
visibility: 0.984677791595459
","x: 237.842529296875
y: 526.25830078125
z: -0.02775689586997032
visibility: 0.9885329008102417
",,,,,,,,,,,,,,,,,,,,,,"x: 332.34283447265625
y: 251.55764770507812
z: 0.0
","x: 334.9030456542969
y: 249.45884704589844
z: -0.004486082121729851
","x: 338.7811279296875
y: 247.4833984375
z: -0.005164425820112228
","x: 342.5692138671875
y: 247.48406982421875
z: -0.005663139279931784
","x: 345.5538024902344
y: 248.14752197265625
z: -0.005719596985727549
","x: 343.3353271484375
y: 245.0283660888672
z: 0.002609172137454152
","x: 347.31512451171875
y: 244.9490509033203
z: 0.0014559702249243855
","x: 349.03350830078125
y: 247.00521850585938
z: 4.3939377064816654e-05
","x: 349.72894287109375
y: 249.08450317382812
z: -0.0006713143084198236
","x: 344.0747375488281
y: 247.90907287597656
z: 0.003792224219068885
","x: 348.3668212890625
y: 249.1080322265625
z: 0.0028332772199064493
","x: 350.18780517578125
y: 252.2617950439453
z: 0.0004965506377629936
","x: 350.9217834472656
y: 255.54664611816406
z: -0.0009718613000586629
","x: 344.0719299316406
y: 250.6317138671875
z: 0.003919112030416727
","x: 348.0660705566406
y: 252.26966857910156
z: 0.002205910161137581
","x: 349.5977783203125
y: 254.66201782226562
z: -0.000561869703233242
","x: 350.05523681640625
y: 257.2513732910156
z: -0.002058372600004077
","x: 343.38037109375
y: 253.37484741210938
z: 0.0034884747583419085
","x: 346.4039001464844
y: 255.2442626953125
z: 0.002016610000282526
","x: 347.575439453125
y: 257.31573486328125
z: 0.00022527261171489954
","x: 347.9145202636719
y: 259.4409484863281
z: -0.0007310095243155956
"
7,"x: 297.2851867675781
y: 185.05398559570312
z: -0.16227959096431732
visibility: 0.9999278783798218
","x: 297.4434814453125
y: 175.8437957763672
z: -0.141866534948349
visibility: 0.9997849464416504
","x: 297.1267395019531
y: 175.3098907470703
z: -0.14186304807662964
visibility: 0.9997783899307251
","x: 296.6905212402344
y: 174.63746643066406
z: -0.1418289989233017
visibility: 0.9997744560241699
","x: 296.63934326171875
y: 174.7306671142578
z: -0.17764045298099518
visibility: 0.9997878074645996
","x: 295.7639465332031
y: 173.36260986328125
z: -0.17765548825263977
visibility: 0.9997742772102356
","x: 294.780517578125
y: 171.836669921875
z: -0.1776704341173172
visibility: 0.999717652797699
","x: 289.5204772949219
y: 171.6096649169922
z: -0.03481145575642586
visibility: 0.9995498657226562
","x: 286.73370361328125
y: 169.0211181640625
z: -0.1844310462474823
visibility: 0.9995763897895813
","x: 293.8502502441406
y: 191.70071411132812
z: -0.11987373977899551
visibility: 0.9998509287834167
","x: 292.6419982910156
y: 190.40444946289062
z: -0.1680760234594345
visibility: 0.9998322129249573
","x: 287.3431396484375
y: 224.48301696777344
z: 0.060659248381853104
visibility: 0.9999708533287048
","x: 250.88613891601562
y: 203.6221160888672
z: -0.21507053077220917
visibility: 0.999891459941864
","x: 306.2314758300781
y: 266.7718811035156
z: 0.09463893622159958
visibility: 0.9874646663665771
","x: 227.3107147216797
y: 259.841064453125
z: -0.2740999162197113
visibility: 0.996801495552063
","x: 334.9008483886719
y: 252.7641143798828
z: -0.021495962515473366
visibility: 0.9945900440216064
","x: 211.57594299316406
y: 299.29156494140625
z: -0.3151471018791199
visibility: 0.9966016411781311
","x: 344.0677185058594
y: 251.84793090820312
z: -0.03825192153453827
visibility: 0.9845789670944214
","x: 204.50857543945312
y: 312.8514404296875
z: -0.325478196144104
visibility: 0.9911878108978271
","x: 344.1693420410156
y: 248.22409057617188
z: -0.06372164934873581
visibility: 0.9872676730155945
","x: 207.5093536376953
y: 315.2286376953125
z: -0.35574689507484436
visibility: 0.9920006990432739
","x: 341.2605895996094
y: 248.03155517578125
z: -0.03837156668305397
visibility: 0.9855293035507202
","x: 211.47036743164062
y: 311.779296875
z: -0.2871033251285553
visibility: 0.9897339344024658
","x: 266.0428771972656
y: 339.23736572265625
z: 0.08986186236143112
visibility: 0.9997318387031555
","x: 244.37753295898438
y: 338.3072204589844
z: -0.09000919759273529
visibility: 0.999701201915741
","x: 276.24224853515625
y: 414.67535400390625
z: 0.15606996417045593
visibility: 0.9754921197891235
","x: 240.48094177246094
y: 422.04083251953125
z: -0.07286795228719711
visibility: 0.9930839538574219
","x: 277.76678466796875
y: 497.2249755859375
z: 0.2783260643482208
visibility: 0.9837985634803772
","x: 223.27243041992188
y: 502.7276611328125
z: 0.03885972127318382
visibility: 0.9915516972541809
","x: 272.2085876464844
y: 511.989501953125
z: 0.28639450669288635
visibility: 0.9370811581611633
","x: 218.17300415039062
y: 515.03271484375
z: 0.043507616966962814
visibility: 0.9346461892127991
","x: 295.19573974609375
y: 517.86767578125
z: 0.22855329513549805
visibility: 0.9846521615982056
","x: 238.1812744140625
y: 526.4241943359375
z: -0.06193438917398453
visibility: 0.9892675876617432
","x: 212.5196533203125
y: 298.0898132324219
z: 0.0
","x: 214.0277862548828
y: 306.341796875
z: -0.0014171501388773322
","x: 213.78683471679688
y: 314.9529113769531
z: -0.0027764271944761276
","x: 213.19635009765625
y: 321.6807556152344
z: -0.004558679182082415
","x: 212.96253967285156
y: 326.61859130859375
z: -0.006093591917306185
","x: 205.76113891601562
y: 315.5217590332031
z: 0.00045711331767961383
","x: 202.4339599609375
y: 322.1502380371094
z: -0.0014850508887320757
","x: 200.72315979003906
y: 325.9112243652344
z: -0.002102889819070697
","x: 199.3367156982422
y: 328.8949890136719
z: -0.002209970261901617
","x: 203.4182891845703
y: 313.3138732910156
z: -0.0009216877515427768
","x: 198.8959197998047
y: 320.7209777832031
z: -0.0025876506697386503
","x: 196.9937286376953
y: 324.55523681640625
z: -0.0028133054729551077
","x: 195.58885192871094
y: 327.755615234375
z: -0.00273503502830863
","x: 202.11026000976562
y: 311.2881164550781
z: -0.002895224839448929
","x: 198.0946044921875
y: 318.09619140625
z: -0.0050763399340212345
","x: 196.34756469726562
y: 322.1170349121094
z: -0.005333372391760349
","x: 194.89321899414062
y: 325.3663635253906
z: -0.005125341005623341
","x: 201.70433044433594
y: 309.250732421875
z: -0.005292677786201239
","x: 198.35714721679688
y: 315.13311767578125
z: -0.006958911661058664
","x: 196.53860473632812
y: 319.0039367675781
z: -0.007243169937282801
","x: 195.12057495117188
y: 322.1338195800781
z: -0.007107023149728775
","x: 333.28607177734375
y: 253.7967529296875
z: 0.0
","x: 336.3841247558594
y: 250.25418090820312
z: -0.0063123684376478195
","x: 340.2341003417969
y: 247.8096923828125
z: -0.0069448137655854225
","x: 343.67877197265625
y: 246.35272216796875
z: -0.006979044992476702
","x: 346.281982421875
y: 244.12489318847656
z: -0.006610638462007046
","x: 344.0194396972656
y: 245.53775024414062
z: 0.005023523233830929
","x: 347.9396667480469
y: 244.51806640625
z: 0.006020222324877977
","x: 350.0
y: 245.42807006835938
z: 0.005030670203268528
","x: 351.2452392578125
y: 246.99476623535156
z: 0.0043211705051362514
","x: 344.3502197265625
y: 248.89498901367188
z: 0.00804067961871624
","x: 348.5107727050781
y: 248.260498046875
z: 0.009958450682461262
","x: 350.7326965332031
y: 249.9976348876953
z: 0.007787070237100124
","x: 352.1712341308594
y: 252.63917541503906
z: 0.006032563745975494
","x: 344.2171325683594
y: 252.03094482421875
z: 0.009753052145242691
","x: 348.056640625
y: 252.0301513671875
z: 0.011354309506714344
","x: 350.2839050292969
y: 253.23956298828125
z: 0.008629884570837021
","x: 351.2814636230469
y: 255.66024780273438
z: 0.006475217640399933
","x: 343.6484375
y: 255.17251586914062
z: 0.010644148103892803
","x: 346.5570983886719
y: 255.93048095703125
z: 0.011874349787831306
","x: 348.2251281738281
y: 257.4689636230469
z: 0.010484161786735058
","x: 348.94586181640625
y: 259.6512145996094
z: 0.00927775539457798
"
8,"x: 297.2851867675781
y: 185.05398559570312
z: -0.16227959096431732
visibility: 0.9999278783798218
","x: 297.4434814453125
y: 175.8437957763672
z: -0.141866534948349
visibility: 0.9997849464416504
","x: 297.1267395019531
y: 175.3098907470703
z: -0.14186304807662964
visibility: 0.9997783899307251
","x: 296.6905212402344
y: 174.63746643066406
z: -0.1418289989233017
visibility: 0.9997744560241699
","x: 296.63934326171875
y: 174.7306671142578
z: -0.17764045298099518
visibility: 0.9997878074645996
","x: 295.7639465332031
y: 173.36260986328125
z: -0.17765548825263977
visibility: 0.9997742772102356
","x: 294.780517578125
y: 171.836669921875
z: -0.1776704341173172
visibility: 0.999717652797699
","x: 289.5204772949219
y: 171.6096649169922
z: -0.03481145575642586
visibility: 0.9995498657226562
","x: 286.73370361328125
y: 169.0211181640625
z: -0.1844310462474823
visibility: 0.9995763897895813
","x: 293.8502502441406
y: 191.70071411132812
z: -0.11987373977899551
visibility: 0.9998509287834167
","x: 292.6419982910156
y: 190.40444946289062
z: -0.1680760234594345
visibility: 0.9998322129249573
","x: 287.3431396484375
y: 224.48301696777344
z: 0.060659248381853104
visibility: 0.9999708533287048
","x: 250.88613891601562
y: 203.6221160888672
z: -0.21507053077220917
visibility: 0.999891459941864
","x: 306.2314758300781
y: 266.7718811035156
z: 0.09463893622159958
visibility: 0.9874646663665771
","x: 227.3107147216797
y: 259.841064453125
z: -0.2740999162197113
visibility: 0.996801495552063
","x: 334.9008483886719
y: 252.7641143798828
z: -0.021495962515473366
visibility: 0.9945900440216064
","x: 211.57594299316406
y: 299.29156494140625
z: -0.3151471018791199
visibility: 0.9966016411781311
","x: 344.0677185058594
y: 251.84793090820312
z: -0.03825192153453827
visibility: 0.9845789670944214
","x: 204.50857543945312
y: 312.8514404296875
z: -0.325478196144104
visibility: 0.9911878108978271
","x: 344.1693420410156
y: 248.22409057617188
z: -0.06372164934873581
visibility: 0.9872676730155945
","x: 207.5093536376953
y: 315.2286376953125
z: -0.35574689507484436
visibility: 0.9920006990432739
","x: 341.2605895996094
y: 248.03155517578125
z: -0.03837156668305397
visibility: 0.9855293035507202
","x: 211.47036743164062
y: 311.779296875
z: -0.2871033251285553
visibility: 0.9897339344024658
","x: 266.0428771972656
y: 339.23736572265625
z: 0.08986186236143112
visibility: 0.9997318387031555
","x: 244.37753295898438
y: 338.3072204589844
z: -0.09000919759273529
visibility: 0.999701201915741
","x: 276.24224853515625
y: 414.67535400390625
z: 0.15606996417045593
visibility: 0.9754921197891235
","x: 240.48094177246094
y: 422.04083251953125
z: -0.07286795228719711
visibility: 0.9930839538574219
","x: 277.76678466796875
y: 497.2249755859375
z: 0.2783260643482208
visibility: 0.9837985634803772
","x: 223.27243041992188
y: 502.7276611328125
z: 0.03885972127318382
visibility: 0.9915516972541809
","x: 272.2085876464844
y: 511.989501953125
z: 0.28639450669288635
visibility: 0.9370811581611633
","x: 218.17300415039062
y: 515.03271484375
z: 0.043507616966962814
visibility: 0.9346461892127991
","x: 295.19573974609375
y: 517.86767578125
z: 0.22855329513549805
visibility: 0.9846521615982056
","x: 238.1812744140625
y: 526.4241943359375
z: -0.06193438917398453
visibility: 0.9892675876617432
","x: 212.5196533203125
y: 298.0898132324219
z: 0.0
","x: 214.0277862548828
y: 306.341796875
z: -0.0014171501388773322
","x: 213.78683471679688
y: 314.9529113769531
z: -0.0027764271944761276
","x: 213.19635009765625
y: 321.6807556152344
z: -0.004558679182082415
","x: 212.96253967285156
y: 326.61859130859375
z: -0.006093591917306185
","x: 205.76113891601562
y: 315.5217590332031
z: 0.00045711331767961383
","x: 202.4339599609375
y: 322.1502380371094
z: -0.0014850508887320757
","x: 200.72315979003906
y: 325.9112243652344
z: -0.002102889819070697
","x: 199.3367156982422
y: 328.8949890136719
z: -0.002209970261901617
","x: 203.4182891845703
y: 313.3138732910156
z: -0.0009216877515427768
","x: 198.8959197998047
y: 320.7209777832031
z: -0.0025876506697386503
","x: 196.9937286376953
y: 324.55523681640625
z: -0.0028133054729551077
","x: 195.58885192871094
y: 327.755615234375
z: -0.00273503502830863
","x: 202.11026000976562
y: 311.2881164550781
z: -0.002895224839448929
","x: 198.0946044921875
y: 318.09619140625
z: -0.0050763399340212345
","x: 196.34756469726562
y: 322.1170349121094
z: -0.005333372391760349
","x: 194.89321899414062
y: 325.3663635253906
z: -0.005125341005623341
","x: 201.70433044433594
y: 309.250732421875
z: -0.005292677786201239
","x: 198.35714721679688
y: 315.13311767578125
z: -0.006958911661058664
","x: 196.53860473632812
y: 319.0039367675781
z: -0.007243169937282801
","x: 195.12057495117188
y: 322.1338195800781
z: -0.007107023149728775
","x: 333.28607177734375
y: 253.7967529296875
z: 0.0
","x: 336.3841247558594
y: 250.25418090820312
z: -0.0063123684376478195
","x: 340.2341003417969
y: 247.8096923828125
z: -0.0069448137655854225
","x: 343.67877197265625
y: 246.35272216796875
z: -0.006979044992476702
","x: 346.281982421875
y: 244.12489318847656
z: -0.006610638462007046
","x: 344.0194396972656
y: 245.53775024414062
z: 0.005023523233830929
","x: 347.9396667480469
y: 244.51806640625
z: 0.006020222324877977
","x: 350.0
y: 245.42807006835938
z: 0.005030670203268528
","x: 351.2452392578125
y: 246.99476623535156
z: 0.0043211705051362514
","x: 344.3502197265625
y: 248.89498901367188
z: 0.00804067961871624
","x: 348.5107727050781
y: 248.260498046875
z: 0.009958450682461262
","x: 350.7326965332031
y: 249.9976348876953
z: 0.007787070237100124
","x: 352.1712341308594
y: 252.63917541503906
z: 0.006032563745975494
","x: 344.2171325683594
y: 252.03094482421875
z: 0.009753052145242691
","x: 348.056640625
y: 252.0301513671875
z: 0.011354309506714344
","x: 350.2839050292969
y: 253.23956298828125
z: 0.008629884570837021
","x: 351.2814636230469
y: 255.66024780273438
z: 0.006475217640399933
","x: 343.6484375
y: 255.17251586914062
z: 0.010644148103892803
","x: 346.5570983886719
y: 255.93048095703125
z: 0.011874349787831306
","x: 348.2251281738281
y: 257.4689636230469
z: 0.010484161786735058
","x: 348.94586181640625
y: 259.6512145996094
z: 0.00927775539457798
"
9,"x: 297.2851867675781
y: 185.05398559570312
z: -0.16227959096431732
visibility: 0.9999278783798218
","x: 297.4434814453125
y: 175.8437957763672
z: -0.141866534948349
visibility: 0.9997849464416504
","x: 297.1267395019531
y: 175.3098907470703
z: -0.14186304807662964
visibility: 0.9997783899307251
","x: 296.6905212402344
y: 174.63746643066406
z: -0.1418289989233017
visibility: 0.9997744560241699
","x: 296.63934326171875
y: 174.7306671142578
z: -0.17764045298099518
visibility: 0.9997878074645996
","x: 295.7639465332031
y: 173.36260986328125
z: -0.17765548825263977
visibility: 0.9997742772102356
","x: 294.780517578125
y: 171.836669921875
z: -0.1776704341173172
visibility: 0.999717652797699
","x: 289.5204772949219
y: 171.6096649169922
z: -0.03481145575642586
visibility: 0.9995498657226562
","x: 286.73370361328125
y: 169.0211181640625
z: -0.1844310462474823
visibility: 0.9995763897895813
","x: 293.8502502441406
y: 191.70071411132812
z: -0.11987373977899551
visibility: 0.9998509287834167
","x: 292.6419982910156
y: 190.40444946289062
z: -0.1680760234594345
visibility: 0.9998322129249573
","x: 287.3431396484375
y: 224.48301696777344
z: 0.060659248381853104
visibility: 0.9999708533287048
","x: 250.88613891601562
y: 203.6221160888672
z: -0.21507053077220917
visibility: 0.999891459941864
","x: 306.2314758300781
y: 266.7718811035156
z: 0.09463893622159958
visibility: 0.9874646663665771
","x: 227.3107147216797
y: 259.841064453125
z: -0.2740999162197113
visibility: 0.996801495552063
","x: 334.9008483886719
y: 252.7641143798828
z: -0.021495962515473366
visibility: 0.9945900440216064
","x: 211.57594299316406
y: 299.29156494140625
z: -0.3151471018791199
visibility: 0.9966016411781311
","x: 344.0677185058594
y: 251.84793090820312
z: -0.03825192153453827
visibility: 0.9845789670944214
","x: 204.50857543945312
y: 312.8514404296875
z: -0.325478196144104
visibility: 0.9911878108978271
","x: 344.1693420410156
y: 248.22409057617188
z: -0.06372164934873581
visibility: 0.9872676730155945
","x: 207.5093536376953
y: 315.2286376953125
z: -0.35574689507484436
visibility: 0.9920006990432739
","x: 341.2605895996094
y: 248.03155517578125
z: -0.03837156668305397
visibility: 0.9855293035507202
","x: 211.47036743164062
y: 311.779296875
z: -0.2871033251285553
visibility: 0.9897339344024658
","x: 266.0428771972656
y: 339.23736572265625
z: 0.08986186236143112
visibility: 0.9997318387031555
","x: 244.37753295898438
y: 338.3072204589844
z: -0.09000919759273529
visibility: 0.999701201915741
","x: 276.24224853515625
y: 414.67535400390625
z: 0.15606996417045593
visibility: 0.9754921197891235
","x: 240.48094177246094
y: 422.04083251953125
z: -0.07286795228719711
visibility: 0.9930839538574219
","x: 277.76678466796875
y: 497.2249755859375
z: 0.2783260643482208
visibility: 0.9837985634803772
","x: 223.27243041992188
y: 502.7276611328125
z: 0.03885972127318382
visibility: 0.9915516972541809
","x: 272.2085876464844
y: 511.989501953125
z: 0.28639450669288635
visibility: 0.9370811581611633
","x: 218.17300415039062
y: 515.03271484375
z: 0.043507616966962814
visibility: 0.9346461892127991
","x: 295.19573974609375
y: 517.86767578125
z: 0.22855329513549805
visibility: 0.9846521615982056
","x: 238.1812744140625
y: 526.4241943359375
z: -0.06193438917398453
visibility: 0.9892675876617432
","x: 212.5196533203125
y: 298.0898132324219
z: 0.0
","x: 214.0277862548828
y: 306.341796875
z: -0.0014171501388773322
","x: 213.78683471679688
y: 314.9529113769531
z: -0.0027764271944761276
","x: 213.19635009765625
y: 321.6807556152344
z: -0.004558679182082415
","x: 212.96253967285156
y: 326.61859130859375
z: -0.006093591917306185
","x: 205.76113891601562
y: 315.5217590332031
z: 0.00045711331767961383
","x: 202.4339599609375
y: 322.1502380371094
z: -0.0014850508887320757
","x: 200.72315979003906
y: 325.9112243652344
z: -0.002102889819070697
","x: 199.3367156982422
y: 328.8949890136719
z: -0.002209970261901617
","x: 203.4182891845703
y: 313.3138732910156
z: -0.0009216877515427768
","x: 198.8959197998047
y: 320.7209777832031
z: -0.0025876506697386503
","x: 196.9937286376953
y: 324.55523681640625
z: -0.0028133054729551077
","x: 195.58885192871094
y: 327.755615234375
z: -0.00273503502830863
","x: 202.11026000976562
y: 311.2881164550781
z: -0.002895224839448929
","x: 198.0946044921875
y: 318.09619140625
z: -0.0050763399340212345
","x: 196.34756469726562
y: 322.1170349121094
z: -0.005333372391760349
","x: 194.89321899414062
y: 325.3663635253906
z: -0.005125341005623341
","x: 201.70433044433594
y: 309.250732421875
z: -0.005292677786201239
","x: 198.35714721679688
y: 315.13311767578125
z: -0.006958911661058664
","x: 196.53860473632812
y: 319.0039367675781
z: -0.007243169937282801
","x: 195.12057495117188
y: 322.1338195800781
z: -0.007107023149728775
","x: 333.28607177734375
y: 253.7967529296875
z: 0.0
","x: 336.3841247558594
y: 250.25418090820312
z: -0.0063123684376478195
","x: 340.2341003417969
y: 247.8096923828125
z: -0.0069448137655854225
","x: 343.67877197265625
y: 246.35272216796875
z: -0.006979044992476702
","x: 346.281982421875
y: 244.12489318847656
z: -0.006610638462007046
","x: 344.0194396972656
y: 245.53775024414062
z: 0.005023523233830929
","x: 347.9396667480469
y: 244.51806640625
z: 0.006020222324877977
","x: 350.0
y: 245.42807006835938
z: 0.005030670203268528
","x: 351.2452392578125
y: 246.99476623535156
z: 0.0043211705051362514
","x: 344.3502197265625
y: 248.89498901367188
z: 0.00804067961871624
","x: 348.5107727050781
y: 248.260498046875
z: 0.009958450682461262
","x: 350.7326965332031
y: 249.9976348876953
z: 0.007787070237100124
","x: 352.1712341308594
y: 252.63917541503906
z: 0.006032563745975494
","x: 344.2171325683594
y: 252.03094482421875
z: 0.009753052145242691
","x: 348.056640625
y: 252.0301513671875
z: 0.011354309506714344
","x: 350.2839050292969
y: 253.23956298828125
z: 0.008629884570837021
","x: 351.2814636230469
y: 255.66024780273438
z: 0.006475217640399933
","x: 343.6484375
y: 255.17251586914062
z: 0.010644148103892803
","x: 346.5570983886719
y: 255.93048095703125
z: 0.011874349787831306
","x: 348.2251281738281
y: 257.4689636230469
z: 0.010484161786735058
","x: 348.94586181640625
y: 259.6512145996094
z: 0.00927775539457798
"
10,"x: 299.8644104003906
y: 188.99986267089844
z: -0.18182829022407532
visibility: 0.9999346137046814
","x: 300.359130859375
y: 180.46359252929688
z: -0.1617215871810913
visibility: 0.9998047947883606
","x: 300.114990234375
y: 180.019775390625
z: -0.16171066462993622
visibility: 0.999798595905304
","x: 299.72393798828125
y: 179.43646240234375
z: -0.16168102622032166
visibility: 0.999794602394104
","x: 299.31817626953125
y: 179.2418212890625
z: -0.19569256901741028
visibility: 0.9998083114624023
","x: 298.39532470703125
y: 177.9322509765625
z: -0.195713073015213
visibility: 0.9997961521148682
","x: 297.3491516113281
y: 176.50717163085938
z: -0.19574056565761566
visibility: 0.9997448921203613
","x: 293.2257385253906
y: 176.1019744873047
z: -0.052548687905073166
visibility: 0.9995893239974976
","x: 289.75714111328125
y: 173.00474548339844
z: -0.20874734222888947
visibility: 0.9996182322502136
","x: 296.6361389160156
y: 194.60699462890625
z: -0.1384987235069275
visibility: 0.999864399433136
","x: 295.0503234863281
y: 193.3679962158203
z: -0.18452361226081848
visibility: 0.9998486042022705
","x: 290.28558349609375
y: 226.199462890625
z: 0.04841991513967514
visibility: 0.9999722242355347
","x: 254.35357666015625
y: 200.621337890625
z: -0.2215142697095871
visibility: 0.999902069568634
","x: 309.2969055175781
y: 271.3778076171875
z: 0.09110338985919952
visibility: 0.987220048904419
","x: 226.5607147216797
y: 250.06121826171875
z: -0.2716534435749054
visibility: 0.9970213174819946
","x: 337.6863708496094
y: 253.57492065429688
z: -0.016141781583428383
visibility: 0.9948776364326477
","x: 209.81597900390625
y: 288.5474853515625
z: -0.32286757230758667
visibility: 0.9968019127845764
","x: 346.2712707519531
y: 250.39334106445312
z: -0.030783485621213913
visibility: 0.9852259159088135
","x: 203.12985229492188
y: 301.95782470703125
z: -0.3469668924808502
visibility: 0.9916725754737854
","x: 346.3790283203125
y: 246.0739288330078
z: -0.054995764046907425
visibility: 0.98778235912323
","x: 206.52865600585938
y: 303.8212890625
z: -0.36784639954566956
visibility: 0.9924121499061584
","x: 343.697021484375
y: 246.9569549560547
z: -0.03184325248003006
visibility: 0.9860858917236328
","x: 209.88563537597656
y: 300.82073974609375
z: -0.323692262172699
visibility: 0.9900733232498169
","x: 268.1673889160156
y: 339.3377990722656
z: 0.08998724818229675
visibility: 0.9997251629829407
","x: 246.1630401611328
y: 337.44366455078125
z: -0.09011420607566833
visibility: 0.9997131824493408
","x: 276.65478515625
y: 416.0677490234375
z: 0.17363771796226501
visibility: 0.9743769764900208
","x: 240.4305877685547
y: 421.99456787109375
z: -0.07170583307743073
visibility: 0.9936273097991943
","x: 277.9017333984375
y: 497.3504943847656
z: 0.3103049397468567
visibility: 0.9834825992584229
","x: 223.94769287109375
y: 502.63861083984375
z: 0.040148817002773285
visibility: 0.9922329783439636
","x: 272.46954345703125
y: 511.801513671875
z: 0.31976765394210815
visibility: 0.9397867321968079
","x: 218.6518096923828
y: 514.884521484375
z: 0.04449190944433212
visibility: 0.9387721419334412
","x: 294.35888671875
y: 517.9180297851562
z: 0.2591038644313812
visibility: 0.9848657250404358
","x: 237.3387908935547
y: 527.5272216796875
z: -0.06654606014490128
visibility: 0.989992082118988
",,,,,,,,,,,,,,,,,,,,,,"x: 337.28021240234375
y: 256.0837097167969
z: 0.0
","x: 337.418701171875
y: 251.63137817382812
z: -0.007675470318645239
","x: 339.4410705566406
y: 247.13436889648438
z: -0.010891399346292019
","x: 342.1540222167969
y: 244.96365356445312
z: -0.013434026390314102
","x: 344.674560546875
y: 244.2736053466797
z: -0.01575489528477192
","x: 345.7978515625
y: 243.98507690429688
z: -0.004577558487653732
","x: 349.4842834472656
y: 240.6566619873047
z: -0.00807966385036707
","x: 351.80426025390625
y: 240.48605346679688
z: -0.01085580512881279
","x: 353.5130310058594
y: 241.2767333984375
z: -0.012519966810941696
","x: 347.2474060058594
y: 247.32388305664062
z: -0.0028450971003621817
","x: 351.40057373046875
y: 244.622802734375
z: -0.005812367424368858
","x: 353.830078125
y: 245.44534301757812
z: -0.00880743283778429
","x: 355.6700744628906
y: 247.39683532714844
z: -0.010850083082914352
","x: 347.7398376464844
y: 250.82095336914062
z: -0.002172221662476659
","x: 351.5750732421875
y: 249.21511840820312
z: -0.005661843344569206
","x: 353.6483459472656
y: 250.00384521484375
z: -0.00903336238116026
","x: 355.1972351074219
y: 251.84632873535156
z: -0.011032589711248875
","x: 347.40313720703125
y: 254.71023559570312
z: -0.0022654877975583076
","x: 350.3772888183594
y: 254.79383850097656
z: -0.005083560012280941
","x: 351.88995361328125
y: 255.71627807617188
z: -0.007530015893280506
","x: 352.9674987792969
y: 257.1570129394531
z: -0.009061243385076523
"
11,"x: 299.8644104003906
y: 188.99986267089844
z: -0.18182829022407532
visibility: 0.9999346137046814
","x: 300.359130859375
y: 180.46359252929688
z: -0.1617215871810913
visibility: 0.9998047947883606
","x: 300.114990234375
y: 180.019775390625
z: -0.16171066462993622
visibility: 0.999798595905304
","x: 299.72393798828125
y: 179.43646240234375
z: -0.16168102622032166
visibility: 0.999794602394104
","x: 299.31817626953125
y: 179.2418212890625
z: -0.19569256901741028
visibility: 0.9998083114624023
","x: 298.39532470703125
y: 177.9322509765625
z: -0.195713073015213
visibility: 0.9997961521148682
","x: 297.3491516113281
y: 176.50717163085938
z: -0.19574056565761566
visibility: 0.9997448921203613
","x: 293.2257385253906
y: 176.1019744873047
z: -0.052548687905073166
visibility: 0.9995893239974976
","x: 289.75714111328125
y: 173.00474548339844
z: -0.20874734222888947
visibility: 0.9996182322502136
","x: 296.6361389160156
y: 194.60699462890625
z: -0.1384987235069275
visibility: 0.999864399433136
","x: 295.0503234863281
y: 193.3679962158203
z: -0.18452361226081848
visibility: 0.9998486042022705
","x: 290.28558349609375
y: 226.199462890625
z: 0.04841991513967514
visibility: 0.9999722242355347
","x: 254.35357666015625
y: 200.621337890625
z: -0.2215142697095871
visibility: 0.999902069568634
","x: 309.2969055175781
y: 271.3778076171875
z: 0.09110338985919952
visibility: 0.987220048904419
","x: 226.5607147216797
y: 250.06121826171875
z: -0.2716534435749054
visibility: 0.9970213174819946
","x: 337.6863708496094
y: 253.57492065429688
z: -0.016141781583428383
visibility: 0.9948776364326477
","x: 209.81597900390625
y: 288.5474853515625
z: -0.32286757230758667
visibility: 0.9968019127845764
","x: 346.2712707519531
y: 250.39334106445312
z: -0.030783485621213913
visibility: 0.9852259159088135
","x: 203.12985229492188
y: 301.95782470703125
z: -0.3469668924808502
visibility: 0.9916725754737854
","x: 346.3790283203125
y: 246.0739288330078
z: -0.054995764046907425
visibility: 0.98778235912323
","x: 206.52865600585938
y: 303.8212890625
z: -0.36784639954566956
visibility: 0.9924121499061584
","x: 343.697021484375
y: 246.9569549560547
z: -0.03184325248003006
visibility: 0.9860858917236328
","x: 209.88563537597656
y: 300.82073974609375
z: -0.323692262172699
visibility: 0.9900733232498169
","x: 268.1673889160156
y: 339.3377990722656
z: 0.08998724818229675
visibility: 0.9997251629829407
","x: 246.1630401611328
y: 337.44366455078125
z: -0.09011420607566833
visibility: 0.9997131824493408
","x: 276.65478515625
y: 416.0677490234375
z: 0.17363771796226501
visibility: 0.9743769764900208
","x: 240.4305877685547
y: 421.99456787109375
z: -0.07170583307743073
visibility: 0.9936273097991943
","x: 277.9017333984375
y: 497.3504943847656
z: 0.3103049397468567
visibility: 0.9834825992584229
","x: 223.94769287109375
y: 502.63861083984375
z: 0.040148817002773285
visibility: 0.9922329783439636
","x: 272.46954345703125
y: 511.801513671875
z: 0.31976765394210815
visibility: 0.9397867321968079
","x: 218.6518096923828
y: 514.884521484375
z: 0.04449190944433212
visibility: 0.9387721419334412
","x: 294.35888671875
y: 517.9180297851562
z: 0.2591038644313812
visibility: 0.9848657250404358
","x: 237.3387908935547
y: 527.5272216796875
z: -0.06654606014490128
visibility: 0.989992082118988
",,,,,,,,,,,,,,,,,,,,,,"x: 337.28021240234375
y: 256.0837097167969
z: 0.0
","x: 337.418701171875
y: 251.63137817382812
z: -0.007675470318645239
","x: 339.4410705566406
y: 247.13436889648438
z: -0.010891399346292019
","x: 342.1540222167969
y: 244.96365356445312
z: -0.013434026390314102
","x: 344.674560546875
y: 244.2736053466797
z: -0.01575489528477192
","x: 345.7978515625
y: 243.98507690429688
z: -0.004577558487653732
","x: 349.4842834472656
y: 240.6566619873047
z: -0.00807966385036707
","x: 351.80426025390625
y: 240.48605346679688
z: -0.01085580512881279
","x: 353.5130310058594
y: 241.2767333984375
z: -0.012519966810941696
","x: 347.2474060058594
y: 247.32388305664062
z: -0.0028450971003621817
","x: 351.40057373046875
y: 244.622802734375
z: -0.005812367424368858
","x: 353.830078125
y: 245.44534301757812
z: -0.00880743283778429
","x: 355.6700744628906
y: 247.39683532714844
z: -0.010850083082914352
","x: 347.7398376464844
y: 250.82095336914062
z: -0.002172221662476659
","x: 351.5750732421875
y: 249.21511840820312
z: -0.005661843344569206
","x: 353.6483459472656
y: 250.00384521484375
z: -0.00903336238116026
","x: 355.1972351074219
y: 251.84632873535156
z: -0.011032589711248875
","x: 347.40313720703125
y: 254.71023559570312
z: -0.0022654877975583076
","x: 350.3772888183594
y: 254.79383850097656
z: -0.005083560012280941
","x: 351.88995361328125
y: 255.71627807617188
z: -0.007530015893280506
","x: 352.9674987792969
y: 257.1570129394531
z: -0.009061243385076523
"
12,"x: 300.181640625
y: 188.58778381347656
z: -0.19780266284942627
visibility: 0.999940812587738
","x: 300.5435791015625
y: 179.83160400390625
z: -0.17879217863082886
visibility: 0.9998232126235962
","x: 300.2392272949219
y: 179.3750762939453
z: -0.1787867695093155
visibility: 0.9998173117637634
","x: 299.7918701171875
y: 178.7741241455078
z: -0.17876780033111572
visibility: 0.9998133778572083
","x: 299.6736755371094
y: 178.8472900390625
z: -0.196354478597641
visibility: 0.9998270869255066
","x: 298.8067321777344
y: 177.7567138671875
z: -0.19636961817741394
visibility: 0.9998161196708679
","x: 297.7501220703125
y: 176.58074951171875
z: -0.1965533196926117
visibility: 0.9997698068618774
","x: 293.1875305175781
y: 175.40606689453125
z: -0.06827621161937714
visibility: 0.999626636505127
","x: 290.1724548339844
y: 173.384765625
z: -0.23839017748832703
visibility: 0.999656081199646
","x: 297.0690002441406
y: 194.26263427734375
z: -0.15509791672229767
visibility: 0.999876856803894
","x: 295.7233581542969
y: 193.04344177246094
z: -0.19470496475696564
visibility: 0.9998634457588196
","x: 291.43341064453125
y: 225.27447509765625
z: 0.03752173110842705
visibility: 0.9999734163284302
","x: 253.7908172607422
y: 198.95620727539062
z: -0.2452528178691864
visibility: 0.9999116063117981
","x: 309.57208251953125
y: 272.9715881347656
z: 0.09476123750209808
visibility: 0.987347424030304
","x: 224.6551513671875
y: 239.15655517578125
z: -0.32702890038490295
visibility: 0.9971989989280701
","x: 338.1191101074219
y: 254.61672973632812
z: 0.0109751271083951
visibility: 0.9951807260513306
","x: 208.1256866455078
y: 280.90313720703125
z: -0.41862255334854126
visibility: 0.996981680393219
","x: 346.9517822265625
y: 250.51039123535156
z: -0.00012319249799475074
visibility: 0.9859009981155396
","x: 201.0094757080078
y: 291.5942687988281
z: -0.4517228603363037
visibility: 0.9921166896820068
","x: 347.37445068359375
y: 246.03518676757812
z: -0.023066235706210136
visibility: 0.988345205783844
","x: 205.7714385986328
y: 292.291015625
z: -0.46645697951316833
visibility: 0.9927889704704285
","x: 344.32574462890625
y: 247.0459747314453
z: -0.0037239224184304476
visibility: 0.9867292642593384
","x: 208.8433074951172
y: 290.3379211425781
z: -0.42586439847946167
visibility: 0.9903857707977295
","x: 270.4444274902344
y: 339.10443115234375
z: 0.09111285954713821
visibility: 0.9997184872627258
","x: 248.09051513671875
y: 336.19757080078125
z: -0.09123996645212173
visibility: 0.9997186064720154
","x: 277.12823486328125
y: 416.75421142578125
z: 0.18471331894397736
visibility: 0.9730810523033142
","x: 241.03146362304688
y: 420.51007080078125
z: -0.05215666443109512
visibility: 0.9940519332885742
","x: 277.9587097167969
y: 497.78759765625
z: 0.3330785632133484
visibility: 0.9829872846603394
","x: 225.92074584960938
y: 501.1907958984375
z: 0.07725463807582855
visibility: 0.9928154945373535
","x: 272.72998046875
y: 512.0859375
z: 0.34389442205429077
visibility: 0.9423093199729919
","x: 219.7967987060547
y: 512.3756713867188
z: 0.08342385292053223
visibility: 0.9426450729370117
","x: 294.1964111328125
y: 517.9596557617188
z: 0.2828311324119568
visibility: 0.9850525259971619
","x: 237.89385986328125
y: 528.16259765625
z: -0.026527181267738342
visibility: 0.9906033277511597
","x: 204.76942443847656
y: 273.90911865234375
z: 0.0
","x: 207.29519653320312
y: 279.2720642089844
z: -0.0077536702156066895
","x: 208.56089782714844
y: 286.296875
z: -0.010547187179327011
","x: 209.10885620117188
y: 292.60211181640625
z: -0.011819633655250072
","x: 208.78805541992188
y: 298.292724609375
z: -0.012690803036093712
","x: 200.21267700195312
y: 291.1979064941406
z: -0.005581102799624205
","x: 198.25152587890625
y: 299.9108581542969
z: -0.006885969080030918
","x: 197.61097717285156
y: 305.4732666015625
z: -0.007678633090108633
","x: 197.35040283203125
y: 309.7032165527344
z: -0.007925407961010933
","x: 199.2131805419922
y: 290.6429443359375
z: -0.0018000616692006588
","x: 196.98382568359375
y: 298.81597900390625
z: -0.0024794370401650667
","x: 196.65794372558594
y: 304.7486572265625
z: -0.003196036210283637
","x: 196.4897003173828
y: 309.4458312988281
z: -0.0036943836603313684
","x: 198.7774658203125
y: 290.06719970703125
z: 0.001318632042966783
","x: 197.1613006591797
y: 297.1534423828125
z: 0.0004602174158208072
","x: 196.72723388671875
y: 302.47674560546875
z: -0.001017270260490477
","x: 196.591552734375
y: 306.73870849609375
z: -0.0018947754288092256
","x: 198.63258361816406
y: 289.1955261230469
z: 0.003744109533727169
","x: 197.5602569580078
y: 295.271728515625
z: 0.003161634085699916
","x: 197.10125732421875
y: 299.882568359375
z: 0.002079152734950185
","x: 197.09796142578125
y: 303.37091064453125
z: 0.0014498872915282845
","x: 338.06536865234375
y: 258.07391357421875
z: 0.0
","x: 339.20587158203125
y: 251.2132110595703
z: -0.0020579062402248383
","x: 341.47808837890625
y: 244.89559936523438
z: -0.0029212015215307474
","x: 344.2504577636719
y: 241.656005859375
z: -0.004042765125632286
","x: 346.72760009765625
y: 240.90354919433594
z: -0.005057801958173513
","x: 345.8875732421875
y: 243.84178161621094
z: 0.00041080426308326423
","x: 349.5422668457031
y: 240.34268188476562
z: -0.0016414145939052105
","x: 352.0280456542969
y: 239.457763671875
z: -0.003276780480518937
","x: 354.2087707519531
y: 239.23117065429688
z: -0.004236442036926746
","x: 347.21820068359375
y: 246.82777404785156
z: -0.00024184377980418503
","x: 350.93206787109375
y: 244.10711669921875
z: -0.0021487539634108543
","x: 353.6744384765625
y: 243.6483154296875
z: -0.003862593090161681
","x: 356.2057189941406
y: 243.80392456054688
z: -0.005050983279943466
","x: 347.965087890625
y: 250.311279296875
z: -0.0014921142719686031
","x: 351.7422790527344
y: 248.10072326660156
z: -0.003674251027405262
","x: 354.1827392578125
y: 247.55560302734375
z: -0.00524350069463253
","x: 356.3171691894531
y: 247.76889038085938
z: -0.006194562651216984
","x: 348.2004089355469
y: 254.42405700683594
z: -0.003099191701039672
","x: 351.3349609375
y: 253.1553955078125
z: -0.004743785597383976
","x: 353.33941650390625
y: 252.8562774658203
z: -0.0057367002591490746
","x: 355.1021728515625
y: 253.02297973632812
z: -0.006362836342304945
"
13,"x: 300.181640625
y: 188.58778381347656
z: -0.19780266284942627
visibility: 0.999940812587738
","x: 300.5435791015625
y: 179.83160400390625
z: -0.17879217863082886
visibility: 0.9998232126235962
","x: 300.2392272949219
y: 179.3750762939453
z: -0.1787867695093155
visibility: 0.9998173117637634
","x: 299.7918701171875
y: 178.7741241455078
z: -0.17876780033111572
visibility: 0.9998133778572083
","x: 299.6736755371094
y: 178.8472900390625
z: -0.196354478597641
visibility: 0.9998270869255066
","x: 298.8067321777344
y: 177.7567138671875
z: -0.19636961817741394
visibility: 0.9998161196708679
","x: 297.7501220703125
y: 176.58074951171875
z: -0.1965533196926117
visibility: 0.9997698068618774
","x: 293.1875305175781
y: 175.40606689453125
z: -0.06827621161937714
visibility: 0.999626636505127
","x: 290.1724548339844
y: 173.384765625
z: -0.23839017748832703
visibility: 0.999656081199646
","x: 297.0690002441406
y: 194.26263427734375
z: -0.15509791672229767
visibility: 0.999876856803894
","x: 295.7233581542969
y: 193.04344177246094
z: -0.19470496475696564
visibility: 0.9998634457588196
","x: 291.43341064453125
y: 225.27447509765625
z: 0.03752173110842705
visibility: 0.9999734163284302
","x: 253.7908172607422
y: 198.95620727539062
z: -0.2452528178691864
visibility: 0.9999116063117981
","x: 309.57208251953125
y: 272.9715881347656
z: 0.09476123750209808
visibility: 0.987347424030304
","x: 224.6551513671875
y: 239.15655517578125
z: -0.32702890038490295
visibility: 0.9971989989280701
","x: 338.1191101074219
y: 254.61672973632812
z: 0.0109751271083951
visibility: 0.9951807260513306
","x: 208.1256866455078
y: 280.90313720703125
z: -0.41862255334854126
visibility: 0.996981680393219
","x: 346.9517822265625
y: 250.51039123535156
z: -0.00012319249799475074
visibility: 0.9859009981155396
","x: 201.0094757080078
y: 291.5942687988281
z: -0.4517228603363037
visibility: 0.9921166896820068
","x: 347.37445068359375
y: 246.03518676757812
z: -0.023066235706210136
visibility: 0.988345205783844
","x: 205.7714385986328
y: 292.291015625
z: -0.46645697951316833
visibility: 0.9927889704704285
","x: 344.32574462890625
y: 247.0459747314453
z: -0.0037239224184304476
visibility: 0.9867292642593384
","x: 208.8433074951172
y: 290.3379211425781
z: -0.42586439847946167
visibility: 0.9903857707977295
","x: 270.4444274902344
y: 339.10443115234375
z: 0.09111285954713821
visibility: 0.9997184872627258
","x: 248.09051513671875
y: 336.19757080078125
z: -0.09123996645212173
visibility: 0.9997186064720154
","x: 277.12823486328125
y: 416.75421142578125
z: 0.18471331894397736
visibility: 0.9730810523033142
","x: 241.03146362304688
y: 420.51007080078125
z: -0.05215666443109512
visibility: 0.9940519332885742
","x: 277.9587097167969
y: 497.78759765625
z: 0.3330785632133484
visibility: 0.9829872846603394
","x: 225.92074584960938
y: 501.1907958984375
z: 0.07725463807582855
visibility: 0.9928154945373535
","x: 272.72998046875
y: 512.0859375
z: 0.34389442205429077
visibility: 0.9423093199729919
","x: 219.7967987060547
y: 512.3756713867188
z: 0.08342385292053223
visibility: 0.9426450729370117
","x: 294.1964111328125
y: 517.9596557617188
z: 0.2828311324119568
visibility: 0.9850525259971619
","x: 237.89385986328125
y: 528.16259765625
z: -0.026527181267738342
visibility: 0.9906033277511597
","x: 204.76942443847656
y: 273.90911865234375
z: 0.0
","x: 207.29519653320312
y: 279.2720642089844
z: -0.0077536702156066895
","x: 208.56089782714844
y: 286.296875
z: -0.010547187179327011
","x: 209.10885620117188
y: 292.60211181640625
z: -0.011819633655250072
","x: 208.78805541992188
y: 298.292724609375
z: -0.012690803036093712
","x: 200.21267700195312
y: 291.1979064941406
z: -0.005581102799624205
","x: 198.25152587890625
y: 299.9108581542969
z: -0.006885969080030918
","x: 197.61097717285156
y: 305.4732666015625
z: -0.007678633090108633
","x: 197.35040283203125
y: 309.7032165527344
z: -0.007925407961010933
","x: 199.2131805419922
y: 290.6429443359375
z: -0.0018000616692006588
","x: 196.98382568359375
y: 298.81597900390625
z: -0.0024794370401650667
","x: 196.65794372558594
y: 304.7486572265625
z: -0.003196036210283637
","x: 196.4897003173828
y: 309.4458312988281
z: -0.0036943836603313684
","x: 198.7774658203125
y: 290.06719970703125
z: 0.001318632042966783
","x: 197.1613006591797
y: 297.1534423828125
z: 0.0004602174158208072
","x: 196.72723388671875
y: 302.47674560546875
z: -0.001017270260490477
","x: 196.591552734375
y: 306.73870849609375
z: -0.0018947754288092256
","x: 198.63258361816406
y: 289.1955261230469
z: 0.003744109533727169
","x: 197.5602569580078
y: 295.271728515625
z: 0.003161634085699916
","x: 197.10125732421875
y: 299.882568359375
z: 0.002079152734950185
","x: 197.09796142578125
y: 303.37091064453125
z: 0.0014498872915282845
","x: 338.06536865234375
y: 258.07391357421875
z: 0.0
","x: 339.20587158203125
y: 251.2132110595703
z: -0.0020579062402248383
","x: 341.47808837890625
y: 244.89559936523438
z: -0.0029212015215307474
","x: 344.2504577636719
y: 241.656005859375
z: -0.004042765125632286
","x: 346.72760009765625
y: 240.90354919433594
z: -0.005057801958173513
","x: 345.8875732421875
y: 243.84178161621094
z: 0.00041080426308326423
","x: 349.5422668457031
y: 240.34268188476562
z: -0.0016414145939052105
","x: 352.0280456542969
y: 239.457763671875
z: -0.003276780480518937
","x: 354.2087707519531
y: 239.23117065429688
z: -0.004236442036926746
","x: 347.21820068359375
y: 246.82777404785156
z: -0.00024184377980418503
","x: 350.93206787109375
y: 244.10711669921875
z: -0.0021487539634108543
","x: 353.6744384765625
y: 243.6483154296875
z: -0.003862593090161681
","x: 356.2057189941406
y: 243.80392456054688
z: -0.005050983279943466
","x: 347.965087890625
y: 250.311279296875
z: -0.0014921142719686031
","x: 351.7422790527344
y: 248.10072326660156
z: -0.003674251027405262
","x: 354.1827392578125
y: 247.55560302734375
z: -0.00524350069463253
","x: 356.3171691894531
y: 247.76889038085938
z: -0.006194562651216984
","x: 348.2004089355469
y: 254.42405700683594
z: -0.003099191701039672
","x: 351.3349609375
y: 253.1553955078125
z: -0.004743785597383976
","x: 353.33941650390625
y: 252.8562774658203
z: -0.0057367002591490746
","x: 355.1021728515625
y: 253.02297973632812
z: -0.006362836342304945
"
14,"x: 300.181640625
y: 188.58778381347656
z: -0.19780266284942627
visibility: 0.999940812587738
","x: 300.5435791015625
y: 179.83160400390625
z: -0.17879217863082886
visibility: 0.9998232126235962
","x: 300.2392272949219
y: 179.3750762939453
z: -0.1787867695093155
visibility: 0.9998173117637634
","x: 299.7918701171875
y: 178.7741241455078
z: -0.17876780033111572
visibility: 0.9998133778572083
","x: 299.6736755371094
y: 178.8472900390625
z: -0.196354478597641
visibility: 0.9998270869255066
","x: 298.8067321777344
y: 177.7567138671875
z: -0.19636961817741394
visibility: 0.9998161196708679
","x: 297.7501220703125
y: 176.58074951171875
z: -0.1965533196926117
visibility: 0.9997698068618774
","x: 293.1875305175781
y: 175.40606689453125
z: -0.06827621161937714
visibility: 0.999626636505127
","x: 290.1724548339844
y: 173.384765625
z: -0.23839017748832703
visibility: 0.999656081199646
","x: 297.0690002441406
y: 194.26263427734375
z: -0.15509791672229767
visibility: 0.999876856803894
","x: 295.7233581542969
y: 193.04344177246094
z: -0.19470496475696564
visibility: 0.9998634457588196
","x: 291.43341064453125
y: 225.27447509765625
z: 0.03752173110842705
visibility: 0.9999734163284302
","x: 253.7908172607422
y: 198.95620727539062
z: -0.2452528178691864
visibility: 0.9999116063117981
","x: 309.57208251953125
y: 272.9715881347656
z: 0.09476123750209808
visibility: 0.987347424030304
","x: 224.6551513671875
y: 239.15655517578125
z: -0.32702890038490295
visibility: 0.9971989989280701
","x: 338.1191101074219
y: 254.61672973632812
z: 0.0109751271083951
visibility: 0.9951807260513306
","x: 208.1256866455078
y: 280.90313720703125
z: -0.41862255334854126
visibility: 0.996981680393219
","x: 346.9517822265625
y: 250.51039123535156
z: -0.00012319249799475074
visibility: 0.9859009981155396
","x: 201.0094757080078
y: 291.5942687988281
z: -0.4517228603363037
visibility: 0.9921166896820068
","x: 347.37445068359375
y: 246.03518676757812
z: -0.023066235706210136
visibility: 0.988345205783844
","x: 205.7714385986328
y: 292.291015625
z: -0.46645697951316833
visibility: 0.9927889704704285
","x: 344.32574462890625
y: 247.0459747314453
z: -0.0037239224184304476
visibility: 0.9867292642593384
","x: 208.8433074951172
y: 290.3379211425781
z: -0.42586439847946167
visibility: 0.9903857707977295
","x: 270.4444274902344
y: 339.10443115234375
z: 0.09111285954713821
visibility: 0.9997184872627258
","x: 248.09051513671875
y: 336.19757080078125
z: -0.09123996645212173
visibility: 0.9997186064720154
","x: 277.12823486328125
y: 416.75421142578125
z: 0.18471331894397736
visibility: 0.9730810523033142
","x: 241.03146362304688
y: 420.51007080078125
z: -0.05215666443109512
visibility: 0.9940519332885742
","x: 277.9587097167969
y: 497.78759765625
z: 0.3330785632133484
visibility: 0.9829872846603394
","x: 225.92074584960938
y: 501.1907958984375
z: 0.07725463807582855
visibility: 0.9928154945373535
","x: 272.72998046875
y: 512.0859375
z: 0.34389442205429077
visibility: 0.9423093199729919
","x: 219.7967987060547
y: 512.3756713867188
z: 0.08342385292053223
visibility: 0.9426450729370117
","x: 294.1964111328125
y: 517.9596557617188
z: 0.2828311324119568
visibility: 0.9850525259971619
","x: 237.89385986328125
y: 528.16259765625
z: -0.026527181267738342
visibility: 0.9906033277511597
","x: 204.76942443847656
y: 273.90911865234375
z: 0.0
","x: 207.29519653320312
y: 279.2720642089844
z: -0.0077536702156066895
","x: 208.56089782714844
y: 286.296875
z: -0.010547187179327011
","x: 209.10885620117188
y: 292.60211181640625
z: -0.011819633655250072
","x: 208.78805541992188
y: 298.292724609375
z: -0.012690803036093712
","x: 200.21267700195312
y: 291.1979064941406
z: -0.005581102799624205
","x: 198.25152587890625
y: 299.9108581542969
z: -0.006885969080030918
","x: 197.61097717285156
y: 305.4732666015625
z: -0.007678633090108633
","x: 197.35040283203125
y: 309.7032165527344
z: -0.007925407961010933
","x: 199.2131805419922
y: 290.6429443359375
z: -0.0018000616692006588
","x: 196.98382568359375
y: 298.81597900390625
z: -0.0024794370401650667
","x: 196.65794372558594
y: 304.7486572265625
z: -0.003196036210283637
","x: 196.4897003173828
y: 309.4458312988281
z: -0.0036943836603313684
","x: 198.7774658203125
y: 290.06719970703125
z: 0.001318632042966783
","x: 197.1613006591797
y: 297.1534423828125
z: 0.0004602174158208072
","x: 196.72723388671875
y: 302.47674560546875
z: -0.001017270260490477
","x: 196.591552734375
y: 306.73870849609375
z: -0.0018947754288092256
","x: 198.63258361816406
y: 289.1955261230469
z: 0.003744109533727169
","x: 197.5602569580078
y: 295.271728515625
z: 0.003161634085699916
","x: 197.10125732421875
y: 299.882568359375
z: 0.002079152734950185
","x: 197.09796142578125
y: 303.37091064453125
z: 0.0014498872915282845
","x: 338.06536865234375
y: 258.07391357421875
z: 0.0
","x: 339.20587158203125
y: 251.2132110595703
z: -0.0020579062402248383
","x: 341.47808837890625
y: 244.89559936523438
z: -0.0029212015215307474
","x: 344.2504577636719
y: 241.656005859375
z: -0.004042765125632286
","x: 346.72760009765625
y: 240.90354919433594
z: -0.005057801958173513
","x: 345.8875732421875
y: 243.84178161621094
z: 0.00041080426308326423
","x: 349.5422668457031
y: 240.34268188476562
z: -0.0016414145939052105
","x: 352.0280456542969
y: 239.457763671875
z: -0.003276780480518937
","x: 354.2087707519531
y: 239.23117065429688
z: -0.004236442036926746
","x: 347.21820068359375
y: 246.82777404785156
z: -0.00024184377980418503
","x: 350.93206787109375
y: 244.10711669921875
z: -0.0021487539634108543
","x: 353.6744384765625
y: 243.6483154296875
z: -0.003862593090161681
","x: 356.2057189941406
y: 243.80392456054688
z: -0.005050983279943466
","x: 347.965087890625
y: 250.311279296875
z: -0.0014921142719686031
","x: 351.7422790527344
y: 248.10072326660156
z: -0.003674251027405262
","x: 354.1827392578125
y: 247.55560302734375
z: -0.00524350069463253
","x: 356.3171691894531
y: 247.76889038085938
z: -0.006194562651216984
","x: 348.2004089355469
y: 254.42405700683594
z: -0.003099191701039672
","x: 351.3349609375
y: 253.1553955078125
z: -0.004743785597383976
","x: 353.33941650390625
y: 252.8562774658203
z: -0.0057367002591490746
","x: 355.1021728515625
y: 253.02297973632812
z: -0.006362836342304945
"
15,"x: 298.72943115234375
y: 186.5835723876953
z: -0.26651230454444885
visibility: 0.999946117401123
","x: 298.9048767089844
y: 177.84115600585938
z: -0.24653545022010803
visibility: 0.9998388290405273
","x: 298.7674255371094
y: 177.37753295898438
z: -0.24653854966163635
visibility: 0.9998332858085632
","x: 298.5478210449219
y: 176.7496337890625
z: -0.24654638767242432
visibility: 0.9998292326927185
","x: 297.8165283203125
y: 177.33465576171875
z: -0.2760936915874481
visibility: 0.999843180179596
","x: 296.90118408203125
y: 176.6513214111328
z: -0.2761334478855133
visibility: 0.9998332262039185
","x: 295.80548095703125
y: 175.890625
z: -0.2761707007884979
visibility: 0.9997910857200623
","x: 292.8487243652344
y: 174.6420135498047
z: -0.11985168606042862
visibility: 0.9996592402458191
","x: 287.7899475097656
y: 171.40037536621094
z: -0.2680530846118927
visibility: 0.9996897578239441
","x: 296.14874267578125
y: 193.5456085205078
z: -0.21648693084716797
visibility: 0.9998881816864014
","x: 294.62640380859375
y: 192.36895751953125
z: -0.25855517387390137
visibility: 0.9998767375946045
","x: 293.5979919433594
y: 224.00839233398438
z: -0.0025343981105834246
visibility: 0.9999751448631287
","x: 251.31329345703125
y: 195.75784301757812
z: -0.239030122756958
visibility: 0.9999200701713562
","x: 309.38385009765625
y: 272.84259033203125
z: -0.006330578587949276
visibility: 0.9881082773208618
","x: 221.2261199951172
y: 223.97036743164062
z: -0.31233036518096924
visibility: 0.9973956942558289
","x: 339.98956298828125
y: 256.33544921875
z: -0.1735031008720398
visibility: 0.9955283403396606
","x: 202.2418975830078
y: 255.52198791503906
z: -0.43107175827026367
visibility: 0.9971141815185547
","x: 348.6285705566406
y: 252.45388793945312
z: -0.2026136815547943
visibility: 0.9867810010910034
","x: 196.6541748046875
y: 275.5755310058594
z: -0.4663332998752594
visibility: 0.9923874139785767
","x: 349.1935119628906
y: 247.20404052734375
z: -0.22644340991973877
visibility: 0.9890841841697693
","x: 201.0330047607422
y: 276.8511657714844
z: -0.48741427063941956
visibility: 0.993025004863739
","x: 346.32928466796875
y: 248.1248321533203
z: -0.19106246531009674
visibility: 0.9875185489654541
","x: 203.76083374023438
y: 271.53802490234375
z: -0.4427642226219177
visibility: 0.9905911087989807
","x: 273.58966064453125
y: 335.248291015625
z: 0.07676520198583603
visibility: 0.9997103214263916
","x: 249.32530212402344
y: 330.7527160644531
z: -0.07684985548257828
visibility: 0.9997239112854004
","x: 277.45550537109375
y: 415.86920166015625
z: 0.1131754145026207
visibility: 0.9743174314498901
","x: 240.78915405273438
y: 414.96112060546875
z: -0.07596267014741898
visibility: 0.9944555759429932
","x: 277.9584045410156
y: 497.6891784667969
z: 0.25335249304771423
visibility: 0.9837813377380371
","x: 230.6165008544922
y: 496.0314636230469
z: 0.07180686295032501
visibility: 0.9933610558509827
","x: 272.4570007324219
y: 511.9517822265625
z: 0.26045387983322144
visibility: 0.9455275535583496
","x: 227.82188415527344
y: 504.5684814453125
z: 0.07794736325740814
visibility: 0.9455053806304932
","x: 293.0301208496094
y: 519.023193359375
z: 0.16203242540359497
visibility: 0.9857093095779419
","x: 235.72349548339844
y: 526.786376953125
z: -0.051043808460235596
visibility: 0.9911878705024719
",,,,,,,,,,,,,,,,,,,,,,"x: 339.97991943359375
y: 259.33087158203125
z: 0.0
","x: 341.4385986328125
y: 251.1095428466797
z: -0.0013535167090594769
","x: 344.5847473144531
y: 244.73472595214844
z: -0.0015693778404965997
","x: 348.31671142578125
y: 242.41476440429688
z: -0.0020214891992509365
","x: 351.399169921875
y: 243.0904541015625
z: -0.0022035983856767416
","x: 347.0126953125
y: 243.82022094726562
z: 0.0026159300468862057
","x: 350.4531555175781
y: 239.70925903320312
z: 0.0015697692288085818
","x: 353.2811584472656
y: 238.6552276611328
z: 0.0005176758277229965
","x: 355.7510070800781
y: 238.490478515625
z: -0.00011678540613502264
","x: 348.7167053222656
y: 247.4950408935547
z: 0.0021218645852059126
","x: 352.4053955078125
y: 244.6063232421875
z: 0.0013902167556807399
","x: 355.0611267089844
y: 244.019775390625
z: 0.00021248338453006
","x: 357.41998291015625
y: 243.8239288330078
z: -0.000646714644972235
","x: 349.74188232421875
y: 251.5237579345703
z: 0.0010075794998556376
","x: 353.636474609375
y: 249.08958435058594
z: -0.00022659909154754132
","x: 355.95355224609375
y: 248.19345092773438
z: -0.0014966928865760565
","x: 357.93890380859375
y: 247.96694946289062
z: -0.002226250246167183
","x: 350.30230712890625
y: 255.9652099609375
z: -0.0004169229359831661
","x: 353.4930725097656
y: 254.31320190429688
z: -0.0014379295753315091
","x: 355.3807678222656
y: 253.73385620117188
z: -0.002236306667327881
","x: 356.95050048828125
y: 253.7081298828125
z: -0.0026422503869980574
"
16,"x: 298.72943115234375
y: 186.5835723876953
z: -0.26651230454444885
visibility: 0.999946117401123
","x: 298.9048767089844
y: 177.84115600585938
z: -0.24653545022010803
visibility: 0.9998388290405273
","x: 298.7674255371094
y: 177.37753295898438
z: -0.24653854966163635
visibility: 0.9998332858085632
","x: 298.5478210449219
y: 176.7496337890625
z: -0.24654638767242432
visibility: 0.9998292326927185
","x: 297.8165283203125
y: 177.33465576171875
z: -0.2760936915874481
visibility: 0.999843180179596
","x: 296.90118408203125
y: 176.6513214111328
z: -0.2761334478855133
visibility: 0.9998332262039185
","x: 295.80548095703125
y: 175.890625
z: -0.2761707007884979
visibility: 0.9997910857200623
","x: 292.8487243652344
y: 174.6420135498047
z: -0.11985168606042862
visibility: 0.9996592402458191
","x: 287.7899475097656
y: 171.40037536621094
z: -0.2680530846118927
visibility: 0.9996897578239441
","x: 296.14874267578125
y: 193.5456085205078
z: -0.21648693084716797
visibility: 0.9998881816864014
","x: 294.62640380859375
y: 192.36895751953125
z: -0.25855517387390137
visibility: 0.9998767375946045
","x: 293.5979919433594
y: 224.00839233398438
z: -0.0025343981105834246
visibility: 0.9999751448631287
","x: 251.31329345703125
y: 195.75784301757812
z: -0.239030122756958
visibility: 0.9999200701713562
","x: 309.38385009765625
y: 272.84259033203125
z: -0.006330578587949276
visibility: 0.9881082773208618
","x: 221.2261199951172
y: 223.97036743164062
z: -0.31233036518096924
visibility: 0.9973956942558289
","x: 339.98956298828125
y: 256.33544921875
z: -0.1735031008720398
visibility: 0.9955283403396606
","x: 202.2418975830078
y: 255.52198791503906
z: -0.43107175827026367
visibility: 0.9971141815185547
","x: 348.6285705566406
y: 252.45388793945312
z: -0.2026136815547943
visibility: 0.9867810010910034
","x: 196.6541748046875
y: 275.5755310058594
z: -0.4663332998752594
visibility: 0.9923874139785767
","x: 349.1935119628906
y: 247.20404052734375
z: -0.22644340991973877
visibility: 0.9890841841697693
","x: 201.0330047607422
y: 276.8511657714844
z: -0.48741427063941956
visibility: 0.993025004863739
","x: 346.32928466796875
y: 248.1248321533203
z: -0.19106246531009674
visibility: 0.9875185489654541
","x: 203.76083374023438
y: 271.53802490234375
z: -0.4427642226219177
visibility: 0.9905911087989807
","x: 273.58966064453125
y: 335.248291015625
z: 0.07676520198583603
visibility: 0.9997103214263916
","x: 249.32530212402344
y: 330.7527160644531
z: -0.07684985548257828
visibility: 0.9997239112854004
","x: 277.45550537109375
y: 415.86920166015625
z: 0.1131754145026207
visibility: 0.9743174314498901
","x: 240.78915405273438
y: 414.96112060546875
z: -0.07596267014741898
visibility: 0.9944555759429932
","x: 277.9584045410156
y: 497.6891784667969
z: 0.25335249304771423
visibility: 0.9837813377380371
","x: 230.6165008544922
y: 496.0314636230469
z: 0.07180686295032501
visibility: 0.9933610558509827
","x: 272.4570007324219
y: 511.9517822265625
z: 0.26045387983322144
visibility: 0.9455275535583496
","x: 227.82188415527344
y: 504.5684814453125
z: 0.07794736325740814
visibility: 0.9455053806304932
","x: 293.0301208496094
y: 519.023193359375
z: 0.16203242540359497
visibility: 0.9857093095779419
","x: 235.72349548339844
y: 526.786376953125
z: -0.051043808460235596
visibility: 0.9911878705024719
",,,,,,,,,,,,,,,,,,,,,,"x: 339.97991943359375
y: 259.33087158203125
z: 0.0
","x: 341.4385986328125
y: 251.1095428466797
z: -0.0013535167090594769
","x: 344.5847473144531
y: 244.73472595214844
z: -0.0015693778404965997
","x: 348.31671142578125
y: 242.41476440429688
z: -0.0020214891992509365
","x: 351.399169921875
y: 243.0904541015625
z: -0.0022035983856767416
","x: 347.0126953125
y: 243.82022094726562
z: 0.0026159300468862057
","x: 350.4531555175781
y: 239.70925903320312
z: 0.0015697692288085818
","x: 353.2811584472656
y: 238.6552276611328
z: 0.0005176758277229965
","x: 355.7510070800781
y: 238.490478515625
z: -0.00011678540613502264
","x: 348.7167053222656
y: 247.4950408935547
z: 0.0021218645852059126
","x: 352.4053955078125
y: 244.6063232421875
z: 0.0013902167556807399
","x: 355.0611267089844
y: 244.019775390625
z: 0.00021248338453006
","x: 357.41998291015625
y: 243.8239288330078
z: -0.000646714644972235
","x: 349.74188232421875
y: 251.5237579345703
z: 0.0010075794998556376
","x: 353.636474609375
y: 249.08958435058594
z: -0.00022659909154754132
","x: 355.95355224609375
y: 248.19345092773438
z: -0.0014966928865760565
","x: 357.93890380859375
y: 247.96694946289062
z: -0.002226250246167183
","x: 350.30230712890625
y: 255.9652099609375
z: -0.0004169229359831661
","x: 353.4930725097656
y: 254.31320190429688
z: -0.0014379295753315091
","x: 355.3807678222656
y: 253.73385620117188
z: -0.002236306667327881
","x: 356.95050048828125
y: 253.7081298828125
z: -0.0026422503869980574
"
17,"x: 296.9702453613281
y: 168.65289306640625
z: -0.29479727149009705
visibility: 0.999951183795929
","x: 297.1782531738281
y: 162.7963409423828
z: -0.2744707465171814
visibility: 0.9998535513877869
","x: 297.3747253417969
y: 163.44174194335938
z: -0.2744753360748291
visibility: 0.999848484992981
","x: 297.5054931640625
y: 164.13392639160156
z: -0.2745147943496704
visibility: 0.9998442530632019
","x: 295.21514892578125
y: 161.05145263671875
z: -0.2948063910007477
visibility: 0.999858021736145
","x: 293.9178466796875
y: 160.3833770751953
z: -0.29485252499580383
visibility: 0.9998490214347839
","x: 292.34552001953125
y: 159.5768585205078
z: -0.2948523461818695
visibility: 0.9998107552528381
","x: 292.8831787109375
y: 167.4781951904297
z: -0.14693468809127808
visibility: 0.9996911287307739
","x: 284.58685302734375
y: 160.72402954101562
z: -0.250099778175354
visibility: 0.9997202157974243
","x: 295.03466796875
y: 177.32537841796875
z: -0.2454228699207306
visibility: 0.9998985528945923
","x: 292.835693359375
y: 174.86685180664062
z: -0.2742421627044678
visibility: 0.9998887181282043
","x: 293.7059326171875
y: 223.03778076171875
z: -0.05131649225950241
visibility: 0.9999764561653137
","x: 248.85435485839844
y: 191.4547119140625
z: -0.20428021252155304
visibility: 0.9999276399612427
","x: 308.40277099609375
y: 272.5565185546875
z: -0.040557172149419785
visibility: 0.9888803362846375
","x: 218.3842010498047
y: 202.732421875
z: -0.31011053919792175
visibility: 0.997545599937439
","x: 338.6799621582031
y: 257.0404357910156
z: -0.18623021245002747
visibility: 0.995823323726654
","x: 198.9060516357422
y: 225.8028564453125
z: -0.4183078706264496
visibility: 0.9972025752067566
","x: 348.3367614746094
y: 255.95458984375
z: -0.21126994490623474
visibility: 0.9875010251998901
","x: 192.62432861328125
y: 239.88973999023438
z: -0.45359882712364197
visibility: 0.9924542307853699
","x: 349.06317138671875
y: 251.8762969970703
z: -0.23933836817741394
visibility: 0.9896808862686157
","x: 196.4250946044922
y: 244.29994201660156
z: -0.47316890954971313
visibility: 0.9931063055992126
","x: 346.02740478515625
y: 252.21490478515625
z: -0.2040514200925827
visibility: 0.9881495237350464
","x: 199.27560424804688
y: 241.28054809570312
z: -0.43133097887039185
visibility: 0.9907630681991577
","x: 275.3311462402344
y: 329.8465576171875
z: 0.038336608558893204
visibility: 0.9996998310089111
","x: 249.11024475097656
y: 327.2193908691406
z: -0.03828634321689606
visibility: 0.9997398257255554
","x: 278.9942932128906
y: 411.2939453125
z: 0.07796816527843475
visibility: 0.976650595664978
","x: 239.98452758789062
y: 413.2345275878906
z: -0.0668911337852478
visibility: 0.9949027299880981
","x: 278.0122985839844
y: 497.6038818359375
z: 0.23448653519153595
visibility: 0.9851346611976624
","x: 237.52182006835938
y: 495.6715393066406
z: 0.08836832642555237
visibility: 0.9939355850219727
","x: 272.0552062988281
y: 511.64190673828125
z: 0.24300162494182587
visibility: 0.9491590857505798
","x: 241.02316284179688
y: 505.6142883300781
z: 0.09517497569322586
visibility: 0.9490774273872375
","x: 292.24456787109375
y: 519.181396484375
z: 0.1308213174343109
visibility: 0.9868460297584534
","x: 234.32382202148438
y: 526.0992431640625
z: -0.038614772260189056
visibility: 0.991885781288147
",,,,,,,,,,,,,,,,,,,,,,"x: 340.8016052246094
y: 262.082275390625
z: 0.0
","x: 342.6700744628906
y: 254.04135131835938
z: -0.002106649801135063
","x: 345.97509765625
y: 248.0896759033203
z: -0.0028794179670512676
","x: 350.1103210449219
y: 246.8427276611328
z: -0.0039752149023115635
","x: 353.5421142578125
y: 249.61785888671875
z: -0.004876643419265747
","x: 349.542724609375
y: 249.34800720214844
z: 0.0031385766342282295
","x: 352.91845703125
y: 246.5911102294922
z: 0.0020262759644538164
","x: 355.084716796875
y: 245.402099609375
z: 0.0008260002941824496
","x: 357.12054443359375
y: 244.53382873535156
z: -3.630674473242834e-05
","x: 350.6799621582031
y: 253.13369750976562
z: 0.002529151737689972
","x: 354.09967041015625
y: 250.71591186523438
z: 0.0020286499056965113
","x: 356.155029296875
y: 249.5596160888672
z: 0.0008879599045030773
","x: 358.2353210449219
y: 248.5003662109375
z: -9.110265091294423e-05
","x: 350.93670654296875
y: 257.1895446777344
z: 0.0010334048420190811
","x: 354.5200500488281
y: 255.55604553222656
z: -0.00011064435238949955
","x: 356.7456970214844
y: 254.59898376464844
z: -0.001436192775145173
","x: 358.7630615234375
y: 253.94691467285156
z: -0.002258369466289878
","x: 350.780517578125
y: 261.8016357421875
z: -0.000936435884796083
","x: 353.69403076171875
y: 261.1037902832031
z: -0.002046035137027502
","x: 355.4866943359375
y: 260.33599853515625
z: -0.0029112137854099274
","x: 357.09161376953125
y: 259.8433837890625
z: -0.003393885912373662
"
18,"x: 296.9702453613281
y: 168.65289306640625
z: -0.29479727149009705
visibility: 0.999951183795929
","x: 297.1782531738281
y: 162.7963409423828
z: -0.2744707465171814
visibility: 0.9998535513877869
","x: 297.3747253417969
y: 163.44174194335938
z: -0.2744753360748291
visibility: 0.999848484992981
","x: 297.5054931640625
y: 164.13392639160156
z: -0.2745147943496704
visibility: 0.9998442530632019
","x: 295.21514892578125
y: 161.05145263671875
z: -0.2948063910007477
visibility: 0.999858021736145
","x: 293.9178466796875
y: 160.3833770751953
z: -0.29485252499580383
visibility: 0.9998490214347839
","x: 292.34552001953125
y: 159.5768585205078
z: -0.2948523461818695
visibility: 0.9998107552528381
","x: 292.8831787109375
y: 167.4781951904297
z: -0.14693468809127808
visibility: 0.9996911287307739
","x: 284.58685302734375
y: 160.72402954101562
z: -0.250099778175354
visibility: 0.9997202157974243
","x: 295.03466796875
y: 177.32537841796875
z: -0.2454228699207306
visibility: 0.9998985528945923
","x: 292.835693359375
y: 174.86685180664062
z: -0.2742421627044678
visibility: 0.9998887181282043
","x: 293.7059326171875
y: 223.03778076171875
z: -0.05131649225950241
visibility: 0.9999764561653137
","x: 248.85435485839844
y: 191.4547119140625
z: -0.20428021252155304
visibility: 0.9999276399612427
","x: 308.40277099609375
y: 272.5565185546875
z: -0.040557172149419785
visibility: 0.9888803362846375
","x: 218.3842010498047
y: 202.732421875
z: -0.31011053919792175
visibility: 0.997545599937439
","x: 338.6799621582031
y: 257.0404357910156
z: -0.18623021245002747
visibility: 0.995823323726654
","x: 198.9060516357422
y: 225.8028564453125
z: -0.4183078706264496
visibility: 0.9972025752067566
","x: 348.3367614746094
y: 255.95458984375
z: -0.21126994490623474
visibility: 0.9875010251998901
","x: 192.62432861328125
y: 239.88973999023438
z: -0.45359882712364197
visibility: 0.9924542307853699
","x: 349.06317138671875
y: 251.8762969970703
z: -0.23933836817741394
visibility: 0.9896808862686157
","x: 196.4250946044922
y: 244.29994201660156
z: -0.47316890954971313
visibility: 0.9931063055992126
","x: 346.02740478515625
y: 252.21490478515625
z: -0.2040514200925827
visibility: 0.9881495237350464
","x: 199.27560424804688
y: 241.28054809570312
z: -0.43133097887039185
visibility: 0.9907630681991577
","x: 275.3311462402344
y: 329.8465576171875
z: 0.038336608558893204
visibility: 0.9996998310089111
","x: 249.11024475097656
y: 327.2193908691406
z: -0.03828634321689606
visibility: 0.9997398257255554
","x: 278.9942932128906
y: 411.2939453125
z: 0.07796816527843475
visibility: 0.976650595664978
","x: 239.98452758789062
y: 413.2345275878906
z: -0.0668911337852478
visibility: 0.9949027299880981
","x: 278.0122985839844
y: 497.6038818359375
z: 0.23448653519153595
visibility: 0.9851346611976624
","x: 237.52182006835938
y: 495.6715393066406
z: 0.08836832642555237
visibility: 0.9939355850219727
","x: 272.0552062988281
y: 511.64190673828125
z: 0.24300162494182587
visibility: 0.9491590857505798
","x: 241.02316284179688
y: 505.6142883300781
z: 0.09517497569322586
visibility: 0.9490774273872375
","x: 292.24456787109375
y: 519.181396484375
z: 0.1308213174343109
visibility: 0.9868460297584534
","x: 234.32382202148438
y: 526.0992431640625
z: -0.038614772260189056
visibility: 0.991885781288147
",,,,,,,,,,,,,,,,,,,,,,"x: 340.8016052246094
y: 262.082275390625
z: 0.0
","x: 342.6700744628906
y: 254.04135131835938
z: -0.002106649801135063
","x: 345.97509765625
y: 248.0896759033203
z: -0.0028794179670512676
","x: 350.1103210449219
y: 246.8427276611328
z: -0.0039752149023115635
","x: 353.5421142578125
y: 249.61785888671875
z: -0.004876643419265747
","x: 349.542724609375
y: 249.34800720214844
z: 0.0031385766342282295
","x: 352.91845703125
y: 246.5911102294922
z: 0.0020262759644538164
","x: 355.084716796875
y: 245.402099609375
z: 0.0008260002941824496
","x: 357.12054443359375
y: 244.53382873535156
z: -3.630674473242834e-05
","x: 350.6799621582031
y: 253.13369750976562
z: 0.002529151737689972
","x: 354.09967041015625
y: 250.71591186523438
z: 0.0020286499056965113
","x: 356.155029296875
y: 249.5596160888672
z: 0.0008879599045030773
","x: 358.2353210449219
y: 248.5003662109375
z: -9.110265091294423e-05
","x: 350.93670654296875
y: 257.1895446777344
z: 0.0010334048420190811
","x: 354.5200500488281
y: 255.55604553222656
z: -0.00011064435238949955
","x: 356.7456970214844
y: 254.59898376464844
z: -0.001436192775145173
","x: 358.7630615234375
y: 253.94691467285156
z: -0.002258369466289878
","x: 350.780517578125
y: 261.8016357421875
z: -0.000936435884796083
","x: 353.69403076171875
y: 261.1037902832031
z: -0.002046035137027502
","x: 355.4866943359375
y: 260.33599853515625
z: -0.0029112137854099274
","x: 357.09161376953125
y: 259.8433837890625
z: -0.003393885912373662
"
19,"x: 291.25555419921875
y: 168.09042358398438
z: -0.27302223443984985
visibility: 0.9999446272850037
","x: 291.75115966796875
y: 161.78262329101562
z: -0.25259238481521606
visibility: 0.9998214244842529
","x: 292.22113037109375
y: 162.3222198486328
z: -0.2526453137397766
visibility: 0.9998107552528381
","x: 292.6697082519531
y: 162.95213317871094
z: -0.2527124583721161
visibility: 0.9998048543930054
","x: 289.2456970214844
y: 160.08837890625
z: -0.2687304615974426
visibility: 0.9998318552970886
","x: 287.8489685058594
y: 159.3641357421875
z: -0.2687618136405945
visibility: 0.999808132648468
","x: 286.299072265625
y: 158.63504028320312
z: -0.2687736749649048
visibility: 0.999765932559967
","x: 289.2288818359375
y: 166.42434692382812
z: -0.13048523664474487
visibility: 0.9996493458747864
","x: 279.8149108886719
y: 159.9607696533203
z: -0.1879357397556305
visibility: 0.9996897578239441
","x: 290.00799560546875
y: 175.74195861816406
z: -0.22645461559295654
visibility: 0.9998800158500671
","x: 287.2359619140625
y: 173.863525390625
z: -0.2505949139595032
visibility: 0.9998802542686462
","x: 292.81378173828125
y: 220.92684936523438
z: -0.0634765774011612
visibility: 0.9999706745147705
","x: 247.5244903564453
y: 190.68785095214844
z: -0.10810129344463348
visibility: 0.9999287128448486
","x: 306.2463073730469
y: 273.3084716796875
z: -0.07960238307714462
visibility: 0.9886165261268616
","x: 216.83335876464844
y: 190.08828735351562
z: -0.14575247466564178
visibility: 0.9973288178443909
","x: 333.7283935546875
y: 267.443115234375
z: -0.2511765658855438
visibility: 0.9957288503646851
","x: 189.88990783691406
y: 189.482666015625
z: -0.2821359634399414
visibility: 0.9968219995498657
","x: 344.5718078613281
y: 268.1182556152344
z: -0.28319257497787476
visibility: 0.9874148368835449
","x: 183.06036376953125
y: 198.27484130859375
z: -0.3125849962234497
visibility: 0.9911918044090271
","x: 345.3000183105469
y: 261.90753173828125
z: -0.3163944184780121
visibility: 0.9896051287651062
","x: 184.25779724121094
y: 199.26058959960938
z: -0.3436133563518524
visibility: 0.9921326637268066
","x: 341.94586181640625
y: 261.10986328125
z: -0.2713940143585205
visibility: 0.9879986643791199
","x: 186.84686279296875
y: 196.6006317138672
z: -0.3017047047615051
visibility: 0.9899823665618896
","x: 276.0141906738281
y: 329.5640563964844
z: 0.015791691839694977
visibility: 0.999586820602417
","x: 248.7667694091797
y: 327.2275085449219
z: -0.015713460743427277
visibility: 0.9997228384017944
","x: 280.74072265625
y: 409.74725341796875
z: 0.028547504916787148
visibility: 0.9786911606788635
","x: 239.32647705078125
y: 411.7291564941406
z: -0.07081429660320282
visibility: 0.9951708316802979
","x: 278.9844665527344
y: 497.4299621582031
z: 0.18114213645458221
visibility: 0.9861387014389038
","x: 243.4860382080078
y: 496.08782958984375
z: 0.08806581050157547
visibility: 0.9942524433135986
","x: 271.9145202636719
y: 511.5208435058594
z: 0.18902210891246796
visibility: 0.9503486156463623
","x: 251.30413818359375
y: 506.2812805175781
z: 0.09548558294773102
visibility: 0.9506180286407471
","x: 291.80828857421875
y: 518.8817749023438
z: 0.07164275646209717
visibility: 0.9874346256256104
","x: 233.61749267578125
y: 525.3924560546875
z: -0.03123232163488865
visibility: 0.9921529293060303
",,,,,,,,,,,,,,,,,,,,,,,,,,,,,,,,,,,,,,,,,,
20,"x: 292.0420837402344
y: 161.59548950195312
z: -0.3039317727088928
visibility: 0.9999480247497559
","x: 292.2593688964844
y: 157.22459411621094
z: -0.28590959310531616
visibility: 0.9998359084129333
","x: 292.7486267089844
y: 158.20529174804688
z: -0.28597623109817505
visibility: 0.9998260140419006
","x: 293.1585693359375
y: 159.27346801757812
z: -0.28607645630836487
visibility: 0.9998204708099365
","x: 289.30340576171875
y: 154.8985137939453
z: -0.29366734623908997
visibility: 0.9998444318771362
","x: 287.63787841796875
y: 154.1890106201172
z: -0.2936769425868988
