uscmakers/ReverseChoreography/data/2_lite_spots_kaytranada.csv
,NOSE,LEFT_EYE_INNER,LEFT_EYE,LEFT_EYE_OUTER,RIGHT_EYE_INNER,RIGHT_EYE,RIGHT_EYE_OUTER,LEFT_EAR,RIGHT_EAR,MOUTH_LEFT,MOUTH_RIGHT,LEFT_SHOULDER,RIGHT_SHOULDER,LEFT_ELBOW,RIGHT_ELBOW,LEFT_WRIST,RIGHT_WRIST,LEFT_PINKY,RIGHT_PINKY,LEFT_INDEX,RIGHT_INDEX,LEFT_THUMB,RIGHT_THUMB,LEFT_HIP,RIGHT_HIP,LEFT_KNEE,RIGHT_KNEE,LEFT_ANKLE,RIGHT_ANKLE,LEFT_HEEL,RIGHT_HEEL,LEFT_FOOT_INDEX,RIGHT_FOOT_INDEX,WRIST,THUMB_CPC,THUMB_MCP,THUMB_IP,THUMB_TIP,INDEX_FINGER_MCP,INDEX_FINGER_PIP,INDEX_FINGER_DIP,INDEX_FINGER_TIP,MIDDLE_FINGER_MCP,MIDDLE_FINGER_PIP,MIDDLE_FINGER_DIP,MIDDLE_FINGER_TIP,RING_FINGER_PIP,RING_FINGER_DIP,RING_FINGER_TIP,RING_FINGER_MCP,PINKY_MCP,PINKY_PIP,PINKY_DIP,PINKY_TIP,WRIST2,THUMB_CPC2,THUMB_MCP2,THUMB_IP2,THUMB_TIP2,INDEX_FINGER_MCP2,INDEX_FINGER_PIP2,INDEX_FINGER_DIP2,INDEX_FINGER_TIP2,MIDDLE_FINGER_MCP2,MIDDLE_FINGER_PIP2,MIDDLE_FINGER_DIP2,MIDDLE_FINGER_TIP2,RING_FINGER_PIP2,RING_FINGER_DIP2,RING_FINGER_TIP2,RING_FINGER_MCP2,PINKY_MCP2,PINKY_PIP2,PINKY_DIP2,PINKY_TIP2
0,"x: 205.07998657226562
y: 164.5274658203125
z: -0.2601967751979828
visibility: 0.9999935626983643
","x: 209.17056274414062
y: 155.98040771484375
z: -0.24338729679584503
visibility: 0.9999827146530151
","x: 211.56349182128906
y: 156.00144958496094
z: -0.2434908151626587
visibility: 0.9999818801879883
","x: 213.43560791015625
y: 156.26144409179688
z: -0.2435280829668045
visibility: 0.9999821186065674
","x: 202.88365173339844
y: 156.16476440429688
z: -0.2348347008228302
visibility: 0.9999686479568481
","x: 201.09722900390625
y: 156.2635955810547
z: -0.23480136692523956
visibility: 0.9999532699584961
","x: 199.63330078125
y: 156.45516967773438
z: -0.23484671115875244
visibility: 0.999946117401123
","x: 217.44168090820312
y: 160.88949584960938
z: -0.13442891836166382
visibility: 0.9999626874923706
","x: 198.59027099609375
y: 161.2222900390625
z: -0.09713257104158401
visibility: 0.9999250173568726
","x: 209.70703125
y: 173.8014373779297
z: -0.21911904215812683
visibility: 0.9999940395355225
","x: 202.0843048095703
y: 173.3064422607422
z: -0.20862741768360138
visibility: 0.9999884366989136
","x: 234.17999267578125
y: 211.0931396484375
z: -0.10015016794204712
visibility: 0.9999818801879883
","x: 188.78102111816406
y: 214.91845703125
z: 0.013995615765452385
visibility: 0.9999384880065918
","x: 234.1611328125
y: 283.2009582519531
z: -0.23161712288856506
visibility: 0.9857345819473267
","x: 191.2234649658203
y: 271.67584228515625
z: 0.07005876302719116
visibility: 0.8099307417869568
","x: 225.87213134765625
y: 231.15213012695312
z: -0.4875088632106781
visibility: 0.9969953298568726
","x: 182.72219848632812
y: 286.4075012207031
z: -0.07179614901542664
visibility: 0.9647770524024963
","x: 223.9613037109375
y: 218.31175231933594
z: -0.5411857962608337
visibility: 0.995173990726471
","x: 178.68270874023438
y: 291.8521728515625
z: -0.09824391454458237
visibility: 0.9575831294059753
","x: 224.59518432617188
y: 211.7213592529297
z: -0.543692409992218
visibility: 0.9952706694602966
","x: 176.9093780517578
y: 286.97833251953125
z: -0.13143469393253326
visibility: 0.9615165591239929
","x: 224.72445678710938
y: 215.05491638183594
z: -0.4936468005180359
visibility: 0.9912471175193787
","x: 178.87274169921875
y: 285.3339538574219
z: -0.08913106471300125
visibility: 0.9546693563461304
","x: 232.4358367919922
y: 335.91644287109375
z: -0.028827954083681107
visibility: 0.9999464750289917
","x: 206.67489624023438
y: 337.67352294921875
z: 0.028693336993455887
visibility: 0.9998816251754761
","x: 233.27279663085938
y: 433.5738525390625
z: -0.06008497625589371
visibility: 0.9719102382659912
","x: 217.9527587890625
y: 430.0160217285156
z: 0.005036551970988512
visibility: 0.9713630676269531
","x: 227.33990478515625
y: 508.44781494140625
z: 0.1732882708311081
visibility: 0.9614471197128296
","x: 233.20437622070312
y: 478.811279296875
z: 0.36575666069984436
visibility: 0.8334829807281494
","x: 224.35069274902344
y: 518.4668579101562
z: 0.19182078540325165
visibility: 0.7219000458717346
","x: 237.10496520996094
y: 478.8555603027344
z: 0.39892539381980896
visibility: 0.6336833238601685
","x: 228.46051025390625
y: 542.156005859375
z: 0.06962236762046814
visibility: 0.9564900398254395
","x: 232.1099395751953
y: 518.6263427734375
z: 0.32101479172706604
visibility: 0.8677170872688293
",,,,,,,,,,,,,,,,,,,,,,,,,,,,,,,,,,,,,,,,,,
1,"x: 214.10626220703125
y: 157.04888916015625
z: -0.28729021549224854
visibility: 0.9999879002571106
","x: 216.73883056640625
y: 147.62747192382812
z: -0.2671903967857361
visibility: 0.9999655485153198
","x: 218.3648681640625
y: 147.86370849609375
z: -0.26725244522094727
visibility: 0.9999632835388184
","x: 219.79159545898438
y: 148.258544921875
z: -0.2672773599624634
visibility: 0.9999592304229736
","x: 211.94351196289062
y: 146.62167358398438
z: -0.2726195454597473
visibility: 0.9999507665634155
","x: 210.054931640625
y: 146.14791870117188
z: -0.27266913652420044
visibility: 0.9999365210533142
","x: 208.3992462158203
y: 145.68276977539062
z: -0.27274900674819946
visibility: 0.9999349117279053
","x: 221.23049926757812
y: 152.61489868164062
z: -0.13641420006752014
visibility: 0.9998915791511536
","x: 204.4866180419922
y: 148.7974395751953
z: -0.16333308815956116
visibility: 0.9999058842658997
","x: 215.9663543701172
y: 166.17800903320312
z: -0.2355351448059082
visibility: 0.9999838471412659
","x: 210.524169921875
y: 164.33993530273438
z: -0.2441100776195526
visibility: 0.9999856948852539
","x: 233.58447265625
y: 201.25250244140625
z: -0.0682835653424263
visibility: 0.9999675154685974
","x: 186.9822998046875
y: 192.82022094726562
z: -0.062236882746219635
visibility: 0.999940812587738
","x: 233.69949340820312
y: 269.1980285644531
z: -0.18663325905799866
visibility: 0.9833083152770996
","x: 180.17108154296875
y: 263.4539489746094
z: -0.13669706881046295
visibility: 0.82673180103302
","x: 230.90731811523438
y: 221.20465087890625
z: -0.45193877816200256
visibility: 0.9958591461181641
","x: 182.90350341796875
y: 239.0753173828125
z: -0.3738979697227478
visibility: 0.9672682285308838
","x: 231.95599365234375
y: 207.88902282714844
z: -0.49986281991004944
visibility: 0.9930152297019958
","x: 185.44419860839844
y: 234.43569946289062
z: -0.42123621702194214
visibility: 0.9596011638641357
","x: 231.90936279296875
y: 201.35894775390625
z: -0.49898093938827515
visibility: 0.9929714798927307
","x: 185.91635131835938
y: 225.9335479736328
z: -0.4231489300727844
visibility: 0.9631462693214417
","x: 231.10989379882812
y: 205.24232482910156
z: -0.4572627544403076
visibility: 0.987602174282074
","x: 185.71115112304688
y: 226.571044921875
z: -0.3784692585468292
visibility: 0.9556637406349182
","x: 224.63397216796875
y: 315.597900390625
z: 0.0009188627591356635
visibility: 0.9998038411140442
","x: 197.38339233398438
y: 314.011474609375
z: -0.0010143064428120852
visibility: 0.999866783618927
","x: 220.49415588378906
y: 409.84375
z: -0.025234421715140343
visibility: 0.967729389667511
","x: 204.8663330078125
y: 383.7654113769531
z: -0.3156202435493469
visibility: 0.9724728465080261
","x: 220.82664489746094
y: 494.4586486816406
z: 0.25531482696533203
visibility: 0.9531878232955933
","x: 214.6982879638672
y: 486.1924743652344
z: -0.16961365938186646
visibility: 0.8478812575340271
","x: 219.8194580078125
y: 504.3222351074219
z: 0.2767046093940735
visibility: 0.6929473280906677
","x: 215.33766174316406
y: 495.00469970703125
z: -0.16104063391685486
visibility: 0.6555248498916626
","x: 222.37347412109375
y: 527.7652587890625
z: 0.14156761765480042
visibility: 0.9490213394165039
","x: 219.2708282470703
y: 520.5590209960938
z: -0.3385438323020935
visibility: 0.8789106607437134
","x: 180.00965881347656
y: 228.68045043945312
z: 0.0
","x: 182.65463256835938
y: 221.53558349609375
z: 0.00034245080314576626
","x: 187.3539581298828
y: 217.07608032226562
z: -0.0022870791144669056
","x: 191.9541778564453
y: 217.05221557617188
z: -0.005263390019536018
","x: 194.89161682128906
y: 217.9435577392578
z: -0.008050454780459404
","x: 185.99208068847656
y: 213.4505615234375
z: -0.007372360676527023
","x: 191.89511108398438
y: 214.17572021484375
z: -0.011486374773085117
","x: 195.37765502929688
y: 215.5752410888672
z: -0.013170539401471615
","x: 197.85748291015625
y: 217.04498291015625
z: -0.014084411785006523
","x: 185.2661895751953
y: 218.71954345703125
z: -0.010413344949483871
","x: 192.73486328125
y: 220.5382080078125
z: -0.01506964024156332
","x: 193.76919555664062
y: 222.11126708984375
z: -0.01489965058863163
","x: 193.43319702148438
y: 222.89537048339844
z: -0.014434543438255787
","x: 184.8272705078125
y: 224.8788604736328
z: -0.01310293935239315
","x: 191.92694091796875
y: 226.33348083496094
z: -0.01610877923667431
","x: 191.60183715820312
y: 227.07232666015625
z: -0.01318624522536993
","x: 190.12908935546875
y: 227.02651977539062
z: -0.011242413893342018
","x: 184.5035858154297
y: 231.1027374267578
z: -0.0158949363976717
","x: 190.27090454101562
y: 231.60507202148438
z: -0.017683057114481926
","x: 190.1605224609375
y: 231.64671325683594
z: -0.01542290672659874
","x: 188.82237243652344
y: 231.3152313232422
z: -0.013699677772819996
","x: 230.16098022460938
y: 212.32215881347656
z: 0.0
","x: 228.731689453125
y: 202.2516632080078
z: 0.0032215893734246492
","x: 230.15267944335938
y: 194.82281494140625
z: 0.002764846198260784
","x: 231.28990173339844
y: 189.71234130859375
z: 0.0010376120917499065
","x: 232.18984985351562
y: 185.64727783203125
z: -0.00015154658467508852
","x: 237.42800903320312
y: 193.0762939453125
z: 0.0006821348215453327
","x: 235.1254425048828
y: 184.73788452148438
z: -0.0016799666918814182
","x: 231.62176513671875
y: 185.64816284179688
z: -0.0018172120908275247
","x: 229.7576141357422
y: 188.14195251464844
z: -0.00151740456931293
","x: 237.85360717773438
y: 195.14874267578125
z: -0.0030819906387478113
","x: 234.62013244628906
y: 185.92333984375
z: -0.005240294151008129
","x: 231.10154724121094
y: 187.75010681152344
z: -0.004240324720740318
","x: 229.6503143310547
y: 190.99017333984375
z: -0.0032225653994828463
","x: 237.43450927734375
y: 197.63084411621094
z: -0.006909409072250128
","x: 233.99636840820312
y: 189.00648498535156
z: -0.008385011926293373
","x: 230.92298889160156
y: 191.2900390625
z: -0.006130952853709459
","x: 229.78671264648438
y: 194.53834533691406
z: -0.004497532732784748
","x: 236.20248413085938
y: 200.20028686523438
z: -0.010717333294451237
","x: 233.4050750732422
y: 193.33921813964844
z: -0.01097223348915577
","x: 231.01788330078125
y: 194.4381866455078
z: -0.009007942862808704
","x: 229.9610595703125
y: 196.98468017578125
z: -0.007510556373745203
"
2,"x: 214.10626220703125
y: 157.04888916015625
z: -0.28729021549224854
visibility: 0.9999879002571106
","x: 216.73883056640625
y: 147.62747192382812
z: -0.2671903967857361
visibility: 0.9999655485153198
","x: 218.3648681640625
y: 147.86370849609375
z: -0.26725244522094727
visibility: 0.9999632835388184
","x: 219.79159545898438
y: 148.258544921875
z: -0.2672773599624634
visibility: 0.9999592304229736
","x: 211.94351196289062
y: 146.62167358398438
z: -0.2726195454597473
visibility: 0.9999507665634155
","x: 210.054931640625
y: 146.14791870117188
z: -0.27266913652420044
visibility: 0.9999365210533142
","x: 208.3992462158203
y: 145.68276977539062
z: -0.27274900674819946
visibility: 0.9999349117279053
","x: 221.23049926757812
y: 152.61489868164062
z: -0.13641420006752014
visibility: 0.9998915791511536
","x: 204.4866180419922
y: 148.7974395751953
z: -0.16333308815956116
visibility: 0.9999058842658997
","x: 215.9663543701172
y: 166.17800903320312
z: -0.2355351448059082
visibility: 0.9999838471412659
","x: 210.524169921875
y: 164.33993530273438
z: -0.2441100776195526
visibility: 0.9999856948852539
","x: 233.58447265625
y: 201.25250244140625
z: -0.0682835653424263
visibility: 0.9999675154685974
","x: 186.9822998046875
y: 192.82022094726562
z: -0.062236882746219635
visibility: 0.999940812587738
","x: 233.69949340820312
y: 269.1980285644531
z: -0.18663325905799866
visibility: 0.9833083152770996
","x: 180.17108154296875
y: 263.4539489746094
z: -0.13669706881046295
visibility: 0.82673180103302
","x: 230.90731811523438
y: 221.20465087890625
z: -0.45193877816200256
visibility: 0.9958591461181641
","x: 182.90350341796875
y: 239.0753173828125
z: -0.3738979697227478
visibility: 0.9672682285308838
","x: 231.95599365234375
y: 207.88902282714844
z: -0.49986281991004944
visibility: 0.9930152297019958
","x: 185.44419860839844
y: 234.43569946289062
z: -0.42123621702194214
visibility: 0.9596011638641357
","x: 231.90936279296875
y: 201.35894775390625
z: -0.49898093938827515
visibility: 0.9929714798927307
","x: 185.91635131835938
y: 225.9335479736328
z: -0.4231489300727844
visibility: 0.9631462693214417
","x: 231.10989379882812
y: 205.24232482910156
z: -0.4572627544403076
visibility: 0.987602174282074
","x: 185.71115112304688
y: 226.571044921875
z: -0.3784692585468292
visibility: 0.9556637406349182
","x: 224.63397216796875
y: 315.597900390625
z: 0.0009188627591356635
visibility: 0.9998038411140442
","x: 197.38339233398438
y: 314.011474609375
z: -0.0010143064428120852
visibility: 0.999866783618927
","x: 220.49415588378906
y: 409.84375
z: -0.025234421715140343
visibility: 0.967729389667511
","x: 204.8663330078125
y: 383.7654113769531
z: -0.3156202435493469
visibility: 0.9724728465080261
","x: 220.82664489746094
y: 494.4586486816406
z: 0.25531482696533203
visibility: 0.9531878232955933
","x: 214.6982879638672
y: 486.1924743652344
z: -0.16961365938186646
visibility: 0.8478812575340271
","x: 219.8194580078125
y: 504.3222351074219
z: 0.2767046093940735
visibility: 0.6929473280906677
","x: 215.33766174316406
y: 495.00469970703125
z: -0.16104063391685486
visibility: 0.6555248498916626
","x: 222.37347412109375
y: 527.7652587890625
z: 0.14156761765480042
visibility: 0.9490213394165039
","x: 219.2708282470703
y: 520.5590209960938
z: -0.3385438323020935
visibility: 0.8789106607437134
","x: 180.00965881347656
y: 228.68045043945312
z: 0.0
","x: 182.65463256835938
y: 221.53558349609375
z: 0.00034245080314576626
","x: 187.3539581298828
y: 217.07608032226562
z: -0.0022870791144669056
","x: 191.9541778564453
y: 217.05221557617188
z: -0.005263390019536018
","x: 194.89161682128906
y: 217.9435577392578
z: -0.008050454780459404
","x: 185.99208068847656
y: 213.4505615234375
z: -0.007372360676527023
","x: 191.89511108398438
y: 214.17572021484375
z: -0.011486374773085117
","x: 195.37765502929688
y: 215.5752410888672
z: -0.013170539401471615
","x: 197.85748291015625
y: 217.04498291015625
z: -0.014084411785006523
","x: 185.2661895751953
y: 218.71954345703125
z: -0.010413344949483871
","x: 192.73486328125
y: 220.5382080078125
z: -0.01506964024156332
","x: 193.76919555664062
y: 222.11126708984375
z: -0.01489965058863163
","x: 193.43319702148438
y: 222.89537048339844
z: -0.014434543438255787
","x: 184.8272705078125
y: 224.8788604736328
z: -0.01310293935239315
","x: 191.92694091796875
y: 226.33348083496094
z: -0.01610877923667431
","x: 191.60183715820312
y: 227.07232666015625
z: -0.01318624522536993
","x: 190.12908935546875
y: 227.02651977539062
z: -0.011242413893342018
","x: 184.5035858154297
y: 231.1027374267578
z: -0.0158949363976717
","x: 190.27090454101562
y: 231.60507202148438
z: -0.017683057114481926
","x: 190.1605224609375
y: 231.64671325683594
z: -0.01542290672659874
","x: 188.82237243652344
y: 231.3152313232422
z: -0.013699677772819996
","x: 230.16098022460938
y: 212.32215881347656
z: 0.0
","x: 228.731689453125
y: 202.2516632080078
z: 0.0032215893734246492
","x: 230.15267944335938
y: 194.82281494140625
z: 0.002764846198260784
","x: 231.28990173339844
y: 189.71234130859375
z: 0.0010376120917499065
","x: 232.18984985351562
y: 185.64727783203125
z: -0.00015154658467508852
","x: 237.42800903320312
y: 193.0762939453125
z: 0.0006821348215453327
","x: 235.1254425048828
y: 184.73788452148438
z: -0.0016799666918814182
","x: 231.62176513671875
y: 185.64816284179688
z: -0.0018172120908275247
","x: 229.7576141357422
y: 188.14195251464844
z: -0.00151740456931293
","x: 237.85360717773438
y: 195.14874267578125
z: -0.0030819906387478113
","x: 234.62013244628906
y: 185.92333984375
z: -0.005240294151008129
","x: 231.10154724121094
y: 187.75010681152344
z: -0.004240324720740318
","x: 229.6503143310547
y: 190.99017333984375
z: -0.0032225653994828463
","x: 237.43450927734375
y: 197.63084411621094
z: -0.006909409072250128
","x: 233.99636840820312
y: 189.00648498535156
z: -0.008385011926293373
","x: 230.92298889160156
y: 191.2900390625
z: -0.006130952853709459
","x: 229.78671264648438
y: 194.53834533691406
z: -0.004497532732784748
","x: 236.20248413085938
y: 200.20028686523438
z: -0.010717333294451237
","x: 233.4050750732422
y: 193.33921813964844
z: -0.01097223348915577
","x: 231.01788330078125
y: 194.4381866455078
z: -0.009007942862808704
","x: 229.9610595703125
y: 196.98468017578125
z: -0.007510556373745203
"
3,"x: 214.10626220703125
y: 157.04888916015625
z: -0.28729021549224854
visibility: 0.9999879002571106
","x: 216.73883056640625
y: 147.62747192382812
z: -0.2671903967857361
visibility: 0.9999655485153198
","x: 218.3648681640625
y: 147.86370849609375
z: -0.26725244522094727
visibility: 0.9999632835388184
","x: 219.79159545898438
y: 148.258544921875
z: -0.2672773599624634
visibility: 0.9999592304229736
","x: 211.94351196289062
y: 146.62167358398438
z: -0.2726195454597473
visibility: 0.9999507665634155
","x: 210.054931640625
y: 146.14791870117188
z: -0.27266913652420044
visibility: 0.9999365210533142
","x: 208.3992462158203
y: 145.68276977539062
z: -0.27274900674819946
visibility: 0.9999349117279053
","x: 221.23049926757812
y: 152.61489868164062
z: -0.13641420006752014
visibility: 0.9998915791511536
","x: 204.4866180419922
y: 148.7974395751953
z: -0.16333308815956116
visibility: 0.9999058842658997
","x: 215.9663543701172
y: 166.17800903320312
z: -0.2355351448059082
visibility: 0.9999838471412659
","x: 210.524169921875
y: 164.33993530273438
z: -0.2441100776195526
visibility: 0.9999856948852539
","x: 233.58447265625
y: 201.25250244140625
z: -0.0682835653424263
visibility: 0.9999675154685974
","x: 186.9822998046875
y: 192.82022094726562
z: -0.062236882746219635
visibility: 0.999940812587738
","x: 233.69949340820312
y: 269.1980285644531
z: -0.18663325905799866
visibility: 0.9833083152770996
","x: 180.17108154296875
y: 263.4539489746094
z: -0.13669706881046295
visibility: 0.82673180103302
","x: 230.90731811523438
y: 221.20465087890625
z: -0.45193877816200256
visibility: 0.9958591461181641
","x: 182.90350341796875
y: 239.0753173828125
z: -0.3738979697227478
visibility: 0.9672682285308838
","x: 231.95599365234375
y: 207.88902282714844
z: -0.49986281991004944
visibility: 0.9930152297019958
","x: 185.44419860839844
y: 234.43569946289062
z: -0.42123621702194214
visibility: 0.9596011638641357
","x: 231.90936279296875
y: 201.35894775390625
z: -0.49898093938827515
visibility: 0.9929714798927307
","x: 185.91635131835938
y: 225.9335479736328
z: -0.4231489300727844
visibility: 0.9631462693214417
","x: 231.10989379882812
y: 205.24232482910156
z: -0.4572627544403076
visibility: 0.987602174282074
","x: 185.71115112304688
y: 226.571044921875
z: -0.3784692585468292
visibility: 0.9556637406349182
","x: 224.63397216796875
y: 315.597900390625
z: 0.0009188627591356635
visibility: 0.9998038411140442
","x: 197.38339233398438
y: 314.011474609375
z: -0.0010143064428120852
visibility: 0.999866783618927
","x: 220.49415588378906
y: 409.84375
z: -0.025234421715140343
visibility: 0.967729389667511
","x: 204.8663330078125
y: 383.7654113769531
z: -0.3156202435493469
visibility: 0.9724728465080261
","x: 220.82664489746094
y: 494.4586486816406
z: 0.25531482696533203
visibility: 0.9531878232955933
","x: 214.6982879638672
y: 486.1924743652344
z: -0.16961365938186646
visibility: 0.8478812575340271
","x: 219.8194580078125
y: 504.3222351074219
z: 0.2767046093940735
visibility: 0.6929473280906677
","x: 215.33766174316406
y: 495.00469970703125
z: -0.16104063391685486
visibility: 0.6555248498916626
","x: 222.37347412109375
y: 527.7652587890625
z: 0.14156761765480042
visibility: 0.9490213394165039
","x: 219.2708282470703
y: 520.5590209960938
z: -0.3385438323020935
visibility: 0.8789106607437134
","x: 180.00965881347656
y: 228.68045043945312
z: 0.0
","x: 182.65463256835938
y: 221.53558349609375
z: 0.00034245080314576626
","x: 187.3539581298828
y: 217.07608032226562
z: -0.0022870791144669056
","x: 191.9541778564453
y: 217.05221557617188
z: -0.005263390019536018
","x: 194.89161682128906
y: 217.9435577392578
z: -0.008050454780459404
","x: 185.99208068847656
y: 213.4505615234375
z: -0.007372360676527023
","x: 191.89511108398438
y: 214.17572021484375
z: -0.011486374773085117
","x: 195.37765502929688
y: 215.5752410888672
z: -0.013170539401471615
","x: 197.85748291015625
y: 217.04498291015625
z: -0.014084411785006523
","x: 185.2661895751953
y: 218.71954345703125
z: -0.010413344949483871
","x: 192.73486328125
y: 220.5382080078125
z: -0.01506964024156332
","x: 193.76919555664062
y: 222.11126708984375
z: -0.01489965058863163
","x: 193.43319702148438
y: 222.89537048339844
z: -0.014434543438255787
","x: 184.8272705078125
y: 224.8788604736328
z: -0.01310293935239315
","x: 191.92694091796875
y: 226.33348083496094
z: -0.01610877923667431
","x: 191.60183715820312
y: 227.07232666015625
z: -0.01318624522536993
","x: 190.12908935546875
y: 227.02651977539062
z: -0.011242413893342018
","x: 184.5035858154297
y: 231.1027374267578
z: -0.0158949363976717
","x: 190.27090454101562
y: 231.60507202148438
z: -0.017683057114481926
","x: 190.1605224609375
y: 231.64671325683594
z: -0.01542290672659874
","x: 188.82237243652344
y: 231.3152313232422
z: -0.013699677772819996
","x: 230.16098022460938
y: 212.32215881347656
z: 0.0
","x: 228.731689453125
y: 202.2516632080078
z: 0.0032215893734246492
","x: 230.15267944335938
y: 194.82281494140625
z: 0.002764846198260784
","x: 231.28990173339844
y: 189.71234130859375
z: 0.0010376120917499065
","x: 232.18984985351562
y: 185.64727783203125
z: -0.00015154658467508852
","x: 237.42800903320312
y: 193.0762939453125
z: 0.0006821348215453327
","x: 235.1254425048828
y: 184.73788452148438
z: -0.0016799666918814182
","x: 231.62176513671875
y: 185.64816284179688
z: -0.0018172120908275247
","x: 229.7576141357422
y: 188.14195251464844
z: -0.00151740456931293
","x: 237.85360717773438
y: 195.14874267578125
z: -0.0030819906387478113
","x: 234.62013244628906
y: 185.92333984375
z: -0.005240294151008129
","x: 231.10154724121094
y: 187.75010681152344
z: -0.004240324720740318
","x: 229.6503143310547
y: 190.99017333984375
z: -0.0032225653994828463
","x: 237.43450927734375
y: 197.63084411621094
z: -0.006909409072250128
","x: 233.99636840820312
y: 189.00648498535156
z: -0.008385011926293373
","x: 230.92298889160156
y: 191.2900390625
z: -0.006130952853709459
","x: 229.78671264648438
y: 194.53834533691406
z: -0.004497532732784748
","x: 236.20248413085938
y: 200.20028686523438
z: -0.010717333294451237
","x: 233.4050750732422
y: 193.33921813964844
z: -0.01097223348915577
","x: 231.01788330078125
y: 194.4381866455078
z: -0.009007942862808704
","x: 229.9610595703125
y: 196.98468017578125
z: -0.007510556373745203
"
4,"x: 213.50613403320312
y: 157.86581420898438
z: -0.28015562891960144
visibility: 0.9999827742576599
","x: 216.25575256347656
y: 148.84133911132812
z: -0.2636110782623291
visibility: 0.9999563694000244
","x: 217.76925659179688
y: 149.03424072265625
z: -0.2637557089328766
visibility: 0.9999534487724304
","x: 219.11233520507812
y: 149.3687744140625
z: -0.2638344466686249
visibility: 0.9999479055404663
","x: 211.64939880371094
y: 147.81869506835938
z: -0.2609037160873413
visibility: 0.9999396204948425
","x: 209.71160888671875
y: 147.303466796875
z: -0.2609177231788635
visibility: 0.999924898147583
","x: 207.82559204101562
y: 146.84185791015625
z: -0.2609831690788269
visibility: 0.9999246597290039
","x: 221.08319091796875
y: 153.7095489501953
z: -0.11997443437576294
visibility: 0.9998679161071777
","x: 203.76754760742188
y: 150.53451538085938
z: -0.14635543525218964
visibility: 0.9998935461044312
","x: 215.6614990234375
y: 166.77117919921875
z: -0.227662593126297
visibility: 0.9999755024909973
","x: 209.9040069580078
y: 165.19671630859375
z: -0.23286792635917664
visibility: 0.999981701374054
","x: 231.6652374267578
y: 202.86654663085938
z: -0.02790714241564274
visibility: 0.9999549388885498
","x: 185.35723876953125
y: 196.84359741210938
z: -0.05546761304140091
visibility: 0.9999346733093262
","x: 233.21495056152344
y: 272.1824035644531
z: -0.12264696508646011
visibility: 0.9827622771263123
","x: 174.74111938476562
y: 264.6309509277344
z: -0.13599860668182373
visibility: 0.841990053653717
","x: 232.50732421875
y: 222.08734130859375
z: -0.38462764024734497
visibility: 0.9957380890846252
","x: 182.8985137939453
y: 244.19625854492188
z: -0.3713575005531311
visibility: 0.9694058895111084
","x: 234.29409790039062
y: 209.05596923828125
z: -0.43586644530296326
visibility: 0.9925861358642578
","x: 187.24356079101562
y: 237.52378845214844
z: -0.4164758324623108
visibility: 0.9611990451812744
","x: 234.12559509277344
y: 202.3104248046875
z: -0.43632975220680237
visibility: 0.992542028427124
","x: 187.08590698242188
y: 229.91122436523438
z: -0.42261362075805664
visibility: 0.9642819166183472
","x: 232.8077392578125
y: 206.4915313720703
z: -0.39088350534439087
visibility: 0.9869070649147034
","x: 186.64718627929688
y: 230.96829223632812
z: -0.37719807028770447
visibility: 0.9562274813652039
","x: 218.1200714111328
y: 319.6103210449219
z: 0.012828697450459003
visibility: 0.9994487166404724
","x: 192.5614471435547
y: 316.67938232421875
z: -0.012900600209832191
visibility: 0.9994969367980957
","x: 218.1121826171875
y: 413.96893310546875
z: -0.0026952577754855156
visibility: 0.964221179485321
","x: 196.7864990234375
y: 401.5977478027344
z: -0.13232086598873138
visibility: 0.969496488571167
","x: 219.33297729492188
y: 498.27105712890625
z: 0.14453400671482086
visibility: 0.9514726996421814
","x: 203.6291046142578
y: 510.16644287109375
z: 0.05925669148564339
visibility: 0.8551899194717407
","x: 218.25259399414062
y: 512.7275390625
z: 0.14916108548641205
visibility: 0.6907516717910767
","x: 204.08331298828125
y: 524.816162109375
z: 0.06596275418996811
visibility: 0.6581857204437256
","x: 221.36334228515625
y: 529.17919921875
z: 0.010837719775736332
visibility: 0.9478474855422974
","x: 210.1259307861328
y: 529.8893432617188
z: -0.08461229503154755
visibility: 0.8830435276031494
",,,,,,,,,,,,,,,,,,,,,,,,,,,,,,,,,,,,,,,,,,
5,"x: 212.4007110595703
y: 157.26193237304688
z: -0.2446252405643463
visibility: 0.9999844431877136
","x: 214.0814666748047
y: 148.435791015625
z: -0.21789786219596863
visibility: 0.9999606609344482
","x: 214.46896362304688
y: 148.65310668945312
z: -0.2179306000471115
visibility: 0.9999579787254333
","x: 214.96115112304688
y: 148.90760803222656
z: -0.2179207056760788
visibility: 0.9999529719352722
","x: 211.01748657226562
y: 147.49758911132812
z: -0.24337618052959442
visibility: 0.9999455809593201
","x: 209.15248107910156
y: 147.08688354492188
z: -0.24337923526763916
visibility: 0.9999323487281799
","x: 207.62672424316406
y: 146.72869873046875
z: -0.24337193369865417
visibility: 0.999932050704956
","x: 213.9410858154297
y: 152.65797424316406
z: -0.06264428794384003
visibility: 0.9998806715011597
","x: 200.02427673339844
y: 150.9769287109375
z: -0.16721192002296448
visibility: 0.9999041557312012
","x: 213.9354705810547
y: 166.0182342529297
z: -0.1856989562511444
visibility: 0.9999778866767883
","x: 209.1773223876953
y: 164.94821166992188
z: -0.2226344645023346
visibility: 0.9999834895133972
","x: 217.99349975585938
y: 203.6258087158203
z: 0.06204281002283096
visibility: 0.9999589920043945
","x: 177.59906005859375
y: 199.52322387695312
z: -0.13529013097286224
visibility: 0.9999408721923828
","x: 221.23228454589844
y: 272.6878662109375
z: -0.0028674809727817774
visibility: 0.9807146787643433
","x: 164.9228515625
y: 265.1442565917969
z: -0.1670571267604828
visibility: 0.8572732210159302
","x: 231.5998077392578
y: 223.24063110351562
z: -0.26254838705062866
visibility: 0.9959191679954529
","x: 162.8462371826172
y: 300.9549560546875
z: -0.27705657482147217
visibility: 0.9717180728912354
","x: 233.4134979248047
y: 210.24472045898438
z: -0.31264886260032654
visibility: 0.9928115010261536
","x: 161.11669921875
y: 317.6642150878906
z: -0.30921080708503723
visibility: 0.9637267589569092
","x: 232.52357482910156
y: 203.67822265625
z: -0.32151737809181213
visibility: 0.992796778678894
","x: 164.19845581054688
y: 316.69976806640625
z: -0.3355557918548584
visibility: 0.9665267467498779
","x: 231.4434814453125
y: 207.47549438476562
z: -0.2744758129119873
visibility: 0.9874032735824585
","x: 165.63754272460938
y: 311.84979248046875
z: -0.2881097197532654
visibility: 0.9586056470870972
","x: 211.39706420898438
y: 328.9895324707031
z: 0.08474589884281158
visibility: 0.9994944930076599
","x: 189.62086486816406
y: 327.25787353515625
z: -0.08490804582834244
visibility: 0.9995324611663818
","x: 216.61956787109375
y: 418.09088134765625
z: 0.09081387519836426
visibility: 0.9614988565444946
","x: 193.0052032470703
y: 423.4149475097656
z: -0.0974453017115593
visibility: 0.9720855355262756
","x: 211.59439086914062
y: 504.7160339355469
z: 0.25912436842918396
visibility: 0.9536624550819397
","x: 164.43946838378906
y: 508.41497802734375
z: 0.08000953495502472
visibility: 0.8691102862358093
","x: 206.12423706054688
y: 521.8884887695312
z: 0.26839062571525574
visibility: 0.7169026732444763
","x: 157.43626403808594
y: 519.305419921875
z: 0.0899341031908989
visibility: 0.6843717694282532
","x: 223.89007568359375
y: 531.1085205078125
z: 0.18160280585289001
visibility: 0.9507603049278259
","x: 178.0850372314453
y: 539.182373046875
z: -0.028969163075089455
visibility: 0.8936210870742798
","x: 158.23504638671875
y: 303.2259521484375
z: 0.0
","x: 163.636962890625
y: 309.4737243652344
z: -0.0010912910802289844
","x: 165.60128784179688
y: 318.0444030761719
z: -0.0030538218561559916
","x: 165.86631774902344
y: 326.3841247558594
z: -0.004722948186099529
","x: 165.88111877441406
y: 333.16241455078125
z: -0.005389962811022997
","x: 159.96836853027344
y: 322.17315673828125
z: -0.0074144089594483376
","x: 162.8546600341797
y: 335.48394775390625
z: -0.00911701936274767
","x: 164.61773681640625
y: 330.4977722167969
z: -0.006979404017329216
","x: 164.0939483642578
y: 325.4325866699219
z: -0.00497568491846323
","x: 157.17735290527344
y: 322.85784912109375
z: -0.007896647788584232
","x: 160.24508666992188
y: 336.4112854003906
z: -0.008820770308375359
","x: 162.1107177734375
y: 332.56597900390625
z: -0.0057609425857663155
","x: 161.64111328125
y: 328.5208435058594
z: -0.003439995227381587
","x: 155.52005004882812
y: 323.61932373046875
z: -0.008173680864274502
","x: 158.10330200195312
y: 336.2986755371094
z: -0.008908861316740513
","x: 159.69125366210938
y: 333.0186462402344
z: -0.0059997932985424995
","x: 159.2206573486328
y: 329.0276794433594
z: -0.004105742555111647
","x: 154.6929473876953
y: 324.4242858886719
z: -0.008443466387689114
","x: 156.62303161621094
y: 334.54998779296875
z: -0.008678175508975983
","x: 157.68954467773438
y: 331.8945007324219
z: -0.006899876985698938
","x: 157.33042907714844
y: 328.0511779785156
z: -0.0054831551387906075
","x: 227.79501342773438
y: 222.88766479492188
z: 0.0
","x: 225.9796142578125
y: 214.2244873046875
z: 0.0007134476909413934
","x: 226.24095153808594
y: 205.84671020507812
z: 6.981730257393792e-05
","x: 228.15716552734375
y: 201.1018524169922
z: -0.0019788513891398907
","x: 230.51805114746094
y: 200.1300811767578
z: -0.003379643661901355
","x: 231.48585510253906
y: 201.7939910888672
z: 0.002938720630481839
","x: 232.4303436279297
y: 193.84231567382812
z: -0.0006396837416104972
","x: 230.05999755859375
y: 195.4841766357422
z: -0.002239147899672389
","x: 228.48062133789062
y: 199.02442932128906
z: -0.0027259495109319687
","x: 233.20758056640625
y: 203.93121337890625
z: 9.741655730977072e-07
","x: 233.6225128173828
y: 195.71173095703125
z: -0.00395159050822258
","x: 230.91566467285156
y: 197.86526489257812
z: -0.005371501203626394
","x: 229.30264282226562
y: 201.71426391601562
z: -0.005461965221911669
","x: 234.89364624023438
y: 206.95054626464844
z: -0.0036090556532144547
","x: 234.42996215820312
y: 201.00949096679688
z: -0.006686733569949865
","x: 231.77044677734375
y: 204.56118774414062
z: -0.006058887112885714
","x: 230.29969787597656
y: 208.62442016601562
z: -0.004840979352593422
","x: 236.51199340820312
y: 210.6425323486328
z: -0.007626342587172985
","x: 236.31857299804688
y: 205.04270935058594
z: -0.008690875954926014
","x: 233.810546875
y: 206.34445190429688
z: -0.00771951861679554
","x: 231.85125732421875
y: 209.13742065429688
z: -0.006581016816198826
"
6,"x: 212.4007110595703
y: 157.26193237304688
z: -0.2446252405643463
visibility: 0.9999844431877136
","x: 214.0814666748047
y: 148.435791015625
z: -0.21789786219596863
visibility: 0.9999606609344482
","x: 214.46896362304688
y: 148.65310668945312
z: -0.2179306000471115
visibility: 0.9999579787254333
","x: 214.96115112304688
y: 148.90760803222656
z: -0.2179207056760788
visibility: 0.9999529719352722
","x: 211.01748657226562
y: 147.49758911132812
z: -0.24337618052959442
visibility: 0.9999455809593201
","x: 209.15248107910156
y: 147.08688354492188
z: -0.24337923526763916
visibility: 0.9999323487281799
","x: 207.62672424316406
y: 146.72869873046875
z: -0.24337193369865417
visibility: 0.999932050704956
","x: 213.9410858154297
y: 152.65797424316406
z: -0.06264428794384003
visibility: 0.9998806715011597
","x: 200.02427673339844
y: 150.9769287109375
z: -0.16721192002296448
visibility: 0.9999041557312012
","x: 213.9354705810547
y: 166.0182342529297
z: -0.1856989562511444
visibility: 0.9999778866767883
","x: 209.1773223876953
y: 164.94821166992188
z: -0.2226344645023346
visibility: 0.9999834895133972
","x: 217.99349975585938
y: 203.6258087158203
z: 0.06204281002283096
visibility: 0.9999589920043945
","x: 177.59906005859375
y: 199.52322387695312
z: -0.13529013097286224
visibility: 0.9999408721923828
","x: 221.23228454589844
y: 272.6878662109375
z: -0.0028674809727817774
visibility: 0.9807146787643433
","x: 164.9228515625
y: 265.1442565917969
z: -0.1670571267604828
visibility: 0.8572732210159302
","x: 231.5998077392578
y: 223.24063110351562
z: -0.26254838705062866
visibility: 0.9959191679954529
","x: 162.8462371826172
y: 300.9549560546875
z: -0.27705657482147217
visibility: 0.9717180728912354
","x: 233.4134979248047
y: 210.24472045898438
z: -0.31264886260032654
visibility: 0.9928115010261536
","x: 161.11669921875
y: 317.6642150878906
z: -0.30921080708503723
visibility: 0.9637267589569092
","x: 232.52357482910156
y: 203.67822265625
z: -0.32151737809181213
visibility: 0.992796778678894
","x: 164.19845581054688
y: 316.69976806640625
z: -0.3355557918548584
visibility: 0.9665267467498779
","x: 231.4434814453125
y: 207.47549438476562
z: -0.2744758129119873
visibility: 0.9874032735824585
","x: 165.63754272460938
y: 311.84979248046875
z: -0.2881097197532654
visibility: 0.9586056470870972
","x: 211.39706420898438
y: 328.9895324707031
z: 0.08474589884281158
visibility: 0.9994944930076599
","x: 189.62086486816406
y: 327.25787353515625
z: -0.08490804582834244
visibility: 0.9995324611663818
","x: 216.61956787109375
y: 418.09088134765625
z: 0.09081387519836426
visibility: 0.9614988565444946
","x: 193.0052032470703
y: 423.4149475097656
z: -0.0974453017115593
visibility: 0.9720855355262756
","x: 211.59439086914062
y: 504.7160339355469
z: 0.25912436842918396
visibility: 0.9536624550819397
","x: 164.43946838378906
y: 508.41497802734375
z: 0.08000953495502472
visibility: 0.8691102862358093
","x: 206.12423706054688
y: 521.8884887695312
z: 0.26839062571525574
visibility: 0.7169026732444763
","x: 157.43626403808594
y: 519.305419921875
z: 0.0899341031908989
visibility: 0.6843717694282532
","x: 223.89007568359375
y: 531.1085205078125
z: 0.18160280585289001
visibility: 0.9507603049278259
","x: 178.0850372314453
y: 539.182373046875
z: -0.028969163075089455
visibility: 0.8936210870742798
","x: 158.23504638671875
y: 303.2259521484375
z: 0.0
","x: 163.636962890625
y: 309.4737243652344
z: -0.0010912910802289844
","x: 165.60128784179688
y: 318.0444030761719
z: -0.0030538218561559916
","x: 165.86631774902344
y: 326.3841247558594
z: -0.004722948186099529
","x: 165.88111877441406
y: 333.16241455078125
z: -0.005389962811022997
","x: 159.96836853027344
y: 322.17315673828125
z: -0.0074144089594483376
","x: 162.8546600341797
y: 335.48394775390625
z: -0.00911701936274767
","x: 164.61773681640625
y: 330.4977722167969
z: -0.006979404017329216
","x: 164.0939483642578
y: 325.4325866699219
z: -0.00497568491846323
","x: 157.17735290527344
y: 322.85784912109375
z: -0.007896647788584232
","x: 160.24508666992188
y: 336.4112854003906
z: -0.008820770308375359
","x: 162.1107177734375
y: 332.56597900390625
z: -0.0057609425857663155
","x: 161.64111328125
y: 328.5208435058594
z: -0.003439995227381587
","x: 155.52005004882812
y: 323.61932373046875
z: -0.008173680864274502
","x: 158.10330200195312
y: 336.2986755371094
z: -0.008908861316740513
","x: 159.69125366210938
y: 333.0186462402344
z: -0.0059997932985424995
","x: 159.2206573486328
y: 329.0276794433594
z: -0.004105742555111647
","x: 154.6929473876953
y: 324.4242858886719
z: -0.008443466387689114
","x: 156.62303161621094
y: 334.54998779296875
z: -0.008678175508975983
","x: 157.68954467773438
y: 331.8945007324219
z: -0.006899876985698938
","x: 157.33042907714844
y: 328.0511779785156
z: -0.0054831551387906075
","x: 227.79501342773438
y: 222.88766479492188
z: 0.0
","x: 225.9796142578125
y: 214.2244873046875
z: 0.0007134476909413934
","x: 226.24095153808594
y: 205.84671020507812
z: 6.981730257393792e-05
","x: 228.15716552734375
y: 201.1018524169922
z: -0.0019788513891398907
","x: 230.51805114746094
y: 200.1300811767578
z: -0.003379643661901355
","x: 231.48585510253906
y: 201.7939910888672
z: 0.002938720630481839
","x: 232.4303436279297
y: 193.84231567382812
z: -0.0006396837416104972
","x: 230.05999755859375
y: 195.4841766357422
z: -0.002239147899672389
","x: 228.48062133789062
y: 199.02442932128906
z: -0.0027259495109319687
","x: 233.20758056640625
y: 203.93121337890625
z: 9.741655730977072e-07
","x: 233.6225128173828
y: 195.71173095703125
z: -0.00395159050822258
","x: 230.91566467285156
y: 197.86526489257812
z: -0.005371501203626394
","x: 229.30264282226562
y: 201.71426391601562
z: -0.005461965221911669
","x: 234.89364624023438
y: 206.95054626464844
z: -0.0036090556532144547
","x: 234.42996215820312
y: 201.00949096679688
z: -0.006686733569949865
","x: 231.77044677734375
y: 204.56118774414062
z: -0.006058887112885714
","x: 230.29969787597656
y: 208.62442016601562
z: -0.004840979352593422
","x: 236.51199340820312
y: 210.6425323486328
z: -0.007626342587172985
","x: 236.31857299804688
y: 205.04270935058594
z: -0.008690875954926014
","x: 233.810546875
y: 206.34445190429688
z: -0.00771951861679554
","x: 231.85125732421875
y: 209.13742065429688
z: -0.006581016816198826
"
7,"x: 212.4007110595703
y: 157.26193237304688
z: -0.2446252405643463
visibility: 0.9999844431877136
","x: 214.0814666748047
y: 148.435791015625
z: -0.21789786219596863
visibility: 0.9999606609344482
","x: 214.46896362304688
y: 148.65310668945312
z: -0.2179306000471115
visibility: 0.9999579787254333
","x: 214.96115112304688
y: 148.90760803222656
z: -0.2179207056760788
visibility: 0.9999529719352722
","x: 211.01748657226562
y: 147.49758911132812
z: -0.24337618052959442
visibility: 0.9999455809593201
","x: 209.15248107910156
y: 147.08688354492188
z: -0.24337923526763916
visibility: 0.9999323487281799
","x: 207.62672424316406
y: 146.72869873046875
z: -0.24337193369865417
visibility: 0.999932050704956
","x: 213.9410858154297
y: 152.65797424316406
z: -0.06264428794384003
visibility: 0.9998806715011597
","x: 200.02427673339844
y: 150.9769287109375
z: -0.16721192002296448
visibility: 0.9999041557312012
","x: 213.9354705810547
y: 166.0182342529297
z: -0.1856989562511444
visibility: 0.9999778866767883
","x: 209.1773223876953
y: 164.94821166992188
z: -0.2226344645023346
visibility: 0.9999834895133972
","x: 217.99349975585938
y: 203.6258087158203
z: 0.06204281002283096
visibility: 0.9999589920043945
","x: 177.59906005859375
y: 199.52322387695312
z: -0.13529013097286224
visibility: 0.9999408721923828
","x: 221.23228454589844
y: 272.6878662109375
z: -0.0028674809727817774
visibility: 0.9807146787643433
","x: 164.9228515625
y: 265.1442565917969
z: -0.1670571267604828
visibility: 0.8572732210159302
","x: 231.5998077392578
y: 223.24063110351562
z: -0.26254838705062866
visibility: 0.9959191679954529
","x: 162.8462371826172
y: 300.9549560546875
z: -0.27705657482147217
visibility: 0.9717180728912354
","x: 233.4134979248047
y: 210.24472045898438
z: -0.31264886260032654
visibility: 0.9928115010261536
","x: 161.11669921875
y: 317.6642150878906
z: -0.30921080708503723
visibility: 0.9637267589569092
","x: 232.52357482910156
y: 203.67822265625
z: -0.32151737809181213
visibility: 0.992796778678894
","x: 164.19845581054688
y: 316.69976806640625
z: -0.3355557918548584
visibility: 0.9665267467498779
","x: 231.4434814453125
y: 207.47549438476562
z: -0.2744758129119873
visibility: 0.9874032735824585
","x: 165.63754272460938
y: 311.84979248046875
z: -0.2881097197532654
visibility: 0.9586056470870972
","x: 211.39706420898438
y: 328.9895324707031
z: 0.08474589884281158
visibility: 0.9994944930076599
","x: 189.62086486816406
y: 327.25787353515625
z: -0.08490804582834244
visibility: 0.9995324611663818
","x: 216.61956787109375
y: 418.09088134765625
z: 0.09081387519836426
visibility: 0.9614988565444946
","x: 193.0052032470703
y: 423.4149475097656
z: -0.0974453017115593
visibility: 0.9720855355262756
","x: 211.59439086914062
y: 504.7160339355469
z: 0.25912436842918396
visibility: 0.9536624550819397
","x: 164.43946838378906
y: 508.41497802734375
z: 0.08000953495502472
visibility: 0.8691102862358093
","x: 206.12423706054688
y: 521.8884887695312
z: 0.26839062571525574
visibility: 0.7169026732444763
","x: 157.43626403808594
y: 519.305419921875
z: 0.0899341031908989
visibility: 0.6843717694282532
","x: 223.89007568359375
y: 531.1085205078125
z: 0.18160280585289001
visibility: 0.9507603049278259
","x: 178.0850372314453
y: 539.182373046875
z: -0.028969163075089455
visibility: 0.8936210870742798
","x: 158.23504638671875
y: 303.2259521484375
z: 0.0
","x: 163.636962890625
y: 309.4737243652344
z: -0.0010912910802289844
","x: 165.60128784179688
y: 318.0444030761719
z: -0.0030538218561559916
","x: 165.86631774902344
y: 326.3841247558594
z: -0.004722948186099529
","x: 165.88111877441406
y: 333.16241455078125
z: -0.005389962811022997
","x: 159.96836853027344
y: 322.17315673828125
z: -0.0074144089594483376
","x: 162.8546600341797
y: 335.48394775390625
z: -0.00911701936274767
","x: 164.61773681640625
y: 330.4977722167969
z: -0.006979404017329216
","x: 164.0939483642578
y: 325.4325866699219
z: -0.00497568491846323
","x: 157.17735290527344
y: 322.85784912109375
z: -0.007896647788584232
","x: 160.24508666992188
y: 336.4112854003906
z: -0.008820770308375359
","x: 162.1107177734375
y: 332.56597900390625
z: -0.0057609425857663155
","x: 161.64111328125
y: 328.5208435058594
z: -0.003439995227381587
","x: 155.52005004882812
y: 323.61932373046875
z: -0.008173680864274502
","x: 158.10330200195312
y: 336.2986755371094
z: -0.008908861316740513
","x: 159.69125366210938
y: 333.0186462402344
z: -0.0059997932985424995
","x: 159.2206573486328
y: 329.0276794433594
z: -0.004105742555111647
","x: 154.6929473876953
y: 324.4242858886719
z: -0.008443466387689114
","x: 156.62303161621094
y: 334.54998779296875
z: -0.008678175508975983
","x: 157.68954467773438
y: 331.8945007324219
z: -0.006899876985698938
","x: 157.33042907714844
y: 328.0511779785156
z: -0.0054831551387906075
","x: 227.79501342773438
y: 222.88766479492188
z: 0.0
","x: 225.9796142578125
y: 214.2244873046875
z: 0.0007134476909413934
","x: 226.24095153808594
y: 205.84671020507812
z: 6.981730257393792e-05
","x: 228.15716552734375
y: 201.1018524169922
z: -0.0019788513891398907
","x: 230.51805114746094
y: 200.1300811767578
z: -0.003379643661901355
","x: 231.48585510253906
y: 201.7939910888672
z: 0.002938720630481839
","x: 232.4303436279297
y: 193.84231567382812
z: -0.0006396837416104972
","x: 230.05999755859375
y: 195.4841766357422
z: -0.002239147899672389
","x: 228.48062133789062
y: 199.02442932128906
z: -0.0027259495109319687
","x: 233.20758056640625
y: 203.93121337890625
z: 9.741655730977072e-07
","x: 233.6225128173828
y: 195.71173095703125
z: -0.00395159050822258
","x: 230.91566467285156
y: 197.86526489257812
z: -0.005371501203626394
","x: 229.30264282226562
y: 201.71426391601562
z: -0.005461965221911669
","x: 234.89364624023438
y: 206.95054626464844
z: -0.0036090556532144547
","x: 234.42996215820312
y: 201.00949096679688
z: -0.006686733569949865
","x: 231.77044677734375
y: 204.56118774414062
z: -0.006058887112885714
","x: 230.29969787597656
y: 208.62442016601562
z: -0.004840979352593422
","x: 236.51199340820312
y: 210.6425323486328
z: -0.007626342587172985
","x: 236.31857299804688
y: 205.04270935058594
z: -0.008690875954926014
","x: 233.810546875
y: 206.34445190429688
z: -0.00771951861679554
","x: 231.85125732421875
y: 209.13742065429688
z: -0.006581016816198826
"
8,"x: 199.750244140625
y: 152.2020263671875
z: -0.24984881281852722
visibility: 0.9999858736991882
","x: 200.27806091308594
y: 144.84559631347656
z: -0.22111257910728455
visibility: 0.9999641180038452
","x: 201.4124755859375
y: 145.2014617919922
z: -0.22092926502227783
visibility: 0.9999617338180542
","x: 202.55413818359375
y: 145.6046142578125
z: -0.22071674466133118
visibility: 0.9999569058418274
","x: 196.2974853515625
y: 144.34115600585938
z: -0.2559615969657898
visibility: 0.9999505281448364
","x: 194.71701049804688
y: 144.3023681640625
z: -0.25597095489501953
visibility: 0.9999386668205261
","x: 193.1797332763672
y: 144.24942016601562
z: -0.25600665807724
visibility: 0.9999380707740784
","x: 202.70098876953125
y: 150.3740234375
z: -0.09309498220682144
visibility: 0.9998903274536133
","x: 188.40196228027344
y: 149.52435302734375
z: -0.1877753734588623
visibility: 0.9999134540557861
","x: 202.00991821289062
y: 160.76919555664062
z: -0.19427835941314697
visibility: 0.9999798536300659
","x: 196.66671752929688
y: 160.91421508789062
z: -0.2330399751663208
visibility: 0.9999850392341614
","x: 212.98350524902344
y: 204.3101348876953
z: 0.014428822323679924
visibility: 0.9999620318412781
","x: 167.10403442382812
y: 200.57875061035156
z: -0.14040660858154297
visibility: 0.9999465346336365
","x: 218.64642333984375
y: 273.5974426269531
z: -0.036311496049165726
visibility: 0.980147659778595
","x: 156.69210815429688
y: 265.0754699707031
z: -0.11286522448062897
visibility: 0.8710924386978149
","x: 228.66656494140625
y: 223.7342987060547
z: -0.2901703417301178
visibility: 0.9958978891372681
","x: 154.40243530273438
y: 311.1854248046875
z: -0.182922825217247
visibility: 0.9737332463264465
","x: 232.7126007080078
y: 211.67059326171875
z: -0.3376341164112091
visibility: 0.9925863742828369
","x: 152.30242919921875
y: 329.6783142089844
z: -0.19811275601387024
visibility: 0.96562659740448
","x: 230.93751525878906
y: 204.67054748535156
z: -0.34626537561416626
visibility: 0.9925928711891174
","x: 155.59625244140625
y: 328.337890625
z: -0.23566210269927979
visibility: 0.9681616425514221
","x: 228.4922332763672
y: 207.93731689453125
z: -0.3008476793766022
visibility: 0.9871716499328613
","x: 157.1542205810547
y: 322.6889343261719
z: -0.19373467564582825
visibility: 0.9601830840110779
","x: 201.89785766601562
y: 334.03485107421875
z: 0.06842093914747238
visibility: 0.9995295405387878
","x: 175.78662109375
y: 330.9325866699219
z: -0.06863731145858765
visibility: 0.9995678663253784
","x: 208.5344696044922
y: 418.56060791015625
z: 0.11703028529882431
visibility: 0.9596961140632629
","x: 176.09324645996094
y: 425.0068664550781
z: -0.08442197740077972
visibility: 0.9744352102279663
","x: 206.39366149902344
y: 505.551025390625
z: 0.30844646692276
visibility: 0.9560823440551758
","x: 158.3482666015625
y: 510.6993408203125
z: 0.11625222116708755
visibility: 0.8814820647239685
","x: 201.90097045898438
y: 522.2562255859375
z: 0.3203187584877014
visibility: 0.7397333383560181
","x: 153.38772583007812
y: 524.9902954101562
z: 0.12612861394882202
visibility: 0.7051997780799866
","x: 222.78469848632812
y: 529.7943725585938
z: 0.2196931391954422
visibility: 0.9534575939178467
","x: 174.3197021484375
y: 540.038330078125
z: -0.006427331827580929
visibility: 0.9029244184494019
","x: 152.98460388183594
y: 310.92584228515625
z: 0.0
","x: 157.2952423095703
y: 316.050048828125
z: -0.0031498619355261326
","x: 159.1131134033203
y: 324.0707092285156
z: -0.005341404117643833
","x: 159.69940185546875
y: 332.076416015625
z: -0.006713535636663437
","x: 161.01170349121094
y: 338.1418151855469
z: -0.007563198916614056
","x: 152.9262237548828
y: 329.1260986328125
z: -0.007858534343540668
","x: 154.44180297851562
y: 340.4300537109375
z: -0.009583760984241962
","x: 157.02801513671875
y: 343.8204650878906
z: -0.008702500723302364
","x: 159.05853271484375
y: 344.9813232421875
z: -0.007616210728883743
","x: 150.35060119628906
y: 330.09820556640625
z: -0.007038690149784088
","x: 152.3235626220703
y: 342.2496032714844
z: -0.008741621859371662
","x: 155.6566619873047
y: 344.8167419433594
z: -0.00737860519438982
","x: 158.02398681640625
y: 344.971435546875
z: -0.00613784696906805
","x: 149.21900939941406
y: 330.442138671875
z: -0.0060693263076245785
","x: 151.04005432128906
y: 341.404052734375
z: -0.007854904979467392
","x: 153.99888610839844
y: 343.9132995605469
z: -0.0069403392262756824
","x: 156.16961669921875
y: 344.2561340332031
z: -0.005973829887807369
","x: 149.1102294921875
y: 330.4931945800781
z: -0.0052994596771895885
","x: 150.5228271484375
y: 339.3348388671875
z: -0.006677387747913599
","x: 152.8096923828125
y: 342.237548828125
z: -0.006479151546955109
","x: 154.74061584472656
y: 343.0721435546875
z: -0.0059456853196024895
","x: 226.28030395507812
y: 225.45819091796875
z: 0.0
","x: 223.4768524169922
y: 218.8036346435547
z: -0.001411992940120399
","x: 222.57444763183594
y: 210.89089965820312
z: -0.0030646820086985826
","x: 223.71044921875
y: 206.3911590576172
z: -0.005642909090965986
","x: 225.4776153564453
y: 205.1693572998047
z: -0.007542788051068783
","x: 227.85906982421875
y: 203.66331481933594
z: -0.0007926192483864725
","x: 227.96209716796875
y: 196.3157958984375
z: -0.004662003833800554
","x: 226.02676391601562
y: 201.45761108398438
z: -0.005543400067836046
","x: 225.11135864257812
y: 206.5574951171875
z: -0.005482521373778582
","x: 230.06198120117188
y: 206.24237060546875
z: -0.0025555083993822336
","x: 229.5768585205078
y: 201.227294921875
z: -0.006111499387770891
","x: 227.03004455566406
y: 206.72805786132812
z: -0.005745412316173315
","x: 225.99940490722656
y: 210.96124267578125
z: -0.004715172108262777
","x: 231.97714233398438
y: 209.81167602539062
z: -0.005024380050599575
","x: 231.0321502685547
y: 205.87960815429688
z: -0.00861970242112875
","x: 228.50732421875
y: 210.40304565429688
z: -0.007128756493330002
","x: 227.57823181152344
y: 214.27960205078125
z: -0.005305573809891939
","x: 233.71942138671875
y: 213.9903106689453
z: -0.007929861545562744
","x: 232.5423126220703
y: 210.10459899902344
z: -0.009885786101222038
","x: 230.28109741210938
y: 212.43923950195312
z: -0.00870098639279604
","x: 229.1586151123047
y: 215.24444580078125
z: -0.007148567121475935
"
9,"x: 199.750244140625
y: 152.2020263671875
z: -0.24984881281852722
visibility: 0.9999858736991882
","x: 200.27806091308594
y: 144.84559631347656
z: -0.22111257910728455
visibility: 0.9999641180038452
","x: 201.4124755859375
y: 145.2014617919922
z: -0.22092926502227783
visibility: 0.9999617338180542
","x: 202.55413818359375
y: 145.6046142578125
z: -0.22071674466133118
visibility: 0.9999569058418274
","x: 196.2974853515625
y: 144.34115600585938
z: -0.2559615969657898
visibility: 0.9999505281448364
","x: 194.71701049804688
y: 144.3023681640625
z: -0.25597095489501953
visibility: 0.9999386668205261
","x: 193.1797332763672
y: 144.24942016601562
z: -0.25600665807724
visibility: 0.9999380707740784
","x: 202.70098876953125
y: 150.3740234375
z: -0.09309498220682144
visibility: 0.9998903274536133
","x: 188.40196228027344
y: 149.52435302734375
z: -0.1877753734588623
visibility: 0.9999134540557861
","x: 202.00991821289062
y: 160.76919555664062
z: -0.19427835941314697
visibility: 0.9999798536300659
","x: 196.66671752929688
y: 160.91421508789062
z: -0.2330399751663208
visibility: 0.9999850392341614
","x: 212.98350524902344
y: 204.3101348876953
z: 0.014428822323679924
visibility: 0.9999620318412781
","x: 167.10403442382812
y: 200.57875061035156
z: -0.14040660858154297
visibility: 0.9999465346336365
","x: 218.64642333984375
y: 273.5974426269531
z: -0.036311496049165726
visibility: 0.980147659778595
","x: 156.69210815429688
y: 265.0754699707031
z: -0.11286522448062897
visibility: 0.8710924386978149
","x: 228.66656494140625
y: 223.7342987060547
z: -0.2901703417301178
visibility: 0.9958978891372681
","x: 154.40243530273438
y: 311.1854248046875
z: -0.182922825217247
visibility: 0.9737332463264465
","x: 232.7126007080078
y: 211.67059326171875
z: -0.3376341164112091
visibility: 0.9925863742828369
","x: 152.30242919921875
y: 329.6783142089844
z: -0.19811275601387024
visibility: 0.96562659740448
","x: 230.93751525878906
y: 204.67054748535156
z: -0.34626537561416626
visibility: 0.9925928711891174
","x: 155.59625244140625
y: 328.337890625
z: -0.23566210269927979
visibility: 0.9681616425514221
","x: 228.4922332763672
y: 207.93731689453125
z: -0.3008476793766022
visibility: 0.9871716499328613
","x: 157.1542205810547
y: 322.6889343261719
z: -0.19373467564582825
visibility: 0.9601830840110779
","x: 201.89785766601562
y: 334.03485107421875
z: 0.06842093914747238
visibility: 0.9995295405387878
","x: 175.78662109375
y: 330.9325866699219
z: -0.06863731145858765
visibility: 0.9995678663253784
","x: 208.5344696044922
y: 418.56060791015625
z: 0.11703028529882431
visibility: 0.9596961140632629
","x: 176.09324645996094
y: 425.0068664550781
z: -0.08442197740077972
visibility: 0.9744352102279663
","x: 206.39366149902344
y: 505.551025390625
z: 0.30844646692276
visibility: 0.9560823440551758
","x: 158.3482666015625
y: 510.6993408203125
z: 0.11625222116708755
visibility: 0.8814820647239685
","x: 201.90097045898438
y: 522.2562255859375
z: 0.3203187584877014
visibility: 0.7397333383560181
","x: 153.38772583007812
y: 524.9902954101562
z: 0.12612861394882202
visibility: 0.7051997780799866
","x: 222.78469848632812
y: 529.7943725585938
z: 0.2196931391954422
visibility: 0.9534575939178467
","x: 174.3197021484375
y: 540.038330078125
z: -0.006427331827580929
visibility: 0.9029244184494019
","x: 152.98460388183594
y: 310.92584228515625
z: 0.0
","x: 157.2952423095703
y: 316.050048828125
z: -0.0031498619355261326
","x: 159.1131134033203
y: 324.0707092285156
z: -0.005341404117643833
","x: 159.69940185546875
y: 332.076416015625
z: -0.006713535636663437
","x: 161.01170349121094
y: 338.1418151855469
z: -0.007563198916614056
","x: 152.9262237548828
y: 329.1260986328125
z: -0.007858534343540668
","x: 154.44180297851562
y: 340.4300537109375
z: -0.009583760984241962
","x: 157.02801513671875
y: 343.8204650878906
z: -0.008702500723302364
","x: 159.05853271484375
y: 344.9813232421875
z: -0.007616210728883743
","x: 150.35060119628906
y: 330.09820556640625
z: -0.007038690149784088
","x: 152.3235626220703
y: 342.2496032714844
z: -0.008741621859371662
","x: 155.6566619873047
y: 344.8167419433594
z: -0.00737860519438982
","x: 158.02398681640625
y: 344.971435546875
z: -0.00613784696906805
","x: 149.21900939941406
y: 330.442138671875
z: -0.0060693263076245785
","x: 151.04005432128906
y: 341.404052734375
z: -0.007854904979467392
","x: 153.99888610839844
y: 343.9132995605469
z: -0.0069403392262756824
","x: 156.16961669921875
y: 344.2561340332031
z: -0.005973829887807369
","x: 149.1102294921875
y: 330.4931945800781
z: -0.0052994596771895885
","x: 150.5228271484375
y: 339.3348388671875
z: -0.006677387747913599
","x: 152.8096923828125
y: 342.237548828125
z: -0.006479151546955109
","x: 154.74061584472656
y: 343.0721435546875
z: -0.0059456853196024895
","x: 226.28030395507812
y: 225.45819091796875
z: 0.0
","x: 223.4768524169922
y: 218.8036346435547
z: -0.001411992940120399
","x: 222.57444763183594
y: 210.89089965820312
z: -0.0030646820086985826
","x: 223.71044921875
y: 206.3911590576172
z: -0.005642909090965986
","x: 225.4776153564453
y: 205.1693572998047
z: -0.007542788051068783
","x: 227.85906982421875
y: 203.66331481933594
z: -0.0007926192483864725
","x: 227.96209716796875
y: 196.3157958984375
z: -0.004662003833800554
","x: 226.02676391601562
y: 201.45761108398438
z: -0.005543400067836046
","x: 225.11135864257812
y: 206.5574951171875
z: -0.005482521373778582
","x: 230.06198120117188
y: 206.24237060546875
z: -0.0025555083993822336
","x: 229.5768585205078
y: 201.227294921875
z: -0.006111499387770891
","x: 227.03004455566406
y: 206.72805786132812
z: -0.005745412316173315
","x: 225.99940490722656
y: 210.96124267578125
z: -0.004715172108262777
","x: 231.97714233398438
y: 209.81167602539062
z: -0.005024380050599575
","x: 231.0321502685547
y: 205.87960815429688
z: -0.00861970242112875
","x: 228.50732421875
y: 210.40304565429688
z: -0.007128756493330002
","x: 227.57823181152344
y: 214.27960205078125
z: -0.005305573809891939
","x: 233.71942138671875
y: 213.9903106689453
z: -0.007929861545562744
","x: 232.5423126220703
y: 210.10459899902344
z: -0.009885786101222038
","x: 230.28109741210938
y: 212.43923950195312
z: -0.00870098639279604
","x: 229.1586151123047
y: 215.24444580078125
z: -0.007148567121475935
"
10,"x: 199.750244140625
y: 152.2020263671875
z: -0.24984881281852722
visibility: 0.9999858736991882
","x: 200.27806091308594
y: 144.84559631347656
z: -0.22111257910728455
visibility: 0.9999641180038452
","x: 201.4124755859375
y: 145.2014617919922
z: -0.22092926502227783
visibility: 0.9999617338180542
","x: 202.55413818359375
y: 145.6046142578125
z: -0.22071674466133118
visibility: 0.9999569058418274
","x: 196.2974853515625
y: 144.34115600585938
z: -0.2559615969657898
visibility: 0.9999505281448364
","x: 194.71701049804688
y: 144.3023681640625
z: -0.25597095489501953
visibility: 0.9999386668205261
","x: 193.1797332763672
y: 144.24942016601562
z: -0.25600665807724
visibility: 0.9999380707740784
","x: 202.70098876953125
y: 150.3740234375
z: -0.09309498220682144
visibility: 0.9998903274536133
","x: 188.40196228027344
y: 149.52435302734375
z: -0.1877753734588623
visibility: 0.9999134540557861
","x: 202.00991821289062
y: 160.76919555664062
z: -0.19427835941314697
visibility: 0.9999798536300659
","x: 196.66671752929688
y: 160.91421508789062
z: -0.2330399751663208
visibility: 0.9999850392341614
","x: 212.98350524902344
y: 204.3101348876953
z: 0.014428822323679924
visibility: 0.9999620318412781
","x: 167.10403442382812
y: 200.57875061035156
z: -0.14040660858154297
visibility: 0.9999465346336365
","x: 218.64642333984375
y: 273.5974426269531
z: -0.036311496049165726
visibility: 0.980147659778595
","x: 156.69210815429688
y: 265.0754699707031
z: -0.11286522448062897
visibility: 0.8710924386978149
","x: 228.66656494140625
y: 223.7342987060547
z: -0.2901703417301178
visibility: 0.9958978891372681
","x: 154.40243530273438
y: 311.1854248046875
z: -0.182922825217247
visibility: 0.9737332463264465
","x: 232.7126007080078
y: 211.67059326171875
z: -0.3376341164112091
visibility: 0.9925863742828369
","x: 152.30242919921875
y: 329.6783142089844
z: -0.19811275601387024
visibility: 0.96562659740448
","x: 230.93751525878906
y: 204.67054748535156
z: -0.34626537561416626
visibility: 0.9925928711891174
","x: 155.59625244140625
y: 328.337890625
z: -0.23566210269927979
visibility: 0.9681616425514221
","x: 228.4922332763672
y: 207.93731689453125
z: -0.3008476793766022
visibility: 0.9871716499328613
","x: 157.1542205810547
y: 322.6889343261719
z: -0.19373467564582825
visibility: 0.9601830840110779
","x: 201.89785766601562
y: 334.03485107421875
z: 0.06842093914747238
visibility: 0.9995295405387878
","x: 175.78662109375
y: 330.9325866699219
z: -0.06863731145858765
visibility: 0.9995678663253784
","x: 208.5344696044922
y: 418.56060791015625
z: 0.11703028529882431
visibility: 0.9596961140632629
","x: 176.09324645996094
y: 425.0068664550781
z: -0.08442197740077972
visibility: 0.9744352102279663
","x: 206.39366149902344
y: 505.551025390625
z: 0.30844646692276
visibility: 0.9560823440551758
","x: 158.3482666015625
y: 510.6993408203125
z: 0.11625222116708755
visibility: 0.8814820647239685
","x: 201.90097045898438
y: 522.2562255859375
z: 0.3203187584877014
visibility: 0.7397333383560181
","x: 153.38772583007812
y: 524.9902954101562
z: 0.12612861394882202
visibility: 0.7051997780799866
","x: 222.78469848632812
y: 529.7943725585938
z: 0.2196931391954422
visibility: 0.9534575939178467
","x: 174.3197021484375
y: 540.038330078125
z: -0.006427331827580929
visibility: 0.9029244184494019
","x: 152.98460388183594
y: 310.92584228515625
z: 0.0
","x: 157.2952423095703
y: 316.050048828125
z: -0.0031498619355261326
","x: 159.1131134033203
y: 324.0707092285156
z: -0.005341404117643833
","x: 159.69940185546875
y: 332.076416015625
z: -0.006713535636663437
","x: 161.01170349121094
y: 338.1418151855469
z: -0.007563198916614056
","x: 152.9262237548828
y: 329.1260986328125
z: -0.007858534343540668
","x: 154.44180297851562
y: 340.4300537109375
z: -0.009583760984241962
","x: 157.02801513671875
y: 343.8204650878906
z: -0.008702500723302364
","x: 159.05853271484375
y: 344.9813232421875
z: -0.007616210728883743
","x: 150.35060119628906
y: 330.09820556640625
z: -0.007038690149784088
","x: 152.3235626220703
y: 342.2496032714844
z: -0.008741621859371662
","x: 155.6566619873047
y: 344.8167419433594
z: -0.00737860519438982
","x: 158.02398681640625
y: 344.971435546875
z: -0.00613784696906805
","x: 149.21900939941406
y: 330.442138671875
z: -0.0060693263076245785
","x: 151.04005432128906
y: 341.404052734375
z: -0.007854904979467392
","x: 153.99888610839844
y: 343.9132995605469
z: -0.0069403392262756824
","x: 156.16961669921875
y: 344.2561340332031
z: -0.005973829887807369
","x: 149.1102294921875
y: 330.4931945800781
z: -0.0052994596771895885
","x: 150.5228271484375
y: 339.3348388671875
z: -0.006677387747913599
","x: 152.8096923828125
y: 342.237548828125
z: -0.006479151546955109
","x: 154.74061584472656
y: 343.0721435546875
z: -0.0059456853196024895
","x: 226.28030395507812
y: 225.45819091796875
z: 0.0
","x: 223.4768524169922
y: 218.8036346435547
z: -0.001411992940120399
","x: 222.57444763183594
y: 210.89089965820312
z: -0.0030646820086985826
","x: 223.71044921875
y: 206.3911590576172
z: -0.005642909090965986
","x: 225.4776153564453
y: 205.1693572998047
z: -0.007542788051068783
","x: 227.85906982421875
y: 203.66331481933594
z: -0.0007926192483864725
","x: 227.96209716796875
y: 196.3157958984375
z: -0.004662003833800554
","x: 226.02676391601562
y: 201.45761108398438
z: -0.005543400067836046
","x: 225.11135864257812
y: 206.5574951171875
z: -0.005482521373778582
","x: 230.06198120117188
y: 206.24237060546875
z: -0.0025555083993822336
","x: 229.5768585205078
y: 201.227294921875
z: -0.006111499387770891
","x: 227.03004455566406
y: 206.72805786132812
z: -0.005745412316173315
","x: 225.99940490722656
y: 210.96124267578125
z: -0.004715172108262777
","x: 231.97714233398438
y: 209.81167602539062
z: -0.005024380050599575
","x: 231.0321502685547
y: 205.87960815429688
z: -0.00861970242112875
","x: 228.50732421875
y: 210.40304565429688
z: -0.007128756493330002
","x: 227.57823181152344
y: 214.27960205078125
z: -0.005305573809891939
","x: 233.71942138671875
y: 213.9903106689453
z: -0.007929861545562744
","x: 232.5423126220703
y: 210.10459899902344
z: -0.009885786101222038
","x: 230.28109741210938
y: 212.43923950195312
z: -0.00870098639279604
","x: 229.1586151123047
y: 215.24444580078125
z: -0.007148567121475935
"
11,"x: 185.47955322265625
y: 149.42135620117188
z: -0.2591986060142517
visibility: 0.9999864101409912
","x: 186.92633056640625
y: 142.74644470214844
z: -0.2337052822113037
visibility: 0.9999653100967407
","x: 188.49354553222656
y: 142.75027465820312
z: -0.23363199830055237
visibility: 0.999963104724884
","x: 190.156494140625
y: 142.7374267578125
z: -0.23353394865989685
visibility: 0.9999586939811707
","x: 182.23495483398438
y: 143.32144165039062
z: -0.2548852562904358
visibility: 0.9999522566795349
","x: 180.33734130859375
y: 143.6868133544922
z: -0.2549012303352356
visibility: 0.999940812587738
","x: 178.4159698486328
y: 144.03970336914062
z: -0.2549491822719574
visibility: 0.9999399185180664
","x: 192.4126434326172
y: 147.73336791992188
z: -0.10911019891500473
visibility: 0.9998967051506042
","x: 175.29791259765625
y: 149.8759002685547
z: -0.13786450028419495
visibility: 0.9999150037765503
","x: 188.54559326171875
y: 158.3163604736328
z: -0.2105753868818283
visibility: 0.9999812245368958
","x: 182.8738555908203
y: 159.26499938964844
z: -0.23107299208641052
visibility: 0.9999857544898987
","x: 208.10302734375
y: 203.1404266357422
z: -0.036851175129413605
visibility: 0.999962568283081
","x: 158.41610717773438
y: 201.6097412109375
z: -0.08530595898628235
visibility: 0.9999483227729797
","x: 218.25265502929688
y: 262.632080078125
z: -0.1254091113805771
visibility: 0.9808948636054993
","x: 153.59173583984375
y: 265.39788818359375
z: -0.04849371686577797
visibility: 0.8807815313339233
","x: 221.08505249023438
y: 237.47988891601562
z: -0.41873079538345337
visibility: 0.99546879529953
","x: 151.76480102539062
y: 307.59234619140625
z: -0.16656634211540222
visibility: 0.9718374013900757
","x: 223.51441955566406
y: 231.98866271972656
z: -0.48064571619033813
visibility: 0.9916728734970093
","x: 151.30975341796875
y: 324.36602783203125
z: -0.19822588562965393
visibility: 0.9614909887313843
","x: 221.40948486328125
y: 224.29745483398438
z: -0.49871498346328735
visibility: 0.9917656779289246
","x: 153.5680694580078
y: 321.1021423339844
z: -0.2318197786808014
visibility: 0.9641522765159607
","x: 219.54452514648438
y: 225.51593017578125
z: -0.43325695395469666
visibility: 0.9860986471176147
","x: 154.65188598632812
y: 315.641357421875
z: -0.18109793961048126
visibility: 0.9552675485610962
","x: 196.8016357421875
y: 334.68408203125
z: 0.05327139049768448
visibility: 0.9995487332344055
","x: 169.02915954589844
y: 330.946044921875
z: -0.05311429500579834
visibility: 0.9995958209037781
","x: 190.63833618164062
y: 419.517333984375
z: 0.08704114705324173
visibility: 0.9608138203620911
","x: 166.9070281982422
y: 424.743408203125
z: 0.010890146717429161
visibility: 0.9760895371437073
","x: 182.02215576171875
y: 488.59857177734375
z: 0.4305310845375061
visibility: 0.9530884027481079
","x: 165.8063201904297
y: 509.9625244140625
z: 0.23306433856487274
visibility: 0.8914408683776855
","x: 178.63873291015625
y: 497.40740966796875
z: 0.4603181779384613
visibility: 0.7392479777336121
","x: 166.0216064453125
y: 521.09521484375
z: 0.24669142067432404
visibility: 0.714958667755127
","x: 185.49119567871094
y: 520.63427734375
z: 0.34879472851753235
visibility: 0.9517306685447693
","x: 167.22360229492188
y: 541.2544555664062
z: 0.07900693267583847
visibility: 0.9099368453025818
","x: 150.97994995117188
y: 309.5870666503906
z: 0.0
","x: 154.86639404296875
y: 310.455078125
z: -0.0030020999256521463
","x: 157.09390258789062
y: 315.3268127441406
z: -0.005562323611229658
","x: 158.67820739746094
y: 321.441162109375
z: -0.00742596248164773
","x: 160.10855102539062
y: 325.61431884765625
z: -0.0087381387129426
","x: 150.74472045898438
y: 321.8783264160156
z: -0.008603062480688095
","x: 153.9445343017578
y: 330.7696838378906
z: -0.010790418833494186
","x: 157.17318725585938
y: 332.7142333984375
z: -0.01008318830281496
","x: 159.42440795898438
y: 332.9406433105469
z: -0.009150984697043896
","x: 148.9709930419922
y: 325.87774658203125
z: -0.00796881876885891
","x: 152.2564239501953
y: 335.15966796875
z: -0.009406022727489471
","x: 155.62879943847656
y: 335.1426696777344
z: -0.007354356814175844
","x: 157.37103271484375
y: 333.3701171875
z: -0.005900591611862183
","x: 148.44607543945312
y: 328.4082336425781
z: -0.007168915122747421
","x: 151.62399291992188
y: 336.43408203125
z: -0.008568714372813702
","x: 154.66494750976562
y: 335.77783203125
z: -0.006814775988459587
","x: 156.40342712402344
y: 333.8787841796875
z: -0.00550836930051446
","x: 148.8090362548828
y: 330.16741943359375
z: -0.006562134250998497
","x: 151.44815063476562
y: 336.2936706542969
z: -0.007428488228470087
","x: 153.7777557373047
y: 336.55377197265625
z: -0.006570995785295963
","x: 155.3118438720703
y: 335.11419677734375
z: -0.005713331513106823
","x: 216.3924102783203
y: 245.16757202148438
z: 0.0
","x: 213.41915893554688
y: 238.08172607421875
z: -0.0013225083239376545
","x: 212.77691650390625
y: 229.17279052734375
z: -0.0030548872891813517
","x: 214.40562438964844
y: 223.9938507080078
z: -0.00557411415502429
","x: 216.99900817871094
y: 222.28558349609375
z: -0.007439469452947378
","x: 218.62686157226562
y: 220.83697509765625
z: -0.0012339467648416758
","x: 219.02012634277344
y: 215.5048370361328
z: -0.005244020838290453
","x: 216.6326446533203
y: 220.5056915283203
z: -0.006328711286187172
","x: 215.29922485351562
y: 225.337646484375
z: -0.00635414756834507
","x: 221.0601806640625
y: 223.81558227539062
z: -0.0030181664042174816
","x: 220.5963897705078
y: 220.85311889648438
z: -0.006792707368731499
","x: 217.70535278320312
y: 226.33572387695312
z: -0.006489851977676153
","x: 216.5283203125
y: 230.74166870117188
z: -0.005450353026390076
","x: 222.93994140625
y: 228.193603515625
z: -0.0054819006472826
","x: 222.00706481933594
y: 225.29481506347656
z: -0.009335138835012913
","x: 219.1802520751953
y: 230.38943481445312
z: -0.007723249029368162
","x: 218.07032775878906
y: 234.48167419433594
z: -0.0057289740070700645
","x: 224.37925720214844
y: 233.5836181640625
z: -0.008353512734174728
","x: 223.44532775878906
y: 230.24720764160156
z: -0.01060961838811636
","x: 221.08868408203125
y: 233.45826721191406
z: -0.009233232587575912
","x: 220.01425170898438
y: 236.7760467529297
z: -0.007438823580741882
"
12,"x: 185.47955322265625
y: 149.42135620117188
z: -0.2591986060142517
visibility: 0.9999864101409912
","x: 186.92633056640625
y: 142.74644470214844
z: -0.2337052822113037
visibility: 0.9999653100967407
","x: 188.49354553222656
y: 142.75027465820312
z: -0.23363199830055237
visibility: 0.999963104724884
","x: 190.156494140625
y: 142.7374267578125
z: -0.23353394865989685
visibility: 0.9999586939811707
","x: 182.23495483398438
y: 143.32144165039062
z: -0.2548852562904358
visibility: 0.9999522566795349
","x: 180.33734130859375
y: 143.6868133544922
z: -0.2549012303352356
visibility: 0.999940812587738
","x: 178.4159698486328
y: 144.03970336914062
z: -0.2549491822719574
visibility: 0.9999399185180664
","x: 192.4126434326172
y: 147.73336791992188
z: -0.10911019891500473
visibility: 0.9998967051506042
","x: 175.29791259765625
y: 149.8759002685547
z: -0.13786450028419495
visibility: 0.9999150037765503
","x: 188.54559326171875
y: 158.3163604736328
z: -0.2105753868818283
visibility: 0.9999812245368958
","x: 182.8738555908203
y: 159.26499938964844
z: -0.23107299208641052
visibility: 0.9999857544898987
","x: 208.10302734375
y: 203.1404266357422
z: -0.036851175129413605
visibility: 0.999962568283081
","x: 158.41610717773438
y: 201.6097412109375
z: -0.08530595898628235
visibility: 0.9999483227729797
","x: 218.25265502929688
y: 262.632080078125
z: -0.1254091113805771
visibility: 0.9808948636054993
","x: 153.59173583984375
y: 265.39788818359375
z: -0.04849371686577797
visibility: 0.8807815313339233
","x: 221.08505249023438
y: 237.47988891601562
z: -0.41873079538345337
visibility: 0.99546879529953
","x: 151.76480102539062
y: 307.59234619140625
z: -0.16656634211540222
visibility: 0.9718374013900757
","x: 223.51441955566406
y: 231.98866271972656
z: -0.48064571619033813
visibility: 0.9916728734970093
","x: 151.30975341796875
y: 324.36602783203125
z: -0.19822588562965393
visibility: 0.9614909887313843
","x: 221.40948486328125
y: 224.29745483398438
z: -0.49871498346328735
visibility: 0.9917656779289246
","x: 153.5680694580078
y: 321.1021423339844
z: -0.2318197786808014
visibility: 0.9641522765159607
","x: 219.54452514648438
y: 225.51593017578125
z: -0.43325695395469666
visibility: 0.9860986471176147
","x: 154.65188598632812
y: 315.641357421875
z: -0.18109793961048126
visibility: 0.9552675485610962
","x: 196.8016357421875
y: 334.68408203125
z: 0.05327139049768448
visibility: 0.9995487332344055
","x: 169.02915954589844
y: 330.946044921875
z: -0.05311429500579834
visibility: 0.9995958209037781
","x: 190.63833618164062
y: 419.517333984375
z: 0.08704114705324173
visibility: 0.9608138203620911
","x: 166.9070281982422
y: 424.743408203125
z: 0.010890146717429161
visibility: 0.9760895371437073
","x: 182.02215576171875
y: 488.59857177734375
z: 0.4305310845375061
visibility: 0.9530884027481079
","x: 165.8063201904297
y: 509.9625244140625
z: 0.23306433856487274
visibility: 0.8914408683776855
","x: 178.63873291015625
y: 497.40740966796875
z: 0.4603181779384613
visibility: 0.7392479777336121
","x: 166.0216064453125
y: 521.09521484375
z: 0.24669142067432404
visibility: 0.714958667755127
","x: 185.49119567871094
y: 520.63427734375
z: 0.34879472851753235
visibility: 0.9517306685447693
","x: 167.22360229492188
y: 541.2544555664062
z: 0.07900693267583847
visibility: 0.9099368453025818
","x: 150.97994995117188
y: 309.5870666503906
z: 0.0
","x: 154.86639404296875
y: 310.455078125
z: -0.0030020999256521463
","x: 157.09390258789062
y: 315.3268127441406
z: -0.005562323611229658
","x: 158.67820739746094
y: 321.441162109375
z: -0.00742596248164773
","x: 160.10855102539062
y: 325.61431884765625
z: -0.0087381387129426
","x: 150.74472045898438
y: 321.8783264160156
z: -0.008603062480688095
","x: 153.9445343017578
y: 330.7696838378906
z: -0.010790418833494186
","x: 157.17318725585938
y: 332.7142333984375
z: -0.01008318830281496
","x: 159.42440795898438
y: 332.9406433105469
z: -0.009150984697043896
","x: 148.9709930419922
y: 325.87774658203125
z: -0.00796881876885891
","x: 152.2564239501953
y: 335.15966796875
z: -0.009406022727489471
","x: 155.62879943847656
y: 335.1426696777344
z: -0.007354356814175844
","x: 157.37103271484375
y: 333.3701171875
z: -0.005900591611862183
","x: 148.44607543945312
y: 328.4082336425781
z: -0.007168915122747421
","x: 151.62399291992188
y: 336.43408203125
z: -0.008568714372813702
","x: 154.66494750976562
y: 335.77783203125
z: -0.006814775988459587
","x: 156.40342712402344
y: 333.8787841796875
z: -0.00550836930051446
","x: 148.8090362548828
y: 330.16741943359375
z: -0.006562134250998497
","x: 151.44815063476562
y: 336.2936706542969
z: -0.007428488228470087
","x: 153.7777557373047
y: 336.55377197265625
z: -0.006570995785295963
","x: 155.3118438720703
y: 335.11419677734375
z: -0.005713331513106823
","x: 216.3924102783203
y: 245.16757202148438
z: 0.0
","x: 213.41915893554688
y: 238.08172607421875
z: -0.0013225083239376545
","x: 212.77691650390625
y: 229.17279052734375
z: -0.0030548872891813517
","x: 214.40562438964844
y: 223.9938507080078
z: -0.00557411415502429
","x: 216.99900817871094
y: 222.28558349609375
z: -0.007439469452947378
","x: 218.62686157226562
y: 220.83697509765625
z: -0.0012339467648416758
","x: 219.02012634277344
y: 215.5048370361328
z: -0.005244020838290453
","x: 216.6326446533203
y: 220.5056915283203
z: -0.006328711286187172
","x: 215.29922485351562
y: 225.337646484375
z: -0.00635414756834507
","x: 221.0601806640625
y: 223.81558227539062
z: -0.0030181664042174816
","x: 220.5963897705078
y: 220.85311889648438
z: -0.006792707368731499
","x: 217.70535278320312
y: 226.33572387695312
z: -0.006489851977676153
","x: 216.5283203125
y: 230.74166870117188
z: -0.005450353026390076
","x: 222.93994140625
y: 228.193603515625
z: -0.0054819006472826
","x: 222.00706481933594
y: 225.29481506347656
z: -0.009335138835012913
","x: 219.1802520751953
y: 230.38943481445312
z: -0.007723249029368162
","x: 218.07032775878906
y: 234.48167419433594
z: -0.0057289740070700645
","x: 224.37925720214844
y: 233.5836181640625
z: -0.008353512734174728
","x: 223.44532775878906
y: 230.24720764160156
z: -0.01060961838811636
","x: 221.08868408203125
y: 233.45826721191406
z: -0.009233232587575912
","x: 220.01425170898438
y: 236.7760467529297
z: -0.007438823580741882
"
13,"x: 185.47955322265625
y: 149.42135620117188
z: -0.2591986060142517
visibility: 0.9999864101409912
","x: 186.92633056640625
y: 142.74644470214844
z: -0.2337052822113037
visibility: 0.9999653100967407
","x: 188.49354553222656
y: 142.75027465820312
z: -0.23363199830055237
visibility: 0.999963104724884
","x: 190.156494140625
y: 142.7374267578125
z: -0.23353394865989685
visibility: 0.9999586939811707
","x: 182.23495483398438
y: 143.32144165039062
z: -0.2548852562904358
visibility: 0.9999522566795349
","x: 180.33734130859375
y: 143.6868133544922
z: -0.2549012303352356
visibility: 0.999940812587738
","x: 178.4159698486328
y: 144.03970336914062
z: -0.2549491822719574
visibility: 0.9999399185180664
","x: 192.4126434326172
y: 147.73336791992188
z: -0.10911019891500473
visibility: 0.9998967051506042
","x: 175.29791259765625
y: 149.8759002685547
z: -0.13786450028419495
visibility: 0.9999150037765503
","x: 188.54559326171875
y: 158.3163604736328
z: -0.2105753868818283
visibility: 0.9999812245368958
","x: 182.8738555908203
y: 159.26499938964844
z: -0.23107299208641052
visibility: 0.9999857544898987
","x: 208.10302734375
y: 203.1404266357422
z: -0.036851175129413605
visibility: 0.999962568283081
","x: 158.41610717773438
y: 201.6097412109375
z: -0.08530595898628235
visibility: 0.9999483227729797
","x: 218.25265502929688
y: 262.632080078125
z: -0.1254091113805771
visibility: 0.9808948636054993
","x: 153.59173583984375
y: 265.39788818359375
z: -0.04849371686577797
visibility: 0.8807815313339233
","x: 221.08505249023438
y: 237.47988891601562
z: -0.41873079538345337
visibility: 0.99546879529953
","x: 151.76480102539062
y: 307.59234619140625
z: -0.16656634211540222
visibility: 0.9718374013900757
","x: 223.51441955566406
y: 231.98866271972656
z: -0.48064571619033813
visibility: 0.9916728734970093
","x: 151.30975341796875
y: 324.36602783203125
z: -0.19822588562965393
visibility: 0.9614909887313843
","x: 221.40948486328125
y: 224.29745483398438
z: -0.49871498346328735
visibility: 0.9917656779289246
","x: 153.5680694580078
y: 321.1021423339844
z: -0.2318197786808014
visibility: 0.9641522765159607
","x: 219.54452514648438
y: 225.51593017578125
z: -0.43325695395469666
visibility: 0.9860986471176147
","x: 154.65188598632812
y: 315.641357421875
z: -0.18109793961048126
visibility: 0.9552675485610962
","x: 196.8016357421875
y: 334.68408203125
z: 0.05327139049768448
visibility: 0.9995487332344055
","x: 169.02915954589844
y: 330.946044921875
z: -0.05311429500579834
visibility: 0.9995958209037781
","x: 190.63833618164062
y: 419.517333984375
z: 0.08704114705324173
visibility: 0.9608138203620911
","x: 166.9070281982422
y: 424.743408203125
z: 0.010890146717429161
visibility: 0.9760895371437073
","x: 182.02215576171875
y: 488.59857177734375
z: 0.4305310845375061
visibility: 0.9530884027481079
","x: 165.8063201904297
y: 509.9625244140625
z: 0.23306433856487274
visibility: 0.8914408683776855
","x: 178.63873291015625
y: 497.40740966796875
z: 0.4603181779384613
visibility: 0.7392479777336121
","x: 166.0216064453125
y: 521.09521484375
z: 0.24669142067432404
visibility: 0.714958667755127
","x: 185.49119567871094
y: 520.63427734375
z: 0.34879472851753235
visibility: 0.9517306685447693
","x: 167.22360229492188
y: 541.2544555664062
z: 0.07900693267583847
visibility: 0.9099368453025818
","x: 150.97994995117188
y: 309.5870666503906
z: 0.0
","x: 154.86639404296875
y: 310.455078125
z: -0.0030020999256521463
","x: 157.09390258789062
y: 315.3268127441406
z: -0.005562323611229658
","x: 158.67820739746094
y: 321.441162109375
z: -0.00742596248164773
","x: 160.10855102539062
y: 325.61431884765625
z: -0.0087381387129426
","x: 150.74472045898438
y: 321.8783264160156
z: -0.008603062480688095
","x: 153.9445343017578
y: 330.7696838378906
z: -0.010790418833494186
","x: 157.17318725585938
y: 332.7142333984375
z: -0.01008318830281496
","x: 159.42440795898438
y: 332.9406433105469
z: -0.009150984697043896
","x: 148.9709930419922
y: 325.87774658203125
z: -0.00796881876885891
","x: 152.2564239501953
y: 335.15966796875
z: -0.009406022727489471
","x: 155.62879943847656
y: 335.1426696777344
z: -0.007354356814175844
","x: 157.37103271484375
y: 333.3701171875
z: -0.005900591611862183
","x: 148.44607543945312
y: 328.4082336425781
z: -0.007168915122747421
","x: 151.62399291992188
y: 336.43408203125
z: -0.008568714372813702
","x: 154.66494750976562
y: 335.77783203125
z: -0.006814775988459587
","x: 156.40342712402344
y: 333.8787841796875
z: -0.00550836930051446
","x: 148.8090362548828
y: 330.16741943359375
z: -0.006562134250998497
","x: 151.44815063476562
y: 336.2936706542969
z: -0.007428488228470087
","x: 153.7777557373047
y: 336.55377197265625
z: -0.006570995785295963
","x: 155.3118438720703
y: 335.11419677734375
z: -0.005713331513106823
","x: 216.3924102783203
y: 245.16757202148438
z: 0.0
","x: 213.41915893554688
y: 238.08172607421875
z: -0.0013225083239376545
","x: 212.77691650390625
y: 229.17279052734375
z: -0.0030548872891813517
","x: 214.40562438964844
y: 223.9938507080078
z: -0.00557411415502429
","x: 216.99900817871094
y: 222.28558349609375
z: -0.007439469452947378
","x: 218.62686157226562
y: 220.83697509765625
z: -0.0012339467648416758
","x: 219.02012634277344
y: 215.5048370361328
z: -0.005244020838290453
","x: 216.6326446533203
y: 220.5056915283203
z: -0.006328711286187172
","x: 215.29922485351562
y: 225.337646484375
z: -0.00635414756834507
","x: 221.0601806640625
y: 223.81558227539062
z: -0.0030181664042174816
","x: 220.5963897705078
y: 220.85311889648438
z: -0.006792707368731499
","x: 217.70535278320312
y: 226.33572387695312
z: -0.006489851977676153
","x: 216.5283203125
y: 230.74166870117188
z: -0.005450353026390076
","x: 222.93994140625
y: 228.193603515625
z: -0.0054819006472826
","x: 222.00706481933594
y: 225.29481506347656
z: -0.009335138835012913
","x: 219.1802520751953
y: 230.38943481445312
z: -0.007723249029368162
","x: 218.07032775878906
y: 234.48167419433594
z: -0.0057289740070700645
","x: 224.37925720214844
y: 233.5836181640625
z: -0.008353512734174728
","x: 223.44532775878906
y: 230.24720764160156
z: -0.01060961838811636
","x: 221.08868408203125
y: 233.45826721191406
z: -0.009233232587575912
","x: 220.01425170898438
y: 236.7760467529297
z: -0.007438823580741882
"
14,"x: 173.1305694580078
y: 155.6996307373047
z: -0.2579009532928467
visibility: 0.9999864101409912
","x: 173.60952758789062
y: 148.28701782226562
z: -0.23641209304332733
visibility: 0.9999648928642273
","x: 175.04354858398438
y: 147.61309814453125
z: -0.23640510439872742
visibility: 0.9999628663063049
","x: 176.28421020507812
y: 146.8826904296875
z: -0.23635724186897278
visibility: 0.9999589323997498
","x: 169.21311950683594
y: 151.2388916015625
z: -0.2384001910686493
visibility: 0.999951958656311
","x: 167.43246459960938
y: 152.58253479003906
z: -0.2383778989315033
visibility: 0.9999390840530396
","x: 165.79583740234375
y: 153.96336364746094
z: -0.23841281235218048
visibility: 0.9999373555183411
","x: 179.17002868652344
y: 152.02281188964844
z: -0.1188712865114212
visibility: 0.9999016523361206
","x: 163.82852172851562
y: 160.74847412109375
z: -0.09554193168878555
visibility: 0.9999037384986877
","x: 177.0788116455078
y: 163.4902801513672
z: -0.21174247562885284
visibility: 0.9999816417694092
","x: 171.70672607421875
y: 166.4076385498047
z: -0.21119451522827148
visibility: 0.9999842047691345
","x: 200.65907287597656
y: 207.13711547851562
z: -0.07805262506008148
visibility: 0.9999643564224243
","x: 156.38323974609375
y: 216.40516662597656
z: 0.0008867825381457806
visibility: 0.999950110912323
","x: 212.2488555908203
y: 261.46942138671875
z: -0.19512169063091278
visibility: 0.9817309379577637
","x: 154.1663360595703
y: 273.66162109375
z: 0.013582052662968636
visibility: 0.8696019649505615
","x: 213.1785125732422
y: 261.420166015625
z: -0.45524293184280396
visibility: 0.994784414768219
","x: 147.30743408203125
y: 310.9560241699219
z: -0.16551513969898224
visibility: 0.9640093445777893
","x: 214.74346923828125
y: 261.4165954589844
z: -0.511748194694519
visibility: 0.9903156757354736
","x: 143.50344848632812
y: 324.4347839355469
z: -0.19956223666667938
visibility: 0.9525763988494873
","x: 212.47842407226562
y: 254.68447875976562
z: -0.5281806588172913
visibility: 0.990528404712677
","x: 143.38694763183594
y: 322.11920166015625
z: -0.23617346584796906
visibility: 0.9560341835021973
","x: 210.9215087890625
y: 253.97560119628906
z: -0.4670942723751068
visibility: 0.9841898083686829
","x: 145.32093811035156
y: 318.0521545410156
z: -0.182478129863739
visibility: 0.9454321265220642
","x: 189.65965270996094
y: 342.74908447265625
z: -0.018802080303430557
visibility: 0.9995661973953247
","x: 164.44386291503906
y: 339.68267822265625
z: 0.018913494423031807
visibility: 0.9996338486671448
","x: 177.57142639160156
y: 425.40899658203125
z: 0.06946347653865814
visibility: 0.9556001424789429
","x: 159.12643432617188
y: 424.97943115234375
z: -0.13763545453548431
visibility: 0.9776932001113892
","x: 173.30807495117188
y: 474.4215087890625
z: 0.43839651346206665
visibility: 0.9272715449333191
","x: 165.9298553466797
y: 509.31658935546875
z: -0.004663444124162197
visibility: 0.9005818963050842
","x: 175.3798828125
y: 470.7427978515625
z: 0.47070375084877014
visibility: 0.7156128287315369
","x: 171.6295623779297
y: 523.1261596679688
z: 0.0014500394463539124
visibility: 0.7309555411338806
","x: 173.58338928222656
y: 501.22088623046875
z: 0.3837994933128357
visibility: 0.9328802824020386
","x: 156.1754913330078
y: 543.6359252929688
z: -0.13715267181396484
visibility: 0.91648930311203
",,,,,,,,,,,,,,,,,,,,,,,,,,,,,,,,,,,,,,,,,,
15,"x: 162.1562042236328
y: 177.33892822265625
z: -0.25513383746147156
visibility: 0.9999872446060181
","x: 164.37557983398438
y: 168.4293975830078
z: -0.23662956058979034
visibility: 0.9999668598175049
","x: 166.03221130371094
y: 167.80259704589844
z: -0.23661363124847412
visibility: 0.9999650120735168
","x: 167.83026123046875
y: 167.17166137695312
z: -0.23653185367584229
visibility: 0.9999614953994751
","x: 159.78314208984375
y: 170.18490600585938
z: -0.23164865374565125
visibility: 0.999954342842102
","x: 158.3861541748047
y: 170.87069702148438
z: -0.23160691559314728
visibility: 0.9999416470527649
","x: 156.9266357421875
y: 171.67115783691406
z: -0.23164153099060059
visibility: 0.9999393820762634
","x: 172.21592712402344
y: 169.4268035888672
z: -0.14650364220142365
visibility: 0.9999102354049683
","x: 157.91552734375
y: 176.04336547851562
z: -0.08432088792324066
visibility: 0.9999068379402161
","x: 166.4654998779297
y: 184.41221618652344
z: -0.21232560276985168
visibility: 0.9999831914901733
","x: 161.08065795898438
y: 187.7772674560547
z: -0.20060670375823975
visibility: 0.999984860420227
","x: 195.96470642089844
y: 217.4172821044922
z: -0.10972360521554947
visibility: 0.9999672174453735
","x: 155.31581115722656
y: 229.9346160888672
z: 0.03803803026676178
visibility: 0.9999526739120483
","x: 213.0040283203125
y: 277.6543273925781
z: -0.2373719960451126
visibility: 0.983380913734436
","x: 157.93492126464844
y: 289.01007080078125
z: 0.11172787100076675
visibility: 0.8564854264259338
","x: 205.62298583984375
y: 267.09967041015625
z: -0.47697123885154724
visibility: 0.9950956106185913
","x: 140.5242462158203
y: 311.60821533203125
z: -0.013295750133693218
visibility: 0.9631026387214661
","x: 204.6067657470703
y: 262.96136474609375
z: -0.5265535116195679
visibility: 0.99061119556427
","x: 134.6078338623047
y: 322.39520263671875
z: -0.035110559314489365
visibility: 0.9511928558349609
","x: 202.1331024169922
y: 254.48365783691406
z: -0.5261960625648499
visibility: 0.990787148475647
","x: 133.8508758544922
y: 318.10589599609375
z: -0.07447536289691925
visibility: 0.9547370672225952
","x: 201.6005401611328
y: 255.00718688964844
z: -0.48043879866600037
visibility: 0.9846027493476868
","x: 135.85040283203125
y: 314.89306640625
z: -0.03281585872173309
visibility: 0.9436826705932617
","x: 186.04893493652344
y: 355.7685852050781
z: -0.04746947064995766
visibility: 0.99958735704422
","x: 161.821533203125
y: 351.42620849609375
z: 0.047452814877033234
visibility: 0.9996649026870728
","x: 175.1670684814453
y: 445.8607482910156
z: -0.042922526597976685
visibility: 0.9564630389213562
","x: 151.20257568359375
y: 431.4677734375
z: -0.11239167302846909
visibility: 0.979297935962677
","x: 174.6971435546875
y: 459.828857421875
z: 0.3643359839916229
visibility: 0.9088472723960876
","x: 165.25413513183594
y: 510.59423828125
z: 0.1111501008272171
visibility: 0.9090994596481323
","x: 177.36204528808594
y: 453.8326721191406
z: 0.40123486518859863
visibility: 0.704094648361206
","x: 171.52761840820312
y: 522.9530639648438
z: 0.12557435035705566
visibility: 0.7527390718460083
","x: 173.37493896484375
y: 498.53460693359375
z: 0.3395508825778961
visibility: 0.915415346622467
","x: 155.22317504882812
y: 544.8598022460938
z: -0.0003093692066613585
visibility: 0.922692596912384
",,,,,,,,,,,,,,,,,,,,,,"x: 202.31019592285156
y: 267.73486328125
z: 0.0
","x: 197.87774658203125
y: 263.3584289550781
z: 3.7715944927185774e-05
","x: 195.30352783203125
y: 257.15673828125
z: -0.0022603890392929316
","x: 194.06031799316406
y: 253.1226348876953
z: -0.005171538796275854
","x: 193.95819091796875
y: 250.336669921875
z: -0.00743127753958106
","x: 199.22250366210938
y: 245.01925659179688
z: -0.003165607340633869
","x: 194.991455078125
y: 246.24420166015625
z: -0.007349812425673008
","x: 194.36204528808594
y: 251.5638885498047
z: -0.00880009587854147
","x: 195.0835418701172
y: 254.80821228027344
z: -0.009331224486231804
","x: 201.3166046142578
y: 246.930419921875
z: -0.006039974745362997
","x: 196.40899658203125
y: 250.3684844970703
z: -0.010122803971171379
","x: 195.92710876464844
y: 255.3115234375
z: -0.009713297709822655
","x: 196.665771484375
y: 257.9849548339844
z: -0.009205334819853306
","x: 203.05690002441406
y: 251.05084228515625
z: -0.009213998913764954
","x: 197.89718627929688
y: 254.3924560546875
z: -0.012631705962121487
","x: 197.39923095703125
y: 258.3928527832031
z: -0.010406333953142166
","x: 198.0887451171875
y: 260.63726806640625
z: -0.008631331846117973
","x: 204.28514099121094
y: 256.64569091796875
z: -0.012592966668307781
","x: 199.9263153076172
y: 258.14678955078125
z: -0.014633085578680038
","x: 199.00770568847656
y: 260.68865966796875
z: -0.013018043711781502
","x: 199.3379364013672
y: 262.3507385253906
z: -0.011555833742022514
"
16,"x: 162.1562042236328
y: 177.33892822265625
z: -0.25513383746147156
visibility: 0.9999872446060181
","x: 164.37557983398438
y: 168.4293975830078
z: -0.23662956058979034
visibility: 0.9999668598175049
","x: 166.03221130371094
y: 167.80259704589844
z: -0.23661363124847412
visibility: 0.9999650120735168
","x: 167.83026123046875
y: 167.17166137695312
z: -0.23653185367584229
visibility: 0.9999614953994751
","x: 159.78314208984375
y: 170.18490600585938
z: -0.23164865374565125
visibility: 0.999954342842102
","x: 158.3861541748047
y: 170.87069702148438
z: -0.23160691559314728
visibility: 0.9999416470527649
","x: 156.9266357421875
y: 171.67115783691406
z: -0.23164153099060059
visibility: 0.9999393820762634
","x: 172.21592712402344
y: 169.4268035888672
z: -0.14650364220142365
visibility: 0.9999102354049683
","x: 157.91552734375
y: 176.04336547851562
z: -0.08432088792324066
visibility: 0.9999068379402161
","x: 166.4654998779297
y: 184.41221618652344
z: -0.21232560276985168
visibility: 0.9999831914901733
","x: 161.08065795898438
y: 187.7772674560547
z: -0.20060670375823975
visibility: 0.999984860420227
","x: 195.96470642089844
y: 217.4172821044922
z: -0.10972360521554947
visibility: 0.9999672174453735
","x: 155.31581115722656
y: 229.9346160888672
z: 0.03803803026676178
visibility: 0.9999526739120483
","x: 213.0040283203125
y: 277.6543273925781
z: -0.2373719960451126
visibility: 0.983380913734436
","x: 157.93492126464844
y: 289.01007080078125
z: 0.11172787100076675
visibility: 0.8564854264259338
","x: 205.62298583984375
y: 267.09967041015625
z: -0.47697123885154724
visibility: 0.9950956106185913
","x: 140.5242462158203
y: 311.60821533203125
z: -0.013295750133693218
visibility: 0.9631026387214661
","x: 204.6067657470703
y: 262.96136474609375
z: -0.5265535116195679
visibility: 0.99061119556427
","x: 134.6078338623047
y: 322.39520263671875
z: -0.035110559314489365
visibility: 0.9511928558349609
","x: 202.1331024169922
y: 254.48365783691406
z: -0.5261960625648499
visibility: 0.990787148475647
","x: 133.8508758544922
y: 318.10589599609375
z: -0.07447536289691925
visibility: 0.9547370672225952
","x: 201.6005401611328
y: 255.00718688964844
z: -0.48043879866600037
visibility: 0.9846027493476868
","x: 135.85040283203125
y: 314.89306640625
z: -0.03281585872173309
visibility: 0.9436826705932617
","x: 186.04893493652344
y: 355.7685852050781
z: -0.04746947064995766
visibility: 0.99958735704422
","x: 161.821533203125
y: 351.42620849609375
z: 0.047452814877033234
visibility: 0.9996649026870728
","x: 175.1670684814453
y: 445.8607482910156
z: -0.042922526597976685
visibility: 0.9564630389213562
","x: 151.20257568359375
y: 431.4677734375
z: -0.11239167302846909
visibility: 0.979297935962677
","x: 174.6971435546875
y: 459.828857421875
z: 0.3643359839916229
visibility: 0.9088472723960876
","x: 165.25413513183594
y: 510.59423828125
z: 0.1111501008272171
visibility: 0.9090994596481323
","x: 177.36204528808594
y: 453.8326721191406
z: 0.40123486518859863
visibility: 0.704094648361206
","x: 171.52761840820312
y: 522.9530639648438
z: 0.12557435035705566
visibility: 0.7527390718460083
","x: 173.37493896484375
y: 498.53460693359375
z: 0.3395508825778961
visibility: 0.915415346622467
","x: 155.22317504882812
y: 544.8598022460938
z: -0.0003093692066613585
visibility: 0.922692596912384
",,,,,,,,,,,,,,,,,,,,,,"x: 202.31019592285156
y: 267.73486328125
z: 0.0
","x: 197.87774658203125
y: 263.3584289550781
z: 3.7715944927185774e-05
","x: 195.30352783203125
y: 257.15673828125
z: -0.0022603890392929316
","x: 194.06031799316406
y: 253.1226348876953
z: -0.005171538796275854
","x: 193.95819091796875
y: 250.336669921875
z: -0.00743127753958106
","x: 199.22250366210938
y: 245.01925659179688
z: -0.003165607340633869
","x: 194.991455078125
y: 246.24420166015625
z: -0.007349812425673008
","x: 194.36204528808594
y: 251.5638885498047
z: -0.00880009587854147
","x: 195.0835418701172
y: 254.80821228027344
z: -0.009331224486231804
","x: 201.3166046142578
y: 246.930419921875
z: -0.006039974745362997
","x: 196.40899658203125
y: 250.3684844970703
z: -0.010122803971171379
","x: 195.92710876464844
y: 255.3115234375
z: -0.009713297709822655
","x: 196.665771484375
y: 257.9849548339844
z: -0.009205334819853306
","x: 203.05690002441406
y: 251.05084228515625
z: -0.009213998913764954
","x: 197.89718627929688
y: 254.3924560546875
z: -0.012631705962121487
","x: 197.39923095703125
y: 258.3928527832031
z: -0.010406333953142166
","x: 198.0887451171875
y: 260.63726806640625
z: -0.008631331846117973
","x: 204.28514099121094
y: 256.64569091796875
z: -0.012592966668307781
","x: 199.9263153076172
y: 258.14678955078125
z: -0.014633085578680038
","x: 199.00770568847656
y: 260.68865966796875
z: -0.013018043711781502
","x: 199.3379364013672
y: 262.3507385253906
z: -0.011555833742022514
"
17,"x: 162.79539489746094
y: 172.78321838378906
z: -0.2775530219078064
visibility: 0.9999874830245972
","x: 165.53079223632812
y: 164.70872497558594
z: -0.26591789722442627
visibility: 0.9999673962593079
","x: 167.1858367919922
y: 164.74143981933594
z: -0.2659772038459778
visibility: 0.9999657869338989
","x: 168.80313110351562
y: 164.87738037109375
z: -0.26599615812301636
visibility: 0.9999621510505676
","x: 161.1259765625
y: 165.3724822998047
z: -0.25221091508865356
visibility: 0.9999553561210632
","x: 159.8410186767578
y: 165.8455047607422
z: -0.2522152066230774
visibility: 0.9999430775642395
","x: 158.49305725097656
y: 166.4521484375
z: -0.25224292278289795
visibility: 0.9999397993087769
","x: 173.22030639648438
y: 168.9263153076172
z: -0.1700911819934845
visibility: 0.9999163150787354
","x: 159.8421173095703
y: 171.76693725585938
z: -0.0952497348189354
visibility: 0.9999040365219116
","x: 166.85574340820312
y: 182.05953979492188
z: -0.24008110165596008
visibility: 0.9999837279319763
","x: 161.7706756591797
y: 182.81826782226562
z: -0.2208758145570755
visibility: 0.9999839663505554
","x: 196.2598419189453
y: 211.7082977294922
z: -0.1349351704120636
visibility: 0.9999682307243347
","x: 155.62124633789062
y: 223.7637176513672
z: 0.007212033029645681
visibility: 0.9999536275863647
","x: 216.2465057373047
y: 262.16326904296875
z: -0.292031466960907
visibility: 0.9848077893257141
","x: 156.63563537597656
y: 284.4851379394531
z: -0.01962665095925331
visibility: 0.8457905650138855
","x: 206.76943969726562
y: 256.35504150390625
z: -0.529124915599823
visibility: 0.9951087832450867
","x: 139.8598175048828
y: 288.73748779296875
z: -0.2714911997318268
visibility: 0.9610641002655029
","x: 206.20216369628906
y: 256.70050048828125
z: -0.5861586928367615
visibility: 0.9902471899986267
","x: 133.4188232421875
y: 294.4799499511719
z: -0.31390929222106934
visibility: 0.9492435455322266
","x: 202.5113067626953
y: 246.54481506347656
z: -0.581197202205658
visibility: 0.9904395937919617
","x: 132.556884765625
y: 290.9530334472656
z: -0.3466392457485199
visibility: 0.9530144333839417
","x: 201.99771118164062
y: 249.8395538330078
z: -0.5317431092262268
visibility: 0.984054446220398
","x: 135.02085876464844
y: 289.24884033203125
z: -0.29173365235328674
visibility: 0.9413745403289795
","x: 191.96177673339844
y: 350.82147216796875
z: -0.05400807410478592
visibility: 0.9996072053909302
","x: 167.37249755859375
y: 346.9903564453125
z: 0.05402367562055588
visibility: 0.9996960759162903
","x: 175.7233123779297
y: 429.2304992675781
z: 0.03214302286505699
visibility: 0.9527754783630371
","x: 159.12374877929688
y: 426.6863708496094
z: -0.04895243048667908
visibility: 0.9762375950813293
","x: 179.3938751220703
y: 446.3123779296875
z: 0.4038284420967102
visibility: 0.8719127774238586
","x: 163.81301879882812
y: 512.9407958984375
z: 0.08379513025283813
visibility: 0.9136912822723389
","x: 181.4777374267578
y: 448.98297119140625
z: 0.4379192292690277
visibility: 0.677188515663147
","x: 169.94668579101562
y: 524.7449340820312
z: 0.08902164548635483
visibility: 0.7571775317192078
","x: 174.3721160888672
y: 484.7596435546875
z: 0.38013985753059387
visibility: 0.8923832178115845
","x: 153.05943298339844
y: 545.0733642578125
z: -0.03352022171020508
visibility: 0.9241359829902649
",,,,,,,,,,,,,,,,,,,,,,,,,,,,,,,,,,,,,,,,,,
18,"x: 168.18408203125
y: 155.7735595703125
z: -0.2853478491306305
visibility: 0.9999878406524658
","x: 170.31907653808594
y: 146.3119659423828
z: -0.2743981182575226
visibility: 0.9999688863754272
","x: 172.27066040039062
y: 145.2999725341797
z: -0.2744518518447876
visibility: 0.9999675750732422
","x: 174.1719207763672
y: 144.23374938964844
z: -0.2745243310928345
visibility: 0.9999638795852661
","x: 165.96287536621094
y: 148.82504272460938
z: -0.26068350672721863
visibility: 0.9999572038650513
","x: 164.5513916015625
y: 149.78469848632812
z: -0.26074323058128357
visibility: 0.9999459385871887
","x: 163.00315856933594
y: 151.13095092773438
z: -0.26074135303497314
visibility: 0.9999420642852783
","x: 178.8560791015625
y: 146.402099609375
z: -0.16781333088874817
visibility: 0.9999238848686218
","x: 163.31146240234375
y: 156.0647430419922
z: -0.10161843150854111
visibility: 0.9999085068702698
","x: 173.09197998046875
y: 163.12857055664062
z: -0.2430688440799713
visibility: 0.9999849200248718
