uscmakers/ReverseChoreography/data/2_power_little_mix.csv
,NOSE,LEFT_EYE_INNER,LEFT_EYE,LEFT_EYE_OUTER,RIGHT_EYE_INNER,RIGHT_EYE,RIGHT_EYE_OUTER,LEFT_EAR,RIGHT_EAR,MOUTH_LEFT,MOUTH_RIGHT,LEFT_SHOULDER,RIGHT_SHOULDER,LEFT_ELBOW,RIGHT_ELBOW,LEFT_WRIST,RIGHT_WRIST,LEFT_PINKY,RIGHT_PINKY,LEFT_INDEX,RIGHT_INDEX,LEFT_THUMB,RIGHT_THUMB,LEFT_HIP,RIGHT_HIP,LEFT_KNEE,RIGHT_KNEE,LEFT_ANKLE,RIGHT_ANKLE,LEFT_HEEL,RIGHT_HEEL,LEFT_FOOT_INDEX,RIGHT_FOOT_INDEX,WRIST2,THUMB_CPC2,THUMB_MCP2,THUMB_IP2,THUMB_TIP2,INDEX_FINGER_MCP2,INDEX_FINGER_PIP2,INDEX_FINGER_DIP2,INDEX_FINGER_TIP2,MIDDLE_FINGER_MCP2,MIDDLE_FINGER_PIP2,MIDDLE_FINGER_DIP2,MIDDLE_FINGER_TIP2,RING_FINGER_PIP2,RING_FINGER_DIP2,RING_FINGER_TIP2,RING_FINGER_MCP2,PINKY_MCP2,PINKY_PIP2,PINKY_DIP2,PINKY_TIP2,WRIST,THUMB_CPC,THUMB_MCP,THUMB_IP,THUMB_TIP,INDEX_FINGER_MCP,INDEX_FINGER_PIP,INDEX_FINGER_DIP,INDEX_FINGER_TIP,MIDDLE_FINGER_MCP,MIDDLE_FINGER_PIP,MIDDLE_FINGER_DIP,MIDDLE_FINGER_TIP,RING_FINGER_PIP,RING_FINGER_DIP,RING_FINGER_TIP,RING_FINGER_MCP,PINKY_MCP,PINKY_PIP,PINKY_DIP,PINKY_TIP
0,"x: 239.81967163085938
y: 175.92123413085938
z: -0.2696630358695984
visibility: 0.9999935626983643
","x: 242.90513610839844
y: 169.56753540039062
z: -0.24533505737781525
visibility: 0.999984860420227
","x: 244.11981201171875
y: 170.25277709960938
z: -0.24536578357219696
visibility: 0.9999778270721436
","x: 245.07028198242188
y: 170.9085693359375
z: -0.24541373550891876
visibility: 0.9999758005142212
","x: 238.16439819335938
y: 166.90798950195312
z: -0.25865867733955383
visibility: 0.9999896287918091
","x: 236.13148498535156
y: 165.62445068359375
z: -0.2586420178413391
visibility: 0.9999860525131226
","x: 234.2591552734375
y: 164.13954162597656
z: -0.25868359208106995
visibility: 0.9999862909317017
","x: 243.70828247070312
y: 173.2193145751953
z: -0.09954499453306198
visibility: 0.9999505281448364
","x: 228.10569763183594
y: 163.18377685546875
z: -0.16405732929706573
visibility: 0.9999918937683105
","x: 239.5345458984375
y: 184.5098876953125
z: -0.2130577564239502
visibility: 0.9999918937683105
","x: 234.28244018554688
y: 181.85357666015625
z: -0.2321462631225586
visibility: 0.9999973773956299
","x: 249.98265075683594
y: 206.28399658203125
z: -0.03037906065583229
visibility: 0.9999797344207764
","x: 202.98377990722656
y: 210.28414916992188
z: -0.057653963565826416
visibility: 0.999992847442627
","x: 263.4147033691406
y: 262.3865051269531
z: -0.12489883601665497
visibility: 0.9914990067481995
","x: 185.85089111328125
y: 260.9356994628906
z: -0.013680067844688892
visibility: 0.9937129616737366
","x: 237.29458618164062
y: 235.09727478027344
z: -0.3871607482433319
visibility: 0.9959332346916199
","x: 196.6849822998047
y: 315.5233154296875
z: -0.08319256454706192
visibility: 0.9804721474647522
","x: 229.7509002685547
y: 228.92739868164062
z: -0.4450930655002594
visibility: 0.9899285435676575
","x: 200.42149353027344
y: 332.5
z: -0.10641007125377655
visibility: 0.9494785666465759
","x: 228.95787048339844
y: 222.4891815185547
z: -0.4458218514919281
visibility: 0.9897840619087219
","x: 204.04324340820312
y: 329.822021484375
z: -0.12937529385089874
visibility: 0.9505112767219543
","x: 230.5214080810547
y: 223.71160888671875
z: -0.39332374930381775
visibility: 0.9808128476142883
","x: 203.90879821777344
y: 325.12310791015625
z: -0.09140568226575851
visibility: 0.9288244843482971
","x: 252.48167419433594
y: 336.751953125
z: 0.02127988450229168
visibility: 0.9999198913574219
","x: 225.74139404296875
y: 345.0096130371094
z: -0.021372303366661072
visibility: 0.9999349117279053
","x: 275.4961853027344
y: 419.0855712890625
z: -0.07402097433805466
visibility: 0.9985640645027161
","x: 221.54747009277344
y: 438.85577392578125
z: -0.0752439871430397
visibility: 0.9976943135261536
","x: 268.200927734375
y: 500.1883239746094
z: 0.15643338859081268
visibility: 0.9964918494224548
","x: 219.56423950195312
y: 514.8192138671875
z: 0.12895417213439941
visibility: 0.9979812502861023
","x: 262.6390686035156
y: 513.2196044921875
z: 0.17403435707092285
visibility: 0.979488730430603
","x: 223.0872802734375
y: 523.435302734375
z: 0.14105622470378876
visibility: 0.9576174020767212
","x: 287.2260437011719
y: 525.8777465820312
z: 0.05417848750948906
visibility: 0.9940932393074036
","x: 214.78663635253906
y: 547.192138671875
z: 0.00413898378610611
visibility: 0.9946349859237671
","x: 234.6042938232422
y: 230.72491455078125
z: 0.0
","x: 228.01858520507812
y: 231.93341064453125
z: 0.003358514979481697
","x: 223.827880859375
y: 229.725341796875
z: 0.003132717916741967
","x: 220.4155731201172
y: 228.12376403808594
z: 0.0017925194697454572
","x: 217.83193969726562
y: 226.81539916992188
z: 0.0011474009370431304
","x: 225.95896911621094
y: 214.96995544433594
z: 0.0019085226813331246
","x: 219.6615753173828
y: 217.77024841308594
z: 0.0006967548397369683
","x: 218.75521850585938
y: 222.8836669921875
z: 0.000997857190668583
","x: 219.21246337890625
y: 225.94708251953125
z: 0.001410577679052949
","x: 226.74240112304688
y: 214.69198608398438
z: -0.0014337640022858977
","x: 219.4408721923828
y: 218.50833129882812
z: -0.0028087294194847345
","x: 218.97781372070312
y: 224.13429260253906
z: -0.001962965587154031
","x: 220.0985565185547
y: 227.241943359375
z: -0.001081734080798924
","x: 227.07286071777344
y: 216.1641845703125
z: -0.0047264802269637585
","x: 220.2110595703125
y: 219.71932983398438
z: -0.005417936015874147
","x: 219.7715301513672
y: 224.8707733154297
z: -0.003710486926138401
","x: 220.86985778808594
y: 227.80943298339844
z: -0.0024785443674772978
","x: 227.00958251953125
y: 219.17520141601562
z: -0.007942689582705498
","x: 221.7512664794922
y: 221.5999755859375
z: -0.0077692680060863495
","x: 220.7006378173828
y: 225.27244567871094
z: -0.006346904207020998
","x: 221.01321411132812
y: 227.74966430664062
z: -0.005306750535964966
",,,,,,,,,,,,,,,,,,,,,
1,"x: 239.81967163085938
y: 175.92123413085938
z: -0.2696630358695984
visibility: 0.9999935626983643
","x: 242.90513610839844
y: 169.56753540039062
z: -0.24533505737781525
visibility: 0.999984860420227
","x: 244.11981201171875
y: 170.25277709960938
z: -0.24536578357219696
visibility: 0.9999778270721436
","x: 245.07028198242188
y: 170.9085693359375
z: -0.24541373550891876
visibility: 0.9999758005142212
","x: 238.16439819335938
y: 166.90798950195312
z: -0.25865867733955383
visibility: 0.9999896287918091
","x: 236.13148498535156
y: 165.62445068359375
z: -0.2586420178413391
visibility: 0.9999860525131226
","x: 234.2591552734375
y: 164.13954162597656
z: -0.25868359208106995
visibility: 0.9999862909317017
","x: 243.70828247070312
y: 173.2193145751953
z: -0.09954499453306198
visibility: 0.9999505281448364
","x: 228.10569763183594
y: 163.18377685546875
z: -0.16405732929706573
visibility: 0.9999918937683105
","x: 239.5345458984375
y: 184.5098876953125
z: -0.2130577564239502
visibility: 0.9999918937683105
","x: 234.28244018554688
y: 181.85357666015625
z: -0.2321462631225586
visibility: 0.9999973773956299
","x: 249.98265075683594
y: 206.28399658203125
z: -0.03037906065583229
visibility: 0.9999797344207764
","x: 202.98377990722656
y: 210.28414916992188
z: -0.057653963565826416
visibility: 0.999992847442627
","x: 263.4147033691406
y: 262.3865051269531
z: -0.12489883601665497
visibility: 0.9914990067481995
","x: 185.85089111328125
y: 260.9356994628906
z: -0.013680067844688892
visibility: 0.9937129616737366
","x: 237.29458618164062
y: 235.09727478027344
z: -0.3871607482433319
visibility: 0.9959332346916199
","x: 196.6849822998047
y: 315.5233154296875
z: -0.08319256454706192
visibility: 0.9804721474647522
","x: 229.7509002685547
y: 228.92739868164062
z: -0.4450930655002594
visibility: 0.9899285435676575
","x: 200.42149353027344
y: 332.5
z: -0.10641007125377655
visibility: 0.9494785666465759
","x: 228.95787048339844
y: 222.4891815185547
z: -0.4458218514919281
visibility: 0.9897840619087219
","x: 204.04324340820312
y: 329.822021484375
z: -0.12937529385089874
visibility: 0.9505112767219543
","x: 230.5214080810547
y: 223.71160888671875
z: -0.39332374930381775
visibility: 0.9808128476142883
","x: 203.90879821777344
y: 325.12310791015625
z: -0.09140568226575851
visibility: 0.9288244843482971
","x: 252.48167419433594
y: 336.751953125
z: 0.02127988450229168
visibility: 0.9999198913574219
","x: 225.74139404296875
y: 345.0096130371094
z: -0.021372303366661072
visibility: 0.9999349117279053
","x: 275.4961853027344
y: 419.0855712890625
z: -0.07402097433805466
visibility: 0.9985640645027161
","x: 221.54747009277344
y: 438.85577392578125
z: -0.0752439871430397
visibility: 0.9976943135261536
","x: 268.200927734375
y: 500.1883239746094
z: 0.15643338859081268
visibility: 0.9964918494224548
","x: 219.56423950195312
y: 514.8192138671875
z: 0.12895417213439941
visibility: 0.9979812502861023
","x: 262.6390686035156
y: 513.2196044921875
z: 0.17403435707092285
visibility: 0.979488730430603
","x: 223.0872802734375
y: 523.435302734375
z: 0.14105622470378876
visibility: 0.9576174020767212
","x: 287.2260437011719
y: 525.8777465820312
z: 0.05417848750948906
visibility: 0.9940932393074036
","x: 214.78663635253906
y: 547.192138671875
z: 0.00413898378610611
visibility: 0.9946349859237671
","x: 234.6042938232422
y: 230.72491455078125
z: 0.0
","x: 228.01858520507812
y: 231.93341064453125
z: 0.003358514979481697
","x: 223.827880859375
y: 229.725341796875
z: 0.003132717916741967
","x: 220.4155731201172
y: 228.12376403808594
z: 0.0017925194697454572
","x: 217.83193969726562
y: 226.81539916992188
z: 0.0011474009370431304
","x: 225.95896911621094
y: 214.96995544433594
z: 0.0019085226813331246
","x: 219.6615753173828
y: 217.77024841308594
z: 0.0006967548397369683
","x: 218.75521850585938
y: 222.8836669921875
z: 0.000997857190668583
","x: 219.21246337890625
y: 225.94708251953125
z: 0.001410577679052949
","x: 226.74240112304688
y: 214.69198608398438
z: -0.0014337640022858977
","x: 219.4408721923828
y: 218.50833129882812
z: -0.0028087294194847345
","x: 218.97781372070312
y: 224.13429260253906
z: -0.001962965587154031
","x: 220.0985565185547
y: 227.241943359375
z: -0.001081734080798924
","x: 227.07286071777344
y: 216.1641845703125
z: -0.0047264802269637585
","x: 220.2110595703125
y: 219.71932983398438
z: -0.005417936015874147
","x: 219.7715301513672
y: 224.8707733154297
z: -0.003710486926138401
","x: 220.86985778808594
y: 227.80943298339844
z: -0.0024785443674772978
","x: 227.00958251953125
y: 219.17520141601562
z: -0.007942689582705498
","x: 221.7512664794922
y: 221.5999755859375
z: -0.0077692680060863495
","x: 220.7006378173828
y: 225.27244567871094
z: -0.006346904207020998
","x: 221.01321411132812
y: 227.74966430664062
z: -0.005306750535964966
",,,,,,,,,,,,,,,,,,,,,
2,"x: 237.90646362304688
y: 180.99566650390625
z: -0.2705463469028473
visibility: 0.9999828934669495
","x: 240.24644470214844
y: 172.61972045898438
z: -0.2476806938648224
visibility: 0.999954104423523
","x: 241.4417266845703
y: 172.84812927246094
z: -0.24769484996795654
visibility: 0.9999313950538635
","x: 242.48828125
y: 173.0104217529297
z: -0.24770328402519226
visibility: 0.9999324083328247
","x: 235.60789489746094
y: 170.6157684326172
z: -0.2611730992794037
visibility: 0.9999664425849915
","x: 233.77706909179688
y: 169.40478515625
z: -0.2611575126647949
visibility: 0.9999582767486572
","x: 231.88870239257812
y: 168.156982421875
z: -0.26118770241737366
visibility: 0.9999597072601318
","x: 241.47393798828125
y: 173.8447265625
z: -0.1019696444272995
visibility: 0.9998517036437988
","x: 227.0080108642578
y: 167.73092651367188
z: -0.16703546047210693
visibility: 0.9999583959579468
","x: 237.95375061035156
y: 188.89564514160156
z: -0.2136305868625641
visibility: 0.9999751448631287
","x: 233.02207946777344
y: 186.66221618652344
z: -0.23260290920734406
visibility: 0.9999887943267822
","x: 248.80079650878906
y: 208.29104614257812
z: 0.005062463693320751
visibility: 0.9999718070030212
","x: 205.87791442871094
y: 209.083740234375
z: -0.12394551932811737
visibility: 0.9999819993972778
","x: 269.15167236328125
y: 249.75767517089844
z: 0.060374051332473755
visibility: 0.9905542135238647
","x: 201.49655151367188
y: 265.27685546875
z: -0.20041795074939728
visibility: 0.9936501979827881
","x: 284.0881042480469
y: 284.67584228515625
z: -0.06599639356136322
visibility: 0.9947584867477417
","x: 233.21690368652344
y: 293.380126953125
z: -0.3367763161659241
visibility: 0.9811921119689941
","x: 288.4765625
y: 299.637451171875
z: -0.09920046478509903
visibility: 0.9873926639556885
","x: 241.09022521972656
y: 303.3331604003906
z: -0.3781810402870178
visibility: 0.9519108533859253
","x: 284.5090026855469
y: 300.8785400390625
z: -0.13129231333732605
visibility: 0.9874246716499329
","x: 243.99656677246094
y: 296.58294677734375
z: -0.39386990666389465
visibility: 0.9527595043182373
","x: 282.7345275878906
y: 296.97076416015625
z: -0.08188100904226303
visibility: 0.9787818789482117
","x: 242.58070373535156
y: 292.876220703125
z: -0.343448281288147
visibility: 0.9318899512290955
","x: 247.39906311035156
y: 336.96142578125
z: 0.04307444393634796
visibility: 0.9998915195465088
","x: 222.17205810546875
y: 343.919189453125
z: -0.043050702661275864
visibility: 0.9998878240585327
","x: 268.2640686035156
y: 416.184326171875
z: 0.0050795977003872395
visibility: 0.9978088140487671
","x: 221.77035522460938
y: 438.0611877441406
z: -0.03860623389482498
visibility: 0.9973989129066467
","x: 256.0351867675781
y: 497.3769836425781
z: 0.19704094529151917
visibility: 0.9954165816307068
","x: 227.8128204345703
y: 513.484130859375
z: 0.14728689193725586
visibility: 0.9975902438163757
","x: 248.124267578125
y: 510.8000183105469
z: 0.20959976315498352
visibility: 0.978335976600647
","x: 230.44044494628906
y: 522.1784057617188
z: 0.15886352956295013
visibility: 0.9542978405952454
","x: 275.8275146484375
y: 522.0238647460938
z: 0.1050758957862854
visibility: 0.9929333329200745
","x: 225.9376983642578
y: 544.2200317382812
z: 0.02947036549448967
visibility: 0.9940224885940552
","x: 287.0585632324219
y: 292.8955078125
z: 0.0
","x: 283.39990234375
y: 299.0443420410156
z: -0.0024187795352190733
","x: 281.8428649902344
y: 307.10186767578125
z: -0.005857476498931646
","x: 281.78948974609375
y: 314.5196838378906
z: -0.008312000893056393
","x: 282.66064453125
y: 320.49859619140625
z: -0.010159936733543873
","x: 285.4217224121094
y: 303.266845703125
z: -0.017218301072716713
","x: 285.22369384765625
y: 318.8021240234375
z: -0.020785076543688774
","x: 284.2811584472656
y: 316.688720703125
z: -0.018369460478425026
","x: 283.9130859375
y: 311.86627197265625
z: -0.01580222323536873
","x: 288.13262939453125
y: 303.5188903808594
z: -0.01725124754011631
","x: 287.7115478515625
y: 319.0639343261719
z: -0.020255837589502335
","x: 286.8388671875
y: 316.74542236328125
z: -0.01561829075217247
","x: 286.8096008300781
y: 311.96661376953125
z: -0.011785953305661678
","x: 290.4280700683594
y: 304.634033203125
z: -0.016563495621085167
","x: 289.99261474609375
y: 318.609130859375
z: -0.01862061582505703
","x: 289.0276184082031
y: 316.7879943847656
z: -0.013967002741992474
","x: 288.8551940917969
y: 312.49383544921875
z: -0.010667197406291962
","x: 292.16064453125
y: 306.2003173828125
z: -0.015772581100463867
","x: 291.66119384765625
y: 317.4168395996094
z: -0.01748870126903057
","x: 290.8058166503906
y: 316.26483154296875
z: -0.015190168283879757
","x: 290.5672302246094
y: 312.53436279296875
z: -0.013042392209172249
","x: 234.84054565429688
y: 290.5015869140625
z: 0.0
","x: 240.18960571289062
y: 284.5355224609375
z: 0.0009697171044535935
","x: 245.90463256835938
y: 282.34320068359375
z: 0.0003662211529444903
","x: 249.95655822753906
y: 283.2988586425781
z: -0.0008716668235138059
","x: 251.47315979003906
y: 284.964111328125
z: -0.0013526825932785869
","x: 248.7129364013672
y: 295.3353576660156
z: -0.0006074524135328829
","x: 254.3491973876953
y: 301.3923645019531
z: -0.00191160396207124
","x: 254.0160369873047
y: 298.6976623535156
z: -0.000996058457531035
","x: 252.1951141357422
y: 296.29290771484375
z: 0.00015294435434043407
","x: 247.1981658935547
y: 300.9783630371094
z: -0.0022748627234250307
","x: 251.78309631347656
y: 305.119873046875
z: -0.00299458228982985
","x: 250.8388671875
y: 301.9278564453125
z: -0.001187856076285243
","x: 248.77696228027344
y: 300.0125427246094
z: 0.000413157744333148
","x: 245.31617736816406
y: 305.730712890625
z: -0.00399066461250186
","x: 249.54208374023438
y: 309.4945068359375
z: -0.004422354511916637
","x: 248.66873168945312
y: 306.76885986328125
z: -0.002108112908899784
","x: 246.8919219970703
y: 304.90625
z: -0.00035769405076280236
","x: 243.35586547851562
y: 309.474609375
z: -0.005874561611562967
","x: 247.2604217529297
y: 313.2024841308594
z: -0.005796323996037245
","x: 246.7869415283203
y: 311.2614440917969
z: -0.004065329674631357
","x: 245.22190856933594
y: 309.6347351074219
z: -0.002464108867570758
"
3,"x: 237.90646362304688
y: 180.99566650390625
z: -0.2705463469028473
visibility: 0.9999828934669495
","x: 240.24644470214844
y: 172.61972045898438
z: -0.2476806938648224
visibility: 0.999954104423523
","x: 241.4417266845703
y: 172.84812927246094
z: -0.24769484996795654
visibility: 0.9999313950538635
","x: 242.48828125
y: 173.0104217529297
z: -0.24770328402519226
visibility: 0.9999324083328247
","x: 235.60789489746094
y: 170.6157684326172
z: -0.2611730992794037
visibility: 0.9999664425849915
","x: 233.77706909179688
y: 169.40478515625
z: -0.2611575126647949
visibility: 0.9999582767486572
","x: 231.88870239257812
y: 168.156982421875
z: -0.26118770241737366
visibility: 0.9999597072601318
","x: 241.47393798828125
y: 173.8447265625
z: -0.1019696444272995
visibility: 0.9998517036437988
","x: 227.0080108642578
y: 167.73092651367188
z: -0.16703546047210693
visibility: 0.9999583959579468
","x: 237.95375061035156
y: 188.89564514160156
z: -0.2136305868625641
visibility: 0.9999751448631287
","x: 233.02207946777344
y: 186.66221618652344
z: -0.23260290920734406
visibility: 0.9999887943267822
","x: 248.80079650878906
y: 208.29104614257812
z: 0.005062463693320751
visibility: 0.9999718070030212
","x: 205.87791442871094
y: 209.083740234375
z: -0.12394551932811737
visibility: 0.9999819993972778
","x: 269.15167236328125
y: 249.75767517089844
z: 0.060374051332473755
visibility: 0.9905542135238647
","x: 201.49655151367188
y: 265.27685546875
z: -0.20041795074939728
visibility: 0.9936501979827881
","x: 284.0881042480469
y: 284.67584228515625
z: -0.06599639356136322
visibility: 0.9947584867477417
","x: 233.21690368652344
y: 293.380126953125
z: -0.3367763161659241
visibility: 0.9811921119689941
","x: 288.4765625
y: 299.637451171875
z: -0.09920046478509903
visibility: 0.9873926639556885
","x: 241.09022521972656
y: 303.3331604003906
z: -0.3781810402870178
visibility: 0.9519108533859253
","x: 284.5090026855469
y: 300.8785400390625
z: -0.13129231333732605
visibility: 0.9874246716499329
","x: 243.99656677246094
y: 296.58294677734375
z: -0.39386990666389465
visibility: 0.9527595043182373
","x: 282.7345275878906
y: 296.97076416015625
z: -0.08188100904226303
visibility: 0.9787818789482117
","x: 242.58070373535156
y: 292.876220703125
z: -0.343448281288147
visibility: 0.9318899512290955
","x: 247.39906311035156
y: 336.96142578125
z: 0.04307444393634796
visibility: 0.9998915195465088
","x: 222.17205810546875
y: 343.919189453125
z: -0.043050702661275864
visibility: 0.9998878240585327
","x: 268.2640686035156
y: 416.184326171875
z: 0.0050795977003872395
visibility: 0.9978088140487671
","x: 221.77035522460938
y: 438.0611877441406
z: -0.03860623389482498
visibility: 0.9973989129066467
","x: 256.0351867675781
y: 497.3769836425781
z: 0.19704094529151917
visibility: 0.9954165816307068
","x: 227.8128204345703
y: 513.484130859375
z: 0.14728689193725586
visibility: 0.9975902438163757
","x: 248.124267578125
y: 510.8000183105469
z: 0.20959976315498352
visibility: 0.978335976600647
","x: 230.44044494628906
y: 522.1784057617188
z: 0.15886352956295013
visibility: 0.9542978405952454
","x: 275.8275146484375
y: 522.0238647460938
z: 0.1050758957862854
visibility: 0.9929333329200745
","x: 225.9376983642578
y: 544.2200317382812
z: 0.02947036549448967
visibility: 0.9940224885940552
","x: 287.0585632324219
y: 292.8955078125
z: 0.0
","x: 283.39990234375
y: 299.0443420410156
z: -0.0024187795352190733
","x: 281.8428649902344
y: 307.10186767578125
z: -0.005857476498931646
","x: 281.78948974609375
y: 314.5196838378906
z: -0.008312000893056393
","x: 282.66064453125
y: 320.49859619140625
z: -0.010159936733543873
","x: 285.4217224121094
y: 303.266845703125
z: -0.017218301072716713
","x: 285.22369384765625
y: 318.8021240234375
z: -0.020785076543688774
","x: 284.2811584472656
y: 316.688720703125
z: -0.018369460478425026
","x: 283.9130859375
y: 311.86627197265625
z: -0.01580222323536873
","x: 288.13262939453125
y: 303.5188903808594
z: -0.01725124754011631
","x: 287.7115478515625
y: 319.0639343261719
z: -0.020255837589502335
","x: 286.8388671875
y: 316.74542236328125
z: -0.01561829075217247
","x: 286.8096008300781
y: 311.96661376953125
z: -0.011785953305661678
","x: 290.4280700683594
y: 304.634033203125
z: -0.016563495621085167
","x: 289.99261474609375
y: 318.609130859375
z: -0.01862061582505703
","x: 289.0276184082031
y: 316.7879943847656
z: -0.013967002741992474
","x: 288.8551940917969
y: 312.49383544921875
z: -0.010667197406291962
","x: 292.16064453125
y: 306.2003173828125
z: -0.015772581100463867
","x: 291.66119384765625
y: 317.4168395996094
z: -0.01748870126903057
","x: 290.8058166503906
y: 316.26483154296875
z: -0.015190168283879757
","x: 290.5672302246094
y: 312.53436279296875
z: -0.013042392209172249
","x: 234.84054565429688
y: 290.5015869140625
z: 0.0
","x: 240.18960571289062
y: 284.5355224609375
z: 0.0009697171044535935
","x: 245.90463256835938
y: 282.34320068359375
z: 0.0003662211529444903
","x: 249.95655822753906
y: 283.2988586425781
z: -0.0008716668235138059
","x: 251.47315979003906
y: 284.964111328125
z: -0.0013526825932785869
","x: 248.7129364013672
y: 295.3353576660156
z: -0.0006074524135328829
","x: 254.3491973876953
y: 301.3923645019531
z: -0.00191160396207124
","x: 254.0160369873047
y: 298.6976623535156
z: -0.000996058457531035
","x: 252.1951141357422
y: 296.29290771484375
z: 0.00015294435434043407
","x: 247.1981658935547
y: 300.9783630371094
z: -0.0022748627234250307
","x: 251.78309631347656
y: 305.119873046875
z: -0.00299458228982985
","x: 250.8388671875
y: 301.9278564453125
z: -0.001187856076285243
","x: 248.77696228027344
y: 300.0125427246094
z: 0.000413157744333148
","x: 245.31617736816406
y: 305.730712890625
z: -0.00399066461250186
","x: 249.54208374023438
y: 309.4945068359375
z: -0.004422354511916637
","x: 248.66873168945312
y: 306.76885986328125
z: -0.002108112908899784
","x: 246.8919219970703
y: 304.90625
z: -0.00035769405076280236
","x: 243.35586547851562
y: 309.474609375
z: -0.005874561611562967
","x: 247.2604217529297
y: 313.2024841308594
z: -0.005796323996037245
","x: 246.7869415283203
y: 311.2614440917969
z: -0.004065329674631357
","x: 245.22190856933594
y: 309.6347351074219
z: -0.002464108867570758
"
4,"x: 237.90646362304688
y: 180.99566650390625
z: -0.2705463469028473
visibility: 0.9999828934669495
","x: 240.24644470214844
y: 172.61972045898438
z: -0.2476806938648224
visibility: 0.999954104423523
","x: 241.4417266845703
y: 172.84812927246094
z: -0.24769484996795654
visibility: 0.9999313950538635
","x: 242.48828125
y: 173.0104217529297
z: -0.24770328402519226
visibility: 0.9999324083328247
","x: 235.60789489746094
y: 170.6157684326172
z: -0.2611730992794037
visibility: 0.9999664425849915
","x: 233.77706909179688
y: 169.40478515625
z: -0.2611575126647949
visibility: 0.9999582767486572
","x: 231.88870239257812
y: 168.156982421875
z: -0.26118770241737366
visibility: 0.9999597072601318
","x: 241.47393798828125
y: 173.8447265625
z: -0.1019696444272995
visibility: 0.9998517036437988
","x: 227.0080108642578
y: 167.73092651367188
z: -0.16703546047210693
visibility: 0.9999583959579468
","x: 237.95375061035156
y: 188.89564514160156
z: -0.2136305868625641
visibility: 0.9999751448631287
","x: 233.02207946777344
y: 186.66221618652344
z: -0.23260290920734406
visibility: 0.9999887943267822
","x: 248.80079650878906
y: 208.29104614257812
z: 0.005062463693320751
visibility: 0.9999718070030212
","x: 205.87791442871094
y: 209.083740234375
z: -0.12394551932811737
visibility: 0.9999819993972778
","x: 269.15167236328125
y: 249.75767517089844
z: 0.060374051332473755
visibility: 0.9905542135238647
","x: 201.49655151367188
y: 265.27685546875
z: -0.20041795074939728
visibility: 0.9936501979827881
","x: 284.0881042480469
y: 284.67584228515625
z: -0.06599639356136322
visibility: 0.9947584867477417
","x: 233.21690368652344
y: 293.380126953125
z: -0.3367763161659241
visibility: 0.9811921119689941
","x: 288.4765625
y: 299.637451171875
z: -0.09920046478509903
visibility: 0.9873926639556885
","x: 241.09022521972656
y: 303.3331604003906
z: -0.3781810402870178
visibility: 0.9519108533859253
","x: 284.5090026855469
y: 300.8785400390625
z: -0.13129231333732605
visibility: 0.9874246716499329
","x: 243.99656677246094
y: 296.58294677734375
z: -0.39386990666389465
visibility: 0.9527595043182373
","x: 282.7345275878906
y: 296.97076416015625
z: -0.08188100904226303
visibility: 0.9787818789482117
","x: 242.58070373535156
y: 292.876220703125
z: -0.343448281288147
visibility: 0.9318899512290955
","x: 247.39906311035156
y: 336.96142578125
z: 0.04307444393634796
visibility: 0.9998915195465088
","x: 222.17205810546875
y: 343.919189453125
z: -0.043050702661275864
visibility: 0.9998878240585327
","x: 268.2640686035156
y: 416.184326171875
z: 0.0050795977003872395
visibility: 0.9978088140487671
","x: 221.77035522460938
y: 438.0611877441406
z: -0.03860623389482498
visibility: 0.9973989129066467
","x: 256.0351867675781
y: 497.3769836425781
z: 0.19704094529151917
visibility: 0.9954165816307068
","x: 227.8128204345703
y: 513.484130859375
z: 0.14728689193725586
visibility: 0.9975902438163757
","x: 248.124267578125
y: 510.8000183105469
z: 0.20959976315498352
visibility: 0.978335976600647
","x: 230.44044494628906
y: 522.1784057617188
z: 0.15886352956295013
visibility: 0.9542978405952454
","x: 275.8275146484375
y: 522.0238647460938
z: 0.1050758957862854
visibility: 0.9929333329200745
","x: 225.9376983642578
y: 544.2200317382812
z: 0.02947036549448967
visibility: 0.9940224885940552
","x: 287.0585632324219
y: 292.8955078125
z: 0.0
","x: 283.39990234375
y: 299.0443420410156
z: -0.0024187795352190733
","x: 281.8428649902344
y: 307.10186767578125
z: -0.005857476498931646
","x: 281.78948974609375
y: 314.5196838378906
z: -0.008312000893056393
","x: 282.66064453125
y: 320.49859619140625
z: -0.010159936733543873
","x: 285.4217224121094
y: 303.266845703125
z: -0.017218301072716713
","x: 285.22369384765625
y: 318.8021240234375
z: -0.020785076543688774
","x: 284.2811584472656
y: 316.688720703125
z: -0.018369460478425026
","x: 283.9130859375
y: 311.86627197265625
z: -0.01580222323536873
","x: 288.13262939453125
y: 303.5188903808594
z: -0.01725124754011631
","x: 287.7115478515625
y: 319.0639343261719
z: -0.020255837589502335
","x: 286.8388671875
y: 316.74542236328125
z: -0.01561829075217247
","x: 286.8096008300781
y: 311.96661376953125
z: -0.011785953305661678
","x: 290.4280700683594
y: 304.634033203125
z: -0.016563495621085167
","x: 289.99261474609375
y: 318.609130859375
z: -0.01862061582505703
","x: 289.0276184082031
y: 316.7879943847656
z: -0.013967002741992474
","x: 288.8551940917969
y: 312.49383544921875
z: -0.010667197406291962
","x: 292.16064453125
y: 306.2003173828125
z: -0.015772581100463867
","x: 291.66119384765625
y: 317.4168395996094
z: -0.01748870126903057
","x: 290.8058166503906
y: 316.26483154296875
z: -0.015190168283879757
","x: 290.5672302246094
y: 312.53436279296875
z: -0.013042392209172249
","x: 234.84054565429688
y: 290.5015869140625
z: 0.0
","x: 240.18960571289062
y: 284.5355224609375
z: 0.0009697171044535935
","x: 245.90463256835938
y: 282.34320068359375
z: 0.0003662211529444903
","x: 249.95655822753906
y: 283.2988586425781
z: -0.0008716668235138059
","x: 251.47315979003906
y: 284.964111328125
z: -0.0013526825932785869
","x: 248.7129364013672
y: 295.3353576660156
z: -0.0006074524135328829
","x: 254.3491973876953
y: 301.3923645019531
z: -0.00191160396207124
","x: 254.0160369873047
y: 298.6976623535156
z: -0.000996058457531035
","x: 252.1951141357422
y: 296.29290771484375
z: 0.00015294435434043407
","x: 247.1981658935547
y: 300.9783630371094
z: -0.0022748627234250307
","x: 251.78309631347656
y: 305.119873046875
z: -0.00299458228982985
","x: 250.8388671875
y: 301.9278564453125
z: -0.001187856076285243
","x: 248.77696228027344
y: 300.0125427246094
z: 0.000413157744333148
","x: 245.31617736816406
y: 305.730712890625
z: -0.00399066461250186
","x: 249.54208374023438
y: 309.4945068359375
z: -0.004422354511916637
","x: 248.66873168945312
y: 306.76885986328125
z: -0.002108112908899784
","x: 246.8919219970703
y: 304.90625
z: -0.00035769405076280236
","x: 243.35586547851562
y: 309.474609375
z: -0.005874561611562967
","x: 247.2604217529297
y: 313.2024841308594
z: -0.005796323996037245
","x: 246.7869415283203
y: 311.2614440917969
z: -0.004065329674631357
","x: 245.22190856933594
y: 309.6347351074219
z: -0.002464108867570758
"
5,"x: 227.34397888183594
y: 180.0716552734375
z: -0.2481914758682251
visibility: 0.9999726414680481
","x: 229.08348083496094
y: 170.78094482421875
z: -0.2228119671344757
visibility: 0.9999194145202637
","x: 230.366455078125
y: 170.69027709960938
z: -0.22283801436424255
visibility: 0.9998789429664612
","x: 231.55380249023438
y: 170.55523681640625
z: -0.22283729910850525
visibility: 0.9998868703842163
","x: 224.4042510986328
y: 169.9496612548828
z: -0.2339015007019043
visibility: 0.9999446272850037
","x: 222.47547912597656
y: 169.17100524902344
z: -0.23389296233654022
visibility: 0.9999323487281799
","x: 220.56057739257812
y: 167.91604614257812
z: -0.23389685153961182
visibility: 0.9999371767044067
","x: 232.21490478515625
y: 171.54766845703125
z: -0.07110428810119629
visibility: 0.9998161196708679
","x: 215.8820343017578
y: 168.3084716796875
z: -0.12048741430044174
visibility: 0.9999193549156189
","x: 229.4762725830078
y: 188.02513122558594
z: -0.1895981729030609
visibility: 0.9999635219573975
","x: 223.21759033203125
y: 186.19235229492188
z: -0.20393240451812744
visibility: 0.999980628490448
","x: 242.41741943359375
y: 205.97744750976562
z: 0.04613163322210312
visibility: 0.9999611973762512
","x: 203.46096801757812
y: 209.1725311279297
z: -0.09541080892086029
visibility: 0.9999639987945557
","x: 269.5401916503906
y: 229.8081817626953
z: 0.10577581077814102
visibility: 0.9905624985694885
","x: 200.14312744140625
y: 266.8970031738281
z: -0.18783871829509735
visibility: 0.9938267469406128
","x: 286.3292541503906
y: 269.7238464355469
z: -0.023048056289553642
visibility: 0.9940446019172668
","x: 228.15696716308594
y: 276.7452392578125
z: -0.3796476423740387
visibility: 0.9823131561279297
","x: 291.5812072753906
y: 282.47930908203125
z: -0.0511896088719368
visibility: 0.9856240749359131
","x: 236.30885314941406
y: 283.4034423828125
z: -0.42681461572647095
visibility: 0.9548555612564087
","x: 286.6515197753906
y: 284.6607666015625
z: -0.08397702127695084
visibility: 0.9858737587928772
","x: 238.95523071289062
y: 274.6627197265625
z: -0.4348478317260742
visibility: 0.9555971622467041
","x: 284.2661437988281
y: 281.1014709472656
z: -0.0389266312122345
visibility: 0.9777262806892395
","x: 237.62158203125
y: 271.03076171875
z: -0.38420790433883667
visibility: 0.9357190132141113
","x: 239.44773864746094
y: 337.27069091796875
z: 0.040780700743198395
visibility: 0.9997066855430603
","x: 215.50552368164062
y: 342.28375244140625
z: -0.04069427400827408
visibility: 0.9997519850730896
","x: 244.05538940429688
y: 419.37060546875
z: -0.030452881008386612
visibility: 0.9924893975257874
","x: 220.70301818847656
y: 434.89141845703125
z: -0.04826262593269348
visibility: 0.9949027299880981
","x: 219.2357940673828
y: 470.50531005859375
z: 0.22054941952228546
visibility: 0.9641885161399841
","x: 229.1283721923828
y: 513.770751953125
z: 0.06960508972406387
visibility: 0.9946193695068359
","x: 206.69503784179688
y: 477.9765625
z: 0.2420145571231842
visibility: 0.9478544592857361
","x: 231.69232177734375
y: 522.194580078125
z: 0.07500635087490082
visibility: 0.9472543597221375
","x: 222.17111206054688
y: 510.53656005859375
z: 0.1605943888425827
visibility: 0.9679040908813477
","x: 228.689697265625
y: 541.7357788085938
z: -0.062134791165590286
visibility: 0.989581823348999
","x: 286.9297790527344
y: 266.0225830078125
z: 0.0
","x: 285.8993225097656
y: 271.94720458984375
z: 9.303642582381144e-05
","x: 286.025634765625
y: 280.3499450683594
z: -0.0017959927208721638
","x: 286.14141845703125
y: 287.8409118652344
z: -0.0038169899489730597
","x: 285.74114990234375
y: 291.39654541015625
z: -0.005355458240956068
","x: 288.98779296875
y: 278.7251281738281
z: -0.008763342164456844
","x: 288.005126953125
y: 292.1534118652344
z: -0.011341612786054611
","x: 286.354248046875
y: 291.265380859375
z: -0.010171976871788502
","x: 286.0028381347656
y: 287.8490295410156
z: -0.008908784948289394
","x: 290.0851745605469
y: 278.4704284667969
z: -0.01039983332157135
","x: 289.1475830078125
y: 291.8600769042969
z: -0.013077927753329277
","x: 287.6138000488281
y: 290.14013671875
z: -0.010366488248109818
","x: 287.3826599121094
y: 286.0441589355469
z: -0.007987801916897297
","x: 290.66583251953125
y: 278.8521728515625
z: -0.011578848585486412
","x: 290.0425720214844
y: 291.2221374511719
z: -0.013365358114242554
","x: 288.516357421875
y: 289.78155517578125
z: -0.009607366286218166
","x: 287.96240234375
y: 285.868408203125
z: -0.006970830727368593
","x: 290.82568359375
y: 279.95166015625
z: -0.012737532146275043
","x: 290.72021484375
y: 291.0557861328125
z: -0.013707371428608894
","x: 289.31744384765625
y: 291.20733642578125
z: -0.011339557357132435
","x: 288.3092956542969
y: 288.5299072265625
z: -0.009363149292767048
","x: 226.14366149902344
y: 276.2047119140625
z: 0.0
","x: 231.07418823242188
y: 268.21710205078125
z: 0.0005186476628296077
","x: 236.6221160888672
y: 265.588134765625
z: -0.00033773694303818047
","x: 241.3826141357422
y: 264.95947265625
z: -0.0011082999408245087
","x: 244.90699768066406
y: 263.1221923828125
z: -0.0018022415461018682
","x: 238.6024169921875
y: 273.7113037109375
z: -0.004408012144267559
","x: 244.83868408203125
y: 276.0318603515625
z: -0.005576789379119873
","x: 248.0235595703125
y: 276.8890075683594
z: -0.00442615058273077
","x: 250.03793334960938
y: 277.23614501953125
z: -0.0032269491348415613
","x: 237.64007568359375
y: 280.52630615234375
z: -0.005614618770778179
","x: 244.1846466064453
y: 282.8849792480469
z: -0.006378769408911467
","x: 247.42849731445312
y: 282.873291015625
z: -0.00443625170737505
","x: 249.45407104492188
y: 282.2072448730469
z: -0.0029542315751314163
","x: 236.28823852539062
y: 286.1372375488281
z: -0.006534496787935495
","x: 242.3507843017578
y: 289.306396484375
z: -0.007860956713557243
","x: 245.2822265625
y: 289.10772705078125
z: -0.0065103513188660145
","x: 246.98135375976562
y: 288.11572265625
z: -0.005361201241612434
","x: 234.6450958251953
y: 290.3416748046875
z: -0.007371954154223204
","x: 239.38134765625
y: 294.37030029296875
z: -0.008911369368433952
","x: 242.23568725585938
y: 295.44451904296875
z: -0.008520704694092274
","x: 244.27682495117188
y: 295.6454162597656
z: -0.00782842468470335
"
6,"x: 227.34397888183594
y: 180.0716552734375
z: -0.2481914758682251
visibility: 0.9999726414680481
","x: 229.08348083496094
y: 170.78094482421875
z: -0.2228119671344757
visibility: 0.9999194145202637
","x: 230.366455078125
y: 170.69027709960938
z: -0.22283801436424255
visibility: 0.9998789429664612
","x: 231.55380249023438
y: 170.55523681640625
z: -0.22283729910850525
visibility: 0.9998868703842163
","x: 224.4042510986328
y: 169.9496612548828
z: -0.2339015007019043
visibility: 0.9999446272850037
","x: 222.47547912597656
y: 169.17100524902344
z: -0.23389296233654022
visibility: 0.9999323487281799
","x: 220.56057739257812
y: 167.91604614257812
z: -0.23389685153961182
visibility: 0.9999371767044067
","x: 232.21490478515625
y: 171.54766845703125
z: -0.07110428810119629
visibility: 0.9998161196708679
","x: 215.8820343017578
y: 168.3084716796875
z: -0.12048741430044174
visibility: 0.9999193549156189
","x: 229.4762725830078
y: 188.02513122558594
z: -0.1895981729030609
visibility: 0.9999635219573975
","x: 223.21759033203125
y: 186.19235229492188
z: -0.20393240451812744
visibility: 0.999980628490448
","x: 242.41741943359375
y: 205.97744750976562
z: 0.04613163322210312
visibility: 0.9999611973762512
","x: 203.46096801757812
y: 209.1725311279297
z: -0.09541080892086029
visibility: 0.9999639987945557
","x: 269.5401916503906
y: 229.8081817626953
z: 0.10577581077814102
visibility: 0.9905624985694885
","x: 200.14312744140625
y: 266.8970031738281
z: -0.18783871829509735
visibility: 0.9938267469406128
","x: 286.3292541503906
y: 269.7238464355469
z: -0.023048056289553642
visibility: 0.9940446019172668
","x: 228.15696716308594
y: 276.7452392578125
z: -0.3796476423740387
visibility: 0.9823131561279297
","x: 291.5812072753906
y: 282.47930908203125
z: -0.0511896088719368
visibility: 0.9856240749359131
","x: 236.30885314941406
y: 283.4034423828125
z: -0.42681461572647095
visibility: 0.9548555612564087
","x: 286.6515197753906
y: 284.6607666015625
z: -0.08397702127695084
visibility: 0.9858737587928772
","x: 238.95523071289062
y: 274.6627197265625
z: -0.4348478317260742
visibility: 0.9555971622467041
","x: 284.2661437988281
y: 281.1014709472656
z: -0.0389266312122345
visibility: 0.9777262806892395
","x: 237.62158203125
y: 271.03076171875
z: -0.38420790433883667
visibility: 0.9357190132141113
","x: 239.44773864746094
y: 337.27069091796875
z: 0.040780700743198395
visibility: 0.9997066855430603
","x: 215.50552368164062
y: 342.28375244140625
z: -0.04069427400827408
visibility: 0.9997519850730896
","x: 244.05538940429688
y: 419.37060546875
z: -0.030452881008386612
visibility: 0.9924893975257874
","x: 220.70301818847656
y: 434.89141845703125
z: -0.04826262593269348
visibility: 0.9949027299880981
","x: 219.2357940673828
y: 470.50531005859375
z: 0.22054941952228546
visibility: 0.9641885161399841
","x: 229.1283721923828
y: 513.770751953125
z: 0.06960508972406387
visibility: 0.9946193695068359
","x: 206.69503784179688
y: 477.9765625
z: 0.2420145571231842
visibility: 0.9478544592857361
","x: 231.69232177734375
y: 522.194580078125
z: 0.07500635087490082
visibility: 0.9472543597221375
","x: 222.17111206054688
y: 510.53656005859375
z: 0.1605943888425827
visibility: 0.9679040908813477
","x: 228.689697265625
y: 541.7357788085938
z: -0.062134791165590286
visibility: 0.989581823348999
","x: 286.9297790527344
y: 266.0225830078125
z: 0.0
","x: 285.8993225097656
y: 271.94720458984375
z: 9.303642582381144e-05
","x: 286.025634765625
y: 280.3499450683594
z: -0.0017959927208721638
","x: 286.14141845703125
y: 287.8409118652344
z: -0.0038169899489730597
","x: 285.74114990234375
y: 291.39654541015625
z: -0.005355458240956068
","x: 288.98779296875
y: 278.7251281738281
z: -0.008763342164456844
","x: 288.005126953125
y: 292.1534118652344
z: -0.011341612786054611
","x: 286.354248046875
y: 291.265380859375
z: -0.010171976871788502
","x: 286.0028381347656
y: 287.8490295410156
z: -0.008908784948289394
","x: 290.0851745605469
y: 278.4704284667969
z: -0.01039983332157135
","x: 289.1475830078125
y: 291.8600769042969
z: -0.013077927753329277
","x: 287.6138000488281
y: 290.14013671875
z: -0.010366488248109818
","x: 287.3826599121094
y: 286.0441589355469
z: -0.007987801916897297
","x: 290.66583251953125
y: 278.8521728515625
z: -0.011578848585486412
","x: 290.0425720214844
y: 291.2221374511719
z: -0.013365358114242554
","x: 288.516357421875
y: 289.78155517578125
z: -0.009607366286218166
","x: 287.96240234375
y: 285.868408203125
z: -0.006970830727368593
","x: 290.82568359375
y: 279.95166015625
z: -0.012737532146275043
","x: 290.72021484375
y: 291.0557861328125
z: -0.013707371428608894
","x: 289.31744384765625
y: 291.20733642578125
z: -0.011339557357132435
","x: 288.3092956542969
y: 288.5299072265625
z: -0.009363149292767048
","x: 226.14366149902344
y: 276.2047119140625
z: 0.0
","x: 231.07418823242188
y: 268.21710205078125
z: 0.0005186476628296077
","x: 236.6221160888672
y: 265.588134765625
z: -0.00033773694303818047
","x: 241.3826141357422
y: 264.95947265625
z: -0.0011082999408245087
","x: 244.90699768066406
y: 263.1221923828125
z: -0.0018022415461018682
","x: 238.6024169921875
y: 273.7113037109375
z: -0.004408012144267559
","x: 244.83868408203125
y: 276.0318603515625
z: -0.005576789379119873
","x: 248.0235595703125
y: 276.8890075683594
z: -0.00442615058273077
","x: 250.03793334960938
y: 277.23614501953125
z: -0.0032269491348415613
","x: 237.64007568359375
y: 280.52630615234375
z: -0.005614618770778179
","x: 244.1846466064453
y: 282.8849792480469
z: -0.006378769408911467
","x: 247.42849731445312
y: 282.873291015625
z: -0.00443625170737505
","x: 249.45407104492188
y: 282.2072448730469
z: -0.0029542315751314163
","x: 236.28823852539062
y: 286.1372375488281
z: -0.006534496787935495
","x: 242.3507843017578
y: 289.306396484375
z: -0.007860956713557243
","x: 245.2822265625
y: 289.10772705078125
z: -0.0065103513188660145
","x: 246.98135375976562
y: 288.11572265625
z: -0.005361201241612434
","x: 234.6450958251953
y: 290.3416748046875
z: -0.007371954154223204
","x: 239.38134765625
y: 294.37030029296875
z: -0.008911369368433952
","x: 242.23568725585938
y: 295.44451904296875
z: -0.008520704694092274
","x: 244.27682495117188
y: 295.6454162597656
z: -0.00782842468470335
"
7,"x: 227.34397888183594
y: 180.0716552734375
z: -0.2481914758682251
visibility: 0.9999726414680481
","x: 229.08348083496094
y: 170.78094482421875
z: -0.2228119671344757
visibility: 0.9999194145202637
","x: 230.366455078125
y: 170.69027709960938
z: -0.22283801436424255
visibility: 0.9998789429664612
","x: 231.55380249023438
y: 170.55523681640625
z: -0.22283729910850525
visibility: 0.9998868703842163
","x: 224.4042510986328
y: 169.9496612548828
z: -0.2339015007019043
visibility: 0.9999446272850037
","x: 222.47547912597656
y: 169.17100524902344
z: -0.23389296233654022
visibility: 0.9999323487281799
","x: 220.56057739257812
y: 167.91604614257812
z: -0.23389685153961182
visibility: 0.9999371767044067
","x: 232.21490478515625
y: 171.54766845703125
z: -0.07110428810119629
visibility: 0.9998161196708679
","x: 215.8820343017578
y: 168.3084716796875
z: -0.12048741430044174
visibility: 0.9999193549156189
","x: 229.4762725830078
y: 188.02513122558594
z: -0.1895981729030609
visibility: 0.9999635219573975
","x: 223.21759033203125
y: 186.19235229492188
z: -0.20393240451812744
visibility: 0.999980628490448
","x: 242.41741943359375
y: 205.97744750976562
z: 0.04613163322210312
visibility: 0.9999611973762512
","x: 203.46096801757812
y: 209.1725311279297
z: -0.09541080892086029
visibility: 0.9999639987945557
","x: 269.5401916503906
y: 229.8081817626953
z: 0.10577581077814102
visibility: 0.9905624985694885
","x: 200.14312744140625
y: 266.8970031738281
z: -0.18783871829509735
visibility: 0.9938267469406128
","x: 286.3292541503906
y: 269.7238464355469
z: -0.023048056289553642
visibility: 0.9940446019172668
","x: 228.15696716308594
y: 276.7452392578125
z: -0.3796476423740387
visibility: 0.9823131561279297
","x: 291.5812072753906
y: 282.47930908203125
z: -0.0511896088719368
visibility: 0.9856240749359131
","x: 236.30885314941406
y: 283.4034423828125
z: -0.42681461572647095
visibility: 0.9548555612564087
","x: 286.6515197753906
y: 284.6607666015625
z: -0.08397702127695084
visibility: 0.9858737587928772
","x: 238.95523071289062
y: 274.6627197265625
z: -0.4348478317260742
visibility: 0.9555971622467041
","x: 284.2661437988281
y: 281.1014709472656
z: -0.0389266312122345
visibility: 0.9777262806892395
","x: 237.62158203125
y: 271.03076171875
z: -0.38420790433883667
visibility: 0.9357190132141113
","x: 239.44773864746094
y: 337.27069091796875
z: 0.040780700743198395
visibility: 0.9997066855430603
","x: 215.50552368164062
y: 342.28375244140625
z: -0.04069427400827408
visibility: 0.9997519850730896
","x: 244.05538940429688
y: 419.37060546875
z: -0.030452881008386612
visibility: 0.9924893975257874
","x: 220.70301818847656
y: 434.89141845703125
z: -0.04826262593269348
visibility: 0.9949027299880981
","x: 219.2357940673828
y: 470.50531005859375
z: 0.22054941952228546
visibility: 0.9641885161399841
","x: 229.1283721923828
y: 513.770751953125
z: 0.06960508972406387
visibility: 0.9946193695068359
","x: 206.69503784179688
y: 477.9765625
z: 0.2420145571231842
visibility: 0.9478544592857361
","x: 231.69232177734375
y: 522.194580078125
z: 0.07500635087490082
visibility: 0.9472543597221375
","x: 222.17111206054688
y: 510.53656005859375
z: 0.1605943888425827
visibility: 0.9679040908813477
","x: 228.689697265625
y: 541.7357788085938
z: -0.062134791165590286
visibility: 0.989581823348999
","x: 286.9297790527344
y: 266.0225830078125
z: 0.0
","x: 285.8993225097656
y: 271.94720458984375
z: 9.303642582381144e-05
","x: 286.025634765625
y: 280.3499450683594
z: -0.0017959927208721638
","x: 286.14141845703125
y: 287.8409118652344
z: -0.0038169899489730597
","x: 285.74114990234375
y: 291.39654541015625
z: -0.005355458240956068
","x: 288.98779296875
y: 278.7251281738281
z: -0.008763342164456844
","x: 288.005126953125
y: 292.1534118652344
z: -0.011341612786054611
","x: 286.354248046875
y: 291.265380859375
z: -0.010171976871788502
","x: 286.0028381347656
y: 287.8490295410156
z: -0.008908784948289394
","x: 290.0851745605469
y: 278.4704284667969
z: -0.01039983332157135
","x: 289.1475830078125
y: 291.8600769042969
z: -0.013077927753329277
","x: 287.6138000488281
y: 290.14013671875
z: -0.010366488248109818
","x: 287.3826599121094
y: 286.0441589355469
z: -0.007987801916897297
","x: 290.66583251953125
y: 278.8521728515625
z: -0.011578848585486412
","x: 290.0425720214844
y: 291.2221374511719
z: -0.013365358114242554
","x: 288.516357421875
y: 289.78155517578125
z: -0.009607366286218166
","x: 287.96240234375
y: 285.868408203125
z: -0.006970830727368593
","x: 290.82568359375
y: 279.95166015625
z: -0.012737532146275043
","x: 290.72021484375
y: 291.0557861328125
z: -0.013707371428608894
","x: 289.31744384765625
y: 291.20733642578125
z: -0.011339557357132435
","x: 288.3092956542969
y: 288.5299072265625
z: -0.009363149292767048
","x: 226.14366149902344
y: 276.2047119140625
z: 0.0
","x: 231.07418823242188
y: 268.21710205078125
z: 0.0005186476628296077
","x: 236.6221160888672
y: 265.588134765625
z: -0.00033773694303818047
","x: 241.3826141357422
y: 264.95947265625
z: -0.0011082999408245087
","x: 244.90699768066406
y: 263.1221923828125
z: -0.0018022415461018682
","x: 238.6024169921875
y: 273.7113037109375
z: -0.004408012144267559
","x: 244.83868408203125
y: 276.0318603515625
z: -0.005576789379119873
","x: 248.0235595703125
y: 276.8890075683594
z: -0.00442615058273077
","x: 250.03793334960938
y: 277.23614501953125
z: -0.0032269491348415613
","x: 237.64007568359375
y: 280.52630615234375
z: -0.005614618770778179
","x: 244.1846466064453
y: 282.8849792480469
z: -0.006378769408911467
","x: 247.42849731445312
y: 282.873291015625
z: -0.00443625170737505
","x: 249.45407104492188
y: 282.2072448730469
z: -0.0029542315751314163
","x: 236.28823852539062
y: 286.1372375488281
z: -0.006534496787935495
","x: 242.3507843017578
y: 289.306396484375
z: -0.007860956713557243
","x: 245.2822265625
y: 289.10772705078125
z: -0.0065103513188660145
","x: 246.98135375976562
y: 288.11572265625
z: -0.005361201241612434
","x: 234.6450958251953
y: 290.3416748046875
z: -0.007371954154223204
","x: 239.38134765625
y: 294.37030029296875
z: -0.008911369368433952
","x: 242.23568725585938
y: 295.44451904296875
z: -0.008520704694092274
","x: 244.27682495117188
y: 295.6454162597656
z: -0.00782842468470335
"
8,"x: 218.6388702392578
y: 179.59866333007812
z: -0.2656792998313904
visibility: 0.999972403049469
","x: 219.7800750732422
y: 169.90048217773438
z: -0.23771962523460388
visibility: 0.9999155402183533
","x: 221.17295837402344
y: 169.52679443359375
z: -0.2377869337797165
visibility: 0.9998741149902344
","x: 222.5718994140625
y: 169.12779235839844
z: -0.2377840280532837
visibility: 0.9998841881752014
","x: 215.2869110107422
y: 169.8676300048828
z: -0.24586375057697296
visibility: 0.999942421913147
","x: 213.71226501464844
y: 168.8975830078125
z: -0.24585513770580292
visibility: 0.9999303817749023
","x: 212.18174743652344
y: 167.7864990234375
z: -0.245766282081604
visibility: 0.9999362230300903
","x: 223.18951416015625
y: 170.68162536621094
z: -0.078966423869133
visibility: 0.9998123645782471
","x: 207.6447296142578
y: 170.18531799316406
z: -0.13529027998447418
visibility: 0.9999092221260071
","x: 221.01925659179688
y: 187.06854248046875
z: -0.206979900598526
visibility: 0.9999610185623169
","x: 215.29457092285156
y: 185.94801330566406
z: -0.2163715362548828
visibility: 0.9999767541885376
","x: 235.5270538330078
y: 204.5943603515625
z: 0.024199586361646652
visibility: 0.9999576210975647
","x: 196.7919158935547
y: 214.3594512939453
z: -0.09446593374013901
visibility: 0.9999334216117859
","x: 268.5615234375
y: 224.31027221679688
z: 0.07501725852489471
visibility: 0.9908115863800049
","x: 196.98291015625
y: 277.2830810546875
z: -0.21193723380565643
visibility: 0.9931476712226868
","x: 283.4952087402344
y: 263.38299560546875
z: -0.050014346837997437
visibility: 0.9936156272888184
","x: 222.46961975097656
y: 283.9984436035156
z: -0.4376569390296936
visibility: 0.9827794432640076
","x: 288.8473205566406
y: 276.8426208496094
z: -0.07710772007703781
visibility: 0.9844135046005249
","x: 230.29298400878906
y: 290.6552429199219
z: -0.49065470695495605
visibility: 0.9566580057144165
","x: 285.0588684082031
y: 279.34246826171875
z: -0.1086830124258995
visibility: 0.9849461317062378
","x: 232.49488830566406
y: 282.77105712890625
z: -0.4970402121543884
visibility: 0.9573461413383484
","x: 282.8985290527344
y: 276.34393310546875
z: -0.06508796662092209
visibility: 0.9772928357124329
","x: 230.95974731445312
y: 280.3323669433594
z: -0.4426509737968445
visibility: 0.9378489255905151
","x: 233.34864807128906
y: 336.5271301269531
z: 0.03953004628419876
visibility: 0.9995968341827393
","x: 210.6865234375
y: 339.7301025390625
z: -0.039258163422346115
visibility: 0.9996620416641235
","x: 220.69102478027344
y: 423.6161804199219
z: 0.012716648168861866
visibility: 0.9845831394195557
","x: 218.1798553466797
y: 431.294677734375
z: -0.06611332297325134
visibility: 0.9918400645256042
","x: 188.2245330810547
y: 478.1884460449219
z: 0.2211456000804901
visibility: 0.9615674614906311
","x: 227.61094665527344
y: 513.5985107421875
z: 0.04860080033540726
visibility: 0.9936594367027283
","x: 179.98480224609375
y: 483.61181640625
z: 0.23616239428520203
visibility: 0.9440557360649109
","x: 230.65328979492188
y: 522.0764770507812
z: 0.054106973111629486
visibility: 0.9462624788284302
","x: 191.98556518554688
y: 511.5184020996094
z: 0.12811627984046936
visibility: 0.9648998379707336
","x: 228.10528564453125
y: 541.6029663085938
z: -0.088165782392025
visibility: 0.9882787466049194
",,,,,,,,,,,,,,,,,,,,,,,,,,,,,,,,,,,,,,,,,,
9,"x: 208.623779296875
y: 187.23692321777344
z: -0.25709986686706543
visibility: 0.9999729990959167
","x: 210.59674072265625
y: 177.87985229492188
z: -0.230148583650589
visibility: 0.9999138712882996
","x: 212.1726837158203
y: 177.41763305664062
z: -0.2302086055278778
visibility: 0.9998725056648254
","x: 213.88890075683594
y: 176.8754425048828
z: -0.23020510375499725
visibility: 0.9998829364776611
","x: 205.6189727783203
y: 178.6257781982422
z: -0.23734357953071594
visibility: 0.9999423623085022
","x: 203.5999298095703
y: 178.80374145507812
z: -0.2373211830854416
visibility: 0.9999309778213501
","x: 201.5372772216797
y: 178.9728546142578
z: -0.2372661530971527
visibility: 0.9999372363090515
","x: 214.9643096923828
y: 178.24148559570312
z: -0.08269457519054413
visibility: 0.9998040795326233
","x: 197.5236053466797
y: 182.19224548339844
z: -0.12206222116947174
visibility: 0.999904990196228
","x: 211.23275756835938
y: 195.58372497558594
z: -0.20307664573192596
visibility: 0.9999598860740662
","x: 205.6273193359375
y: 196.57183837890625
z: -0.211708664894104
visibility: 0.9999755620956421
","x: 230.6015625
y: 215.60089111328125
z: 0.024032283574342728
visibility: 0.9999540448188782
","x: 186.60595703125
y: 234.91766357421875
z: -0.09228231012821198
visibility: 0.9999244213104248
","x: 263.93939208984375
y: 233.4241943359375
z: 0.08092152327299118
visibility: 0.9909456372261047
","x: 188.0122528076172
y: 299.2557067871094
z: -0.14546149969100952
visibility: 0.9928910136222839
","x: 278.0042419433594
y: 267.88134765625
z: -0.0573735348880291
visibility: 0.9928078651428223
","x: 219.55581665039062
y: 312.63165283203125
z: -0.3128527104854584
visibility: 0.9830003380775452
","x: 284.04443359375
y: 284.84674072265625
z: -0.09145437926054001
visibility: 0.9822656512260437
","x: 225.45648193359375
y: 321.73468017578125
z: -0.356459379196167
visibility: 0.9576964974403381
","x: 279.6433410644531
y: 288.1540222167969
z: -0.12161296606063843
visibility: 0.9831988215446472
","x: 228.2606964111328
y: 312.229736328125
z: -0.36965882778167725
visibility: 0.9583615660667419
","x: 277.2546081542969
y: 283.91119384765625
z: -0.07274973392486572
visibility: 0.9758574366569519
","x: 227.93399047851562
y: 309.3828430175781
z: -0.31872883439064026
visibility: 0.9390475153923035
","x: 227.04373168945312
y: 348.5765075683594
z: 0.0368034727871418
visibility: 0.9994527101516724
","x: 205.3770751953125
y: 350.4121398925781
z: -0.036654990166425705
visibility: 0.9995563626289368
","x: 211.44088745117188
y: 433.18194580078125
z: 0.007491300348192453
visibility: 0.9734607338905334
","x: 210.82571411132812
y: 436.8080139160156
z: -0.06652657687664032
visibility: 0.988521933555603
","x: 181.23606872558594
y: 480.30950927734375
z: 0.22095394134521484
visibility: 0.954994261264801
","x: 216.48670959472656
y: 513.482421875
z: 0.054237525910139084
visibility: 0.9913867115974426
","x: 171.72775268554688
y: 489.8365783691406
z: 0.23690345883369446
visibility: 0.9391706585884094
","x: 216.2287139892578
y: 521.52001953125
z: 0.059826456010341644
visibility: 0.9414175152778625
","x: 183.89096069335938
y: 513.7351684570312
z: 0.13803425431251526
visibility: 0.95893794298172
","x: 227.13963317871094
y: 541.9089965820312
z: -0.0738389641046524
visibility: 0.9849068522453308
","x: 276.0390930175781
y: 265.0157470703125
z: 0.0
","x: 274.1816101074219
y: 275.151123046875
z: 0.0006670712027698755
","x: 274.6532287597656
y: 285.0586242675781
z: -0.0010570286540314555
","x: 276.4200744628906
y: 292.87396240234375
z: -0.0028361212462186813
","x: 278.25616455078125
y: 297.807373046875
z: -0.0040391660295426846
","x: 277.0803527832031
y: 283.5728759765625
z: -0.01002422720193863
","x: 278.7197570800781
y: 299.3204040527344
z: -0.012197003699839115
","x: 277.58197021484375
y: 298.7130126953125
z: -0.00982836727052927
","x: 276.997802734375
y: 295.0260009765625
z: -0.007605128921568394
","x: 279.92108154296875
y: 282.1695861816406
z: -0.011786185204982758
","x: 281.72119140625
y: 297.7590026855469
z: -0.013584272935986519
","x: 280.2498474121094
y: 296.339599609375
z: -0.009320993907749653
","x: 279.25775146484375
y: 291.76385498046875
z: -0.0058675240725278854
","x: 282.38653564453125
y: 280.923583984375
z: -0.012921424582600594
","x: 284.21710205078125
y: 295.088134765625
z: -0.014089640229940414
","x: 282.7456970214844
y: 293.9324645996094
z: -0.00951630063354969
","x: 281.6502380371094
y: 289.9543151855469
z: -0.006367755588144064
","x: 284.426513671875
y: 280.00250244140625
z: -0.013962582685053349
","x: 285.9505920410156
y: 291.45263671875
z: -0.01480143703520298
","x: 284.7361755371094
y: 291.80694580078125
z: -0.01215565949678421
","x: 283.45819091796875
y: 289.28558349609375
z: -0.00989131536334753
",,,,,,,,,,,,,,,,,,,,,
10,"x: 208.623779296875
y: 187.23692321777344
z: -0.25709986686706543
visibility: 0.9999729990959167
","x: 210.59674072265625
y: 177.87985229492188
z: -0.230148583650589
visibility: 0.9999138712882996
","x: 212.1726837158203
y: 177.41763305664062
z: -0.2302086055278778
visibility: 0.9998725056648254
","x: 213.88890075683594
y: 176.8754425048828
z: -0.23020510375499725
visibility: 0.9998829364776611
","x: 205.6189727783203
y: 178.6257781982422
z: -0.23734357953071594
visibility: 0.9999423623085022
","x: 203.5999298095703
y: 178.80374145507812
z: -0.2373211830854416
visibility: 0.9999309778213501
","x: 201.5372772216797
y: 178.9728546142578
z: -0.2372661530971527
visibility: 0.9999372363090515
","x: 214.9643096923828
y: 178.24148559570312
z: -0.08269457519054413
visibility: 0.9998040795326233
","x: 197.5236053466797
y: 182.19224548339844
z: -0.12206222116947174
visibility: 0.999904990196228
","x: 211.23275756835938
y: 195.58372497558594
z: -0.20307664573192596
visibility: 0.9999598860740662
","x: 205.6273193359375
y: 196.57183837890625
z: -0.211708664894104
visibility: 0.9999755620956421
","x: 230.6015625
y: 215.60089111328125
z: 0.024032283574342728
visibility: 0.9999540448188782
","x: 186.60595703125
y: 234.91766357421875
z: -0.09228231012821198
visibility: 0.9999244213104248
","x: 263.93939208984375
y: 233.4241943359375
z: 0.08092152327299118
visibility: 0.9909456372261047
","x: 188.0122528076172
y: 299.2557067871094
z: -0.14546149969100952
visibility: 0.9928910136222839
","x: 278.0042419433594
y: 267.88134765625
z: -0.0573735348880291
visibility: 0.9928078651428223
","x: 219.55581665039062
y: 312.63165283203125
z: -0.3128527104854584
visibility: 0.9830003380775452
","x: 284.04443359375
y: 284.84674072265625
z: -0.09145437926054001
visibility: 0.9822656512260437
","x: 225.45648193359375
y: 321.73468017578125
z: -0.356459379196167
visibility: 0.9576964974403381
","x: 279.6433410644531
y: 288.1540222167969
z: -0.12161296606063843
visibility: 0.9831988215446472
","x: 228.2606964111328
y: 312.229736328125
z: -0.36965882778167725
visibility: 0.9583615660667419
","x: 277.2546081542969
y: 283.91119384765625
z: -0.07274973392486572
visibility: 0.9758574366569519
","x: 227.93399047851562
y: 309.3828430175781
z: -0.31872883439064026
visibility: 0.9390475153923035
","x: 227.04373168945312
y: 348.5765075683594
z: 0.0368034727871418
visibility: 0.9994527101516724
","x: 205.3770751953125
y: 350.4121398925781
z: -0.036654990166425705
visibility: 0.9995563626289368
","x: 211.44088745117188
y: 433.18194580078125
z: 0.007491300348192453
visibility: 0.9734607338905334
","x: 210.82571411132812
y: 436.8080139160156
z: -0.06652657687664032
visibility: 0.988521933555603
","x: 181.23606872558594
y: 480.30950927734375
z: 0.22095394134521484
visibility: 0.954994261264801
","x: 216.48670959472656
y: 513.482421875
z: 0.054237525910139084
visibility: 0.9913867115974426
","x: 171.72775268554688
y: 489.8365783691406
z: 0.23690345883369446
visibility: 0.9391706585884094
","x: 216.2287139892578
y: 521.52001953125
z: 0.059826456010341644
visibility: 0.9414175152778625
","x: 183.89096069335938
y: 513.7351684570312
z: 0.13803425431251526
visibility: 0.95893794298172
","x: 227.13963317871094
y: 541.9089965820312
z: -0.0738389641046524
visibility: 0.9849068522453308
","x: 276.0390930175781
y: 265.0157470703125
z: 0.0
","x: 274.1816101074219
y: 275.151123046875
z: 0.0006670712027698755
","x: 274.6532287597656
y: 285.0586242675781
z: -0.0010570286540314555
","x: 276.4200744628906
y: 292.87396240234375
z: -0.0028361212462186813
","x: 278.25616455078125
y: 297.807373046875
z: -0.0040391660295426846
","x: 277.0803527832031
y: 283.5728759765625
z: -0.01002422720193863
","x: 278.7197570800781
y: 299.3204040527344
z: -0.012197003699839115
","x: 277.58197021484375
y: 298.7130126953125
z: -0.00982836727052927
","x: 276.997802734375
y: 295.0260009765625
z: -0.007605128921568394
","x: 279.92108154296875
y: 282.1695861816406
z: -0.011786185204982758
","x: 281.72119140625
y: 297.7590026855469
z: -0.013584272935986519
","x: 280.2498474121094
y: 296.339599609375
z: -0.009320993907749653
","x: 279.25775146484375
y: 291.76385498046875
z: -0.0058675240725278854
","x: 282.38653564453125
y: 280.923583984375
z: -0.012921424582600594
","x: 284.21710205078125
y: 295.088134765625
z: -0.014089640229940414
","x: 282.7456970214844
y: 293.9324645996094
z: -0.00951630063354969
","x: 281.6502380371094
y: 289.9543151855469
z: -0.006367755588144064
","x: 284.426513671875
y: 280.00250244140625
z: -0.013962582685053349
","x: 285.9505920410156
y: 291.45263671875
z: -0.01480143703520298
","x: 284.7361755371094
y: 291.80694580078125
z: -0.01215565949678421
","x: 283.45819091796875
y: 289.28558349609375
z: -0.00989131536334753
",,,,,,,,,,,,,,,,,,,,,
11,"x: 205.41354370117188
y: 198.1901397705078
z: -0.25721827149391174
visibility: 0.9999754428863525
","x: 207.36099243164062
y: 188.24586486816406
z: -0.2316427230834961
visibility: 0.999920666217804
","x: 209.2238311767578
y: 187.70620727539062
z: -0.23169657588005066
visibility: 0.9998828172683716
","x: 210.96824645996094
y: 187.2270050048828
z: -0.23163294792175293
visibility: 0.9998917579650879
","x: 202.09793090820312
y: 188.88980102539062
z: -0.24046862125396729
visibility: 0.9999472498893738
","x: 200.12771606445312
y: 189.01380920410156
z: -0.2404525727033615
visibility: 0.9999369978904724
","x: 198.1938934326172
y: 189.17982482910156
z: -0.2404443919658661
visibility: 0.9999426007270813
","x: 211.97071838378906
y: 187.76101684570312
z: -0.09467008709907532
visibility: 0.9998155236244202
","x: 194.754150390625
y: 191.46261596679688
z: -0.13172708451747894
visibility: 0.9999131560325623
","x: 208.235595703125
y: 206.2755126953125
z: -0.2069522589445114
visibility: 0.9999628663063049
","x: 202.24159240722656
y: 207.54031372070312
z: -0.21352365612983704
visibility: 0.9999775290489197
","x: 226.55584716796875
y: 222.26956176757812
z: 0.023926351219415665
visibility: 0.9999566078186035
","x: 184.2848663330078
y: 247.21734619140625
z: -0.09304337948560715
visibility: 0.9999298453330994
","x: 250.00033569335938
y: 249.66407775878906
z: 0.09462353587150574
visibility: 0.9902926683425903
","x: 182.0939483642578
y: 313.87579345703125
z: -0.1255464404821396
visibility: 0.9931558966636658
","x: 272.93768310546875
y: 279.9685363769531
z: -0.05291165038943291
visibility: 0.9928731322288513
","x: 205.3776397705078
y: 358.1313781738281
z: -0.22605200111865997
visibility: 0.9837904572486877
","x: 279.7026062011719
y: 292.4920349121094
z: -0.08460493385791779
visibility: 0.9826363921165466
","x: 207.39990234375
y: 378.2425537109375
z: -0.2566383481025696
visibility: 0.9597846865653992
","x: 276.6039733886719
y: 295.7449645996094
z: -0.11965248733758926
visibility: 0.9837096929550171
","x: 214.1873016357422
y: 372.80438232421875
z: -0.2823430001735687
visibility: 0.9604699015617371
","x: 273.6486511230469
y: 293.22735595703125
z: -0.07094141840934753
visibility: 0.9768158793449402
","x: 214.46705627441406
y: 365.3369140625
z: -0.23429110646247864
visibility: 0.9423207640647888
","x: 228.53819274902344
y: 356.6230773925781
z: 0.045543886721134186
visibility: 0.9994029402732849
","x: 208.06216430664062
y: 360.8311767578125
z: -0.04553157836198807
visibility: 0.999535322189331
","x: 216.55599975585938
y: 442.95587158203125
z: 0.06775306910276413
visibility: 0.9665438532829285
","x: 211.6809844970703
y: 445.58447265625
z: -0.05645577982068062
visibility: 0.9880082011222839
","x: 185.14540100097656
y: 482.0207214355469
z: 0.27543359994888306
visibility: 0.9520804286003113
","x: 207.38351440429688
y: 513.4044799804688
z: 0.07470738142728806
visibility: 0.9910262227058411
","x: 174.93624877929688
y: 490.6475524902344
z: 0.2912842929363251
visibility: 0.9372237920761108
","x: 206.4733428955078
y: 521.5538330078125
z: 0.08244539797306061
visibility: 0.9417283535003662
","x: 190.5643768310547
y: 518.1868286132812
z: 0.2147957980632782
visibility: 0.9563159942626953
","x: 216.05018615722656
y: 543.343994140625
z: -0.04375896602869034
visibility: 0.9843358397483826
","x: 273.7403564453125
y: 282.376953125
z: 0.0
","x: 277.546142578125
y: 287.97247314453125
z: 0.0017693336121737957
","x: 279.6616516113281
y: 295.837890625
z: -0.0003662763920146972
","x: 279.3490905761719
y: 303.2916259765625
z: -0.003152532735839486
","x: 278.01800537109375
y: 308.8442687988281
z: -0.0059694102965295315
","x: 282.18804931640625
y: 295.0340270996094
z: -0.008555211126804352
","x: 282.168212890625
y: 306.11029052734375
z: -0.01302698627114296
","x: 280.38690185546875
y: 310.02728271484375
z: -0.013862822204828262
","x: 279.0488586425781
y: 310.8432922363281
z: -0.013829833827912807
","x: 279.79278564453125
y: 293.67205810546875
z: -0.012179398909211159
","x: 279.5325012207031
y: 305.83355712890625
z: -0.017390254884958267
","x: 277.9816589355469
y: 309.9259033203125
z: -0.01676992140710354
","x: 276.82666015625
y: 310.89154052734375
z: -0.01569884829223156
","x: 276.6194152832031
y: 292.3102722167969
z: -0.01521993987262249
","x: 276.4753112792969
y: 304.0772705078125
z: -0.019557595252990723
","x: 275.25421142578125
y: 308.70538330078125
z: -0.017260173335671425
","x: 274.3984680175781
y: 310.0818176269531
z: -0.015203066170215607
","x: 273.3194580078125
y: 291.2073974609375
z: -0.0180585328489542
","x: 273.1487121582031
y: 300.90875244140625
z: -0.021127639338374138
","x: 272.85101318359375
y: 304.92352294921875
z: -0.019657909870147705
","x: 272.6423034667969
y: 306.58746337890625
z: -0.01807674765586853
","x: 197.11268615722656
y: 358.6514587402344
z: 0.0
","x: 202.40283203125
y: 359.1341552734375
z: 0.0021005794405937195
","x: 206.6162872314453
y: 366.07489013671875
z: 0.002682439750060439
","x: 209.4784698486328
y: 372.02984619140625
z: 0.0025485961232334375
","x: 211.8812713623047
y: 375.6805114746094
z: 0.0029821640346199274
","x: 205.23822021484375
y: 381.6796569824219
z: 0.0035302855540066957
","x: 209.20391845703125
y: 392.3782958984375
z: 0.0026752084959298372
","x: 212.6141357421875
y: 393.554443359375
z: 0.0029368277173489332
","x: 214.900634765625
y: 392.010009765625
z: 0.0037376703694462776
","x: 203.7986297607422
y: 384.51165771484375
z: 0.0016842959448695183
","x: 208.0921173095703
y: 394.8885803222656
z: 0.0012148359091952443
","x: 211.83230590820312
y: 396.1488037109375
z: 0.0019046163652092218
","x: 214.50225830078125
y: 395.04608154296875
z: 0.002652042079716921
","x: 202.85867309570312
y: 385.57769775390625
z: -0.0004026999231427908
","x: 206.9122314453125
y: 395.0853271484375
z: -0.0008228154038079083
","x: 210.5207061767578
y: 396.0694885253906
z: 0.00020314432913437486
","x: 213.18548583984375
y: 395.1449890136719
z: 0.0011240702588111162
","x: 202.37789916992188
y: 385.45501708984375
z: -0.002636526245623827
","x: 206.03297424316406
y: 393.23297119140625
z: -0.003057850059121847
","x: 209.2421112060547
y: 395.0582580566406
z: -0.002498035551980138
","x: 211.7545928955078
y: 395.0369567871094
z: -0.001739124651066959
"
12,"x: 205.41354370117188
y: 198.1901397705078
z: -0.25721827149391174
visibility: 0.9999754428863525
","x: 207.36099243164062
y: 188.24586486816406
z: -0.2316427230834961
visibility: 0.999920666217804
","x: 209.2238311767578
y: 187.70620727539062
z: -0.23169657588005066
visibility: 0.9998828172683716
","x: 210.96824645996094
y: 187.2270050048828
z: -0.23163294792175293
visibility: 0.9998917579650879
","x: 202.09793090820312
y: 188.88980102539062
z: -0.24046862125396729
visibility: 0.9999472498893738
","x: 200.12771606445312
y: 189.01380920410156
z: -0.2404525727033615
visibility: 0.9999369978904724
","x: 198.1938934326172
y: 189.17982482910156
z: -0.2404443919658661
visibility: 0.9999426007270813
","x: 211.97071838378906
y: 187.76101684570312
z: -0.09467008709907532
visibility: 0.9998155236244202
","x: 194.754150390625
y: 191.46261596679688
z: -0.13172708451747894
visibility: 0.9999131560325623
","x: 208.235595703125
y: 206.2755126953125
z: -0.2069522589445114
visibility: 0.9999628663063049
","x: 202.24159240722656
y: 207.54031372070312
z: -0.21352365612983704
visibility: 0.9999775290489197
","x: 226.55584716796875
y: 222.26956176757812
z: 0.023926351219415665
visibility: 0.9999566078186035
","x: 184.2848663330078
y: 247.21734619140625
z: -0.09304337948560715
visibility: 0.9999298453330994
","x: 250.00033569335938
y: 249.66407775878906
z: 0.09462353587150574
visibility: 0.9902926683425903
","x: 182.0939483642578
y: 313.87579345703125
z: -0.1255464404821396
visibility: 0.9931558966636658
","x: 272.93768310546875
y: 279.9685363769531
z: -0.05291165038943291
visibility: 0.9928731322288513
","x: 205.3776397705078
y: 358.1313781738281
z: -0.22605200111865997
visibility: 0.9837904572486877
","x: 279.7026062011719
y: 292.4920349121094
z: -0.08460493385791779
visibility: 0.9826363921165466
","x: 207.39990234375
y: 378.2425537109375
z: -0.2566383481025696
visibility: 0.9597846865653992
","x: 276.6039733886719
y: 295.7449645996094
z: -0.11965248733758926
visibility: 0.9837096929550171
","x: 214.1873016357422
y: 372.80438232421875
z: -0.2823430001735687
visibility: 0.9604699015617371
","x: 273.6486511230469
y: 293.22735595703125
z: -0.07094141840934753
visibility: 0.9768158793449402
","x: 214.46705627441406
y: 365.3369140625
z: -0.23429110646247864
visibility: 0.9423207640647888
","x: 228.53819274902344
y: 356.6230773925781
z: 0.045543886721134186
visibility: 0.9994029402732849
","x: 208.06216430664062
y: 360.8311767578125
z: -0.04553157836198807
visibility: 0.999535322189331
","x: 216.55599975585938
y: 442.95587158203125
z: 0.06775306910276413
visibility: 0.9665438532829285
","x: 211.6809844970703
y: 445.58447265625
z: -0.05645577982068062
visibility: 0.9880082011222839
","x: 185.14540100097656
y: 482.0207214355469
z: 0.27543359994888306
visibility: 0.9520804286003113
","x: 207.38351440429688
y: 513.4044799804688
z: 0.07470738142728806
visibility: 0.9910262227058411
","x: 174.93624877929688
y: 490.6475524902344
z: 0.2912842929363251
visibility: 0.9372237920761108
","x: 206.4733428955078
y: 521.5538330078125
z: 0.08244539797306061
visibility: 0.9417283535003662
","x: 190.5643768310547
y: 518.1868286132812
z: 0.2147957980632782
visibility: 0.9563159942626953
","x: 216.05018615722656
y: 543.343994140625
z: -0.04375896602869034
visibility: 0.9843358397483826
","x: 273.7403564453125
y: 282.376953125
z: 0.0
","x: 277.546142578125
y: 287.97247314453125
z: 0.0017693336121737957
","x: 279.6616516113281
y: 295.837890625
z: -0.0003662763920146972
","x: 279.3490905761719
y: 303.2916259765625
z: -0.003152532735839486
","x: 278.01800537109375
y: 308.8442687988281
z: -0.0059694102965295315
","x: 282.18804931640625
y: 295.0340270996094
z: -0.008555211126804352
","x: 282.168212890625
y: 306.11029052734375
z: -0.01302698627114296
","x: 280.38690185546875
y: 310.02728271484375
z: -0.013862822204828262
","x: 279.0488586425781
y: 310.8432922363281
z: -0.013829833827912807
","x: 279.79278564453125
y: 293.67205810546875
z: -0.012179398909211159
","x: 279.5325012207031
y: 305.83355712890625
z: -0.017390254884958267
","x: 277.9816589355469
y: 309.9259033203125
z: -0.01676992140710354
","x: 276.82666015625
y: 310.89154052734375
z: -0.01569884829223156
","x: 276.6194152832031
y: 292.3102722167969
z: -0.01521993987262249
","x: 276.4753112792969
y: 304.0772705078125
z: -0.019557595252990723
","x: 275.25421142578125
y: 308.70538330078125
z: -0.017260173335671425
","x: 274.3984680175781
y: 310.0818176269531
z: -0.015203066170215607
","x: 273.3194580078125
y: 291.2073974609375
z: -0.0180585328489542
","x: 273.1487121582031
y: 300.90875244140625
z: -0.021127639338374138
","x: 272.85101318359375
y: 304.92352294921875
z: -0.019657909870147705
","x: 272.6423034667969
y: 306.58746337890625
z: -0.01807674765586853
","x: 197.11268615722656
y: 358.6514587402344
z: 0.0
","x: 202.40283203125
y: 359.1341552734375
z: 0.0021005794405937195
","x: 206.6162872314453
y: 366.07489013671875
z: 0.002682439750060439
","x: 209.4784698486328
y: 372.02984619140625
z: 0.0025485961232334375
","x: 211.8812713623047
y: 375.6805114746094
z: 0.0029821640346199274
","x: 205.23822021484375
y: 381.6796569824219
z: 0.0035302855540066957
","x: 209.20391845703125
y: 392.3782958984375
z: 0.0026752084959298372
","x: 212.6141357421875
y: 393.554443359375
z: 0.0029368277173489332
","x: 214.900634765625
y: 392.010009765625
z: 0.0037376703694462776
","x: 203.7986297607422
y: 384.51165771484375
z: 0.0016842959448695183
","x: 208.0921173095703
y: 394.8885803222656
z: 0.0012148359091952443
","x: 211.83230590820312
y: 396.1488037109375
z: 0.0019046163652092218
","x: 214.50225830078125
y: 395.04608154296875
z: 0.002652042079716921
","x: 202.85867309570312
y: 385.57769775390625
z: -0.0004026999231427908
","x: 206.9122314453125
y: 395.0853271484375
z: -0.0008228154038079083
","x: 210.5207061767578
y: 396.0694885253906
z: 0.00020314432913437486
","x: 213.18548583984375
y: 395.1449890136719
z: 0.0011240702588111162
","x: 202.37789916992188
y: 385.45501708984375
z: -0.002636526245623827
","x: 206.03297424316406
y: 393.23297119140625
z: -0.003057850059121847
","x: 209.2421112060547
y: 395.0582580566406
z: -0.002498035551980138
","x: 211.7545928955078
y: 395.0369567871094
z: -0.001739124651066959
"
13,"x: 205.41354370117188
y: 198.1901397705078
z: -0.25721827149391174
visibility: 0.9999754428863525
","x: 207.36099243164062
y: 188.24586486816406
z: -0.2316427230834961
visibility: 0.999920666217804
","x: 209.2238311767578
y: 187.70620727539062
z: -0.23169657588005066
visibility: 0.9998828172683716
","x: 210.96824645996094
y: 187.2270050048828
z: -0.23163294792175293
visibility: 0.9998917579650879
","x: 202.09793090820312
y: 188.88980102539062
z: -0.24046862125396729
visibility: 0.9999472498893738
","x: 200.12771606445312
y: 189.01380920410156
z: -0.2404525727033615
visibility: 0.9999369978904724
","x: 198.1938934326172
y: 189.17982482910156
z: -0.2404443919658661
visibility: 0.9999426007270813
","x: 211.97071838378906
y: 187.76101684570312
z: -0.09467008709907532
visibility: 0.9998155236244202
","x: 194.754150390625
y: 191.46261596679688
z: -0.13172708451747894
visibility: 0.9999131560325623
","x: 208.235595703125
y: 206.2755126953125
z: -0.2069522589445114
visibility: 0.9999628663063049
","x: 202.24159240722656
y: 207.54031372070312
z: -0.21352365612983704
visibility: 0.9999775290489197
","x: 226.55584716796875
y: 222.26956176757812
z: 0.023926351219415665
visibility: 0.9999566078186035
","x: 184.2848663330078
y: 247.21734619140625
z: -0.09304337948560715
visibility: 0.9999298453330994
","x: 250.00033569335938
y: 249.66407775878906
z: 0.09462353587150574
visibility: 0.9902926683425903
","x: 182.0939483642578
y: 313.87579345703125
z: -0.1255464404821396
visibility: 0.9931558966636658
","x: 272.93768310546875
y: 279.9685363769531
z: -0.05291165038943291
visibility: 0.9928731322288513
","x: 205.3776397705078
y: 358.1313781738281
z: -0.22605200111865997
visibility: 0.9837904572486877
","x: 279.7026062011719
y: 292.4920349121094
z: -0.08460493385791779
visibility: 0.9826363921165466
","x: 207.39990234375
y: 378.2425537109375
z: -0.2566383481025696
visibility: 0.9597846865653992
","x: 276.6039733886719
y: 295.7449645996094
z: -0.11965248733758926
visibility: 0.9837096929550171
","x: 214.1873016357422
y: 372.80438232421875
z: -0.2823430001735687
visibility: 0.9604699015617371
","x: 273.6486511230469
y: 293.22735595703125
z: -0.07094141840934753
visibility: 0.9768158793449402
","x: 214.46705627441406
y: 365.3369140625
z: -0.23429110646247864
visibility: 0.9423207640647888
","x: 228.53819274902344
y: 356.6230773925781
z: 0.045543886721134186
visibility: 0.9994029402732849
","x: 208.06216430664062
y: 360.8311767578125
z: -0.04553157836198807
visibility: 0.999535322189331
","x: 216.55599975585938
y: 442.95587158203125
z: 0.06775306910276413
visibility: 0.9665438532829285
","x: 211.6809844970703
y: 445.58447265625
z: -0.05645577982068062
visibility: 0.9880082011222839
","x: 185.14540100097656
y: 482.0207214355469
z: 0.27543359994888306
visibility: 0.9520804286003113
","x: 207.38351440429688
y: 513.4044799804688
z: 0.07470738142728806
visibility: 0.9910262227058411
","x: 174.93624877929688
y: 490.6475524902344
z: 0.2912842929363251
visibility: 0.9372237920761108
","x: 206.4733428955078
y: 521.5538330078125
z: 0.08244539797306061
visibility: 0.9417283535003662
","x: 190.5643768310547
y: 518.1868286132812
z: 0.2147957980632782
visibility: 0.9563159942626953
","x: 216.05018615722656
y: 543.343994140625
z: -0.04375896602869034
visibility: 0.9843358397483826
","x: 273.7403564453125
y: 282.376953125
z: 0.0
","x: 277.546142578125
y: 287.97247314453125
z: 0.0017693336121737957
","x: 279.6616516113281
y: 295.837890625
z: -0.0003662763920146972
","x: 279.3490905761719
y: 303.2916259765625
z: -0.003152532735839486
","x: 278.01800537109375
y: 308.8442687988281
z: -0.0059694102965295315
","x: 282.18804931640625
y: 295.0340270996094
z: -0.008555211126804352
","x: 282.168212890625
y: 306.11029052734375
z: -0.01302698627114296
","x: 280.38690185546875
y: 310.02728271484375
z: -0.013862822204828262
","x: 279.0488586425781
y: 310.8432922363281
z: -0.013829833827912807
","x: 279.79278564453125
y: 293.67205810546875
z: -0.012179398909211159
","x: 279.5325012207031
y: 305.83355712890625
z: -0.017390254884958267
","x: 277.9816589355469
y: 309.9259033203125
z: -0.01676992140710354
","x: 276.82666015625
y: 310.89154052734375
z: -0.01569884829223156
","x: 276.6194152832031
y: 292.3102722167969
z: -0.01521993987262249
","x: 276.4753112792969
y: 304.0772705078125
z: -0.019557595252990723
","x: 275.25421142578125
y: 308.70538330078125
z: -0.017260173335671425
","x: 274.3984680175781
y: 310.0818176269531
z: -0.015203066170215607
","x: 273.3194580078125
y: 291.2073974609375
z: -0.0180585328489542
","x: 273.1487121582031
y: 300.90875244140625
z: -0.021127639338374138
","x: 272.85101318359375
y: 304.92352294921875
z: -0.019657909870147705
","x: 272.6423034667969
y: 306.58746337890625
z: -0.01807674765586853
","x: 197.11268615722656
y: 358.6514587402344
z: 0.0
","x: 202.40283203125
y: 359.1341552734375
z: 0.0021005794405937195
","x: 206.6162872314453
y: 366.07489013671875
z: 0.002682439750060439
","x: 209.4784698486328
y: 372.02984619140625
z: 0.0025485961232334375
","x: 211.8812713623047
y: 375.6805114746094
z: 0.0029821640346199274
","x: 205.23822021484375
y: 381.6796569824219
z: 0.0035302855540066957
","x: 209.20391845703125
y: 392.3782958984375
z: 0.0026752084959298372
","x: 212.6141357421875
y: 393.554443359375
z: 0.0029368277173489332
","x: 214.900634765625
y: 392.010009765625
z: 0.0037376703694462776
","x: 203.7986297607422
y: 384.51165771484375
z: 0.0016842959448695183
","x: 208.0921173095703
y: 394.8885803222656
z: 0.0012148359091952443
","x: 211.83230590820312
y: 396.1488037109375
z: 0.0019046163652092218
","x: 214.50225830078125
y: 395.04608154296875
z: 0.002652042079716921
","x: 202.85867309570312
y: 385.57769775390625
z: -0.0004026999231427908
","x: 206.9122314453125
y: 395.0853271484375
z: -0.0008228154038079083
","x: 210.5207061767578
y: 396.0694885253906
z: 0.00020314432913437486
","x: 213.18548583984375
y: 395.1449890136719
z: 0.0011240702588111162
","x: 202.37789916992188
y: 385.45501708984375
z: -0.002636526245623827
","x: 206.03297424316406
y: 393.23297119140625
z: -0.003057850059121847
","x: 209.2421112060547
y: 395.0582580566406
z: -0.002498035551980138
","x: 211.7545928955078
y: 395.0369567871094
z: -0.001739124651066959
"
14,"x: 213.96678161621094
y: 193.56161499023438
z: -0.27515673637390137
visibility: 0.9999765157699585
","x: 216.51263427734375
y: 184.84872436523438
z: -0.24916811287403107
visibility: 0.9999232888221741
","x: 218.10177612304688
y: 184.9188232421875
z: -0.2492402046918869
visibility: 0.9998878836631775
","x: 219.56752014160156
y: 185.0316162109375
z: -0.24923262000083923
visibility: 0.999894917011261
","x: 211.66885375976562
y: 183.8782958984375
z: -0.25952160358428955
visibility: 0.9999486804008484
","x: 209.7657012939453
y: 183.4748992919922
z: -0.2595091760158539
visibility: 0.9999386072158813
","x: 207.88705444335938
y: 183.18580627441406
z: -0.25954800844192505
visibility: 0.9999430775642395
","x: 219.88417053222656
y: 186.6667938232422
z: -0.10508549213409424
visibility: 0.9998202919960022
","x: 203.12196350097656
y: 185.072998046875
z: -0.15417040884494781
visibility: 0.9999152421951294
","x: 215.4333953857422
y: 201.74740600585938
z: -0.22170016169548035
visibility: 0.9999647736549377
","x: 209.79318237304688
y: 201.4680633544922
z: -0.23465856909751892
visibility: 0.9999790191650391
","x: 230.75222778320312
y: 223.3726348876953
z: -0.012233708053827286
visibility: 0.9999590516090393
","x: 185.66156005859375
y: 237.46652221679688
z: -0.09020496904850006
visibility: 0.9999350905418396
","x: 247.8677215576172
y: 269.63116455078125
z: 0.019749276340007782
visibility: 0.9883415699005127
","x: 178.84954833984375
y: 298.40069580078125
z: -0.06961219012737274
visibility: 0.9930613040924072
","x: 272.5660095214844
y: 282.68963623046875
z: -0.2233392894268036
visibility: 0.9929453134536743
","x: 186.1012725830078
y: 348.6280517578125
z: -0.1881287395954132
visibility: 0.9843065738677979
","x: 280.757568359375
y: 286.8230895996094
z: -0.2728502154350281
visibility: 0.9833872318267822
","x: 187.3930206298828
y: 367.864013671875
z: -0.2179957628250122
visibility: 0.9614753127098083
","x: 279.9336853027344
y: 284.9423828125
z: -0.31718188524246216
visibility: 0.9845161437988281
","x: 192.18304443359375
y: 364.69012451171875
z: -0.2536666989326477
visibility: 0.9623216986656189
","x: 277.000244140625
y: 283.8528137207031
z: -0.24842257797718048
visibility: 0.9780753254890442
","x: 192.99583435058594
y: 358.617431640625
z: -0.2024766206741333
visibility: 0.9454639554023743
","x: 232.24525451660156
y: 354.13916015625
z: 0.04186328873038292
visibility: 0.9994094371795654
","x: 209.81488037109375
y: 359.7439880371094
z: -0.04188830778002739
visibility: 0.9995422959327698
","x: 231.3048095703125
y: 438.6605224609375
z: -0.055484991520643234
visibility: 0.9652349352836609
","x: 213.19839477539062
y: 447.5753173828125
z: -0.05828600376844406
visibility: 0.9865474104881287
","x: 206.07664489746094
y: 468.2409973144531
z: 0.27138978242874146
visibility: 0.9209852814674377
","x: 207.98666381835938
y: 515.4113159179688
z: 0.15118785202503204
visibility: 0.9870741963386536
","x: 196.92398071289062
y: 469.7944641113281
z: 0.30161628127098083
visibility: 0.9111797213554382
","x: 205.21188354492188
y: 525.0255126953125
z: 0.16740596294403076
visibility: 0.9307942986488342
","x: 206.12319946289062
y: 507.679443359375
z: 0.236768439412117
visibility: 0.9321533441543579
","x: 214.71395874023438
y: 545.2208862304688
z: 0.04885415360331535
visibility: 0.978718638420105
","x: 272.7539367675781
y: 279.2491455078125
z: 0.0
","x: 277.2203063964844
y: 285.234130859375
z: 0.0009930789237841964
","x: 280.9596252441406
y: 288.93695068359375
z: -0.0005954017397016287
","x: 283.2076416015625
y: 292.0689697265625
z: -0.0034141389187425375
","x: 284.3284912109375
y: 293.6529235839844
z: -0.005863083992153406
","x: 284.85986328125
y: 282.14227294921875
z: -0.0015289096627384424
","x: 287.7296142578125
y: 286.083740234375
z: -0.00586441345512867
","x: 286.501220703125
y: 289.8249816894531
z: -0.008011681027710438
","x: 284.8217468261719
y: 292.0187683105469
z: -0.00897808838635683
","x: 283.6961669921875
y: 278.6387939453125
z: -0.0050414991565048695
","x: 285.7122802734375
y: 283.589599609375
z: -0.009493764489889145
","x: 284.5405578613281
y: 287.81939697265625
z: -0.010368811897933483
","x: 283.09222412109375
y: 289.9337158203125
z: -0.010565751232206821
","x: 281.7707824707031
y: 275.62152099609375
z: -0.008814028464257717
","x: 283.30291748046875
y: 280.8785705566406
z: -0.012556659057736397
","x: 282.1022644042969
y: 284.5908508300781
z: -0.011302370578050613
","x: 280.6427307128906
y: 286.22918701171875
z: -0.010102421045303345
","x: 279.4548034667969
y: 273.44952392578125
z: -0.01279644574970007
","x: 280.9254150390625
y: 277.9995422363281
z: -0.015258056111633778
","x: 280.28985595703125
y: 281.55462646484375
z: -0.014031574130058289
","x: 279.2173156738281
y: 283.403564453125
z: -0.012742893770337105
",,,,,,,,,,,,,,,,,,,,,
15,"x: 213.96678161621094
y: 193.56161499023438
z: -0.27515673637390137
visibility: 0.9999765157699585
","x: 216.51263427734375
y: 184.84872436523438
z: -0.24916811287403107
visibility: 0.9999232888221741
","x: 218.10177612304688
y: 184.9188232421875
z: -0.2492402046918869
visibility: 0.9998878836631775
","x: 219.56752014160156
y: 185.0316162109375
z: -0.24923262000083923
visibility: 0.999894917011261
","x: 211.66885375976562
y: 183.8782958984375
z: -0.25952160358428955
visibility: 0.9999486804008484
","x: 209.7657012939453
y: 183.4748992919922
z: -0.2595091760158539
visibility: 0.9999386072158813
","x: 207.88705444335938
y: 183.18580627441406
z: -0.25954800844192505
visibility: 0.9999430775642395
","x: 219.88417053222656
y: 186.6667938232422
z: -0.10508549213409424
visibility: 0.9998202919960022
","x: 203.12196350097656
y: 185.072998046875
z: -0.15417040884494781
visibility: 0.9999152421951294
","x: 215.4333953857422
y: 201.74740600585938
z: -0.22170016169548035
visibility: 0.9999647736549377
","x: 209.79318237304688
y: 201.4680633544922
z: -0.23465856909751892
visibility: 0.9999790191650391
","x: 230.75222778320312
y: 223.3726348876953
z: -0.012233708053827286
visibility: 0.9999590516090393
","x: 185.66156005859375
y: 237.46652221679688
z: -0.09020496904850006
visibility: 0.9999350905418396
","x: 247.8677215576172
y: 269.63116455078125
z: 0.019749276340007782
visibility: 0.9883415699005127
","x: 178.84954833984375
y: 298.40069580078125
z: -0.06961219012737274
visibility: 0.9930613040924072
","x: 272.5660095214844
y: 282.68963623046875
z: -0.2233392894268036
visibility: 0.9929453134536743
","x: 186.1012725830078
y: 348.6280517578125
z: -0.1881287395954132
visibility: 0.9843065738677979
","x: 280.757568359375
y: 286.8230895996094
z: -0.2728502154350281
visibility: 0.9833872318267822
","x: 187.3930206298828
y: 367.864013671875
z: -0.2179957628250122
visibility: 0.9614753127098083
","x: 279.9336853027344
y: 284.9423828125
z: -0.31718188524246216
visibility: 0.9845161437988281
","x: 192.18304443359375
y: 364.69012451171875
z: -0.2536666989326477
visibility: 0.9623216986656189
","x: 277.000244140625
y: 283.8528137207031
z: -0.24842257797718048
visibility: 0.9780753254890442
","x: 192.99583435058594
y: 358.617431640625
z: -0.2024766206741333
visibility: 0.9454639554023743
","x: 232.24525451660156
y: 354.13916015625
z: 0.04186328873038292
visibility: 0.9994094371795654
","x: 209.81488037109375
y: 359.7439880371094
z: -0.04188830778002739
visibility: 0.9995422959327698
","x: 231.3048095703125
y: 438.6605224609375
z: -0.055484991520643234
visibility: 0.9652349352836609
","x: 213.19839477539062
y: 447.5753173828125
z: -0.05828600376844406
visibility: 0.9865474104881287
","x: 206.07664489746094
y: 468.2409973144531
z: 0.27138978242874146
visibility: 0.9209852814674377
","x: 207.98666381835938
y: 515.4113159179688
z: 0.15118785202503204
visibility: 0.9870741963386536
","x: 196.92398071289062
y: 469.7944641113281
z: 0.30161628127098083
visibility: 0.9111797213554382
","x: 205.21188354492188
y: 525.0255126953125
z: 0.16740596294403076
visibility: 0.9307942986488342
","x: 206.12319946289062
y: 507.679443359375
z: 0.236768439412117
visibility: 0.9321533441543579
","x: 214.71395874023438
y: 545.2208862304688
z: 0.04885415360331535
visibility: 0.978718638420105
","x: 272.7539367675781
y: 279.2491455078125
z: 0.0
","x: 277.2203063964844
y: 285.234130859375
z: 0.0009930789237841964
","x: 280.9596252441406
y: 288.93695068359375
z: -0.0005954017397016287
","x: 283.2076416015625
y: 292.0689697265625
z: -0.0034141389187425375
","x: 284.3284912109375
y: 293.6529235839844
z: -0.005863083992153406
","x: 284.85986328125
y: 282.14227294921875
z: -0.0015289096627384424
","x: 287.7296142578125
y: 286.083740234375
z: -0.00586441345512867
","x: 286.501220703125
y: 289.8249816894531
z: -0.008011681027710438
","x: 284.8217468261719
y: 292.0187683105469
z: -0.00897808838635683
","x: 283.6961669921875
y: 278.6387939453125
z: -0.0050414991565048695
","x: 285.7122802734375
y: 283.589599609375
z: -0.009493764489889145
","x: 284.5405578613281
y: 287.81939697265625
z: -0.010368811897933483
","x: 283.09222412109375
y: 289.9337158203125
z: -0.010565751232206821
","x: 281.7707824707031
y: 275.62152099609375
z: -0.008814028464257717
","x: 283.30291748046875
y: 280.8785705566406
z: -0.012556659057736397
","x: 282.1022644042969
y: 284.5908508300781
z: -0.011302370578050613
","x: 280.6427307128906
y: 286.22918701171875
z: -0.010102421045303345
","x: 279.4548034667969
y: 273.44952392578125
z: -0.01279644574970007
","x: 280.9254150390625
y: 277.9995422363281
z: -0.015258056111633778
","x: 280.28985595703125
y: 281.55462646484375
z: -0.014031574130058289
","x: 279.2173156738281
y: 283.403564453125
z: -0.012742893770337105
",,,,,,,,,,,,,,,,,,,,,
16,"x: 228.6394500732422
y: 181.42820739746094
z: -0.29455137252807617
visibility: 0.9999780654907227
","x: 232.35321044921875
y: 174.5358123779297
z: -0.2639523148536682
visibility: 0.9999287724494934
","x: 233.51046752929688
y: 175.63902282714844
z: -0.26403042674064636
visibility: 0.9998968243598938
","x: 234.5519256591797
y: 176.8450927734375
z: -0.26404431462287903
visibility: 0.9999023675918579
","x: 228.0543975830078
y: 171.18661499023438
z: -0.2812909483909607
visibility: 0.9999520182609558
","x: 226.37158203125
y: 169.86669921875
z: -0.2812579274177551
visibility: 0.9999427199363708
","x: 224.36016845703125
y: 168.48158264160156
z: -0.2812662720680237
visibility: 0.9999456405639648
","x: 231.89218139648438
y: 180.7911834716797
z: -0.1031181663274765
visibility: 0.9998325705528259
","x: 218.32748413085938
y: 168.7353515625
z: -0.17968693375587463
visibility: 0.9999213814735413
","x: 227.7502899169922
y: 190.82183837890625
z: -0.2329481840133667
visibility: 0.9999671578407288
","x: 222.76272583007812
y: 188.39883422851562
z: -0.2561417520046234
visibility: 0.9999807476997375
","x: 232.88490295410156
y: 220.5978546142578
z: -0.008763844147324562
visibility: 0.9999622702598572
","x: 186.8752899169922
y: 222.6724090576172
z: -0.09366080909967422
visibility: 0.9999406933784485
","x: 251.7038116455078
y: 266.08221435546875
z: -0.03992801159620285
visibility: 0.9830182194709778
","x: 177.21844482421875
y: 269.8851318359375
z: -0.06775639206171036
visibility: 0.9931480288505554
","x: 274.7728271484375
y: 275.80267333984375
z: -0.34615811705589294
visibility: 0.9929816126823425
","x: 177.00535583496094
y: 338.1557922363281
z: -0.16978849470615387
visibility: 0.9847707152366638
","x: 283.2877197265625
y: 284.205078125
z: -0.40730491280555725
visibility: 0.9842632412910461
","x: 177.2034912109375
y: 351.4233703613281
z: -0.19772787392139435
visibility: 0.9628207087516785
","x: 282.5071716308594
y: 274.578369140625
z: -0.4441341459751129
visibility: 0.9854108691215515
","x: 181.58457946777344
y: 348.169189453125
z: -0.23631779849529266
visibility: 0.963880181312561
","x: 279.20361328125
y: 275.146484375
z: -0.36974772810935974
visibility: 0.9793305397033691
","x: 183.33795166015625
y: 342.6441955566406
z: -0.18538376688957214
visibility: 0.948051393032074
","x: 233.6542510986328
y: 350.6158142089844
z: 0.06033653765916824
visibility: 0.999434232711792
","x: 210.8858642578125
y: 357.7035827636719
z: -0.06028245761990547
visibility: 0.9995521903038025
","x: 247.3597869873047
y: 427.1219482421875
z: 0.01327754557132721
visibility: 0.9667474031448364
","x: 216.3311309814453
y: 443.67730712890625
z: -0.10204082727432251
visibility: 0.9872170090675354
","x: 220.03839111328125
y: 474.7619934082031
z: 0.3381884694099426
visibility: 0.9222699403762817
","x: 208.28746032714844
y: 515.7767333984375
z: 0.08481699228286743
visibility: 0.9874981641769409
","x: 208.60409545898438
y: 471.386962890625
z: 0.3667580485343933
visibility: 0.9086604714393616
","x: 204.8620147705078
y: 526.6784057617188
z: 0.09770180284976959
visibility: 0.9283175468444824
","x: 235.7248992919922
y: 508.65130615234375
z: 0.2983430027961731
visibility: 0.9323202967643738
","x: 215.3797149658203
y: 547.3114013671875
z: -0.03350888192653656
visibility: 0.9792519807815552
","x: 275.51568603515625
y: 266.92578125
z: 0.0
","x: 280.9015197753906
y: 271.7910461425781
z: 0.0015581554034724832
","x: 285.1959533691406
y: 274.355224609375
z: 0.00012477586278691888
","x: 288.26898193359375
y: 275.7981262207031
z: -0.002775740111246705
","x: 290.2431945800781
y: 275.75506591796875
z: -0.005486845504492521
","x: 288.0489807128906
y: 267.39739990234375
z: -0.0009394623339176178
","x: 291.89105224609375
y: 267.2573547363281
z: -0.005744050722569227
","x: 291.368896484375
y: 270.6849670410156
z: -0.008418632671236992
","x: 290.01214599609375
y: 273.7873229980469
z: -0.009783503599464893
","x: 286.5457458496094
y: 264.2195129394531
z: -0.004883526358753443
","x: 289.7587890625
y: 263.54229736328125
z: -0.010276282206177711
","x: 289.3887634277344
y: 268.56396484375
z: -0.012257459573447704
","x: 288.0324401855469
y: 272.663330078125
z: -0.013066066429018974
","x: 284.3986511230469
y: 261.243408203125
z: -0.009065992198884487
","x: 287.30596923828125
y: 260.5496826171875
z: -0.013620071113109589
","x: 287.214111328125
y: 265.54681396484375
z: -0.013716294430196285
","x: 286.0266418457031
y: 269.5956726074219
z: -0.013332340866327286
","x: 281.8601379394531
y: 258.7679138183594
z: -0.01333822961896658
","x: 284.1817321777344
y: 257.295654296875
z: -0.016663162037730217
","x: 284.7759704589844
y: 260.6161804199219
z: -0.016661930829286575
","x: 284.3811950683594
y: 263.72076416015625
z: -0.016222886741161346
",,,,,,,,,,,,,,,,,,,,,
17,"x: 228.6394500732422
y: 181.42820739746094
z: -0.29455137252807617
visibility: 0.9999780654907227
","x: 232.35321044921875
y: 174.5358123779297
z: -0.2639523148536682
visibility: 0.9999287724494934
","x: 233.51046752929688
y: 175.63902282714844
z: -0.26403042674064636
visibility: 0.9998968243598938
","x: 234.5519256591797
y: 176.8450927734375
z: -0.26404431462287903
visibility: 0.9999023675918579
","x: 228.0543975830078
y: 171.18661499023438
z: -0.2812909483909607
visibility: 0.9999520182609558
","x: 226.37158203125
y: 169.86669921875
z: -0.2812579274177551
visibility: 0.9999427199363708
","x: 224.36016845703125
y: 168.48158264160156
z: -0.2812662720680237
visibility: 0.9999456405639648
","x: 231.89218139648438
y: 180.7911834716797
z: -0.1031181663274765
visibility: 0.9998325705528259
","x: 218.32748413085938
y: 168.7353515625
z: -0.17968693375587463
visibility: 0.9999213814735413
","x: 227.7502899169922
y: 190.82183837890625
z: -0.2329481840133667
visibility: 0.9999671578407288
","x: 222.76272583007812
y: 188.39883422851562
z: -0.2561417520046234
visibility: 0.9999807476997375
","x: 232.88490295410156
y: 220.5978546142578
z: -0.008763844147324562
visibility: 0.9999622702598572
","x: 186.8752899169922
y: 222.6724090576172
z: -0.09366080909967422
visibility: 0.9999406933784485
","x: 251.7038116455078
y: 266.08221435546875
z: -0.03992801159620285
visibility: 0.9830182194709778
","x: 177.21844482421875
y: 269.8851318359375
z: -0.06775639206171036
visibility: 0.9931480288505554
","x: 274.7728271484375
y: 275.80267333984375
z: -0.34615811705589294
visibility: 0.9929816126823425
","x: 177.00535583496094
y: 338.1557922363281
z: -0.16978849470615387
visibility: 0.9847707152366638
","x: 283.2877197265625
y: 284.205078125
z: -0.40730491280555725
visibility: 0.9842632412910461
","x: 177.2034912109375
y: 351.4233703613281
z: -0.19772787392139435
visibility: 0.9628207087516785
","x: 282.5071716308594
y: 274.578369140625
z: -0.4441341459751129
visibility: 0.9854108691215515
","x: 181.58457946777344
y: 348.169189453125
z: -0.23631779849529266
visibility: 0.963880181312561
","x: 279.20361328125
y: 275.146484375
z: -0.36974772810935974
visibility: 0.9793305397033691
","x: 183.33795166015625
y: 342.6441955566406
z: -0.18538376688957214
visibility: 0.948051393032074
","x: 233.6542510986328
y: 350.6158142089844
z: 0.06033653765916824
visibility: 0.999434232711792
","x: 210.8858642578125
y: 357.7035827636719
z: -0.06028245761990547
visibility: 0.9995521903038025
","x: 247.3597869873047
y: 427.1219482421875
z: 0.01327754557132721
visibility: 0.9667474031448364
","x: 216.3311309814453
y: 443.67730712890625
z: -0.10204082727432251
visibility: 0.9872170090675354
","x: 220.03839111328125
y: 474.7619934082031
z: 0.3381884694099426
visibility: 0.9222699403762817
","x: 208.28746032714844
y: 515.7767333984375
z: 0.08481699228286743
visibility: 0.9874981641769409
","x: 208.60409545898438
y: 471.386962890625
z: 0.3667580485343933
visibility: 0.9086604714393616
","x: 204.8620147705078
y: 526.6784057617188
z: 0.09770180284976959
visibility: 0.9283175468444824
","x: 235.7248992919922
y: 508.65130615234375
z: 0.2983430027961731
visibility: 0.9323202967643738
","x: 215.3797149658203
y: 547.3114013671875
z: -0.03350888192653656
visibility: 0.9792519807815552
","x: 275.51568603515625
y: 266.92578125
z: 0.0
","x: 280.9015197753906
y: 271.7910461425781
z: 0.0015581554034724832
","x: 285.1959533691406
y: 274.355224609375
z: 0.00012477586278691888
","x: 288.26898193359375
y: 275.7981262207031
z: -0.002775740111246705
","x: 290.2431945800781
y: 275.75506591796875
z: -0.005486845504492521
","x: 288.0489807128906
y: 267.39739990234375
z: -0.0009394623339176178
","x: 291.89105224609375
y: 267.2573547363281
z: -0.005744050722569227
","x: 291.368896484375
y: 270.6849670410156
z: -0.008418632671236992
","x: 290.01214599609375
y: 273.7873229980469
z: -0.009783503599464893
","x: 286.5457458496094
y: 264.2195129394531
z: -0.004883526358753443
","x: 289.7587890625
y: 263.54229736328125
z: -0.010276282206177711
","x: 289.3887634277344
y: 268.56396484375
z: -0.012257459573447704
","x: 288.0324401855469
y: 272.663330078125
z: -0.013066066429018974
","x: 284.3986511230469
y: 261.243408203125
z: -0.009065992198884487
","x: 287.30596923828125
y: 260.5496826171875
z: -0.013620071113109589
","x: 287.214111328125
y: 265.54681396484375
z: -0.013716294430196285
","x: 286.0266418457031
y: 269.5956726074219
z: -0.013332340866327286
","x: 281.8601379394531
y: 258.7679138183594
z: -0.01333822961896658
","x: 284.1817321777344
y: 257.295654296875
z: -0.016663162037730217
","x: 284.7759704589844
y: 260.6161804199219
z: -0.016661930829286575
","x: 284.3811950683594
y: 263.72076416015625
z: -0.016222886741161346
",,,,,,,,,,,,,,,,,,,,,
18,"x: 243.138427734375
y: 172.0743408203125
z: -0.2907804250717163
visibility: 0.9999799728393555
","x: 245.94923400878906
y: 165.4837646484375
z: -0.24971576035022736
visibility: 0.9999348521232605
","x: 246.73007202148438
y: 166.6964874267578
z: -0.2497173249721527
visibility: 0.9999055862426758
","x: 247.4430694580078
y: 168.07656860351562
z: -0.2496928870677948
visibility: 0.9999096989631653
","x: 242.43765258789062
y: 161.43603515625
z: -0.27332285046577454
visibility: 0.9999563097953796
","x: 240.76966857910156
y: 159.6922607421875
z: -0.2732868492603302
visibility: 0.9999478459358215
","x: 239.04872131347656
y: 157.97821044921875
z: -0.2732948958873749
visibility: 0.9999503493309021
","x: 244.96058654785156
y: 171.83834838867188
z: -0.07409999519586563
visibility: 0.9998418092727661
","x: 232.56405639648438
y: 157.9091033935547
z: -0.18378452956676483
visibility: 0.9999287724494934
","x: 241.6451416015625
y: 181.7619171142578
z: -0.21776382625102997
visibility: 0.9999679327011108
","x: 237.23834228515625
y: 178.2439422607422
z: -0.24703137576580048
visibility: 0.9999820590019226
","x: 241.82339477539062
y: 216.03353881835938
z: 0.0626453161239624
visibility: 0.9999582767486572
","x: 200.7601776123047
y: 201.1884307861328
z: -0.1379382461309433
visibility: 0.9999461770057678
","x: 255.36434936523438
y: 263.74371337890625
z: 0.1233716607093811
visibility: 0.9614145755767822
","x: 178.38279724121094
y: 238.3118896484375
z: -0.16620668768882751
visibility: 0.9937578439712524
","x: 283.0708923339844
y: 263.82470703125
z: -0.043005555868148804
visibility: 0.9914416670799255
