uscmakers/ReverseChoreography/data/2_skeletons_keshi.csv
,NOSE,LEFT_EYE_INNER,LEFT_EYE,LEFT_EYE_OUTER,RIGHT_EYE_INNER,RIGHT_EYE,RIGHT_EYE_OUTER,LEFT_EAR,RIGHT_EAR,MOUTH_LEFT,MOUTH_RIGHT,LEFT_SHOULDER,RIGHT_SHOULDER,LEFT_ELBOW,RIGHT_ELBOW,LEFT_WRIST,RIGHT_WRIST,LEFT_PINKY,RIGHT_PINKY,LEFT_INDEX,RIGHT_INDEX,LEFT_THUMB,RIGHT_THUMB,LEFT_HIP,RIGHT_HIP,LEFT_KNEE,RIGHT_KNEE,LEFT_ANKLE,RIGHT_ANKLE,LEFT_HEEL,RIGHT_HEEL,LEFT_FOOT_INDEX,RIGHT_FOOT_INDEX,WRIST,THUMB_CPC,THUMB_MCP,THUMB_IP,THUMB_TIP,INDEX_FINGER_MCP,INDEX_FINGER_PIP,INDEX_FINGER_DIP,INDEX_FINGER_TIP,MIDDLE_FINGER_MCP,MIDDLE_FINGER_PIP,MIDDLE_FINGER_DIP,MIDDLE_FINGER_TIP,RING_FINGER_PIP,RING_FINGER_DIP,RING_FINGER_TIP,RING_FINGER_MCP,PINKY_MCP,PINKY_PIP,PINKY_DIP,PINKY_TIP,WRIST2,THUMB_CPC2,THUMB_MCP2,THUMB_IP2,THUMB_TIP2,INDEX_FINGER_MCP2,INDEX_FINGER_PIP2,INDEX_FINGER_DIP2,INDEX_FINGER_TIP2,MIDDLE_FINGER_MCP2,MIDDLE_FINGER_PIP2,MIDDLE_FINGER_DIP2,MIDDLE_FINGER_TIP2,RING_FINGER_PIP2,RING_FINGER_DIP2,RING_FINGER_TIP2,RING_FINGER_MCP2,PINKY_MCP2,PINKY_PIP2,PINKY_DIP2,PINKY_TIP2
0,"x: 228.22445678710938
y: 163.9047088623047
z: -0.15639370679855347
visibility: 0.999982476234436
","x: 226.7628936767578
y: 157.12393188476562
z: -0.14084802567958832
visibility: 0.9999477863311768
","x: 226.71778869628906
y: 157.09249877929688
z: -0.1409296691417694
visibility: 0.999953031539917
","x: 226.6907958984375
y: 157.06222534179688
z: -0.14095017313957214
visibility: 0.9999477863311768
","x: 225.58804321289062
y: 156.97531127929688
z: -0.14971886575222015
visibility: 0.9999423027038574
","x: 224.62322998046875
y: 156.8380126953125
z: -0.14971132576465607
visibility: 0.9999397993087769
","x: 223.5901641845703
y: 156.74423217773438
z: -0.14972972869873047
visibility: 0.999933123588562
","x: 223.05148315429688
y: 159.771728515625
z: -0.03941195458173752
visibility: 0.9999383687973022
","x: 218.7257537841797
y: 159.53903198242188
z: -0.07825364172458649
visibility: 0.9999163150787354
","x: 227.19264221191406
y: 170.31710815429688
z: -0.11664904654026031
visibility: 0.9999812841415405
","x: 225.62884521484375
y: 170.67233276367188
z: -0.12810981273651123
visibility: 0.9999760389328003
","x: 238.3092803955078
y: 202.66329956054688
z: -0.003117411397397518
visibility: 0.9999943971633911
","x: 195.70098876953125
y: 206.71160888671875
z: 0.008009916171431541
visibility: 0.9999666213989258
","x: 254.11965942382812
y: 250.7713165283203
z: -0.03581376373767853
visibility: 0.9801399111747742
","x: 191.268798828125
y: 266.4158935546875
z: 0.036885373294353485
visibility: 0.9707087874412537
","x: 274.85498046875
y: 256.3192443847656
z: -0.24054256081581116
visibility: 0.9855676889419556
","x: 184.59268188476562
y: 316.48193359375
z: -0.0616525299847126
visibility: 0.9854795336723328
","x: 280.740234375
y: 258.5106201171875
z: -0.28283634781837463
visibility: 0.9745284914970398
","x: 181.60902404785156
y: 335.8121032714844
z: -0.08540496975183487
visibility: 0.9756361246109009
","x: 279.8373718261719
y: 254.99220275878906
z: -0.31374821066856384
visibility: 0.9779524207115173
","x: 183.0528564453125
y: 334.91827392578125
z: -0.12822742760181427
visibility: 0.9786251187324524
","x: 277.49462890625
y: 254.5240936279297
z: -0.25926142930984497
visibility: 0.9708452820777893
","x: 184.84271240234375
y: 329.6621398925781
z: -0.08151327818632126
visibility: 0.9732224345207214
","x: 238.88026428222656
y: 324.052734375
z: -0.023225024342536926
visibility: 0.9998044371604919
","x: 213.67410278320312
y: 331.48760986328125
z: 0.023293225094676018
visibility: 0.9997079968452454
","x: 256.0179748535156
y: 407.8612976074219
z: -0.05622413754463196
visibility: 0.998176097869873
","x: 208.7489013671875
y: 414.1427307128906
z: 0.013602523133158684
visibility: 0.9967278242111206
","x: 273.8183288574219
y: 490.0381774902344
z: 0.05267767980694771
visibility: 0.9975645542144775
","x: 217.4730224609375
y: 496.4206237792969
z: 0.1573334038257599
visibility: 0.9950100183486938
","x: 272.5145263671875
y: 499.79486083984375
z: 0.05470944195985794
visibility: 0.9268646240234375
","x: 222.68618774414062
y: 508.5139465332031
z: 0.16445592045783997
visibility: 0.9467188715934753
","x: 277.7237854003906
y: 517.523193359375
z: -0.07656200975179672
visibility: 0.9936864972114563
","x: 204.79266357421875
y: 518.9185180664062
z: 0.05815006047487259
visibility: 0.9918421506881714
","x: 184.2960662841797
y: 316.9830017089844
z: 0.0
","x: 184.23062133789062
y: 325.0738525390625
z: 0.0013314144453033805
","x: 183.53553771972656
y: 332.62347412109375
z: 0.0005385098047554493
","x: 183.8756103515625
y: 338.2835693359375
z: -0.0014190888032317162
","x: 184.58741760253906
y: 341.8454284667969
z: -0.0026535694487392902
","x: 179.01084899902344
y: 338.211181640625
z: 0.0022549263667315245
","x: 178.3916473388672
y: 346.3822021484375
z: -0.0002815127663780004
","x: 180.9749755859375
y: 344.9911804199219
z: -0.0013310781214386225
","x: 182.5399627685547
y: 341.8568420410156
z: -0.0016275503439828753
","x: 179.91050720214844
y: 337.889892578125
z: -0.00029036818887107074
","x: 180.2861785888672
y: 346.86566162109375
z: -0.0027687782421708107
","x: 182.85755920410156
y: 345.03948974609375
z: -0.003189593320712447
","x: 183.93348693847656
y: 341.0089111328125
z: -0.002833759179338813
","x: 181.40274047851562
y: 336.88348388671875
z: -0.0032453741878271103
","x: 182.5186767578125
y: 344.8040771484375
z: -0.0048386636190116405
","x: 184.45423889160156
y: 343.0313415527344
z: -0.004049420356750488
","x: 184.96319580078125
y: 339.5761413574219
z: -0.0031465294305235147
","x: 183.40696716308594
y: 335.15313720703125
z: -0.0064316317439079285
","x: 184.74343872070312
y: 340.60748291015625
z: -0.006774176377803087
","x: 185.89865112304688
y: 339.1275329589844
z: -0.005778416991233826
","x: 186.11805725097656
y: 336.1163635253906
z: -0.00484531419351697
",,,,,,,,,,,,,,,,,,,,,
1,"x: 228.22445678710938
y: 163.9047088623047
z: -0.15639370679855347
visibility: 0.999982476234436
","x: 226.7628936767578
y: 157.12393188476562
z: -0.14084802567958832
visibility: 0.9999477863311768
","x: 226.71778869628906
y: 157.09249877929688
z: -0.1409296691417694
visibility: 0.999953031539917
","x: 226.6907958984375
y: 157.06222534179688
z: -0.14095017313957214
visibility: 0.9999477863311768
","x: 225.58804321289062
y: 156.97531127929688
z: -0.14971886575222015
visibility: 0.9999423027038574
","x: 224.62322998046875
y: 156.8380126953125
z: -0.14971132576465607
visibility: 0.9999397993087769
","x: 223.5901641845703
y: 156.74423217773438
z: -0.14972972869873047
visibility: 0.999933123588562
","x: 223.05148315429688
y: 159.771728515625
z: -0.03941195458173752
visibility: 0.9999383687973022
","x: 218.7257537841797
y: 159.53903198242188
z: -0.07825364172458649
visibility: 0.9999163150787354
","x: 227.19264221191406
y: 170.31710815429688
z: -0.11664904654026031
visibility: 0.9999812841415405
","x: 225.62884521484375
y: 170.67233276367188
z: -0.12810981273651123
visibility: 0.9999760389328003
","x: 238.3092803955078
y: 202.66329956054688
z: -0.003117411397397518
visibility: 0.9999943971633911
","x: 195.70098876953125
y: 206.71160888671875
z: 0.008009916171431541
visibility: 0.9999666213989258
","x: 254.11965942382812
y: 250.7713165283203
z: -0.03581376373767853
visibility: 0.9801399111747742
","x: 191.268798828125
y: 266.4158935546875
z: 0.036885373294353485
visibility: 0.9707087874412537
","x: 274.85498046875
y: 256.3192443847656
z: -0.24054256081581116
visibility: 0.9855676889419556
","x: 184.59268188476562
y: 316.48193359375
z: -0.0616525299847126
visibility: 0.9854795336723328
","x: 280.740234375
y: 258.5106201171875
z: -0.28283634781837463
visibility: 0.9745284914970398
","x: 181.60902404785156
y: 335.8121032714844
z: -0.08540496975183487
visibility: 0.9756361246109009
","x: 279.8373718261719
y: 254.99220275878906
z: -0.31374821066856384
visibility: 0.9779524207115173
","x: 183.0528564453125
y: 334.91827392578125
z: -0.12822742760181427
visibility: 0.9786251187324524
","x: 277.49462890625
y: 254.5240936279297
z: -0.25926142930984497
visibility: 0.9708452820777893
","x: 184.84271240234375
y: 329.6621398925781
z: -0.08151327818632126
visibility: 0.9732224345207214
","x: 238.88026428222656
y: 324.052734375
z: -0.023225024342536926
visibility: 0.9998044371604919
","x: 213.67410278320312
y: 331.48760986328125
z: 0.023293225094676018
visibility: 0.9997079968452454
","x: 256.0179748535156
y: 407.8612976074219
z: -0.05622413754463196
visibility: 0.998176097869873
","x: 208.7489013671875
y: 414.1427307128906
z: 0.013602523133158684
visibility: 0.9967278242111206
","x: 273.8183288574219
y: 490.0381774902344
z: 0.05267767980694771
visibility: 0.9975645542144775
","x: 217.4730224609375
y: 496.4206237792969
z: 0.1573334038257599
visibility: 0.9950100183486938
","x: 272.5145263671875
y: 499.79486083984375
z: 0.05470944195985794
visibility: 0.9268646240234375
","x: 222.68618774414062
y: 508.5139465332031
z: 0.16445592045783997
visibility: 0.9467188715934753
","x: 277.7237854003906
y: 517.523193359375
z: -0.07656200975179672
visibility: 0.9936864972114563
","x: 204.79266357421875
y: 518.9185180664062
z: 0.05815006047487259
visibility: 0.9918421506881714
","x: 184.2960662841797
y: 316.9830017089844
z: 0.0
","x: 184.23062133789062
y: 325.0738525390625
z: 0.0013314144453033805
","x: 183.53553771972656
y: 332.62347412109375
z: 0.0005385098047554493
","x: 183.8756103515625
y: 338.2835693359375
z: -0.0014190888032317162
","x: 184.58741760253906
y: 341.8454284667969
z: -0.0026535694487392902
","x: 179.01084899902344
y: 338.211181640625
z: 0.0022549263667315245
","x: 178.3916473388672
y: 346.3822021484375
z: -0.0002815127663780004
","x: 180.9749755859375
y: 344.9911804199219
z: -0.0013310781214386225
","x: 182.5399627685547
y: 341.8568420410156
z: -0.0016275503439828753
","x: 179.91050720214844
y: 337.889892578125
z: -0.00029036818887107074
","x: 180.2861785888672
y: 346.86566162109375
z: -0.0027687782421708107
","x: 182.85755920410156
y: 345.03948974609375
z: -0.003189593320712447
","x: 183.93348693847656
y: 341.0089111328125
z: -0.002833759179338813
","x: 181.40274047851562
y: 336.88348388671875
z: -0.0032453741878271103
","x: 182.5186767578125
y: 344.8040771484375
z: -0.0048386636190116405
","x: 184.45423889160156
y: 343.0313415527344
z: -0.004049420356750488
","x: 184.96319580078125
y: 339.5761413574219
z: -0.0031465294305235147
","x: 183.40696716308594
y: 335.15313720703125
z: -0.0064316317439079285
","x: 184.74343872070312
y: 340.60748291015625
z: -0.006774176377803087
","x: 185.89865112304688
y: 339.1275329589844
z: -0.005778416991233826
","x: 186.11805725097656
y: 336.1163635253906
z: -0.00484531419351697
",,,,,,,,,,,,,,,,,,,,,
2,"x: 242.21969604492188
y: 168.32244873046875
z: -0.2240031659603119
visibility: 0.999970018863678
","x: 242.671630859375
y: 162.5115203857422
z: -0.21429398655891418
visibility: 0.9999071955680847
","x: 242.83349609375
y: 162.29783630371094
z: -0.2143528163433075
visibility: 0.9999139904975891
","x: 242.97715759277344
y: 161.716064453125
z: -0.21438124775886536
visibility: 0.9999048709869385
","x: 241.72805786132812
y: 162.140380859375
z: -0.222460076212883
visibility: 0.9999050498008728
","x: 241.21971130371094
y: 161.53977966308594
z: -0.2224923074245453
visibility: 0.9999026656150818
","x: 240.7014617919922
y: 160.78233337402344
z: -0.2225630283355713
visibility: 0.9998971819877625
","x: 239.73675537109375
y: 160.61322021484375
z: -0.12895457446575165
visibility: 0.9998780488967896
","x: 237.05039978027344
y: 160.15145874023438
z: -0.1661195307970047
visibility: 0.9998473525047302
","x: 240.66026306152344
y: 172.83224487304688
z: -0.18912407755851746
visibility: 0.9999641180038452
","x: 239.21292114257812
y: 172.91143798828125
z: -0.20011980831623077
visibility: 0.9999613761901855
","x: 251.2758331298828
y: 207.35238647460938
z: -0.08252066373825073
visibility: 0.9999878406524658
","x: 208.15106201171875
y: 203.08807373046875
z: -0.06846681982278824
visibility: 0.9999557137489319
","x: 262.8707275390625
y: 263.7938232421875
z: -0.06089099496603012
visibility: 0.9772709012031555
","x: 198.4676055908203
y: 259.3719177246094
z: -0.05362771078944206
visibility: 0.9690586924552917
","x: 289.0427551269531
y: 260.9127502441406
z: -0.2022477388381958
visibility: 0.9825280904769897
","x: 188.2357940673828
y: 306.1688537597656
z: -0.15714076161384583
visibility: 0.9842168092727661
","x: 296.068359375
y: 262.2339172363281
z: -0.23372581601142883
visibility: 0.9697621464729309
","x: 185.24143981933594
y: 323.4063415527344
z: -0.18055900931358337
visibility: 0.9733903408050537
","x: 296.177734375
y: 257.56964111328125
z: -0.27037960290908813
visibility: 0.9740160703659058
","x: 187.81219482421875
y: 322.9769287109375
z: -0.21815147995948792
visibility: 0.9766501784324646
","x: 293.8876037597656
y: 256.9051513671875
z: -0.22200432419776917
visibility: 0.966159462928772
","x: 189.57608032226562
y: 318.78375244140625
z: -0.17520691454410553
visibility: 0.9711174964904785
","x: 244.17471313476562
y: 323.48468017578125
z: -0.024953177198767662
visibility: 0.9997520446777344
","x: 222.6905517578125
y: 329.0698547363281
z: 0.025032084435224533
visibility: 0.9996704459190369
","x: 262.18438720703125
y: 406.4396667480469
z: -0.048313431441783905
visibility: 0.9981347322463989
","x: 212.1556396484375
y: 413.733154296875
z: 0.019172517582774162
visibility: 0.9964163899421692
","x: 277.0283203125
y: 489.4299621582031
z: 0.09106165170669556
visibility: 0.9975700974464417
","x: 216.82774353027344
y: 495.5396728515625
z: 0.15976694226264954
visibility: 0.994946300983429
","x: 277.92584228515625
y: 499.78106689453125
z: 0.09637283533811569
visibility: 0.9242684841156006
","x: 221.5831298828125
y: 507.323974609375
z: 0.16635951399803162
visibility: 0.9458321928977966
","x: 277.139404296875
y: 515.8789672851562
z: -0.03128046542406082
visibility: 0.9937373995780945
","x: 204.27642822265625
y: 518.5546875
z: 0.05777154117822647
visibility: 0.9917491674423218
",,,,,,,,,,,,,,,,,,,,,,"x: 287.73431396484375
y: 270.3890380859375
z: 0.0
","x: 288.9132385253906
y: 264.386474609375
z: -0.0033577235881239176
","x: 291.70989990234375
y: 259.5910949707031
z: -0.0054294574074447155
","x: 294.8912658691406
y: 260.4095458984375
z: -0.007848573848605156
","x: 297.5058898925781
y: 263.6268005371094
z: -0.009588836692273617
","x: 297.6346130371094
y: 256.0744934082031
z: -0.0011432585306465626
","x: 302.01220703125
y: 255.1140594482422
z: -0.00478779524564743
","x: 301.5126647949219
y: 257.07373046875
z: -0.00642826734110713
","x: 299.7457275390625
y: 258.851806640625
z: -0.006912954151630402
","x: 298.73480224609375
y: 260.8708801269531
z: -0.001575618633069098
","x: 303.0930480957031
y: 260.0759582519531
z: -0.005563125014305115
","x: 301.4844970703125
y: 261.4673156738281
z: -0.006759131792932749
","x: 299.15484619140625
y: 262.2138671875
z: -0.0064758425578475
","x: 299.0807189941406
y: 265.87957763671875
z: -0.0028334364760667086
","x: 302.0727844238281
y: 265.7011413574219
z: -0.006436259485781193
","x: 299.8047180175781
y: 266.41864013671875
z: -0.006190924905240536
","x: 297.5531005859375
y: 266.89825439453125
z: -0.004938897676765919
","x: 298.7105712890625
y: 271.4104919433594
z: -0.004686012864112854
","x: 301.2004699707031
y: 270.65936279296875
z: -0.006814776919782162
","x: 299.5040283203125
y: 270.41998291015625
z: -0.006544988136738539
","x: 297.5697021484375
y: 270.3428039550781
z: -0.005496653728187084
"
3,"x: 242.21969604492188
y: 168.32244873046875
z: -0.2240031659603119
visibility: 0.999970018863678
","x: 242.671630859375
y: 162.5115203857422
z: -0.21429398655891418
visibility: 0.9999071955680847
","x: 242.83349609375
y: 162.29783630371094
z: -0.2143528163433075
visibility: 0.9999139904975891
","x: 242.97715759277344
y: 161.716064453125
z: -0.21438124775886536
visibility: 0.9999048709869385
","x: 241.72805786132812
y: 162.140380859375
z: -0.222460076212883
visibility: 0.9999050498008728
","x: 241.21971130371094
y: 161.53977966308594
z: -0.2224923074245453
visibility: 0.9999026656150818
","x: 240.7014617919922
y: 160.78233337402344
z: -0.2225630283355713
visibility: 0.9998971819877625
","x: 239.73675537109375
y: 160.61322021484375
z: -0.12895457446575165
visibility: 0.9998780488967896
","x: 237.05039978027344
y: 160.15145874023438
z: -0.1661195307970047
visibility: 0.9998473525047302
","x: 240.66026306152344
y: 172.83224487304688
z: -0.18912407755851746
visibility: 0.9999641180038452
","x: 239.21292114257812
y: 172.91143798828125
z: -0.20011980831623077
visibility: 0.9999613761901855
","x: 251.2758331298828
y: 207.35238647460938
z: -0.08252066373825073
visibility: 0.9999878406524658
","x: 208.15106201171875
y: 203.08807373046875
z: -0.06846681982278824
visibility: 0.9999557137489319
","x: 262.8707275390625
y: 263.7938232421875
z: -0.06089099496603012
visibility: 0.9772709012031555
","x: 198.4676055908203
y: 259.3719177246094
z: -0.05362771078944206
visibility: 0.9690586924552917
","x: 289.0427551269531
y: 260.9127502441406
z: -0.2022477388381958
visibility: 0.9825280904769897
","x: 188.2357940673828
y: 306.1688537597656
z: -0.15714076161384583
visibility: 0.9842168092727661
","x: 296.068359375
y: 262.2339172363281
z: -0.23372581601142883
visibility: 0.9697621464729309
","x: 185.24143981933594
y: 323.4063415527344
z: -0.18055900931358337
visibility: 0.9733903408050537
","x: 296.177734375
y: 257.56964111328125
z: -0.27037960290908813
visibility: 0.9740160703659058
","x: 187.81219482421875
y: 322.9769287109375
z: -0.21815147995948792
visibility: 0.9766501784324646
","x: 293.8876037597656
y: 256.9051513671875
z: -0.22200432419776917
visibility: 0.966159462928772
","x: 189.57608032226562
y: 318.78375244140625
z: -0.17520691454410553
visibility: 0.9711174964904785
","x: 244.17471313476562
y: 323.48468017578125
z: -0.024953177198767662
visibility: 0.9997520446777344
","x: 222.6905517578125
y: 329.0698547363281
z: 0.025032084435224533
visibility: 0.9996704459190369
","x: 262.18438720703125
y: 406.4396667480469
z: -0.048313431441783905
visibility: 0.9981347322463989
","x: 212.1556396484375
y: 413.733154296875
z: 0.019172517582774162
visibility: 0.9964163899421692
","x: 277.0283203125
y: 489.4299621582031
z: 0.09106165170669556
visibility: 0.9975700974464417
","x: 216.82774353027344
y: 495.5396728515625
z: 0.15976694226264954
visibility: 0.994946300983429
","x: 277.92584228515625
y: 499.78106689453125
z: 0.09637283533811569
visibility: 0.9242684841156006
","x: 221.5831298828125
y: 507.323974609375
z: 0.16635951399803162
visibility: 0.9458321928977966
","x: 277.139404296875
y: 515.8789672851562
z: -0.03128046542406082
visibility: 0.9937373995780945
","x: 204.27642822265625
y: 518.5546875
z: 0.05777154117822647
visibility: 0.9917491674423218
",,,,,,,,,,,,,,,,,,,,,,"x: 287.73431396484375
y: 270.3890380859375
z: 0.0
","x: 288.9132385253906
y: 264.386474609375
z: -0.0033577235881239176
","x: 291.70989990234375
y: 259.5910949707031
z: -0.0054294574074447155
","x: 294.8912658691406
y: 260.4095458984375
z: -0.007848573848605156
","x: 297.5058898925781
y: 263.6268005371094
z: -0.009588836692273617
","x: 297.6346130371094
y: 256.0744934082031
z: -0.0011432585306465626
","x: 302.01220703125
y: 255.1140594482422
z: -0.00478779524564743
","x: 301.5126647949219
y: 257.07373046875
z: -0.00642826734110713
","x: 299.7457275390625
y: 258.851806640625
z: -0.006912954151630402
","x: 298.73480224609375
y: 260.8708801269531
z: -0.001575618633069098
","x: 303.0930480957031
y: 260.0759582519531
z: -0.005563125014305115
","x: 301.4844970703125
y: 261.4673156738281
z: -0.006759131792932749
","x: 299.15484619140625
y: 262.2138671875
z: -0.0064758425578475
","x: 299.0807189941406
y: 265.87957763671875
z: -0.0028334364760667086
","x: 302.0727844238281
y: 265.7011413574219
z: -0.006436259485781193
","x: 299.8047180175781
y: 266.41864013671875
z: -0.006190924905240536
","x: 297.5531005859375
y: 266.89825439453125
z: -0.004938897676765919
","x: 298.7105712890625
y: 271.4104919433594
z: -0.004686012864112854
","x: 301.2004699707031
y: 270.65936279296875
z: -0.006814776919782162
","x: 299.5040283203125
y: 270.41998291015625
z: -0.006544988136738539
","x: 297.5697021484375
y: 270.3428039550781
z: -0.005496653728187084
"
4,"x: 256.4334716796875
y: 186.31622314453125
z: -0.31858378648757935
visibility: 0.9999687671661377
","x: 256.6004638671875
y: 178.74447631835938
z: -0.3071206212043762
visibility: 0.9999028444290161
","x: 256.85589599609375
y: 178.7521209716797
z: -0.3071350157260895
visibility: 0.9999117255210876
","x: 257.1054382324219
y: 178.6937255859375
z: -0.30713140964508057
visibility: 0.999901294708252
","x: 254.69790649414062
y: 177.38853454589844
z: -0.31983813643455505
visibility: 0.9998942017555237
","x: 253.5711212158203
y: 176.4717254638672
z: -0.3198906183242798
visibility: 0.9998934864997864
","x: 252.41415405273438
y: 175.39126586914062
z: -0.319935142993927
visibility: 0.9998844265937805
","x: 252.75152587890625
y: 176.72268676757812
z: -0.20223979651927948
visibility: 0.9998705983161926
","x: 246.95729064941406
y: 172.71339416503906
z: -0.2621728479862213
visibility: 0.9998328685760498
","x: 254.3485107421875
y: 192.5538330078125
z: -0.27528050541877747
visibility: 0.9999628663063049
","x: 251.87356567382812
y: 191.35440063476562
z: -0.2929137349128723
visibility: 0.999960720539093
","x: 260.62127685546875
y: 220.65921020507812
z: -0.13750022649765015
visibility: 0.999988317489624
","x: 216.52503967285156
y: 207.53350830078125
z: -0.15015101432800293
visibility: 0.9999560117721558
","x: 266.45855712890625
y: 282.4704895019531
z: -0.10663101822137833
visibility: 0.9754943251609802
","x: 198.99510192871094
y: 254.98190307617188
z: -0.09544305503368378
visibility: 0.9708265662193298
","x: 291.45233154296875
y: 296.05023193359375
z: -0.25914567708969116
visibility: 0.9826772212982178
","x: 186.22216796875
y: 294.4559326171875
z: -0.1580439805984497
visibility: 0.9842577576637268
","x: 299.55230712890625
y: 296.31005859375
z: -0.2929506301879883
visibility: 0.9702479243278503
","x: 184.36074829101562
y: 310.6981201171875
z: -0.18167392909526825
visibility: 0.972582221031189
","x: 300.7173767089844
y: 291.84130859375
z: -0.3360821008682251
visibility: 0.9745240211486816
","x: 186.11697387695312
y: 309.89447021484375
z: -0.21881751716136932
visibility: 0.9761061668395996
","x: 297.8857421875
y: 291.7049255371094
z: -0.2815207242965698
visibility: 0.9669029116630554
","x: 187.1662139892578
y: 305.9601135253906
z: -0.17535468935966492
visibility: 0.9707194566726685
","x: 251.1508026123047
y: 329.24993896484375
z: -0.009706942364573479
visibility: 0.9997481107711792
","x: 226.64517211914062
y: 332.40667724609375
z: 0.009734207764267921
visibility: 0.999649703502655
","x: 265.3635559082031
y: 414.0668029785156
z: 0.01570977456867695
visibility: 0.9981772303581238
","x: 212.5166473388672
y: 415.7970886230469
z: 0.04561547935009003
visibility: 0.9963122010231018
","x: 284.34637451171875
y: 489.38665771484375
z: 0.21164266765117645
visibility: 0.9976253509521484
","x: 201.31813049316406
y: 493.3390808105469
z: 0.2530316412448883
visibility: 0.9948177933692932
","x: 288.60223388671875
y: 499.52734375
z: 0.22436031699180603
visibility: 0.919022262096405
","x: 200.50343322753906
y: 503.4382629394531
z: 0.2679550051689148
visibility: 0.9385815858840942
","x: 276.32421875
y: 516.64599609375
z: 0.09288784861564636
visibility: 0.9938899278640747
","x: 204.13609313964844
y: 518.5904541015625
z: 0.15052303671836853
visibility: 0.991601824760437
",,,,,,,,,,,,,,,,,,,,,,"x: 291.0204162597656
y: 302.9805603027344
z: 0.0
","x: 293.30242919921875
y: 296.0201416015625
z: -0.0025459923781454563
","x: 297.23870849609375
y: 291.08294677734375
z: -0.004053793847560883
","x: 301.35260009765625
y: 291.6883239746094
z: -0.00611379137262702
","x: 304.30645751953125
y: 294.60308837890625
z: -0.007338901050388813
","x: 302.3109436035156
y: 289.1003723144531
z: 0.00042436120565980673
","x: 306.892578125
y: 287.5138244628906
z: -0.0025492932181805372
","x: 304.8345642089844
y: 289.35308837890625
z: -0.003422941081225872
","x: 302.6316223144531
y: 290.62481689453125
z: -0.003518318524584174
","x: 303.2939147949219
y: 294.23809814453125
z: -0.0003527857188601047
","x: 307.5220947265625
y: 293.00653076171875
z: -0.0034229725133627653
","x: 304.9776306152344
y: 293.9786071777344
z: -0.0037898554001003504
","x: 302.9239501953125
y: 294.5934753417969
z: -0.0031809930223971605
","x: 303.2864685058594
y: 299.23907470703125
z: -0.0019759470596909523
","x: 306.6968994140625
y: 298.1484069824219
z: -0.005086892284452915
","x: 304.2195739746094
y: 298.4593505859375
z: -0.0045959786511957645
","x: 302.3382263183594
y: 299.0330505371094
z: -0.0033482550643384457
","x: 302.71453857421875
y: 304.3356628417969
z: -0.004123931750655174
","x: 305.23101806640625
y: 302.54864501953125
z: -0.005900862161070108
","x: 303.50433349609375
y: 302.3330383300781
z: -0.0054834927432239056
","x: 301.84149169921875
y: 302.8918151855469
z: -0.004417869262397289
"
5,"x: 256.4334716796875
y: 186.31622314453125
z: -0.31858378648757935
visibility: 0.9999687671661377
","x: 256.6004638671875
y: 178.74447631835938
z: -0.3071206212043762
visibility: 0.9999028444290161
","x: 256.85589599609375
y: 178.7521209716797
z: -0.3071350157260895
visibility: 0.9999117255210876
","x: 257.1054382324219
y: 178.6937255859375
z: -0.30713140964508057
visibility: 0.999901294708252
","x: 254.69790649414062
y: 177.38853454589844
z: -0.31983813643455505
visibility: 0.9998942017555237
","x: 253.5711212158203
y: 176.4717254638672
z: -0.3198906183242798
visibility: 0.9998934864997864
","x: 252.41415405273438
y: 175.39126586914062
z: -0.319935142993927
visibility: 0.9998844265937805
","x: 252.75152587890625
y: 176.72268676757812
z: -0.20223979651927948
visibility: 0.9998705983161926
","x: 246.95729064941406
y: 172.71339416503906
z: -0.2621728479862213
visibility: 0.9998328685760498
","x: 254.3485107421875
y: 192.5538330078125
z: -0.27528050541877747
visibility: 0.9999628663063049
","x: 251.87356567382812
y: 191.35440063476562
z: -0.2929137349128723
visibility: 0.999960720539093
","x: 260.62127685546875
y: 220.65921020507812
z: -0.13750022649765015
visibility: 0.999988317489624
","x: 216.52503967285156
y: 207.53350830078125
z: -0.15015101432800293
visibility: 0.9999560117721558
","x: 266.45855712890625
y: 282.4704895019531
z: -0.10663101822137833
visibility: 0.9754943251609802
","x: 198.99510192871094
y: 254.98190307617188
z: -0.09544305503368378
visibility: 0.9708265662193298
","x: 291.45233154296875
y: 296.05023193359375
z: -0.25914567708969116
visibility: 0.9826772212982178
","x: 186.22216796875
y: 294.4559326171875
z: -0.1580439805984497
visibility: 0.9842577576637268
","x: 299.55230712890625
y: 296.31005859375
z: -0.2929506301879883
visibility: 0.9702479243278503
","x: 184.36074829101562
y: 310.6981201171875
z: -0.18167392909526825
visibility: 0.972582221031189
","x: 300.7173767089844
y: 291.84130859375
z: -0.3360821008682251
visibility: 0.9745240211486816
","x: 186.11697387695312
y: 309.89447021484375
z: -0.21881751716136932
visibility: 0.9761061668395996
","x: 297.8857421875
y: 291.7049255371094
z: -0.2815207242965698
visibility: 0.9669029116630554
","x: 187.1662139892578
y: 305.9601135253906
z: -0.17535468935966492
visibility: 0.9707194566726685
","x: 251.1508026123047
y: 329.24993896484375
z: -0.009706942364573479
visibility: 0.9997481107711792
","x: 226.64517211914062
y: 332.40667724609375
z: 0.009734207764267921
visibility: 0.999649703502655
","x: 265.3635559082031
y: 414.0668029785156
z: 0.01570977456867695
visibility: 0.9981772303581238
","x: 212.5166473388672
y: 415.7970886230469
z: 0.04561547935009003
visibility: 0.9963122010231018
","x: 284.34637451171875
y: 489.38665771484375
z: 0.21164266765117645
visibility: 0.9976253509521484
","x: 201.31813049316406
y: 493.3390808105469
z: 0.2530316412448883
visibility: 0.9948177933692932
","x: 288.60223388671875
y: 499.52734375
z: 0.22436031699180603
visibility: 0.919022262096405
","x: 200.50343322753906
y: 503.4382629394531
z: 0.2679550051689148
visibility: 0.9385815858840942
","x: 276.32421875
y: 516.64599609375
z: 0.09288784861564636
visibility: 0.9938899278640747
","x: 204.13609313964844
y: 518.5904541015625
z: 0.15052303671836853
visibility: 0.991601824760437
",,,,,,,,,,,,,,,,,,,,,,"x: 291.0204162597656
y: 302.9805603027344
z: 0.0
","x: 293.30242919921875
y: 296.0201416015625
z: -0.0025459923781454563
","x: 297.23870849609375
y: 291.08294677734375
z: -0.004053793847560883
","x: 301.35260009765625
y: 291.6883239746094
z: -0.00611379137262702
","x: 304.30645751953125
y: 294.60308837890625
z: -0.007338901050388813
","x: 302.3109436035156
y: 289.1003723144531
z: 0.00042436120565980673
","x: 306.892578125
y: 287.5138244628906
z: -0.0025492932181805372
","x: 304.8345642089844
y: 289.35308837890625
z: -0.003422941081225872
","x: 302.6316223144531
y: 290.62481689453125
z: -0.003518318524584174
","x: 303.2939147949219
y: 294.23809814453125
z: -0.0003527857188601047
","x: 307.5220947265625
y: 293.00653076171875
z: -0.0034229725133627653
","x: 304.9776306152344
y: 293.9786071777344
z: -0.0037898554001003504
","x: 302.9239501953125
y: 294.5934753417969
z: -0.0031809930223971605
","x: 303.2864685058594
y: 299.23907470703125
z: -0.0019759470596909523
","x: 306.6968994140625
y: 298.1484069824219
z: -0.005086892284452915
","x: 304.2195739746094
y: 298.4593505859375
z: -0.0045959786511957645
","x: 302.3382263183594
y: 299.0330505371094
z: -0.0033482550643384457
","x: 302.71453857421875
y: 304.3356628417969
z: -0.004123931750655174
","x: 305.23101806640625
y: 302.54864501953125
z: -0.005900862161070108
","x: 303.50433349609375
y: 302.3330383300781
z: -0.0054834927432239056
","x: 301.84149169921875
y: 302.8918151855469
z: -0.004417869262397289
"
6,"x: 256.7445373535156
y: 199.06118774414062
z: -0.3006915748119354
visibility: 0.9999692440032959
","x: 257.85211181640625
y: 191.22976684570312
z: -0.28954753279685974
visibility: 0.999904453754425
","x: 258.0257568359375
y: 191.33522033691406
z: -0.2895450294017792
visibility: 0.9999133348464966
","x: 258.19500732421875
y: 191.4332733154297
z: -0.28953611850738525
visibility: 0.9999023079872131
","x: 255.94894409179688
y: 189.49407958984375
z: -0.3011530041694641
visibility: 0.9998931288719177
","x: 254.74937438964844
y: 188.31515502929688
z: -0.3012053668498993
visibility: 0.9998927712440491
","x: 253.50912475585938
y: 187.00074768066406
z: -0.301233172416687
visibility: 0.9998825192451477
","x: 254.05706787109375
y: 189.18479919433594
z: -0.18668442964553833
visibility: 0.9998739957809448
","x: 247.4147186279297
y: 183.36224365234375
z: -0.2417418211698532
visibility: 0.9998336434364319
","x: 254.25247192382812
y: 205.080322265625
z: -0.25800666213035583
visibility: 0.99996417760849
","x: 251.99732971191406
y: 203.17208862304688
z: -0.2741881310939789
visibility: 0.9999624490737915
","x: 262.386962890625
y: 234.2489471435547
z: -0.13143473863601685
visibility: 0.9999891519546509
","x: 217.12191772460938
y: 218.2163848876953
z: -0.13548584282398224
visibility: 0.9999591708183289
","x: 266.30560302734375
y: 298.39263916015625
z: -0.11867642402648926
visibility: 0.9749285578727722
","x: 197.9801788330078
y: 256.6868896484375
z: -0.11344565451145172
visibility: 0.9728312492370605
","x: 289.1443176269531
y: 324.4908447265625
z: -0.2822182774543762
visibility: 0.9831910133361816
","x: 179.3416748046875
y: 280.0286560058594
z: -0.21523992717266083
visibility: 0.9852822422981262
","x: 296.35968017578125
y: 328.30462646484375
z: -0.3185150623321533
visibility: 0.9712955951690674
","x: 173.7993621826172
y: 293.73162841796875
z: -0.24343697726726532
visibility: 0.9741003513336182
","x: 297.3772277832031
y: 323.6604309082031
z: -0.35876941680908203
visibility: 0.975483238697052
","x: 175.4447479248047
y: 293.05426025390625
z: -0.2783779501914978
visibility: 0.9775161743164062
","x: 294.9632873535156
y: 322.3413391113281
z: -0.30380064249038696
visibility: 0.9683359265327454
","x: 177.82708740234375
y: 288.7981262207031
z: -0.23341211676597595
visibility: 0.9725245237350464
","x: 252.97628784179688
y: 342.923828125
z: -0.0052530718967318535
visibility: 0.9997593760490417
","x: 227.7178192138672
y: 343.9440612792969
z: 0.005208954680711031
visibility: 0.9996620416641235
","x: 264.35845947265625
y: 424.7221374511719
z: 0.008604339323937893
visibility: 0.9982980489730835
","x: 214.2663116455078
y: 426.0482177734375
z: 0.053633518517017365
visibility: 0.99637371301651
","x: 283.7833251953125
y: 489.8758239746094
z: 0.24670186638832092
visibility: 0.9977137446403503
","x: 201.14230346679688
y: 492.5524597167969
z: 0.2986753582954407
visibility: 0.9949619770050049
","x: 287.76812744140625
y: 499.524169921875
z: 0.2656044363975525
visibility: 0.9175676703453064
","x: 200.8076171875
y: 500.6721496582031
z: 0.31843870878219604
visibility: 0.9363488554954529
","x: 276.35107421875
y: 517.2608642578125
z: 0.14358380436897278
visibility: 0.9941546320915222
","x: 204.04141235351562
y: 519.260986328125
z: 0.2057260274887085
visibility: 0.9918016195297241
",,,,,,,,,,,,,,,,,,,,,,,,,,,,,,,,,,,,,,,,,,
7,"x: 250.8255157470703
y: 193.69143676757812
z: -0.3059949278831482
visibility: 0.999963104724884
","x: 251.31076049804688
y: 186.51065063476562
z: -0.2947191596031189
visibility: 0.9998772144317627
","x: 251.68081665039062
y: 186.7115478515625
z: -0.29472312331199646
visibility: 0.9998922944068909
","x: 252.06610107421875
y: 186.85911560058594
z: -0.29471826553344727
visibility: 0.9998787045478821
","x: 249.28370666503906
y: 185.43165588378906
z: -0.29595497250556946
visibility: 0.9998392462730408
","x: 248.08763122558594
y: 184.9354248046875
z: -0.2960126996040344
visibility: 0.9998443722724915
","x: 246.80740356445312
y: 184.38177490234375
z: -0.2960708737373352
visibility: 0.9998282194137573
","x: 250.09149169921875
y: 188.71580505371094
z: -0.19862928986549377
visibility: 0.9998446702957153
","x: 241.7812957763672
y: 185.60784912109375
z: -0.20622925460338593
visibility: 0.9997139573097229
","x: 249.7295379638672
y: 200.97988891601562
z: -0.2671155333518982
visibility: 0.999956488609314
","x: 246.91268920898438
y: 200.28656005859375
z: -0.2693513035774231
visibility: 0.9999502301216125
","x: 260.0138244628906
y: 236.13653564453125
z: -0.1473115086555481
visibility: 0.9999887943267822
","x: 215.8297576904297
y: 223.4309539794922
z: -0.10366693884134293
visibility: 0.9999571442604065
","x: 264.90576171875
y: 300.2463073730469
z: -0.13106413185596466
visibility: 0.9744030833244324
","x: 197.3468017578125
y: 259.15863037109375
z: -0.08284027129411697
visibility: 0.9744332432746887
","x: 284.81829833984375
y: 339.7530822753906
z: -0.2688564658164978
visibility: 0.9830679297447205
","x: 174.19570922851562
y: 270.8511657714844
z: -0.21371591091156006
visibility: 0.9863260984420776
","x: 295.1087646484375
y: 346.3558654785156
z: -0.30387601256370544
visibility: 0.9713674187660217
","x: 165.76992797851562
y: 280.8917541503906
z: -0.24548916518688202
visibility: 0.9757833480834961
","x: 295.08172607421875
y: 344.1187744140625
z: -0.3419992923736572
visibility: 0.9755302667617798
","x: 166.4582061767578
y: 278.7529296875
z: -0.2828107476234436
visibility: 0.9790400266647339
","x: 294.1811218261719
y: 342.58660888671875
z: -0.2889857590198517
visibility: 0.9685823321342468
","x: 169.89964294433594
y: 275.43902587890625
z: -0.23472492396831512
visibility: 0.9744618535041809
","x: 251.8479766845703
y: 348.017333984375
z: -0.0091246347874403
visibility: 0.99977046251297
","x: 226.4374542236328
y: 348.0589294433594
z: 0.008822618052363396
visibility: 0.9996795058250427
","x: 264.0907287597656
y: 428.64215087890625
z: 0.0007058373303152621
visibility: 0.9984135627746582
","x: 214.04354858398438
y: 429.176513671875
z: 0.08229594677686691
visibility: 0.9964812994003296
","x: 283.0133056640625
y: 489.9901123046875
z: 0.24243441224098206
visibility: 0.9978459477424622
","x: 201.32846069335938
y: 492.3367004394531
z: 0.34112322330474854
visibility: 0.9952212572097778
","x: 287.9923400878906
y: 499.3802490234375
z: 0.2603450417518616
visibility: 0.9168667197227478
","x: 201.62966918945312
y: 500.1114501953125
z: 0.36187368631362915
visibility: 0.9366822242736816
","x: 275.7771301269531
y: 517.7758178710938
z: 0.12745046615600586
visibility: 0.9945297837257385
","x: 203.0457000732422
y: 520.0181884765625
z: 0.24896910786628723
visibility: 0.9922546744346619
",,,,,,,,,,,,,,,,,,,,,,,,,,,,,,,,,,,,,,,,,,
8,"x: 247.46798706054688
y: 188.7354278564453
z: -0.3003122806549072
visibility: 0.9999642372131348
","x: 247.6746063232422
y: 181.61477661132812
z: -0.286236047744751
visibility: 0.9998816847801208
","x: 248.13197326660156
y: 181.80030822753906
z: -0.2862555980682373
visibility: 0.9998968243598938
","x: 248.60003662109375
y: 181.94384765625
z: -0.2862425446510315
visibility: 0.9998837113380432
","x: 245.6636199951172
y: 180.7551727294922
z: -0.28653469681739807
visibility: 0.9998394250869751
","x: 244.60719299316406
y: 180.35935974121094
z: -0.2865748703479767
visibility: 0.999845564365387
","x: 243.64016723632812
y: 179.92715454101562
z: -0.2865906357765198
visibility: 0.9998281002044678
","x: 247.0274200439453
y: 184.9380340576172
z: -0.18649816513061523
visibility: 0.9998530149459839
","x: 238.65872192382812
y: 182.7284393310547
z: -0.18971699476242065
visibility: 0.9997081756591797
","x: 247.01947021484375
y: 196.19778442382812
z: -0.26147034764289856
visibility: 0.9999577403068542
","x: 243.8981475830078
y: 195.86839294433594
z: -0.26233622431755066
visibility: 0.9999495148658752
","x: 257.9491882324219
y: 236.883056640625
z: -0.1397019624710083
visibility: 0.9999886155128479
","x: 213.7642364501953
y: 224.89520263671875
z: -0.08560280501842499
visibility: 0.9999485611915588
","x: 263.8253173828125
y: 298.5894470214844
z: -0.1136481761932373
visibility: 0.9750248193740845
","x: 197.00686645507812
y: 265.61090087890625
z: -0.06864131987094879
visibility: 0.9746170043945312
","x: 278.3038635253906
y: 342.90655517578125
z: -0.2326039969921112
visibility: 0.9833325743675232
","x: 173.3568115234375
y: 263.951171875
z: -0.22122816741466522
visibility: 0.9870747923851013
","x: 286.1895446777344
y: 351.8595886230469
z: -0.2610843777656555
visibility: 0.9718746542930603
","x: 164.42784118652344
y: 270.745361328125
z: -0.25307831168174744
visibility: 0.9771045446395874
","x: 287.3929748535156
y: 350.0757141113281
z: -0.299398809671402
visibility: 0.9759320616722107
","x: 164.07826232910156
y: 267.897705078125
z: -0.2925298511981964
visibility: 0.9802582859992981
","x: 284.57037353515625
y: 348.0787658691406
z: -0.25069716572761536
visibility: 0.9692671298980713
","x: 167.8670654296875
y: 265.28570556640625
z: -0.2436765432357788
visibility: 0.9760667085647583
","x: 250.82228088378906
y: 348.57781982421875
z: -0.019669147208333015
visibility: 0.9997838735580444
","x: 225.5699920654297
y: 349.15765380859375
z: 0.019379282370209694
visibility: 0.9996968507766724
","x: 261.82025146484375
y: 429.15594482421875
z: 0.015104340389370918
visibility: 0.9985347986221313
","x: 213.33468627929688
y: 429.3175964355469
z: 0.10147998481988907
visibility: 0.9966046810150146
","x: 282.4119873046875
y: 490.3026123046875
z: 0.2603767216205597
visibility: 0.9980024099349976
","x: 200.80654907226562
y: 492.462158203125
z: 0.346022367477417
visibility: 0.9955251812934875
","x: 287.5659484863281
y: 499.41448974609375
z: 0.2775128483772278
visibility: 0.9189186096191406
","x: 201.8190460205078
y: 500.76397705078125
z: 0.36507827043533325
visibility: 0.9390295743942261
","x: 274.8770751953125
y: 518.9754638671875
z: 0.14363250136375427
visibility: 0.9949350357055664
","x: 201.97315979003906
y: 520.0059814453125
z: 0.2524845004081726
visibility: 0.992756187915802
",,,,,,,,,,,,,,,,,,,,,,"x: 275.9073791503906
y: 351.0414123535156
z: 0.0
","x: 277.2662048339844
y: 346.7698669433594
z: -0.004123138729482889
","x: 280.79193115234375
y: 343.7908935546875
z: -0.006173557136207819
","x: 283.7491760253906
y: 345.580078125
z: -0.00831238366663456
","x: 285.74169921875
y: 348.7713317871094
z: -0.010149411857128143
","x: 286.56939697265625
y: 344.79168701171875
z: -0.0031291241757571697
","x: 291.11767578125
y: 343.6797790527344
z: -0.006670352537184954
","x: 292.09051513671875
y: 345.38623046875
z: -0.00810506846755743
","x: 291.8478088378906
y: 347.1728515625
z: -0.008517728187143803
","x: 287.20068359375
y: 349.17022705078125
z: -0.003225099528208375
","x: 292.6739196777344
y: 349.07000732421875
z: -0.006374536547809839
","x: 293.5442810058594
y: 350.6341552734375
z: -0.007333061192184687
","x: 293.130859375
y: 351.7648010253906
z: -0.007403567899018526
","x: 286.7038269042969
y: 353.05828857421875
z: -0.0041213505901396275
","x: 290.2221374511719
y: 354.827392578125
z: -0.007655435707420111
","x: 289.5044250488281
y: 356.770263671875
z: -0.008078797720372677
","x: 288.3062744140625
y: 357.7490234375
z: -0.007473904173821211
","x: 285.1014404296875
y: 356.85150146484375
z: -0.005620787385851145
","x: 287.2432861328125
y: 358.81536865234375
z: -0.008353053592145443
","x: 286.2750549316406
y: 359.44549560546875
z: -0.008815904147922993
","x: 284.888916015625
y: 359.4049072265625
z: -0.008352561853826046
"
9,"x: 247.46798706054688
y: 188.7354278564453
z: -0.3003122806549072
visibility: 0.9999642372131348
","x: 247.6746063232422
y: 181.61477661132812
z: -0.286236047744751
visibility: 0.9998816847801208
","x: 248.13197326660156
y: 181.80030822753906
z: -0.2862555980682373
visibility: 0.9998968243598938
","x: 248.60003662109375
y: 181.94384765625
z: -0.2862425446510315
visibility: 0.9998837113380432
","x: 245.6636199951172
y: 180.7551727294922
z: -0.28653469681739807
visibility: 0.9998394250869751
","x: 244.60719299316406
y: 180.35935974121094
z: -0.2865748703479767
visibility: 0.999845564365387
","x: 243.64016723632812
y: 179.92715454101562
z: -0.2865906357765198
visibility: 0.9998281002044678
","x: 247.0274200439453
y: 184.9380340576172
z: -0.18649816513061523
visibility: 0.9998530149459839
","x: 238.65872192382812
y: 182.7284393310547
z: -0.18971699476242065
visibility: 0.9997081756591797
","x: 247.01947021484375
y: 196.19778442382812
z: -0.26147034764289856
visibility: 0.9999577403068542
","x: 243.8981475830078
y: 195.86839294433594
z: -0.26233622431755066
visibility: 0.9999495148658752
","x: 257.9491882324219
y: 236.883056640625
z: -0.1397019624710083
visibility: 0.9999886155128479
","x: 213.7642364501953
y: 224.89520263671875
z: -0.08560280501842499
visibility: 0.9999485611915588
","x: 263.8253173828125
y: 298.5894470214844
z: -0.1136481761932373
visibility: 0.9750248193740845
","x: 197.00686645507812
y: 265.61090087890625
z: -0.06864131987094879
visibility: 0.9746170043945312
","x: 278.3038635253906
y: 342.90655517578125
z: -0.2326039969921112
visibility: 0.9833325743675232
","x: 173.3568115234375
y: 263.951171875
z: -0.22122816741466522
visibility: 0.9870747923851013
","x: 286.1895446777344
y: 351.8595886230469
z: -0.2610843777656555
visibility: 0.9718746542930603
","x: 164.42784118652344
y: 270.745361328125
z: -0.25307831168174744
visibility: 0.9771045446395874
","x: 287.3929748535156
y: 350.0757141113281
z: -0.299398809671402
visibility: 0.9759320616722107
","x: 164.07826232910156
y: 267.897705078125
z: -0.2925298511981964
visibility: 0.9802582859992981
","x: 284.57037353515625
y: 348.0787658691406
z: -0.25069716572761536
visibility: 0.9692671298980713
","x: 167.8670654296875
y: 265.28570556640625
z: -0.2436765432357788
visibility: 0.9760667085647583
","x: 250.82228088378906
y: 348.57781982421875
z: -0.019669147208333015
visibility: 0.9997838735580444
","x: 225.5699920654297
y: 349.15765380859375
z: 0.019379282370209694
visibility: 0.9996968507766724
","x: 261.82025146484375
y: 429.15594482421875
z: 0.015104340389370918
visibility: 0.9985347986221313
","x: 213.33468627929688
y: 429.3175964355469
z: 0.10147998481988907
visibility: 0.9966046810150146
","x: 282.4119873046875
y: 490.3026123046875
z: 0.2603767216205597
visibility: 0.9980024099349976
","x: 200.80654907226562
y: 492.462158203125
z: 0.346022367477417
visibility: 0.9955251812934875
","x: 287.5659484863281
y: 499.41448974609375
z: 0.2775128483772278
visibility: 0.9189186096191406
","x: 201.8190460205078
y: 500.76397705078125
z: 0.36507827043533325
visibility: 0.9390295743942261
","x: 274.8770751953125
y: 518.9754638671875
z: 0.14363250136375427
visibility: 0.9949350357055664
","x: 201.97315979003906
y: 520.0059814453125
z: 0.2524845004081726
visibility: 0.992756187915802
",,,,,,,,,,,,,,,,,,,,,,"x: 275.9073791503906
y: 351.0414123535156
z: 0.0
","x: 277.2662048339844
y: 346.7698669433594
z: -0.004123138729482889
","x: 280.79193115234375
y: 343.7908935546875
z: -0.006173557136207819
","x: 283.7491760253906
y: 345.580078125
z: -0.00831238366663456
","x: 285.74169921875
y: 348.7713317871094
z: -0.010149411857128143
","x: 286.56939697265625
y: 344.79168701171875
z: -0.0031291241757571697
","x: 291.11767578125
y: 343.6797790527344
z: -0.006670352537184954
","x: 292.09051513671875
y: 345.38623046875
z: -0.00810506846755743
","x: 291.8478088378906
y: 347.1728515625
z: -0.008517728187143803
","x: 287.20068359375
y: 349.17022705078125
z: -0.003225099528208375
","x: 292.6739196777344
y: 349.07000732421875
z: -0.006374536547809839
","x: 293.5442810058594
y: 350.6341552734375
z: -0.007333061192184687
","x: 293.130859375
y: 351.7648010253906
z: -0.007403567899018526
","x: 286.7038269042969
y: 353.05828857421875
z: -0.0041213505901396275
","x: 290.2221374511719
y: 354.827392578125
z: -0.007655435707420111
","x: 289.5044250488281
y: 356.770263671875
z: -0.008078797720372677
","x: 288.3062744140625
y: 357.7490234375
z: -0.007473904173821211
","x: 285.1014404296875
y: 356.85150146484375
z: -0.005620787385851145
","x: 287.2432861328125
y: 358.81536865234375
z: -0.008353053592145443
","x: 286.2750549316406
y: 359.44549560546875
z: -0.008815904147922993
","x: 284.888916015625
y: 359.4049072265625
z: -0.008352561853826046
"
10,"x: 236.6887664794922
y: 188.62815856933594
z: -0.32136690616607666
visibility: 0.9999673366546631
","x: 238.72412109375
y: 181.1587371826172
z: -0.30670294165611267
visibility: 0.999891996383667
","x: 240.3110809326172
y: 181.23797607421875
z: -0.30670666694641113
visibility: 0.9999060034751892
","x: 241.85174560546875
y: 181.27288818359375
z: -0.3066744804382324
visibility: 0.9998939633369446
","x: 234.07713317871094
y: 180.6358184814453
z: -0.30533501505851746
visibility: 0.999852180480957
","x: 232.3563995361328
y: 180.35861206054688
z: -0.30537867546081543
visibility: 0.9998580813407898
","x: 230.76255798339844
y: 180.1023712158203
z: -0.3053576946258545
visibility: 0.9998414516448975
","x: 246.1407012939453
y: 184.5040283203125
z: -0.20098905265331268
visibility: 0.9998663663864136
","x: 228.11398315429688
y: 184.06883239746094
z: -0.19615648686885834
visibility: 0.9997292160987854
","x: 239.76559448242188
y: 196.6732635498047
z: -0.28036898374557495
visibility: 0.9999613165855408
","x: 233.3238983154297
y: 196.53378295898438
z: -0.2792057991027832
visibility: 0.9999529719352722
","x: 255.962646484375
y: 236.92340087890625
z: -0.146450936794281
visibility: 0.9999890923500061
","x: 212.07237243652344
y: 228.77410888671875
z: -0.08816756308078766
visibility: 0.9999428391456604
","x: 263.5146789550781
y: 299.11566162109375
z: -0.1202787309885025
visibility: 0.9768511652946472
","x: 196.27931213378906
y: 272.35467529296875
z: -0.09476734697818756
visibility: 0.9750440716743469
","x: 274.7122802734375
y: 347.033447265625
z: -0.23025837540626526
visibility: 0.9844183921813965
","x: 172.49659729003906
y: 261.42193603515625
z: -0.28441935777664185
visibility: 0.9878581166267395
","x: 281.2727966308594
y: 356.4488220214844
z: -0.2583296298980713
visibility: 0.9734059572219849
","x: 163.77281188964844
y: 265.6335144042969
z: -0.3233717083930969
visibility: 0.9784425497055054
","x: 282.32183837890625
y: 354.934326171875
z: -0.2968395948410034
visibility: 0.9772391319274902
","x: 163.15048217773438
y: 262.0244445800781
z: -0.3572379946708679
visibility: 0.9814531207084656
","x: 279.6123046875
y: 352.7128601074219
z: -0.24816128611564636
visibility: 0.9710438847541809
","x: 167.0145263671875
y: 260.06182861328125
z: -0.30540284514427185
visibility: 0.9775681495666504
","x: 249.80189514160156
y: 349.155029296875
z: -0.02078815922141075
visibility: 0.9997968673706055
","x: 224.88319396972656
y: 350.6414489746094
z: 0.020472360774874687
visibility: 0.9997130632400513
","x: 260.5635070800781
y: 428.82867431640625
z: 0.030139857903122902
visibility: 0.998647153377533
","x: 213.17242431640625
y: 428.4369201660156
z: 0.09708519279956818
visibility: 0.996803343296051
","x: 282.339599609375
y: 490.5115051269531
z: 0.26352718472480774
visibility: 0.998149573802948
","x: 200.89218139648438
y: 492.5234680175781
z: 0.3288419544696808
visibility: 0.9958516955375671
","x: 287.9136962890625
y: 499.414794921875
z: 0.2789264917373657
visibility: 0.9214151501655579
","x: 201.9337921142578
y: 500.5086975097656
z: 0.3461530804634094
visibility: 0.9418205618858337
","x: 274.8765563964844
y: 519.4573364257812
z: 0.1424892395734787
visibility: 0.9953086972236633
","x: 201.85009765625
y: 519.9945068359375
z: 0.23094503581523895
visibility: 0.9932701587677002
","x: 172.35821533203125
y: 257.03125
z: 0.0
","x: 170.76315307617188
y: 255.12986755371094
z: -0.002078010467812419
","x: 167.95333862304688
y: 257.4011535644531
z: -0.0033549468498677015
","x: 165.27230834960938
y: 263.2156982421875
z: -0.004340069368481636
","x: 163.7470245361328
y: 268.120361328125
z: -0.004874732811003923
","x: 160.62767028808594
y: 258.0074157714844
z: -0.0022078051697462797
","x: 156.80548095703125
y: 265.7341003417969
z: -0.002926205052062869
","x: 155.76370239257812
y: 271.4925537109375
z: -0.0031377607956528664
","x: 155.67660522460938
y: 276.12042236328125
z: -0.002999350195750594
","x: 159.56471252441406
y: 259.4841003417969
z: -0.00184525060467422
","x: 155.6274871826172
y: 266.99896240234375
z: -0.002252833917737007
","x: 154.90005493164062
y: 272.77838134765625
z: -0.002402185695245862
","x: 155.35733032226562
y: 277.00189208984375
z: -0.002568726660683751
","x: 159.25547790527344
y: 261.34039306640625
z: -0.001552591216750443
","x: 155.68951416015625
y: 267.6669921875
z: -0.00178490427788347
","x: 155.01324462890625
y: 272.76141357421875
z: -0.0018818958196789026
","x: 155.3539276123047
y: 276.6410217285156
z: -0.00211202260106802
","x: 159.55174255371094
y: 263.2184143066406
z: -0.001526637701317668
","x: 156.35765075683594
y: 267.46734619140625
z: -0.0017096127849072218
","x: 155.30526733398438
y: 271.10601806640625
z: -0.0015646937536075711
","x: 155.44540405273438
y: 274.25311279296875
z: -0.001462601125240326
",,,,,,,,,,,,,,,,,,,,,
11,"x: 236.6887664794922
y: 188.62815856933594
z: -0.32136690616607666
visibility: 0.9999673366546631
","x: 238.72412109375
y: 181.1587371826172
z: -0.30670294165611267
visibility: 0.999891996383667
","x: 240.3110809326172
y: 181.23797607421875
z: -0.30670666694641113
visibility: 0.9999060034751892
","x: 241.85174560546875
y: 181.27288818359375
z: -0.3066744804382324
visibility: 0.9998939633369446
","x: 234.07713317871094
y: 180.6358184814453
z: -0.30533501505851746
visibility: 0.999852180480957
","x: 232.3563995361328
y: 180.35861206054688
z: -0.30537867546081543
visibility: 0.9998580813407898
","x: 230.76255798339844
y: 180.1023712158203
z: -0.3053576946258545
visibility: 0.9998414516448975
","x: 246.1407012939453
y: 184.5040283203125
z: -0.20098905265331268
visibility: 0.9998663663864136
","x: 228.11398315429688
y: 184.06883239746094
z: -0.19615648686885834
visibility: 0.9997292160987854
","x: 239.76559448242188
y: 196.6732635498047
z: -0.28036898374557495
visibility: 0.9999613165855408
","x: 233.3238983154297
y: 196.53378295898438
z: -0.2792057991027832
visibility: 0.9999529719352722
","x: 255.962646484375
y: 236.92340087890625
z: -0.146450936794281
visibility: 0.9999890923500061
","x: 212.07237243652344
y: 228.77410888671875
z: -0.08816756308078766
visibility: 0.9999428391456604
","x: 263.5146789550781
y: 299.11566162109375
z: -0.1202787309885025
visibility: 0.9768511652946472
","x: 196.27931213378906
y: 272.35467529296875
z: -0.09476734697818756
visibility: 0.9750440716743469
","x: 274.7122802734375
y: 347.033447265625
z: -0.23025837540626526
visibility: 0.9844183921813965
","x: 172.49659729003906
y: 261.42193603515625
z: -0.28441935777664185
visibility: 0.9878581166267395
","x: 281.2727966308594
y: 356.4488220214844
z: -0.2583296298980713
visibility: 0.9734059572219849
","x: 163.77281188964844
y: 265.6335144042969
z: -0.3233717083930969
visibility: 0.9784425497055054
","x: 282.32183837890625
y: 354.934326171875
z: -0.2968395948410034
visibility: 0.9772391319274902
","x: 163.15048217773438
y: 262.0244445800781
z: -0.3572379946708679
visibility: 0.9814531207084656
","x: 279.6123046875
y: 352.7128601074219
z: -0.24816128611564636
visibility: 0.9710438847541809
","x: 167.0145263671875
y: 260.06182861328125
z: -0.30540284514427185
visibility: 0.9775681495666504
","x: 249.80189514160156
y: 349.155029296875
z: -0.02078815922141075
visibility: 0.9997968673706055
","x: 224.88319396972656
y: 350.6414489746094
z: 0.020472360774874687
visibility: 0.9997130632400513
","x: 260.5635070800781
y: 428.82867431640625
z: 0.030139857903122902
visibility: 0.998647153377533
","x: 213.17242431640625
y: 428.4369201660156
z: 0.09708519279956818
visibility: 0.996803343296051
","x: 282.339599609375
y: 490.5115051269531
z: 0.26352718472480774
visibility: 0.998149573802948
","x: 200.89218139648438
y: 492.5234680175781
z: 0.3288419544696808
visibility: 0.9958516955375671
","x: 287.9136962890625
y: 499.414794921875
z: 0.2789264917373657
visibility: 0.9214151501655579
","x: 201.9337921142578
y: 500.5086975097656
z: 0.3461530804634094
visibility: 0.9418205618858337
","x: 274.8765563964844
y: 519.4573364257812
z: 0.1424892395734787
visibility: 0.9953086972236633
","x: 201.85009765625
y: 519.9945068359375
z: 0.23094503581523895
visibility: 0.9932701587677002
","x: 172.35821533203125
y: 257.03125
z: 0.0
","x: 170.76315307617188
y: 255.12986755371094
z: -0.002078010467812419
","x: 167.95333862304688
y: 257.4011535644531
z: -0.0033549468498677015
","x: 165.27230834960938
y: 263.2156982421875
z: -0.004340069368481636
","x: 163.7470245361328
y: 268.120361328125
z: -0.004874732811003923
","x: 160.62767028808594
y: 258.0074157714844
z: -0.0022078051697462797
","x: 156.80548095703125
y: 265.7341003417969
z: -0.002926205052062869
","x: 155.76370239257812
y: 271.4925537109375
z: -0.0031377607956528664
","x: 155.67660522460938
y: 276.12042236328125
z: -0.002999350195750594
","x: 159.56471252441406
y: 259.4841003417969
z: -0.00184525060467422
","x: 155.6274871826172
y: 266.99896240234375
z: -0.002252833917737007
","x: 154.90005493164062
y: 272.77838134765625
z: -0.002402185695245862
","x: 155.35733032226562
y: 277.00189208984375
z: -0.002568726660683751
","x: 159.25547790527344
y: 261.34039306640625
z: -0.001552591216750443
","x: 155.68951416015625
y: 267.6669921875
z: -0.00178490427788347
","x: 155.01324462890625
y: 272.76141357421875
z: -0.0018818958196789026
","x: 155.3539276123047
y: 276.6410217285156
z: -0.00211202260106802
","x: 159.55174255371094
y: 263.2184143066406
z: -0.001526637701317668
","x: 156.35765075683594
y: 267.46734619140625
z: -0.0017096127849072218
","x: 155.30526733398438
y: 271.10601806640625
z: -0.0015646937536075711
","x: 155.44540405273438
y: 274.25311279296875
z: -0.001462601125240326
",,,,,,,,,,,,,,,,,,,,,
12,"x: 225.58917236328125
y: 189.44354248046875
z: -0.289436399936676
visibility: 0.9999691843986511
","x: 227.53729248046875
y: 182.2505340576172
z: -0.2799549102783203
visibility: 0.9998981356620789
","x: 229.38739013671875
y: 182.02911376953125
z: -0.2799606919288635
visibility: 0.9999118447303772
","x: 231.2834014892578
y: 181.88067626953125
z: -0.27993565797805786
visibility: 0.9999006390571594
","x: 222.88426208496094
y: 183.49331665039062
z: -0.2753455936908722
visibility: 0.9998582601547241
","x: 221.3738555908203
y: 184.1427764892578
z: -0.2753816843032837
visibility: 0.9998644590377808
","x: 219.97698974609375
y: 184.83340454101562
z: -0.27538830041885376
visibility: 0.9998472929000854
","x: 236.78909301757812
y: 185.39390563964844
z: -0.20234227180480957
visibility: 0.9998760223388672
","x: 219.57911682128906
y: 189.315185546875
z: -0.162477508187294
visibility: 0.9997337460517883
","x: 229.6636505126953
y: 196.05474853515625
z: -0.2570509612560272
visibility: 0.9999635815620422
","x: 223.9383087158203
y: 197.43589782714844
z: -0.25039130449295044
visibility: 0.9999536275863647
","x: 254.09193420410156
y: 236.1485137939453
z: -0.15737281739711761
visibility: 0.9999889135360718
","x: 210.9783935546875
y: 232.4140625
z: -0.062105417251586914
visibility: 0.9999393820762634
","x: 262.9526672363281
y: 298.8787536621094
z: -0.14753827452659607
visibility: 0.978513240814209
","x: 193.61282348632812
y: 276.34906005859375
z: -0.07139769941568375
visibility: 0.9747469425201416
","x: 274.4408264160156
y: 342.916748046875
z: -0.23665490746498108
visibility: 0.9851042032241821
","x: 171.1517791748047
y: 262.3614196777344
z: -0.24932658672332764
visibility: 0.9883795976638794
","x: 281.0440368652344
y: 352.705810546875
z: -0.2649632394313812
visibility: 0.9742270112037659
","x: 162.66622924804688
y: 265.21783447265625
z: -0.2850276529788971
visibility: 0.9792079329490662
","x: 282.0314025878906
y: 351.7213134765625
z: -0.30222055315971375
visibility: 0.9779335856437683
","x: 162.0909423828125
y: 261.2997131347656
z: -0.31408989429473877
visibility: 0.9821381568908691
","x: 279.2595520019531
y: 349.82403564453125
z: -0.24880370497703552
visibility: 0.9720274806022644
","x: 165.708251953125
y: 260.14752197265625
z: -0.26866957545280457
visibility: 0.9784826636314392
","x: 249.30410766601562
y: 347.6553039550781
z: -0.024714395403862
visibility: 0.9998071789741516
","x: 224.41305541992188
y: 350.14300537109375
z: 0.024448025971651077
visibility: 0.9997278451919556
","x: 260.2539367675781
y: 427.6885986328125
z: 0.013650787994265556
visibility: 0.9987403154373169
","x: 212.96023559570312
y: 428.2115173339844
z: 0.09686798602342606
visibility: 0.9970001578330994
","x: 282.150146484375
y: 490.5635986328125
z: 0.2385116070508957
visibility: 0.9982725381851196
","x: 201.1436004638672
y: 492.5601806640625
z: 0.3277539312839508
visibility: 0.9961287379264832
","x: 287.64691162109375
y: 499.44622802734375
z: 0.2534914016723633
visibility: 0.9229493141174316
","x: 202.03366088867188
y: 500.3160095214844
z: 0.3452948033809662
visibility: 0.9438326954841614
","x: 274.729736328125
y: 519.5928955078125
z: 0.11691255867481232
visibility: 0.9956161379814148
","x: 201.82601928710938
y: 519.9971923828125
z: 0.23362532258033752
visibility: 0.9937059283256531
",,,,,,,,,,,,,,,,,,,,,,"x: 274.813720703125
y: 350.0224304199219
z: 0.0
","x: 276.3029479980469
y: 346.7842102050781
z: -0.0056811110116541386
","x: 279.080078125
y: 345.15179443359375
z: -0.008447978645563126
","x: 281.6800537109375
y: 347.6253967285156
z: -0.010998809710144997
","x: 283.82366943359375
y: 350.4894714355469
z: -0.013152730651199818
","x: 285.11895751953125
y: 345.47119140625
z: -0.004288801923394203
","x: 289.2848205566406
y: 345.0649719238281
z: -0.008549528196454048
","x: 289.9260559082031
y: 347.44384765625
z: -0.010796964168548584
","x: 289.0059509277344
y: 349.61279296875
z: -0.011705501936376095
","x: 285.5959777832031
y: 350.2262878417969
z: -0.0035981829278171062
","x: 290.5370178222656
y: 352.0791015625
z: -0.008100336417555809
","x: 290.4841613769531
y: 354.2353515625
z: -0.010144734755158424
","x: 288.88116455078125
y: 355.4485778808594
z: -0.010557749308645725
","x: 285.03997802734375
y: 354.38177490234375
z: -0.003787336405366659
","x: 287.5181884765625
y: 357.6891784667969
z: -0.008038859814405441
","x: 285.91925048828125
y: 358.640869140625
z: -0.008811558596789837
","x: 283.8807678222656
y: 358.73876953125
z: -0.008176716044545174
","x: 283.4129333496094
y: 358.03253173828125
z: -0.004734201356768608
","x: 285.2366638183594
y: 360.66943359375
z: -0.007894722744822502
","x: 284.1705017089844
y: 361.0426330566406
z: -0.008683604188263416
","x: 282.62835693359375
y: 360.69927978515625
z: -0.00825186911970377
"
13,"x: 225.58917236328125
y: 189.44354248046875
z: -0.289436399936676
visibility: 0.9999691843986511
","x: 227.53729248046875
y: 182.2505340576172
z: -0.2799549102783203
visibility: 0.9998981356620789
","x: 229.38739013671875
y: 182.02911376953125
z: -0.2799606919288635
visibility: 0.9999118447303772
","x: 231.2834014892578
y: 181.88067626953125
z: -0.27993565797805786
visibility: 0.9999006390571594
","x: 222.88426208496094
y: 183.49331665039062
z: -0.2753455936908722
visibility: 0.9998582601547241
","x: 221.3738555908203
y: 184.1427764892578
z: -0.2753816843032837
visibility: 0.9998644590377808
","x: 219.97698974609375
y: 184.83340454101562
z: -0.27538830041885376
visibility: 0.9998472929000854
","x: 236.78909301757812
y: 185.39390563964844
z: -0.20234227180480957
visibility: 0.9998760223388672
","x: 219.57911682128906
y: 189.315185546875
z: -0.162477508187294
visibility: 0.9997337460517883
","x: 229.6636505126953
y: 196.05474853515625
z: -0.2570509612560272
visibility: 0.9999635815620422
","x: 223.9383087158203
y: 197.43589782714844
z: -0.25039130449295044
visibility: 0.9999536275863647
","x: 254.09193420410156
y: 236.1485137939453
z: -0.15737281739711761
visibility: 0.9999889135360718
","x: 210.9783935546875
y: 232.4140625
z: -0.062105417251586914
visibility: 0.9999393820762634
","x: 262.9526672363281
y: 298.8787536621094
z: -0.14753827452659607
visibility: 0.978513240814209
","x: 193.61282348632812
y: 276.34906005859375
z: -0.07139769941568375
visibility: 0.9747469425201416
","x: 274.4408264160156
y: 342.916748046875
z: -0.23665490746498108
visibility: 0.9851042032241821
","x: 171.1517791748047
y: 262.3614196777344
z: -0.24932658672332764
visibility: 0.9883795976638794
","x: 281.0440368652344
y: 352.705810546875
z: -0.2649632394313812
visibility: 0.9742270112037659
","x: 162.66622924804688
y: 265.21783447265625
z: -0.2850276529788971
visibility: 0.9792079329490662
","x: 282.0314025878906
y: 351.7213134765625
z: -0.30222055315971375
visibility: 0.9779335856437683
","x: 162.0909423828125
y: 261.2997131347656
z: -0.31408989429473877
visibility: 0.9821381568908691
","x: 279.2595520019531
y: 349.82403564453125
z: -0.24880370497703552
visibility: 0.9720274806022644
","x: 165.708251953125
y: 260.14752197265625
z: -0.26866957545280457
visibility: 0.9784826636314392
","x: 249.30410766601562
y: 347.6553039550781
z: -0.024714395403862
visibility: 0.9998071789741516
","x: 224.41305541992188
y: 350.14300537109375
z: 0.024448025971651077
visibility: 0.9997278451919556
","x: 260.2539367675781
y: 427.6885986328125
z: 0.013650787994265556
visibility: 0.9987403154373169
","x: 212.96023559570312
y: 428.2115173339844
z: 0.09686798602342606
visibility: 0.9970001578330994
","x: 282.150146484375
y: 490.5635986328125
z: 0.2385116070508957
visibility: 0.9982725381851196
","x: 201.1436004638672
y: 492.5601806640625
z: 0.3277539312839508
visibility: 0.9961287379264832
","x: 287.64691162109375
y: 499.44622802734375
z: 0.2534914016723633
visibility: 0.9229493141174316
","x: 202.03366088867188
y: 500.3160095214844
z: 0.3452948033809662
visibility: 0.9438326954841614
","x: 274.729736328125
y: 519.5928955078125
z: 0.11691255867481232
visibility: 0.9956161379814148
","x: 201.82601928710938
y: 519.9971923828125
z: 0.23362532258033752
visibility: 0.9937059283256531
",,,,,,,,,,,,,,,,,,,,,,"x: 274.813720703125
y: 350.0224304199219
z: 0.0
","x: 276.3029479980469
y: 346.7842102050781
z: -0.0056811110116541386
","x: 279.080078125
y: 345.15179443359375
z: -0.008447978645563126
","x: 281.6800537109375
y: 347.6253967285156
z: -0.010998809710144997
","x: 283.82366943359375
y: 350.4894714355469
z: -0.013152730651199818
","x: 285.11895751953125
y: 345.47119140625
z: -0.004288801923394203
","x: 289.2848205566406
y: 345.0649719238281
z: -0.008549528196454048
","x: 289.9260559082031
y: 347.44384765625
z: -0.010796964168548584
","x: 289.0059509277344
y: 349.61279296875
z: -0.011705501936376095
","x: 285.5959777832031
y: 350.2262878417969
z: -0.0035981829278171062
","x: 290.5370178222656
y: 352.0791015625
z: -0.008100336417555809
","x: 290.4841613769531
y: 354.2353515625
z: -0.010144734755158424
","x: 288.88116455078125
y: 355.4485778808594
z: -0.010557749308645725
","x: 285.03997802734375
y: 354.38177490234375
z: -0.003787336405366659
","x: 287.5181884765625
y: 357.6891784667969
z: -0.008038859814405441
","x: 285.91925048828125
y: 358.640869140625
z: -0.008811558596789837
","x: 283.8807678222656
y: 358.73876953125
z: -0.008176716044545174
","x: 283.4129333496094
y: 358.03253173828125
z: -0.004734201356768608
","x: 285.2366638183594
y: 360.66943359375
z: -0.007894722744822502
","x: 284.1705017089844
y: 361.0426330566406
z: -0.008683604188263416
","x: 282.62835693359375
y: 360.69927978515625
z: -0.00825186911970377
"
14,"x: 220.4313201904297
y: 191.95462036132812
z: -0.2652961313724518
visibility: 0.9999701976776123
","x: 222.3768310546875
y: 183.9677734375
z: -0.2762911319732666
visibility: 0.9999012351036072
","x: 223.92599487304688
y: 183.36392211914062
z: -0.2763729989528656
visibility: 0.9999154806137085
","x: 225.58749389648438
y: 182.8545379638672
z: -0.2763991057872772
visibility: 0.9999048113822937
","x: 218.732177734375
y: 185.81521606445312
z: -0.24355697631835938
visibility: 0.9998593330383301
","x: 217.66461181640625
y: 186.4433135986328
z: -0.2435927838087082
visibility: 0.999866783618927
","x: 216.68441772460938
y: 187.04827880859375
z: -0.2435987889766693
visibility: 0.9998489618301392
","x: 231.42227172851562
y: 185.66293334960938
z: -0.19963032007217407
visibility: 0.9998831748962402
","x: 217.849365234375
y: 190.09954833984375
z: -0.12767913937568665
visibility: 0.9997320175170898
","x: 224.14852905273438
y: 197.43882751464844
z: -0.24267840385437012
visibility: 0.9999648332595825
","x: 219.79771423339844
y: 199.2320556640625
z: -0.21849122643470764
visibility: 0.9999517798423767
","x: 253.36129760742188
y: 234.74183654785156
z: -0.16185255348682404
visibility: 0.9999883770942688
","x: 210.63743591308594
y: 232.8385009765625
z: -0.03250161558389664
visibility: 0.9999351501464844
","x: 262.61444091796875
y: 297.1336669921875
z: -0.1618150919675827
visibility: 0.9800711274147034
","x: 193.0443572998047
y: 278.45416259765625
z: -0.021515142172574997
visibility: 0.9745843410491943
","x: 275.02850341796875
y: 341.4720458984375
z: -0.2441115826368332
visibility: 0.9856633543968201
","x: 170.64761352539062
y: 264.58990478515625
z: -0.1920148730278015
visibility: 0.988841712474823
","x: 281.8228454589844
y: 350.6898193359375
z: -0.2675005793571472
visibility: 0.9746501445770264
","x: 162.12765502929688
y: 268.8717346191406
z: -0.22388029098510742
visibility: 0.9796966314315796
","x: 282.6632995605469
y: 349.6708984375
z: -0.30471596121788025
visibility: 0.9782952666282654
","x: 161.7904815673828
y: 265.5244140625
z: -0.24457481503486633
visibility: 0.9825939536094666
","x: 279.86016845703125
y: 347.97283935546875
z: -0.25540196895599365
visibility: 0.972611129283905
","x: 165.43109130859375
y: 263.8253479003906
z: -0.20888292789459229
visibility: 0.9791052341461182
","x: 249.005126953125
y: 347.30352783203125
z: -0.030781665816903114
visibility: 0.9998099207878113
","x: 224.18385314941406
y: 349.8532409667969
z: 0.030566420406103134
visibility: 0.999735951423645
","x: 260.2335205078125
y: 427.0328369140625
z: 0.00909515842795372
visibility: 0.9988119006156921
","x: 212.8187255859375
y: 427.53973388671875
z: 0.08724231272935867
visibility: 0.997201144695282
","x: 282.1260986328125
y: 490.7957458496094
z: 0.22223332524299622
visibility: 0.9983729720115662
","x: 201.20330810546875
y: 492.5932312011719
z: 0.3031841218471527
visibility: 0.9963930249214172
","x: 287.5184326171875
y: 499.72296142578125
z: 0.23674538731575012
visibility: 0.9234676957130432
","x: 202.05917358398438
y: 500.4167175292969
z: 0.3191632628440857
visibility: 0.9458875060081482
","x: 274.80029296875
y: 519.6442260742188
z: 0.10113958269357681
visibility: 0.9958671927452087
","x: 201.3329620361328
y: 520.0451049804688
z: 0.2100207358598709
visibility: 0.994123637676239
",,,,,,,,,,,,,,,,,,,,,,"x: 275.8011474609375
y: 348.0138854980469
z: 0.0
","x: 277.5306091308594
y: 344.61846923828125
z: -0.0031791487708687782
","x: 280.714599609375
y: 343.2064208984375
z: -0.004949270281940699
","x: 283.5733337402344
y: 345.8392333984375
z: -0.0069983890280127525
","x: 285.7814025878906
y: 348.09100341796875
z: -0.008763711899518967
","x: 286.3267822265625
y: 343.3935546875
z: -0.0002579240535851568
","x: 290.057373046875
y: 343.30877685546875
z: -0.003131226636469364
","x: 290.98382568359375
y: 344.24188232421875
z: -0.005001737270504236
","x: 290.33349609375
y: 344.9346618652344
z: -0.005795919802039862
","x: 286.878662109375
y: 347.7486572265625
z: -0.0006136791198514402
","x: 291.0736389160156
y: 349.12677001953125
z: -0.003556290175765753
","x: 291.3478088378906
y: 349.92626953125
z: -0.005370106548070908
","x: 290.13763427734375
y: 349.9905700683594
z: -0.005879417061805725
","x: 286.4761962890625
y: 351.9986267089844
z: -0.0017741727642714977
","x: 290.0359802246094
y: 353.8238525390625
z: -0.004461771808564663
","x: 290.26104736328125
y: 354.1990661621094
z: -0.005556848831474781
","x: 289.39703369140625
y: 354.0983581542969
z: -0.0056362152099609375
","x: 285.18505859375
y: 356.2801818847656
z: -0.003493168158456683
","x: 287.622314453125
y: 357.89532470703125
z: -0.005344884004443884
","x: 287.5438537597656
y: 357.863037109375
z: -0.005958428140729666
","x: 286.60540771484375
y: 357.4735107421875
z: -0.005836191587150097
"
15,"x: 220.4313201904297
y: 191.95462036132812
z: -0.2652961313724518
visibility: 0.9999701976776123
","x: 222.3768310546875
y: 183.9677734375
z: -0.2762911319732666
visibility: 0.9999012351036072
","x: 223.92599487304688
y: 183.36392211914062
z: -0.2763729989528656
visibility: 0.9999154806137085
","x: 225.58749389648438
y: 182.8545379638672
z: -0.2763991057872772
visibility: 0.9999048113822937
","x: 218.732177734375
y: 185.81521606445312
z: -0.24355697631835938
visibility: 0.9998593330383301
","x: 217.66461181640625
y: 186.4433135986328
z: -0.2435927838087082
visibility: 0.999866783618927
","x: 216.68441772460938
y: 187.04827880859375
z: -0.2435987889766693
visibility: 0.9998489618301392
","x: 231.42227172851562
y: 185.66293334960938
z: -0.19963032007217407
visibility: 0.9998831748962402
","x: 217.849365234375
y: 190.09954833984375
z: -0.12767913937568665
visibility: 0.9997320175170898
","x: 224.14852905273438
y: 197.43882751464844
z: -0.24267840385437012
visibility: 0.9999648332595825
","x: 219.79771423339844
y: 199.2320556640625
z: -0.21849122643470764
visibility: 0.9999517798423767
","x: 253.36129760742188
y: 234.74183654785156
z: -0.16185255348682404
visibility: 0.9999883770942688
","x: 210.63743591308594
y: 232.8385009765625
z: -0.03250161558389664
visibility: 0.9999351501464844
","x: 262.61444091796875
y: 297.1336669921875
z: -0.1618150919675827
visibility: 0.9800711274147034
","x: 193.0443572998047
y: 278.45416259765625
z: -0.021515142172574997
visibility: 0.9745843410491943
","x: 275.02850341796875
y: 341.4720458984375
z: -0.2441115826368332
visibility: 0.9856633543968201
","x: 170.64761352539062
y: 264.58990478515625
z: -0.1920148730278015
visibility: 0.988841712474823
","x: 281.8228454589844
y: 350.6898193359375
z: -0.2675005793571472
visibility: 0.9746501445770264
","x: 162.12765502929688
y: 268.8717346191406
z: -0.22388029098510742
visibility: 0.9796966314315796
","x: 282.6632995605469
y: 349.6708984375
z: -0.30471596121788025
visibility: 0.9782952666282654
","x: 161.7904815673828
y: 265.5244140625
z: -0.24457481503486633
visibility: 0.9825939536094666
","x: 279.86016845703125
y: 347.97283935546875
z: -0.25540196895599365
visibility: 0.972611129283905
","x: 165.43109130859375
y: 263.8253479003906
z: -0.20888292789459229
visibility: 0.9791052341461182
","x: 249.005126953125
y: 347.30352783203125
z: -0.030781665816903114
visibility: 0.9998099207878113
","x: 224.18385314941406
y: 349.8532409667969
z: 0.030566420406103134
visibility: 0.999735951423645
","x: 260.2335205078125
y: 427.0328369140625
z: 0.00909515842795372
visibility: 0.9988119006156921
","x: 212.8187255859375
y: 427.53973388671875
z: 0.08724231272935867
visibility: 0.997201144695282
","x: 282.1260986328125
y: 490.7957458496094
z: 0.22223332524299622
visibility: 0.9983729720115662
","x: 201.20330810546875
y: 492.5932312011719
z: 0.3031841218471527
visibility: 0.9963930249214172
","x: 287.5184326171875
y: 499.72296142578125
z: 0.23674538731575012
visibility: 0.9234676957130432
","x: 202.05917358398438
y: 500.4167175292969
z: 0.3191632628440857
visibility: 0.9458875060081482
","x: 274.80029296875
y: 519.6442260742188
z: 0.10113958269357681
visibility: 0.9958671927452087
","x: 201.3329620361328
y: 520.0451049804688
z: 0.2100207358598709
visibility: 0.994123637676239
",,,,,,,,,,,,,,,,,,,,,,"x: 275.8011474609375
y: 348.0138854980469
z: 0.0
","x: 277.5306091308594
y: 344.61846923828125
z: -0.0031791487708687782
","x: 280.714599609375
y: 343.2064208984375
z: -0.004949270281940699
","x: 283.5733337402344
y: 345.8392333984375
z: -0.0069983890280127525
","x: 285.7814025878906
y: 348.09100341796875
z: -0.008763711899518967
","x: 286.3267822265625
y: 343.3935546875
z: -0.0002579240535851568
","x: 290.057373046875
y: 343.30877685546875
z: -0.003131226636469364
","x: 290.98382568359375
y: 344.24188232421875
z: -0.005001737270504236
","x: 290.33349609375
y: 344.9346618652344
z: -0.005795919802039862
","x: 286.878662109375
y: 347.7486572265625
z: -0.0006136791198514402
","x: 291.0736389160156
y: 349.12677001953125
z: -0.003556290175765753
","x: 291.3478088378906
y: 349.92626953125
z: -0.005370106548070908
","x: 290.13763427734375
y: 349.9905700683594
z: -0.005879417061805725
","x: 286.4761962890625
y: 351.9986267089844
z: -0.0017741727642714977
","x: 290.0359802246094
y: 353.8238525390625
z: -0.004461771808564663
","x: 290.26104736328125
y: 354.1990661621094
z: -0.005556848831474781
","x: 289.39703369140625
y: 354.0983581542969
z: -0.0056362152099609375
","x: 285.18505859375
y: 356.2801818847656
z: -0.003493168158456683
","x: 287.622314453125
y: 357.89532470703125
z: -0.005344884004443884
","x: 287.5438537597656
y: 357.863037109375
z: -0.005958428140729666
","x: 286.60540771484375
y: 357.4735107421875
z: -0.005836191587150097
"
16,"x: 219.054443359375
y: 190.5559539794922
z: -0.2678961753845215
visibility: 0.9999723434448242
","x: 220.970947265625
y: 182.6569366455078
z: -0.26792019605636597
visibility: 0.9999085068702698
","x: 222.40386962890625
y: 182.20980834960938
z: -0.2679578363895416
visibility: 0.9999219179153442
","x: 223.96170043945312
y: 181.82467651367188
z: -0.26794904470443726
visibility: 0.9999120831489563
","x: 217.20599365234375
y: 184.13079833984375
z: -0.24439701437950134
visibility: 0.9998687505722046
","x: 216.01382446289062
y: 184.75039672851562
z: -0.24443772435188293
visibility: 0.9998759031295776
","x: 214.87449645996094
y: 185.41693115234375
z: -0.24442994594573975
visibility: 0.9998588562011719
","x: 229.5673370361328
y: 184.98269653320312
z: -0.20242507755756378
visibility: 0.9998927712440491
","x: 215.81515502929688
y: 188.963134765625
z: -0.1327679306268692
visibility: 0.9997474551200867
","x: 222.6340789794922
y: 196.63693237304688
z: -0.24438920617103577
visibility: 0.9999674558639526
","x: 218.16778564453125
y: 198.61497497558594
z: -0.21915166079998016
visibility: 0.9999542832374573
","x: 253.3006134033203
y: 233.27491760253906
z: -0.16328075528144836
visibility: 0.9999884366989136
","x: 210.14324951171875
y: 234.773681640625
z: -0.03778734430670738
visibility: 0.9999340772628784
","x: 262.8704528808594
y: 295.688720703125
z: -0.17093032598495483
visibility: 0.9816142916679382
","x: 192.3926239013672
y: 281.04986572265625
z: -0.02982260286808014
visibility: 0.974259078502655
","x: 275.5268249511719
y: 339.3793029785156
z: -0.2676110863685608
visibility: 0.9862618446350098
","x: 168.65350341796875
y: 267.46710205078125
z: -0.22786962985992432
visibility: 0.9890812039375305
","x: 282.1375732421875
y: 348.2061767578125
z: -0.29330161213874817
visibility: 0.9751397371292114
","x: 160.07920837402344
y: 273.06842041015625
z: -0.262552410364151
visibility: 0.9797831177711487
","x: 282.9640808105469
y: 346.95660400390625
z: -0.32628610730171204
visibility: 0.978731095790863
","x: 159.92054748535156
y: 270.07086181640625
z: -0.2881181836128235
visibility: 0.9827041029930115
","x: 280.2835693359375
y: 345.528076171875
z: -0.2818422317504883
visibility: 0.9733310341835022
","x: 163.23101806640625
y: 267.899658203125
z: -0.24628910422325134
visibility: 0.9793775677680969
","x: 248.9600067138672
y: 346.8074035644531
z: -0.03092932142317295
visibility: 0.999815046787262
","x: 224.1280975341797
y: 349.635986328125
z: 0.030754074454307556
visibility: 0.9997442364692688
","x: 260.1748352050781
y: 426.6734619140625
z: 0.005616136826574802
visibility: 0.9988608360290527
","x: 212.724609375
y: 427.1044616699219
z: 0.08288677036762238
visibility: 0.9973493814468384
","x: 282.0358581542969
y: 490.85589599609375
z: 0.22436073422431946
visibility: 0.9984540939331055
","x: 201.3007354736328
y: 492.5954895019531
z: 0.29750460386276245
visibility: 0.9965906739234924
","x: 287.39971923828125
y: 499.8091125488281
z: 0.23863384127616882
visibility: 0.9240328073501587
","x: 202.06204223632812
y: 500.4363708496094
z: 0.313286691904068
visibility: 0.9470628499984741
","x: 274.8504943847656
y: 519.766357421875
z: 0.1020234003663063
visibility: 0.9960725903511047
","x: 200.85179138183594
y: 520.03125
z: 0.2024318277835846
visibility: 0.9944339990615845
","x: 166.74822998046875
y: 265.89166259765625
z: 0.0
","x: 164.72572326660156
y: 267.1496887207031
z: -0.0034732024651020765
","x: 161.09722900390625
y: 270.48480224609375
z: -0.005011720582842827
","x: 157.91592407226562
y: 276.1225891113281
z: -0.005840643774718046
","x: 156.10760498046875
y: 281.4623718261719
z: -0.006167893297970295
","x: 156.4527587890625
y: 267.0585021972656
z: -0.004406796768307686
","x: 152.98727416992188
y: 275.5088806152344
z: -0.005856208968907595
","x: 152.5465087890625
y: 281.8890075683594
z: -0.0062242113053798676
","x: 153.1602020263672
y: 286.4525451660156
z: -0.006116432603448629
","x: 155.8109130859375
y: 268.6513671875
z: -0.0033283219672739506
","x: 152.29307556152344
y: 276.8379821777344
z: -0.004882290493696928
","x: 152.230224609375
y: 283.16558837890625
z: -0.0053807455115020275
","x: 153.4089813232422
y: 287.1077880859375
z: -0.005492787342518568
","x: 155.94149780273438
y: 270.9347839355469
z: -0.002372255316004157
","x: 152.88768005371094
y: 277.7612609863281
z: -0.0035693489480763674
","x: 152.67332458496094
y: 283.1589050292969
z: -0.004030309151858091
","x: 153.35633850097656
y: 286.71923828125
z: -0.004194039851427078
","x: 156.528564453125
y: 273.3038024902344
z: -0.0017347398679703474
","x: 153.912841796875
y: 278.09930419921875
z: -0.002396395429968834
","x: 153.32943725585938
y: 281.8204040527344
z: -0.0026637190021574497
","x: 153.55859375
y: 284.38739013671875
z: -0.0027322866953909397
",,,,,,,,,,,,,,,,,,,,,
17,"x: 219.054443359375
y: 190.5559539794922
z: -0.2678961753845215
visibility: 0.9999723434448242
","x: 220.970947265625
y: 182.6569366455078
z: -0.26792019605636597
visibility: 0.9999085068702698
","x: 222.40386962890625
y: 182.20980834960938
z: -0.2679578363895416
visibility: 0.9999219179153442
","x: 223.96170043945312
y: 181.82467651367188
z: -0.26794904470443726
visibility: 0.9999120831489563
","x: 217.20599365234375
y: 184.13079833984375
z: -0.24439701437950134
visibility: 0.9998687505722046
","x: 216.01382446289062
y: 184.75039672851562
z: -0.24443772435188293
visibility: 0.9998759031295776
","x: 214.87449645996094
y: 185.41693115234375
z: -0.24442994594573975
visibility: 0.9998588562011719
","x: 229.5673370361328
y: 184.98269653320312
z: -0.20242507755756378
visibility: 0.9998927712440491
","x: 215.81515502929688
y: 188.963134765625
z: -0.1327679306268692
visibility: 0.9997474551200867
","x: 222.6340789794922
y: 196.63693237304688
z: -0.24438920617103577
visibility: 0.9999674558639526
","x: 218.16778564453125
y: 198.61497497558594
z: -0.21915166079998016
visibility: 0.9999542832374573
","x: 253.3006134033203
y: 233.27491760253906
z: -0.16328075528144836
visibility: 0.9999884366989136
","x: 210.14324951171875
y: 234.773681640625
z: -0.03778734430670738
visibility: 0.9999340772628784
","x: 262.8704528808594
y: 295.688720703125
z: -0.17093032598495483
visibility: 0.9816142916679382
","x: 192.3926239013672
y: 281.04986572265625
z: -0.02982260286808014
visibility: 0.974259078502655
","x: 275.5268249511719
y: 339.3793029785156
z: -0.2676110863685608
visibility: 0.9862618446350098
","x: 168.65350341796875
y: 267.46710205078125
z: -0.22786962985992432
visibility: 0.9890812039375305
","x: 282.1375732421875
y: 348.2061767578125
z: -0.29330161213874817
visibility: 0.9751397371292114
","x: 160.07920837402344
y: 273.06842041015625
z: -0.262552410364151
visibility: 0.9797831177711487
","x: 282.9640808105469
y: 346.95660400390625
z: -0.32628610730171204
visibility: 0.978731095790863
","x: 159.92054748535156
y: 270.07086181640625
z: -0.2881181836128235
visibility: 0.9827041029930115
","x: 280.2835693359375
y: 345.528076171875
z: -0.2818422317504883
visibility: 0.9733310341835022
","x: 163.23101806640625
y: 267.899658203125
z: -0.24628910422325134
visibility: 0.9793775677680969
","x: 248.9600067138672
y: 346.8074035644531
z: -0.03092932142317295
visibility: 0.999815046787262
","x: 224.1280975341797
y: 349.635986328125
z: 0.030754074454307556
visibility: 0.9997442364692688
","x: 260.1748352050781
y: 426.6734619140625
z: 0.005616136826574802
visibility: 0.9988608360290527
","x: 212.724609375
y: 427.1044616699219
z: 0.08288677036762238
visibility: 0.9973493814468384
","x: 282.0358581542969
y: 490.85589599609375
z: 0.22436073422431946
visibility: 0.9984540939331055
","x: 201.3007354736328
y: 492.5954895019531
z: 0.29750460386276245
visibility: 0.9965906739234924
","x: 287.39971923828125
y: 499.8091125488281
z: 0.23863384127616882
visibility: 0.9240328073501587
","x: 202.06204223632812
y: 500.4363708496094
z: 0.313286691904068
visibility: 0.9470628499984741
","x: 274.8504943847656
y: 519.766357421875
z: 0.1020234003663063
visibility: 0.9960725903511047
","x: 200.85179138183594
y: 520.03125
z: 0.2024318277835846
visibility: 0.9944339990615845
","x: 166.74822998046875
y: 265.89166259765625
z: 0.0
","x: 164.72572326660156
y: 267.1496887207031
z: -0.0034732024651020765
","x: 161.09722900390625
y: 270.48480224609375
z: -0.005011720582842827
","x: 157.91592407226562
y: 276.1225891113281
z: -0.005840643774718046
","x: 156.10760498046875
y: 281.4623718261719
z: -0.006167893297970295
","x: 156.4527587890625
y: 267.0585021972656
z: -0.004406796768307686
","x: 152.98727416992188
y: 275.5088806152344
z: -0.005856208968907595
","x: 152.5465087890625
y: 281.8890075683594
z: -0.0062242113053798676
","x: 153.1602020263672
y: 286.4525451660156
z: -0.006116432603448629
","x: 155.8109130859375
y: 268.6513671875
z: -0.0033283219672739506
","x: 152.29307556152344
y: 276.8379821777344
z: -0.004882290493696928
","x: 152.230224609375
y: 283.16558837890625
z: -0.0053807455115020275
","x: 153.4089813232422
y: 287.1077880859375
z: -0.005492787342518568
","x: 155.94149780273438
y: 270.9347839355469
z: -0.002372255316004157
","x: 152.88768005371094
y: 277.7612609863281
z: -0.0035693489480763674
","x: 152.67332458496094
y: 283.1589050292969
z: -0.004030309151858091
","x: 153.35633850097656
y: 286.71923828125
z: -0.004194039851427078
","x: 156.528564453125
y: 273.3038024902344
z: -0.0017347398679703474
","x: 153.912841796875
y: 278.09930419921875
z: -0.002396395429968834
","x: 153.32943725585938
y: 281.8204040527344
z: -0.0026637190021574497
","x: 153.55859375
y: 284.38739013671875
z: -0.0027322866953909397
",,,,,,,,,,,,,,,,,,,,,
18,"x: 219.11441040039062
y: 190.5492401123047
z: -0.2843685746192932
visibility: 0.9999745488166809
","x: 220.57667541503906
y: 182.51406860351562
z: -0.27926331758499146
visibility: 0.9999162554740906
","x: 221.94171142578125
y: 181.9921112060547
z: -0.2793028950691223
visibility: 0.9999285936355591
","x: 223.48667907714844
y: 181.5412139892578
z: -0.27929025888442993
visibility: 0.9999197125434875
","x: 216.72447204589844
y: 184.33462524414062
z: -0.26313480734825134
visibility: 0.9998791813850403
","x: 215.3869171142578
y: 185.1490020751953
z: -0.2631744146347046
visibility: 0.9998855590820312
","x: 214.11456298828125
y: 186.0186004638672
z: -0.2631644606590271
visibility: 0.9998694658279419
","x: 228.88140869140625
y: 184.62322998046875
z: -0.20924749970436096
visibility: 0.999902606010437
","x: 214.5833282470703
y: 189.99685668945312
z: -0.14009666442871094
visibility: 0.9997650384902954
","x: 222.70372009277344
y: 196.8130340576172
z: -0.2573724389076233
visibility: 0.9999702572822571
","x: 218.29376220703125
y: 199.0309295654297
z: -0.2368941754102707
visibility: 0.9999575018882751
","x: 253.112060546875
y: 232.31980895996094
z: -0.17136533558368683
visibility: 0.9999890327453613
","x: 209.79322814941406
y: 237.9539337158203
z: -0.043468501418828964
visibility: 0.9999334216117859
","x: 263.144775390625
y: 294.1677551269531
z: -0.18624015152454376
visibility: 0.9831093549728394
","x: 192.4603271484375
y: 284.715087890625
z: -0.059735257178545
visibility: 0.9721894860267639
","x: 275.7659606933594
y: 338.2980041503906
z: -0.2949085831642151
visibility: 0.9869908094406128
","x: 168.55130004882812
y: 270.14447021484375
z: -0.27546387910842896
visibility: 0.9889287948608398
","x: 282.47344970703125
y: 347.9859619140625
z: -0.3254845142364502
visibility: 0.9760851263999939
","x: 159.78575134277344
y: 276.8157958984375
z: -0.3137586712837219
visibility: 0.9794110655784607
","x: 283.2821960449219
y: 347.06036376953125
z: -0.3565692603588104
visibility: 0.979542076587677
","x: 159.41639709472656
y: 273.82086181640625
z: -0.3436613380908966
visibility: 0.9824289083480835
","x: 280.5215148925781
y: 345.3597412109375
z: -0.30943354964256287
visibility: 0.9744170308113098
","x: 162.82891845703125
y: 271.3342590332031
z: -0.296003133058548
visibility: 0.9792305827140808
","x: 249.0809783935547
y: 347.31024169921875
z: -0.03312193602323532
visibility: 0.999821662902832
","x: 224.25645446777344
y: 350.3588562011719
z: 0.032993484288454056
visibility: 0.9997518062591553
","x: 260.1520080566406
y: 426.6446228027344
z: 0.007325060665607452
visibility: 0.9989002346992493
","x: 212.659912109375
y: 426.8212890625
z: 0.07968562841415405
visibility: 0.9974443316459656
","x: 281.92498779296875
y: 490.9640808105469
z: 0.22705209255218506
visibility: 0.9985286593437195
","x: 201.46176147460938
y: 492.6190185546875
z: 0.29418978095054626
visibility: 0.9967531561851501
","x: 287.201904296875
y: 499.85028076171875
z: 0.24079720675945282
visibility: 0.9248265624046326
","x: 202.3217010498047
y: 500.5539245605469
z: 0.30984145402908325
visibility: 0.9487258195877075
","x: 274.7183532714844
y: 520.1886596679688
z: 0.10347993671894073
visibility: 0.9962517023086548
","x: 200.4129638671875
y: 519.9727783203125
z: 0.19832123816013336
visibility: 0.9946951270103455
","x: 166.9401397705078
y: 268.8870544433594
z: 0.0
","x: 164.85804748535156
y: 272.1346740722656
z: -0.0032787758391350508
","x: 161.48638916015625
y: 274.86260986328125
z: -0.005739548709243536
","x: 158.75823974609375
y: 278.9480285644531
z: -0.007719280663877726
","x: 156.8425750732422
y: 283.9035339355469
z: -0.009322364814579487
","x: 156.00733947753906
y: 269.3585205078125
z: -0.004863051697611809
","x: 153.08013916015625
y: 277.472900390625
z: -0.007677814457565546
","x: 152.26991271972656
y: 284.0661315917969
z: -0.009430103935301304
","x: 152.33172607421875
y: 289.30804443359375
z: -0.010256411507725716
","x: 155.80307006835938
y: 270.03790283203125
z: -0.004628757014870644
","x: 152.64675903320312
y: 278.3883972167969
z: -0.007985151372849941
","x: 152.09706115722656
y: 285.233642578125
z: -0.009696049615740776
","x: 152.53240966796875
y: 290.56683349609375
z: -0.01054851058870554
","x: 156.22889709472656
y: 271.8388671875
z: -0.0045593357644975185
","x: 153.1040496826172
y: 278.9749755859375
z: -0.00726332375779748
","x: 152.2024383544922
y: 285.0462951660156
z: -0.008213688619434834
","x: 152.07386779785156
y: 289.8709716796875
z: -0.008587612770497799
","x: 157.10047912597656
y: 274.1522521972656
z: -0.004778428468853235
","x: 154.22695922851562
y: 279.43792724609375
z: -0.006339553277939558
","x: 152.9438934326172
y: 283.79833984375
z: -0.006762693636119366
","x: 152.2205352783203
y: 287.3960876464844
z: -0.006972701754420996
",,,,,,,,,,,,,,,,,,,,,
19,"x: 219.11441040039062
y: 190.5492401123047
z: -0.2843685746192932
visibility: 0.9999745488166809
","x: 220.57667541503906
y: 182.51406860351562
z: -0.27926331758499146
visibility: 0.9999162554740906
","x: 221.94171142578125
y: 181.9921112060547
z: -0.2793028950691223
visibility: 0.9999285936355591
","x: 223.48667907714844
y: 181.5412139892578
z: -0.27929025888442993
visibility: 0.9999197125434875
","x: 216.72447204589844
y: 184.33462524414062
z: -0.26313480734825134
visibility: 0.9998791813850403
","x: 215.3869171142578
y: 185.1490020751953
z: -0.2631744146347046
visibility: 0.9998855590820312
","x: 214.11456298828125
y: 186.0186004638672
z: -0.2631644606590271
visibility: 0.9998694658279419
","x: 228.88140869140625
y: 184.62322998046875
z: -0.20924749970436096
visibility: 0.999902606010437
","x: 214.5833282470703
y: 189.99685668945312
z: -0.14009666442871094
visibility: 0.9997650384902954
","x: 222.70372009277344
y: 196.8130340576172
z: -0.2573724389076233
visibility: 0.9999702572822571
","x: 218.29376220703125
y: 199.0309295654297
z: -0.2368941754102707
visibility: 0.9999575018882751
","x: 253.112060546875
y: 232.31980895996094
z: -0.17136533558368683
visibility: 0.9999890327453613
","x: 209.79322814941406
y: 237.9539337158203
z: -0.043468501418828964
visibility: 0.9999334216117859
","x: 263.144775390625
y: 294.1677551269531
z: -0.18624015152454376
visibility: 0.9831093549728394
","x: 192.4603271484375
y: 284.715087890625
z: -0.059735257178545
visibility: 0.9721894860267639
","x: 275.7659606933594
y: 338.2980041503906
z: -0.2949085831642151
visibility: 0.9869908094406128
","x: 168.55130004882812
y: 270.14447021484375
z: -0.27546387910842896
visibility: 0.9889287948608398
","x: 282.47344970703125
y: 347.9859619140625
z: -0.3254845142364502
visibility: 0.9760851263999939
","x: 159.78575134277344
y: 276.8157958984375
z: -0.3137586712837219
visibility: 0.9794110655784607
","x: 283.2821960449219
y: 347.06036376953125
z: -0.3565692603588104
visibility: 0.979542076587677
","x: 159.41639709472656
y: 273.82086181640625
z: -0.3436613380908966
visibility: 0.9824289083480835
","x: 280.5215148925781
y: 345.3597412109375
z: -0.30943354964256287
visibility: 0.9744170308113098
","x: 162.82891845703125
y: 271.3342590332031
z: -0.296003133058548
visibility: 0.9792305827140808
","x: 249.0809783935547
y: 347.31024169921875
z: -0.03312193602323532
visibility: 0.999821662902832
","x: 224.25645446777344
y: 350.3588562011719
z: 0.032993484288454056
visibility: 0.9997518062591553
","x: 260.1520080566406
y: 426.6446228027344
z: 0.007325060665607452
visibility: 0.9989002346992493
","x: 212.659912109375
y: 426.8212890625
z: 0.07968562841415405
visibility: 0.9974443316459656
","x: 281.92498779296875
y: 490.9640808105469
z: 0.22705209255218506
visibility: 0.9985286593437195
","x: 201.46176147460938
y: 492.6190185546875
z: 0.29418978095054626
visibility: 0.9967531561851501
","x: 287.201904296875
y: 499.85028076171875
z: 0.24079720675945282
visibility: 0.9248265624046326
","x: 202.3217010498047
y: 500.5539245605469
z: 0.30984145402908325
visibility: 0.9487258195877075
","x: 274.7183532714844
y: 520.1886596679688
z: 0.10347993671894073
visibility: 0.9962517023086548
","x: 200.4129638671875
y: 519.9727783203125
z: 0.19832123816013336
visibility: 0.9946951270103455
","x: 166.9401397705078
y: 268.8870544433594
z: 0.0
","x: 164.85804748535156
y: 272.1346740722656
z: -0.0032787758391350508
","x: 161.48638916015625
y: 274.86260986328125
z: -0.005739548709243536
","x: 158.75823974609375
y: 278.9480285644531
z: -0.007719280663877726
","x: 156.8425750732422
y: 283.9035339355469
z: -0.009322364814579487
","x: 156.00733947753906
y: 269.3585205078125
z: -0.004863051697611809
","x: 153.08013916015625
y: 277.472900390625
z: -0.007677814457565546
","x: 152.26991271972656
y: 284.0661315917969
z: -0.009430103935301304
","x: 152.33172607421875
y: 289.30804443359375
z: -0.010256411507725716
","x: 155.80307006835938
y: 270.03790283203125
z: -0.004628757014870644
","x: 152.64675903320312
y: 278.3883972167969
z: -0.007985151372849941
","x: 152.09706115722656
y: 285.233642578125
z: -0.009696049615740776
","x: 152.53240966796875
y: 290.56683349609375
z: -0.01054851058870554
","x: 156.22889709472656
y: 271.8388671875
z: -0.0045593357644975185
","x: 153.1040496826172
y: 278.9749755859375
z: -0.00726332375779748
","x: 152.2024383544922
y: 285.0462951660156
z: -0.008213688619434834
","x: 152.07386779785156
y: 289.8709716796875
z: -0.008587612770497799
","x: 157.10047912597656
y: 274.1522521972656
z: -0.004778428468853235
","x: 154.22695922851562
y: 279.43792724609375
z: -0.006339553277939558
","x: 152.9438934326172
y: 283.79833984375
z: -0.006762693636119366
","x: 152.2205352783203
y: 287.3960876464844
z: -0.006972701754420996
",,,,,,,,,,,,,,,,,,,,,
20,"x: 216.3574981689453
y: 189.82891845703125
z: -0.252303808927536
visibility: 0.9999765157699585
","x: 217.61268615722656
y: 181.94760131835938
z: -0.24979925155639648
visibility: 0.9999231100082397
","x: 219.0068817138672
y: 181.6140594482422
z: -0.24983224272727966
visibility: 0.9999345541000366
","x: 220.47122192382812
y: 181.442626953125
z: -0.24979522824287415
visibility: 0.9999264478683472
","x: 214.05224609375
y: 183.70458984375
z: -0.23149876296520233
visibility: 0.99988853931427
","x: 212.92152404785156
y: 184.66497802734375
z: -0.23154719173908234
visibility: 0.9998944997787476
","x: 211.86431884765625
y: 185.73727416992188
z: -0.23155692219734192
visibility: 0.9998794198036194
","x: 225.882080078125
y: 184.26913452148438
z: -0.194343701004982
visibility: 0.999911367893219
","x: 213.4284210205078
y: 190.00184631347656
z: -0.11794327199459076
visibility: 0.9997817277908325
","x: 220.72091674804688
y: 196.29617309570312
z: -0.23445367813110352
visibility: 0.9999728202819824
","x: 216.5490264892578
y: 198.2205352783203
z: -0.2087419480085373
visibility: 0.9999602437019348
","x: 252.90838623046875
y: 232.00636291503906
z: -0.15769118070602417
visibility: 0.9999893307685852
","x: 209.6111297607422
y: 239.8248291015625
z: -0.03191329911351204
visibility: 0.9999319911003113
","x: 263.73211669921875
y: 293.2615966796875
z: -0.16965080797672272
visibility: 0.9843863844871521
","x: 192.9566192626953
y: 288.2925109863281
z: -0.056638848036527634
visibility: 0.9702853560447693
","x: 275.8389892578125
y: 337.6624755859375
z: -0.2768685817718506
visibility: 0.9874642491340637
","x: 169.07778930664062
y: 273.410888671875
z: -0.26143455505371094
visibility: 0.9889436364173889
","x: 282.7432861328125
y: 347.4412841796875
z: -0.30802789330482483
visibility: 0.9765588045120239
","x: 160.1866912841797
y: 276.9534606933594
z: -0.2984584867954254
visibility: 0.9794198274612427
","x: 283.4582214355469
y: 346.63494873046875
z: -0.34744545817375183
visibility: 0.9799371957778931
","x: 159.44656372070312
y: 274.96929931640625
z: -0.3283752202987671
visibility: 0.9824678301811218
","x: 280.5931396484375
y: 344.8818359375
z: -0.2939215898513794
visibility: 0.9750626087188721
","x: 162.86273193359375
y: 272.3647766113281
z: -0.2818019390106201
visibility: 0.9793781638145447
","x: 249.1697540283203
y: 347.326416015625
z: -0.03423485904932022
visibility: 0.9998237490653992
","x: 224.2625732421875
y: 350.04498291015625
z: 0.03411827236413956
visibility: 0.9997539520263672
","x: 260.0427551269531
y: 426.3193054199219
z: -0.0003415652608964592
visibility: 0.9989336133003235
","x: 212.61227416992188
y: 426.6189270019531
z: 0.07804729044437408
visibility: 0.9975316524505615
","x: 281.8579406738281
y: 490.96759033203125
z: 0.22573813796043396
visibility: 0.9985883235931396
","x: 201.61647033691406
y: 492.625732421875
z: 0.2936202883720398
visibility: 0.9968714714050293
","x: 287.04095458984375
y: 499.8436279296875
z: 0.2390991449356079
visibility: 0.9247781038284302
","x: 202.572021484375
y: 500.6107177734375
z: 0.30929532647132874
visibility: 0.949411153793335
","x: 274.75067138671875
y: 520.4573364257812
z: 0.0982995554804802
visibility: 0.9963778257369995
","x: 200.17330932617188
y: 519.9614868164062
z: 0.19588156044483185
visibility: 0.9948593974113464
","x: 166.73483276367188
y: 274.88031005859375
z: 0.0
","x: 165.18429565429688
y: 277.3321228027344
z: -0.0014489887980744243
","x: 162.301513671875
y: 279.654296875
z: -0.0030185668729245663
","x: 159.65219116210938
y: 282.7154235839844
z: -0.004508682526648045
","x: 157.4410400390625
y: 285.6844482421875
z: -0.005592721048742533
","x: 156.88226318359375
y: 274.6528015136719
z: -0.0021166554652154446
","x: 153.18441772460938
y: 280.7936096191406
z: -0.00407251063734293
","x: 151.99819946289062
y: 286.7483825683594
z: -0.0053333742544054985
","x: 151.6465606689453
y: 291.3540954589844
z: -0.0059438138268888
","x: 156.38755798339844
y: 275.168212890625
z: -0.0026333723217248917
","x: 152.49984741210938
y: 281.0758056640625
z: -0.004906049929559231
","x: 151.43020629882812
y: 287.541748046875
z: -0.006191443186253309
","x: 151.4251251220703
y: 292.7302551269531
z: -0.006876107305288315
","x: 156.4509735107422
y: 276.85986328125
z: -0.003246858948841691
","x: 152.67849731445312
y: 281.6819152832031
z: -0.004819926340132952
","x: 151.3937225341797
y: 287.4991455078125
z: -0.005360908806324005
","x: 151.04794311523438
y: 292.1160583496094
z: -0.005661503411829472
","x: 156.87550354003906
y: 279.13128662109375
z: -0.004074789583683014
","x: 153.7570037841797
y: 282.5135498046875
z: -0.004846224561333656
","x: 152.28665161132812
y: 286.2642517089844
z: -0.005003406200557947
","x: 151.55934143066406
y: 289.44598388671875
z: -0.005121894180774689
",,,,,,,,,,,,,,,,,,,,,
21,"x: 216.3574981689453
y: 189.82891845703125
z: -0.252303808927536
visibility: 0.9999765157699585
","x: 217.61268615722656
y: 181.94760131835938
z: -0.24979925155639648
visibility: 0.9999231100082397
","x: 219.0068817138672
y: 181.6140594482422
z: -0.24983224272727966
visibility: 0.9999345541000366
","x: 220.47122192382812
y: 181.442626953125
z: -0.24979522824287415
visibility: 0.9999264478683472
","x: 214.05224609375
y: 183.70458984375
z: -0.23149876296520233
visibility: 0.99988853931427
","x: 212.92152404785156
y: 184.66497802734375
z: -0.23154719173908234
visibility: 0.9998944997787476
","x: 211.86431884765625
y: 185.73727416992188
z: -0.23155692219734192
visibility: 0.9998794198036194
","x: 225.882080078125
y: 184.26913452148438
z: -0.194343701004982
visibility: 0.999911367893219
","x: 213.4284210205078
y: 190.00184631347656
z: -0.11794327199459076
visibility: 0.9997817277908325
","x: 220.72091674804688
y: 196.29617309570312
z: -0.23445367813110352
visibility: 0.9999728202819824
","x: 216.5490264892578
y: 198.2205352783203
z: -0.2087419480085373
visibility: 0.9999602437019348
","x: 252.90838623046875
y: 232.00636291503906
z: -0.15769118070602417
visibility: 0.9999893307685852
","x: 209.6111297607422
y: 239.8248291015625
z: -0.03191329911351204
visibility: 0.9999319911003113
","x: 263.73211669921875
y: 293.2615966796875
z: -0.16965080797672272
visibility: 0.9843863844871521
","x: 192.9566192626953
y: 288.2925109863281
z: -0.056638848036527634
visibility: 0.9702853560447693
","x: 275.8389892578125
y: 337.6624755859375
