uscmakers/ReverseChoreography/data/2_slow_dancing_in_the_dark_joji.csv
,NOSE,LEFT_EYE_INNER,LEFT_EYE,LEFT_EYE_OUTER,RIGHT_EYE_INNER,RIGHT_EYE,RIGHT_EYE_OUTER,LEFT_EAR,RIGHT_EAR,MOUTH_LEFT,MOUTH_RIGHT,LEFT_SHOULDER,RIGHT_SHOULDER,LEFT_ELBOW,RIGHT_ELBOW,LEFT_WRIST,RIGHT_WRIST,LEFT_PINKY,RIGHT_PINKY,LEFT_INDEX,RIGHT_INDEX,LEFT_THUMB,RIGHT_THUMB,LEFT_HIP,RIGHT_HIP,LEFT_KNEE,RIGHT_KNEE,LEFT_ANKLE,RIGHT_ANKLE,LEFT_HEEL,RIGHT_HEEL,LEFT_FOOT_INDEX,RIGHT_FOOT_INDEX,WRIST,THUMB_CPC,THUMB_MCP,THUMB_IP,THUMB_TIP,INDEX_FINGER_MCP,INDEX_FINGER_PIP,INDEX_FINGER_DIP,INDEX_FINGER_TIP,MIDDLE_FINGER_MCP,MIDDLE_FINGER_PIP,MIDDLE_FINGER_DIP,MIDDLE_FINGER_TIP,RING_FINGER_PIP,RING_FINGER_DIP,RING_FINGER_TIP,RING_FINGER_MCP,PINKY_MCP,PINKY_PIP,PINKY_DIP,PINKY_TIP,WRIST2,THUMB_CPC2,THUMB_MCP2,THUMB_IP2,THUMB_TIP2,INDEX_FINGER_MCP2,INDEX_FINGER_PIP2,INDEX_FINGER_DIP2,INDEX_FINGER_TIP2,MIDDLE_FINGER_MCP2,MIDDLE_FINGER_PIP2,MIDDLE_FINGER_DIP2,MIDDLE_FINGER_TIP2,RING_FINGER_PIP2,RING_FINGER_DIP2,RING_FINGER_TIP2,RING_FINGER_MCP2,PINKY_MCP2,PINKY_PIP2,PINKY_DIP2,PINKY_TIP2
0,"x: 223.81195068359375
y: 177.13905334472656
z: -0.2439877688884735
visibility: 0.9974857568740845
","x: 222.50743103027344
y: 168.88719177246094
z: -0.2376154363155365
visibility: 0.9931620359420776
","x: 222.0742950439453
y: 168.7584228515625
z: -0.2376762330532074
visibility: 0.992976725101471
","x: 221.7235107421875
y: 168.69174194335938
z: -0.23772962391376495
visibility: 0.9940500259399414
","x: 223.53094482421875
y: 168.6670684814453
z: -0.2500337064266205
visibility: 0.9932416677474976
","x: 223.7695770263672
y: 168.44677734375
z: -0.2501082718372345
visibility: 0.9930110573768616
","x: 224.08633422851562
y: 168.3348388671875
z: -0.2502078711986542
visibility: 0.9918438792228699
","x: 219.63299560546875
y: 171.44036865234375
z: -0.16171684861183167
visibility: 0.9867491126060486
","x: 222.78302001953125
y: 171.5731658935547
z: -0.21775904297828674
visibility: 0.982633113861084
","x: 223.40576171875
y: 183.27027893066406
z: -0.21162886917591095
visibility: 0.9968308806419373
","x: 223.6736297607422
y: 183.38275146484375
z: -0.22794191539287567
visibility: 0.9947769641876221
","x: 240.38360595703125
y: 213.253662109375
z: -0.08552925288677216
visibility: 0.999745786190033
","x: 200.21946716308594
y: 234.3327178955078
z: -0.1636359989643097
visibility: 0.9988141059875488
","x: 271.3382263183594
y: 246.85508728027344
z: -0.030928367748856544
visibility: 0.9354795813560486
","x: 200.69810485839844
y: 290.81170654296875
z: -0.12786129117012024
visibility: 0.8690689206123352
","x: 290.19195556640625
y: 292.02142333984375
z: -0.10827507078647614
visibility: 0.8798370361328125
","x: 181.67860412597656
y: 306.254150390625
z: -0.17157010734081268
visibility: 0.901380181312561
","x: 292.4043884277344
y: 311.2132568359375
z: -0.12366829067468643
visibility: 0.7780715227127075
","x: 174.21522521972656
y: 321.3675231933594
z: -0.19201146066188812
visibility: 0.8783240914344788
","x: 288.7015075683594
y: 311.764892578125
z: -0.1566549837589264
visibility: 0.8028481602668762
","x: 173.63107299804688
y: 317.2671813964844
z: -0.2255675494670868
visibility: 0.8900395631790161
","x: 287.18743896484375
y: 307.1542663574219
z: -0.12328441441059113
visibility: 0.7972727417945862
","x: 177.04052734375
y: 311.8232421875
z: -0.18646417558193207
visibility: 0.8588696122169495
","x: 243.1204833984375
y: 345.5970764160156
z: 0.024701712653040886
visibility: 0.9995655417442322
","x: 221.42953491210938
y: 351.6061096191406
z: -0.024878812953829765
visibility: 0.9991382360458374
","x: 266.1965637207031
y: 428.4579162597656
z: 0.04461986571550369
visibility: 0.986562967300415
","x: 213.94801330566406
y: 435.7501220703125
z: 0.02717108651995659
visibility: 0.9870577454566956
","x: 281.6376037597656
y: 513.1109619140625
z: 0.1978336125612259
visibility: 0.9925712943077087
","x: 192.95750427246094
y: 514.5692138671875
z: 0.23414166271686554
visibility: 0.9912294149398804
","x: 277.0872802734375
y: 526.64453125
z: 0.2067761868238449
visibility: 0.9299472570419312
","x: 191.10980224609375
y: 524.3507690429688
z: 0.24926705658435822
visibility: 0.8356253504753113
","x: 293.4910888671875
y: 533.11181640625
z: 0.09484656900167465
visibility: 0.9850598573684692
","x: 196.48822021484375
y: 542.662109375
z: 0.14246134459972382
visibility: 0.9830160737037659
","x: 182.89181518554688
y: 306.65985107421875
z: 0.0
","x: 180.23928833007812
y: 303.3682861328125
z: -0.00441500311717391
","x: 175.8777313232422
y: 303.2421569824219
z: -0.006675473880022764
","x: 172.68954467773438
y: 307.8831787109375
z: -0.008808736689388752
","x: 170.7822265625
y: 314.12713623046875
z: -0.010500418022274971
","x: 170.9058837890625
y: 313.4031982421875
z: -0.002457583788782358
","x: 168.94932556152344
y: 321.5357971191406
z: -0.005704087670892477
","x: 169.61941528320312
y: 327.0754699707031
z: -0.007412334904074669
","x: 170.65940856933594
y: 331.8162536621094
z: -0.008004304021596909
","x: 171.3120574951172
y: 317.9837951660156
z: -0.0022769467905163765
","x: 169.51075744628906
y: 325.90997314453125
z: -0.005041554104536772
","x: 170.2584991455078
y: 331.0479431152344
z: -0.006194522604346275
","x: 171.19100952148438
y: 335.37042236328125
z: -0.006774005945771933
","x: 172.4525146484375
y: 321.0860900878906
z: -0.00296225119382143
","x: 170.8154296875
y: 328.72357177734375
z: -0.006149039603769779
","x: 171.28851318359375
y: 333.67431640625
z: -0.00726344296708703
","x: 171.951416015625
y: 338.02838134765625
z: -0.007694512605667114
","x: 174.26156616210938
y: 323.27520751953125
z: -0.004222334828227758
","x: 172.7811737060547
y: 329.52081298828125
z: -0.006704690866172314
","x: 172.75071716308594
y: 333.95599365234375
z: -0.0076456316746771336
","x: 173.0667724609375
y: 337.67376708984375
z: -0.007988587021827698
","x: 291.7010498046875
y: 292.02142333984375
z: 0.0
","x: 288.2105407714844
y: 296.6983337402344
z: -0.002764966106042266
","x: 286.22265625
y: 304.427978515625
z: -0.003744776826351881
","x: 285.4373779296875
y: 311.3822021484375
z: -0.004603792913258076
","x: 284.96142578125
y: 317.17022705078125
z: -0.005089815706014633
","x: 290.1832275390625
y: 313.0947265625
z: -0.0003705117851495743
","x: 288.8091735839844
y: 322.28045654296875
z: -0.0016646505100652575
","x: 287.2203674316406
y: 326.95880126953125
z: -0.0024593404959887266
","x: 285.78253173828125
y: 330.1224060058594
z: -0.002796166343614459
","x: 291.3980712890625
y: 313.99761962890625
z: -0.00024636570014990866
","x: 290.19378662109375
y: 323.4625549316406
z: -0.0010914767626672983
","x: 288.19793701171875
y: 328.0597229003906
z: -0.0016914273146539927
","x: 286.2396240234375
y: 331.32598876953125
z: -0.0021187057718634605
","x: 291.9991760253906
y: 313.89495849609375
z: -0.0007126497221179307
","x: 290.7620849609375
y: 322.8207092285156
z: -0.0019744588062167168
","x: 288.9941101074219
y: 327.27313232421875
z: -0.0028832105454057455
","x: 287.2195739746094
y: 330.2994079589844
z: -0.0034780388232320547
","x: 292.0101623535156
y: 312.82489013671875
z: -0.0016127163544297218
","x: 291.01513671875
y: 320.0355224609375
z: -0.0027059412095695734
","x: 289.77020263671875
y: 324.14947509765625
z: -0.0033422892447561026
","x: 288.33587646484375
y: 326.94293212890625
z: -0.003735440084710717
"
1,"x: 223.81195068359375
y: 177.13905334472656
z: -0.2439877688884735
visibility: 0.9974857568740845
","x: 222.50743103027344
y: 168.88719177246094
z: -0.2376154363155365
visibility: 0.9931620359420776
","x: 222.0742950439453
y: 168.7584228515625
z: -0.2376762330532074
visibility: 0.992976725101471
","x: 221.7235107421875
y: 168.69174194335938
z: -0.23772962391376495
visibility: 0.9940500259399414
","x: 223.53094482421875
y: 168.6670684814453
z: -0.2500337064266205
visibility: 0.9932416677474976
","x: 223.7695770263672
y: 168.44677734375
z: -0.2501082718372345
visibility: 0.9930110573768616
","x: 224.08633422851562
y: 168.3348388671875
z: -0.2502078711986542
visibility: 0.9918438792228699
","x: 219.63299560546875
y: 171.44036865234375
z: -0.16171684861183167
visibility: 0.9867491126060486
","x: 222.78302001953125
y: 171.5731658935547
z: -0.21775904297828674
visibility: 0.982633113861084
","x: 223.40576171875
y: 183.27027893066406
z: -0.21162886917591095
visibility: 0.9968308806419373
","x: 223.6736297607422
y: 183.38275146484375
z: -0.22794191539287567
visibility: 0.9947769641876221
","x: 240.38360595703125
y: 213.253662109375
z: -0.08552925288677216
visibility: 0.999745786190033
","x: 200.21946716308594
y: 234.3327178955078
z: -0.1636359989643097
visibility: 0.9988141059875488
","x: 271.3382263183594
y: 246.85508728027344
z: -0.030928367748856544
visibility: 0.9354795813560486
","x: 200.69810485839844
y: 290.81170654296875
z: -0.12786129117012024
visibility: 0.8690689206123352
","x: 290.19195556640625
y: 292.02142333984375
z: -0.10827507078647614
visibility: 0.8798370361328125
","x: 181.67860412597656
y: 306.254150390625
z: -0.17157010734081268
visibility: 0.901380181312561
","x: 292.4043884277344
y: 311.2132568359375
z: -0.12366829067468643
visibility: 0.7780715227127075
","x: 174.21522521972656
y: 321.3675231933594
z: -0.19201146066188812
visibility: 0.8783240914344788
","x: 288.7015075683594
y: 311.764892578125
z: -0.1566549837589264
visibility: 0.8028481602668762
","x: 173.63107299804688
y: 317.2671813964844
z: -0.2255675494670868
visibility: 0.8900395631790161
","x: 287.18743896484375
y: 307.1542663574219
z: -0.12328441441059113
visibility: 0.7972727417945862
","x: 177.04052734375
y: 311.8232421875
z: -0.18646417558193207
visibility: 0.8588696122169495
","x: 243.1204833984375
y: 345.5970764160156
z: 0.024701712653040886
visibility: 0.9995655417442322
","x: 221.42953491210938
y: 351.6061096191406
z: -0.024878812953829765
visibility: 0.9991382360458374
","x: 266.1965637207031
y: 428.4579162597656
z: 0.04461986571550369
visibility: 0.986562967300415
","x: 213.94801330566406
y: 435.7501220703125
z: 0.02717108651995659
visibility: 0.9870577454566956
","x: 281.6376037597656
y: 513.1109619140625
z: 0.1978336125612259
visibility: 0.9925712943077087
","x: 192.95750427246094
y: 514.5692138671875
z: 0.23414166271686554
visibility: 0.9912294149398804
","x: 277.0872802734375
y: 526.64453125
z: 0.2067761868238449
visibility: 0.9299472570419312
","x: 191.10980224609375
y: 524.3507690429688
z: 0.24926705658435822
visibility: 0.8356253504753113
","x: 293.4910888671875
y: 533.11181640625
z: 0.09484656900167465
visibility: 0.9850598573684692
","x: 196.48822021484375
y: 542.662109375
z: 0.14246134459972382
visibility: 0.9830160737037659
","x: 182.89181518554688
y: 306.65985107421875
z: 0.0
","x: 180.23928833007812
y: 303.3682861328125
z: -0.00441500311717391
","x: 175.8777313232422
y: 303.2421569824219
z: -0.006675473880022764
","x: 172.68954467773438
y: 307.8831787109375
z: -0.008808736689388752
","x: 170.7822265625
y: 314.12713623046875
z: -0.010500418022274971
","x: 170.9058837890625
y: 313.4031982421875
z: -0.002457583788782358
","x: 168.94932556152344
y: 321.5357971191406
z: -0.005704087670892477
","x: 169.61941528320312
y: 327.0754699707031
z: -0.007412334904074669
","x: 170.65940856933594
y: 331.8162536621094
z: -0.008004304021596909
","x: 171.3120574951172
y: 317.9837951660156
z: -0.0022769467905163765
","x: 169.51075744628906
y: 325.90997314453125
z: -0.005041554104536772
","x: 170.2584991455078
y: 331.0479431152344
z: -0.006194522604346275
","x: 171.19100952148438
y: 335.37042236328125
z: -0.006774005945771933
","x: 172.4525146484375
y: 321.0860900878906
z: -0.00296225119382143
","x: 170.8154296875
y: 328.72357177734375
z: -0.006149039603769779
","x: 171.28851318359375
y: 333.67431640625
z: -0.00726344296708703
","x: 171.951416015625
y: 338.02838134765625
z: -0.007694512605667114
","x: 174.26156616210938
y: 323.27520751953125
z: -0.004222334828227758
","x: 172.7811737060547
y: 329.52081298828125
z: -0.006704690866172314
","x: 172.75071716308594
y: 333.95599365234375
z: -0.0076456316746771336
","x: 173.0667724609375
y: 337.67376708984375
z: -0.007988587021827698
","x: 291.7010498046875
y: 292.02142333984375
z: 0.0
","x: 288.2105407714844
y: 296.6983337402344
z: -0.002764966106042266
","x: 286.22265625
y: 304.427978515625
z: -0.003744776826351881
","x: 285.4373779296875
y: 311.3822021484375
z: -0.004603792913258076
","x: 284.96142578125
y: 317.17022705078125
z: -0.005089815706014633
","x: 290.1832275390625
y: 313.0947265625
z: -0.0003705117851495743
","x: 288.8091735839844
y: 322.28045654296875
z: -0.0016646505100652575
","x: 287.2203674316406
y: 326.95880126953125
z: -0.0024593404959887266
","x: 285.78253173828125
y: 330.1224060058594
z: -0.002796166343614459
","x: 291.3980712890625
y: 313.99761962890625
z: -0.00024636570014990866
","x: 290.19378662109375
y: 323.4625549316406
z: -0.0010914767626672983
","x: 288.19793701171875
y: 328.0597229003906
z: -0.0016914273146539927
","x: 286.2396240234375
y: 331.32598876953125
z: -0.0021187057718634605
","x: 291.9991760253906
y: 313.89495849609375
z: -0.0007126497221179307
","x: 290.7620849609375
y: 322.8207092285156
z: -0.0019744588062167168
","x: 288.9941101074219
y: 327.27313232421875
z: -0.0028832105454057455
","x: 287.2195739746094
y: 330.2994079589844
z: -0.0034780388232320547
","x: 292.0101623535156
y: 312.82489013671875
z: -0.0016127163544297218
","x: 291.01513671875
y: 320.0355224609375
z: -0.0027059412095695734
","x: 289.77020263671875
y: 324.14947509765625
z: -0.0033422892447561026
","x: 288.33587646484375
y: 326.94293212890625
z: -0.003735440084710717
"
2,"x: 223.81195068359375
y: 177.13905334472656
z: -0.2439877688884735
visibility: 0.9974857568740845
","x: 222.50743103027344
y: 168.88719177246094
z: -0.2376154363155365
visibility: 0.9931620359420776
","x: 222.0742950439453
y: 168.7584228515625
z: -0.2376762330532074
visibility: 0.992976725101471
","x: 221.7235107421875
y: 168.69174194335938
z: -0.23772962391376495
visibility: 0.9940500259399414
","x: 223.53094482421875
y: 168.6670684814453
z: -0.2500337064266205
visibility: 0.9932416677474976
","x: 223.7695770263672
y: 168.44677734375
z: -0.2501082718372345
visibility: 0.9930110573768616
","x: 224.08633422851562
y: 168.3348388671875
z: -0.2502078711986542
visibility: 0.9918438792228699
","x: 219.63299560546875
y: 171.44036865234375
z: -0.16171684861183167
visibility: 0.9867491126060486
","x: 222.78302001953125
y: 171.5731658935547
z: -0.21775904297828674
visibility: 0.982633113861084
","x: 223.40576171875
y: 183.27027893066406
z: -0.21162886917591095
visibility: 0.9968308806419373
","x: 223.6736297607422
y: 183.38275146484375
z: -0.22794191539287567
visibility: 0.9947769641876221
","x: 240.38360595703125
y: 213.253662109375
z: -0.08552925288677216
visibility: 0.999745786190033
","x: 200.21946716308594
y: 234.3327178955078
z: -0.1636359989643097
visibility: 0.9988141059875488
","x: 271.3382263183594
y: 246.85508728027344
z: -0.030928367748856544
visibility: 0.9354795813560486
","x: 200.69810485839844
y: 290.81170654296875
z: -0.12786129117012024
visibility: 0.8690689206123352
","x: 290.19195556640625
y: 292.02142333984375
z: -0.10827507078647614
visibility: 0.8798370361328125
","x: 181.67860412597656
y: 306.254150390625
z: -0.17157010734081268
visibility: 0.901380181312561
","x: 292.4043884277344
y: 311.2132568359375
z: -0.12366829067468643
visibility: 0.7780715227127075
","x: 174.21522521972656
y: 321.3675231933594
z: -0.19201146066188812
visibility: 0.8783240914344788
","x: 288.7015075683594
y: 311.764892578125
z: -0.1566549837589264
visibility: 0.8028481602668762
","x: 173.63107299804688
y: 317.2671813964844
z: -0.2255675494670868
visibility: 0.8900395631790161
","x: 287.18743896484375
y: 307.1542663574219
z: -0.12328441441059113
visibility: 0.7972727417945862
","x: 177.04052734375
y: 311.8232421875
z: -0.18646417558193207
visibility: 0.8588696122169495
","x: 243.1204833984375
y: 345.5970764160156
z: 0.024701712653040886
visibility: 0.9995655417442322
","x: 221.42953491210938
y: 351.6061096191406
z: -0.024878812953829765
visibility: 0.9991382360458374
","x: 266.1965637207031
y: 428.4579162597656
z: 0.04461986571550369
visibility: 0.986562967300415
","x: 213.94801330566406
y: 435.7501220703125
z: 0.02717108651995659
visibility: 0.9870577454566956
","x: 281.6376037597656
y: 513.1109619140625
z: 0.1978336125612259
visibility: 0.9925712943077087
","x: 192.95750427246094
y: 514.5692138671875
z: 0.23414166271686554
visibility: 0.9912294149398804
","x: 277.0872802734375
y: 526.64453125
z: 0.2067761868238449
visibility: 0.9299472570419312
","x: 191.10980224609375
y: 524.3507690429688
z: 0.24926705658435822
visibility: 0.8356253504753113
","x: 293.4910888671875
y: 533.11181640625
z: 0.09484656900167465
visibility: 0.9850598573684692
","x: 196.48822021484375
y: 542.662109375
z: 0.14246134459972382
visibility: 0.9830160737037659
","x: 182.89181518554688
y: 306.65985107421875
z: 0.0
","x: 180.23928833007812
y: 303.3682861328125
z: -0.00441500311717391
","x: 175.8777313232422
y: 303.2421569824219
z: -0.006675473880022764
","x: 172.68954467773438
y: 307.8831787109375
z: -0.008808736689388752
","x: 170.7822265625
y: 314.12713623046875
z: -0.010500418022274971
","x: 170.9058837890625
y: 313.4031982421875
z: -0.002457583788782358
","x: 168.94932556152344
y: 321.5357971191406
z: -0.005704087670892477
","x: 169.61941528320312
y: 327.0754699707031
z: -0.007412334904074669
","x: 170.65940856933594
y: 331.8162536621094
z: -0.008004304021596909
","x: 171.3120574951172
y: 317.9837951660156
z: -0.0022769467905163765
","x: 169.51075744628906
y: 325.90997314453125
z: -0.005041554104536772
","x: 170.2584991455078
y: 331.0479431152344
z: -0.006194522604346275
","x: 171.19100952148438
y: 335.37042236328125
z: -0.006774005945771933
","x: 172.4525146484375
y: 321.0860900878906
z: -0.00296225119382143
","x: 170.8154296875
y: 328.72357177734375
z: -0.006149039603769779
","x: 171.28851318359375
y: 333.67431640625
z: -0.00726344296708703
","x: 171.951416015625
y: 338.02838134765625
z: -0.007694512605667114
","x: 174.26156616210938
y: 323.27520751953125
z: -0.004222334828227758
","x: 172.7811737060547
y: 329.52081298828125
z: -0.006704690866172314
","x: 172.75071716308594
y: 333.95599365234375
z: -0.0076456316746771336
","x: 173.0667724609375
y: 337.67376708984375
z: -0.007988587021827698
","x: 291.7010498046875
y: 292.02142333984375
z: 0.0
","x: 288.2105407714844
y: 296.6983337402344
z: -0.002764966106042266
","x: 286.22265625
y: 304.427978515625
z: -0.003744776826351881
","x: 285.4373779296875
y: 311.3822021484375
z: -0.004603792913258076
","x: 284.96142578125
y: 317.17022705078125
z: -0.005089815706014633
","x: 290.1832275390625
y: 313.0947265625
z: -0.0003705117851495743
","x: 288.8091735839844
y: 322.28045654296875
z: -0.0016646505100652575
","x: 287.2203674316406
y: 326.95880126953125
z: -0.0024593404959887266
","x: 285.78253173828125
y: 330.1224060058594
z: -0.002796166343614459
","x: 291.3980712890625
y: 313.99761962890625
z: -0.00024636570014990866
","x: 290.19378662109375
y: 323.4625549316406
z: -0.0010914767626672983
","x: 288.19793701171875
y: 328.0597229003906
z: -0.0016914273146539927
","x: 286.2396240234375
y: 331.32598876953125
z: -0.0021187057718634605
","x: 291.9991760253906
y: 313.89495849609375
z: -0.0007126497221179307
","x: 290.7620849609375
y: 322.8207092285156
z: -0.0019744588062167168
","x: 288.9941101074219
y: 327.27313232421875
z: -0.0028832105454057455
","x: 287.2195739746094
y: 330.2994079589844
z: -0.0034780388232320547
","x: 292.0101623535156
y: 312.82489013671875
z: -0.0016127163544297218
","x: 291.01513671875
y: 320.0355224609375
z: -0.0027059412095695734
","x: 289.77020263671875
y: 324.14947509765625
z: -0.0033422892447561026
","x: 288.33587646484375
y: 326.94293212890625
z: -0.003735440084710717
"
3,"x: 231.0607452392578
y: 191.7884979248047
z: -0.3073756694793701
visibility: 0.9977353811264038
","x: 231.91688537597656
y: 183.57708740234375
z: -0.29721108078956604
visibility: 0.9938398599624634
","x: 232.50347900390625
y: 182.74105834960938
z: -0.2972293496131897
visibility: 0.9936724305152893
","x: 233.0965118408203
y: 181.6783447265625
z: -0.29728883504867554
visibility: 0.9946380257606506
","x: 229.48521423339844
y: 183.43264770507812
z: -0.31052207946777344
visibility: 0.9939106702804565
","x: 228.30067443847656
y: 182.56407165527344
z: -0.310577929019928
visibility: 0.9937030673027039
","x: 227.11032104492188
y: 181.46731567382812
z: -0.31057822704315186
visibility: 0.9926509261131287
","x: 231.24371337890625
y: 177.10028076171875
z: -0.18237601220607758
visibility: 0.988063633441925
","x: 223.44039916992188
y: 176.89903259277344
z: -0.24483492970466614
visibility: 0.9843596816062927
","x: 231.2128448486328
y: 197.00730895996094
z: -0.25762197375297546
visibility: 0.9971452951431274
","x: 227.93399047851562
y: 197.02047729492188
z: -0.27611303329467773
visibility: 0.995296061038971
","x: 242.28366088867188
y: 213.908203125
z: -0.07552193105220795
visibility: 0.9997709393501282
","x: 199.91505432128906
y: 218.26083374023438
z: -0.13956302404403687
visibility: 0.9989301562309265
","x: 268.6196594238281
y: 253.2136688232422
z: 0.06997348368167877
visibility: 0.9411921501159668
","x: 191.79052734375
y: 279.240478515625
z: -0.03377886489033699
visibility: 0.8800867199897766
","x: 292.9334411621094
y: 286.2532958984375
z: 0.03946061059832573
visibility: 0.8914982080459595
","x: 178.6511993408203
y: 313.1847839355469
z: -0.03761083260178566
visibility: 0.9097323417663574
","x: 300.7036437988281
y: 298.06365966796875
z: 0.032486990094184875
visibility: 0.7992984652519226
","x: 172.6431884765625
y: 329.4088439941406
z: -0.045486826449632645
visibility: 0.8877842426300049
","x: 299.632080078125
y: 300.12835693359375
z: -0.013311101123690605
visibility: 0.8217659592628479
","x: 173.59010314941406
y: 328.29779052734375
z: -0.08920912444591522
visibility: 0.8986638784408569
","x: 296.87371826171875
y: 297.2052917480469
z: 0.02127142623066902
visibility: 0.8165035843849182
","x: 176.83642578125
y: 323.5025634765625
z: -0.05398253723978996
visibility: 0.8699615001678467
","x: 243.9448699951172
y: 345.5757141113281
z: 0.01527983509004116
visibility: 0.9996020197868347
","x: 217.16445922851562
y: 351.59967041015625
z: -0.01528073102235794
visibility: 0.9992057085037231
","x: 265.8515625
y: 428.6343078613281
z: 0.003736903192475438
visibility: 0.987793505191803
","x: 208.86741638183594
y: 436.86773681640625
z: 0.0222261231392622
visibility: 0.9881154298782349
","x: 281.4338684082031
y: 511.8301696777344
z: 0.1740632802248001
visibility: 0.9931003451347351
","x: 197.72486877441406
y: 514.6097412109375
z: 0.22677984833717346
visibility: 0.9917841553688049
","x: 277.0892028808594
y: 524.40771484375
z: 0.18427637219429016
visibility: 0.9335300326347351
","x: 199.7626953125
y: 524.3115234375
z: 0.24105539917945862
visibility: 0.8463473320007324
","x: 292.8285827636719
y: 533.696533203125
z: 0.06380007416009903
visibility: 0.9861112236976624
","x: 195.4169464111328
y: 543.716796875
z: 0.12697921693325043
visibility: 0.9841657280921936
","x: 175.88967895507812
y: 314.3450622558594
z: 0.0
","x: 178.1375732421875
y: 318.50225830078125
z: -0.006222858093678951
","x: 179.6457977294922
y: 324.5014953613281
z: -0.010428911074995995
","x: 181.1298828125
y: 329.9329833984375
z: -0.013592986389994621
","x: 181.6379852294922
y: 333.70513916015625
z: -0.016375558450818062
","x: 170.570068359375
y: 330.100830078125
z: -0.00900782085955143
","x: 167.84095764160156
y: 339.2109680175781
z: -0.012722935527563095
","x: 167.13877868652344
y: 345.8753662109375
z: -0.014994742348790169
","x: 167.09901428222656
y: 351.13446044921875
z: -0.01612384244799614
","x: 169.2427978515625
y: 331.2568664550781
z: -0.007287048734724522
","x: 167.2102813720703
y: 340.6256408691406
z: -0.01084873080253601
","x: 167.4925537109375
y: 347.5918884277344
z: -0.012465249747037888
","x: 168.16351318359375
y: 352.970458984375
z: -0.013477040454745293
","x: 168.95492553710938
y: 332.3194885253906
z: -0.00582434656098485
","x: 167.26666259765625
y: 341.20947265625
z: -0.00906494352966547
","x: 167.6365966796875
y: 347.88189697265625
z: -0.010557292029261589
","x: 168.3937530517578
y: 353.0061340332031
z: -0.01132085919380188
","x: 169.2342987060547
y: 333.1759338378906
z: -0.004837812390178442
","x: 167.82565307617188
y: 340.684326171875
z: -0.006928212940692902
","x: 167.80740356445312
y: 346.11669921875
z: -0.007876177318394184
","x: 168.32554626464844
y: 350.3572998046875
z: -0.008441653102636337
","x: 295.22076416015625
y: 277.76434326171875
z: 0.0
","x: 298.3036193847656
y: 288.1079406738281
z: 0.0016859420575201511
","x: 301.8236999511719
y: 296.7864685058594
z: -0.00038026273250579834
","x: 303.7020568847656
y: 303.8659973144531
z: -0.003755888668820262
","x: 304.9437255859375
y: 309.2615051269531
z: -0.0071877664886415005
","x: 305.3127746582031
y: 294.35198974609375
z: -0.004558059852570295
","x: 307.4905090332031
y: 304.9302673339844
z: -0.010326510295271873
","x: 306.566162109375
y: 311.1527099609375
z: -0.013470129109919071
","x: 305.1037292480469
y: 315.4535217285156
z: -0.015316318720579147
","x: 303.7432861328125
y: 292.0206298828125
z: -0.009261676110327244
","x: 306.0448303222656
y: 302.5128479003906
z: -0.015763945877552032
","x: 305.4167785644531
y: 309.3912353515625
z: -0.018336927518248558
","x: 304.2862548828125
y: 314.2781982421875
z: -0.019892016425728798
","x: 301.4733581542969
y: 289.06756591796875
z: -0.01393104437738657
","x: 303.2952575683594
y: 298.3492126464844
z: -0.019676445052027702
","x: 303.2818603515625
y: 304.9060363769531
z: -0.02096986398100853
","x: 302.9476318359375
y: 309.9210205078125
z: -0.02170833759009838
","x: 298.5064392089844
y: 286.2701416015625
z: -0.01852765679359436
","x: 299.0974426269531
y: 291.9735412597656
z: -0.022880615666508675
","x: 299.29803466796875
y: 296.09600830078125
z: -0.02376725897192955
","x: 299.41656494140625
y: 299.5121765136719
z: -0.024309467524290085
"
4,"x: 231.0607452392578
y: 191.7884979248047
z: -0.3073756694793701
visibility: 0.9977353811264038
","x: 231.91688537597656
y: 183.57708740234375
z: -0.29721108078956604
visibility: 0.9938398599624634
","x: 232.50347900390625
y: 182.74105834960938
z: -0.2972293496131897
visibility: 0.9936724305152893
","x: 233.0965118408203
y: 181.6783447265625
z: -0.29728883504867554
visibility: 0.9946380257606506
","x: 229.48521423339844
y: 183.43264770507812
z: -0.31052207946777344
visibility: 0.9939106702804565
","x: 228.30067443847656
y: 182.56407165527344
z: -0.310577929019928
visibility: 0.9937030673027039
","x: 227.11032104492188
y: 181.46731567382812
z: -0.31057822704315186
visibility: 0.9926509261131287
","x: 231.24371337890625
y: 177.10028076171875
z: -0.18237601220607758
visibility: 0.988063633441925
","x: 223.44039916992188
y: 176.89903259277344
z: -0.24483492970466614
visibility: 0.9843596816062927
","x: 231.2128448486328
y: 197.00730895996094
z: -0.25762197375297546
visibility: 0.9971452951431274
","x: 227.93399047851562
y: 197.02047729492188
z: -0.27611303329467773
visibility: 0.995296061038971
","x: 242.28366088867188
y: 213.908203125
z: -0.07552193105220795
visibility: 0.9997709393501282
","x: 199.91505432128906
y: 218.26083374023438
z: -0.13956302404403687
visibility: 0.9989301562309265
","x: 268.6196594238281
y: 253.2136688232422
z: 0.06997348368167877
visibility: 0.9411921501159668
","x: 191.79052734375
y: 279.240478515625
z: -0.03377886489033699
visibility: 0.8800867199897766
","x: 292.9334411621094
y: 286.2532958984375
z: 0.03946061059832573
visibility: 0.8914982080459595
","x: 178.6511993408203
y: 313.1847839355469
z: -0.03761083260178566
visibility: 0.9097323417663574
","x: 300.7036437988281
y: 298.06365966796875
z: 0.032486990094184875
visibility: 0.7992984652519226
","x: 172.6431884765625
y: 329.4088439941406
z: -0.045486826449632645
visibility: 0.8877842426300049
","x: 299.632080078125
y: 300.12835693359375
z: -0.013311101123690605
visibility: 0.8217659592628479
","x: 173.59010314941406
y: 328.29779052734375
z: -0.08920912444591522
visibility: 0.8986638784408569
","x: 296.87371826171875
y: 297.2052917480469
z: 0.02127142623066902
visibility: 0.8165035843849182
","x: 176.83642578125
y: 323.5025634765625
z: -0.05398253723978996
visibility: 0.8699615001678467
","x: 243.9448699951172
y: 345.5757141113281
z: 0.01527983509004116
visibility: 0.9996020197868347
","x: 217.16445922851562
y: 351.59967041015625
z: -0.01528073102235794
visibility: 0.9992057085037231
","x: 265.8515625
y: 428.6343078613281
z: 0.003736903192475438
visibility: 0.987793505191803
","x: 208.86741638183594
y: 436.86773681640625
z: 0.0222261231392622
visibility: 0.9881154298782349
","x: 281.4338684082031
y: 511.8301696777344
z: 0.1740632802248001
visibility: 0.9931003451347351
","x: 197.72486877441406
y: 514.6097412109375
z: 0.22677984833717346
visibility: 0.9917841553688049
","x: 277.0892028808594
y: 524.40771484375
z: 0.18427637219429016
visibility: 0.9335300326347351
","x: 199.7626953125
y: 524.3115234375
z: 0.24105539917945862
visibility: 0.8463473320007324
","x: 292.8285827636719
y: 533.696533203125
z: 0.06380007416009903
visibility: 0.9861112236976624
","x: 195.4169464111328
y: 543.716796875
z: 0.12697921693325043
visibility: 0.9841657280921936
","x: 175.88967895507812
y: 314.3450622558594
z: 0.0
","x: 178.1375732421875
y: 318.50225830078125
z: -0.006222858093678951
","x: 179.6457977294922
y: 324.5014953613281
z: -0.010428911074995995
","x: 181.1298828125
y: 329.9329833984375
z: -0.013592986389994621
","x: 181.6379852294922
y: 333.70513916015625
z: -0.016375558450818062
","x: 170.570068359375
y: 330.100830078125
z: -0.00900782085955143
","x: 167.84095764160156
y: 339.2109680175781
z: -0.012722935527563095
","x: 167.13877868652344
y: 345.8753662109375
z: -0.014994742348790169
","x: 167.09901428222656
y: 351.13446044921875
z: -0.01612384244799614
","x: 169.2427978515625
y: 331.2568664550781
z: -0.007287048734724522
","x: 167.2102813720703
y: 340.6256408691406
z: -0.01084873080253601
","x: 167.4925537109375
y: 347.5918884277344
z: -0.012465249747037888
","x: 168.16351318359375
y: 352.970458984375
z: -0.013477040454745293
","x: 168.95492553710938
y: 332.3194885253906
z: -0.00582434656098485
","x: 167.26666259765625
y: 341.20947265625
z: -0.00906494352966547
","x: 167.6365966796875
y: 347.88189697265625
z: -0.010557292029261589
","x: 168.3937530517578
y: 353.0061340332031
z: -0.01132085919380188
","x: 169.2342987060547
y: 333.1759338378906
z: -0.004837812390178442
","x: 167.82565307617188
y: 340.684326171875
z: -0.006928212940692902
","x: 167.80740356445312
y: 346.11669921875
z: -0.007876177318394184
","x: 168.32554626464844
y: 350.3572998046875
z: -0.008441653102636337
","x: 295.22076416015625
y: 277.76434326171875
z: 0.0
","x: 298.3036193847656
y: 288.1079406738281
z: 0.0016859420575201511
","x: 301.8236999511719
y: 296.7864685058594
z: -0.00038026273250579834
","x: 303.7020568847656
y: 303.8659973144531
z: -0.003755888668820262
","x: 304.9437255859375
y: 309.2615051269531
z: -0.0071877664886415005
","x: 305.3127746582031
y: 294.35198974609375
z: -0.004558059852570295
","x: 307.4905090332031
y: 304.9302673339844
z: -0.010326510295271873
","x: 306.566162109375
y: 311.1527099609375
z: -0.013470129109919071
","x: 305.1037292480469
y: 315.4535217285156
z: -0.015316318720579147
","x: 303.7432861328125
y: 292.0206298828125
z: -0.009261676110327244
","x: 306.0448303222656
y: 302.5128479003906
z: -0.015763945877552032
","x: 305.4167785644531
y: 309.3912353515625
z: -0.018336927518248558
","x: 304.2862548828125
y: 314.2781982421875
z: -0.019892016425728798
","x: 301.4733581542969
y: 289.06756591796875
z: -0.01393104437738657
","x: 303.2952575683594
y: 298.3492126464844
z: -0.019676445052027702
","x: 303.2818603515625
y: 304.9060363769531
z: -0.02096986398100853
","x: 302.9476318359375
y: 309.9210205078125
z: -0.02170833759009838
","x: 298.5064392089844
y: 286.2701416015625
z: -0.01852765679359436
","x: 299.0974426269531
y: 291.9735412597656
z: -0.022880615666508675
","x: 299.29803466796875
y: 296.09600830078125
z: -0.02376725897192955
","x: 299.41656494140625
y: 299.5121765136719
z: -0.024309467524290085
"
5,"x: 231.0607452392578
y: 191.7884979248047
z: -0.3073756694793701
visibility: 0.9977353811264038
","x: 231.91688537597656
y: 183.57708740234375
z: -0.29721108078956604
visibility: 0.9938398599624634
","x: 232.50347900390625
y: 182.74105834960938
z: -0.2972293496131897
visibility: 0.9936724305152893
","x: 233.0965118408203
y: 181.6783447265625
z: -0.29728883504867554
visibility: 0.9946380257606506
","x: 229.48521423339844
y: 183.43264770507812
z: -0.31052207946777344
visibility: 0.9939106702804565
","x: 228.30067443847656
y: 182.56407165527344
z: -0.310577929019928
visibility: 0.9937030673027039
","x: 227.11032104492188
y: 181.46731567382812
z: -0.31057822704315186
visibility: 0.9926509261131287
","x: 231.24371337890625
y: 177.10028076171875
z: -0.18237601220607758
visibility: 0.988063633441925
","x: 223.44039916992188
y: 176.89903259277344
z: -0.24483492970466614
visibility: 0.9843596816062927
","x: 231.2128448486328
y: 197.00730895996094
z: -0.25762197375297546
visibility: 0.9971452951431274
","x: 227.93399047851562
y: 197.02047729492188
z: -0.27611303329467773
visibility: 0.995296061038971
","x: 242.28366088867188
y: 213.908203125
z: -0.07552193105220795
visibility: 0.9997709393501282
","x: 199.91505432128906
y: 218.26083374023438
z: -0.13956302404403687
visibility: 0.9989301562309265
","x: 268.6196594238281
y: 253.2136688232422
z: 0.06997348368167877
visibility: 0.9411921501159668
","x: 191.79052734375
y: 279.240478515625
z: -0.03377886489033699
visibility: 0.8800867199897766
","x: 292.9334411621094
y: 286.2532958984375
z: 0.03946061059832573
visibility: 0.8914982080459595
","x: 178.6511993408203
y: 313.1847839355469
z: -0.03761083260178566
visibility: 0.9097323417663574
","x: 300.7036437988281
y: 298.06365966796875
z: 0.032486990094184875
visibility: 0.7992984652519226
","x: 172.6431884765625
y: 329.4088439941406
z: -0.045486826449632645
visibility: 0.8877842426300049
","x: 299.632080078125
y: 300.12835693359375
z: -0.013311101123690605
visibility: 0.8217659592628479
","x: 173.59010314941406
y: 328.29779052734375
z: -0.08920912444591522
visibility: 0.8986638784408569
","x: 296.87371826171875
y: 297.2052917480469
z: 0.02127142623066902
visibility: 0.8165035843849182
","x: 176.83642578125
y: 323.5025634765625
z: -0.05398253723978996
visibility: 0.8699615001678467
","x: 243.9448699951172
y: 345.5757141113281
z: 0.01527983509004116
visibility: 0.9996020197868347
","x: 217.16445922851562
y: 351.59967041015625
z: -0.01528073102235794
visibility: 0.9992057085037231
","x: 265.8515625
y: 428.6343078613281
z: 0.003736903192475438
visibility: 0.987793505191803
","x: 208.86741638183594
y: 436.86773681640625
z: 0.0222261231392622
visibility: 0.9881154298782349
","x: 281.4338684082031
y: 511.8301696777344
z: 0.1740632802248001
visibility: 0.9931003451347351
","x: 197.72486877441406
y: 514.6097412109375
z: 0.22677984833717346
visibility: 0.9917841553688049
","x: 277.0892028808594
y: 524.40771484375
z: 0.18427637219429016
visibility: 0.9335300326347351
","x: 199.7626953125
y: 524.3115234375
z: 0.24105539917945862
visibility: 0.8463473320007324
","x: 292.8285827636719
y: 533.696533203125
z: 0.06380007416009903
visibility: 0.9861112236976624
","x: 195.4169464111328
y: 543.716796875
z: 0.12697921693325043
visibility: 0.9841657280921936
","x: 175.88967895507812
y: 314.3450622558594
z: 0.0
","x: 178.1375732421875
y: 318.50225830078125
z: -0.006222858093678951
","x: 179.6457977294922
y: 324.5014953613281
z: -0.010428911074995995
","x: 181.1298828125
y: 329.9329833984375
z: -0.013592986389994621
","x: 181.6379852294922
y: 333.70513916015625
z: -0.016375558450818062
","x: 170.570068359375
y: 330.100830078125
z: -0.00900782085955143
","x: 167.84095764160156
y: 339.2109680175781
z: -0.012722935527563095
","x: 167.13877868652344
y: 345.8753662109375
z: -0.014994742348790169
","x: 167.09901428222656
y: 351.13446044921875
z: -0.01612384244799614
","x: 169.2427978515625
y: 331.2568664550781
z: -0.007287048734724522
","x: 167.2102813720703
y: 340.6256408691406
z: -0.01084873080253601
","x: 167.4925537109375
y: 347.5918884277344
z: -0.012465249747037888
","x: 168.16351318359375
y: 352.970458984375
z: -0.013477040454745293
","x: 168.95492553710938
y: 332.3194885253906
z: -0.00582434656098485
","x: 167.26666259765625
y: 341.20947265625
z: -0.00906494352966547
","x: 167.6365966796875
y: 347.88189697265625
z: -0.010557292029261589
","x: 168.3937530517578
y: 353.0061340332031
z: -0.01132085919380188
","x: 169.2342987060547
y: 333.1759338378906
z: -0.004837812390178442
","x: 167.82565307617188
y: 340.684326171875
z: -0.006928212940692902
","x: 167.80740356445312
y: 346.11669921875
z: -0.007876177318394184
","x: 168.32554626464844
y: 350.3572998046875
z: -0.008441653102636337
","x: 295.22076416015625
y: 277.76434326171875
z: 0.0
","x: 298.3036193847656
y: 288.1079406738281
z: 0.0016859420575201511
","x: 301.8236999511719
y: 296.7864685058594
z: -0.00038026273250579834
","x: 303.7020568847656
y: 303.8659973144531
z: -0.003755888668820262
","x: 304.9437255859375
y: 309.2615051269531
z: -0.0071877664886415005
","x: 305.3127746582031
y: 294.35198974609375
z: -0.004558059852570295
","x: 307.4905090332031
y: 304.9302673339844
z: -0.010326510295271873
","x: 306.566162109375
y: 311.1527099609375
z: -0.013470129109919071
","x: 305.1037292480469
y: 315.4535217285156
z: -0.015316318720579147
","x: 303.7432861328125
y: 292.0206298828125
z: -0.009261676110327244
","x: 306.0448303222656
y: 302.5128479003906
z: -0.015763945877552032
","x: 305.4167785644531
y: 309.3912353515625
z: -0.018336927518248558
","x: 304.2862548828125
y: 314.2781982421875
z: -0.019892016425728798
","x: 301.4733581542969
y: 289.06756591796875
z: -0.01393104437738657
","x: 303.2952575683594
y: 298.3492126464844
z: -0.019676445052027702
","x: 303.2818603515625
y: 304.9060363769531
z: -0.02096986398100853
","x: 302.9476318359375
y: 309.9210205078125
z: -0.02170833759009838
","x: 298.5064392089844
y: 286.2701416015625
z: -0.01852765679359436
","x: 299.0974426269531
y: 291.9735412597656
z: -0.022880615666508675
","x: 299.29803466796875
y: 296.09600830078125
z: -0.02376725897192955
","x: 299.41656494140625
y: 299.5121765136719
z: -0.024309467524290085
"
6,"x: 221.36407470703125
y: 192.5658416748047
z: -0.4137880802154541
visibility: 0.9979614019393921
","x: 223.83091735839844
y: 183.05885314941406
z: -0.40219029784202576
visibility: 0.9944543242454529
","x: 225.21090698242188
y: 182.2000274658203
z: -0.4022344946861267
visibility: 0.9943034648895264
","x: 226.7174530029297
y: 181.21458435058594
z: -0.4023100435733795
visibility: 0.9951722621917725
","x: 219.44610595703125
y: 182.6905975341797
z: -0.4094008505344391
visibility: 0.9945176243782043
","x: 217.5770263671875
y: 181.64727783203125
z: -0.4094278812408447
visibility: 0.9943304061889648
","x: 215.6403350830078
y: 180.46424865722656
z: -0.4093790650367737
visibility: 0.9933825135231018
","x: 225.5911102294922
y: 177.07366943359375
z: -0.2620939612388611
visibility: 0.9892547130584717
","x: 209.53494262695312
y: 176.66644287109375
z: -0.2984587550163269
visibility: 0.9859209656715393
","x: 221.39453125
y: 198.3095703125
z: -0.3544849157333374
visibility: 0.9974300861358643
","x: 216.60809326171875
y: 198.43423461914062
z: -0.365156352519989
visibility: 0.9957656264305115
","x: 234.68597412109375
y: 212.87355041503906
z: -0.1297890990972519
visibility: 0.9997937679290771
","x: 186.8968963623047
y: 213.20407104492188
z: -0.14456743001937866
visibility: 0.9990366101264954
","x: 258.19683837890625
y: 255.65467834472656
z: -0.033551327884197235
visibility: 0.9469215273857117
","x: 177.1280059814453
y: 272.5829162597656
z: -0.025623992085456848
visibility: 0.8907946348190308
","x: 291.07177734375
y: 285.8042297363281
z: -0.17511853575706482
visibility: 0.9022209644317627
","x: 169.37197875976562
y: 312.4094543457031
z: -0.04883148893713951
visibility: 0.9176409244537354
","x: 299.00506591796875
y: 295.7546691894531
z: -0.2038363218307495
visibility: 0.8189518451690674
","x: 164.99456787109375
y: 328.54443359375
z: -0.061018913984298706
visibility: 0.8966681361198425
","x: 297.53167724609375
y: 297.3003234863281
z: -0.2556401789188385
visibility: 0.8392542004585266
","x: 167.03851318359375
y: 327.4828796386719
z: -0.10834978520870209
visibility: 0.9068014621734619
","x: 294.8963317871094
y: 294.8388366699219
z: -0.19864754378795624
visibility: 0.834396481513977
","x: 169.68788146972656
y: 321.9454650878906
z: -0.06708936393260956
visibility: 0.8804978728294373
","x: 234.7610321044922
y: 345.1770324707031
z: 0.009438701905310154
visibility: 0.9996346831321716
","x: 205.40798950195312
y: 350.962890625
z: -0.009338879957795143
visibility: 0.9992743134498596
","x: 255.5618133544922
y: 429.0826721191406
z: 0.0006052704993635416
visibility: 0.9888221025466919
","x: 201.29867553710938
y: 438.75689697265625
z: 0.012137340381741524
visibility: 0.9891599416732788
","x: 271.4872131347656
y: 511.80157470703125
z: 0.16236798465251923
visibility: 0.9935506582260132
","x: 197.85626220703125
y: 515.1594848632812
z: 0.2122737467288971
visibility: 0.9924339056015015
","x: 268.2818603515625
y: 524.9376831054688
z: 0.1713694930076599
visibility: 0.9386196136474609
","x: 201.41787719726562
y: 524.787353515625
z: 0.2240968495607376
visibility: 0.8588687181472778
","x: 290.9814147949219
y: 533.7308959960938
z: 0.040313735604286194
visibility: 0.9870868921279907
","x: 194.66871643066406
y: 545.0310668945312
z: 0.0921575278043747
visibility: 0.9853554964065552
","x: 167.7620391845703
y: 303.9979553222656
z: 0.0
","x: 169.5524139404297
y: 309.538330078125
z: -0.0035500924568623304
","x: 170.57278442382812
y: 316.6859130859375
z: -0.006917319260537624
","x: 172.4287109375
y: 321.7835998535156
z: -0.010305811651051044
","x: 174.18333435058594
y: 324.62408447265625
z: -0.013583066873252392
","x: 162.51710510253906
y: 324.0783996582031
z: -0.0038904508110135794
","x: 159.56666564941406
y: 332.82000732421875
z: -0.007677601184695959
","x: 158.50379943847656
y: 339.103271484375
z: -0.01053885743021965
","x: 158.14109802246094
y: 343.6565856933594
z: -0.012192927300930023
","x: 161.28428649902344
y: 323.9638671875
z: -0.004445996135473251
","x: 158.5863800048828
y: 333.16534423828125
z: -0.008083666674792767
","x: 158.00450134277344
y: 339.8327941894531
z: -0.010431407019495964
","x: 157.98751831054688
y: 344.9949645996094
z: -0.01194740179926157
","x: 160.7854461669922
y: 323.440185546875
z: -0.005475807469338179
","x: 158.28656005859375
y: 332.2471618652344
z: -0.008933817967772484
","x: 157.70199584960938
y: 338.5213928222656
z: -0.010606554336845875
","x: 157.56295776367188
y: 343.2845458984375
z: -0.011478617787361145
","x: 160.8513641357422
y: 322.69232177734375
z: -0.006969051901251078
","x: 158.5951690673828
y: 329.98333740234375
z: -0.009393790736794472
","x: 157.85252380371094
y: 335.6026611328125
z: -0.010329104959964752
","x: 157.47952270507812
y: 340.2267761230469
z: -0.010883855633437634
",,,,,,,,,,,,,,,,,,,,,
7,"x: 221.36407470703125
y: 192.5658416748047
z: -0.4137880802154541
visibility: 0.9979614019393921
","x: 223.83091735839844
y: 183.05885314941406
z: -0.40219029784202576
visibility: 0.9944543242454529
","x: 225.21090698242188
y: 182.2000274658203
z: -0.4022344946861267
visibility: 0.9943034648895264
","x: 226.7174530029297
y: 181.21458435058594
z: -0.4023100435733795
visibility: 0.9951722621917725
","x: 219.44610595703125
y: 182.6905975341797
z: -0.4094008505344391
visibility: 0.9945176243782043
","x: 217.5770263671875
y: 181.64727783203125
z: -0.4094278812408447
visibility: 0.9943304061889648
","x: 215.6403350830078
y: 180.46424865722656
z: -0.4093790650367737
visibility: 0.9933825135231018
","x: 225.5911102294922
y: 177.07366943359375
z: -0.2620939612388611
visibility: 0.9892547130584717
","x: 209.53494262695312
y: 176.66644287109375
z: -0.2984587550163269
visibility: 0.9859209656715393
","x: 221.39453125
y: 198.3095703125
z: -0.3544849157333374
visibility: 0.9974300861358643
","x: 216.60809326171875
y: 198.43423461914062
z: -0.365156352519989
visibility: 0.9957656264305115
","x: 234.68597412109375
y: 212.87355041503906
z: -0.1297890990972519
visibility: 0.9997937679290771
","x: 186.8968963623047
y: 213.20407104492188
z: -0.14456743001937866
visibility: 0.9990366101264954
","x: 258.19683837890625
y: 255.65467834472656
z: -0.033551327884197235
visibility: 0.9469215273857117
","x: 177.1280059814453
y: 272.5829162597656
z: -0.025623992085456848
visibility: 0.8907946348190308
","x: 291.07177734375
y: 285.8042297363281
z: -0.17511853575706482
visibility: 0.9022209644317627
","x: 169.37197875976562
y: 312.4094543457031
z: -0.04883148893713951
visibility: 0.9176409244537354
","x: 299.00506591796875
y: 295.7546691894531
z: -0.2038363218307495
visibility: 0.8189518451690674
","x: 164.99456787109375
y: 328.54443359375
z: -0.061018913984298706
visibility: 0.8966681361198425
","x: 297.53167724609375
y: 297.3003234863281
z: -0.2556401789188385
visibility: 0.8392542004585266
","x: 167.03851318359375
y: 327.4828796386719
z: -0.10834978520870209
visibility: 0.9068014621734619
","x: 294.8963317871094
y: 294.8388366699219
z: -0.19864754378795624
visibility: 0.834396481513977
","x: 169.68788146972656
y: 321.9454650878906
z: -0.06708936393260956
visibility: 0.8804978728294373
","x: 234.7610321044922
y: 345.1770324707031
z: 0.009438701905310154
visibility: 0.9996346831321716
","x: 205.40798950195312
y: 350.962890625
z: -0.009338879957795143
visibility: 0.9992743134498596
","x: 255.5618133544922
y: 429.0826721191406
z: 0.0006052704993635416
visibility: 0.9888221025466919
","x: 201.29867553710938
y: 438.75689697265625
z: 0.012137340381741524
visibility: 0.9891599416732788
","x: 271.4872131347656
y: 511.80157470703125
z: 0.16236798465251923
visibility: 0.9935506582260132
","x: 197.85626220703125
y: 515.1594848632812
z: 0.2122737467288971
visibility: 0.9924339056015015
","x: 268.2818603515625
y: 524.9376831054688
z: 0.1713694930076599
visibility: 0.9386196136474609
","x: 201.41787719726562
y: 524.787353515625
z: 0.2240968495607376
visibility: 0.8588687181472778
","x: 290.9814147949219
y: 533.7308959960938
z: 0.040313735604286194
visibility: 0.9870868921279907
","x: 194.66871643066406
y: 545.0310668945312
z: 0.0921575278043747
visibility: 0.9853554964065552
","x: 167.7620391845703
y: 303.9979553222656
z: 0.0
","x: 169.5524139404297
y: 309.538330078125
z: -0.0035500924568623304
","x: 170.57278442382812
y: 316.6859130859375
z: -0.006917319260537624
","x: 172.4287109375
y: 321.7835998535156
z: -0.010305811651051044
","x: 174.18333435058594
y: 324.62408447265625
z: -0.013583066873252392
","x: 162.51710510253906
y: 324.0783996582031
z: -0.0038904508110135794
","x: 159.56666564941406
y: 332.82000732421875
z: -0.007677601184695959
","x: 158.50379943847656
y: 339.103271484375
z: -0.01053885743021965
","x: 158.14109802246094
y: 343.6565856933594
z: -0.012192927300930023
","x: 161.28428649902344
y: 323.9638671875
z: -0.004445996135473251
","x: 158.5863800048828
y: 333.16534423828125
z: -0.008083666674792767
","x: 158.00450134277344
y: 339.8327941894531
z: -0.010431407019495964
","x: 157.98751831054688
y: 344.9949645996094
z: -0.01194740179926157
","x: 160.7854461669922
y: 323.440185546875
z: -0.005475807469338179
","x: 158.28656005859375
y: 332.2471618652344
z: -0.008933817967772484
","x: 157.70199584960938
y: 338.5213928222656
z: -0.010606554336845875
","x: 157.56295776367188
y: 343.2845458984375
z: -0.011478617787361145
","x: 160.8513641357422
y: 322.69232177734375
z: -0.006969051901251078
","x: 158.5951690673828
y: 329.98333740234375
z: -0.009393790736794472
","x: 157.85252380371094
y: 335.6026611328125
z: -0.010329104959964752
","x: 157.47952270507812
y: 340.2267761230469
z: -0.010883855633437634
",,,,,,,,,,,,,,,,,,,,,
8,"x: 204.02723693847656
y: 188.15931701660156
z: -0.41082507371902466
visibility: 0.9981649518013
","x: 206.9609832763672
y: 178.4224090576172
z: -0.4008496403694153
visibility: 0.9950073957443237
","x: 208.85220336914062
y: 178.19210815429688
z: -0.4008859097957611
visibility: 0.9948715567588806
","x: 210.91268920898438
y: 177.7133331298828
z: -0.40095439553260803
visibility: 0.9956534504890442
","x: 201.56222534179688
y: 176.92996215820312
z: -0.4005766808986664
visibility: 0.9950641393661499
","x: 199.69100952148438
y: 175.80450439453125
z: -0.4006008207798004
visibility: 0.9948952198028564
","x: 197.58883666992188
y: 174.5449676513672
z: -0.40054458379745483
visibility: 0.9940415024757385
","x: 213.56675720214844
y: 175.23252868652344
z: -0.2797940969467163
visibility: 0.9903272986412048
","x: 194.057373046875
y: 171.4676513671875
z: -0.2818257808685303
visibility: 0.9873257279396057
","x: 206.00042724609375
y: 195.80960083007812
z: -0.36050623655319214
visibility: 0.9976865649223328
","x: 200.2613983154297
y: 195.81947326660156
z: -0.36064812541007996
visibility: 0.996188223361969
","x: 226.9514923095703
y: 210.92779541015625
z: -0.16063284873962402
visibility: 0.9998140931129456
","x: 178.26937866210938
y: 210.6088104248047
z: -0.14360910654067993
visibility: 0.9991315007209778
","x: 255.49314880371094
y: 252.78799438476562
z: -0.08121304959058762
visibility: 0.9521408081054688
","x: 168.4781494140625
y: 270.5283203125
z: -0.017742473632097244
visibility: 0.8991172313690186
","x: 287.3856201171875
y: 280.4289855957031
z: -0.19788673520088196
visibility: 0.9118150472640991
","x: 159.7467041015625
y: 311.5498046875
z: -0.06346230208873749
visibility: 0.9236892461776733
","x: 298.6025695800781
y: 289.70220947265625
z: -0.2235490381717682
visibility: 0.8364216685295105
","x: 155.12001037597656
y: 327.559326171875
z: -0.07774205505847931
visibility: 0.9027866125106812
","x: 296.0487365722656
y: 291.39471435546875
z: -0.2729073166847229
visibility: 0.8547985553741455
","x: 156.88424682617188
y: 326.2955322265625
z: -0.12423344701528549
visibility: 0.9124383330345154
","x: 294.3624572753906
y: 289.0960388183594
z: -0.21995215117931366
visibility: 0.8502971529960632
","x: 159.42710876464844
y: 320.6849365234375
z: -0.08280152082443237
visibility: 0.8883204460144043
","x: 223.2991485595703
y: 344.80291748046875
z: -0.0039427513256669044
visibility: 0.9996415972709656
","x: 194.541748046875
y: 348.6612243652344
z: 0.0040207235142588615
visibility: 0.9993202686309814
","x: 229.15695190429688
y: 432.9069519042969
z: 0.012463195249438286
visibility: 0.9895899295806885
","x: 192.57504272460938
y: 440.2510986328125
z: 0.008887781761586666
visibility: 0.9900656342506409
","x: 233.62486267089844
y: 512.37353515625
z: 0.21403293311595917
visibility: 0.9937559366226196
","x: 197.45529174804688
y: 516.4815673828125
z: 0.20411455631256104
visibility: 0.9929015040397644
","x: 228.70477294921875
y: 525.44482421875
z: 0.22436773777008057
visibility: 0.9398170709609985
","x: 202.4340057373047
y: 526.06982421875
z: 0.21411940455436707
visibility: 0.8693253993988037
","x: 248.58644104003906
y: 537.37060546875
z: 0.08645547926425934
visibility: 0.9876860976219177
","x: 191.76937866210938
y: 546.208984375
z: 0.08211325854063034
visibility: 0.9863501191139221
",,,,,,,,,,,,,,,,,,,,,,,,,,,,,,,,,,,,,,,,,,
9,"x: 193.87692260742188
y: 186.12521362304688
z: -0.4456215500831604
visibility: 0.9983473420143127
","x: 197.12582397460938
y: 176.25535583496094
z: -0.4393613934516907
visibility: 0.9955002665519714
","x: 198.9954833984375
y: 176.0297393798828
z: -0.43940386176109314
visibility: 0.9953794479370117
","x: 200.89984130859375
y: 175.49832153320312
z: -0.43947750329971313
visibility: 0.9960811734199524
","x: 192.283935546875
y: 174.8035430908203
z: -0.4309789538383484
visibility: 0.9955514073371887
","x: 190.59796142578125
y: 173.67323303222656
z: -0.43101534247398376
visibility: 0.9953993558883667
","x: 189.02276611328125
y: 172.45263671875
z: -0.43096643686294556
visibility: 0.9946286678314209
","x: 205.09671020507812
y: 173.3817901611328
z: -0.3272426724433899
visibility: 0.9912886023521423
","x: 188.19813537597656
y: 169.668701171875
z: -0.2892794907093048
visibility: 0.9885857105255127
","x: 196.66897583007812
y: 195.04605102539062
z: -0.3979436755180359
visibility: 0.9979150891304016
","x: 191.29515075683594
y: 194.74893188476562
z: -0.3866952955722809
visibility: 0.9965638518333435
","x: 222.2086944580078
y: 208.10118103027344
z: -0.2099062204360962
visibility: 0.9998319149017334
","x: 176.38351440429688
y: 206.95849609375
z: -0.12682214379310608
visibility: 0.9992156624794006
","x: 252.2811737060547
y: 245.1358642578125
z: -0.14333142340183258
visibility: 0.9568450450897217
","x: 168.4115447998047
y: 264.667724609375
z: 0.07667029649019241
visibility: 0.9043887853622437
","x: 282.6264343261719
y: 270.1528015136719
z: -0.2425748109817505
visibility: 0.9204212427139282
","x: 158.41818237304688
y: 307.0965270996094
z: 0.1132134422659874
visibility: 0.9299514889717102
","x: 295.6525573730469
y: 280.1604919433594
z: -0.26223692297935486
visibility: 0.851943850517273
","x: 152.67930603027344
y: 323.1129455566406
z: 0.12031123787164688
visibility: 0.9095966219902039
","x: 294.9018249511719
y: 282.0572204589844
z: -0.30971571803092957
visibility: 0.8686374425888062
","x: 153.72801208496094
y: 323.0985107421875
z: 0.07443786412477493
visibility: 0.9186223149299622
","x: 290.7994079589844
y: 280.3395690917969
z: -0.26300233602523804
visibility: 0.8644258975982666
","x: 156.67140197753906
y: 317.3733825683594
z: 0.09722483158111572
visibility: 0.8966355323791504
","x: 217.73257446289062
y: 343.0694274902344
z: -0.028393005952239037
visibility: 0.9995725750923157
","x: 190.33152770996094
y: 345.0257873535156
z: 0.02848447486758232
visibility: 0.9993323087692261
","x: 214.65673828125
y: 432.9608459472656
z: -0.008715633302927017
visibility: 0.9893389940261841
","x: 188.00115966796875
y: 438.188720703125
z: -0.008586395531892776
visibility: 0.9904659390449524
","x: 215.77053833007812
y: 515.5762329101562
z: 0.1445980668067932
visibility: 0.9932811260223389
","x: 197.1749725341797
y: 516.8287353515625
z: 0.16243527829647064
visibility: 0.9929682016372681
","x: 214.48028564453125
y: 528.509765625
z: 0.15003734827041626
visibility: 0.937033474445343
","x: 202.09988403320312
y: 528.195068359375
z: 0.16953618824481964
visibility: 0.878521203994751
","x: 227.95269775390625
y: 542.6782836914062
z: 0.016052963212132454
visibility: 0.9873511791229248
","x: 184.94851684570312
y: 546.1898193359375
z: 0.045976217836141586
visibility: 0.9868881702423096
","x: 156.28106689453125
y: 300.9432067871094
z: 0.0
","x: 158.95242309570312
y: 305.238525390625
z: 0.0002260243782075122
","x: 160.1068115234375
y: 311.1937255859375
z: -0.0010319403372704983
","x: 161.5262451171875
y: 315.0652770996094
z: -0.003403030801564455
","x: 163.0538787841797
y: 316.7911682128906
z: -0.005760896485298872
","x: 152.8025665283203
y: 321.21051025390625
z: 0.003863314865157008
","x: 151.56396484375
y: 329.3217468261719
z: 0.0016388106159865856
","x: 151.29017639160156
y: 334.2182922363281
z: -0.0002010301104746759
","x: 151.4160614013672
y: 337.9278869628906
z: -0.0011169146746397018
","x: 150.4866485595703
y: 321.7498779296875
z: 0.0013357375282794237
","x: 148.6281280517578
y: 329.7814636230469
z: -0.00015743286348879337
","x: 148.24082946777344
y: 334.9201965332031
z: -0.0012062790337949991
","x: 148.3318328857422
y: 339.430908203125
z: -0.0018666692776605487
","x: 149.0017547607422
y: 321.68548583984375
z: -0.0019326640758663416
","x: 146.94175720214844
y: 329.1419982910156
z: -0.0037806169129908085
","x: 146.48776245117188
y: 334.346923828125
z: -0.004157425370067358
","x: 146.3331298828125
y: 338.490234375
z: -0.004247501492500305
","x: 148.10397338867188
y: 321.0533447265625
z: -0.0056214481592178345
","x: 145.89549255371094
y: 327.54046630859375
z: -0.007031559478491545
","x: 145.02737426757812
y: 331.7674560546875
z: -0.007061087526381016
","x: 144.5725555419922
y: 335.2162170410156
z: -0.0069067273288965225
",,,,,,,,,,,,,,,,,,,,,
10,"x: 193.87692260742188
y: 186.12521362304688
z: -0.4456215500831604
visibility: 0.9983473420143127
","x: 197.12582397460938
y: 176.25535583496094
z: -0.4393613934516907
visibility: 0.9955002665519714
","x: 198.9954833984375
y: 176.0297393798828
z: -0.43940386176109314
visibility: 0.9953794479370117
","x: 200.89984130859375
y: 175.49832153320312
z: -0.43947750329971313
visibility: 0.9960811734199524
","x: 192.283935546875
y: 174.8035430908203
z: -0.4309789538383484
visibility: 0.9955514073371887
","x: 190.59796142578125
y: 173.67323303222656
z: -0.43101534247398376
visibility: 0.9953993558883667
","x: 189.02276611328125
y: 172.45263671875
z: -0.43096643686294556
visibility: 0.9946286678314209
","x: 205.09671020507812
y: 173.3817901611328
z: -0.3272426724433899
visibility: 0.9912886023521423
","x: 188.19813537597656
y: 169.668701171875
z: -0.2892794907093048
visibility: 0.9885857105255127
","x: 196.66897583007812
y: 195.04605102539062
z: -0.3979436755180359
visibility: 0.9979150891304016
","x: 191.29515075683594
y: 194.74893188476562
z: -0.3866952955722809
visibility: 0.9965638518333435
","x: 222.2086944580078
y: 208.10118103027344
z: -0.2099062204360962
visibility: 0.9998319149017334
","x: 176.38351440429688
y: 206.95849609375
z: -0.12682214379310608
visibility: 0.9992156624794006
","x: 252.2811737060547
y: 245.1358642578125
z: -0.14333142340183258
visibility: 0.9568450450897217
","x: 168.4115447998047
y: 264.667724609375
z: 0.07667029649019241
visibility: 0.9043887853622437
","x: 282.6264343261719
y: 270.1528015136719
z: -0.2425748109817505
visibility: 0.9204212427139282
","x: 158.41818237304688
y: 307.0965270996094
z: 0.1132134422659874
visibility: 0.9299514889717102
","x: 295.6525573730469
y: 280.1604919433594
z: -0.26223692297935486
visibility: 0.851943850517273
","x: 152.67930603027344
y: 323.1129455566406
z: 0.12031123787164688
visibility: 0.9095966219902039
","x: 294.9018249511719
y: 282.0572204589844
z: -0.30971571803092957
visibility: 0.8686374425888062
","x: 153.72801208496094
y: 323.0985107421875
z: 0.07443786412477493
visibility: 0.9186223149299622
","x: 290.7994079589844
y: 280.3395690917969
z: -0.26300233602523804
visibility: 0.8644258975982666
","x: 156.67140197753906
y: 317.3733825683594
z: 0.09722483158111572
visibility: 0.8966355323791504
","x: 217.73257446289062
y: 343.0694274902344
z: -0.028393005952239037
visibility: 0.9995725750923157
","x: 190.33152770996094
y: 345.0257873535156
z: 0.02848447486758232
visibility: 0.9993323087692261
","x: 214.65673828125
y: 432.9608459472656
z: -0.008715633302927017
visibility: 0.9893389940261841
","x: 188.00115966796875
y: 438.188720703125
z: -0.008586395531892776
visibility: 0.9904659390449524
","x: 215.77053833007812
y: 515.5762329101562
z: 0.1445980668067932
visibility: 0.9932811260223389
","x: 197.1749725341797
y: 516.8287353515625
z: 0.16243527829647064
visibility: 0.9929682016372681
","x: 214.48028564453125
y: 528.509765625
z: 0.15003734827041626
visibility: 0.937033474445343
","x: 202.09988403320312
y: 528.195068359375
z: 0.16953618824481964
visibility: 0.878521203994751
","x: 227.95269775390625
y: 542.6782836914062
z: 0.016052963212132454
visibility: 0.9873511791229248
","x: 184.94851684570312
y: 546.1898193359375
z: 0.045976217836141586
visibility: 0.9868881702423096
","x: 156.28106689453125
y: 300.9432067871094
z: 0.0
","x: 158.95242309570312
y: 305.238525390625
z: 0.0002260243782075122
","x: 160.1068115234375
y: 311.1937255859375
z: -0.0010319403372704983
","x: 161.5262451171875
y: 315.0652770996094
z: -0.003403030801564455
","x: 163.0538787841797
y: 316.7911682128906
z: -0.005760896485298872
","x: 152.8025665283203
y: 321.21051025390625
z: 0.003863314865157008
","x: 151.56396484375
y: 329.3217468261719
z: 0.0016388106159865856
","x: 151.29017639160156
y: 334.2182922363281
z: -0.0002010301104746759
","x: 151.4160614013672
y: 337.9278869628906
z: -0.0011169146746397018
","x: 150.4866485595703
y: 321.7498779296875
z: 0.0013357375282794237
","x: 148.6281280517578
y: 329.7814636230469
z: -0.00015743286348879337
","x: 148.24082946777344
y: 334.9201965332031
z: -0.0012062790337949991
","x: 148.3318328857422
y: 339.430908203125
z: -0.0018666692776605487
","x: 149.0017547607422
y: 321.68548583984375
z: -0.0019326640758663416
","x: 146.94175720214844
y: 329.1419982910156
z: -0.0037806169129908085
","x: 146.48776245117188
y: 334.346923828125
z: -0.004157425370067358
","x: 146.3331298828125
y: 338.490234375
z: -0.004247501492500305
","x: 148.10397338867188
y: 321.0533447265625
z: -0.0056214481592178345
","x: 145.89549255371094
y: 327.54046630859375
z: -0.007031559478491545
","x: 145.02737426757812
y: 331.7674560546875
z: -0.007061087526381016
","x: 144.5725555419922
y: 335.2162170410156
z: -0.0069067273288965225
",,,,,,,,,,,,,,,,,,,,,
11,"x: 186.7173309326172
y: 182.7674102783203
z: -0.3852441906929016
visibility: 0.9985032081604004
","x: 189.40188598632812
y: 172.62075805664062
z: -0.3784567415714264
visibility: 0.995891809463501
","x: 191.22193908691406
y: 171.90411376953125
z: -0.3785347640514374
visibility: 0.9958041310310364
","x: 193.08566284179688
y: 171.0050048828125
z: -0.3786253333091736
visibility: 0.9964272975921631
","x: 184.32821655273438
y: 173.07589721679688
z: -0.3717731535434723
visibility: 0.9959322810173035
","x: 182.6576690673828
y: 172.5655517578125
z: -0.37180501222610474
visibility: 0.9957964420318604
","x: 181.0277099609375
y: 171.83782958984375
z: -0.3718014061450958
visibility: 0.9950791597366333
","x: 197.19288635253906
y: 169.63995361328125
z: -0.27401453256607056
visibility: 0.9921256899833679
","x: 180.88421630859375
y: 169.49832153320312
z: -0.22298884391784668
visibility: 0.9896356463432312
","x: 190.20730590820312
y: 191.724853515625
z: -0.34094178676605225
visibility: 0.9981061816215515
","x: 184.81280517578125
y: 193.08688354492188
z: -0.33376631140708923
visibility: 0.9968662261962891
","x: 217.6150360107422
y: 204.30067443847656
z: -0.18055124580860138
visibility: 0.9998478889465332
","x: 173.418701171875
y: 207.5051727294922
z: -0.0579020194709301
visibility: 0.9992783069610596
","x: 246.90850830078125
y: 235.3439483642578
z: -0.1417621672153473
visibility: 0.9610940217971802
","x: 168.0983428955078
y: 261.82550048828125
z: 0.12085187435150146
visibility: 0.9028874635696411
","x: 279.3013610839844
y: 256.0316162109375
z: -0.2452782392501831
visibility: 0.9281480312347412
","x: 157.25653076171875
y: 302.21563720703125
z: 0.12201515585184097
visibility: 0.9337630271911621
","x: 291.4468688964844
y: 264.64605712890625
z: -0.26982060074806213
visibility: 0.8659419417381287
","x: 152.15267944335938
y: 317.88458251953125
z: 0.12090090662240982
visibility: 0.912820041179657
","x: 291.19207763671875
y: 266.69329833984375
z: -0.31655579805374146
visibility: 0.8811257481575012
","x: 153.27403259277344
y: 317.5347595214844
z: 0.07472597062587738
visibility: 0.9217514991760254
","x: 286.6918029785156
y: 264.54852294921875
z: -0.26638442277908325
visibility: 0.8771528005599976
","x: 155.69891357421875
y: 312.3538818359375
z: 0.10376141220331192
visibility: 0.9016035199165344
","x: 212.2955322265625
y: 340.9678649902344
z: -0.051877569407224655
visibility: 0.9994982481002808
","x: 186.7858123779297
y: 342.62109375
z: 0.05203670263290405
visibility: 0.9992859959602356
","x: 204.1167755126953
y: 431.8975524902344
z: -0.035911962389945984
visibility: 0.9887471795082092
","x: 184.94613647460938
y: 434.57904052734375
z: -0.0040483926422894
visibility: 0.9883927702903748
","x: 208.27548217773438
y: 516.603515625
z: 0.09869266301393509
visibility: 0.9924037456512451
","x: 196.3878936767578
y: 516.8761596679688
z: 0.14988701045513153
visibility: 0.9909139275550842
","x: 210.42063903808594
y: 529.1473999023438
z: 0.10309554636478424
visibility: 0.9245034456253052
","x: 200.98048400878906
y: 528.6728515625
z: 0.1560186743736267
visibility: 0.8804498910903931
","x: 200.74012756347656
y: 543.6361083984375
z: -0.041785188019275665
visibility: 0.9862322807312012
","x: 179.4034881591797
y: 542.2697143554688
z: 0.030559534206986427
visibility: 0.9857054948806763
","x: 155.84616088867188
y: 297.6006774902344
z: 0.0
","x: 158.1248321533203
y: 303.23919677734375
z: -0.0014745279913768172
","x: 159.3317108154297
y: 309.7537841796875
z: -0.003960050642490387
","x: 161.1612548828125
y: 313.8043212890625
z: -0.007117252331227064
","x: 162.6399383544922
y: 315.86309814453125
z: -0.010270457714796066
","x: 151.87396240234375
y: 319.08306884765625
z: 0.00025578014901839197
","x: 150.3555145263672
y: 327.6028137207031
z: -0.0028590394649654627
","x: 149.97109985351562
y: 333.43450927734375
z: -0.005682251416146755
","x: 150.04180908203125
y: 337.96368408203125
z: -0.007457017432898283
","x: 150.37625122070312
y: 318.2690124511719
z: -0.0016492643626406789
","x: 148.17999267578125
y: 326.307861328125
z: -0.0040949806571006775
","x: 147.42938232421875
y: 332.2044372558594
z: -0.006179273594170809
","x: 147.2345733642578
y: 337.08392333984375
z: -0.007733106147497892
","x: 149.58216857910156
y: 316.45654296875
z: -0.004207771271467209
","x: 147.36572265625
y: 323.67010498046875
z: -0.006857703439891338
","x: 146.3275146484375
y: 329.46453857421875
z: -0.008474293164908886
","x: 145.89125061035156
y: 334.08441162109375
z: -0.009516436606645584
","x: 149.38465881347656
y: 313.7812805175781
z: -0.007166124414652586
","x: 147.52236938476562
y: 318.9970703125
z: -0.009155752137303352
","x: 146.77696228027344
y: 322.7544860839844
z: -0.009846199303865433
","x: 146.47373962402344
y: 325.85137939453125
z: -0.010316334664821625
",,,,,,,,,,,,,,,,,,,,,
12,"x: 186.7173309326172
y: 182.7674102783203
z: -0.3852441906929016
visibility: 0.9985032081604004
","x: 189.40188598632812
y: 172.62075805664062
z: -0.3784567415714264
visibility: 0.995891809463501
","x: 191.22193908691406
y: 171.90411376953125
z: -0.3785347640514374
visibility: 0.9958041310310364
","x: 193.08566284179688
y: 171.0050048828125
z: -0.3786253333091736
visibility: 0.9964272975921631
","x: 184.32821655273438
y: 173.07589721679688
z: -0.3717731535434723
visibility: 0.9959322810173035
","x: 182.6576690673828
y: 172.5655517578125
z: -0.37180501222610474
visibility: 0.9957964420318604
","x: 181.0277099609375
y: 171.83782958984375
z: -0.3718014061450958
visibility: 0.9950791597366333
","x: 197.19288635253906
y: 169.63995361328125
z: -0.27401453256607056
visibility: 0.9921256899833679
","x: 180.88421630859375
y: 169.49832153320312
z: -0.22298884391784668
visibility: 0.9896356463432312
","x: 190.20730590820312
y: 191.724853515625
z: -0.34094178676605225
visibility: 0.9981061816215515
","x: 184.81280517578125
y: 193.08688354492188
z: -0.33376631140708923
visibility: 0.9968662261962891
","x: 217.6150360107422
y: 204.30067443847656
z: -0.18055124580860138
visibility: 0.9998478889465332
","x: 173.418701171875
y: 207.5051727294922
z: -0.0579020194709301
visibility: 0.9992783069610596
","x: 246.90850830078125
y: 235.3439483642578
z: -0.1417621672153473
visibility: 0.9610940217971802
","x: 168.0983428955078
y: 261.82550048828125
z: 0.12085187435150146
visibility: 0.9028874635696411
","x: 279.3013610839844
y: 256.0316162109375
z: -0.2452782392501831
visibility: 0.9281480312347412
","x: 157.25653076171875
y: 302.21563720703125
z: 0.12201515585184097
visibility: 0.9337630271911621
","x: 291.4468688964844
y: 264.64605712890625
z: -0.26982060074806213
visibility: 0.8659419417381287
","x: 152.15267944335938
y: 317.88458251953125
z: 0.12090090662240982
visibility: 0.912820041179657
","x: 291.19207763671875
y: 266.69329833984375
z: -0.31655579805374146
visibility: 0.8811257481575012
","x: 153.27403259277344
y: 317.5347595214844
z: 0.07472597062587738
visibility: 0.9217514991760254
","x: 286.6918029785156
y: 264.54852294921875
z: -0.26638442277908325
visibility: 0.8771528005599976
","x: 155.69891357421875
y: 312.3538818359375
z: 0.10376141220331192
visibility: 0.9016035199165344
","x: 212.2955322265625
y: 340.9678649902344
z: -0.051877569407224655
visibility: 0.9994982481002808
","x: 186.7858123779297
y: 342.62109375
z: 0.05203670263290405
visibility: 0.9992859959602356
","x: 204.1167755126953
y: 431.8975524902344
z: -0.035911962389945984
visibility: 0.9887471795082092
","x: 184.94613647460938
y: 434.57904052734375
z: -0.0040483926422894
visibility: 0.9883927702903748
","x: 208.27548217773438
y: 516.603515625
z: 0.09869266301393509
visibility: 0.9924037456512451
","x: 196.3878936767578
y: 516.8761596679688
z: 0.14988701045513153
visibility: 0.9909139275550842
","x: 210.42063903808594
y: 529.1473999023438
z: 0.10309554636478424
visibility: 0.9245034456253052
","x: 200.98048400878906
y: 528.6728515625
z: 0.1560186743736267
visibility: 0.8804498910903931
","x: 200.74012756347656
y: 543.6361083984375
z: -0.041785188019275665
visibility: 0.9862322807312012
","x: 179.4034881591797
y: 542.2697143554688
z: 0.030559534206986427
visibility: 0.9857054948806763
","x: 155.84616088867188
y: 297.6006774902344
z: 0.0
","x: 158.1248321533203
y: 303.23919677734375
z: -0.0014745279913768172
","x: 159.3317108154297
y: 309.7537841796875
z: -0.003960050642490387
","x: 161.1612548828125
y: 313.8043212890625
z: -0.007117252331227064
","x: 162.6399383544922
y: 315.86309814453125
z: -0.010270457714796066
","x: 151.87396240234375
y: 319.08306884765625
z: 0.00025578014901839197
","x: 150.3555145263672
y: 327.6028137207031
z: -0.0028590394649654627
","x: 149.97109985351562
y: 333.43450927734375
z: -0.005682251416146755
","x: 150.04180908203125
y: 337.96368408203125
z: -0.007457017432898283
","x: 150.37625122070312
y: 318.2690124511719
z: -0.0016492643626406789
","x: 148.17999267578125
y: 326.307861328125
z: -0.0040949806571006775
","x: 147.42938232421875
y: 332.2044372558594
z: -0.006179273594170809
","x: 147.2345733642578
y: 337.08392333984375
z: -0.007733106147497892
","x: 149.58216857910156
y: 316.45654296875
z: -0.004207771271467209
","x: 147.36572265625
y: 323.67010498046875
z: -0.006857703439891338
","x: 146.3275146484375
y: 329.46453857421875
z: -0.008474293164908886
","x: 145.89125061035156
y: 334.08441162109375
z: -0.009516436606645584
","x: 149.38465881347656
y: 313.7812805175781
z: -0.007166124414652586
","x: 147.52236938476562
y: 318.9970703125
z: -0.009155752137303352
","x: 146.77696228027344
y: 322.7544860839844
z: -0.009846199303865433
","x: 146.47373962402344
y: 325.85137939453125
z: -0.010316334664821625
",,,,,,,,,,,,,,,,,,,,,
13,"x: 178.99978637695312
y: 179.59136962890625
z: -0.341794490814209
visibility: 0.9986407160758972
","x: 181.57089233398438
y: 169.0522003173828
z: -0.3354506194591522
visibility: 0.9962286949157715
","x: 183.4586181640625
y: 168.2423553466797
z: -0.33560141921043396
visibility: 0.9961731433868408
","x: 185.2172088623047
y: 167.36572265625
z: -0.33575400710105896
visibility: 0.9967238903045654
","x: 176.55442810058594
y: 170.3947296142578
z: -0.3136768341064453
visibility: 0.9962628483772278
","x: 175.11614990234375
y: 170.3262939453125
z: -0.3136652708053589
visibility: 0.9961367845535278
","x: 173.804931640625
y: 170.0598907470703
z: -0.31366056203842163
visibility: 0.9954580068588257
","x: 189.4756622314453
y: 166.897216796875
z: -0.2451767921447754
visibility: 0.9928666353225708
","x: 174.80604553222656
y: 168.81097412109375
z: -0.15550445020198822
visibility: 0.9905145764350891
","x: 183.44471740722656
y: 188.59010314941406
z: -0.3040176331996918
visibility: 0.9982672333717346
","x: 177.94920349121094
y: 190.37030029296875
z: -0.27418166399002075
visibility: 0.9971066117286682
","x: 212.75518798828125
y: 202.4086151123047
z: -0.15886029601097107
visibility: 0.9998611211776733
","x: 170.533935546875
y: 209.83750915527344
z: -0.013308818452060223
visibility: 0.9993138313293457
","x: 243.995361328125
y: 232.67950439453125
z: -0.13036394119262695
visibility: 0.9648693799972534
","x: 168.79872131347656
y: 260.6924133300781
z: 0.11818854510784149
visibility: 0.8944663405418396
","x: 277.0528869628906
y: 249.64520263671875
z: -0.22812800109386444
visibility: 0.934907853603363
","x: 157.3365478515625
y: 296.765625
z: 0.07611647248268127
visibility: 0.9350271224975586
","x: 288.62811279296875
y: 253.9864501953125
z: -0.2531799077987671
visibility: 0.878086268901825
","x: 152.0876007080078
y: 311.53765869140625
z: 0.06844876706600189
visibility: 0.9128283262252808
","x: 288.5727844238281
y: 255.26914978027344
z: -0.2958112061023712
visibility: 0.8920130133628845
","x: 152.3741912841797
y: 310.30999755859375
z: 0.02299615368247032
visibility: 0.9220545291900635
","x: 284.62664794921875
y: 254.0133056640625
z: -0.24803106486797333
visibility: 0.8881881237030029
","x: 154.861572265625
y: 304.94305419921875
z: 0.056112997233867645
visibility: 0.9034878015518188
","x: 207.39678955078125
y: 340.9219665527344
z: -0.06695213168859482
visibility: 0.9994282722473145
","x: 183.79917907714844
y: 342.3043518066406
z: 0.06710757315158844
visibility: 0.9992061257362366
","x: 199.53245544433594
y: 431.30987548828125
z: -0.05928349494934082
visibility: 0.987119197845459
","x: 183.8473358154297
y: 433.55645751953125
z: 0.012265007942914963
visibility: 0.9817396402359009
","x: 206.0335235595703
y: 517.231689453125
z: 0.06170530244708061
visibility: 0.9910376667976379
","x: 195.0787811279297
y: 516.6197509765625
z: 0.15745601058006287
visibility: 0.9862685203552246
","x: 209.2104034423828
y: 529.6099853515625
z: 0.06539542973041534
visibility: 0.9168505668640137
","x: 200.30941772460938
y: 528.8700561523438
z: 0.1630115807056427
visibility: 0.8794962763786316
","x: 191.7855682373047
y: 543.0748901367188
z: -0.0741819441318512
visibility: 0.984532356262207
","x: 177.70155334472656
y: 540.5573120117188
z: 0.04550937935709953
visibility: 0.9826314449310303
","x: 154.14883422851562
y: 296.9412841796875
z: 0.0
","x: 156.2272186279297
y: 299.5504150390625
z: -0.006492447108030319
","x: 157.60308837890625
y: 304.12310791015625
z: -0.011574866250157356
","x: 159.25503540039062
y: 308.22601318359375
z: -0.015851540490984917
","x: 160.28485107421875
y: 310.59014892578125
z: -0.02003413625061512
","x: 150.849365234375
y: 309.5730895996094
z: -0.011931141838431358
","x: 148.71063232421875
y: 315.57421875
z: -0.017563769593834877
","x: 148.10768127441406
y: 320.9903259277344
z: -0.020753925666213036
","x: 148.12710571289062
y: 325.4139709472656
z: -0.02249795012176037
","x: 149.22900390625
y: 312.0955505371094
z: -0.01133296824991703
","x: 147.31590270996094
y: 319.9974060058594
z: -0.01699097827076912
","x: 146.97738647460938
y: 326.90948486328125
z: -0.019648345187306404
","x: 147.1037139892578
y: 332.7123718261719
z: -0.02149825170636177
","x: 148.6818084716797
y: 313.9555969238281
z: -0.010999088175594807
","x: 146.9609832763672
y: 322.1603698730469
z: -0.015980519354343414
","x: 146.7991485595703
y: 328.56439208984375
z: -0.01789921522140503
","x: 147.06736755371094
y: 334.04937744140625
z: -0.01907169818878174
","x: 148.854248046875
y: 315.3869323730469
z: -0.01116451807320118
","x: 147.2339630126953
y: 322.4925231933594
z: -0.01449756883084774
","x: 146.96969604492188
y: 327.75848388671875
z: -0.015782147645950317
","x: 147.118408203125
y: 332.451416015625
z: -0.016773246228694916
",,,,,,,,,,,,,,,,,,,,,
14,"x: 178.99978637695312
y: 179.59136962890625
z: -0.341794490814209
visibility: 0.9986407160758972
","x: 181.57089233398438
y: 169.0522003173828
z: -0.3354506194591522
visibility: 0.9962286949157715
","x: 183.4586181640625
y: 168.2423553466797
z: -0.33560141921043396
visibility: 0.9961731433868408
","x: 185.2172088623047
y: 167.36572265625
z: -0.33575400710105896
visibility: 0.9967238903045654
","x: 176.55442810058594
y: 170.3947296142578
z: -0.3136768341064453
visibility: 0.9962628483772278
","x: 175.11614990234375
y: 170.3262939453125
z: -0.3136652708053589
visibility: 0.9961367845535278
","x: 173.804931640625
y: 170.0598907470703
z: -0.31366056203842163
visibility: 0.9954580068588257
","x: 189.4756622314453
y: 166.897216796875
z: -0.2451767921447754
visibility: 0.9928666353225708
","x: 174.80604553222656
y: 168.81097412109375
z: -0.15550445020198822
visibility: 0.9905145764350891
","x: 183.44471740722656
y: 188.59010314941406
z: -0.3040176331996918
visibility: 0.9982672333717346
","x: 177.94920349121094
y: 190.37030029296875
z: -0.27418166399002075
visibility: 0.9971066117286682
","x: 212.75518798828125
y: 202.4086151123047
z: -0.15886029601097107
visibility: 0.9998611211776733
","x: 170.533935546875
y: 209.83750915527344
z: -0.013308818452060223
visibility: 0.9993138313293457
","x: 243.995361328125
y: 232.67950439453125
z: -0.13036394119262695
visibility: 0.9648693799972534
","x: 168.79872131347656
y: 260.6924133300781
z: 0.11818854510784149
visibility: 0.8944663405418396
","x: 277.0528869628906
y: 249.64520263671875
z: -0.22812800109386444
visibility: 0.934907853603363
","x: 157.3365478515625
y: 296.765625
z: 0.07611647248268127
visibility: 0.9350271224975586
","x: 288.62811279296875
y: 253.9864501953125
z: -0.2531799077987671
visibility: 0.878086268901825
","x: 152.0876007080078
y: 311.53765869140625
z: 0.06844876706600189
visibility: 0.9128283262252808
","x: 288.5727844238281
y: 255.26914978027344
z: -0.2958112061023712
visibility: 0.8920130133628845
","x: 152.3741912841797
y: 310.30999755859375
z: 0.02299615368247032
visibility: 0.9220545291900635
","x: 284.62664794921875
y: 254.0133056640625
z: -0.24803106486797333
visibility: 0.8881881237030029
","x: 154.861572265625
y: 304.94305419921875
z: 0.056112997233867645
visibility: 0.9034878015518188
","x: 207.39678955078125
y: 340.9219665527344
z: -0.06695213168859482
visibility: 0.9994282722473145
","x: 183.79917907714844
y: 342.3043518066406
z: 0.06710757315158844
visibility: 0.9992061257362366
","x: 199.53245544433594
y: 431.30987548828125
z: -0.05928349494934082
visibility: 0.987119197845459
","x: 183.8473358154297
y: 433.55645751953125
z: 0.012265007942914963
visibility: 0.9817396402359009
","x: 206.0335235595703
y: 517.231689453125
z: 0.06170530244708061
visibility: 0.9910376667976379
","x: 195.0787811279297
y: 516.6197509765625
z: 0.15745601058006287
visibility: 0.9862685203552246
","x: 209.2104034423828
y: 529.6099853515625
z: 0.06539542973041534
visibility: 0.9168505668640137
","x: 200.30941772460938
y: 528.8700561523438
z: 0.1630115807056427
visibility: 0.8794962763786316
","x: 191.7855682373047
y: 543.0748901367188
z: -0.0741819441318512
visibility: 0.984532356262207
","x: 177.70155334472656
y: 540.5573120117188
z: 0.04550937935709953
visibility: 0.9826314449310303
","x: 154.14883422851562
y: 296.9412841796875
z: 0.0
","x: 156.2272186279297
y: 299.5504150390625
z: -0.006492447108030319
","x: 157.60308837890625
y: 304.12310791015625
z: -0.011574866250157356
","x: 159.25503540039062
y: 308.22601318359375
z: -0.015851540490984917
","x: 160.28485107421875
y: 310.59014892578125
z: -0.02003413625061512
","x: 150.849365234375
y: 309.5730895996094
z: -0.011931141838431358
","x: 148.71063232421875
y: 315.57421875
z: -0.017563769593834877
","x: 148.10768127441406
y: 320.9903259277344
z: -0.020753925666213036
","x: 148.12710571289062
y: 325.4139709472656
z: -0.02249795012176037
","x: 149.22900390625
y: 312.0955505371094
z: -0.01133296824991703
","x: 147.31590270996094
y: 319.9974060058594
z: -0.01699097827076912
","x: 146.97738647460938
y: 326.90948486328125
z: -0.019648345187306404
","x: 147.1037139892578
y: 332.7123718261719
z: -0.02149825170636177
","x: 148.6818084716797
y: 313.9555969238281
z: -0.010999088175594807
","x: 146.9609832763672
y: 322.1603698730469
z: -0.015980519354343414
","x: 146.7991485595703
y: 328.56439208984375
z: -0.01789921522140503
","x: 147.06736755371094
y: 334.04937744140625
z: -0.01907169818878174
","x: 148.854248046875
y: 315.3869323730469
z: -0.01116451807320118
","x: 147.2339630126953
y: 322.4925231933594
z: -0.01449756883084774
","x: 146.96969604492188
y: 327.75848388671875
z: -0.015782147645950317
","x: 147.118408203125
y: 332.451416015625
z: -0.016773246228694916
",,,,,,,,,,,,,,,,,,,,,
15,"x: 174.2684326171875
y: 175.89988708496094
z: -0.25882595777511597
visibility: 0.9987739324569702
","x: 176.71896362304688
y: 165.57073974609375
z: -0.2502739131450653
visibility: 0.9965919256210327
","x: 178.65965270996094
y: 164.78268432617188
z: -0.2503812313079834
visibility: 0.9965454339981079
","x: 180.4114990234375
y: 163.98239135742188
z: -0.25048595666885376
visibility: 0.9970400929450989
","x: 171.42759704589844
y: 167.77383422851562
z: -0.23343007266521454
visibility: 0.9966198801994324
","x: 169.79910278320312
y: 168.12893676757812
z: -0.23337450623512268
visibility: 0.9965022206306458
","x: 168.39453125
y: 168.28518676757812
z: -0.2333429604768753
visibility: 0.9958829283714294
","x: 184.398681640625
y: 164.3660888671875
z: -0.1600494086742401
visibility: 0.9935716390609741
","x: 169.50341796875
y: 168.40162658691406
z: -0.08025270700454712
visibility: 0.9914242625236511
","x: 178.99595642089844
y: 184.38995361328125
z: -0.22212985157966614
visibility: 0.9984343647956848
","x: 173.0046844482422
y: 186.80477905273438
z: -0.198531836271286
visibility: 0.9973793029785156
","x: 208.67108154296875
y: 200.6876220703125
z: -0.09701595455408096
visibility: 0.9998740553855896
","x: 167.84385681152344
y: 210.9874267578125
z: 0.04268406704068184
visibility: 0.9993494749069214
","x: 239.9468994140625
y: 231.88104248046875
z: -0.09930820763111115
visibility: 0.9682120084762573
","x: 167.8335723876953
y: 261.98773193359375
z: 0.1393241435289383
visibility: 0.8729997873306274
","x: 273.86126708984375
y: 238.9262237548828
z: -0.18963757157325745
visibility: 0.9411176443099976
","x: 158.6404266357422
y: 295.59515380859375
z: 0.06629421561956406
visibility: 0.9322322607040405
","x: 285.2322998046875
y: 239.7852783203125
z: -0.23335330188274384
visibility: 0.8894713521003723
","x: 154.66465759277344
y: 310.5328369140625
z: 0.05247693136334419
visibility: 0.9081260561943054
","x: 285.0686340332031
y: 238.71112060546875
z: -0.26791661977767944
visibility: 0.9021596312522888
","x: 155.28170776367188
y: 308.04705810546875
z: 0.01091192290186882
visibility: 0.9179062843322754
","x: 281.3400573730469
y: 238.7354278564453
z: -0.2090008705854416
visibility: 0.8984984159469604
","x: 157.71913146972656
y: 302.67694091796875
z: 0.04664567857980728
visibility: 0.900757372379303
","x: 206.34982299804688
y: 339.93658447265625
z: -0.06354757398366928
visibility: 0.9994192719459534
","x: 181.90049743652344
y: 341.61236572265625
z: 0.06371546536684036
visibility: 0.9991860389709473
","x: 199.80255126953125
y: 429.80657958984375
z: -0.04243418574333191
visibility: 0.9867618083953857
","x: 182.88311767578125
y: 431.3769836425781
z: 0.03874040022492409
visibility: 0.9796676635742188
","x: 206.65077209472656
y: 517.0606689453125
z: 0.08766268193721771
visibility: 0.9905239939689636
","x: 194.41616821289062
y: 516.4010009765625
z: 0.16536374390125275
visibility: 0.9847519993782043
","x: 209.61166381835938
y: 529.5283203125
z: 0.09191430360078812
visibility: 0.9080421924591064
","x: 199.90908813476562
y: 528.7977294921875
z: 0.18009941279888153
visibility: 0.8826826214790344
","x: 193.0577850341797
y: 543.2939453125
z: -0.051960330456495285
visibility: 0.9839378595352173
","x: 177.34710693359375
y: 540.74169921875
z: 0.05849267914891243
visibility: 0.9818263053894043
",,,,,,,,,,,,,,,,,,,,,,,,,,,,,,,,,,,,,,,,,,
16,"x: 173.38613891601562
y: 174.45001220703125
z: -0.2610885500907898
visibility: 0.9988933801651001
","x: 175.26513671875
y: 163.64784240722656
z: -0.2510589361190796
visibility: 0.996913731098175
","x: 177.10226440429688
y: 162.55203247070312
z: -0.25115013122558594
visibility: 0.9968768358230591
","x: 178.8609619140625
y: 161.58718872070312
z: -0.2512320876121521
visibility: 0.9973196387290955
","x: 169.9875030517578
y: 166.61489868164062
z: -0.2382965087890625
visibility: 0.996935248374939
","x: 168.40036010742188
y: 167.28326416015625
z: -0.23823921382427216
visibility: 0.9968247413635254
","x: 166.93360900878906
y: 167.72946166992188
z: -0.23822729289531708
visibility: 0.9962583780288696
","x: 183.07736206054688
y: 161.84298706054688
z: -0.15403176844120026
visibility: 0.994201123714447
","x: 167.54754638671875
y: 168.4860076904297
z: -0.09149958193302155
visibility: 0.9922452569007874
","x: 177.8992462158203
y: 182.26177978515625
z: -0.22165612876415253
visibility: 0.9985833168029785
","x: 172.2436065673828
y: 185.12774658203125
z: -0.20365548133850098
visibility: 0.9976266622543335
","x: 206.89915466308594
y: 199.47933959960938
z: -0.081821009516716
visibility: 0.9998852014541626
","x: 165.7812042236328
y: 212.00865173339844
z: 0.018335986882448196
visibility: 0.9993835687637329
","x: 237.42404174804688
y: 232.240234375
z: -0.09147101640701294
visibility: 0.9709637761116028
","x: 164.64871215820312
y: 264.2784423828125
z: 0.0772475153207779
visibility: 0.856941819190979
","x: 267.65570068359375
y: 224.23648071289062
z: -0.1921694129705429
visibility: 0.9462984204292297
","x: 159.9710693359375
y: 303.41607666015625
z: -0.01838141679763794
visibility: 0.9251536130905151
","x: 278.9118347167969
y: 221.00466918945312
z: -0.22350630164146423
visibility: 0.89876389503479
","x: 156.13861083984375
y: 318.175048828125
z: -0.04026908427476883
visibility: 0.8963168263435364
","x: 278.32232666015625
y: 216.53627014160156
z: -0.2578207850456238
visibility: 0.9104636907577515
","x: 158.2557830810547
y: 315.6728210449219
z: -0.07470416277647018
visibility: 0.9065800905227661
","x: 274.3000793457031
y: 217.8961944580078
z: -0.20964844524860382
visibility: 0.906706690788269
","x: 158.1842498779297
y: 310.3992919921875
z: -0.036440201103687286
visibility: 0.8908920288085938
","x: 205.95947265625
y: 339.6365966796875
z: -0.05343644693493843
visibility: 0.9994112253189087
","x: 180.701416015625
y: 342.0476989746094
z: 0.05356549099087715
visibility: 0.9991652369499207
","x: 201.59286499023438
y: 428.8519592285156
z: -0.030743008479475975
visibility: 0.9867401719093323
","x: 181.31227111816406
y: 430.917724609375
z: 0.03374200314283371
visibility: 0.979002058506012
","x: 207.2051544189453
y: 516.9329223632812
z: 0.10473543405532837
visibility: 0.9903457760810852
","x: 193.86492919921875
y: 516.053955078125
z: 0.17923596501350403
visibility: 0.9841841459274292
","x: 209.96737670898438
y: 529.4844360351562
z: 0.109001025557518
visibility: 0.8962341547012329
","x: 199.66690063476562
y: 528.708984375
z: 0.18910063803195953
visibility: 0.8864108324050903
","x: 194.98768615722656
y: 543.796630859375
z: -0.04131002351641655
visibility: 0.983720064163208
","x: 178.2152099609375
y: 540.767333984375
z: 0.06614018976688385
visibility: 0.9817483425140381
",,,,,,,,,,,,,,,,,,,,,,,,,,,,,,,,,,,,,,,,,,
17,"x: 172.02452087402344
y: 172.9841766357422
z: -0.29874518513679504
visibility: 0.99900221824646
","x: 174.06781005859375
y: 162.0134735107422
z: -0.2852412760257721
visibility: 0.9972114562988281
","x: 175.79759216308594
y: 160.88674926757812
z: -0.285298615694046
visibility: 0.9971829056739807
","x: 177.57437133789062
y: 159.84361267089844
z: -0.2853204905986786
visibility: 0.9975792169570923
","x: 169.0419158935547
y: 165.1162109375
z: -0.23930533230304718
visibility: 0.9972259402275085
","x: 167.36558532714844
y: 165.9010467529297
z: -0.23980712890625
visibility: 0.9971247911453247
","x: 165.8163604736328
y: 166.55404663085938
z: -0.23990598320960999
visibility: 0.9966039657592773
","x: 182.41453552246094
y: 159.8606719970703
z: -0.17902728915214539
visibility: 0.9947734475135803
","x: 166.3980255126953
y: 167.86721801757812
z: -0.1427345871925354
visibility: 0.9930043816566467
","x: 176.54818725585938
y: 180.3864288330078
z: -0.25757333636283875
visibility: 0.9987217783927917
","x: 171.09515380859375
y: 183.24530029296875
z: -0.21536162495613098
visibility: 0.9978581070899963
","x: 206.6942901611328
y: 198.58908081054688
z: -0.13267751038074493
visibility: 0.999896228313446
","x: 163.41336059570312
y: 212.48171997070312
z: -0.014640350826084614
visibility: 0.9994347095489502
","x: 238.45901489257812
y: 230.63748168945312
z: -0.27196264266967773
visibility: 0.9738025665283203
","x: 161.3365936279297
y: 270.331298828125
z: 0.09130887687206268
visibility: 0.8564066290855408
","x: 261.49102783203125
y: 191.4860382080078
z: -0.49844256043434143
visibility: 0.9515634775161743
","x: 160.47372436523438
y: 324.658935546875
z: 0.0531274676322937
visibility: 0.9257625937461853
","x: 268.8504943847656
y: 177.9127197265625
z: -0.5462846159934998
visibility: 0.9085209965705872
","x: 156.40672302246094
y: 343.411376953125
z: 0.05034042149782181
visibility: 0.8937806487083435
","x: 266.2652893066406
y: 172.4276123046875
z: -0.5593295097351074
visibility: 0.9190853238105774
","x: 160.05484008789062
y: 340.9558410644531
z: 0.012731450609862804
visibility: 0.903666615486145
","x: 263.410888671875
y: 175.66143798828125
z: -0.5100627541542053
visibility: 0.9154977798461914
","x: 159.48167419433594
y: 334.47314453125
z: 0.03812124580144882
visibility: 0.8885737657546997
","x: 205.30029296875
y: 339.14208984375
z: -0.06074729561805725
visibility: 0.9994301199913025
","x: 179.56973266601562
y: 342.2904052734375
z: 0.06085338070988655
visibility: 0.9991745948791504
","x: 199.79171752929688
y: 428.5725402832031
z: -0.02915078029036522
visibility: 0.9867193698883057
","x: 181.03468322753906
y: 430.85260009765625
z: 0.04127983748912811
visibility: 0.978040337562561
","x: 207.0856170654297
y: 516.902099609375
z: 0.10581972450017929
visibility: 0.9903563857078552
","x: 193.8402099609375
y: 515.20947265625
z: 0.20036070048809052
visibility: 0.9833706021308899
","x: 210.10848999023438
y: 529.2659301757812
z: 0.11032740771770477
visibility: 0.8912696242332458
","x: 199.78330993652344
y: 528.2631225585938
z: 0.20849736034870148
visibility: 0.8901625275611877
","x: 194.1163787841797
y: 544.2471923828125
z: -0.042643219232559204
visibility: 0.9838910698890686
","x: 179.1123504638672
y: 540.8698120117188
z: 0.08175266534090042
visibility: 0.9818083047866821
","x: 158.1553955078125
y: 326.1355895996094
z: 0.0
","x: 162.4833984375
y: 329.9423522949219
z: -0.0010910889832302928
","x: 166.064208984375
y: 336.38201904296875
z: -0.002701817313209176
","x: 169.0542449951172
y: 341.6999816894531
z: -0.00433176476508379
","x: 172.06396484375
y: 342.754638671875
z: -0.005892689805477858
","x: 162.471435546875
y: 343.5083312988281
z: -0.002938970224931836
","x: 162.78167724609375
y: 352.7161865234375
z: -0.004859359934926033
","x: 163.17318725585938
y: 358.08392333984375
z: -0.005601637531071901
","x: 163.48062133789062
y: 362.32513427734375
z: -0.006034348625689745
","x: 159.8350372314453
y: 345.28607177734375
z: -0.003948506433516741
","x: 160.03562927246094
y: 356.01287841796875
z: -0.005663731135427952
","x: 160.37899780273438
y: 362.46807861328125
z: -0.0063638826832175255
","x: 160.6885223388672
y: 367.464111328125
z: -0.0070672775618731976
","x: 157.69863891601562
y: 346.00054931640625
z: -0.004984979052096605
","x: 157.81948852539062
y: 355.682861328125
z: -0.006870472803711891
","x: 157.9225616455078
y: 361.6998291015625
z: -0.007734223268926144
","x: 158.06329345703125
y: 366.3908386230469
z: -0.008386258035898209
","x: 155.9818572998047
y: 345.57965087890625
z: -0.006138651631772518
","x: 155.52786254882812
y: 352.8991394042969
z: -0.007599169854074717
","x: 155.1110382080078
y: 357.1353759765625
z: -0.008146139793097973
","x: 154.9178466796875
y: 360.6678771972656
z: -0.008550085127353668
","x: 258.0257873535156
y: 186.73583984375
z: 0.0
","x: 255.62496948242188
y: 178.3228302001953
z: -0.0018680169014260173
","x: 254.89425659179688
y: 169.41123962402344
z: -0.004048473667353392
","x: 254.98521423339844
y: 163.4418487548828
z: -0.007149155251681805
","x: 254.51287841796875
y: 158.75784301757812
z: -0.009830367751419544
","x: 261.8759460449219
y: 161.690185546875
z: -0.0006209516432136297
","x: 263.4022521972656
y: 152.58380126953125
z: -0.004795997869223356
","x: 262.2929382324219
y: 152.08409118652344
z: -0.006741541437804699
","x: 261.1788024902344
y: 154.50473022460938
z: -0.007433464750647545
","x: 264.6331787109375
y: 165.30870056152344
z: -0.0027509161736816168
","x: 266.0804138183594
y: 156.62828063964844
z: -0.006877192296087742
","x: 264.7718811035156
y: 156.04745483398438
z: -0.008154867216944695
","x: 263.7687683105469
y: 158.19161987304688
z: -0.008226851001381874
","x: 266.9065246582031
y: 170.40765380859375
z: -0.005673676263540983
","x: 268.4215393066406
y: 163.24240112304688
z: -0.009555029682815075
","x: 267.2768249511719
y: 161.99522399902344
z: -0.009576993063092232
","x: 266.2882080078125
y: 162.7687225341797
z: -0.008813739754259586
","x: 268.717529296875
y: 176.70794677734375
z: -0.009131423197686672
","x: 270.7259826660156
y: 171.55923461914062
z: -0.011994450353085995
","x: 270.1702880859375
y: 169.28350830078125
z: -0.012101477943360806
","x: 269.5869140625
y: 168.673828125
z: -0.011482582427561283
"
18,"x: 172.02452087402344
y: 172.9841766357422
z: -0.29874518513679504
visibility: 0.99900221824646
","x: 174.06781005859375
y: 162.0134735107422
z: -0.2852412760257721
visibility: 0.9972114562988281
","x: 175.79759216308594
y: 160.88674926757812
z: -0.285298615694046
visibility: 0.9971829056739807
","x: 177.57437133789062
y: 159.84361267089844
z: -0.2853204905986786
visibility: 0.9975792169570923
","x: 169.0419158935547
y: 165.1162109375
z: -0.23930533230304718
visibility: 0.9972259402275085
","x: 167.36558532714844
y: 165.9010467529297
z: -0.23980712890625
visibility: 0.9971247911453247
","x: 165.8163604736328
y: 166.55404663085938
z: -0.23990598320960999
visibility: 0.9966039657592773
","x: 182.41453552246094
y: 159.8606719970703
z: -0.17902728915214539
visibility: 0.9947734475135803
","x: 166.3980255126953
y: 167.86721801757812
z: -0.1427345871925354
visibility: 0.9930043816566467
","x: 176.54818725585938
y: 180.3864288330078
z: -0.25757333636283875
visibility: 0.9987217783927917
","x: 171.09515380859375
y: 183.24530029296875
z: -0.21536162495613098
visibility: 0.9978581070899963
","x: 206.6942901611328
y: 198.58908081054688
z: -0.13267751038074493
visibility: 0.999896228313446
","x: 163.41336059570312
y: 212.48171997070312
z: -0.014640350826084614
visibility: 0.9994347095489502
","x: 238.45901489257812
y: 230.63748168945312
z: -0.27196264266967773
visibility: 0.9738025665283203
","x: 161.3365936279297
y: 270.331298828125
z: 0.09130887687206268
visibility: 0.8564066290855408
","x: 261.49102783203125
y: 191.4860382080078
z: -0.49844256043434143
visibility: 0.9515634775161743
","x: 160.47372436523438
y: 324.658935546875
z: 0.0531274676322937
visibility: 0.9257625937461853
","x: 268.8504943847656
y: 177.9127197265625
z: -0.5462846159934998
visibility: 0.9085209965705872
","x: 156.40672302246094
y: 343.411376953125
z: 0.05034042149782181
visibility: 0.8937806487083435
","x: 266.2652893066406
y: 172.4276123046875
z: -0.5593295097351074
visibility: 0.9190853238105774
","x: 160.05484008789062
y: 340.9558410644531
z: 0.012731450609862804
visibility: 0.903666615486145
","x: 263.410888671875
y: 175.66143798828125
z: -0.5100627541542053
visibility: 0.9154977798461914
","x: 159.48167419433594
y: 334.47314453125
z: 0.03812124580144882
visibility: 0.8885737657546997
","x: 205.30029296875
y: 339.14208984375
z: -0.06074729561805725
visibility: 0.9994301199913025
","x: 179.56973266601562
y: 342.2904052734375
z: 0.06085338070988655
visibility: 0.9991745948791504
","x: 199.79171752929688
y: 428.5725402832031
z: -0.02915078029036522
visibility: 0.9867193698883057
","x: 181.03468322753906
y: 430.85260009765625
z: 0.04127983748912811
visibility: 0.978040337562561
","x: 207.0856170654297
y: 516.902099609375
z: 0.10581972450017929
visibility: 0.9903563857078552
","x: 193.8402099609375
y: 515.20947265625
z: 0.20036070048809052
visibility: 0.9833706021308899
","x: 210.10848999023438
y: 529.2659301757812
z: 0.11032740771770477
visibility: 0.8912696242332458
","x: 199.78330993652344
y: 528.2631225585938
z: 0.20849736034870148
visibility: 0.8901625275611877
","x: 194.1163787841797
y: 544.2471923828125
z: -0.042643219232559204
visibility: 0.9838910698890686
","x: 179.1123504638672
y: 540.8698120117188
z: 0.08175266534090042
visibility: 0.9818083047866821
","x: 158.1553955078125
y: 326.1355895996094
z: 0.0
","x: 162.4833984375
y: 329.9423522949219
z: -0.0010910889832302928
","x: 166.064208984375
y: 336.38201904296875
z: -0.002701817313209176
","x: 169.0542449951172
y: 341.6999816894531
z: -0.00433176476508379
","x: 172.06396484375
y: 342.754638671875
z: -0.005892689805477858
","x: 162.471435546875
y: 343.5083312988281
z: -0.002938970224931836
","x: 162.78167724609375
y: 352.7161865234375
z: -0.004859359934926033
","x: 163.17318725585938
y: 358.08392333984375
z: -0.005601637531071901
","x: 163.48062133789062
y: 362.32513427734375
z: -0.006034348625689745
","x: 159.8350372314453
y: 345.28607177734375
z: -0.003948506433516741
","x: 160.03562927246094
y: 356.01287841796875
z: -0.005663731135427952
","x: 160.37899780273438
y: 362.46807861328125
z: -0.0063638826832175255
","x: 160.6885223388672
y: 367.464111328125
z: -0.0070672775618731976
","x: 157.69863891601562
y: 346.00054931640625
z: -0.004984979052096605
","x: 157.81948852539062
y: 355.682861328125
z: -0.006870472803711891
","x: 157.9225616455078
y: 361.6998291015625
z: -0.007734223268926144
","x: 158.06329345703125
y: 366.3908386230469
z: -0.008386258035898209
","x: 155.9818572998047
y: 345.57965087890625
z: -0.006138651631772518
","x: 155.52786254882812
y: 352.8991394042969
z: -0.007599169854074717
","x: 155.1110382080078
y: 357.1353759765625
z: -0.008146139793097973
","x: 154.9178466796875
y: 360.6678771972656
z: -0.008550085127353668
","x: 258.0257873535156
y: 186.73583984375
z: 0.0
","x: 255.62496948242188
y: 178.3228302001953
z: -0.0018680169014260173
","x: 254.89425659179688
y: 169.41123962402344
z: -0.004048473667353392
","x: 254.98521423339844
y: 163.4418487548828
z: -0.007149155251681805
","x: 254.51287841796875
y: 158.75784301757812
z: -0.009830367751419544
","x: 261.8759460449219
y: 161.690185546875
z: -0.0006209516432136297
","x: 263.4022521972656
y: 152.58380126953125
z: -0.004795997869223356
","x: 262.2929382324219
y: 152.08409118652344
z: -0.006741541437804699
","x: 261.1788024902344
y: 154.50473022460938
z: -0.007433464750647545
","x: 264.6331787109375
y: 165.30870056152344
z: -0.0027509161736816168
","x: 266.0804138183594
y: 156.62828063964844
z: -0.006877192296087742
","x: 264.7718811035156
y: 156.04745483398438
z: -0.008154867216944695
","x: 263.7687683105469
y: 158.19161987304688
z: -0.008226851001381874
","x: 266.9065246582031
y: 170.40765380859375
z: -0.005673676263540983
","x: 268.4215393066406
y: 163.24240112304688
z: -0.009555029682815075
","x: 267.2768249511719
y: 161.99522399902344
z: -0.009576993063092232
","x: 266.2882080078125
y: 162.7687225341797
z: -0.008813739754259586
","x: 268.717529296875
y: 176.70794677734375
z: -0.009131423197686672
","x: 270.7259826660156
y: 171.55923461914062
z: -0.011994450353085995
","x: 270.1702880859375
y: 169.28350830078125
z: -0.012101477943360806
","x: 269.5869140625
y: 168.673828125
z: -0.011482582427561283
"
19,"x: 172.02452087402344
y: 172.9841766357422
z: -0.29874518513679504
visibility: 0.99900221824646
","x: 174.06781005859375
y: 162.0134735107422
z: -0.2852412760257721
visibility: 0.9972114562988281
","x: 175.79759216308594
y: 160.88674926757812
z: -0.285298615694046
visibility: 0.9971829056739807
","x: 177.57437133789062
y: 159.84361267089844
z: -0.2853204905986786
visibility: 0.9975792169570923
","x: 169.0419158935547
y: 165.1162109375
z: -0.23930533230304718
visibility: 0.9972259402275085
","x: 167.36558532714844
y: 165.9010467529297
z: -0.23980712890625
visibility: 0.9971247911453247
","x: 165.8163604736328
y: 166.55404663085938
z: -0.23990598320960999
visibility: 0.9966039657592773
","x: 182.41453552246094
y: 159.8606719970703
z: -0.17902728915214539
visibility: 0.9947734475135803
","x: 166.3980255126953
y: 167.86721801757812
z: -0.1427345871925354
visibility: 0.9930043816566467
","x: 176.54818725585938
y: 180.3864288330078
z: -0.25757333636283875
visibility: 0.9987217783927917
","x: 171.09515380859375
y: 183.24530029296875
z: -0.21536162495613098
