uscmakers/ReverseChoreography/data/2_throwin_elbows_excision.csv
,NOSE,LEFT_EYE_INNER,LEFT_EYE,LEFT_EYE_OUTER,RIGHT_EYE_INNER,RIGHT_EYE,RIGHT_EYE_OUTER,LEFT_EAR,RIGHT_EAR,MOUTH_LEFT,MOUTH_RIGHT,LEFT_SHOULDER,RIGHT_SHOULDER,LEFT_ELBOW,RIGHT_ELBOW,LEFT_WRIST,RIGHT_WRIST,LEFT_PINKY,RIGHT_PINKY,LEFT_INDEX,RIGHT_INDEX,LEFT_THUMB,RIGHT_THUMB,LEFT_HIP,RIGHT_HIP,LEFT_KNEE,RIGHT_KNEE,LEFT_ANKLE,RIGHT_ANKLE,LEFT_HEEL,RIGHT_HEEL,LEFT_FOOT_INDEX,RIGHT_FOOT_INDEX,WRIST,THUMB_CPC,THUMB_MCP,THUMB_IP,THUMB_TIP,INDEX_FINGER_MCP,INDEX_FINGER_PIP,INDEX_FINGER_DIP,INDEX_FINGER_TIP,MIDDLE_FINGER_MCP,MIDDLE_FINGER_PIP,MIDDLE_FINGER_DIP,MIDDLE_FINGER_TIP,RING_FINGER_PIP,RING_FINGER_DIP,RING_FINGER_TIP,RING_FINGER_MCP,PINKY_MCP,PINKY_PIP,PINKY_DIP,PINKY_TIP,WRIST2,THUMB_CPC2,THUMB_MCP2,THUMB_IP2,THUMB_TIP2,INDEX_FINGER_MCP2,INDEX_FINGER_PIP2,INDEX_FINGER_DIP2,INDEX_FINGER_TIP2,MIDDLE_FINGER_MCP2,MIDDLE_FINGER_PIP2,MIDDLE_FINGER_DIP2,MIDDLE_FINGER_TIP2,RING_FINGER_PIP2,RING_FINGER_DIP2,RING_FINGER_TIP2,RING_FINGER_MCP2,PINKY_MCP2,PINKY_PIP2,PINKY_DIP2,PINKY_TIP2
0,"x: 243.95269775390625
y: 226.005859375
z: -0.18782034516334534
visibility: 0.9993155002593994
","x: 245.21847534179688
y: 216.8549346923828
z: -0.19205684959888458
visibility: 0.9984366297721863
","x: 246.755615234375
y: 215.50558471679688
z: -0.19207529723644257
visibility: 0.9983069896697998
","x: 248.48751831054688
y: 214.1911163330078
z: -0.19210676848888397
visibility: 0.9983538389205933
","x: 242.4095001220703
y: 219.2694854736328
z: -0.16676492989063263
visibility: 0.9975932240486145
","x: 241.77903747558594
y: 219.617431640625
z: -0.16680175065994263
visibility: 0.9972796440124512
","x: 241.0929412841797
y: 219.90396118164062
z: -0.16684980690479279
visibility: 0.9977172613143921
","x: 255.95843505859375
y: 214.49700927734375
z: -0.16539283096790314
visibility: 0.997895359992981
","x: 244.37124633789062
y: 219.67266845703125
z: -0.047820720821619034
visibility: 0.9967941641807556
","x: 249.0126190185547
y: 231.85009765625
z: -0.17496493458747864
visibility: 0.9992249011993408
","x: 245.02066040039062
y: 233.70440673828125
z: -0.14160799980163574
visibility: 0.9987267851829529
","x: 280.7621154785156
y: 259.1689758300781
z: -0.18614082038402557
visibility: 0.9998118281364441
","x: 246.34356689453125
y: 252.2167205810547
z: 0.046769630163908005
visibility: 0.9998252987861633
","x: 280.9573669433594
y: 323.9864501953125
z: -0.2742176353931427
visibility: 0.9957565665245056
","x: 221.90325927734375
y: 227.54730224609375
z: 0.030572667717933655
visibility: 0.9736401438713074
","x: 244.89984130859375
y: 321.68218994140625
z: -0.2971964478492737
visibility: 0.9822055697441101
","x: 216.16976928710938
y: 185.106201171875
z: -0.05870959162712097
visibility: 0.9646984934806824
","x: 236.9202117919922
y: 315.31329345703125
z: -0.32824137806892395
visibility: 0.9468147158622742
","x: 213.10061645507812
y: 171.08763122558594
z: -0.08636234700679779
visibility: 0.9031750559806824
","x: 235.96380615234375
y: 308.9190368652344
z: -0.3108421266078949
visibility: 0.9397821426391602
","x: 216.47076416015625
y: 169.2449188232422
z: -0.08574514091014862
visibility: 0.8900945782661438
","x: 238.0933380126953
y: 309.27288818359375
z: -0.28927290439605713
visibility: 0.8885310888290405
","x: 218.42738342285156
y: 175.03134155273438
z: -0.06575986742973328
visibility: 0.8866620659828186
","x: 287.4912109375
y: 371.439697265625
z: -0.07127883285284042
visibility: 0.9994643330574036
","x: 263.6871643066406
y: 369.1744384765625
z: 0.07117169350385666
visibility: 0.9998819828033447
","x: 304.5937194824219
y: 450.8175354003906
z: -0.05530871823430061
visibility: 0.9971201419830322
","x: 235.14024353027344
y: 427.6236267089844
z: -0.10307358205318451
visibility: 0.9988229870796204
","x: 339.2022399902344
y: 494.7271728515625
z: 0.16349472105503082
visibility: 0.9982699155807495
","x: 227.0178985595703
y: 500.23931884765625
z: 0.06510510295629501
visibility: 0.9977117776870728
","x: 345.19195556640625
y: 499.5218200683594
z: 0.1794719099998474
visibility: 0.9353721141815186
","x: 231.90261840820312
y: 510.705810546875
z: 0.07793810963630676
visibility: 0.9863677620887756
","x: 338.5768127441406
y: 526.0068359375
z: 0.05285944417119026
visibility: 0.9931663870811462
","x: 218.19277954101562
y: 524.5552978515625
z: -0.014496211893856525
visibility: 0.9953144788742065
","x: 214.8035430908203
y: 186.64599609375
z: 0.0
","x: 217.7682342529297
y: 185.22764587402344
z: -0.0038273679092526436
","x: 220.3848876953125
y: 183.2122039794922
z: -0.0069137574173510075
","x: 221.85943603515625
y: 182.40638732910156
z: -0.01035913173109293
","x: 222.80718994140625
y: 182.5698699951172
z: -0.013821310363709927
","x: 219.36639404296875
y: 168.2978057861328
z: -0.003768591908738017
","x: 220.4910125732422
y: 159.56687927246094
z: -0.007518953178077936
","x: 221.04795837402344
y: 154.4214630126953
z: -0.010493756271898746
","x: 221.398681640625
y: 150.2994384765625
z: -0.012606315314769745
","x: 216.301025390625
y: 167.51663208007812
z: -0.004902294371277094
","x: 216.238525390625
y: 158.3073272705078
z: -0.008968841284513474
","x: 216.02511596679688
y: 156.62448120117188
z: -0.011178229004144669
","x: 215.5736846923828
y: 157.09893798828125
z: -0.012226814404129982
","x: 213.38015747070312
y: 168.78680419921875
z: -0.0067049539647996426
","x: 211.96775817871094
y: 162.14218139648438
z: -0.010714058764278889
","x: 210.88336181640625
y: 161.41909790039062
z: -0.012361918576061726
","x: 209.9547576904297
y: 162.15628051757812
z: -0.01285304594784975
","x: 210.57803344726562
y: 171.92172241210938
z: -0.00913742370903492
","x: 208.03402709960938
y: 167.37852478027344
z: -0.012558343820273876
","x: 206.11618041992188
y: 165.1564178466797
z: -0.0141407810151577
","x: 204.4553985595703
y: 163.94728088378906
z: -0.014779148623347282
","x: 242.4920654296875
y: 321.076904296875
z: 0.0
","x: 238.53451538085938
y: 320.56640625
z: -2.3498281734646298e-05
","x: 235.16827392578125
y: 317.6188049316406
z: 1.650315425649751e-05
","x: 232.36441040039062
y: 315.0362548828125
z: -2.4497170670656487e-05
","x: 229.6972198486328
y: 313.94549560546875
z: 0.0002903845743276179
","x: 235.99110412597656
y: 307.22418212890625
z: 0.0019425286445766687
","x: 232.70745849609375
y: 299.85205078125
z: 0.002078625839203596
","x: 230.72377014160156
y: 296.2271423339844
z: 0.002593331504613161
","x: 229.01950073242188
y: 293.892822265625
z: 0.0031336345709860325
","x: 236.92120361328125
y: 305.05462646484375
z: 0.0014006899436935782
","x: 233.6549530029297
y: 297.23388671875
z: 0.0019041912164539099
","x: 231.2147674560547
y: 294.1623229980469
z: 0.0024293609894812107
","x: 228.95538330078125
y: 292.2186279296875
z: 0.0027451575733721256
","x: 237.38470458984375
y: 304.0825500488281
z: 0.000644432264380157
","x: 234.32406616210938
y: 297.0284729003906
z: 0.0007347046048380435
","x: 232.01351928710938
y: 293.9612731933594
z: 0.0007533636526204646
","x: 229.93775939941406
y: 291.8111877441406
z: 0.0007396689616143703
","x: 237.60861206054688
y: 304.1400451660156
z: -0.000270230375463143
","x: 235.16734313964844
y: 298.1039733886719
z: -0.00024836978991515934
","x: 233.53758239746094
y: 295.2718505859375
z: -0.00022108686971478164
","x: 232.047119140625
y: 293.48272705078125
z: -0.00013930931163486093
"
1,"x: 243.95269775390625
y: 226.005859375
z: -0.18782034516334534
visibility: 0.9993155002593994
","x: 245.21847534179688
y: 216.8549346923828
z: -0.19205684959888458
visibility: 0.9984366297721863
","x: 246.755615234375
y: 215.50558471679688
z: -0.19207529723644257
visibility: 0.9983069896697998
","x: 248.48751831054688
y: 214.1911163330078
z: -0.19210676848888397
visibility: 0.9983538389205933
","x: 242.4095001220703
y: 219.2694854736328
z: -0.16676492989063263
visibility: 0.9975932240486145
","x: 241.77903747558594
y: 219.617431640625
z: -0.16680175065994263
visibility: 0.9972796440124512
","x: 241.0929412841797
y: 219.90396118164062
z: -0.16684980690479279
visibility: 0.9977172613143921
","x: 255.95843505859375
y: 214.49700927734375
z: -0.16539283096790314
visibility: 0.997895359992981
","x: 244.37124633789062
y: 219.67266845703125
z: -0.047820720821619034
visibility: 0.9967941641807556
","x: 249.0126190185547
y: 231.85009765625
z: -0.17496493458747864
visibility: 0.9992249011993408
","x: 245.02066040039062
y: 233.70440673828125
z: -0.14160799980163574
visibility: 0.9987267851829529
","x: 280.7621154785156
y: 259.1689758300781
z: -0.18614082038402557
visibility: 0.9998118281364441
","x: 246.34356689453125
y: 252.2167205810547
z: 0.046769630163908005
visibility: 0.9998252987861633
","x: 280.9573669433594
y: 323.9864501953125
z: -0.2742176353931427
visibility: 0.9957565665245056
","x: 221.90325927734375
y: 227.54730224609375
z: 0.030572667717933655
visibility: 0.9736401438713074
","x: 244.89984130859375
y: 321.68218994140625
z: -0.2971964478492737
visibility: 0.9822055697441101
","x: 216.16976928710938
y: 185.106201171875
z: -0.05870959162712097
visibility: 0.9646984934806824
","x: 236.9202117919922
y: 315.31329345703125
z: -0.32824137806892395
visibility: 0.9468147158622742
","x: 213.10061645507812
y: 171.08763122558594
z: -0.08636234700679779
visibility: 0.9031750559806824
","x: 235.96380615234375
y: 308.9190368652344
z: -0.3108421266078949
visibility: 0.9397821426391602
","x: 216.47076416015625
y: 169.2449188232422
z: -0.08574514091014862
visibility: 0.8900945782661438
","x: 238.0933380126953
y: 309.27288818359375
z: -0.28927290439605713
visibility: 0.8885310888290405
","x: 218.42738342285156
y: 175.03134155273438
z: -0.06575986742973328
visibility: 0.8866620659828186
","x: 287.4912109375
y: 371.439697265625
z: -0.07127883285284042
visibility: 0.9994643330574036
","x: 263.6871643066406
y: 369.1744384765625
z: 0.07117169350385666
visibility: 0.9998819828033447
","x: 304.5937194824219
y: 450.8175354003906
z: -0.05530871823430061
visibility: 0.9971201419830322
","x: 235.14024353027344
y: 427.6236267089844
z: -0.10307358205318451
visibility: 0.9988229870796204
","x: 339.2022399902344
y: 494.7271728515625
z: 0.16349472105503082
visibility: 0.9982699155807495
","x: 227.0178985595703
y: 500.23931884765625
z: 0.06510510295629501
visibility: 0.9977117776870728
","x: 345.19195556640625
y: 499.5218200683594
z: 0.1794719099998474
visibility: 0.9353721141815186
","x: 231.90261840820312
y: 510.705810546875
z: 0.07793810963630676
visibility: 0.9863677620887756
","x: 338.5768127441406
y: 526.0068359375
z: 0.05285944417119026
visibility: 0.9931663870811462
","x: 218.19277954101562
y: 524.5552978515625
z: -0.014496211893856525
visibility: 0.9953144788742065
","x: 214.8035430908203
y: 186.64599609375
z: 0.0
","x: 217.7682342529297
y: 185.22764587402344
z: -0.0038273679092526436
","x: 220.3848876953125
y: 183.2122039794922
z: -0.0069137574173510075
","x: 221.85943603515625
y: 182.40638732910156
z: -0.01035913173109293
","x: 222.80718994140625
y: 182.5698699951172
z: -0.013821310363709927
","x: 219.36639404296875
y: 168.2978057861328
z: -0.003768591908738017
","x: 220.4910125732422
y: 159.56687927246094
z: -0.007518953178077936
","x: 221.04795837402344
y: 154.4214630126953
z: -0.010493756271898746
","x: 221.398681640625
y: 150.2994384765625
z: -0.012606315314769745
","x: 216.301025390625
y: 167.51663208007812
z: -0.004902294371277094
","x: 216.238525390625
y: 158.3073272705078
z: -0.008968841284513474
","x: 216.02511596679688
y: 156.62448120117188
z: -0.011178229004144669
","x: 215.5736846923828
y: 157.09893798828125
z: -0.012226814404129982
","x: 213.38015747070312
y: 168.78680419921875
z: -0.0067049539647996426
","x: 211.96775817871094
y: 162.14218139648438
z: -0.010714058764278889
","x: 210.88336181640625
y: 161.41909790039062
z: -0.012361918576061726
","x: 209.9547576904297
y: 162.15628051757812
z: -0.01285304594784975
","x: 210.57803344726562
y: 171.92172241210938
z: -0.00913742370903492
","x: 208.03402709960938
y: 167.37852478027344
z: -0.012558343820273876
","x: 206.11618041992188
y: 165.1564178466797
z: -0.0141407810151577
","x: 204.4553985595703
y: 163.94728088378906
z: -0.014779148623347282
","x: 242.4920654296875
y: 321.076904296875
z: 0.0
","x: 238.53451538085938
y: 320.56640625
z: -2.3498281734646298e-05
","x: 235.16827392578125
y: 317.6188049316406
z: 1.650315425649751e-05
","x: 232.36441040039062
y: 315.0362548828125
z: -2.4497170670656487e-05
","x: 229.6972198486328
y: 313.94549560546875
z: 0.0002903845743276179
","x: 235.99110412597656
y: 307.22418212890625
z: 0.0019425286445766687
","x: 232.70745849609375
y: 299.85205078125
z: 0.002078625839203596
","x: 230.72377014160156
y: 296.2271423339844
z: 0.002593331504613161
","x: 229.01950073242188
y: 293.892822265625
z: 0.0031336345709860325
","x: 236.92120361328125
y: 305.05462646484375
z: 0.0014006899436935782
","x: 233.6549530029297
y: 297.23388671875
z: 0.0019041912164539099
","x: 231.2147674560547
y: 294.1623229980469
z: 0.0024293609894812107
","x: 228.95538330078125
y: 292.2186279296875
z: 0.0027451575733721256
","x: 237.38470458984375
y: 304.0825500488281
z: 0.000644432264380157
","x: 234.32406616210938
y: 297.0284729003906
z: 0.0007347046048380435
","x: 232.01351928710938
y: 293.9612731933594
z: 0.0007533636526204646
","x: 229.93775939941406
y: 291.8111877441406
z: 0.0007396689616143703
","x: 237.60861206054688
y: 304.1400451660156
z: -0.000270230375463143
","x: 235.16734313964844
y: 298.1039733886719
z: -0.00024836978991515934
","x: 233.53758239746094
y: 295.2718505859375
z: -0.00022108686971478164
","x: 232.047119140625
y: 293.48272705078125
z: -0.00013930931163486093
"
2,"x: 243.95269775390625
y: 226.005859375
z: -0.18782034516334534
visibility: 0.9993155002593994
","x: 245.21847534179688
y: 216.8549346923828
z: -0.19205684959888458
visibility: 0.9984366297721863
","x: 246.755615234375
y: 215.50558471679688
z: -0.19207529723644257
visibility: 0.9983069896697998
","x: 248.48751831054688
y: 214.1911163330078
z: -0.19210676848888397
visibility: 0.9983538389205933
","x: 242.4095001220703
y: 219.2694854736328
z: -0.16676492989063263
visibility: 0.9975932240486145
","x: 241.77903747558594
y: 219.617431640625
z: -0.16680175065994263
visibility: 0.9972796440124512
","x: 241.0929412841797
y: 219.90396118164062
z: -0.16684980690479279
visibility: 0.9977172613143921
","x: 255.95843505859375
y: 214.49700927734375
z: -0.16539283096790314
visibility: 0.997895359992981
","x: 244.37124633789062
y: 219.67266845703125
z: -0.047820720821619034
visibility: 0.9967941641807556
","x: 249.0126190185547
y: 231.85009765625
z: -0.17496493458747864
visibility: 0.9992249011993408
","x: 245.02066040039062
y: 233.70440673828125
z: -0.14160799980163574
visibility: 0.9987267851829529
","x: 280.7621154785156
y: 259.1689758300781
z: -0.18614082038402557
visibility: 0.9998118281364441
","x: 246.34356689453125
y: 252.2167205810547
z: 0.046769630163908005
visibility: 0.9998252987861633
","x: 280.9573669433594
y: 323.9864501953125
z: -0.2742176353931427
visibility: 0.9957565665245056
","x: 221.90325927734375
y: 227.54730224609375
z: 0.030572667717933655
visibility: 0.9736401438713074
","x: 244.89984130859375
y: 321.68218994140625
z: -0.2971964478492737
visibility: 0.9822055697441101
","x: 216.16976928710938
y: 185.106201171875
z: -0.05870959162712097
visibility: 0.9646984934806824
","x: 236.9202117919922
y: 315.31329345703125
z: -0.32824137806892395
visibility: 0.9468147158622742
","x: 213.10061645507812
y: 171.08763122558594
z: -0.08636234700679779
visibility: 0.9031750559806824
","x: 235.96380615234375
y: 308.9190368652344
z: -0.3108421266078949
visibility: 0.9397821426391602
","x: 216.47076416015625
y: 169.2449188232422
z: -0.08574514091014862
visibility: 0.8900945782661438
","x: 238.0933380126953
y: 309.27288818359375
z: -0.28927290439605713
visibility: 0.8885310888290405
","x: 218.42738342285156
y: 175.03134155273438
z: -0.06575986742973328
visibility: 0.8866620659828186
","x: 287.4912109375
y: 371.439697265625
z: -0.07127883285284042
visibility: 0.9994643330574036
","x: 263.6871643066406
y: 369.1744384765625
z: 0.07117169350385666
visibility: 0.9998819828033447
","x: 304.5937194824219
y: 450.8175354003906
z: -0.05530871823430061
visibility: 0.9971201419830322
","x: 235.14024353027344
y: 427.6236267089844
z: -0.10307358205318451
visibility: 0.9988229870796204
","x: 339.2022399902344
y: 494.7271728515625
z: 0.16349472105503082
visibility: 0.9982699155807495
","x: 227.0178985595703
y: 500.23931884765625
z: 0.06510510295629501
visibility: 0.9977117776870728
","x: 345.19195556640625
y: 499.5218200683594
z: 0.1794719099998474
visibility: 0.9353721141815186
","x: 231.90261840820312
y: 510.705810546875
z: 0.07793810963630676
visibility: 0.9863677620887756
","x: 338.5768127441406
y: 526.0068359375
z: 0.05285944417119026
visibility: 0.9931663870811462
","x: 218.19277954101562
y: 524.5552978515625
z: -0.014496211893856525
visibility: 0.9953144788742065
","x: 214.8035430908203
y: 186.64599609375
z: 0.0
","x: 217.7682342529297
y: 185.22764587402344
z: -0.0038273679092526436
","x: 220.3848876953125
y: 183.2122039794922
z: -0.0069137574173510075
","x: 221.85943603515625
y: 182.40638732910156
z: -0.01035913173109293
","x: 222.80718994140625
y: 182.5698699951172
z: -0.013821310363709927
","x: 219.36639404296875
y: 168.2978057861328
z: -0.003768591908738017
","x: 220.4910125732422
y: 159.56687927246094
z: -0.007518953178077936
","x: 221.04795837402344
y: 154.4214630126953
z: -0.010493756271898746
","x: 221.398681640625
y: 150.2994384765625
z: -0.012606315314769745
","x: 216.301025390625
y: 167.51663208007812
z: -0.004902294371277094
","x: 216.238525390625
y: 158.3073272705078
z: -0.008968841284513474
","x: 216.02511596679688
y: 156.62448120117188
z: -0.011178229004144669
","x: 215.5736846923828
y: 157.09893798828125
z: -0.012226814404129982
","x: 213.38015747070312
y: 168.78680419921875
z: -0.0067049539647996426
","x: 211.96775817871094
y: 162.14218139648438
z: -0.010714058764278889
","x: 210.88336181640625
y: 161.41909790039062
z: -0.012361918576061726
","x: 209.9547576904297
y: 162.15628051757812
z: -0.01285304594784975
","x: 210.57803344726562
y: 171.92172241210938
z: -0.00913742370903492
","x: 208.03402709960938
y: 167.37852478027344
z: -0.012558343820273876
","x: 206.11618041992188
y: 165.1564178466797
z: -0.0141407810151577
","x: 204.4553985595703
y: 163.94728088378906
z: -0.014779148623347282
","x: 242.4920654296875
y: 321.076904296875
z: 0.0
","x: 238.53451538085938
y: 320.56640625
z: -2.3498281734646298e-05
","x: 235.16827392578125
y: 317.6188049316406
z: 1.650315425649751e-05
","x: 232.36441040039062
y: 315.0362548828125
z: -2.4497170670656487e-05
","x: 229.6972198486328
y: 313.94549560546875
z: 0.0002903845743276179
","x: 235.99110412597656
y: 307.22418212890625
z: 0.0019425286445766687
","x: 232.70745849609375
y: 299.85205078125
z: 0.002078625839203596
","x: 230.72377014160156
y: 296.2271423339844
z: 0.002593331504613161
","x: 229.01950073242188
y: 293.892822265625
z: 0.0031336345709860325
","x: 236.92120361328125
y: 305.05462646484375
z: 0.0014006899436935782
","x: 233.6549530029297
y: 297.23388671875
z: 0.0019041912164539099
","x: 231.2147674560547
y: 294.1623229980469
z: 0.0024293609894812107
","x: 228.95538330078125
y: 292.2186279296875
z: 0.0027451575733721256
","x: 237.38470458984375
y: 304.0825500488281
z: 0.000644432264380157
","x: 234.32406616210938
y: 297.0284729003906
z: 0.0007347046048380435
","x: 232.01351928710938
y: 293.9612731933594
z: 0.0007533636526204646
","x: 229.93775939941406
y: 291.8111877441406
z: 0.0007396689616143703
","x: 237.60861206054688
y: 304.1400451660156
z: -0.000270230375463143
","x: 235.16734313964844
y: 298.1039733886719
z: -0.00024836978991515934
","x: 233.53758239746094
y: 295.2718505859375
z: -0.00022108686971478164
","x: 232.047119140625
y: 293.48272705078125
z: -0.00013930931163486093
"
3,"x: 248.94796752929688
y: 252.7684783935547
z: -0.2887156009674072
visibility: 0.9993196129798889
","x: 249.42214965820312
y: 242.37820434570312
z: -0.28866368532180786
visibility: 0.9984736442565918
","x: 250.91806030273438
y: 240.61705017089844
z: -0.2886621057987213
visibility: 0.99835205078125
","x: 252.39852905273438
y: 238.8449249267578
z: -0.2887164354324341
visibility: 0.9984105825424194
","x: 246.22427368164062
y: 245.14035034179688
z: -0.27184802293777466
visibility: 0.9976333975791931
","x: 245.36512756347656
y: 245.51918029785156
z: -0.2719133198261261
visibility: 0.9972702860832214
","x: 244.5553741455078
y: 245.90945434570312
z: -0.2719186544418335
visibility: 0.9976878762245178
","x: 258.4224853515625
y: 234.13999938964844
z: -0.21815328299999237
visibility: 0.9980165362358093
","x: 246.5665283203125
y: 242.7357635498047
z: -0.13531415164470673
visibility: 0.9967615604400635
","x: 254.1533966064453
y: 256.4482421875
z: -0.2560632526874542
visibility: 0.9992538094520569
","x: 250.15240478515625
y: 259.2015686035156
z: -0.23256511986255646
visibility: 0.9987198114395142
","x: 284.7923583984375
y: 262.4454345703125
z: -0.1685534417629242
visibility: 0.9998270869255066
","x: 245.100830078125
y: 264.6075439453125
z: 0.0002454431669320911
visibility: 0.9998262524604797
","x: 312.6266784667969
y: 310.85614013671875
z: -0.2618684768676758
visibility: 0.9960810542106628
","x: 222.08143615722656
y: 273.4384765625
z: 0.06577058136463165
visibility: 0.9744939804077148
","x: 287.90576171875
y: 321.69000244140625
z: -0.41034895181655884
visibility: 0.983406126499176
","x: 198.05125427246094
y: 260.69805908203125
z: -0.036848314106464386
visibility: 0.9663183689117432
","x: 280.4454040527344
y: 323.18646240234375
z: -0.4489346146583557
visibility: 0.9498780369758606
","x: 192.17681884765625
y: 253.98062133789062
z: -0.06028936058282852
visibility: 0.9066858291625977
","x: 278.2211608886719
y: 314.35845947265625
z: -0.4407878816127777
visibility: 0.9434855580329895
","x: 192.01751708984375
y: 253.64952087402344
z: -0.0852707177400589
visibility: 0.8953421711921692
","x: 279.6760559082031
y: 313.0022277832031
z: -0.4087861180305481
visibility: 0.8956897258758545
","x: 194.00148010253906
y: 256.39495849609375
z: -0.05338621139526367
visibility: 0.8923835158348083
","x: 287.8585205078125
y: 373.4369201660156
z: -0.06904886662960052
visibility: 0.999408483505249
","x: 263.5787658691406
y: 371.9048767089844
z: 0.06906802952289581
visibility: 0.999860942363739
","x: 304.9173583984375
y: 448.4368591308594
z: -0.09793330729007721
visibility: 0.9971451163291931
","x: 234.45130920410156
y: 426.675537109375
z: -0.16292551159858704
visibility: 0.9987365007400513
","x: 337.991455078125
y: 496.0412902832031
z: 0.06918945908546448
visibility: 0.9979039430618286
","x: 227.05650329589844
y: 500.110107421875
z: -0.03039923682808876
visibility: 0.9975365996360779
","x: 342.50115966796875
y: 502.14520263671875
z: 0.0790960043668747
visibility: 0.9276948571205139
","x: 231.92520141601562
y: 510.3349304199219
z: -0.022182224318385124
visibility: 0.9863349199295044
","x: 337.61376953125
y: 525.9827270507812
z: -0.05762378126382828
visibility: 0.9915962815284729
","x: 216.03964233398438
y: 523.22412109375
z: -0.12985177338123322
visibility: 0.9949615001678467
",,,,,,,,,,,,,,,,,,,,,,"x: 288.6309814453125
y: 324.2848205566406
z: 0.0
","x: 285.6855163574219
y: 315.28570556640625
z: 0.0027914138045161963
","x: 280.7774353027344
y: 311.0879821777344
z: 0.002993313828483224
","x: 276.6470642089844
y: 310.6268005371094
z: 0.0025362924207001925
","x: 273.7763366699219
y: 311.7752990722656
z: 0.0020079598762094975
","x: 277.66650390625
y: 310.1031188964844
z: -0.0006580607150681317
","x: 271.25994873046875
y: 308.4660949707031
z: -0.0021883565932512283
","x: 267.429931640625
y: 308.10504150390625
z: -0.0024111296515911818
","x: 264.583984375
y: 308.1709289550781
z: -0.002411434194073081
","x: 277.19482421875
y: 314.8458557128906
z: -0.0034078722819685936
","x: 270.28753662109375
y: 313.6771240234375
z: -0.004287963733077049
","x: 266.1759338378906
y: 313.51605224609375
z: -0.0038473501335829496
","x: 263.1258850097656
y: 313.67010498046875
z: -0.0037836781702935696
","x: 277.4065246582031
y: 320.7490539550781
z: -0.005908770486712456
","x: 271.10638427734375
y: 320.8250427246094
z: -0.006999657955020666
","x: 267.8663024902344
y: 321.39111328125
z: -0.006626582238823175
","x: 265.7359924316406
y: 321.73248291015625
z: -0.006548859644681215
","x: 278.1972351074219
y: 327.1955871582031
z: -0.008239701390266418
","x: 273.67010498046875
y: 328.52752685546875
z: -0.009464834816753864
","x: 271.4435119628906
y: 329.0189208984375
z: -0.009266559034585953
","x: 269.87933349609375
y: 329.2417907714844
z: -0.009076908230781555
"
4,"x: 248.94796752929688
y: 252.7684783935547
z: -0.2887156009674072
visibility: 0.9993196129798889
","x: 249.42214965820312
y: 242.37820434570312
z: -0.28866368532180786
visibility: 0.9984736442565918
","x: 250.91806030273438
y: 240.61705017089844
z: -0.2886621057987213
visibility: 0.99835205078125
","x: 252.39852905273438
y: 238.8449249267578
z: -0.2887164354324341
visibility: 0.9984105825424194
","x: 246.22427368164062
y: 245.14035034179688
z: -0.27184802293777466
visibility: 0.9976333975791931
","x: 245.36512756347656
y: 245.51918029785156
z: -0.2719133198261261
visibility: 0.9972702860832214
","x: 244.5553741455078
y: 245.90945434570312
z: -0.2719186544418335
visibility: 0.9976878762245178
","x: 258.4224853515625
y: 234.13999938964844
z: -0.21815328299999237
visibility: 0.9980165362358093
","x: 246.5665283203125
y: 242.7357635498047
z: -0.13531415164470673
visibility: 0.9967615604400635
","x: 254.1533966064453
y: 256.4482421875
z: -0.2560632526874542
visibility: 0.9992538094520569
","x: 250.15240478515625
y: 259.2015686035156
z: -0.23256511986255646
visibility: 0.9987198114395142
","x: 284.7923583984375
y: 262.4454345703125
z: -0.1685534417629242
visibility: 0.9998270869255066
","x: 245.100830078125
y: 264.6075439453125
z: 0.0002454431669320911
visibility: 0.9998262524604797
","x: 312.6266784667969
y: 310.85614013671875
z: -0.2618684768676758
visibility: 0.9960810542106628
","x: 222.08143615722656
y: 273.4384765625
z: 0.06577058136463165
visibility: 0.9744939804077148
","x: 287.90576171875
y: 321.69000244140625
z: -0.41034895181655884
visibility: 0.983406126499176
","x: 198.05125427246094
y: 260.69805908203125
z: -0.036848314106464386
visibility: 0.9663183689117432
","x: 280.4454040527344
y: 323.18646240234375
z: -0.4489346146583557
visibility: 0.9498780369758606
","x: 192.17681884765625
y: 253.98062133789062
z: -0.06028936058282852
visibility: 0.9066858291625977
","x: 278.2211608886719
y: 314.35845947265625
z: -0.4407878816127777
visibility: 0.9434855580329895
","x: 192.01751708984375
y: 253.64952087402344
z: -0.0852707177400589
visibility: 0.8953421711921692
","x: 279.6760559082031
y: 313.0022277832031
z: -0.4087861180305481
visibility: 0.8956897258758545
","x: 194.00148010253906
y: 256.39495849609375
z: -0.05338621139526367
visibility: 0.8923835158348083
","x: 287.8585205078125
y: 373.4369201660156
z: -0.06904886662960052
visibility: 0.999408483505249
","x: 263.5787658691406
y: 371.9048767089844
z: 0.06906802952289581
visibility: 0.999860942363739
","x: 304.9173583984375
y: 448.4368591308594
z: -0.09793330729007721
visibility: 0.9971451163291931
","x: 234.45130920410156
y: 426.675537109375
z: -0.16292551159858704
visibility: 0.9987365007400513
","x: 337.991455078125
y: 496.0412902832031
z: 0.06918945908546448
visibility: 0.9979039430618286
","x: 227.05650329589844
y: 500.110107421875
z: -0.03039923682808876
visibility: 0.9975365996360779
","x: 342.50115966796875
y: 502.14520263671875
z: 0.0790960043668747
visibility: 0.9276948571205139
","x: 231.92520141601562
y: 510.3349304199219
z: -0.022182224318385124
visibility: 0.9863349199295044
","x: 337.61376953125
y: 525.9827270507812
z: -0.05762378126382828
visibility: 0.9915962815284729
","x: 216.03964233398438
y: 523.22412109375
z: -0.12985177338123322
visibility: 0.9949615001678467
",,,,,,,,,,,,,,,,,,,,,,"x: 288.6309814453125
y: 324.2848205566406
z: 0.0
","x: 285.6855163574219
y: 315.28570556640625
z: 0.0027914138045161963
","x: 280.7774353027344
y: 311.0879821777344
z: 0.002993313828483224
","x: 276.6470642089844
y: 310.6268005371094
z: 0.0025362924207001925
","x: 273.7763366699219
y: 311.7752990722656
z: 0.0020079598762094975
","x: 277.66650390625
y: 310.1031188964844
z: -0.0006580607150681317
","x: 271.25994873046875
y: 308.4660949707031
z: -0.0021883565932512283
","x: 267.429931640625
y: 308.10504150390625
z: -0.0024111296515911818
","x: 264.583984375
y: 308.1709289550781
z: -0.002411434194073081
","x: 277.19482421875
y: 314.8458557128906
z: -0.0034078722819685936
","x: 270.28753662109375
y: 313.6771240234375
z: -0.004287963733077049
","x: 266.1759338378906
y: 313.51605224609375
z: -0.0038473501335829496
","x: 263.1258850097656
y: 313.67010498046875
z: -0.0037836781702935696
","x: 277.4065246582031
y: 320.7490539550781
z: -0.005908770486712456
","x: 271.10638427734375
y: 320.8250427246094
z: -0.006999657955020666
","x: 267.8663024902344
y: 321.39111328125
z: -0.006626582238823175
","x: 265.7359924316406
y: 321.73248291015625
z: -0.006548859644681215
","x: 278.1972351074219
y: 327.1955871582031
z: -0.008239701390266418
","x: 273.67010498046875
y: 328.52752685546875
z: -0.009464834816753864
","x: 271.4435119628906
y: 329.0189208984375
z: -0.009266559034585953
","x: 269.87933349609375
y: 329.2417907714844
z: -0.009076908230781555
"
5,"x: 269.1410827636719
y: 256.49163818359375
z: -0.351866215467453
visibility: 0.9993653893470764
","x: 270.685546875
y: 246.92877197265625
z: -0.35268595814704895
visibility: 0.9985730051994324
","x: 272.34136962890625
y: 245.8863067626953
z: -0.35263729095458984
visibility: 0.9984608888626099
","x: 274.1531066894531
y: 244.67825317382812
z: -0.35266920924186707
visibility: 0.9985191226005554
","x: 266.47955322265625
y: 247.79359436035156
z: -0.34116074442863464
visibility: 0.9977980852127075
","x: 265.1810607910156
y: 247.57992553710938
z: -0.3412374258041382
visibility: 0.9974520206451416
","x: 263.85198974609375
y: 247.35047912597656
z: -0.3412032723426819
visibility: 0.9978394508361816
","x: 278.73272705078125
y: 241.2527313232422
z: -0.2769160270690918
visibility: 0.9981781244277954
","x: 263.4516296386719
y: 246.15505981445312
z: -0.21897205710411072
visibility: 0.9969488978385925
","x: 272.7408447265625
y: 261.3162841796875
z: -0.31694990396499634
visibility: 0.9993000626564026
","x: 268.1534423828125
y: 261.85137939453125
z: -0.3004569411277771
visibility: 0.9987882971763611
","x: 299.1048583984375
y: 263.43951416015625
z: -0.20253753662109375
visibility: 0.9998423457145691
","x: 253.7568359375
y: 269.550048828125
z: -0.08941309154033661
visibility: 0.9998281002044678
","x: 330.66766357421875
y: 277.5653381347656
z: -0.24969050288200378
visibility: 0.9964342713356018
","x: 235.9197540283203
y: 297.2818298339844
z: -0.003289585467427969
visibility: 0.9763761758804321
","x: 316.3843078613281
y: 310.9219665527344
z: -0.3583712577819824
visibility: 0.9847684502601624
","x: 203.80751037597656
y: 308.8396301269531
z: -0.08531157672405243
visibility: 0.9691914319992065
","x: 311.3378601074219
y: 322.2467346191406
z: -0.3915253281593323
visibility: 0.9534321427345276
","x: 198.6109161376953
y: 310.1769714355469
z: -0.1084582582116127
visibility: 0.914298951625824
","x: 307.581298828125
y: 313.9314880371094
z: -0.3889411985874176
visibility: 0.9476494789123535
","x: 198.5053253173828
y: 308.77392578125
z: -0.14337292313575745
visibility: 0.9043416976928711
","x: 308.66986083984375
y: 312.4239807128906
z: -0.35792484879493713
visibility: 0.9041844010353088
","x: 200.99266052246094
y: 309.1639099121094
z: -0.10372344404459
visibility: 0.9017389416694641
","x: 290.3842468261719
y: 375.8868103027344
z: -0.05020496994256973
visibility: 0.9994017481803894
","x: 264.5584716796875
y: 373.91900634765625
z: 0.05019458010792732
visibility: 0.9998362064361572
","x: 308.18829345703125
y: 446.7713623046875
z: -0.06623919308185577
visibility: 0.9971910715103149
","x: 235.11082458496094
y: 430.34014892578125
z: -0.10786017030477524
visibility: 0.9987027049064636
","x: 337.8909606933594
y: 497.99127197265625
z: 0.09464024007320404
visibility: 0.9976491332054138
","x: 227.15306091308594
y: 500.10986328125
z: 0.01396457850933075
visibility: 0.9974697828292847
","x: 342.2522888183594
y: 504.85858154296875
z: 0.10376366227865219
visibility: 0.9176821112632751
","x: 231.92047119140625
y: 510.006591796875
z: 0.024196885526180267
visibility: 0.9852368831634521
","x: 337.58795166015625
y: 525.58056640625
z: -0.020131368190050125
visibility: 0.9907193779945374
","x: 215.65576171875
y: 523.146484375
z: -0.07539571076631546
visibility: 0.9947935342788696
",,,,,,,,,,,,,,,,,,,,,,"x: 314.22607421875
y: 313.4144287109375
z: 0.0
","x: 309.609619140625
y: 310.1634521484375
z: -0.0009496097336523235
","x: 304.330078125
y: 311.5360107421875
z: -0.0020774519070982933
","x: 300.96185302734375
y: 315.7043151855469
z: -0.003227677894756198
","x: 298.4001159667969
y: 319.4510498046875
z: -0.004445391241461039
","x: 305.11993408203125
y: 312.71063232421875
z: -0.00417579710483551
","x: 300.7377014160156
y: 316.9574279785156
z: -0.006420102436095476
","x: 298.5715637207031
y: 319.388671875
z: -0.006994308438152075
","x: 297.0201721191406
y: 321.0461120605469
z: -0.0071974825114011765
","x: 307.2646179199219
y: 316.9619140625
z: -0.005056669469922781
","x: 303.4908142089844
y: 321.572265625
z: -0.007327754516154528
","x: 302.3927307128906
y: 323.1544189453125
z: -0.007145815063267946
","x: 302.0514831542969
y: 323.909912109375
z: -0.006795678753405809
","x: 309.641845703125
y: 320.94049072265625
z: -0.005860559642314911
","x: 306.9552917480469
y: 325.7705993652344
z: -0.0084692919626832
","x: 306.5062561035156
y: 327.1376037597656
z: -0.008062523789703846
","x: 306.392333984375
y: 327.5413513183594
z: -0.007473350036889315
","x: 312.07647705078125
y: 324.2794494628906
z: -0.006746858358383179
","x: 310.94097900390625
y: 327.7302551269531
z: -0.009038570336997509
","x: 311.34405517578125
y: 327.2149963378906
z: -0.008817747235298157
","x: 311.9134826660156
y: 326.11553955078125
z: -0.008199665695428848
"
6,"x: 269.1410827636719
y: 256.49163818359375
z: -0.351866215467453
visibility: 0.9993653893470764
","x: 270.685546875
y: 246.92877197265625
z: -0.35268595814704895
visibility: 0.9985730051994324
","x: 272.34136962890625
y: 245.8863067626953
z: -0.35263729095458984
visibility: 0.9984608888626099
","x: 274.1531066894531
y: 244.67825317382812
z: -0.35266920924186707
visibility: 0.9985191226005554
","x: 266.47955322265625
y: 247.79359436035156
z: -0.34116074442863464
visibility: 0.9977980852127075
","x: 265.1810607910156
y: 247.57992553710938
z: -0.3412374258041382
visibility: 0.9974520206451416
","x: 263.85198974609375
y: 247.35047912597656
z: -0.3412032723426819
visibility: 0.9978394508361816
","x: 278.73272705078125
y: 241.2527313232422
z: -0.2769160270690918
visibility: 0.9981781244277954
","x: 263.4516296386719
y: 246.15505981445312
z: -0.21897205710411072
visibility: 0.9969488978385925
","x: 272.7408447265625
y: 261.3162841796875
z: -0.31694990396499634
visibility: 0.9993000626564026
","x: 268.1534423828125
y: 261.85137939453125
z: -0.3004569411277771
visibility: 0.9987882971763611
","x: 299.1048583984375
y: 263.43951416015625
z: -0.20253753662109375
visibility: 0.9998423457145691
","x: 253.7568359375
y: 269.550048828125
z: -0.08941309154033661
visibility: 0.9998281002044678
","x: 330.66766357421875
y: 277.5653381347656
z: -0.24969050288200378
visibility: 0.9964342713356018
","x: 235.9197540283203
y: 297.2818298339844
z: -0.003289585467427969
visibility: 0.9763761758804321
","x: 316.3843078613281
y: 310.9219665527344
z: -0.3583712577819824
visibility: 0.9847684502601624
","x: 203.80751037597656
y: 308.8396301269531
z: -0.08531157672405243
visibility: 0.9691914319992065
","x: 311.3378601074219
y: 322.2467346191406
z: -0.3915253281593323
visibility: 0.9534321427345276
","x: 198.6109161376953
y: 310.1769714355469
z: -0.1084582582116127
visibility: 0.914298951625824
","x: 307.581298828125
y: 313.9314880371094
z: -0.3889411985874176
visibility: 0.9476494789123535
","x: 198.5053253173828
y: 308.77392578125
z: -0.14337292313575745
visibility: 0.9043416976928711
","x: 308.66986083984375
y: 312.4239807128906
z: -0.35792484879493713
visibility: 0.9041844010353088
","x: 200.99266052246094
y: 309.1639099121094
z: -0.10372344404459
visibility: 0.9017389416694641
","x: 290.3842468261719
y: 375.8868103027344
z: -0.05020496994256973
visibility: 0.9994017481803894
","x: 264.5584716796875
y: 373.91900634765625
z: 0.05019458010792732
visibility: 0.9998362064361572
","x: 308.18829345703125
y: 446.7713623046875
z: -0.06623919308185577
visibility: 0.9971910715103149
","x: 235.11082458496094
y: 430.34014892578125
z: -0.10786017030477524
visibility: 0.9987027049064636
","x: 337.8909606933594
y: 497.99127197265625
z: 0.09464024007320404
visibility: 0.9976491332054138
","x: 227.15306091308594
y: 500.10986328125
z: 0.01396457850933075
visibility: 0.9974697828292847
","x: 342.2522888183594
y: 504.85858154296875
z: 0.10376366227865219
visibility: 0.9176821112632751
","x: 231.92047119140625
y: 510.006591796875
z: 0.024196885526180267
visibility: 0.9852368831634521
","x: 337.58795166015625
y: 525.58056640625
z: -0.020131368190050125
visibility: 0.9907193779945374
","x: 215.65576171875
y: 523.146484375
z: -0.07539571076631546
visibility: 0.9947935342788696
",,,,,,,,,,,,,,,,,,,,,,"x: 314.22607421875
y: 313.4144287109375
z: 0.0
","x: 309.609619140625
y: 310.1634521484375
z: -0.0009496097336523235
","x: 304.330078125
y: 311.5360107421875
z: -0.0020774519070982933
","x: 300.96185302734375
y: 315.7043151855469
z: -0.003227677894756198
","x: 298.4001159667969
y: 319.4510498046875
z: -0.004445391241461039
","x: 305.11993408203125
y: 312.71063232421875
z: -0.00417579710483551
","x: 300.7377014160156
y: 316.9574279785156
z: -0.006420102436095476
","x: 298.5715637207031
y: 319.388671875
z: -0.006994308438152075
","x: 297.0201721191406
y: 321.0461120605469
z: -0.0071974825114011765
","x: 307.2646179199219
y: 316.9619140625
z: -0.005056669469922781
","x: 303.4908142089844
y: 321.572265625
z: -0.007327754516154528
","x: 302.3927307128906
y: 323.1544189453125
z: -0.007145815063267946
","x: 302.0514831542969
y: 323.909912109375
z: -0.006795678753405809
","x: 309.641845703125
y: 320.94049072265625
z: -0.005860559642314911
","x: 306.9552917480469
y: 325.7705993652344
z: -0.0084692919626832
","x: 306.5062561035156
y: 327.1376037597656
z: -0.008062523789703846
","x: 306.392333984375
y: 327.5413513183594
z: -0.007473350036889315
","x: 312.07647705078125
y: 324.2794494628906
z: -0.006746858358383179
","x: 310.94097900390625
y: 327.7302551269531
z: -0.009038570336997509
","x: 311.34405517578125
y: 327.2149963378906
z: -0.008817747235298157
","x: 311.9134826660156
y: 326.11553955078125
z: -0.008199665695428848
"
7,"x: 259.68316650390625
y: 251.2652587890625
z: -0.29685676097869873
visibility: 0.9993962049484253
","x: 261.0152893066406
y: 243.94142150878906
z: -0.3024265468120575
visibility: 0.9985920190811157
","x: 262.7757263183594
y: 242.23532104492188
z: -0.3024362623691559
visibility: 0.9985000491142273
","x: 264.9146728515625
y: 240.0238800048828
z: -0.30246320366859436
visibility: 0.9985505938529968
","x: 257.4630432128906
y: 245.02565002441406
z: -0.28365960717201233
visibility: 0.9978751540184021
","x: 256.53411865234375
y: 244.10809326171875
z: -0.28374141454696655
visibility: 0.9975632429122925
","x: 255.5912628173828
y: 243.0879364013672
z: -0.28375160694122314
visibility: 0.9979342818260193
","x: 273.27288818359375
y: 231.58607482910156
z: -0.25489455461502075
visibility: 0.9982386231422424
","x: 256.9380187988281
y: 239.12564086914062
z: -0.16239067912101746
visibility: 0.9969871044158936
","x: 264.14654541015625
y: 250.58432006835938
z: -0.2728756070137024
visibility: 0.9993245601654053
","x: 260.25531005859375
y: 252.09185791015625
z: -0.24658450484275818
visibility: 0.9988043308258057
","x: 293.0730895996094
y: 251.28294372558594
z: -0.1938435435295105
visibility: 0.9998562335968018
","x: 252.6339874267578
y: 268.83258056640625
z: -0.05965728685259819
visibility: 0.9998412728309631
","x: 313.8740539550781
y: 280.77960205078125
z: -0.1750296801328659
visibility: 0.9965396523475647
","x: 243.2004852294922
y: 312.8750915527344
z: 0.014506402425467968
visibility: 0.9736474752426147
","x: 305.613037109375
y: 318.3536682128906
z: -0.23491421341896057
visibility: 0.984691858291626
","x: 227.73422241210938
y: 360.36578369140625
z: -0.07072438299655914
visibility: 0.9706348180770874
","x: 302.83282470703125
y: 334.93048095703125
z: -0.26184970140457153
visibility: 0.9537180662155151
","x: 222.35198974609375
y: 372.8614807128906
z: -0.10131992399692535
visibility: 0.9193931221961975
","x: 299.700439453125
y: 330.17779541015625
z: -0.28566980361938477
visibility: 0.9485697746276855
","x: 221.5045928955078
y: 373.12518310546875
z: -0.12873844802379608
visibility: 0.9108066558837891
","x: 299.3433837890625
y: 325.8425598144531
z: -0.2437567412853241
visibility: 0.9074539542198181
","x: 223.9544219970703
y: 369.35693359375
z: -0.09005124866962433
visibility: 0.908008873462677
","x: 284.6954040527344
y: 373.107177734375
z: -0.0455726720392704
visibility: 0.9994136095046997
","x: 257.4281005859375
y: 371.4438171386719
z: 0.04548860341310501
visibility: 0.9998282194137573
","x: 307.08978271484375
y: 442.77447509765625
z: -0.08579372614622116
visibility: 0.9972773194313049
","x: 229.06600952148438
y: 433.09033203125
z: -0.09024962782859802
visibility: 0.9987285137176514
","x: 337.4875793457031
y: 497.6371765136719
z: 0.05764802172780037
visibility: 0.9976089596748352
","x: 227.14625549316406
y: 500.4352111816406
z: 0.06964018195867538
visibility: 0.9975008368492126
","x: 340.9768371582031
y: 504.6914367675781
z: 0.064534991979599
visibility: 0.9119667410850525
","x: 232.04530334472656
y: 510.9216613769531
z: 0.08110107481479645
visibility: 0.9847400784492493
","x: 337.704833984375
y: 523.9501342773438
z: -0.07464178651571274
visibility: 0.9906089901924133
","x: 215.0829620361328
y: 524.0316162109375
z: -0.022026505321264267
visibility: 0.9947718381881714
",,,,,,,,,,,,,,,,,,,,,,"x: 301.82666015625
y: 320.79779052734375
z: 0.0
","x: 297.5613708496094
y: 321.73193359375
z: -0.0028946097008883953
","x: 293.78973388671875
y: 325.68017578125
z: -0.004923617001622915
","x: 291.10955810546875
y: 328.8824157714844
z: -0.0071656848303973675
","x: 288.88970947265625
y: 331.60748291015625
z: -0.009289943613111973
","x: 296.4339904785156
y: 337.2863464355469
z: -0.0018450856441631913
","x: 295.33734130859375
y: 343.1412353515625
z: -0.0049789221957325935
","x: 295.29486083984375
y: 346.0650329589844
z: -0.006869666278362274
","x: 295.61029052734375
y: 348.0687255859375
z: -0.007803827524185181
","x: 299.0343933105469
y: 338.39520263671875
z: -0.0026816476602107286
","x: 298.4942626953125
y: 344.97381591796875
z: -0.005548771470785141
","x: 298.3600158691406
y: 348.4580993652344
z: -0.006779171526432037
","x: 298.5190734863281
y: 351.19915771484375
z: -0.007410568185150623
","x: 301.4244384765625
y: 338.0519104003906
z: -0.004225559066981077
","x: 301.1385498046875
y: 344.7096252441406
z: -0.007396230939775705
","x: 301.139892578125
y: 348.9429931640625
z: -0.008335234597325325
","x: 301.3302001953125
y: 352.2880859375
z: -0.008641703985631466
","x: 303.65057373046875
y: 336.4287109375
z: -0.006212263368070126
","x: 303.59783935546875
y: 342.15179443359375
z: -0.00883366260677576
","x: 303.6954345703125
y: 345.710693359375
z: -0.009622297249734402
","x: 303.8389892578125
y: 348.718505859375
z: -0.009886706247925758
"
8,"x: 259.68316650390625
y: 251.2652587890625
z: -0.29685676097869873
visibility: 0.9993962049484253
","x: 261.0152893066406
y: 243.94142150878906
z: -0.3024265468120575
visibility: 0.9985920190811157
","x: 262.7757263183594
y: 242.23532104492188
z: -0.3024362623691559
visibility: 0.9985000491142273
","x: 264.9146728515625
y: 240.0238800048828
z: -0.30246320366859436
visibility: 0.9985505938529968
","x: 257.4630432128906
y: 245.02565002441406
z: -0.28365960717201233
visibility: 0.9978751540184021
","x: 256.53411865234375
y: 244.10809326171875
z: -0.28374141454696655
visibility: 0.9975632429122925
","x: 255.5912628173828
y: 243.0879364013672
z: -0.28375160694122314
visibility: 0.9979342818260193
","x: 273.27288818359375
y: 231.58607482910156
z: -0.25489455461502075
visibility: 0.9982386231422424
","x: 256.9380187988281
y: 239.12564086914062
z: -0.16239067912101746
visibility: 0.9969871044158936
","x: 264.14654541015625
y: 250.58432006835938
z: -0.2728756070137024
visibility: 0.9993245601654053
","x: 260.25531005859375
y: 252.09185791015625
z: -0.24658450484275818
visibility: 0.9988043308258057
","x: 293.0730895996094
y: 251.28294372558594
z: -0.1938435435295105
visibility: 0.9998562335968018
","x: 252.6339874267578
y: 268.83258056640625
z: -0.05965728685259819
visibility: 0.9998412728309631
","x: 313.8740539550781
y: 280.77960205078125
z: -0.1750296801328659
visibility: 0.9965396523475647
","x: 243.2004852294922
y: 312.8750915527344
z: 0.014506402425467968
visibility: 0.9736474752426147
","x: 305.613037109375
y: 318.3536682128906
z: -0.23491421341896057
visibility: 0.984691858291626
","x: 227.73422241210938
y: 360.36578369140625
z: -0.07072438299655914
visibility: 0.9706348180770874
","x: 302.83282470703125
y: 334.93048095703125
z: -0.26184970140457153
visibility: 0.9537180662155151
","x: 222.35198974609375
y: 372.8614807128906
z: -0.10131992399692535
visibility: 0.9193931221961975
","x: 299.700439453125
y: 330.17779541015625
z: -0.28566980361938477
visibility: 0.9485697746276855
","x: 221.5045928955078
y: 373.12518310546875
z: -0.12873844802379608
visibility: 0.9108066558837891
","x: 299.3433837890625
y: 325.8425598144531
z: -0.2437567412853241
visibility: 0.9074539542198181
","x: 223.9544219970703
y: 369.35693359375
z: -0.09005124866962433
visibility: 0.908008873462677
","x: 284.6954040527344
y: 373.107177734375
z: -0.0455726720392704
visibility: 0.9994136095046997
","x: 257.4281005859375
y: 371.4438171386719
z: 0.04548860341310501
visibility: 0.9998282194137573
","x: 307.08978271484375
y: 442.77447509765625
z: -0.08579372614622116
visibility: 0.9972773194313049
","x: 229.06600952148438
y: 433.09033203125
z: -0.09024962782859802
visibility: 0.9987285137176514
","x: 337.4875793457031
y: 497.6371765136719
z: 0.05764802172780037
visibility: 0.9976089596748352
","x: 227.14625549316406
y: 500.4352111816406
z: 0.06964018195867538
visibility: 0.9975008368492126
","x: 340.9768371582031
y: 504.6914367675781
z: 0.064534991979599
visibility: 0.9119667410850525
","x: 232.04530334472656
y: 510.9216613769531
z: 0.08110107481479645
visibility: 0.9847400784492493
","x: 337.704833984375
y: 523.9501342773438
z: -0.07464178651571274
visibility: 0.9906089901924133
","x: 215.0829620361328
y: 524.0316162109375
z: -0.022026505321264267
visibility: 0.9947718381881714
",,,,,,,,,,,,,,,,,,,,,,"x: 301.82666015625
y: 320.79779052734375
z: 0.0
","x: 297.5613708496094
y: 321.73193359375
z: -0.0028946097008883953
","x: 293.78973388671875
y: 325.68017578125
z: -0.004923617001622915
","x: 291.10955810546875
y: 328.8824157714844
z: -0.0071656848303973675
","x: 288.88970947265625
y: 331.60748291015625
z: -0.009289943613111973
","x: 296.4339904785156
y: 337.2863464355469
z: -0.0018450856441631913
","x: 295.33734130859375
y: 343.1412353515625
z: -0.0049789221957325935
","x: 295.29486083984375
y: 346.0650329589844
z: -0.006869666278362274
","x: 295.61029052734375
y: 348.0687255859375
z: -0.007803827524185181
","x: 299.0343933105469
y: 338.39520263671875
z: -0.0026816476602107286
","x: 298.4942626953125
y: 344.97381591796875
z: -0.005548771470785141
","x: 298.3600158691406
y: 348.4580993652344
z: -0.006779171526432037
","x: 298.5190734863281
y: 351.19915771484375
z: -0.007410568185150623
","x: 301.4244384765625
y: 338.0519104003906
z: -0.004225559066981077
","x: 301.1385498046875
y: 344.7096252441406
z: -0.007396230939775705
","x: 301.139892578125
y: 348.9429931640625
z: -0.008335234597325325
","x: 301.3302001953125
y: 352.2880859375
z: -0.008641703985631466
","x: 303.65057373046875
y: 336.4287109375
z: -0.006212263368070126
","x: 303.59783935546875
y: 342.15179443359375
z: -0.00883366260677576
","x: 303.6954345703125
y: 345.710693359375
z: -0.009622297249734402
","x: 303.8389892578125
y: 348.718505859375
z: -0.009886706247925758
"
9,"x: 246.4780731201172
y: 190.2082977294922
z: -0.2658306062221527
visibility: 0.9994335174560547
","x: 247.30104064941406
y: 183.4864501953125
z: -0.26534852385520935
visibility: 0.9986493587493896
","x: 248.54173278808594
y: 182.79039001464844
z: -0.2653746008872986
visibility: 0.9985829591751099
","x: 249.79421997070312
y: 182.03973388671875
z: -0.26553064584732056
visibility: 0.9986223578453064
","x: 244.49838256835938
y: 185.5308380126953
z: -0.2567600607872009
visibility: 0.9979985952377319
","x: 243.85943603515625
y: 186.17031860351562
z: -0.25669291615486145
visibility: 0.9977310299873352
","x: 243.30995178222656
y: 186.7154541015625
z: -0.2564395070075989
visibility: 0.998054027557373
","x: 253.38014221191406
y: 183.1305694580078
z: -0.2163025587797165
visibility: 0.9983802437782288
","x: 245.279052734375
y: 190.989501953125
z: -0.1452031433582306
visibility: 0.9971758127212524
","x: 251.9542694091797
y: 195.21485900878906
z: -0.2441670149564743
visibility: 0.9993762969970703
","x: 247.99513244628906
y: 198.59304809570312
z: -0.22971150279045105
visibility: 0.998859703540802
","x: 279.94244384765625
y: 219.38169860839844
z: -0.12767809629440308
visibility: 0.9998672008514404
","x: 238.5282440185547
y: 234.26296997070312
z: -0.027596190571784973
visibility: 0.9998429417610168
","x: 306.5172424316406
y: 225.1132354736328
z: -0.012351920828223228
visibility: 0.9964920878410339
","x: 238.09584045410156
y: 286.554931640625
z: 0.10884086787700653
visibility: 0.9619349837303162
","x: 300.00982666015625
y: 273.2296142578125
z: 0.08395610749721527
visibility: 0.9812787175178528
","x: 230.64605712890625
y: 326.8133850097656
z: 0.09916581213474274
visibility: 0.9649247527122498
","x: 297.8464050292969
y: 289.1734619140625
z: 0.09016809612512589
visibility: 0.9446044564247131
","x: 227.7211456298828
y: 341.2373046875
z: 0.08957911282777786
visibility: 0.9139265418052673
","x: 294.32379150390625
y: 288.4749450683594
z: 0.06700946390628815
visibility: 0.9404151439666748
","x: 227.71961975097656
y: 341.0023193359375
z: 0.049288682639598846
visibility: 0.9076727032661438
","x: 293.70892333984375
y: 283.6828308105469
z: 0.07954631000757217
visibility: 0.90088951587677
","x: 229.39846801757812
y: 336.305419921875
z: 0.0817725881934166
visibility: 0.9033632874488831
","x: 271.72711181640625
y: 354.14373779296875
z: -0.03823859244585037
visibility: 0.9994627833366394
","x: 244.96267700195312
y: 352.6794128417969
z: 0.03813980892300606
visibility: 0.9998342394828796
","x: 294.4953308105469
y: 431.5113830566406
z: -0.07874824851751328
visibility: 0.9974303245544434
","x: 223.96238708496094
y: 432.5186767578125
z: 0.011136961169540882
visibility: 0.9987404346466064
","x: 318.67523193359375
y: 495.1947021484375
z: 0.06238111853599548
visibility: 0.9976980090141296
","x: 227.1314697265625
y: 500.4769592285156
z: 0.20477433502674103
visibility: 0.9976068735122681
","x: 318.2547607421875
y: 504.4203186035156
z: 0.06744818389415741
visibility: 0.9151158928871155
","x: 232.21148681640625
y: 511.3658447265625
z: 0.21797862648963928
visibility: 0.9842661023139954
","x: 326.6324157714844
y: 521.657958984375
z: -0.04829481989145279
visibility: 0.9910931587219238
","x: 214.70130920410156
y: 524.2979736328125
z: 0.11348329484462738
visibility: 0.9949895143508911
",,,,,,,,,,,,,,,,,,,,,,,,,,,,,,,,,,,,,,,,,,
10,"x: 235.94485473632812
y: 181.61639404296875
z: -0.30307304859161377
visibility: 0.999488353729248
","x: 237.4396514892578
y: 171.93045043945312
z: -0.30009645223617554
visibility: 0.998778223991394
","x: 238.92279052734375
y: 170.9809112548828
z: -0.30007538199424744
visibility: 0.9987192153930664
","x: 240.4246368408203
y: 170.12884521484375
z: -0.3001749515533447
visibility: 0.9987544417381287
","x: 233.53561401367188
y: 174.94729614257812
z: -0.2884109914302826
visibility: 0.9981923699378967
","x: 232.35995483398438
y: 175.96652221679688
z: -0.2884342074394226
visibility: 0.9979521632194519
","x: 231.28834533691406
y: 176.91749572753906
z: -0.2883129119873047
visibility: 0.9982414245605469
","x: 244.58822631835938
y: 171.1363525390625
z: -0.22751083970069885
visibility: 0.9985377788543701
","x: 232.46334838867188
y: 179.62994384765625
z: -0.16582469642162323
visibility: 0.9974485039710999
","x: 241.12969970703125
y: 187.97555541992188
z: -0.2719406187534332
visibility: 0.9994368553161621
","x: 236.2631378173828
y: 191.35614013671875
z: -0.2550017237663269
visibility: 0.9989675879478455
","x: 271.1970520019531
y: 209.49856567382812
z: -0.12540633976459503
visibility: 0.9998787641525269
","x: 228.19496154785156
y: 220.99365234375
z: -0.06670971214771271
visibility: 0.9998528957366943
","x: 301.8001708984375
y: 222.02093505859375
z: 0.02415452152490616
visibility: 0.9963117837905884
","x: 232.4646759033203
y: 277.70269775390625
z: 0.09643381834030151
visibility: 0.9594775438308716
","x: 297.0158996582031
y: 257.6797790527344
z: 0.13495858013629913
visibility: 0.9783350825309753
","x: 230.378173828125
y: 316.4538879394531
z: 0.13158497214317322
visibility: 0.9599614143371582
","x: 295.55859375
y: 269.7843017578125
z: 0.146072119474411
visibility: 0.9350133538246155
","x: 225.2396697998047
y: 328.0294494628906
z: 0.13323494791984558
visibility: 0.907864511013031
","x: 291.7169494628906
y: 268.81201171875
z: 0.12028320878744125
visibility: 0.9326843023300171
","x: 221.39588928222656
y: 328.91064453125
z: 0.09464015066623688
visibility: 0.9036382436752319
","x: 290.82513427734375
y: 265.17095947265625
z: 0.12973922491073608
visibility: 0.8950794339179993
","x: 223.719482421875
y: 325.5545349121094
z: 0.11730915307998657
visibility: 0.8979437947273254
","x: 267.0641784667969
y: 342.2110290527344
z: -0.015671392902731895
visibility: 0.9995090961456299
","x: 239.8037567138672
y: 341.8252868652344
z: 0.015541707165539265
visibility: 0.9998363256454468
","x: 285.6331787109375
y: 424.7405700683594
z: -0.05472899600863457
visibility: 0.9975467920303345
","x: 221.42770385742188
y: 430.4363708496094
z: 0.02367478795349598
visibility: 0.9986829161643982
","x: 302.6478271484375
y: 498.21954345703125
z: 0.1169910877943039
visibility: 0.9977700114250183
","x: 213.1597137451172
y: 500.39471435546875
z: 0.21001867949962616
visibility: 0.9976011514663696
","x: 299.75897216796875
y: 508.6842346191406
z: 0.12715297937393188
visibility: 0.9195846915245056
","x: 214.8141632080078
y: 510.6033020019531
z: 0.22274629771709442
visibility: 0.9795507192611694
","x: 312.9204406738281
y: 521.8485107421875
z: 0.004166112747043371
visibility: 0.9915468692779541
","x: 208.53884887695312
y: 524.6195678710938
z: 0.1087607890367508
visibility: 0.9949449896812439
",,,,,,,,,,,,,,,,,,,,,,,,,,,,,,,,,,,,,,,,,,
11,"x: 231.9174041748047
y: 195.41290283203125
z: -0.30217453837394714
visibility: 0.9995378851890564
","x: 232.9723663330078
y: 185.4423828125
z: -0.294643759727478
visibility: 0.9988937973976135
","x: 234.45423889160156
y: 184.0590057373047
z: -0.29468289017677307
visibility: 0.9988418221473694
","x: 235.94613647460938
y: 182.74850463867188
z: -0.29472795128822327
visibility: 0.9988733530044556
","x: 229.13323974609375
y: 188.52293395996094
z: -0.284819096326828
visibility: 0.9983639121055603
","x: 227.9864044189453
y: 189.19175720214844
z: -0.28483837842941284
visibility: 0.9981471300125122
","x: 226.91189575195312
y: 189.7589111328125
z: -0.2847898602485657
visibility: 0.9984049201011658
","x: 240.18911743164062
y: 182.34228515625
z: -0.21388013660907745
visibility: 0.9986772537231445
","x: 228.2244415283203
y: 189.8468780517578
z: -0.1526593714952469
visibility: 0.9976791143417358
","x: 236.32034301757812
y: 200.7363739013672
z: -0.2649691700935364
visibility: 0.9994916915893555
","x: 231.7902069091797
y: 203.749267578125
z: -0.25035110116004944
visibility: 0.9990663528442383
","x: 267.9333801269531
y: 220.52999877929688
z: -0.1190122589468956
visibility: 0.9998903274536133
","x: 223.4596710205078
y: 230.7464599609375
z: -0.0569627471268177
visibility: 0.9998649954795837
","x: 291.091064453125
y: 254.91668701171875
z: -0.11247267574071884
visibility: 0.9963078498840332
","x: 226.39935302734375
y: 289.329345703125
z: 0.027098560705780983
visibility: 0.9600139260292053
","x: 290.1884765625
y: 259.15203857421875
z: -0.2909872233867645
visibility: 0.9790521264076233
","x: 212.68972778320312
y: 326.70269775390625
z: -0.07884841412305832
visibility: 0.9615145921707153
","x: 289.5211181640625
y: 289.32659912109375
z: -0.33544647693634033
visibility: 0.9376718401908875
","x: 206.3159942626953
y: 337.5579833984375
z: -0.11291225254535675
visibility: 0.9124951362609863
","x: 286.52325439453125
y: 285.54595947265625
z: -0.36470159888267517
visibility: 0.9359779953956604
","x: 204.4228057861328
y: 336.33154296875
z: -0.15468379855155945
visibility: 0.909119725227356
","x: 285.6067810058594
y: 279.9686279296875
z: -0.30640658736228943
visibility: 0.9009800553321838
","x: 206.82452392578125
y: 333.4917907714844
z: -0.0993349701166153
visibility: 0.9031314849853516
","x: 263.9544982910156
y: 347.4103088378906
z: -0.013480325229465961
visibility: 0.9995484352111816
","x: 236.3444366455078
y: 348.56146240234375
z: 0.013382474891841412
visibility: 0.9998408555984497
","x: 283.9690246582031
y: 426.3026123046875
z: -0.022564390674233437
visibility: 0.9976059794425964
","x: 216.9262237548828
y: 430.8975830078125
z: -0.008428807370364666
visibility: 0.998746931552887
","x: 303.41070556640625
y: 499.7336120605469
z: 0.20305326581001282
visibility: 0.9977712035179138
","x: 209.51133728027344
y: 500.92706298828125
z: 0.20060722529888153
visibility: 0.9977002143859863
","x: 301.5220947265625
y: 511.23760986328125
z: 0.21851320564746857
visibility: 0.9219962358474731
","x: 212.00701904296875
y: 510.6265563964844
z: 0.21533484756946564
visibility: 0.977239727973938
","x: 313.29571533203125
y: 522.0188598632812
z: 0.08220726251602173
visibility: 0.9917558431625366
","x: 204.69088745117188
y: 524.6041259765625
z: 0.09046053886413574
visibility: 0.9950463771820068
",,,,,,,,,,,,,,,,,,,,,,,,,,,,,,,,,,,,,,,,,,
12,"x: 232.18711853027344
y: 201.095458984375
z: -0.29762130975723267
visibility: 0.9995827674865723
","x: 232.92123413085938
y: 191.3112030029297
z: -0.2888255715370178
visibility: 0.9989993572235107
","x: 234.39500427246094
y: 189.85658264160156
z: -0.28887587785720825
visibility: 0.9989535212516785
","x: 235.9137725830078
y: 188.42892456054688
z: -0.28890615701675415
visibility: 0.9989817142486572
","x: 229.02801513671875
y: 194.4708251953125
z: -0.2795727252960205
visibility: 0.9985199570655823
","x: 227.90127563476562
y: 195.12445068359375
z: -0.279602587223053
visibility: 0.9983243346214294
","x: 226.7779541015625
y: 195.70619201660156
z: -0.2795717716217041
visibility: 0.9985542893409729
","x: 240.04617309570312
y: 187.8017578125
z: -0.19943131506443024
visibility: 0.9988048672676086
","x: 227.36878967285156
y: 196.131591796875
z: -0.14697882533073425
visibility: 0.9978922009468079
","x: 236.78329467773438
y: 206.276123046875
z: -0.25984838604927063
visibility: 0.9995412826538086
","x: 232.16954040527344
y: 209.2947998046875
z: -0.24594995379447937
visibility: 0.9991557598114014
","x: 266.8486328125
y: 226.13522338867188
z: -0.12058712542057037
visibility: 0.9999009370803833
","x: 222.24261474609375
y: 231.21356201171875
z: -0.05008010193705559
visibility: 0.9998753070831299
","x: 285.8863525390625
y: 264.07818603515625
z: -0.137679323554039
visibility: 0.9962851405143738
","x: 221.1551513671875
y: 299.0595397949219
z: 0.007471274584531784
visibility: 0.9612219929695129
","x: 288.27874755859375
y: 285.27117919921875
z: -0.3359268605709076
visibility: 0.9803547263145447
","x: 203.8738250732422
y: 332.1346435546875
z: -0.11820824444293976
visibility: 0.9637274146080017
","x: 288.4470520019531
y: 307.7932434082031
z: -0.3818272054195404
visibility: 0.9419421553611755
","x: 197.02545166015625
y: 342.1230773925781
z: -0.15450897812843323
visibility: 0.9179882407188416
","x: 285.7994689941406
y: 304.79803466796875
z: -0.4109830856323242
visibility: 0.940642774105072
","x: 196.0947723388672
y: 339.8201904296875
z: -0.1946655809879303
visibility: 0.9153001308441162
","x: 284.43048095703125
y: 300.128662109375
z: -0.3513561189174652
visibility: 0.9084492921829224
","x: 198.49815368652344
y: 337.40179443359375
z: -0.13899517059326172
visibility: 0.9094338417053223
","x: 264.4309997558594
y: 350.7640380859375
z: -0.01774652488529682
visibility: 0.9995834231376648
","x: 236.73977661132812
y: 351.86212158203125
z: 0.017676377668976784
visibility: 0.9998450875282288
","x: 283.1322937011719
y: 428.44873046875
z: -0.03506726771593094
visibility: 0.9976368546485901
","x: 215.10009765625
y: 431.6356201171875
z: -0.02860589325428009
visibility: 0.9987837076187134
","x: 303.6005859375
y: 499.8257751464844
z: 0.18558081984519958
visibility: 0.9976838827133179
","x: 209.30181884765625
y: 500.9476318359375
z: 0.17602162063121796
visibility: 0.9977161288261414
","x: 302.02099609375
y: 510.7101745605469
z: 0.20032548904418945
visibility: 0.9209035038948059
","x: 212.02667236328125
y: 510.5181884765625
z: 0.1904071718454361
visibility: 0.9744382500648499
","x: 312.4550476074219
y: 522.1399536132812
z: 0.06163597106933594
visibility: 0.9917243123054504
","x: 202.31289672851562
y: 524.618896484375
z: 0.06694696843624115
visibility: 0.9949803948402405
",,,,,,,,,,,,,,,,,,,,,,,,,,,,,,,,,,,,,,,,,,
13,"x: 233.4716796875
y: 203.01446533203125
z: -0.2891625761985779
visibility: 0.9996224641799927
","x: 235.1334228515625
y: 193.95687866210938
z: -0.280164510011673
visibility: 0.9990912079811096
","x: 236.7613983154297
y: 192.91348266601562
z: -0.280196875333786
visibility: 0.9990510940551758
","x: 238.43882751464844
y: 191.85336303710938
z: -0.28023505210876465
visibility: 0.9990755915641785
","x: 230.945068359375
y: 196.3832244873047
z: -0.26943808794021606
visibility: 0.9986584782600403
","x: 229.5674285888672
y: 197.0041046142578
z: -0.2694830894470215
visibility: 0.9984825849533081
","x: 228.19534301757812
y: 197.6185302734375
z: -0.2694646418094635
visibility: 0.9986878037452698
","x: 243.28533935546875
y: 191.60797119140625
z: -0.1823846697807312
visibility: 0.9989137649536133
","x: 228.4217071533203
y: 199.17117309570312
z: -0.140890434384346
visibility: 0.9980819225311279
","x: 237.81588745117188
y: 209.0523681640625
z: -0.253837913274765
visibility: 0.9995844960212708
","x: 232.82040405273438
y: 211.7849884033203
z: -0.24054387211799622
visibility: 0.9992343783378601
","x: 267.49896240234375
y: 231.82647705078125
z: -0.1231093630194664
visibility: 0.999908983707428
","x: 220.92575073242188
y: 250.86019897460938
z: -0.056294996291399
visibility: 0.9998834133148193
","x: 284.6573791503906
y: 278.5534973144531
z: -0.17113396525382996
visibility: 0.9957330822944641
","x: 217.02980041503906
y: 311.208251953125
z: -0.03920869156718254
visibility: 0.9626390337944031
","x: 290.95843505859375
y: 311.48895263671875
z: -0.3695369362831116
visibility: 0.9797969460487366
","x: 198.20872497558594
y: 338.3218078613281
z: -0.18122917413711548
visibility: 0.9657739996910095
","x: 292.4379577636719
y: 325.5736083984375
z: -0.4137224555015564
visibility: 0.9428091049194336
","x: 192.0106201171875
y: 343.9370422363281
z: -0.2202434092760086
visibility: 0.9229243397712708
","x: 290.2392883300781
y: 323.7214660644531
z: -0.43972596526145935
visibility: 0.942145586013794
","x: 191.16835021972656
y: 341.1537170410156
z: -0.2542131245136261
visibility: 0.920864999294281
","x: 288.9181823730469
y: 320.00115966796875
z: -0.38467496633529663
visibility: 0.9121957421302795
","x: 193.37326049804688
y: 339.63525390625
z: -0.20048828423023224
visibility: 0.9151980876922607
","x: 266.5842590332031
y: 354.35784912109375
z: -0.017988171428442
visibility: 0.9996135830879211
","x: 238.3284454345703
y: 360.3131408691406
z: 0.017920564860105515
visibility: 0.999851405620575
","x: 286.2349853515625
y: 430.35076904296875
z: -0.04077740013599396
visibility: 0.997690737247467
","x: 215.05642700195312
y: 435.2712707519531
z: -0.03784969821572304
visibility: 0.9988211393356323
","x: 303.54949951171875
y: 499.87347412109375
z: 0.19582439959049225
visibility: 0.9976151585578918
","x: 208.77053833007812
y: 500.94482421875
z: 0.16527466475963593
visibility: 0.9977770447731018
","x: 301.9928283691406
y: 510.3870849609375
z: 0.21246469020843506
visibility: 0.919478178024292
","x: 212.0812225341797
y: 510.49267578125
z: 0.18013691902160645
visibility: 0.9733905792236328
","x: 312.08587646484375
y: 522.571044921875
z: 0.08031154423952103
visibility: 0.9917162656784058
","x: 196.87091064453125
y: 524.6619262695312
z: 0.062184035778045654
visibility: 0.9950416088104248
",,,,,,,,,,,,,,,,,,,,,,,,,,,,,,,,,,,,,,,,,,
14,"x: 233.54388427734375
y: 202.3468780517578
z: -0.23184916377067566
visibility: 0.9996586441993713
","x: 237.27731323242188
y: 194.52191162109375
z: -0.21237125992774963
visibility: 0.9991764426231384
","x: 239.2693328857422
y: 194.00633239746094
z: -0.212437704205513
visibility: 0.9991406798362732
","x: 240.9940948486328
y: 193.37008666992188
z: -0.21243302524089813
visibility: 0.9991621971130371
","x: 231.03530883789062
y: 195.73626708984375
z: -0.20992057025432587
visibility: 0.9987857937812805
","x: 230.2593231201172
y: 196.18756103515625
z: -0.20995084941387177
visibility: 0.9986271262168884
","x: 229.63726806640625
y: 196.68353271484375
z: -0.20993351936340332
visibility: 0.9988110065460205
","x: 244.62953186035156
y: 191.7515869140625
z: -0.1126653403043747
visibility: 0.999012291431427
","x: 231.24929809570312
y: 200.51144409179688
z: -0.09801805019378662
visibility: 0.9982562065124512
","x: 239.36105346679688
y: 209.13922119140625
z: -0.19611775875091553
visibility: 0.999622642993927
","x: 235.174072265625
y: 210.65081787109375
z: -0.19220302999019623
visibility: 0.9993054866790771
","x: 267.6003112792969
y: 241.10989379882812
z: -0.07580510526895523
visibility: 0.9999150633811951
","x: 221.7162628173828
y: 258.6471252441406
z: -0.04046884551644325
visibility: 0.9998882412910461
","x: 281.87054443359375
y: 293.7913818359375
z: -0.11654964834451675
visibility: 0.9943140745162964
","x: 217.76031494140625
y: 318.6062927246094
z: -0.007356611080467701
visibility: 0.964268147945404
","x: 290.5974426269531
y: 316.5612487792969
z: -0.2977968156337738
visibility: 0.9793972373008728
","x: 197.61534118652344
y: 342.1910400390625
z: -0.12173118442296982
visibility: 0.9682314395904541
","x: 295.92755126953125
y: 326.7615051269531
z: -0.33662065863609314
visibility: 0.944283664226532
","x: 190.85336303710938
y: 345.8011169433594
z: -0.1559101790189743
visibility: 0.9286434650421143
","x: 295.0530090332031
y: 324.99822998046875
z: -0.3628396689891815
visibility: 0.9441391825675964
","x: 189.34011840820312
y: 342.11895751953125
z: -0.1898811161518097
visibility: 0.927061915397644
","x: 292.7061767578125
y: 322.0216064453125
z: -0.3122030794620514
visibility: 0.9167712330818176
","x: 191.53668212890625
y: 341.2143249511719
z: -0.1405903697013855
visibility: 0.9217562675476074
","x: 267.0701599121094
y: 358.3251647949219
z: -0.012481647543609142
visibility: 0.9996421933174133
","x: 238.70506286621094
y: 364.20477294921875
z: 0.012449255213141441
visibility: 0.9998552203178406
","x: 289.8569030761719
y: 431.4373779296875
z: -0.08568362146615982
visibility: 0.9977486729621887
","x: 214.90074157714844
y: 437.39642333984375
z: -0.056626029312610626
visibility: 0.9988239407539368
","x: 304.9411926269531
y: 499.9424743652344
z: 0.15121276676654816
visibility: 0.9975125193595886
","x: 208.10836791992188
y: 501.1553649902344
z: 0.1597905308008194
visibility: 0.9977927207946777
","x: 301.833740234375
y: 511.94903564453125
z: 0.16810208559036255
visibility: 0.919644832611084
","x: 211.86871337890625
y: 510.72369384765625
z: 0.1752718836069107
visibility: 0.9719170331954956
","x: 315.6224670410156
y: 522.7412109375
z: 0.05411117151379585
visibility: 0.9916573166847229
","x: 196.07583618164062
y: 524.8656616210938
z: 0.06565244495868683
visibility: 0.9949895739555359
",,,,,,,,,,,,,,,,,,,,,,"x: 294.85955810546875
y: 322.620361328125
z: 0.0
","x: 297.86981201171875
y: 321.25726318359375
z: -0.0023849564604461193
","x: 300.12738037109375
y: 321.33050537109375
z: -0.004802838899195194
","x: 300.4769592285156
y: 322.7964782714844
z: -0.007559357210993767
","x: 299.7388610839844
y: 324.58013916015625
z: -0.00980302132666111
","x: 301.3782043457031
y: 329.8343200683594
z: -0.0038248710334300995
","x: 300.5523681640625
y: 329.5760803222656
z: -0.0076662651263177395
","x: 298.9046630859375
y: 325.9733581542969
z: -0.00903709139674902
","x: 297.9902038574219
y: 324.1012878417969
z: -0.0094457371160388
","x: 299.6263732910156
y: 332.898193359375
z: -0.004821565002202988
","x: 298.43560791015625
y: 332.34356689453125
z: -0.00859556533396244
","x: 297.06793212890625
y: 328.5873107910156
z: -0.008514526300132275
","x: 296.7904052734375
y: 327.2762451171875
z: -0.007961609400808811
","x: 297.57574462890625
y: 335.0784606933594
z: -0.006226711440831423
","x: 296.39178466796875
y: 334.7843933105469
z: -0.009325990453362465
","x: 295.4483947753906
y: 330.77813720703125
z: -0.007984756492078304
","x: 295.4085998535156
y: 329.0869140625
z: -0.006557128392159939
","x: 295.5121154785156
y: 336.741943359375
z: -0.00804847665131092
","x: 294.6249694824219
y: 337.2533874511719
z: -0.00929860770702362
","x: 294.1716003417969
y: 334.14990234375
z: -0.008232928812503815
","x: 294.3733215332031
y: 332.2684326171875
z: -0.007096210028976202
"
15,"x: 233.54388427734375
y: 202.3468780517578
z: -0.23184916377067566
visibility: 0.9996586441993713
","x: 237.27731323242188
y: 194.52191162109375
z: -0.21237125992774963
visibility: 0.9991764426231384
","x: 239.2693328857422
y: 194.00633239746094
z: -0.212437704205513
visibility: 0.9991406798362732
","x: 240.9940948486328
y: 193.37008666992188
z: -0.21243302524089813
visibility: 0.9991621971130371
","x: 231.03530883789062
y: 195.73626708984375
z: -0.20992057025432587
visibility: 0.9987857937812805
","x: 230.2593231201172
y: 196.18756103515625
z: -0.20995084941387177
visibility: 0.9986271262168884
","x: 229.63726806640625
y: 196.68353271484375
z: -0.20993351936340332
visibility: 0.9988110065460205
","x: 244.62953186035156
y: 191.7515869140625
z: -0.1126653403043747
visibility: 0.999012291431427
","x: 231.24929809570312
y: 200.51144409179688
z: -0.09801805019378662
visibility: 0.9982562065124512
","x: 239.36105346679688
y: 209.13922119140625
z: -0.19611775875091553
visibility: 0.999622642993927
","x: 235.174072265625
y: 210.65081787109375
z: -0.19220302999019623
visibility: 0.9993054866790771
","x: 267.6003112792969
y: 241.10989379882812
z: -0.07580510526895523
visibility: 0.9999150633811951
","x: 221.7162628173828
y: 258.6471252441406
z: -0.04046884551644325
visibility: 0.9998882412910461
","x: 281.87054443359375
y: 293.7913818359375
z: -0.11654964834451675
visibility: 0.9943140745162964
","x: 217.76031494140625
y: 318.6062927246094
z: -0.007356611080467701
visibility: 0.964268147945404
","x: 290.5974426269531
y: 316.5612487792969
z: -0.2977968156337738
visibility: 0.9793972373008728
","x: 197.61534118652344
y: 342.1910400390625
z: -0.12173118442296982
visibility: 0.9682314395904541
","x: 295.92755126953125
y: 326.7615051269531
z: -0.33662065863609314
visibility: 0.944283664226532
","x: 190.85336303710938
y: 345.8011169433594
z: -0.1559101790189743
visibility: 0.9286434650421143
","x: 295.0530090332031
y: 324.99822998046875
z: -0.3628396689891815
visibility: 0.9441391825675964
","x: 189.34011840820312
y: 342.11895751953125
z: -0.1898811161518097
visibility: 0.927061915397644
","x: 292.7061767578125
y: 322.0216064453125
z: -0.3122030794620514
visibility: 0.9167712330818176
","x: 191.53668212890625
y: 341.2143249511719
z: -0.1405903697013855
visibility: 0.9217562675476074
","x: 267.0701599121094
y: 358.3251647949219
z: -0.012481647543609142
visibility: 0.9996421933174133
","x: 238.70506286621094
y: 364.20477294921875
z: 0.012449255213141441
visibility: 0.9998552203178406
","x: 289.8569030761719
y: 431.4373779296875
z: -0.08568362146615982
visibility: 0.9977486729621887
","x: 214.90074157714844
y: 437.39642333984375
z: -0.056626029312610626
visibility: 0.9988239407539368
","x: 304.9411926269531
y: 499.9424743652344
z: 0.15121276676654816
visibility: 0.9975125193595886
","x: 208.10836791992188
y: 501.1553649902344
z: 0.1597905308008194
visibility: 0.9977927207946777
","x: 301.833740234375
y: 511.94903564453125
z: 0.16810208559036255
visibility: 0.919644832611084
","x: 211.86871337890625
y: 510.72369384765625
z: 0.1752718836069107
visibility: 0.9719170331954956
","x: 315.6224670410156
y: 522.7412109375
z: 0.05411117151379585
visibility: 0.9916573166847229
","x: 196.07583618164062
y: 524.8656616210938
z: 0.06565244495868683
visibility: 0.9949895739555359
",,,,,,,,,,,,,,,,,,,,,,"x: 294.85955810546875
y: 322.620361328125
z: 0.0
","x: 297.86981201171875
y: 321.25726318359375
z: -0.0023849564604461193
","x: 300.12738037109375
y: 321.33050537109375
z: -0.004802838899195194
","x: 300.4769592285156
y: 322.7964782714844
z: -0.007559357210993767
","x: 299.7388610839844
y: 324.58013916015625
z: -0.00980302132666111
","x: 301.3782043457031
y: 329.8343200683594
z: -0.0038248710334300995
","x: 300.5523681640625
y: 329.5760803222656
z: -0.0076662651263177395
","x: 298.9046630859375
y: 325.9733581542969
z: -0.00903709139674902
","x: 297.9902038574219
y: 324.1012878417969
z: -0.0094457371160388
","x: 299.6263732910156
y: 332.898193359375
z: -0.004821565002202988
","x: 298.43560791015625
y: 332.34356689453125
z: -0.00859556533396244
","x: 297.06793212890625
y: 328.5873107910156
z: -0.008514526300132275
","x: 296.7904052734375
y: 327.2762451171875
z: -0.007961609400808811
","x: 297.57574462890625
y: 335.0784606933594
z: -0.006226711440831423
","x: 296.39178466796875
y: 334.7843933105469
z: -0.009325990453362465
","x: 295.4483947753906
y: 330.77813720703125
z: -0.007984756492078304
","x: 295.4085998535156
y: 329.0869140625
z: -0.006557128392159939
","x: 295.5121154785156
y: 336.741943359375
z: -0.00804847665131092
","x: 294.6249694824219
y: 337.2533874511719
z: -0.00929860770702362
","x: 294.1716003417969
y: 334.14990234375
z: -0.008232928812503815
","x: 294.3733215332031
y: 332.2684326171875
z: -0.007096210028976202
"
16,"x: 243.7442169189453
y: 199.41653442382812
z: -0.23257672786712646
visibility: 0.9996918439865112
","x: 246.32708740234375
y: 192.3326873779297
z: -0.2124301940202713
visibility: 0.9992563128471375
","x: 247.8761444091797
y: 192.3875274658203
z: -0.2125174105167389
visibility: 0.9992242455482483
","x: 249.29257202148438
y: 192.42095947265625
z: -0.21256403625011444
visibility: 0.9992433190345764
","x: 241.25650024414062
y: 192.71954345703125
z: -0.21264155209064484
visibility: 0.9989034533500671
","x: 239.66693115234375
y: 193.12188720703125
z: -0.2126723974943161
visibility: 0.9987603425979614
","x: 238.34063720703125
y: 193.5731201171875
z: -0.21267573535442352
visibility: 0.9989246726036072
","x: 250.64996337890625
y: 193.39439392089844
z: -0.10489889234304428
visibility: 0.9991056323051453
","x: 235.04736328125
y: 199.31129455566406
z: -0.10444565117359161
visibility: 0.9984220266342163
","x: 247.42123413085938
y: 207.94000244140625
z: -0.19403699040412903
visibility: 0.9996582865715027
","x: 241.3594970703125
y: 208.40431213378906
z: -0.19392409920692444
visibility: 0.999372124671936
","x: 269.0586853027344
y: 246.5382537841797
z: -0.0555165596306324
visibility: 0.9999204277992249
","x: 223.79615783691406
y: 257.108154296875
z: -0.046498410403728485
visibility: 0.9998922348022461
","x: 278.8869323730469
y: 306.3901062011719
z: -0.08382399380207062
visibility: 0.9875104427337646
","x: 218.5625
y: 316.30419921875
z: -0.021485311910510063
visibility: 0.9653777480125427
","x: 293.6507873535156
y: 319.89031982421875
z: -0.2785979211330414
visibility: 0.977451741695404
","x: 200.86146545410156
y: 352.6011657714844
z: -0.12015582621097565
visibility: 0.9694483280181885
","x: 300.2456359863281
y: 324.0322570800781
z: -0.3160492777824402
visibility: 0.9444933533668518
","x: 194.07916259765625
y: 359.98907470703125
z: -0.14881648123264313
visibility: 0.9324056506156921
","x: 300.56768798828125
y: 320.6351318359375
z: -0.3459972143173218
visibility: 0.9451144933700562
","x: 192.95059204101562
y: 356.8829040527344
z: -0.18612858653068542
visibility: 0.9314477443695068
","x: 297.9086608886719
y: 318.9187316894531
z: -0.292857825756073
visibility: 0.9195932149887085
","x: 195.28457641601562
y: 355.18658447265625
z: -0.1392485499382019
visibility: 0.926218569278717
","x: 268.13787841796875
y: 365.27056884765625
z: 0.003685665549710393
visibility: 0.9996731281280518
","x: 238.83599853515625
y: 369.66192626953125
z: -0.003695786464959383
visibility: 0.9998594522476196
","x: 298.69256591796875
y: 428.4471435546875
z: -0.13498443365097046
visibility: 0.9977990388870239
","x: 213.8047332763672
y: 440.4234619140625
z: -0.05503708869218826
visibility: 0.9987744092941284
","x: 306.67364501953125
y: 499.8551940917969
z: 0.09252431988716125
visibility: 0.9974502921104431
","x: 204.4805908203125
y: 501.1539306640625
z: 0.1812172532081604
visibility: 0.9976888298988342
","x: 302.5376892089844
y: 512.072265625
z: 0.10918889939785004
visibility: 0.9248465895652771
","x: 208.387451171875
y: 510.1300354003906
z: 0.19873932003974915
visibility: 0.9677955508232117
","x: 318.23870849609375
y: 520.1934814453125
z: 0.0031360010616481304
visibility: 0.9915850162506104
","x: 195.47286987304688
y: 525.1110229492188
z: 0.09547628462314606
visibility: 0.994446337223053
",,,,,,,,,,,,,,,,,,,,,,,,,,,,,,,,,,,,,,,,,,
17,"x: 262.07452392578125
y: 208.57095336914062
z: -0.2672080397605896
visibility: 0.9997221827507019
","x: 263.2859191894531
y: 200.33029174804688
z: -0.23907789587974548
visibility: 0.9993295669555664
","x: 264.0789489746094
y: 200.45860290527344
z: -0.2392021119594574
visibility: 0.9993008375167847
","x: 264.8229675292969
y: 200.43002319335938
z: -0.23929664492607117
visibility: 0.9993171691894531
","x: 260.0805358886719
y: 198.30201721191406
z: -0.2647134065628052
visibility: 0.9990111589431763
","x: 258.494384765625
y: 196.887451171875
z: -0.264740526676178
visibility: 0.9988825917243958
","x: 256.76336669921875
y: 195.01177978515625
z: -0.26477691531181335
visibility: 0.9990291595458984
","x: 262.6426696777344
y: 201.5484619140625
z: -0.12882331013679504
visibility: 0.9991918802261353
","x: 251.2406768798828
y: 200.17413330078125
z: -0.19918876886367798
visibility: 0.9985789060592651
","x: 262.2704772949219
y: 216.23182678222656
z: -0.19905845820903778
visibility: 0.9996916651725769
","x: 258.3848876953125
y: 214.69818115234375
z: -0.2426588088274002
visibility: 0.9994344711303711
","x: 269.87908935546875
y: 252.18162536621094
z: -0.03991032764315605
visibility: 0.9999276399612427
","x: 225.652587890625
y: 255.83299255371094
z: -0.1148078665137291
visibility: 0.999902069568634
","x: 273.093505859375
y: 313.375732421875
z: -0.07306073606014252
visibility: 0.9756824970245361
","x: 219.35787963867188
y: 312.8537292480469
z: -0.05511290580034256
visibility: 0.967149019241333
","x: 291.6854248046875
y: 275.69854736328125
z: -0.27630287408828735
visibility: 0.9778631925582886
","x: 202.62762451171875
y: 355.4928283691406
z: -0.10135214030742645
visibility: 0.9709928035736084
","x: 296.3604736328125
y: 260.9068603515625
z: -0.31338974833488464
visibility: 0.9470943212509155
","x: 196.3203125
y: 362.1226806640625
z: -0.12059415876865387
visibility: 0.9363980293273926
","x: 296.06976318359375
y: 255.51979064941406
z: -0.33220916986465454
visibility: 0.9477115869522095
","x: 195.5858612060547
y: 360.2679443359375
z: -0.1625804901123047
visibility: 0.9357367753982544
","x: 293.9704284667969
y: 260.0072326660156
z: -0.28892242908477783
visibility: 0.9235302209854126
","x: 197.70870971679688
y: 359.2871398925781
z: -0.122072234749794
visibility: 0.9302443265914917
","x: 267.039306640625
y: 368.2181396484375
z: 0.022097554057836533
visibility: 0.9997014999389648
","x: 237.78053283691406
y: 370.1763916015625
z: -0.022089002653956413
visibility: 0.999862790107727
","x: 299.0224609375
y: 428.76806640625
z: -0.049444232136011124
visibility: 0.9978260397911072
","x: 211.73129272460938
y: 441.16070556640625
z: -0.0776287093758583
visibility: 0.998784065246582
","x: 306.55865478515625
y: 500.07696533203125
z: 0.21103088557720184
visibility: 0.9973670244216919
","x: 192.364990234375
y: 498.57275390625
z: 0.18037348985671997
visibility: 0.9976238012313843
","x: 301.9667663574219
y: 512.6218872070312
z: 0.23181423544883728
visibility: 0.9293393492698669
","x: 191.9041290283203
y: 504.5030212402344
z: 0.20172052085399628
visibility: 0.9635541439056396
","x: 318.61846923828125
y: 520.6302490234375
z: 0.1399674117565155
visibility: 0.9915311932563782
","x: 193.72421264648438
y: 524.8572998046875
z: 0.09752574563026428
visibility: 0.9941893815994263
",,,,,,,,,,,,,,,,,,,,,,"x: 290.8719787597656
y: 271.1285095214844
z: 0.0
","x: 295.79736328125
y: 264.3695373535156
z: 0.003395817242562771
","x: 298.6492004394531
y: 256.42034912109375
z: 0.003267226740717888
","x: 299.94537353515625
y: 250.0823974609375
z: 0.002502803923562169
","x: 300.3606872558594
y: 245.15432739257812
z: 0.0018134426791220903
","x: 300.278564453125
y: 251.67385864257812
z: -0.0017624703468754888
","x: 300.4776916503906
y: 240.38723754882812
z: -0.0032026281114667654
","x: 299.7853088378906
y: 234.47683715820312
z: -0.002900482853874564
","x: 299.04534912109375
y: 230.50726318359375
z: -0.002477681962773204
","x: 297.75042724609375
y: 251.592529296875
z: -0.004895749501883984
","x: 297.3699035644531
y: 239.11512756347656
z: -0.006329405587166548
","x: 296.2752685546875
y: 232.46337890625
z: -0.005392257124185562
","x: 295.1263732910156
y: 227.7452392578125
z: -0.004753815475851297
","x: 294.7020263671875
y: 252.203369140625
z: -0.007574861403554678
","x: 294.11016845703125
y: 240.2812042236328
z: -0.00904108490794897
","x: 293.1323547363281
y: 233.81634521484375
z: -0.00800806563347578
","x: 292.27960205078125
y: 229.12432861328125
z: -0.007289332803338766
","x: 291.3827209472656
y: 253.30970764160156
z: -0.009964772500097752
","x: 290.56060791015625
y: 244.20541381835938
z: -0.011263344436883926
","x: 289.8997497558594
y: 239.12950134277344
z: -0.010561270639300346
","x: 289.3603515625
y: 235.11428833007812
z: -0.009892881847918034
"
18,"x: 262.07452392578125
y: 208.57095336914062
z: -0.2672080397605896
visibility: 0.9997221827507019
","x: 263.2859191894531
y: 200.33029174804688
z: -0.23907789587974548
visibility: 0.9993295669555664
","x: 264.0789489746094
y: 200.45860290527344
z: -0.2392021119594574
visibility: 0.9993008375167847
","x: 264.8229675292969
y: 200.43002319335938
z: -0.23929664492607117
visibility: 0.9993171691894531
","x: 260.0805358886719
y: 198.30201721191406
z: -0.2647134065628052
visibility: 0.9990111589431763
","x: 258.494384765625
y: 196.887451171875
z: -0.264740526676178
visibility: 0.9988825917243958
","x: 256.76336669921875
y: 195.01177978515625
z: -0.26477691531181335
visibility: 0.9990291595458984
","x: 262.6426696777344
y: 201.5484619140625
z: -0.12882331013679504
visibility: 0.9991918802261353
","x: 251.2406768798828
y: 200.17413330078125
z: -0.19918876886367798
visibility: 0.9985789060592651
","x: 262.2704772949219
y: 216.23182678222656
z: -0.19905845820903778
visibility: 0.9996916651725769
","x: 258.3848876953125
y: 214.69818115234375
z: -0.2426588088274002
visibility: 0.9994344711303711
","x: 269.87908935546875
y: 252.18162536621094
z: -0.03991032764315605
visibility: 0.9999276399612427
","x: 225.652587890625
y: 255.83299255371094
z: -0.1148078665137291
visibility: 0.999902069568634
","x: 273.093505859375
y: 313.375732421875
z: -0.07306073606014252
visibility: 0.9756824970245361
","x: 219.35787963867188
y: 312.8537292480469
z: -0.05511290580034256
visibility: 0.967149019241333
","x: 291.6854248046875
y: 275.69854736328125
z: -0.27630287408828735
visibility: 0.9778631925582886
","x: 202.62762451171875
y: 355.4928283691406
z: -0.10135214030742645
visibility: 0.9709928035736084
","x: 296.3604736328125
y: 260.9068603515625
z: -0.31338974833488464
visibility: 0.9470943212509155
","x: 196.3203125
y: 362.1226806640625
z: -0.12059415876865387
visibility: 0.9363980293273926
","x: 296.06976318359375
y: 255.51979064941406
z: -0.33220916986465454
visibility: 0.9477115869522095
","x: 195.5858612060547
y: 360.2679443359375
z: -0.1625804901123047
visibility: 0.9357367753982544
","x: 293.9704284667969
y: 260.0072326660156
z: -0.28892242908477783
visibility: 0.9235302209854126
","x: 197.70870971679688
y: 359.2871398925781
z: -0.122072234749794
visibility: 0.9302443265914917
","x: 267.039306640625
y: 368.2181396484375
z: 0.022097554057836533
visibility: 0.9997014999389648
","x: 237.78053283691406
y: 370.1763916015625
z: -0.022089002653956413
visibility: 0.999862790107727
","x: 299.0224609375
y: 428.76806640625
z: -0.049444232136011124
visibility: 0.9978260397911072
","x: 211.73129272460938
y: 441.16070556640625
z: -0.0776287093758583
visibility: 0.998784065246582
","x: 306.55865478515625
y: 500.07696533203125
z: 0.21103088557720184
visibility: 0.9973670244216919
","x: 192.364990234375
y: 498.57275390625
z: 0.18037348985671997
visibility: 0.9976238012313843
","x: 301.9667663574219
y: 512.6218872070312
z: 0.23181423544883728
visibility: 0.9293393492698669
","x: 191.9041290283203
y: 504.5030212402344
z: 0.20172052085399628
visibility: 0.9635541439056396
","x: 318.61846923828125
y: 520.6302490234375
z: 0.1399674117565155
visibility: 0.9915311932563782
","x: 193.72421264648438
y: 524.8572998046875
z: 0.09752574563026428
visibility: 0.9941893815994263
",,,,,,,,,,,,,,,,,,,,,,"x: 290.8719787597656
y: 271.1285095214844
z: 0.0
","x: 295.79736328125
y: 264.3695373535156
z: 0.003395817242562771
","x: 298.6492004394531
y: 256.42034912109375
z: 0.003267226740717888
","x: 299.94537353515625
y: 250.0823974609375
z: 0.002502803923562169
","x: 300.3606872558594
y: 245.15432739257812
z: 0.0018134426791220903
","x: 300.278564453125
y: 251.67385864257812
z: -0.0017624703468754888
","x: 300.4776916503906
y: 240.38723754882812
z: -0.0032026281114667654
","x: 299.7853088378906
y: 234.47683715820312
z: -0.002900482853874564
","x: 299.04534912109375
y: 230.50726318359375
z: -0.002477681962773204
","x: 297.75042724609375
y: 251.592529296875
z: -0.004895749501883984
","x: 297.3699035644531
y: 239.11512756347656
z: -0.006329405587166548
","x: 296.2752685546875
y: 232.46337890625
z: -0.005392257124185562
","x: 295.1263732910156
y: 227.7452392578125
z: -0.004753815475851297
","x: 294.7020263671875
y: 252.203369140625
z: -0.007574861403554678
","x: 294.11016845703125
y: 240.2812042236328
z: -0.00904108490794897
","x: 293.1323547363281
y: 233.81634521484375
z: -0.00800806563347578
","x: 292.27960205078125
y: 229.12432861328125
z: -0.007289332803338766
","x: 291.3827209472656
y: 253.30970764160156
z: -0.009964772500097752
","x: 290.56060791015625
y: 244.20541381835938
z: -0.011263344436883926
","x: 289.8997497558594
y: 239.12950134277344
z: -0.010561270639300346
","x: 289.3603515625
y: 235.11428833007812
z: -0.009892881847918034
"
19,"x: 269.5321350097656
y: 211.64353942871094
z: -0.2750859260559082
visibility: 0.9997495412826538
","x: 270.9692687988281
y: 205.474609375
z: -0.24609656631946564
visibility: 0.9993953704833984
","x: 271.77685546875
y: 206.0341033935547
z: -0.24620938301086426
visibility: 0.999369740486145
","x: 272.5389404296875
y: 206.41815185546875
z: -0.246280699968338
visibility: 0.999383270740509
","x: 267.5780334472656
y: 202.89682006835938
z: -0.2714903950691223
visibility: 0.9991084337234497
","x: 265.91119384765625
y: 201.53164672851562
z: -0.27152857184410095
visibility: 0.9989930391311646
","x: 264.0983581542969
y: 199.31097412109375
z: -0.27156588435173035
visibility: 0.9991238117218018
","x: 270.19049072265625
y: 209.5584259033203
z: -0.127065971493721
visibility: 0.9992682337760925
","x: 258.8985900878906
y: 203.5434112548828
z: -0.20740461349487305
visibility: 0.998720109462738
","x: 269.154541015625
y: 219.10791015625
z: -0.20356087386608124
visibility: 0.9997212886810303
","x: 264.8291931152344
y: 217.3597412109375
z: -0.2511594891548157
visibility: 0.9994903802871704
","x: 272.1778869628906
y: 259.1221923828125
z: -0.03087672032415867
visibility: 0.9999329447746277
","x: 231.44419860839844
y: 255.09523010253906
z: -0.12734133005142212
visibility: 0.9999100565910339
","x: 277.4967346191406
y: 314.9622802734375
z: -0.05574037879705429
visibility: 0.9650553464889526
","x: 220.71469116210938
y: 310.0911865234375
z: -0.06558465212583542
visibility: 0.9683547616004944
","x: 295.26025390625
y: 265.8059997558594
z: -0.25442302227020264
visibility: 0.97730553150177
","x: 203.33905029296875
y: 348.4784240722656
z: -0.09478543698787689
visibility: 0.9722260236740112
","x: 299.7176513671875
y: 252.00563049316406
z: -0.28921759128570557
visibility: 0.9473814368247986
","x: 197.01040649414062
y: 353.9374084472656
z: -0.10689282417297363
visibility: 0.9395779371261597
","x: 299.1903381347656
y: 247.34681701660156
z: -0.30195751786231995
visibility: 0.9480802416801453
","x: 196.4830322265625
y: 352.1064453125
z: -0.14612874388694763
visibility: 0.9392175674438477
","x: 297.0705261230469
y: 251.83718872070312
z: -0.2672104239463806
visibility: 0.9248658418655396
","x: 198.79486083984375
y: 351.26654052734375
z: -0.1180950254201889
visibility: 0.9333746433258057
","x: 266.06982421875
y: 374.0790100097656
z: 0.02762657403945923
visibility: 0.9997266530990601
","x: 236.6045379638672
y: 373.1969909667969
z: -0.027640629559755325
visibility: 0.9998654723167419
","x: 298.3387756347656
y: 432.1702880859375
z: -0.01074670534580946
visibility: 0.9978122115135193
","x: 208.3187713623047
y: 442.64044189453125
z: -0.07430930435657501
visibility: 0.9987764358520508
","x: 307.2745056152344
y: 501.0888671875
z: 0.25430816411972046
visibility: 0.997353196144104
","x: 189.5735321044922
y: 498.2593078613281
z: 0.19110055267810822
visibility: 0.9976330995559692
","x: 302.63006591796875
y: 513.1500854492188
z: 0.2753875255584717
visibility: 0.9336465001106262
","x: 189.39613342285156
y: 503.87139892578125
z: 0.21284182369709015
visibility: 0.9605422616004944
","x: 319.1800231933594
y: 520.6729736328125
z: 0.17619329690933228
visibility: 0.9916601181030273
","x: 191.5468292236328
y: 525.980224609375
z: 0.09886406362056732
visibility: 0.9941778779029846
",,,,,,,,,,,,,,,,,,,,,,"x: 295.0140686035156
y: 271.3761901855469
z: 0.0
","x: 292.2500305175781
y: 264.4712829589844
z: 0.0009122983901761472
","x: 290.74652099609375
y: 257.2259826660156
z: -9.18126679607667e-05
","x: 289.65679931640625
y: 250.83908081054688
z: -0.0015899635618552566
","x: 289.06744384765625
y: 246.22540283203125
z: -0.00325795984826982
","x: 295.34906005859375
y: 254.45919799804688
z: -0.0038113421760499477
","x: 295.3042297363281
y: 245.04905700683594
z: -0.007225823123008013
","x: 294.44110107421875
y: 238.79818725585938
z: -0.008480862714350224
","x: 292.9820861816406
y: 234.17213439941406
z: -0.008746149018406868
","x: 299.0797119140625
y: 253.73870849609375
z: -0.0059005445800721645
","x: 299.8954162597656
y: 243.4154510498047
z: -0.009230254217982292
","x: 299.2979431152344
y: 235.54441833496094
z: -0.0102715278044343
","x: 298.0794677734375
y: 229.34298706054688
z: -0.011045239865779877
","x: 301.720458984375
y: 253.22283935546875
z: -0.00784208532422781
","x: 302.99530029296875
y: 243.36288452148438
z: -0.011265082284808159
","x: 302.3381042480469
y: 236.12918090820312
z: -0.012102359905838966
","x: 301.0982360839844
y: 230.15687561035156
z: -0.012576195411384106
","x: 303.4725036621094
y: 252.64901733398438
z: -0.009628423489630222
","x: 305.215087890625
y: 245.3811492919922
z: -0.012217714451253414
","x: 304.9845886230469
y: 240.49270629882812
z: -0.01282232441008091
","x: 304.0718994140625
y: 236.03822326660156
z: -0.013194089755415916
"
20,"x: 269.5321350097656
y: 211.64353942871094
z: -0.2750859260559082
visibility: 0.9997495412826538
","x: 270.9692687988281
y: 205.474609375
z: -0.24609656631946564
visibility: 0.9993953704833984
","x: 271.77685546875
y: 206.0341033935547
z: -0.24620938301086426
visibility: 0.999369740486145
","x: 272.5389404296875
y: 206.41815185546875
z: -0.246280699968338
visibility: 0.999383270740509
","x: 267.5780334472656
y: 202.89682006835938
z: -0.2714903950691223
visibility: 0.9991084337234497
","x: 265.91119384765625
y: 201.53164672851562
z: -0.27152857184410095
visibility: 0.9989930391311646
","x: 264.0983581542969
y: 199.31097412109375
z: -0.27156588435173035
visibility: 0.9991238117218018
","x: 270.19049072265625
y: 209.5584259033203
z: -0.127065971493721
visibility: 0.9992682337760925
","x: 258.8985900878906
y: 203.5434112548828
z: -0.20740461349487305
visibility: 0.998720109462738
","x: 269.154541015625
y: 219.10791015625
z: -0.20356087386608124
visibility: 0.9997212886810303
","x: 264.8291931152344
y: 217.3597412109375
z: -0.2511594891548157
visibility: 0.9994903802871704
","x: 272.1778869628906
y: 259.1221923828125
z: -0.03087672032415867
visibility: 0.9999329447746277
","x: 231.44419860839844
y: 255.09523010253906
z: -0.12734133005142212
visibility: 0.9999100565910339
","x: 277.4967346191406
y: 314.9622802734375
z: -0.05574037879705429
visibility: 0.9650553464889526
","x: 220.71469116210938
y: 310.0911865234375
z: -0.06558465212583542
visibility: 0.9683547616004944
","x: 295.26025390625
y: 265.8059997558594
z: -0.25442302227020264
visibility: 0.97730553150177
","x: 203.33905029296875
y: 348.4784240722656
z: -0.09478543698787689
visibility: 0.9722260236740112
","x: 299.7176513671875
y: 252.00563049316406
z: -0.28921759128570557
visibility: 0.9473814368247986
","x: 197.01040649414062
y: 353.9374084472656
z: -0.10689282417297363
visibility: 0.9395779371261597
","x: 299.1903381347656
y: 247.34681701660156
z: -0.30195751786231995
visibility: 0.9480802416801453
","x: 196.4830322265625
y: 352.1064453125
z: -0.14612874388694763
visibility: 0.9392175674438477
","x: 297.0705261230469
y: 251.83718872070312
z: -0.2672104239463806
visibility: 0.9248658418655396
","x: 198.79486083984375
y: 351.26654052734375
z: -0.1180950254201889
visibility: 0.9333746433258057
","x: 266.06982421875
y: 374.0790100097656
z: 0.02762657403945923
visibility: 0.9997266530990601
","x: 236.6045379638672
y: 373.1969909667969
z: -0.027640629559755325
visibility: 0.9998654723167419
","x: 298.3387756347656
y: 432.1702880859375
z: -0.01074670534580946
visibility: 0.9978122115135193
","x: 208.3187713623047
y: 442.64044189453125
z: -0.07430930435657501
visibility: 0.9987764358520508
","x: 307.2745056152344
y: 501.0888671875
z: 0.25430816411972046
visibility: 0.997353196144104
","x: 189.5735321044922
y: 498.2593078613281
z: 0.19110055267810822
visibility: 0.9976330995559692
","x: 302.63006591796875
y: 513.1500854492188
z: 0.2753875255584717
visibility: 0.9336465001106262
","x: 189.39613342285156
y: 503.87139892578125
z: 0.21284182369709015
visibility: 0.9605422616004944
","x: 319.1800231933594
y: 520.6729736328125
z: 0.17619329690933228
visibility: 0.9916601181030273
","x: 191.5468292236328
y: 525.980224609375
z: 0.09886406362056732
visibility: 0.9941778779029846
",,,,,,,,,,,,,,,,,,,,,,"x: 295.0140686035156
y: 271.3761901855469
z: 0.0
","x: 292.2500305175781
y: 264.4712829589844
z: 0.0009122983901761472
","x: 290.74652099609375
y: 257.2259826660156
z: -9.18126679607667e-05
","x: 289.65679931640625
y: 250.83908081054688
z: -0.0015899635618552566
","x: 289.06744384765625
y: 246.22540283203125
z: -0.00325795984826982
","x: 295.34906005859375
y: 254.45919799804688
z: -0.0038113421760499477
","x: 295.3042297363281
y: 245.04905700683594
z: -0.007225823123008013
","x: 294.44110107421875
y: 238.79818725585938
z: -0.008480862714350224
","x: 292.9820861816406
y: 234.17213439941406
z: -0.008746149018406868
","x: 299.0797119140625
y: 253.73870849609375
z: -0.0059005445800721645
","x: 299.8954162597656
y: 243.4154510498047
z: -0.009230254217982292
","x: 299.2979431152344
y: 235.54441833496094
z: -0.0102715278044343
","x: 298.0794677734375
y: 229.34298706054688
z: -0.011045239865779877
","x: 301.720458984375
y: 253.22283935546875
z: -0.00784208532422781
","x: 302.99530029296875
y: 243.36288452148438
z: -0.011265082284808159
","x: 302.3381042480469
y: 236.12918090820312
z: -0.012102359905838966
","x: 301.0982360839844
y: 230.15687561035156
z: -0.012576195411384106
","x: 303.4725036621094
y: 252.64901733398438
z: -0.009628423489630222
","x: 305.215087890625
y: 245.3811492919922
z: -0.012217714451253414
","x: 304.9845886230469
y: 240.49270629882812
z: -0.01282232441008091
","x: 304.0718994140625
y: 236.03822326660156
z: -0.013194089755415916
"
21,"x: 262.473388671875
y: 210.07479858398438
z: -0.23601596057415009
visibility: 0.9997714757919312
","x: 263.2496032714844
y: 204.9786376953125
z: -0.2173583209514618
visibility: 0.999450147151947
","x: 264.44586181640625
y: 205.24786376953125
z: -0.21741291880607605
visibility: 0.9994271397590637
","x: 265.67510986328125
y: 205.53392028808594
z: -0.21743135154247284
visibility: 0.9994384050369263
","x: 259.9351501464844
y: 202.80580139160156
z: -0.21595124900341034
visibility: 0.9991875886917114
","x: 258.7085266113281
y: 201.61749267578125
z: -0.21602663397789001
visibility: 0.999083936214447
","x: 257.23138427734375
y: 199.5425262451172
z: -0.2160494327545166
visibility: 0.9992006421089172
","x: 268.4127502441406
y: 210.6893310546875
z: -0.11944039165973663
visibility: 0.9993296265602112
","x: 256.38201904296875
y: 207.22216796875
z: -0.10906318575143814
visibility: 0.9988241791725159
","x: 265.0353088378906
y: 218.83094787597656
z: -0.19705936312675476
visibility: 0.9997420907020569
","x: 263.1532287597656
y: 217.18690490722656
z: -0.19851264357566833
visibility: 0.9995294213294983
","x: 271.310791015625
y: 268.4288330078125
z: -0.060342200100421906
visibility: 0.99991774559021
","x: 228.98312377929688
y: 257.50341796875
z: -0.07191962748765945
visibility: 0.9998989105224609
","x: 272.849609375
y: 328.5046691894531
z: -0.08457514643669128
visibility: 0.9576294422149658
","x: 214.4188232421875
y: 306.3763122558594
z: -0.1399189978837967
visibility: 0.9705684185028076
","x: 294.1708679199219
y: 336.0707092285156
z: -0.30774328112602234
visibility: 0.972453236579895
","x: 197.4530792236328
y: 262.9269714355469
z: -0.37230271100997925
visibility: 0.9745786786079407
","x: 296.28240966796875
y: 334.3185119628906
z: -0.34728389978408813
visibility: 0.943223237991333
","x: 193.20277404785156
y: 248.15396118164062
z: -0.4222373068332672
visibility: 0.9446424245834351
","x: 295.7652893066406
y: 329.2969970703125
z: -0.3713851571083069
visibility: 0.9445458054542542
","x: 194.03831481933594
y: 241.83595275878906
z: -0.43164151906967163
visibility: 0.9443576335906982
","x: 293.8700866699219
y: 329.75274658203125
z: -0.32360073924064636
visibility: 0.9216278791427612
","x: 196.13699340820312
y: 247.53033447265625
z: -0.3845849633216858
visibility: 0.9387746453285217
","x: 264.2152404785156
y: 378.9334716796875
z: 0.01139090210199356
visibility: 0.99974524974823
","x: 235.07931518554688
y: 379.37945556640625
z: -0.011378107592463493
visibility: 0.9998692274093628
","x: 295.122802734375
y: 439.5442199707031
z: -0.043359141796827316
visibility: 0.9978141188621521
","x: 205.01953125
y: 444.34893798828125
z: -0.0461152121424675
visibility: 0.998744010925293
","x: 306.8842468261719
y: 501.94586181640625
z: 0.24081483483314514
visibility: 0.9972643256187439
","x: 192.93988037109375
y: 498.5893249511719
z: 0.22777625918388367
visibility: 0.9972716569900513
","x: 302.8053894042969
y: 513.5244140625
z: 0.24772894382476807
