uscmakers/ReverseChoreography/data/2_thats_what_i_like_bruno_mars.csv
,NOSE,LEFT_EYE_INNER,LEFT_EYE,LEFT_EYE_OUTER,RIGHT_EYE_INNER,RIGHT_EYE,RIGHT_EYE_OUTER,LEFT_EAR,RIGHT_EAR,MOUTH_LEFT,MOUTH_RIGHT,LEFT_SHOULDER,RIGHT_SHOULDER,LEFT_ELBOW,RIGHT_ELBOW,LEFT_WRIST,RIGHT_WRIST,LEFT_PINKY,RIGHT_PINKY,LEFT_INDEX,RIGHT_INDEX,LEFT_THUMB,RIGHT_THUMB,LEFT_HIP,RIGHT_HIP,LEFT_KNEE,RIGHT_KNEE,LEFT_ANKLE,RIGHT_ANKLE,LEFT_HEEL,RIGHT_HEEL,LEFT_FOOT_INDEX,RIGHT_FOOT_INDEX,WRIST,THUMB_CPC,THUMB_MCP,THUMB_IP,THUMB_TIP,INDEX_FINGER_MCP,INDEX_FINGER_PIP,INDEX_FINGER_DIP,INDEX_FINGER_TIP,MIDDLE_FINGER_MCP,MIDDLE_FINGER_PIP,MIDDLE_FINGER_DIP,MIDDLE_FINGER_TIP,RING_FINGER_PIP,RING_FINGER_DIP,RING_FINGER_TIP,RING_FINGER_MCP,PINKY_MCP,PINKY_PIP,PINKY_DIP,PINKY_TIP,WRIST2,THUMB_CPC2,THUMB_MCP2,THUMB_IP2,THUMB_TIP2,INDEX_FINGER_MCP2,INDEX_FINGER_PIP2,INDEX_FINGER_DIP2,INDEX_FINGER_TIP2,MIDDLE_FINGER_MCP2,MIDDLE_FINGER_PIP2,MIDDLE_FINGER_DIP2,MIDDLE_FINGER_TIP2,RING_FINGER_PIP2,RING_FINGER_DIP2,RING_FINGER_TIP2,RING_FINGER_MCP2,PINKY_MCP2,PINKY_PIP2,PINKY_DIP2,PINKY_TIP2
0,"x: 263.395751953125
y: 172.47976684570312
z: -0.2583896815776825
visibility: 0.9999831914901733
","x: 263.0228576660156
y: 165.51412963867188
z: -0.2395932972431183
visibility: 0.9999154806137085
","x: 263.5443420410156
y: 165.6011962890625
z: -0.23962780833244324
visibility: 0.9999300241470337
","x: 264.08233642578125
y: 165.76095581054688
z: -0.2396431863307953
visibility: 0.9999078512191772
","x: 260.580810546875
y: 165.1979217529297
z: -0.24955613911151886
visibility: 0.9998985528945923
","x: 259.2342834472656
y: 165.06106567382812
z: -0.2495409995317459
visibility: 0.9998939037322998
","x: 257.7893371582031
y: 164.95285034179688
z: -0.24959592521190643
visibility: 0.9998501539230347
","x: 262.2554931640625
y: 168.86074829101562
z: -0.11797381937503815
visibility: 0.9998175501823425
","x: 252.61004638671875
y: 169.16775512695312
z: -0.16456486284732819
visibility: 0.9998972415924072
","x: 264.0550537109375
y: 179.48426818847656
z: -0.21098478138446808
visibility: 0.9999669790267944
","x: 260.8523864746094
y: 178.76309204101562
z: -0.22488681972026825
visibility: 0.9999713897705078
","x: 274.544189453125
y: 210.49404907226562
z: -0.057951051741838455
visibility: 0.9999861717224121
","x: 232.69732666015625
y: 215.83319091796875
z: -0.06425792723894119
visibility: 0.9999631643295288
","x: 283.23992919921875
y: 259.5151062011719
z: -0.16331635415554047
visibility: 0.9907026290893555
","x: 225.1209259033203
y: 275.0203552246094
z: -0.015011431649327278
visibility: 0.9852489829063416
","x: 283.33160400390625
y: 198.89288330078125
z: -0.40383291244506836
visibility: 0.9966793060302734
","x: 212.4828643798828
y: 320.06097412109375
z: -0.07994098961353302
visibility: 0.9893088340759277
","x: 283.0799865722656
y: 181.43374633789062
z: -0.45132380723953247
visibility: 0.9905389547348022
","x: 206.65374755859375
y: 334.17364501953125
z: -0.09747064113616943
visibility: 0.9772048592567444
","x: 282.9529113769531
y: 177.487548828125
z: -0.4546079635620117
visibility: 0.9903280138969421
","x: 207.1253204345703
y: 334.75054931640625
z: -0.13245519995689392
visibility: 0.9787687659263611
","x: 281.8381042480469
y: 182.6585693359375
z: -0.412336528301239
visibility: 0.9840881824493408
","x: 209.146240234375
y: 330.82879638671875
z: -0.09558949619531631
visibility: 0.9717954993247986
","x: 274.066650390625
y: 328.3966064453125
z: -0.007065712474286556
visibility: 0.9999486207962036
","x: 247.4259796142578
y: 333.5501708984375
z: 0.007019454147666693
visibility: 0.9999293088912964
","x: 288.010498046875
y: 412.4354553222656
z: -0.06102762371301651
visibility: 0.9982814788818359
","x: 242.42523193359375
y: 417.3262023925781
z: 0.019960442557930946
visibility: 0.9971469044685364
","x: 296.5919494628906
y: 492.27679443359375
z: 0.1035592183470726
visibility: 0.9974119067192078
","x: 249.04080200195312
y: 483.54803466796875
z: 0.2688716948032379
visibility: 0.9962161183357239
","x: 292.978271484375
y: 502.2691650390625
z: 0.1131984144449234
visibility: 0.9547374844551086
","x: 253.79556274414062
y: 491.424072265625
z: 0.28603386878967285
visibility: 0.953099250793457
","x: 303.2872619628906
y: 520.19189453125
z: -0.021391380578279495
visibility: 0.9963364601135254
","x: 240.1210174560547
y: 510.632568359375
z: 0.17768099904060364
visibility: 0.9941049218177795
","x: 211.9432830810547
y: 320.8158874511719
z: 0.0
","x: 208.26675415039062
y: 322.53125
z: -0.001509961555711925
","x: 204.33763122558594
y: 325.7217102050781
z: -0.0028675042558461428
","x: 200.89871215820312
y: 327.2238464355469
z: -0.004734016954898834
","x: 198.2138671875
y: 326.47271728515625
z: -0.006712140515446663
","x: 205.171142578125
y: 334.25872802734375
z: -0.0011534877121448517
","x: 202.53651428222656
y: 339.7900695800781
z: -0.003959608729928732
","x: 200.91323852539062
y: 343.02178955078125
z: -0.00588226830586791
","x: 199.39073181152344
y: 346.0977478027344
z: -0.0071397521533071995
","x: 206.72328186035156
y: 336.46270751953125
z: -0.002899209503084421
","x: 204.45907592773438
y: 344.12652587890625
z: -0.005168131086975336
","x: 202.90492248535156
y: 348.4248046875
z: -0.0067939250729978085
","x: 201.50315856933594
y: 352.1238708496094
z: -0.008140325546264648
","x: 208.58767700195312
y: 337.31475830078125
z: -0.005162888206541538
","x: 206.93716430664062
y: 344.794189453125
z: -0.007642127573490143
","x: 205.6006622314453
y: 348.80084228515625
z: -0.0091744689270854
","x: 204.27195739746094
y: 352.0870361328125
z: -0.010274909436702728
","x: 210.6951446533203
y: 336.987548828125
z: -0.007774235215038061
","x: 210.18185424804688
y: 342.70263671875
z: -0.009732814505696297
","x: 209.47872924804688
y: 346.04779052734375
z: -0.010723874904215336
","x: 208.6155242919922
y: 348.7452392578125
z: -0.011487635783851147
",,,,,,,,,,,,,,,,,,,,,
1,"x: 263.395751953125
y: 172.47976684570312
z: -0.2583896815776825
visibility: 0.9999831914901733
","x: 263.0228576660156
y: 165.51412963867188
z: -0.2395932972431183
visibility: 0.9999154806137085
","x: 263.5443420410156
y: 165.6011962890625
z: -0.23962780833244324
visibility: 0.9999300241470337
","x: 264.08233642578125
y: 165.76095581054688
z: -0.2396431863307953
visibility: 0.9999078512191772
","x: 260.580810546875
y: 165.1979217529297
z: -0.24955613911151886
visibility: 0.9998985528945923
","x: 259.2342834472656
y: 165.06106567382812
z: -0.2495409995317459
visibility: 0.9998939037322998
","x: 257.7893371582031
y: 164.95285034179688
z: -0.24959592521190643
visibility: 0.9998501539230347
","x: 262.2554931640625
y: 168.86074829101562
z: -0.11797381937503815
visibility: 0.9998175501823425
","x: 252.61004638671875
y: 169.16775512695312
z: -0.16456486284732819
visibility: 0.9998972415924072
","x: 264.0550537109375
y: 179.48426818847656
z: -0.21098478138446808
visibility: 0.9999669790267944
","x: 260.8523864746094
y: 178.76309204101562
z: -0.22488681972026825
visibility: 0.9999713897705078
","x: 274.544189453125
y: 210.49404907226562
z: -0.057951051741838455
visibility: 0.9999861717224121
","x: 232.69732666015625
y: 215.83319091796875
z: -0.06425792723894119
visibility: 0.9999631643295288
","x: 283.23992919921875
y: 259.5151062011719
z: -0.16331635415554047
visibility: 0.9907026290893555
","x: 225.1209259033203
y: 275.0203552246094
z: -0.015011431649327278
visibility: 0.9852489829063416
","x: 283.33160400390625
y: 198.89288330078125
z: -0.40383291244506836
visibility: 0.9966793060302734
","x: 212.4828643798828
y: 320.06097412109375
z: -0.07994098961353302
visibility: 0.9893088340759277
","x: 283.0799865722656
y: 181.43374633789062
z: -0.45132380723953247
visibility: 0.9905389547348022
","x: 206.65374755859375
y: 334.17364501953125
z: -0.09747064113616943
visibility: 0.9772048592567444
","x: 282.9529113769531
y: 177.487548828125
z: -0.4546079635620117
visibility: 0.9903280138969421
","x: 207.1253204345703
y: 334.75054931640625
z: -0.13245519995689392
visibility: 0.9787687659263611
","x: 281.8381042480469
y: 182.6585693359375
z: -0.412336528301239
visibility: 0.9840881824493408
","x: 209.146240234375
y: 330.82879638671875
z: -0.09558949619531631
visibility: 0.9717954993247986
","x: 274.066650390625
y: 328.3966064453125
z: -0.007065712474286556
visibility: 0.9999486207962036
","x: 247.4259796142578
y: 333.5501708984375
z: 0.007019454147666693
visibility: 0.9999293088912964
","x: 288.010498046875
y: 412.4354553222656
z: -0.06102762371301651
visibility: 0.9982814788818359
","x: 242.42523193359375
y: 417.3262023925781
z: 0.019960442557930946
visibility: 0.9971469044685364
","x: 296.5919494628906
y: 492.27679443359375
z: 0.1035592183470726
visibility: 0.9974119067192078
","x: 249.04080200195312
y: 483.54803466796875
z: 0.2688716948032379
visibility: 0.9962161183357239
","x: 292.978271484375
y: 502.2691650390625
z: 0.1131984144449234
visibility: 0.9547374844551086
","x: 253.79556274414062
y: 491.424072265625
z: 0.28603386878967285
visibility: 0.953099250793457
","x: 303.2872619628906
y: 520.19189453125
z: -0.021391380578279495
visibility: 0.9963364601135254
","x: 240.1210174560547
y: 510.632568359375
z: 0.17768099904060364
visibility: 0.9941049218177795
","x: 211.9432830810547
y: 320.8158874511719
z: 0.0
","x: 208.26675415039062
y: 322.53125
z: -0.001509961555711925
","x: 204.33763122558594
y: 325.7217102050781
z: -0.0028675042558461428
","x: 200.89871215820312
y: 327.2238464355469
z: -0.004734016954898834
","x: 198.2138671875
y: 326.47271728515625
z: -0.006712140515446663
","x: 205.171142578125
y: 334.25872802734375
z: -0.0011534877121448517
","x: 202.53651428222656
y: 339.7900695800781
z: -0.003959608729928732
","x: 200.91323852539062
y: 343.02178955078125
z: -0.00588226830586791
","x: 199.39073181152344
y: 346.0977478027344
z: -0.0071397521533071995
","x: 206.72328186035156
y: 336.46270751953125
z: -0.002899209503084421
","x: 204.45907592773438
y: 344.12652587890625
z: -0.005168131086975336
","x: 202.90492248535156
y: 348.4248046875
z: -0.0067939250729978085
","x: 201.50315856933594
y: 352.1238708496094
z: -0.008140325546264648
","x: 208.58767700195312
y: 337.31475830078125
z: -0.005162888206541538
","x: 206.93716430664062
y: 344.794189453125
z: -0.007642127573490143
","x: 205.6006622314453
y: 348.80084228515625
z: -0.0091744689270854
","x: 204.27195739746094
y: 352.0870361328125
z: -0.010274909436702728
","x: 210.6951446533203
y: 336.987548828125
z: -0.007774235215038061
","x: 210.18185424804688
y: 342.70263671875
z: -0.009732814505696297
","x: 209.47872924804688
y: 346.04779052734375
z: -0.010723874904215336
","x: 208.6155242919922
y: 348.7452392578125
z: -0.011487635783851147
",,,,,,,,,,,,,,,,,,,,,
2,"x: 242.72618103027344
y: 161.60459899902344
z: -0.350050687789917
visibility: 0.9999178051948547
","x: 241.71484375
y: 154.8457489013672
z: -0.33284369111061096
visibility: 0.9995427131652832
","x: 242.46279907226562
y: 154.81443786621094
z: -0.33289146423339844
visibility: 0.9996488094329834
","x: 243.18643188476562
y: 154.81661987304688
z: -0.3329406976699829
visibility: 0.999555230140686
","x: 238.85342407226562
y: 155.9517059326172
z: -0.3313232362270355
visibility: 0.9995446801185608
","x: 237.46755981445312
y: 156.7706298828125
z: -0.3313295245170593
visibility: 0.999610960483551
","x: 235.9531707763672
y: 157.73098754882812
z: -0.3313863277435303
visibility: 0.9995338916778564
","x: 243.3496551513672
y: 160.41358947753906
z: -0.2154538631439209
visibility: 0.9994576573371887
","x: 232.85743713378906
y: 164.6685028076172
z: -0.2066541612148285
visibility: 0.9995988011360168
","x: 244.82794189453125
y: 169.40826416015625
z: -0.30419546365737915
visibility: 0.9998990297317505
","x: 241.41998291015625
y: 171.91702270507812
z: -0.30176976323127747
visibility: 0.9998859763145447
","x: 263.28277587890625
y: 192.670654296875
z: -0.17043328285217285
visibility: 0.9999799728393555
","x: 219.0355682373047
y: 215.69029235839844
z: -0.08597732335329056
visibility: 0.9999301433563232
","x: 283.96197509765625
y: 191.1414337158203
z: -0.33069291710853577
visibility: 0.9914724826812744
","x: 214.4828338623047
y: 276.0469970703125
z: -0.02426488697528839
visibility: 0.9801260232925415
","x: 259.46075439453125
y: 159.6840362548828
z: -0.543174684047699
visibility: 0.9959049224853516
","x: 206.90383911132812
y: 324.31634521484375
z: -0.10919231176376343
visibility: 0.9849051833152771
","x: 250.49478149414062
y: 150.40484619140625
z: -0.5984574556350708
visibility: 0.9867711067199707
","x: 202.2607879638672
y: 339.9511413574219
z: -0.1307343989610672
visibility: 0.9702116250991821
","x: 248.1392059326172
y: 153.87986755371094
z: -0.5811108350753784
visibility: 0.9859344959259033
","x: 203.0821533203125
y: 340.2412109375
z: -0.16813111305236816
visibility: 0.9720479846000671
","x: 250.8297119140625
y: 159.0455322265625
z: -0.542230486869812
visibility: 0.9777945876121521
","x: 205.04013061523438
y: 335.5984191894531
z: -0.12618300318717957
visibility: 0.963227391242981
","x: 263.2393493652344
y: 320.6808776855469
z: -0.025203699246048927
visibility: 0.9999285340309143
","x: 237.65977478027344
y: 325.91192626953125
z: 0.0250624418258667
visibility: 0.9998804926872253
","x: 262.21087646484375
y: 404.094482421875
z: -0.012736290693283081
visibility: 0.9965925812721252
","x: 238.06378173828125
y: 411.186767578125
z: 0.058468230068683624
visibility: 0.9922056794166565
","x: 256.29736328125
y: 486.9159240722656
z: 0.24394135177135468
visibility: 0.9947513937950134
","x: 245.76109313964844
y: 482.4084167480469
z: 0.3095788359642029
visibility: 0.9922797083854675
","x: 256.0942077636719
y: 494.46905517578125
z: 0.2635369896888733
visibility: 0.9367353916168213
","x: 247.4033203125
y: 489.48895263671875
z: 0.3282323479652405
visibility: 0.9364592432975769
","x: 254.5158233642578
y: 514.5787963867188
z: 0.13332685828208923
visibility: 0.9939219951629639
","x: 240.49301147460938
y: 508.94793701171875
z: 0.20373642444610596
visibility: 0.9908824563026428
","x: 204.854248046875
y: 328.54132080078125
z: 0.0
","x: 200.93443298339844
y: 330.09234619140625
z: -0.0025292588397860527
","x: 197.462890625
y: 332.9319763183594
z: -0.0038732842076569796
","x: 194.79547119140625
y: 335.0915832519531
z: -0.0053773922845721245
","x: 192.53358459472656
y: 335.4891357421875
z: -0.006909163668751717
","x: 198.7769775390625
y: 344.26263427734375
z: -0.0015205066883936524
","x: 196.28866577148438
y: 351.11846923828125
z: -0.003769966773688793
","x: 194.80813598632812
y: 355.353271484375
z: -0.005520486272871494
","x: 193.5609130859375
y: 358.94525146484375
z: -0.006738055497407913
","x: 200.90736389160156
y: 346.7019958496094
z: -0.0024380891118198633
","x: 199.0716552734375
y: 354.93121337890625
z: -0.004155782517045736
","x: 197.90151977539062
y: 360.0181579589844
z: -0.005803851410746574
","x: 196.96275329589844
y: 364.2822570800781
z: -0.007199952378869057
","x: 203.1114501953125
y: 347.44921875
z: -0.0039002958219498396
","x: 202.070556640625
y: 354.97003173828125
z: -0.006290427874773741
","x: 201.25965881347656
y: 359.4085388183594
z: -0.00827802438288927
","x: 200.50669860839844
y: 363.12841796875
z: -0.009619486518204212
","x: 205.3921356201172
y: 346.60430908203125
z: -0.005751879885792732
","x: 205.50331115722656
y: 352.40423583984375
z: -0.007991909980773926
","x: 205.45361328125
y: 355.92083740234375
z: -0.009316069073975086
","x: 205.28115844726562
y: 358.945556640625
z: -0.010202238336205482
","x: 256.0632019042969
y: 155.43470764160156
z: 0.0
","x: 252.04115295410156
y: 159.31004333496094
z: -0.0008974091615527868
","x: 247.58294677734375
y: 160.27020263671875
z: -0.0021805253345519304
","x: 244.22573852539062
y: 160.0955810546875
z: -0.004184839315712452
","x: 241.70677185058594
y: 158.97421264648438
z: -0.006037605460733175
","x: 244.11569213867188
y: 146.42172241210938
z: 0.002081994665786624
","x: 240.09461975097656
y: 141.7630157470703
z: 3.0694111046614125e-05
","x: 237.4405517578125
y: 139.5794677734375
z: -0.0017760494956746697
","x: 235.3342742919922
y: 137.67877197265625
z: -0.002942217979580164
","x: 244.93475341796875
y: 142.87942504882812
z: 0.00012410993804223835
","x: 240.93487548828125
y: 138.04843139648438
z: -0.0016471992712467909
","x: 238.12948608398438
y: 135.14234924316406
z: -0.0031612508464604616
","x: 235.87661743164062
y: 132.80740356445312
z: -0.0042975363321602345
","x: 246.31658935546875
y: 140.12872314453125
z: -0.002503754571080208
","x: 242.70773315429688
y: 135.19573974609375
z: -0.004383913241326809
","x: 240.1370391845703
y: 132.18283081054688
z: -0.005359354428946972
","x: 238.16867065429688
y: 130.0692138671875
z: -0.006040706764906645
","x: 248.21099853515625
y: 138.2858428955078
z: -0.005577613599598408
","x: 245.65744018554688
y: 133.42347717285156
z: -0.007088467013090849
","x: 243.59652709960938
y: 130.59774780273438
z: -0.0076584662310779095
","x: 241.8313446044922
y: 128.66220092773438
z: -0.008054877631366253
"
3,"x: 242.72618103027344
y: 161.60459899902344
z: -0.350050687789917
visibility: 0.9999178051948547
","x: 241.71484375
y: 154.8457489013672
z: -0.33284369111061096
visibility: 0.9995427131652832
","x: 242.46279907226562
y: 154.81443786621094
z: -0.33289146423339844
visibility: 0.9996488094329834
","x: 243.18643188476562
y: 154.81661987304688
z: -0.3329406976699829
visibility: 0.999555230140686
","x: 238.85342407226562
y: 155.9517059326172
z: -0.3313232362270355
visibility: 0.9995446801185608
","x: 237.46755981445312
y: 156.7706298828125
z: -0.3313295245170593
visibility: 0.999610960483551
","x: 235.9531707763672
y: 157.73098754882812
z: -0.3313863277435303
visibility: 0.9995338916778564
","x: 243.3496551513672
y: 160.41358947753906
z: -0.2154538631439209
visibility: 0.9994576573371887
","x: 232.85743713378906
y: 164.6685028076172
z: -0.2066541612148285
visibility: 0.9995988011360168
","x: 244.82794189453125
y: 169.40826416015625
z: -0.30419546365737915
visibility: 0.9998990297317505
","x: 241.41998291015625
y: 171.91702270507812
z: -0.30176976323127747
visibility: 0.9998859763145447
","x: 263.28277587890625
y: 192.670654296875
z: -0.17043328285217285
visibility: 0.9999799728393555
","x: 219.0355682373047
y: 215.69029235839844
z: -0.08597732335329056
visibility: 0.9999301433563232
","x: 283.96197509765625
y: 191.1414337158203
z: -0.33069291710853577
visibility: 0.9914724826812744
","x: 214.4828338623047
y: 276.0469970703125
z: -0.02426488697528839
visibility: 0.9801260232925415
","x: 259.46075439453125
y: 159.6840362548828
z: -0.543174684047699
visibility: 0.9959049224853516
","x: 206.90383911132812
y: 324.31634521484375
z: -0.10919231176376343
visibility: 0.9849051833152771
","x: 250.49478149414062
y: 150.40484619140625
z: -0.5984574556350708
visibility: 0.9867711067199707
","x: 202.2607879638672
y: 339.9511413574219
z: -0.1307343989610672
visibility: 0.9702116250991821
","x: 248.1392059326172
y: 153.87986755371094
z: -0.5811108350753784
visibility: 0.9859344959259033
","x: 203.0821533203125
y: 340.2412109375
z: -0.16813111305236816
visibility: 0.9720479846000671
","x: 250.8297119140625
y: 159.0455322265625
z: -0.542230486869812
visibility: 0.9777945876121521
","x: 205.04013061523438
y: 335.5984191894531
z: -0.12618300318717957
visibility: 0.963227391242981
","x: 263.2393493652344
y: 320.6808776855469
z: -0.025203699246048927
visibility: 0.9999285340309143
","x: 237.65977478027344
y: 325.91192626953125
z: 0.0250624418258667
visibility: 0.9998804926872253
","x: 262.21087646484375
y: 404.094482421875
z: -0.012736290693283081
visibility: 0.9965925812721252
","x: 238.06378173828125
y: 411.186767578125
z: 0.058468230068683624
visibility: 0.9922056794166565
","x: 256.29736328125
y: 486.9159240722656
z: 0.24394135177135468
visibility: 0.9947513937950134
","x: 245.76109313964844
y: 482.4084167480469
z: 0.3095788359642029
visibility: 0.9922797083854675
","x: 256.0942077636719
y: 494.46905517578125
z: 0.2635369896888733
visibility: 0.9367353916168213
","x: 247.4033203125
y: 489.48895263671875
z: 0.3282323479652405
visibility: 0.9364592432975769
","x: 254.5158233642578
y: 514.5787963867188
z: 0.13332685828208923
visibility: 0.9939219951629639
","x: 240.49301147460938
y: 508.94793701171875
z: 0.20373642444610596
visibility: 0.9908824563026428
","x: 204.854248046875
y: 328.54132080078125
z: 0.0
","x: 200.93443298339844
y: 330.09234619140625
z: -0.0025292588397860527
","x: 197.462890625
y: 332.9319763183594
z: -0.0038732842076569796
","x: 194.79547119140625
y: 335.0915832519531
z: -0.0053773922845721245
","x: 192.53358459472656
y: 335.4891357421875
z: -0.006909163668751717
","x: 198.7769775390625
y: 344.26263427734375
z: -0.0015205066883936524
","x: 196.28866577148438
y: 351.11846923828125
z: -0.003769966773688793
","x: 194.80813598632812
y: 355.353271484375
z: -0.005520486272871494
","x: 193.5609130859375
y: 358.94525146484375
z: -0.006738055497407913
","x: 200.90736389160156
y: 346.7019958496094
z: -0.0024380891118198633
","x: 199.0716552734375
y: 354.93121337890625
z: -0.004155782517045736
","x: 197.90151977539062
y: 360.0181579589844
z: -0.005803851410746574
","x: 196.96275329589844
y: 364.2822570800781
z: -0.007199952378869057
","x: 203.1114501953125
y: 347.44921875
z: -0.0039002958219498396
","x: 202.070556640625
y: 354.97003173828125
z: -0.006290427874773741
","x: 201.25965881347656
y: 359.4085388183594
z: -0.00827802438288927
","x: 200.50669860839844
y: 363.12841796875
z: -0.009619486518204212
","x: 205.3921356201172
y: 346.60430908203125
z: -0.005751879885792732
","x: 205.50331115722656
y: 352.40423583984375
z: -0.007991909980773926
","x: 205.45361328125
y: 355.92083740234375
z: -0.009316069073975086
","x: 205.28115844726562
y: 358.945556640625
z: -0.010202238336205482
","x: 256.0632019042969
y: 155.43470764160156
z: 0.0
","x: 252.04115295410156
y: 159.31004333496094
z: -0.0008974091615527868
","x: 247.58294677734375
y: 160.27020263671875
z: -0.0021805253345519304
","x: 244.22573852539062
y: 160.0955810546875
z: -0.004184839315712452
","x: 241.70677185058594
y: 158.97421264648438
z: -0.006037605460733175
","x: 244.11569213867188
y: 146.42172241210938
z: 0.002081994665786624
","x: 240.09461975097656
y: 141.7630157470703
z: 3.0694111046614125e-05
","x: 237.4405517578125
y: 139.5794677734375
z: -0.0017760494956746697
","x: 235.3342742919922
y: 137.67877197265625
z: -0.002942217979580164
","x: 244.93475341796875
y: 142.87942504882812
z: 0.00012410993804223835
","x: 240.93487548828125
y: 138.04843139648438
z: -0.0016471992712467909
","x: 238.12948608398438
y: 135.14234924316406
z: -0.0031612508464604616
","x: 235.87661743164062
y: 132.80740356445312
z: -0.0042975363321602345
","x: 246.31658935546875
y: 140.12872314453125
z: -0.002503754571080208
","x: 242.70773315429688
y: 135.19573974609375
z: -0.004383913241326809
","x: 240.1370391845703
y: 132.18283081054688
z: -0.005359354428946972
","x: 238.16867065429688
y: 130.0692138671875
z: -0.006040706764906645
","x: 248.21099853515625
y: 138.2858428955078
z: -0.005577613599598408
","x: 245.65744018554688
y: 133.42347717285156
z: -0.007088467013090849
","x: 243.59652709960938
y: 130.59774780273438
z: -0.0076584662310779095
","x: 241.8313446044922
y: 128.66220092773438
z: -0.008054877631366253
"
4,"x: 242.72618103027344
y: 161.60459899902344
z: -0.350050687789917
visibility: 0.9999178051948547
","x: 241.71484375
y: 154.8457489013672
z: -0.33284369111061096
visibility: 0.9995427131652832
","x: 242.46279907226562
y: 154.81443786621094
z: -0.33289146423339844
visibility: 0.9996488094329834
","x: 243.18643188476562
y: 154.81661987304688
z: -0.3329406976699829
visibility: 0.999555230140686
","x: 238.85342407226562
y: 155.9517059326172
z: -0.3313232362270355
visibility: 0.9995446801185608
","x: 237.46755981445312
y: 156.7706298828125
z: -0.3313295245170593
visibility: 0.999610960483551
","x: 235.9531707763672
y: 157.73098754882812
z: -0.3313863277435303
visibility: 0.9995338916778564
","x: 243.3496551513672
y: 160.41358947753906
z: -0.2154538631439209
visibility: 0.9994576573371887
","x: 232.85743713378906
y: 164.6685028076172
z: -0.2066541612148285
visibility: 0.9995988011360168
","x: 244.82794189453125
y: 169.40826416015625
z: -0.30419546365737915
visibility: 0.9998990297317505
","x: 241.41998291015625
y: 171.91702270507812
z: -0.30176976323127747
visibility: 0.9998859763145447
","x: 263.28277587890625
y: 192.670654296875
z: -0.17043328285217285
visibility: 0.9999799728393555
","x: 219.0355682373047
y: 215.69029235839844
z: -0.08597732335329056
visibility: 0.9999301433563232
","x: 283.96197509765625
y: 191.1414337158203
z: -0.33069291710853577
visibility: 0.9914724826812744
","x: 214.4828338623047
y: 276.0469970703125
z: -0.02426488697528839
visibility: 0.9801260232925415
","x: 259.46075439453125
y: 159.6840362548828
z: -0.543174684047699
visibility: 0.9959049224853516
","x: 206.90383911132812
y: 324.31634521484375
z: -0.10919231176376343
visibility: 0.9849051833152771
","x: 250.49478149414062
y: 150.40484619140625
z: -0.5984574556350708
visibility: 0.9867711067199707
","x: 202.2607879638672
y: 339.9511413574219
z: -0.1307343989610672
visibility: 0.9702116250991821
","x: 248.1392059326172
y: 153.87986755371094
z: -0.5811108350753784
visibility: 0.9859344959259033
","x: 203.0821533203125
y: 340.2412109375
z: -0.16813111305236816
visibility: 0.9720479846000671
","x: 250.8297119140625
y: 159.0455322265625
z: -0.542230486869812
visibility: 0.9777945876121521
","x: 205.04013061523438
y: 335.5984191894531
z: -0.12618300318717957
visibility: 0.963227391242981
","x: 263.2393493652344
y: 320.6808776855469
z: -0.025203699246048927
visibility: 0.9999285340309143
","x: 237.65977478027344
y: 325.91192626953125
z: 0.0250624418258667
visibility: 0.9998804926872253
","x: 262.21087646484375
y: 404.094482421875
z: -0.012736290693283081
visibility: 0.9965925812721252
","x: 238.06378173828125
y: 411.186767578125
z: 0.058468230068683624
visibility: 0.9922056794166565
","x: 256.29736328125
y: 486.9159240722656
z: 0.24394135177135468
visibility: 0.9947513937950134
","x: 245.76109313964844
y: 482.4084167480469
z: 0.3095788359642029
visibility: 0.9922797083854675
","x: 256.0942077636719
y: 494.46905517578125
z: 0.2635369896888733
visibility: 0.9367353916168213
","x: 247.4033203125
y: 489.48895263671875
z: 0.3282323479652405
visibility: 0.9364592432975769
","x: 254.5158233642578
y: 514.5787963867188
z: 0.13332685828208923
visibility: 0.9939219951629639
","x: 240.49301147460938
y: 508.94793701171875
z: 0.20373642444610596
visibility: 0.9908824563026428
","x: 204.854248046875
y: 328.54132080078125
z: 0.0
","x: 200.93443298339844
y: 330.09234619140625
z: -0.0025292588397860527
","x: 197.462890625
y: 332.9319763183594
z: -0.0038732842076569796
","x: 194.79547119140625
y: 335.0915832519531
z: -0.0053773922845721245
","x: 192.53358459472656
y: 335.4891357421875
z: -0.006909163668751717
","x: 198.7769775390625
y: 344.26263427734375
z: -0.0015205066883936524
","x: 196.28866577148438
y: 351.11846923828125
z: -0.003769966773688793
","x: 194.80813598632812
y: 355.353271484375
z: -0.005520486272871494
","x: 193.5609130859375
y: 358.94525146484375
z: -0.006738055497407913
","x: 200.90736389160156
y: 346.7019958496094
z: -0.0024380891118198633
","x: 199.0716552734375
y: 354.93121337890625
z: -0.004155782517045736
","x: 197.90151977539062
y: 360.0181579589844
z: -0.005803851410746574
","x: 196.96275329589844
y: 364.2822570800781
z: -0.007199952378869057
","x: 203.1114501953125
y: 347.44921875
z: -0.0039002958219498396
","x: 202.070556640625
y: 354.97003173828125
z: -0.006290427874773741
","x: 201.25965881347656
y: 359.4085388183594
z: -0.00827802438288927
","x: 200.50669860839844
y: 363.12841796875
z: -0.009619486518204212
","x: 205.3921356201172
y: 346.60430908203125
z: -0.005751879885792732
","x: 205.50331115722656
y: 352.40423583984375
z: -0.007991909980773926
","x: 205.45361328125
y: 355.92083740234375
z: -0.009316069073975086
","x: 205.28115844726562
y: 358.945556640625
z: -0.010202238336205482
","x: 256.0632019042969
y: 155.43470764160156
z: 0.0
","x: 252.04115295410156
y: 159.31004333496094
z: -0.0008974091615527868
","x: 247.58294677734375
y: 160.27020263671875
z: -0.0021805253345519304
","x: 244.22573852539062
y: 160.0955810546875
z: -0.004184839315712452
","x: 241.70677185058594
y: 158.97421264648438
z: -0.006037605460733175
","x: 244.11569213867188
y: 146.42172241210938
z: 0.002081994665786624
","x: 240.09461975097656
y: 141.7630157470703
z: 3.0694111046614125e-05
","x: 237.4405517578125
y: 139.5794677734375
z: -0.0017760494956746697
","x: 235.3342742919922
y: 137.67877197265625
z: -0.002942217979580164
","x: 244.93475341796875
y: 142.87942504882812
z: 0.00012410993804223835
","x: 240.93487548828125
y: 138.04843139648438
z: -0.0016471992712467909
","x: 238.12948608398438
y: 135.14234924316406
z: -0.0031612508464604616
","x: 235.87661743164062
y: 132.80740356445312
z: -0.0042975363321602345
","x: 246.31658935546875
y: 140.12872314453125
z: -0.002503754571080208
","x: 242.70773315429688
y: 135.19573974609375
z: -0.004383913241326809
","x: 240.1370391845703
y: 132.18283081054688
z: -0.005359354428946972
","x: 238.16867065429688
y: 130.0692138671875
z: -0.006040706764906645
","x: 248.21099853515625
y: 138.2858428955078
z: -0.005577613599598408
","x: 245.65744018554688
y: 133.42347717285156
z: -0.007088467013090849
","x: 243.59652709960938
y: 130.59774780273438
z: -0.0076584662310779095
","x: 241.8313446044922
y: 128.66220092773438
z: -0.008054877631366253
"
5,"x: 236.0742950439453
y: 158.64686584472656
z: -0.3731979727745056
visibility: 0.9997778534889221
","x: 234.56845092773438
y: 150.27713012695312
z: -0.35904598236083984
visibility: 0.9987790584564209
","x: 235.03460693359375
y: 149.82257080078125
z: -0.3590936064720154
visibility: 0.9991022348403931
","x: 235.4929962158203
y: 149.3604736328125
z: -0.3591553568840027
visibility: 0.9988870620727539
","x: 232.30816650390625
y: 152.0645751953125
z: -0.35617712140083313
visibility: 0.9987325668334961
","x: 230.99403381347656
y: 152.97044372558594
z: -0.3561956584453583
visibility: 0.9989334344863892
","x: 229.72750854492188
y: 154.05307006835938
z: -0.35627347230911255
visibility: 0.9987711906433105
","x: 236.10252380371094
y: 152.6606903076172
z: -0.2463802546262741
visibility: 0.9988223314285278
","x: 227.29400634765625
y: 160.22915649414062
z: -0.22973135113716125
visibility: 0.9988790154457092
","x: 238.6791229248047
y: 165.525146484375
z: -0.3278252184391022
visibility: 0.9997771382331848
","x: 235.8704833984375
y: 168.44418334960938
z: -0.3233260214328766
visibility: 0.9997004866600037
","x: 258.71514892578125
y: 186.20700073242188
z: -0.19335010647773743
visibility: 0.9999719262123108
","x: 215.58123779296875
y: 215.69207763671875
z: -0.10359014570713043
visibility: 0.99988853931427
","x: 283.9492492675781
y: 183.44183349609375
z: -0.3646091818809509
visibility: 0.9921628832817078
","x: 213.34747314453125
y: 277.0311584472656
z: -0.03471636027097702
visibility: 0.9751437902450562
","x: 254.06027221679688
y: 156.21047973632812
z: -0.5772845149040222
visibility: 0.9952834248542786
","x: 204.8468780517578
y: 327.682373046875
z: -0.11323493719100952
visibility: 0.981388509273529
","x: 245.56582641601562
y: 146.44265747070312
z: -0.6296607255935669
visibility: 0.9835472702980042
","x: 199.92320251464844
y: 343.783447265625
z: -0.13195711374282837
visibility: 0.9646351933479309
","x: 243.71763610839844
y: 149.68344116210938
z: -0.6091777086257935
visibility: 0.9821524620056152
","x: 200.90318298339844
y: 343.52899169921875
z: -0.1694861352443695
visibility: 0.9667428731918335
","x: 246.2313690185547
y: 155.44110107421875
z: -0.5747000575065613
visibility: 0.9724314212799072
","x: 203.0907440185547
y: 339.1016845703125
z: -0.12995244562625885
visibility: 0.9564541578292847
","x: 259.92034912109375
y: 318.147705078125
z: -0.028530556708574295
visibility: 0.9998941421508789
","x: 234.30613708496094
y: 322.0418701171875
z: 0.028357649222016335
visibility: 0.9998040795326233
","x: 260.01776123046875
y: 401.22454833984375
z: -0.01376457791775465
visibility: 0.9947206377983093
","x: 236.24574279785156
y: 409.1349792480469
z: 0.05328845977783203
visibility: 0.9876300096511841
","x: 253.59552001953125
y: 482.8094482421875
z: 0.24301066994667053
visibility: 0.9916597008705139
","x: 244.2209014892578
y: 482.1315002441406
z: 0.3005714416503906
visibility: 0.9883223176002502
","x: 253.05673217773438
y: 488.230712890625
z: 0.2627522349357605
visibility: 0.9179882407188416
","x: 245.72711181640625
y: 488.9783020019531
z: 0.31887006759643555
visibility: 0.9188434481620789
","x: 252.17559814453125
y: 511.76837158203125
z: 0.13408978283405304
visibility: 0.9908452033996582
","x: 240.76589965820312
y: 508.60662841796875
z: 0.1961277276277542
visibility: 0.987547755241394
","x: 204.9036102294922
y: 329.979736328125
z: 0.0
","x: 201.0360565185547
y: 330.39398193359375
z: -0.0030568756628781557
","x: 197.54002380371094
y: 332.5256652832031
z: -0.004682512022554874
","x: 195.3461151123047
y: 334.8107604980469
z: -0.006499323062598705
","x: 193.91993713378906
y: 336.6241455078125
z: -0.008315172977745533
","x: 198.1766357421875
y: 345.94073486328125
z: -0.0011294018477201462
","x: 195.9430694580078
y: 352.68121337890625
z: -0.0035092609468847513
","x: 194.65859985351562
y: 356.841796875
z: -0.005589447915554047
","x: 193.59722900390625
y: 360.4875183105469
z: -0.007062159013003111
","x: 200.40267944335938
y: 348.3359069824219
z: -0.0020357989706099033
","x: 198.82156372070312
y: 356.118896484375
z: -0.0039501190185546875
","x: 197.64895629882812
y: 361.1128234863281
z: -0.005946727003902197
","x: 196.69627380371094
y: 365.2575988769531
z: -0.007595275994390249
","x: 202.8306121826172
y: 348.8280029296875
z: -0.003633249783888459
","x: 202.0569305419922
y: 356.1609191894531
z: -0.0062465122900903225
","x: 201.2064208984375
y: 360.7886047363281
z: -0.008543303236365318
","x: 200.39781188964844
y: 364.4176940917969
z: -0.01009843498468399
","x: 205.4462890625
y: 347.5796203613281
z: -0.005699440371245146
","x: 205.74937438964844
y: 353.1576232910156
z: -0.0080695990473032
","x: 205.73416137695312
y: 356.6625671386719
z: -0.009598342701792717
","x: 205.5094451904297
y: 359.49334716796875
z: -0.010663996450603008
","x: 254.718994140625
y: 153.86599731445312
z: 0.0
","x: 250.20387268066406
y: 157.2401580810547
z: 0.0009742928086780012
","x: 246.197998046875
y: 158.62777709960938
z: 0.00023358834732789546
","x: 243.19705200195312
y: 159.88858032226562
z: -0.0015060375444591045
","x: 240.9656219482422
y: 160.21604919433594
z: -0.003148447023704648
","x: 242.80575561523438
y: 146.3650665283203
z: 0.0033954200334846973
","x: 239.17279052734375
y: 142.32623291015625
z: 0.0015036588301882148
","x: 236.71238708496094
y: 140.99081420898438
z: -0.00014482333790510893
","x: 234.68162536621094
y: 140.3236541748047
z: -0.0011148264165967703
","x: 243.473876953125
y: 143.58558654785156
z: 0.0005711055127903819
","x: 239.47987365722656
y: 139.05465698242188
z: -0.0009785019792616367
","x: 236.72862243652344
y: 137.37155151367188
z: -0.0024280601646751165
","x: 234.39093017578125
y: 136.38861083984375
z: -0.0034717218950390816
","x: 244.634033203125
y: 141.37542724609375
z: -0.0027505685575306416
","x: 241.0701904296875
y: 136.44390869140625
z: -0.00430099805817008
","x: 238.5405731201172
y: 134.1982421875
z: -0.005069553852081299
","x: 236.45455932617188
y: 132.86183166503906
z: -0.005614963360130787
","x: 246.25363159179688
y: 139.98487854003906
z: -0.00634023267775774
","x: 243.55319213867188
y: 134.8599090576172
z: -0.0074347686022520065
","x: 241.36636352539062
y: 132.14903259277344
z: -0.007670636288821697
","x: 239.36962890625
y: 130.29202270507812
z: -0.00785873457789421
"
6,"x: 236.0742950439453
y: 158.64686584472656
z: -0.3731979727745056
visibility: 0.9997778534889221
","x: 234.56845092773438
y: 150.27713012695312
z: -0.35904598236083984
visibility: 0.9987790584564209
","x: 235.03460693359375
y: 149.82257080078125
z: -0.3590936064720154
visibility: 0.9991022348403931
","x: 235.4929962158203
y: 149.3604736328125
z: -0.3591553568840027
visibility: 0.9988870620727539
","x: 232.30816650390625
y: 152.0645751953125
z: -0.35617712140083313
visibility: 0.9987325668334961
","x: 230.99403381347656
y: 152.97044372558594
z: -0.3561956584453583
visibility: 0.9989334344863892
","x: 229.72750854492188
y: 154.05307006835938
z: -0.35627347230911255
visibility: 0.9987711906433105
","x: 236.10252380371094
y: 152.6606903076172
z: -0.2463802546262741
visibility: 0.9988223314285278
","x: 227.29400634765625
y: 160.22915649414062
z: -0.22973135113716125
visibility: 0.9988790154457092
","x: 238.6791229248047
y: 165.525146484375
z: -0.3278252184391022
visibility: 0.9997771382331848
","x: 235.8704833984375
y: 168.44418334960938
z: -0.3233260214328766
visibility: 0.9997004866600037
","x: 258.71514892578125
y: 186.20700073242188
z: -0.19335010647773743
visibility: 0.9999719262123108
","x: 215.58123779296875
y: 215.69207763671875
z: -0.10359014570713043
visibility: 0.99988853931427
","x: 283.9492492675781
y: 183.44183349609375
z: -0.3646091818809509
visibility: 0.9921628832817078
","x: 213.34747314453125
y: 277.0311584472656
z: -0.03471636027097702
visibility: 0.9751437902450562
","x: 254.06027221679688
y: 156.21047973632812
z: -0.5772845149040222
visibility: 0.9952834248542786
","x: 204.8468780517578
y: 327.682373046875
z: -0.11323493719100952
visibility: 0.981388509273529
","x: 245.56582641601562
y: 146.44265747070312
z: -0.6296607255935669
visibility: 0.9835472702980042
","x: 199.92320251464844
y: 343.783447265625
z: -0.13195711374282837
visibility: 0.9646351933479309
","x: 243.71763610839844
y: 149.68344116210938
z: -0.6091777086257935
visibility: 0.9821524620056152
","x: 200.90318298339844
y: 343.52899169921875
z: -0.1694861352443695
visibility: 0.9667428731918335
","x: 246.2313690185547
y: 155.44110107421875
z: -0.5747000575065613
visibility: 0.9724314212799072
","x: 203.0907440185547
y: 339.1016845703125
z: -0.12995244562625885
visibility: 0.9564541578292847
","x: 259.92034912109375
y: 318.147705078125
z: -0.028530556708574295
visibility: 0.9998941421508789
","x: 234.30613708496094
y: 322.0418701171875
z: 0.028357649222016335
visibility: 0.9998040795326233
","x: 260.01776123046875
y: 401.22454833984375
z: -0.01376457791775465
visibility: 0.9947206377983093
","x: 236.24574279785156
y: 409.1349792480469
z: 0.05328845977783203
visibility: 0.9876300096511841
","x: 253.59552001953125
y: 482.8094482421875
z: 0.24301066994667053
visibility: 0.9916597008705139
","x: 244.2209014892578
y: 482.1315002441406
z: 0.3005714416503906
visibility: 0.9883223176002502
","x: 253.05673217773438
y: 488.230712890625
z: 0.2627522349357605
visibility: 0.9179882407188416
","x: 245.72711181640625
y: 488.9783020019531
z: 0.31887006759643555
visibility: 0.9188434481620789
","x: 252.17559814453125
y: 511.76837158203125
z: 0.13408978283405304
visibility: 0.9908452033996582
","x: 240.76589965820312
y: 508.60662841796875
z: 0.1961277276277542
visibility: 0.987547755241394
","x: 204.9036102294922
y: 329.979736328125
z: 0.0
","x: 201.0360565185547
y: 330.39398193359375
z: -0.0030568756628781557
","x: 197.54002380371094
y: 332.5256652832031
z: -0.004682512022554874
","x: 195.3461151123047
y: 334.8107604980469
z: -0.006499323062598705
","x: 193.91993713378906
y: 336.6241455078125
z: -0.008315172977745533
","x: 198.1766357421875
y: 345.94073486328125
z: -0.0011294018477201462
","x: 195.9430694580078
y: 352.68121337890625
z: -0.0035092609468847513
","x: 194.65859985351562
y: 356.841796875
z: -0.005589447915554047
","x: 193.59722900390625
y: 360.4875183105469
z: -0.007062159013003111
","x: 200.40267944335938
y: 348.3359069824219
z: -0.0020357989706099033
","x: 198.82156372070312
y: 356.118896484375
z: -0.0039501190185546875
","x: 197.64895629882812
y: 361.1128234863281
z: -0.005946727003902197
","x: 196.69627380371094
y: 365.2575988769531
z: -0.007595275994390249
","x: 202.8306121826172
y: 348.8280029296875
z: -0.003633249783888459
","x: 202.0569305419922
y: 356.1609191894531
z: -0.0062465122900903225
","x: 201.2064208984375
y: 360.7886047363281
z: -0.008543303236365318
","x: 200.39781188964844
y: 364.4176940917969
z: -0.01009843498468399
","x: 205.4462890625
y: 347.5796203613281
z: -0.005699440371245146
","x: 205.74937438964844
y: 353.1576232910156
z: -0.0080695990473032
","x: 205.73416137695312
y: 356.6625671386719
z: -0.009598342701792717
","x: 205.5094451904297
y: 359.49334716796875
z: -0.010663996450603008
","x: 254.718994140625
y: 153.86599731445312
z: 0.0
","x: 250.20387268066406
y: 157.2401580810547
z: 0.0009742928086780012
","x: 246.197998046875
y: 158.62777709960938
z: 0.00023358834732789546
","x: 243.19705200195312
y: 159.88858032226562
z: -0.0015060375444591045
","x: 240.9656219482422
y: 160.21604919433594
z: -0.003148447023704648
","x: 242.80575561523438
y: 146.3650665283203
z: 0.0033954200334846973
","x: 239.17279052734375
y: 142.32623291015625
z: 0.0015036588301882148
","x: 236.71238708496094
y: 140.99081420898438
z: -0.00014482333790510893
","x: 234.68162536621094
y: 140.3236541748047
z: -0.0011148264165967703
","x: 243.473876953125
y: 143.58558654785156
z: 0.0005711055127903819
","x: 239.47987365722656
y: 139.05465698242188
z: -0.0009785019792616367
","x: 236.72862243652344
y: 137.37155151367188
z: -0.0024280601646751165
","x: 234.39093017578125
y: 136.38861083984375
z: -0.0034717218950390816
","x: 244.634033203125
y: 141.37542724609375
z: -0.0027505685575306416
","x: 241.0701904296875
y: 136.44390869140625
z: -0.00430099805817008
","x: 238.5405731201172
y: 134.1982421875
z: -0.005069553852081299
","x: 236.45455932617188
y: 132.86183166503906
z: -0.005614963360130787
","x: 246.25363159179688
y: 139.98487854003906
z: -0.00634023267775774
","x: 243.55319213867188
y: 134.8599090576172
z: -0.0074347686022520065
","x: 241.36636352539062
y: 132.14903259277344
z: -0.007670636288821697
","x: 239.36962890625
y: 130.29202270507812
z: -0.00785873457789421
"
7,"x: 236.0742950439453
y: 158.64686584472656
z: -0.3731979727745056
visibility: 0.9997778534889221
","x: 234.56845092773438
y: 150.27713012695312
z: -0.35904598236083984
visibility: 0.9987790584564209
","x: 235.03460693359375
y: 149.82257080078125
z: -0.3590936064720154
visibility: 0.9991022348403931
","x: 235.4929962158203
y: 149.3604736328125
z: -0.3591553568840027
visibility: 0.9988870620727539
","x: 232.30816650390625
y: 152.0645751953125
z: -0.35617712140083313
visibility: 0.9987325668334961
","x: 230.99403381347656
y: 152.97044372558594
z: -0.3561956584453583
visibility: 0.9989334344863892
","x: 229.72750854492188
y: 154.05307006835938
z: -0.35627347230911255
visibility: 0.9987711906433105
","x: 236.10252380371094
y: 152.6606903076172
z: -0.2463802546262741
visibility: 0.9988223314285278
","x: 227.29400634765625
y: 160.22915649414062
z: -0.22973135113716125
visibility: 0.9988790154457092
","x: 238.6791229248047
y: 165.525146484375
z: -0.3278252184391022
visibility: 0.9997771382331848
","x: 235.8704833984375
y: 168.44418334960938
z: -0.3233260214328766
visibility: 0.9997004866600037
","x: 258.71514892578125
y: 186.20700073242188
z: -0.19335010647773743
visibility: 0.9999719262123108
","x: 215.58123779296875
y: 215.69207763671875
z: -0.10359014570713043
visibility: 0.99988853931427
","x: 283.9492492675781
y: 183.44183349609375
z: -0.3646091818809509
visibility: 0.9921628832817078
","x: 213.34747314453125
y: 277.0311584472656
z: -0.03471636027097702
visibility: 0.9751437902450562
","x: 254.06027221679688
y: 156.21047973632812
z: -0.5772845149040222
visibility: 0.9952834248542786
","x: 204.8468780517578
y: 327.682373046875
z: -0.11323493719100952
visibility: 0.981388509273529
","x: 245.56582641601562
y: 146.44265747070312
z: -0.6296607255935669
visibility: 0.9835472702980042
","x: 199.92320251464844
y: 343.783447265625
z: -0.13195711374282837
visibility: 0.9646351933479309
","x: 243.71763610839844
y: 149.68344116210938
z: -0.6091777086257935
visibility: 0.9821524620056152
","x: 200.90318298339844
y: 343.52899169921875
z: -0.1694861352443695
visibility: 0.9667428731918335
","x: 246.2313690185547
y: 155.44110107421875
z: -0.5747000575065613
visibility: 0.9724314212799072
","x: 203.0907440185547
y: 339.1016845703125
z: -0.12995244562625885
visibility: 0.9564541578292847
","x: 259.92034912109375
y: 318.147705078125
z: -0.028530556708574295
visibility: 0.9998941421508789
","x: 234.30613708496094
y: 322.0418701171875
z: 0.028357649222016335
visibility: 0.9998040795326233
","x: 260.01776123046875
y: 401.22454833984375
z: -0.01376457791775465
visibility: 0.9947206377983093
","x: 236.24574279785156
y: 409.1349792480469
z: 0.05328845977783203
visibility: 0.9876300096511841
","x: 253.59552001953125
y: 482.8094482421875
z: 0.24301066994667053
visibility: 0.9916597008705139
","x: 244.2209014892578
y: 482.1315002441406
z: 0.3005714416503906
visibility: 0.9883223176002502
","x: 253.05673217773438
y: 488.230712890625
z: 0.2627522349357605
visibility: 0.9179882407188416
","x: 245.72711181640625
y: 488.9783020019531
z: 0.31887006759643555
visibility: 0.9188434481620789
","x: 252.17559814453125
y: 511.76837158203125
z: 0.13408978283405304
visibility: 0.9908452033996582
","x: 240.76589965820312
y: 508.60662841796875
z: 0.1961277276277542
visibility: 0.987547755241394
","x: 204.9036102294922
y: 329.979736328125
z: 0.0
","x: 201.0360565185547
y: 330.39398193359375
z: -0.0030568756628781557
","x: 197.54002380371094
y: 332.5256652832031
z: -0.004682512022554874
","x: 195.3461151123047
y: 334.8107604980469
z: -0.006499323062598705
","x: 193.91993713378906
y: 336.6241455078125
z: -0.008315172977745533
","x: 198.1766357421875
y: 345.94073486328125
z: -0.0011294018477201462
","x: 195.9430694580078
y: 352.68121337890625
z: -0.0035092609468847513
","x: 194.65859985351562
y: 356.841796875
z: -0.005589447915554047
","x: 193.59722900390625
y: 360.4875183105469
z: -0.007062159013003111
","x: 200.40267944335938
y: 348.3359069824219
z: -0.0020357989706099033
","x: 198.82156372070312
y: 356.118896484375
z: -0.0039501190185546875
","x: 197.64895629882812
y: 361.1128234863281
z: -0.005946727003902197
","x: 196.69627380371094
y: 365.2575988769531
z: -0.007595275994390249
","x: 202.8306121826172
y: 348.8280029296875
z: -0.003633249783888459
","x: 202.0569305419922
y: 356.1609191894531
z: -0.0062465122900903225
","x: 201.2064208984375
y: 360.7886047363281
z: -0.008543303236365318
","x: 200.39781188964844
y: 364.4176940917969
z: -0.01009843498468399
","x: 205.4462890625
y: 347.5796203613281
z: -0.005699440371245146
","x: 205.74937438964844
y: 353.1576232910156
z: -0.0080695990473032
","x: 205.73416137695312
y: 356.6625671386719
z: -0.009598342701792717
","x: 205.5094451904297
y: 359.49334716796875
z: -0.010663996450603008
","x: 254.718994140625
y: 153.86599731445312
z: 0.0
","x: 250.20387268066406
y: 157.2401580810547
z: 0.0009742928086780012
","x: 246.197998046875
y: 158.62777709960938
z: 0.00023358834732789546
","x: 243.19705200195312
y: 159.88858032226562
z: -0.0015060375444591045
","x: 240.9656219482422
y: 160.21604919433594
z: -0.003148447023704648
","x: 242.80575561523438
y: 146.3650665283203
z: 0.0033954200334846973
","x: 239.17279052734375
y: 142.32623291015625
z: 0.0015036588301882148
","x: 236.71238708496094
y: 140.99081420898438
z: -0.00014482333790510893
","x: 234.68162536621094
y: 140.3236541748047
z: -0.0011148264165967703
","x: 243.473876953125
y: 143.58558654785156
z: 0.0005711055127903819
","x: 239.47987365722656
y: 139.05465698242188
z: -0.0009785019792616367
","x: 236.72862243652344
y: 137.37155151367188
z: -0.0024280601646751165
","x: 234.39093017578125
y: 136.38861083984375
z: -0.0034717218950390816
","x: 244.634033203125
y: 141.37542724609375
z: -0.0027505685575306416
","x: 241.0701904296875
y: 136.44390869140625
z: -0.00430099805817008
","x: 238.5405731201172
y: 134.1982421875
z: -0.005069553852081299
","x: 236.45455932617188
y: 132.86183166503906
z: -0.005614963360130787
","x: 246.25363159179688
y: 139.98487854003906
z: -0.00634023267775774
","x: 243.55319213867188
y: 134.8599090576172
z: -0.0074347686022520065
","x: 241.36636352539062
y: 132.14903259277344
z: -0.007670636288821697
","x: 239.36962890625
y: 130.29202270507812
z: -0.00785873457789421
"
8,"x: 228.0859832763672
y: 154.26588439941406
z: -0.2583172619342804
visibility: 0.9996598958969116
","x: 226.84803771972656
y: 147.68548583984375
z: -0.24103565514087677
visibility: 0.998259961605072
","x: 227.47952270507812
y: 147.42169189453125
z: -0.2411022186279297
visibility: 0.9986934065818787
","x: 228.11917114257812
y: 147.13983154296875
z: -0.2411610335111618
visibility: 0.9984615445137024
","x: 224.31912231445312
y: 149.62734985351562
z: -0.23481003940105438
visibility: 0.9981070160865784
","x: 223.06781005859375
y: 150.98944091796875
z: -0.2347978800535202
visibility: 0.9983850717544556
","x: 221.72320556640625
y: 152.61767578125
z: -0.23486848175525665
visibility: 0.9981295466423035
","x: 229.41978454589844
y: 151.69317626953125
z: -0.14025601744651794
visibility: 0.9983245134353638
","x: 219.97000122070312
y: 160.50843811035156
z: -0.10976962000131607
visibility: 0.9980658292770386
","x: 231.41249084472656
y: 161.40139770507812
z: -0.22013375163078308
visibility: 0.9996634125709534
","x: 228.315673828125
y: 164.29421997070312
z: -0.21106939017772675
visibility: 0.999482274055481
","x: 255.1623077392578
y: 187.1090545654297
z: -0.13065959513187408
visibility: 0.9999535083770752
","x: 212.35516357421875
y: 215.4344940185547
z: -0.023188099265098572
visibility: 0.9996801614761353
","x: 283.45220947265625
y: 182.35365295410156
z: -0.2693468928337097
visibility: 0.9926849603652954
","x: 213.60568237304688
y: 270.3987731933594
z: 0.001962896902114153
visibility: 0.9520661234855652
","x: 254.88742065429688
y: 148.47352600097656
z: -0.45264822244644165
visibility: 0.9943624138832092
","x: 206.93896484375
y: 308.5039978027344
z: -0.10502272844314575
visibility: 0.9597979187965393
","x: 248.0897674560547
y: 138.46194458007812
z: -0.5001196265220642
visibility: 0.979478657245636
","x: 205.2857666015625
y: 319.4254455566406
z: -0.1279592663049698
visibility: 0.9381586313247681
","x: 245.98300170898438
y: 141.0221710205078
z: -0.4743736684322357
visibility: 0.9774462580680847
","x: 206.01348876953125
y: 318.9471130371094
z: -0.16017135977745056
visibility: 0.9406089782714844
","x: 247.4484405517578
y: 146.56703186035156
z: -0.4456309676170349
visibility: 0.9664024114608765
","x: 208.07553100585938
y: 315.768798828125
z: -0.12101910263299942
visibility: 0.9271789193153381
","x: 258.1398620605469
y: 316.993896484375
z: -0.02685145102441311
visibility: 0.9998741149902344
","x: 232.37986755371094
y: 321.35101318359375
z: 0.026718750596046448
visibility: 0.9997525811195374
","x: 257.5502014160156
y: 400.0169372558594
z: 0.002011811826378107
visibility: 0.993320107460022
","x: 235.29940795898438
y: 407.3424072265625
z: 0.04785407334566116
visibility: 0.9854550361633301
","x: 253.10223388671875
y: 482.1667785644531
z: 0.26347029209136963
visibility: 0.9891898036003113
","x: 242.4317626953125
y: 481.62481689453125
z: 0.29610317945480347
visibility: 0.9863640069961548
","x: 252.25936889648438
y: 488.0871276855469
z: 0.283687949180603
visibility: 0.8987162709236145
","x: 244.18905639648438
y: 488.10125732421875
z: 0.3145394027233124
visibility: 0.9051044583320618
","x: 252.02813720703125
y: 510.9814758300781
z: 0.15701808035373688
visibility: 0.9885619878768921
","x: 240.86236572265625
y: 508.2386779785156
z: 0.19316813349723816
visibility: 0.9858103394508362
",,,,,,,,,,,,,,,,,,,,,,,,,,,,,,,,,,,,,,,,,,
9,"x: 223.43463134765625
y: 153.83645629882812
z: -0.2415899932384491
visibility: 0.9996058940887451
","x: 222.14935302734375
y: 147.9215087890625
z: -0.22008006274700165
visibility: 0.9981390833854675
","x: 222.89993286132812
y: 147.5245361328125
z: -0.220111683011055
visibility: 0.9985495209693909
","x: 223.7291259765625
y: 147.08985900878906
z: -0.22015945613384247
visibility: 0.9983245134353638
","x: 219.662353515625
y: 150.221435546875
z: -0.21893391013145447
visibility: 0.9979937672615051
","x: 218.49658203125
y: 151.6945037841797
z: -0.2189342975616455
visibility: 0.9982888698577881
","x: 217.1924285888672
y: 153.37088012695312
z: -0.21899917721748352
visibility: 0.998055100440979
","x: 225.5390625
y: 151.7800750732422
z: -0.10643760859966278
visibility: 0.9981414079666138
","x: 215.18634033203125
y: 161.0814208984375
z: -0.09964179247617722
visibility: 0.9979960322380066
","x: 227.56179809570312
y: 161.26986694335938
z: -0.19957616925239563
visibility: 0.9996119141578674
","x: 224.18800354003906
y: 164.42391967773438
z: -0.19760264456272125
visibility: 0.9994233250617981
","x: 253.2860107421875
y: 186.82275390625
z: -0.0650315135717392
visibility: 0.999923825263977
","x: 209.5869140625
y: 216.0862579345703
z: -0.04063171148300171
visibility: 0.9995271563529968
","x: 283.4303283691406
y: 183.58970642089844
z: -0.20456723868846893
visibility: 0.992986798286438
","x: 210.71786499023438
y: 270.8093566894531
z: -0.08802331984043121
visibility: 0.9468989372253418
","x: 258.0419921875
y: 148.04095458984375
z: -0.358870267868042
visibility: 0.9929198622703552
","x: 217.5436248779297
y: 290.34814453125
z: -0.22157490253448486
visibility: 0.9510023593902588
","x: 250.8891143798828
y: 138.33233642578125
z: -0.40342339873313904
visibility: 0.9735662937164307
","x: 221.4442138671875
y: 296.9036560058594
z: -0.25642678141593933
visibility: 0.9241112470626831
","x: 248.4148712158203
y: 140.09381103515625
z: -0.3820948004722595
visibility: 0.9707822203636169
","x: 222.18887329101562
y: 289.558349609375
z: -0.2662239372730255
visibility: 0.9259085059165955
","x: 250.2010955810547
y: 145.2597198486328
z: -0.35491153597831726
visibility: 0.9586020708084106
","x: 221.7582550048828
y: 286.96490478515625
z: -0.2285725623369217
visibility: 0.908602774143219
","x: 257.3392333984375
y: 316.75537109375
z: -0.019846882671117783
visibility: 0.9998552203178406
","x: 231.64959716796875
y: 321.843994140625
z: 0.01967194862663746
visibility: 0.9997249841690063
","x: 257.0758056640625
y: 401.50146484375
z: 0.018584396690130234
visibility: 0.9927392601966858
","x: 234.49200439453125
y: 408.2998962402344
z: 0.0455431193113327
visibility: 0.9846658110618591
","x: 252.03631591796875
y: 481.2825927734375
z: 0.29454314708709717
visibility: 0.9877550005912781
","x: 241.49911499023438
y: 481.1304016113281
z: 0.2994820773601532
visibility: 0.9852961897850037
","x: 250.73106384277344
y: 487.15313720703125
z: 0.31662967801094055
visibility: 0.887061357498169
","x: 243.25506591796875
y: 487.1658020019531
z: 0.3191983103752136
visibility: 0.8924916982650757
","x: 253.1083984375
y: 511.525634765625
z: 0.1955031454563141
visibility: 0.9868854284286499
","x: 241.28036499023438
y: 508.106201171875
z: 0.19984643161296844
visibility: 0.9845389127731323
",,,,,,,,,,,,,,,,,,,,,,"x: 257.2247619628906
y: 146.61195373535156
z: 0.0
","x: 253.07247924804688
y: 148.50335693359375
z: -0.00042884232243523
","x: 248.8621063232422
y: 148.1042022705078
z: -0.0015547756338492036
","x: 245.79159545898438
y: 148.56210327148438
z: -0.003425964154303074
","x: 243.3432159423828
y: 149.30642700195312
z: -0.005224698223173618
","x: 246.8607940673828
y: 134.59188842773438
z: 0.00247524818405509
","x: 243.8646697998047
y: 129.39590454101562
z: 0.0005379860522225499
","x: 242.04666137695312
y: 126.37493896484375
z: -0.0012120550964027643
","x: 240.59312438964844
y: 123.80683898925781
z: -0.002362232655286789
","x: 247.89976501464844
y: 132.10081481933594
z: 0.0004012912104371935
","x: 244.75682067871094
y: 125.93478393554688
z: -0.001198769430629909
","x: 242.7876434326172
y: 122.04360961914062
z: -0.0027859762776643038
","x: 241.14964294433594
y: 118.65141296386719
z: -0.003970416262745857
","x: 249.35714721679688
y: 130.48178100585938
z: -0.0022697183303534985
","x: 246.38223266601562
y: 124.36509704589844
z: -0.004218081943690777
","x: 244.58258056640625
y: 120.66525268554688
z: -0.005366376601159573
","x: 243.03834533691406
y: 117.48119354248047
z: -0.006064805202186108
","x: 251.23806762695312
y: 129.68145751953125
z: -0.005281640682369471
","x: 249.0429229736328
y: 124.20327758789062
z: -0.006870747543871403
","x: 247.4051055908203
y: 121.093994140625
z: -0.007502114865928888
","x: 245.8710479736328
y: 118.36468505859375
z: -0.007887058891355991
"
10,"x: 223.43463134765625
y: 153.83645629882812
z: -0.2415899932384491
visibility: 0.9996058940887451
","x: 222.14935302734375
y: 147.9215087890625
z: -0.22008006274700165
visibility: 0.9981390833854675
","x: 222.89993286132812
y: 147.5245361328125
z: -0.220111683011055
visibility: 0.9985495209693909
","x: 223.7291259765625
y: 147.08985900878906
z: -0.22015945613384247
visibility: 0.9983245134353638
","x: 219.662353515625
y: 150.221435546875
z: -0.21893391013145447
visibility: 0.9979937672615051
","x: 218.49658203125
y: 151.6945037841797
z: -0.2189342975616455
visibility: 0.9982888698577881
","x: 217.1924285888672
y: 153.37088012695312
z: -0.21899917721748352
visibility: 0.998055100440979
","x: 225.5390625
y: 151.7800750732422
z: -0.10643760859966278
visibility: 0.9981414079666138
","x: 215.18634033203125
y: 161.0814208984375
z: -0.09964179247617722
visibility: 0.9979960322380066
","x: 227.56179809570312
y: 161.26986694335938
z: -0.19957616925239563
visibility: 0.9996119141578674
","x: 224.18800354003906
y: 164.42391967773438
z: -0.19760264456272125
visibility: 0.9994233250617981
","x: 253.2860107421875
y: 186.82275390625
z: -0.0650315135717392
visibility: 0.999923825263977
","x: 209.5869140625
y: 216.0862579345703
z: -0.04063171148300171
visibility: 0.9995271563529968
","x: 283.4303283691406
y: 183.58970642089844
z: -0.20456723868846893
visibility: 0.992986798286438
","x: 210.71786499023438
y: 270.8093566894531
z: -0.08802331984043121
visibility: 0.9468989372253418
","x: 258.0419921875
y: 148.04095458984375
z: -0.358870267868042
visibility: 0.9929198622703552
","x: 217.5436248779297
y: 290.34814453125
z: -0.22157490253448486
visibility: 0.9510023593902588
","x: 250.8891143798828
y: 138.33233642578125
z: -0.40342339873313904
visibility: 0.9735662937164307
","x: 221.4442138671875
y: 296.9036560058594
z: -0.25642678141593933
visibility: 0.9241112470626831
","x: 248.4148712158203
y: 140.09381103515625
z: -0.3820948004722595
visibility: 0.9707822203636169
","x: 222.18887329101562
y: 289.558349609375
z: -0.2662239372730255
visibility: 0.9259085059165955
","x: 250.2010955810547
y: 145.2597198486328
z: -0.35491153597831726
visibility: 0.9586020708084106
","x: 221.7582550048828
y: 286.96490478515625
z: -0.2285725623369217
visibility: 0.908602774143219
","x: 257.3392333984375
y: 316.75537109375
z: -0.019846882671117783
visibility: 0.9998552203178406
","x: 231.64959716796875
y: 321.843994140625
z: 0.01967194862663746
visibility: 0.9997249841690063
","x: 257.0758056640625
y: 401.50146484375
z: 0.018584396690130234
visibility: 0.9927392601966858
","x: 234.49200439453125
y: 408.2998962402344
z: 0.0455431193113327
visibility: 0.9846658110618591
","x: 252.03631591796875
y: 481.2825927734375
z: 0.29454314708709717
visibility: 0.9877550005912781
","x: 241.49911499023438
y: 481.1304016113281
z: 0.2994820773601532
visibility: 0.9852961897850037
","x: 250.73106384277344
y: 487.15313720703125
z: 0.31662967801094055
visibility: 0.887061357498169
","x: 243.25506591796875
y: 487.1658020019531
z: 0.3191983103752136
visibility: 0.8924916982650757
","x: 253.1083984375
y: 511.525634765625
z: 0.1955031454563141
visibility: 0.9868854284286499
","x: 241.28036499023438
y: 508.106201171875
z: 0.19984643161296844
visibility: 0.9845389127731323
",,,,,,,,,,,,,,,,,,,,,,"x: 257.2247619628906
y: 146.61195373535156
z: 0.0
","x: 253.07247924804688
y: 148.50335693359375
z: -0.00042884232243523
","x: 248.8621063232422
y: 148.1042022705078
z: -0.0015547756338492036
","x: 245.79159545898438
y: 148.56210327148438
z: -0.003425964154303074
","x: 243.3432159423828
y: 149.30642700195312
z: -0.005224698223173618
","x: 246.8607940673828
y: 134.59188842773438
z: 0.00247524818405509
","x: 243.8646697998047
y: 129.39590454101562
z: 0.0005379860522225499
","x: 242.04666137695312
y: 126.37493896484375
z: -0.0012120550964027643
","x: 240.59312438964844
y: 123.80683898925781
z: -0.002362232655286789
","x: 247.89976501464844
y: 132.10081481933594
z: 0.0004012912104371935
","x: 244.75682067871094
y: 125.93478393554688
z: -0.001198769430629909
","x: 242.7876434326172
y: 122.04360961914062
z: -0.0027859762776643038
","x: 241.14964294433594
y: 118.65141296386719
z: -0.003970416262745857
","x: 249.35714721679688
y: 130.48178100585938
z: -0.0022697183303534985
","x: 246.38223266601562
y: 124.36509704589844
z: -0.004218081943690777
","x: 244.58258056640625
y: 120.66525268554688
z: -0.005366376601159573
","x: 243.03834533691406
y: 117.48119354248047
z: -0.006064805202186108
","x: 251.23806762695312
y: 129.68145751953125
z: -0.005281640682369471
","x: 249.0429229736328
y: 124.20327758789062
z: -0.006870747543871403
","x: 247.4051055908203
y: 121.093994140625
z: -0.007502114865928888
","x: 245.8710479736328
y: 118.36468505859375
z: -0.007887058891355991
"
11,"x: 218.7102508544922
y: 155.9759521484375
z: -0.255656361579895
visibility: 0.9994781613349915
","x: 216.98936462402344
y: 149.3349609375
z: -0.2344013899564743
visibility: 0.9977774024009705
","x: 217.74710083007812
y: 149.26882934570312
z: -0.23445001244544983
visibility: 0.9981479048728943
","x: 218.5283966064453
y: 149.15640258789062
z: -0.23447203636169434
visibility: 0.9978445768356323
","x: 214.43592834472656
y: 151.99301147460938
z: -0.23915982246398926
visibility: 0.9977038502693176
","x: 213.24449157714844
y: 154.88653564453125
z: -0.23915955424308777
visibility: 0.9980509877204895
","x: 211.9608612060547
y: 157.70782470703125
z: -0.2392227202653885
visibility: 0.9978850483894348
","x: 220.61724853515625
y: 153.38650512695312
z: -0.1279442459344864
visibility: 0.9976727962493896
","x: 211.08489990234375
y: 166.6665496826172
z: -0.12226607650518417
visibility: 0.9977902173995972
","x: 223.11642456054688
y: 162.80825805664062
z: -0.20381994545459747
visibility: 0.9994566440582275
","x: 219.89498901367188
y: 167.2303466796875
z: -0.21523603796958923
visibility: 0.999262809753418
","x: 250.0699462890625
y: 186.85150146484375
z: -0.07246600091457367
visibility: 0.9998635649681091
","x: 207.25469970703125
y: 218.30899047851562
z: -0.06734447926282883
visibility: 0.99940425157547
","x: 281.9537658691406
y: 185.57223510742188
z: -0.21807344257831573
visibility: 0.9933496117591858
","x: 208.31272888183594
y: 275.145751953125
z: -0.18130645155906677
visibility: 0.950128436088562
","x: 256.7931213378906
y: 145.4273681640625
z: -0.3904467225074768
visibility: 0.9923285245895386
","x: 221.85987854003906
y: 263.674072265625
z: -0.3689715564250946
visibility: 0.9543852210044861
","x: 250.07432556152344
y: 135.89208984375
z: -0.43576568365097046
visibility: 0.9708008170127869
","x: 226.9259033203125
y: 258.8412780761719
z: -0.4137206971645355
visibility: 0.9277858734130859
","x: 247.41769409179688
y: 136.82664489746094
z: -0.41620784997940063
visibility: 0.9676011800765991
","x: 225.45895385742188
y: 250.24090576171875
z: -0.4071534276008606
visibility: 0.9289753437042236
","x: 249.13616943359375
y: 141.9080810546875
z: -0.38783976435661316
visibility: 0.9550637006759644
","x: 224.2177734375
y: 250.5190887451172
z: -0.37013906240463257
visibility: 0.9110237956047058
","x: 254.41749572753906
y: 315.9497375488281
z: -0.019382216036319733
visibility: 0.9998056888580322
","x: 228.43508911132812
y: 320.85699462890625
z: 0.019249118864536285
visibility: 0.9996694922447205
","x: 253.5819091796875
y: 400.6824035644531
z: 0.010978483594954014
visibility: 0.9902470111846924
","x: 231.41015625
y: 406.64599609375
z: 0.011908521875739098
visibility: 0.981524646282196
","x: 247.1859130859375
y: 480.6009521484375
z: 0.2384645640850067
visibility: 0.9809557199478149
","x: 240.3310546875
y: 481.0672302246094
z: 0.25562047958374023
visibility: 0.9803209900856018
","x: 245.2104034423828
y: 488.381591796875
z: 0.25817975401878357
visibility: 0.8643792867660522
","x: 241.11285400390625
y: 487.3455505371094
z: 0.27550747990608215
visibility: 0.8742877840995789
","x: 250.6752471923828
y: 511.0486145019531
z: 0.1393953561782837
visibility: 0.9806575775146484
","x: 241.3689727783203
y: 507.59228515625
z: 0.1596640646457672
visibility: 0.979473888874054
","x: 223.18344116210938
y: 257.64599609375
z: 0.0
","x: 220.57803344726562
y: 250.2562713623047
z: -0.0007241597049869597
","x: 220.29734802246094
y: 241.74240112304688
z: -0.002185223391279578
","x: 220.44325256347656
y: 234.48265075683594
z: -0.003740054089576006
","x: 219.3311767578125
y: 229.5943603515625
z: -0.005174567922949791
","x: 225.41152954101562
y: 243.9348602294922
z: -0.002902653766795993
","x: 227.40283203125
y: 238.94020080566406
z: -0.005100618116557598
","x: 228.3791961669922
y: 235.37274169921875
z: -0.005369608756154776
","x: 228.71728515625
y: 232.5596923828125
z: -0.005152822472155094
","x: 228.6365966796875
y: 245.9263458251953
z: -0.003937754780054092
","x: 231.89254760742188
y: 239.46533203125
z: -0.005847278982400894
","x: 233.61346435546875
y: 234.75494384765625
z: -0.005903114564716816
","x: 234.79066467285156
y: 230.60714721679688
z: -0.00593390641734004
","x: 231.0991668701172
y: 247.54910278320312
z: -0.005010267253965139
","x: 234.6097869873047
y: 241.14122009277344
z: -0.007222207263112068
","x: 236.47433471679688
y: 236.51710510253906
z: -0.00733982166275382
","x: 237.71522521972656
y: 232.53753662109375
z: -0.007207129150629044
","x: 232.7986297607422
y: 248.8873291015625
z: -0.006147083826363087
","x: 236.30555725097656
y: 244.22146606445312
z: -0.00775176053866744
","x: 237.95925903320312
y: 241.1792755126953
z: -0.007896275259554386
","x: 239.03268432617188
y: 238.1707763671875
z: -0.007811157498508692
","x: 256.4167175292969
y: 145.17274475097656
z: 0.0
","x: 251.88706970214844
y: 146.70736694335938
z: 3.5452838346827775e-05
","x: 247.73992919921875
y: 145.81031799316406
z: -0.001143630943261087
","x: 244.487548828125
y: 145.96876525878906
z: -0.0030980706214904785
","x: 241.7515411376953
y: 146.58273315429688
z: -0.0050573572516441345
","x: 246.16836547851562
y: 132.2530059814453
z: 0.0016876223962754011
","x: 243.43031311035156
y: 126.9467544555664
z: -0.0007643384160473943
","x: 241.31993103027344
y: 123.9181900024414
z: -0.0028756323736160994
","x: 239.50636291503906
y: 121.62017822265625
z: -0.0042291260324418545
","x: 247.37283325195312
y: 130.00152587890625
z: -0.0007964391261339188
","x: 244.55686950683594
y: 123.31631469726562
z: -0.002990031149238348
","x: 242.26223754882812
y: 119.32566833496094
z: -0.00482354499399662
","x: 240.13787841796875
y: 116.07543182373047
z: -0.006199948024004698
","x: 249.02249145507812
y: 128.8401641845703
z: -0.0037984249647706747
","x: 246.4381561279297
y: 122.18448638916016
z: -0.006092436145991087
","x: 244.3023223876953
y: 118.25613403320312
z: -0.007388249039649963
","x: 242.33547973632812
y: 115.08818817138672
z: -0.008253945037722588
","x: 251.0973358154297
y: 128.81509399414062
z: -0.007087524514645338
","x: 249.30284118652344
y: 123.08865356445312
z: -0.00889913085848093
","x: 247.46347045898438
y: 119.60401916503906
z: -0.009554123505949974
","x: 245.67430114746094
y: 116.67305755615234
z: -0.01000036858022213
"
12,"x: 218.7102508544922
y: 155.9759521484375
z: -0.255656361579895
visibility: 0.9994781613349915
","x: 216.98936462402344
y: 149.3349609375
z: -0.2344013899564743
visibility: 0.9977774024009705
","x: 217.74710083007812
y: 149.26882934570312
z: -0.23445001244544983
visibility: 0.9981479048728943
","x: 218.5283966064453
y: 149.15640258789062
z: -0.23447203636169434
visibility: 0.9978445768356323
","x: 214.43592834472656
y: 151.99301147460938
z: -0.23915982246398926
visibility: 0.9977038502693176
","x: 213.24449157714844
y: 154.88653564453125
z: -0.23915955424308777
visibility: 0.9980509877204895
","x: 211.9608612060547
y: 157.70782470703125
z: -0.2392227202653885
visibility: 0.9978850483894348
","x: 220.61724853515625
y: 153.38650512695312
z: -0.1279442459344864
visibility: 0.9976727962493896
","x: 211.08489990234375
y: 166.6665496826172
z: -0.12226607650518417
visibility: 0.9977902173995972
","x: 223.11642456054688
y: 162.80825805664062
z: -0.20381994545459747
visibility: 0.9994566440582275
","x: 219.89498901367188
y: 167.2303466796875
z: -0.21523603796958923
visibility: 0.999262809753418
","x: 250.0699462890625
y: 186.85150146484375
z: -0.07246600091457367
visibility: 0.9998635649681091
","x: 207.25469970703125
y: 218.30899047851562
z: -0.06734447926282883
visibility: 0.99940425157547
","x: 281.9537658691406
y: 185.57223510742188
z: -0.21807344257831573
visibility: 0.9933496117591858
","x: 208.31272888183594
y: 275.145751953125
z: -0.18130645155906677
visibility: 0.950128436088562
","x: 256.7931213378906
y: 145.4273681640625
z: -0.3904467225074768
visibility: 0.9923285245895386
","x: 221.85987854003906
y: 263.674072265625
z: -0.3689715564250946
visibility: 0.9543852210044861
","x: 250.07432556152344
y: 135.89208984375
z: -0.43576568365097046
visibility: 0.9708008170127869
","x: 226.9259033203125
y: 258.8412780761719
z: -0.4137206971645355
visibility: 0.9277858734130859
","x: 247.41769409179688
y: 136.82664489746094
z: -0.41620784997940063
visibility: 0.9676011800765991
","x: 225.45895385742188
y: 250.24090576171875
z: -0.4071534276008606
visibility: 0.9289753437042236
","x: 249.13616943359375
y: 141.9080810546875
z: -0.38783976435661316
visibility: 0.9550637006759644
","x: 224.2177734375
y: 250.5190887451172
z: -0.37013906240463257
visibility: 0.9110237956047058
","x: 254.41749572753906
y: 315.9497375488281
z: -0.019382216036319733
visibility: 0.9998056888580322
","x: 228.43508911132812
y: 320.85699462890625
z: 0.019249118864536285
visibility: 0.9996694922447205
","x: 253.5819091796875
y: 400.6824035644531
z: 0.010978483594954014
visibility: 0.9902470111846924
","x: 231.41015625
y: 406.64599609375
z: 0.011908521875739098
visibility: 0.981524646282196
","x: 247.1859130859375
y: 480.6009521484375
z: 0.2384645640850067
visibility: 0.9809557199478149
","x: 240.3310546875
y: 481.0672302246094
z: 0.25562047958374023
visibility: 0.9803209900856018
","x: 245.2104034423828
y: 488.381591796875
z: 0.25817975401878357
visibility: 0.8643792867660522
","x: 241.11285400390625
y: 487.3455505371094
z: 0.27550747990608215
visibility: 0.8742877840995789
","x: 250.6752471923828
y: 511.0486145019531
z: 0.1393953561782837
visibility: 0.9806575775146484
","x: 241.3689727783203
y: 507.59228515625
z: 0.1596640646457672
visibility: 0.979473888874054
","x: 223.18344116210938
y: 257.64599609375
z: 0.0
","x: 220.57803344726562
y: 250.2562713623047
z: -0.0007241597049869597
","x: 220.29734802246094
y: 241.74240112304688
z: -0.002185223391279578
","x: 220.44325256347656
y: 234.48265075683594
z: -0.003740054089576006
","x: 219.3311767578125
y: 229.5943603515625
z: -0.005174567922949791
","x: 225.41152954101562
y: 243.9348602294922
z: -0.002902653766795993
","x: 227.40283203125
y: 238.94020080566406
z: -0.005100618116557598
","x: 228.3791961669922
y: 235.37274169921875
z: -0.005369608756154776
","x: 228.71728515625
y: 232.5596923828125
z: -0.005152822472155094
","x: 228.6365966796875
y: 245.9263458251953
z: -0.003937754780054092
","x: 231.89254760742188
y: 239.46533203125
z: -0.005847278982400894
","x: 233.61346435546875
y: 234.75494384765625
z: -0.005903114564716816
","x: 234.79066467285156
y: 230.60714721679688
z: -0.00593390641734004
","x: 231.0991668701172
y: 247.54910278320312
z: -0.005010267253965139
","x: 234.6097869873047
y: 241.14122009277344
z: -0.007222207263112068
","x: 236.47433471679688
y: 236.51710510253906
z: -0.00733982166275382
","x: 237.71522521972656
y: 232.53753662109375
z: -0.007207129150629044
","x: 232.7986297607422
y: 248.8873291015625
z: -0.006147083826363087
","x: 236.30555725097656
y: 244.22146606445312
z: -0.00775176053866744
","x: 237.95925903320312
y: 241.1792755126953
z: -0.007896275259554386
","x: 239.03268432617188
y: 238.1707763671875
z: -0.007811157498508692
","x: 256.4167175292969
y: 145.17274475097656
z: 0.0
","x: 251.88706970214844
y: 146.70736694335938
z: 3.5452838346827775e-05
","x: 247.73992919921875
y: 145.81031799316406
z: -0.001143630943261087
","x: 244.487548828125
y: 145.96876525878906
z: -0.0030980706214904785
","x: 241.7515411376953
y: 146.58273315429688
z: -0.0050573572516441345
","x: 246.16836547851562
y: 132.2530059814453
z: 0.0016876223962754011
","x: 243.43031311035156
y: 126.9467544555664
z: -0.0007643384160473943
","x: 241.31993103027344
y: 123.9181900024414
z: -0.0028756323736160994
","x: 239.50636291503906
y: 121.62017822265625
z: -0.0042291260324418545
","x: 247.37283325195312
y: 130.00152587890625
z: -0.0007964391261339188
","x: 244.55686950683594
y: 123.31631469726562
z: -0.002990031149238348
","x: 242.26223754882812
y: 119.32566833496094
z: -0.00482354499399662
","x: 240.13787841796875
y: 116.07543182373047
z: -0.006199948024004698
","x: 249.02249145507812
y: 128.8401641845703
z: -0.0037984249647706747
","x: 246.4381561279297
y: 122.18448638916016
z: -0.006092436145991087
","x: 244.3023223876953
y: 118.25613403320312
z: -0.007388249039649963
","x: 242.33547973632812
y: 115.08818817138672
z: -0.008253945037722588
","x: 251.0973358154297
y: 128.81509399414062
z: -0.007087524514645338
","x: 249.30284118652344
y: 123.08865356445312
z: -0.00889913085848093
","x: 247.46347045898438
y: 119.60401916503906
z: -0.009554123505949974
","x: 245.67430114746094
y: 116.67305755615234
z: -0.01000036858022213
"
13,"x: 218.7102508544922
y: 155.9759521484375
z: -0.255656361579895
visibility: 0.9994781613349915
","x: 216.98936462402344
y: 149.3349609375
z: -0.2344013899564743
visibility: 0.9977774024009705
","x: 217.74710083007812
y: 149.26882934570312
z: -0.23445001244544983
visibility: 0.9981479048728943
","x: 218.5283966064453
y: 149.15640258789062
z: -0.23447203636169434
visibility: 0.9978445768356323
","x: 214.43592834472656
y: 151.99301147460938
z: -0.23915982246398926
visibility: 0.9977038502693176
","x: 213.24449157714844
y: 154.88653564453125
z: -0.23915955424308777
visibility: 0.9980509877204895
","x: 211.9608612060547
y: 157.70782470703125
z: -0.2392227202653885
visibility: 0.9978850483894348
","x: 220.61724853515625
y: 153.38650512695312
z: -0.1279442459344864
visibility: 0.9976727962493896
","x: 211.08489990234375
y: 166.6665496826172
z: -0.12226607650518417
visibility: 0.9977902173995972
","x: 223.11642456054688
y: 162.80825805664062
z: -0.20381994545459747
visibility: 0.9994566440582275
","x: 219.89498901367188
y: 167.2303466796875
z: -0.21523603796958923
visibility: 0.999262809753418
","x: 250.0699462890625
y: 186.85150146484375
z: -0.07246600091457367
visibility: 0.9998635649681091
","x: 207.25469970703125
y: 218.30899047851562
z: -0.06734447926282883
visibility: 0.99940425157547
","x: 281.9537658691406
y: 185.57223510742188
z: -0.21807344257831573
visibility: 0.9933496117591858
","x: 208.31272888183594
y: 275.145751953125
z: -0.18130645155906677
visibility: 0.950128436088562
","x: 256.7931213378906
y: 145.4273681640625
z: -0.3904467225074768
visibility: 0.9923285245895386
","x: 221.85987854003906
y: 263.674072265625
z: -0.3689715564250946
visibility: 0.9543852210044861
","x: 250.07432556152344
y: 135.89208984375
z: -0.43576568365097046
visibility: 0.9708008170127869
","x: 226.9259033203125
y: 258.8412780761719
z: -0.4137206971645355
visibility: 0.9277858734130859
","x: 247.41769409179688
y: 136.82664489746094
z: -0.41620784997940063
visibility: 0.9676011800765991
","x: 225.45895385742188
y: 250.24090576171875
z: -0.4071534276008606
visibility: 0.9289753437042236
","x: 249.13616943359375
y: 141.9080810546875
z: -0.38783976435661316
visibility: 0.9550637006759644
","x: 224.2177734375
y: 250.5190887451172
z: -0.37013906240463257
visibility: 0.9110237956047058
","x: 254.41749572753906
y: 315.9497375488281
z: -0.019382216036319733
visibility: 0.9998056888580322
","x: 228.43508911132812
y: 320.85699462890625
z: 0.019249118864536285
visibility: 0.9996694922447205
","x: 253.5819091796875
y: 400.6824035644531
z: 0.010978483594954014
visibility: 0.9902470111846924
","x: 231.41015625
y: 406.64599609375
z: 0.011908521875739098
visibility: 0.981524646282196
","x: 247.1859130859375
y: 480.6009521484375
z: 0.2384645640850067
visibility: 0.9809557199478149
","x: 240.3310546875
y: 481.0672302246094
z: 0.25562047958374023
visibility: 0.9803209900856018
","x: 245.2104034423828
y: 488.381591796875
z: 0.25817975401878357
visibility: 0.8643792867660522
","x: 241.11285400390625
y: 487.3455505371094
z: 0.27550747990608215
visibility: 0.8742877840995789
","x: 250.6752471923828
y: 511.0486145019531
z: 0.1393953561782837
visibility: 0.9806575775146484
","x: 241.3689727783203
y: 507.59228515625
z: 0.1596640646457672
visibility: 0.979473888874054
","x: 223.18344116210938
y: 257.64599609375
z: 0.0
","x: 220.57803344726562
y: 250.2562713623047
z: -0.0007241597049869597
","x: 220.29734802246094
y: 241.74240112304688
z: -0.002185223391279578
","x: 220.44325256347656
y: 234.48265075683594
z: -0.003740054089576006
","x: 219.3311767578125
y: 229.5943603515625
z: -0.005174567922949791
","x: 225.41152954101562
y: 243.9348602294922
z: -0.002902653766795993
","x: 227.40283203125
y: 238.94020080566406
z: -0.005100618116557598
","x: 228.3791961669922
y: 235.37274169921875
z: -0.005369608756154776
","x: 228.71728515625
y: 232.5596923828125
z: -0.005152822472155094
","x: 228.6365966796875
y: 245.9263458251953
z: -0.003937754780054092
","x: 231.89254760742188
y: 239.46533203125
z: -0.005847278982400894
","x: 233.61346435546875
y: 234.75494384765625
z: -0.005903114564716816
","x: 234.79066467285156
y: 230.60714721679688
z: -0.00593390641734004
","x: 231.0991668701172
y: 247.54910278320312
z: -0.005010267253965139
","x: 234.6097869873047
y: 241.14122009277344
z: -0.007222207263112068
","x: 236.47433471679688
y: 236.51710510253906
z: -0.00733982166275382
","x: 237.71522521972656
y: 232.53753662109375
z: -0.007207129150629044
","x: 232.7986297607422
y: 248.8873291015625
z: -0.006147083826363087
","x: 236.30555725097656
y: 244.22146606445312
z: -0.00775176053866744
","x: 237.95925903320312
y: 241.1792755126953
z: -0.007896275259554386
","x: 239.03268432617188
y: 238.1707763671875
z: -0.007811157498508692
","x: 256.4167175292969
y: 145.17274475097656
z: 0.0
","x: 251.88706970214844
y: 146.70736694335938
z: 3.5452838346827775e-05
","x: 247.73992919921875
y: 145.81031799316406
z: -0.001143630943261087
","x: 244.487548828125
y: 145.96876525878906
z: -0.0030980706214904785
","x: 241.7515411376953
y: 146.58273315429688
z: -0.0050573572516441345
","x: 246.16836547851562
y: 132.2530059814453
z: 0.0016876223962754011
","x: 243.43031311035156
y: 126.9467544555664
z: -0.0007643384160473943
","x: 241.31993103027344
y: 123.9181900024414
z: -0.0028756323736160994
","x: 239.50636291503906
y: 121.62017822265625
z: -0.0042291260324418545
","x: 247.37283325195312
y: 130.00152587890625
z: -0.0007964391261339188
","x: 244.55686950683594
y: 123.31631469726562
z: -0.002990031149238348
","x: 242.26223754882812
y: 119.32566833496094
z: -0.00482354499399662
","x: 240.13787841796875
y: 116.07543182373047
z: -0.006199948024004698
","x: 249.02249145507812
y: 128.8401641845703
z: -0.0037984249647706747
","x: 246.4381561279297
y: 122.18448638916016
z: -0.006092436145991087
","x: 244.3023223876953
y: 118.25613403320312
z: -0.007388249039649963
","x: 242.33547973632812
y: 115.08818817138672
z: -0.008253945037722588
","x: 251.0973358154297
y: 128.81509399414062
z: -0.007087524514645338
","x: 249.30284118652344
y: 123.08865356445312
z: -0.00889913085848093
","x: 247.46347045898438
y: 119.60401916503906
z: -0.009554123505949974
","x: 245.67430114746094
y: 116.67305755615234
z: -0.01000036858022213
"
14,"x: 216.37628173828125
y: 157.443603515625
z: -0.2468814104795456
visibility: 0.9994546175003052
","x: 215.17881774902344
y: 150.70913696289062
z: -0.22714488208293915
visibility: 0.9977891445159912
","x: 216.13589477539062
y: 150.70240783691406
z: -0.22718310356140137
visibility: 0.9981233477592468
","x: 217.21261596679688
y: 150.53599548339844
z: -0.22722657024860382
visibility: 0.9978257417678833
","x: 212.08599853515625
y: 152.8358154296875
z: -0.2246345728635788
visibility: 0.997731626033783
","x: 210.64170837402344
y: 156.30914306640625
z: -0.22464391589164734
visibility: 0.9980658888816833
","x: 209.1279296875
y: 159.3350372314453
z: -0.22468781471252441
visibility: 0.9979193210601807
","x: 219.71435546875
y: 154.69049072265625
z: -0.11840124428272247
visibility: 0.9976407289505005
","x: 207.9930877685547
y: 168.72300720214844
z: -0.10089465230703354
visibility: 0.9977385997772217
","x: 221.3563232421875
y: 164.46592712402344
z: -0.20414522290229797
visibility: 0.9994143843650818
","x: 216.68582153320312
y: 167.66831970214844
z: -0.20152997970581055
visibility: 0.9992027878761292
","x: 247.3660430908203
y: 188.7052764892578
z: -0.05637512356042862
visibility: 0.9998169541358948
","x: 206.06044006347656
y: 219.0628204345703
z: -0.049569569528102875
visibility: 0.9992175102233887
","x: 280.51611328125
y: 194.72581481933594
z: -0.1961689293384552
visibility: 0.9937645792961121
","x: 207.84317016601562
y: 278.02069091796875
z: -0.1571589708328247
visibility: 0.9524281024932861
","x: 259.4563903808594
y: 153.43112182617188
z: -0.368228018283844
visibility: 0.9924128651618958
","x: 220.9108428955078
y: 244.14544677734375
z: -0.35827308893203735
visibility: 0.9576020240783691
","x: 253.2277069091797
y: 142.56944274902344
z: -0.41071590781211853
visibility: 0.9706656336784363
","x: 225.5329132080078
y: 233.68914794921875
z: -0.4022904932498932
visibility: 0.9313852787017822
","x: 250.79161071777344
y: 142.12515258789062
z: -0.39115458726882935
visibility: 0.9673722386360168
","x: 224.2512969970703
y: 226.06431579589844
z: -0.393332839012146
visibility: 0.9319942593574524
","x: 251.92079162597656
y: 147.3014678955078
z: -0.3646705448627472
visibility: 0.9551122784614563
","x: 223.10340881347656
y: 228.4662628173828
z: -0.3586637079715729
visibility: 0.9136393666267395
","x: 252.10012817382812
y: 316.4559020996094
z: -0.019234487786889076
visibility: 0.9997377395629883
","x: 226.4862823486328
y: 320.5715637207031
z: 0.019152948632836342
visibility: 0.9995980858802795
","x: 246.96412658691406
y: 401.1675720214844
z: 0.004019554238766432
visibility: 0.9871696829795837
","x: 229.13211059570312
y: 405.3396301269531
z: 0.016269225627183914
visibility: 0.9781144857406616
","x: 237.22210693359375
y: 478.6568908691406
z: 0.24997034668922424
visibility: 0.9724140167236328
","x: 238.09463500976562
y: 481.5244140625
z: 0.24426054954528809
visibility: 0.9764407873153687
","x: 235.78448486328125
y: 487.17022705078125
z: 0.2692529559135437
visibility: 0.845027506351471
","x: 240.7405242919922
y: 488.7377624511719
z: 0.2607789635658264
visibility: 0.860646665096283
","x: 237.134521484375
y: 506.47747802734375
z: 0.15802860260009766
visibility: 0.9717930555343628
","x: 236.58901977539062
y: 508.9841003417969
z: 0.14317895472049713
visibility: 0.9750426411628723
",,,,,,,,,,,,,,,,,,,,,,"x: 258.0746154785156
y: 153.27162170410156
z: 0.0
","x: 253.9963836669922
y: 154.57716369628906
z: -0.0006043609464541078
","x: 249.8718719482422
y: 152.81234741210938
z: -0.0016734570963308215
","x: 246.59588623046875
y: 151.70396423339844
z: -0.0034094550646841526
","x: 244.01510620117188
y: 151.14315795898438
z: -0.005085457116365433
","x: 249.15487670898438
y: 139.19003295898438
z: 0.002156645990908146
","x: 246.35708618164062
y: 133.0944061279297
z: -2.9712882678722963e-05
","x: 244.29608154296875
y: 129.7900390625
z: -0.001923366915434599
","x: 242.49818420410156
y: 127.17478942871094
z: -0.0031136642210185528
","x: 250.21591186523438
y: 136.76065063476562
z: 0.00014192027447279543
","x: 247.3871307373047
y: 129.235595703125
z: -0.0016958655323833227
","x: 245.21490478515625
y: 124.68290710449219
z: -0.0034927011001855135
","x: 243.1917266845703
y: 120.85221099853516
z: -0.0048469784669578075
","x: 251.51412963867188
y: 135.28150939941406
z: -0.002502004150301218
","x: 248.91812133789062
y: 127.64137268066406
z: -0.004558033309876919
","x: 246.99476623535156
y: 123.17369079589844
z: -0.005842132028192282
","x: 245.23776245117188
y: 119.620361328125
z: -0.006699809338897467
","x: 253.19752502441406
y: 134.7976837158203
z: -0.0054943254217505455
","x: 251.4228973388672
y: 127.87747192382812
z: -0.007180706597864628
","x: 249.90151977539062
y: 123.857666015625
z: -0.007923981174826622
","x: 248.42709350585938
y: 120.59136199951172
z: -0.008419276215136051
"
15,"x: 216.37628173828125
y: 157.443603515625
z: -0.2468814104795456
visibility: 0.9994546175003052
","x: 215.17881774902344
y: 150.70913696289062
z: -0.22714488208293915
visibility: 0.9977891445159912
","x: 216.13589477539062
y: 150.70240783691406
z: -0.22718310356140137
visibility: 0.9981233477592468
","x: 217.21261596679688
y: 150.53599548339844
z: -0.22722657024860382
visibility: 0.9978257417678833
","x: 212.08599853515625
y: 152.8358154296875
z: -0.2246345728635788
visibility: 0.997731626033783
","x: 210.64170837402344
y: 156.30914306640625
z: -0.22464391589164734
visibility: 0.9980658888816833
","x: 209.1279296875
y: 159.3350372314453
z: -0.22468781471252441
visibility: 0.9979193210601807
","x: 219.71435546875
y: 154.69049072265625
z: -0.11840124428272247
visibility: 0.9976407289505005
","x: 207.9930877685547
y: 168.72300720214844
z: -0.10089465230703354
visibility: 0.9977385997772217
","x: 221.3563232421875
y: 164.46592712402344
z: -0.20414522290229797
visibility: 0.9994143843650818
","x: 216.68582153320312
y: 167.66831970214844
z: -0.20152997970581055
visibility: 0.9992027878761292
","x: 247.3660430908203
y: 188.7052764892578
z: -0.05637512356042862
visibility: 0.9998169541358948
","x: 206.06044006347656
y: 219.0628204345703
z: -0.049569569528102875
visibility: 0.9992175102233887
","x: 280.51611328125
y: 194.72581481933594
z: -0.1961689293384552
visibility: 0.9937645792961121
","x: 207.84317016601562
y: 278.02069091796875
z: -0.1571589708328247
visibility: 0.9524281024932861
","x: 259.4563903808594
y: 153.43112182617188
z: -0.368228018283844
visibility: 0.9924128651618958
","x: 220.9108428955078
y: 244.14544677734375
z: -0.35827308893203735
visibility: 0.9576020240783691
","x: 253.2277069091797
y: 142.56944274902344
z: -0.41071590781211853
visibility: 0.9706656336784363
","x: 225.5329132080078
y: 233.68914794921875
z: -0.4022904932498932
visibility: 0.9313852787017822
","x: 250.79161071777344
y: 142.12515258789062
z: -0.39115458726882935
visibility: 0.9673722386360168
","x: 224.2512969970703
y: 226.06431579589844
z: -0.393332839012146
visibility: 0.9319942593574524
","x: 251.92079162597656
y: 147.3014678955078
z: -0.3646705448627472
visibility: 0.9551122784614563
","x: 223.10340881347656
y: 228.4662628173828
z: -0.3586637079715729
visibility: 0.9136393666267395
","x: 252.10012817382812
y: 316.4559020996094
z: -0.019234487786889076
visibility: 0.9997377395629883
","x: 226.4862823486328
y: 320.5715637207031
z: 0.019152948632836342
visibility: 0.9995980858802795
","x: 246.96412658691406
y: 401.1675720214844
z: 0.004019554238766432
visibility: 0.9871696829795837
","x: 229.13211059570312
y: 405.3396301269531
z: 0.016269225627183914
visibility: 0.9781144857406616
","x: 237.22210693359375
y: 478.6568908691406
z: 0.24997034668922424
visibility: 0.9724140167236328
","x: 238.09463500976562
y: 481.5244140625
z: 0.24426054954528809
visibility: 0.9764407873153687
","x: 235.78448486328125
y: 487.17022705078125
z: 0.2692529559135437
visibility: 0.845027506351471
","x: 240.7405242919922
y: 488.7377624511719
z: 0.2607789635658264
visibility: 0.860646665096283
","x: 237.134521484375
y: 506.47747802734375
z: 0.15802860260009766
visibility: 0.9717930555343628
","x: 236.58901977539062
y: 508.9841003417969
z: 0.14317895472049713
visibility: 0.9750426411628723
",,,,,,,,,,,,,,,,,,,,,,"x: 258.0746154785156
y: 153.27162170410156
z: 0.0
","x: 253.9963836669922
y: 154.57716369628906
z: -0.0006043609464541078
","x: 249.8718719482422
y: 152.81234741210938
z: -0.0016734570963308215
","x: 246.59588623046875
y: 151.70396423339844
z: -0.0034094550646841526
","x: 244.01510620117188
y: 151.14315795898438
z: -0.005085457116365433
","x: 249.15487670898438
y: 139.19003295898438
z: 0.002156645990908146
","x: 246.35708618164062
y: 133.0944061279297
z: -2.9712882678722963e-05
","x: 244.29608154296875
y: 129.7900390625
z: -0.001923366915434599
","x: 242.49818420410156
y: 127.17478942871094
z: -0.0031136642210185528
","x: 250.21591186523438
y: 136.76065063476562
z: 0.00014192027447279543
","x: 247.3871307373047
y: 129.235595703125
z: -0.0016958655323833227
","x: 245.21490478515625
y: 124.68290710449219
z: -0.0034927011001855135
","x: 243.1917266845703
y: 120.85221099853516
z: -0.0048469784669578075
","x: 251.51412963867188
y: 135.28150939941406
z: -0.002502004150301218
","x: 248.91812133789062
y: 127.64137268066406
z: -0.004558033309876919
","x: 246.99476623535156
y: 123.17369079589844
z: -0.005842132028192282
","x: 245.23776245117188
y: 119.620361328125
z: -0.006699809338897467
","x: 253.19752502441406
y: 134.7976837158203
z: -0.0054943254217505455
","x: 251.4228973388672
y: 127.87747192382812
z: -0.007180706597864628
","x: 249.90151977539062
y: 123.857666015625
z: -0.007923981174826622
","x: 248.42709350585938
y: 120.59136199951172
z: -0.008419276215136051
"
16,"x: 215.1875762939453
y: 151.42518615722656
z: -0.25375834107398987
visibility: 0.9995007514953613
","x: 215.2111053466797
y: 146.4865264892578
z: -0.22845299541950226
visibility: 0.9979928135871887
","x: 216.50286865234375
y: 146.04823303222656
z: -0.22857041656970978
visibility: 0.9982931017875671
","x: 217.9017333984375
y: 145.62451171875
z: -0.22862431406974792
visibility: 0.9980258941650391
","x: 211.98764038085938
y: 149.7299346923828
z: -0.23617294430732727
visibility: 0.9979343414306641
","x: 210.70472717285156
y: 152.32928466796875
z: -0.2361782044172287
visibility: 0.9982332587242126
","x: 209.34231567382812
y: 154.95172119140625
z: -0.2362302988767624
visibility: 0.9981012344360352
","x: 221.09239196777344
y: 151.17813110351562
z: -0.13804005086421967
visibility: 0.9978531002998352
","x: 207.7957305908203
y: 165.306640625
z: -0.1130087599158287
visibility: 0.9979097247123718
","x: 220.33180236816406
y: 158.61398315429688
z: -0.21213161945343018
visibility: 0.9994624853134155
","x: 214.70779418945312
y: 163.38314819335938
z: -0.21206286549568176
visibility: 0.9992590546607971
","x: 247.20860290527344
y: 189.69354248046875
z: -0.06002907082438469
visibility: 0.999797523021698
","x: 204.25392150878906
y: 214.78839111328125
z: -0.05021744966506958
visibility: 0.9991565346717834
","x: 276.38848876953125
y: 224.2775115966797
z: -0.23420408368110657
visibility: 0.9935486912727356
","x: 200.11383056640625
y: 274.17138671875
z: -0.2203475534915924
visibility: 0.9534745812416077
","x: 260.58380126953125
y: 175.2437744140625
z: -0.44048935174942017
visibility: 0.9923569560050964
","x: 201.18629455566406
y: 211.17529296875
z: -0.48494935035705566
visibility: 0.9604393839836121
","x: 256.4171447753906
y: 158.86831665039062
z: -0.4801112711429596
visibility: 0.9710657596588135
","x: 200.99810791015625
y: 194.27015686035156
z: -0.5346115231513977
visibility: 0.9348241090774536
","x: 254.8098907470703
y: 155.5944366455078
z: -0.45994558930397034
visibility: 0.9678338766098022
","x: 200.43507385253906
y: 190.8316192626953
z: -0.5242372751235962
visibility: 0.9349137544631958
","x: 253.98651123046875
y: 159.81060791015625
z: -0.43743523955345154
visibility: 0.9555718898773193
","x: 201.3537139892578
y: 195.1248779296875
z: -0.48836976289749146
visibility: 0.9167413115501404
","x: 248.0714569091797
y: 316.39569091796875
z: -0.02018136903643608
visibility: 0.9997344017028809
","x: 222.00694274902344
y: 318.807861328125
z: 0.020169822499155998
visibility: 0.9996024966239929
","x: 238.8712921142578
y: 401.64892578125
z: -0.006208700127899647
visibility: 0.9843773245811462
","x: 223.8338165283203
y: 402.471435546875
z: 0.053759582340717316
visibility: 0.9771220684051514
","x: 223.4923095703125
y: 479.4941711425781
z: 0.20285503566265106
visibility: 0.9722096920013428
","x: 235.7255401611328
y: 478.5619812011719
z: 0.29124724864959717
visibility: 0.9765694737434387
","x: 222.49844360351562
y: 489.9554748535156
z: 0.21701392531394958
visibility: 0.848246157169342
","x: 239.82127380371094
y: 486.62530517578125
z: 0.3103814721107483
visibility: 0.863760232925415
","x: 220.65859985351562
y: 513.2642822265625
z: 0.10266999155282974
visibility: 0.9720039367675781
","x: 232.27996826171875
y: 508.921630859375
z: 0.20355188846588135
visibility: 0.9752339124679565
",,,,,,,,,,,,,,,,,,,,,,"x: 264.2052307128906
y: 175.4401397705078
z: 0.0
","x: 259.56768798828125
y: 175.7210693359375
z: 0.0003535290597938001
","x: 255.91879272460938
y: 170.741943359375
z: 0.0002154458488803357
","x: 253.32830810546875
y: 166.28292846679688
z: -0.0006069524679332972
","x: 251.48377990722656
y: 163.28077697753906
z: -0.0011727435048669577
","x: 257.9927673339844
y: 154.26300048828125
z: 0.004557324573397636
","x: 256.28656005859375
y: 145.1078643798828
z: 0.0036535775288939476
","x: 254.7842254638672
y: 140.143798828125
z: 0.003134855767711997
","x: 253.4404296875
y: 137.26731872558594
z: 0.003191904164850712
","x: 259.8988037109375
y: 151.52565002441406
z: 0.00297702313400805
","x: 257.93133544921875
y: 141.55413818359375
z: 0.00277603673748672
","x: 256.0361328125
y: 136.9428253173828
z: 0.0026858127675950527
","x: 254.0223388671875
y: 134.0498046875
z: 0.0027244016528129578
","x: 261.3411865234375
y: 150.2937469482422
z: 0.0007842265767976642
","x: 259.26104736328125
y: 141.21337890625
z: -6.07002257311251e-05
","x: 257.09722900390625
y: 136.7648162841797
z: -0.00017207552446052432
","x: 255.0150146484375
y: 133.99395751953125
z: -6.7902060436608735e-06
","x: 262.4157409667969
y: 150.2749786376953
z: -0.0017730494728311896
","x: 260.5403747558594
y: 142.28164672851562
z: -0.0027236463502049446
","x: 258.6985778808594
y: 138.0557098388672
z: -0.0028197106439620256
","x: 256.9200439453125
y: 135.54444885253906
z: -0.002551815938204527
"
17,"x: 215.1875762939453
y: 151.42518615722656
z: -0.25375834107398987
visibility: 0.9995007514953613
","x: 215.2111053466797
y: 146.4865264892578
z: -0.22845299541950226
visibility: 0.9979928135871887
","x: 216.50286865234375
y: 146.04823303222656
z: -0.22857041656970978
visibility: 0.9982931017875671
","x: 217.9017333984375
y: 145.62451171875
z: -0.22862431406974792
visibility: 0.9980258941650391
","x: 211.98764038085938
y: 149.7299346923828
z: -0.23617294430732727
visibility: 0.9979343414306641
","x: 210.70472717285156
y: 152.32928466796875
z: -0.2361782044172287
visibility: 0.9982332587242126
","x: 209.34231567382812
y: 154.95172119140625
z: -0.2362302988767624
visibility: 0.9981012344360352
","x: 221.09239196777344
y: 151.17813110351562
z: -0.13804005086421967
visibility: 0.9978531002998352
","x: 207.7957305908203
y: 165.306640625
z: -0.1130087599158287
visibility: 0.9979097247123718
","x: 220.33180236816406
y: 158.61398315429688
z: -0.21213161945343018
visibility: 0.9994624853134155
","x: 214.70779418945312
y: 163.38314819335938
z: -0.21206286549568176
visibility: 0.9992590546607971
","x: 247.20860290527344
y: 189.69354248046875
z: -0.06002907082438469
visibility: 0.999797523021698
","x: 204.25392150878906
y: 214.78839111328125
z: -0.05021744966506958
visibility: 0.9991565346717834
","x: 276.38848876953125
y: 224.2775115966797
z: -0.23420408368110657
visibility: 0.9935486912727356
","x: 200.11383056640625
y: 274.17138671875
z: -0.2203475534915924
visibility: 0.9534745812416077
","x: 260.58380126953125
y: 175.2437744140625
z: -0.44048935174942017
visibility: 0.9923569560050964
","x: 201.18629455566406
y: 211.17529296875
z: -0.48494935035705566
visibility: 0.9604393839836121
","x: 256.4171447753906
y: 158.86831665039062
z: -0.4801112711429596
visibility: 0.9710657596588135
","x: 200.99810791015625
y: 194.27015686035156
z: -0.5346115231513977
visibility: 0.9348241090774536
","x: 254.8098907470703
y: 155.5944366455078
z: -0.45994558930397034
visibility: 0.9678338766098022
","x: 200.43507385253906
y: 190.8316192626953
z: -0.5242372751235962
visibility: 0.9349137544631958
","x: 253.98651123046875
y: 159.81060791015625
z: -0.43743523955345154
visibility: 0.9555718898773193
","x: 201.3537139892578
y: 195.1248779296875
z: -0.48836976289749146
visibility: 0.9167413115501404
","x: 248.0714569091797
y: 316.39569091796875
z: -0.02018136903643608
visibility: 0.9997344017028809
","x: 222.00694274902344
y: 318.807861328125
z: 0.020169822499155998
visibility: 0.9996024966239929
","x: 238.8712921142578
y: 401.64892578125
z: -0.006208700127899647
visibility: 0.9843773245811462
","x: 223.8338165283203
y: 402.471435546875
z: 0.053759582340717316
visibility: 0.9771220684051514
","x: 223.4923095703125
y: 479.4941711425781
z: 0.20285503566265106
visibility: 0.9722096920013428
","x: 235.7255401611328
y: 478.5619812011719
z: 0.29124724864959717
visibility: 0.9765694737434387
","x: 222.49844360351562
y: 489.9554748535156
z: 0.21701392531394958
visibility: 0.848246157169342
","x: 239.82127380371094
y: 486.62530517578125
z: 0.3103814721107483
visibility: 0.863760232925415
","x: 220.65859985351562
y: 513.2642822265625
z: 0.10266999155282974
visibility: 0.9720039367675781
","x: 232.27996826171875
y: 508.921630859375
z: 0.20355188846588135
visibility: 0.9752339124679565
",,,,,,,,,,,,,,,,,,,,,,"x: 264.2052307128906
y: 175.4401397705078
z: 0.0
","x: 259.56768798828125
y: 175.7210693359375
z: 0.0003535290597938001
","x: 255.91879272460938
y: 170.741943359375
z: 0.0002154458488803357
","x: 253.32830810546875
y: 166.28292846679688
z: -0.0006069524679332972
","x: 251.48377990722656
y: 163.28077697753906
z: -0.0011727435048669577
","x: 257.9927673339844
y: 154.26300048828125
z: 0.004557324573397636
","x: 256.28656005859375
y: 145.1078643798828
z: 0.0036535775288939476
","x: 254.7842254638672
y: 140.143798828125
z: 0.003134855767711997
","x: 253.4404296875
y: 137.26731872558594
z: 0.003191904164850712
","x: 259.8988037109375
y: 151.52565002441406
z: 0.00297702313400805
","x: 257.93133544921875
y: 141.55413818359375
z: 0.00277603673748672
","x: 256.0361328125
y: 136.9428253173828
z: 0.0026858127675950527
","x: 254.0223388671875
y: 134.0498046875
z: 0.0027244016528129578
","x: 261.3411865234375
y: 150.2937469482422
z: 0.0007842265767976642
","x: 259.26104736328125
y: 141.21337890625
z: -6.07002257311251e-05
","x: 257.09722900390625
y: 136.7648162841797
z: -0.00017207552446052432
","x: 255.0150146484375
y: 133.99395751953125
z: -6.7902060436608735e-06
","x: 262.4157409667969
y: 150.2749786376953
z: -0.0017730494728311896
","x: 260.5403747558594
y: 142.28164672851562
z: -0.0027236463502049446
","x: 258.6985778808594
y: 138.0557098388672
z: -0.0028197106439620256
","x: 256.9200439453125
y: 135.54444885253906
z: -0.002551815938204527
"
18,"x: 218.50390625
y: 147.3277587890625
z: -0.3180471360683441
visibility: 0.9995500445365906
","x: 217.82887268066406
y: 142.79629516601562
z: -0.29914340376853943
visibility: 0.998192310333252
","x: 218.96337890625
y: 142.58953857421875
z: -0.2991604208946228
visibility: 0.9984624981880188
","x: 220.12440490722656
y: 142.450439453125
z: -0.29920312762260437
visibility: 0.9982220530509949
","x: 214.44630432128906
y: 145.04225158691406
z: -0.2957352101802826
visibility: 0.998138964176178
","x: 213.1153106689453
y: 146.66046142578125
z: -0.29576295614242554
visibility: 0.998407781124115
","x: 211.9630126953125
y: 148.27481079101562
z: -0.29576513171195984
visibility: 0.9982889890670776
","x: 221.87681579589844
y: 149.38607788085938
z: -0.1879134476184845
visibility: 0.9980661273002625
","x: 209.90219116210938
y: 159.6925048828125
z: -0.16656693816184998
visibility: 0.9981139302253723
","x: 222.49267578125
y: 156.373046875
z: -0.276379257440567
visibility: 0.9995156526565552
","x: 217.12908935546875
y: 160.36386108398438
z: -0.2711476981639862
visibility: 0.9993315935134888
