uscmakers/ReverseChoreography/data/2_woman_doja_cat.csv
,NOSE,LEFT_EYE_INNER,LEFT_EYE,LEFT_EYE_OUTER,RIGHT_EYE_INNER,RIGHT_EYE,RIGHT_EYE_OUTER,LEFT_EAR,RIGHT_EAR,MOUTH_LEFT,MOUTH_RIGHT,LEFT_SHOULDER,RIGHT_SHOULDER,LEFT_ELBOW,RIGHT_ELBOW,LEFT_WRIST,RIGHT_WRIST,LEFT_PINKY,RIGHT_PINKY,LEFT_INDEX,RIGHT_INDEX,LEFT_THUMB,RIGHT_THUMB,LEFT_HIP,RIGHT_HIP,LEFT_KNEE,RIGHT_KNEE,LEFT_ANKLE,RIGHT_ANKLE,LEFT_HEEL,RIGHT_HEEL,LEFT_FOOT_INDEX,RIGHT_FOOT_INDEX,WRIST,THUMB_CPC,THUMB_MCP,THUMB_IP,THUMB_TIP,INDEX_FINGER_MCP,INDEX_FINGER_PIP,INDEX_FINGER_DIP,INDEX_FINGER_TIP,MIDDLE_FINGER_MCP,MIDDLE_FINGER_PIP,MIDDLE_FINGER_DIP,MIDDLE_FINGER_TIP,RING_FINGER_PIP,RING_FINGER_DIP,RING_FINGER_TIP,RING_FINGER_MCP,PINKY_MCP,PINKY_PIP,PINKY_DIP,PINKY_TIP,WRIST2,THUMB_CPC2,THUMB_MCP2,THUMB_IP2,THUMB_TIP2,INDEX_FINGER_MCP2,INDEX_FINGER_PIP2,INDEX_FINGER_DIP2,INDEX_FINGER_TIP2,MIDDLE_FINGER_MCP2,MIDDLE_FINGER_PIP2,MIDDLE_FINGER_DIP2,MIDDLE_FINGER_TIP2,RING_FINGER_PIP2,RING_FINGER_DIP2,RING_FINGER_TIP2,RING_FINGER_MCP2,PINKY_MCP2,PINKY_PIP2,PINKY_DIP2,PINKY_TIP2
0,"x: 215.02981567382812
y: 184.83132934570312
z: -0.42809849977493286
visibility: 0.9999877214431763
","x: 218.20335388183594
y: 174.44094848632812
z: -0.4065019488334656
visibility: 0.9999427795410156
","x: 219.9485321044922
y: 174.81069946289062
z: -0.406566321849823
visibility: 0.9999334812164307
","x: 221.97605895996094
y: 175.1175537109375
z: -0.40662550926208496
visibility: 0.9999144077301025
","x: 212.012451171875
y: 173.4761199951172
z: -0.41242867708206177
visibility: 0.9999568462371826
","x: 209.42950439453125
y: 173.4083709716797
z: -0.41249316930770874
visibility: 0.9999533891677856
","x: 207.45864868164062
y: 173.41525268554688
z: -0.4125087857246399
visibility: 0.9999406337738037
","x: 224.45689392089844
y: 178.05946350097656
z: -0.26095667481422424
visibility: 0.9997759461402893
","x: 204.1753387451172
y: 177.3049774169922
z: -0.2896902561187744
visibility: 0.9999246597290039
","x: 218.37872314453125
y: 194.85784912109375
z: -0.3715897500514984
visibility: 0.999974250793457
","x: 210.6305389404297
y: 195.21424865722656
z: -0.3797116279602051
visibility: 0.9999747276306152
","x: 239.55548095703125
y: 219.66915893554688
z: -0.13954782485961914
visibility: 0.9999784231185913
","x: 189.8472900390625
y: 246.76832580566406
z: -0.18914854526519775
visibility: 0.9999502897262573
","x: 253.85150146484375
y: 275.97052001953125
z: -0.0689878985285759
visibility: 0.963991641998291
","x: 184.81800842285156
y: 317.7707214355469
z: -0.15286388993263245
visibility: 0.9947336912155151
","x: 274.63470458984375
y: 315.275390625
z: -0.19689764082431793
visibility: 0.9569637179374695
","x: 175.39122009277344
y: 369.67572021484375
z: -0.2627403140068054
visibility: 0.9877903461456299
","x: 282.24261474609375
y: 326.6799621582031
z: -0.22446152567863464
visibility: 0.92229825258255
","x: 170.8427734375
y: 389.2139892578125
z: -0.2935176491737366
visibility: 0.9709690809249878
","x: 282.8231201171875
y: 326.50146484375
z: -0.266405314207077
visibility: 0.932412326335907
","x: 171.2506103515625
y: 389.0486145019531
z: -0.33415132761001587
visibility: 0.9745010137557983
","x: 280.0351257324219
y: 323.83636474609375
z: -0.21679671108722687
visibility: 0.9201890230178833
","x: 173.83517456054688
y: 383.78759765625
z: -0.28058061003685
visibility: 0.9668474197387695
","x: 243.6038818359375
y: 358.7161560058594
z: 0.0060194386169314384
visibility: 0.9999655485153198
","x: 214.1697235107422
y: 368.3309631347656
z: -0.005923748016357422
visibility: 0.9997716546058655
","x: 244.77728271484375
y: 450.19403076171875
z: -0.2538147270679474
visibility: 0.9921297430992126
","x: 218.96990966796875
y: 465.9305419921875
z: 0.06001098081469536
visibility: 0.957622766494751
","x: 238.55557250976562
y: 542.400634765625
z: -0.13578078150749207
visibility: 0.9815431237220764
","x: 233.55076599121094
y: 516.9029541015625
z: 0.43278059363365173
visibility: 0.8124125599861145
","x: 235.5922393798828
y: 557.1656494140625
z: -0.13169769942760468
visibility: 0.9068063497543335
","x: 235.78244018554688
y: 519.9600830078125
z: 0.4630257487297058
visibility: 0.5998244285583496
","x: 247.84429931640625
y: 571.7412109375
z: -0.2941737174987793
visibility: 0.9797425866127014
","x: 228.60964965820312
y: 546.18115234375
z: 0.35710614919662476
visibility: 0.8496118783950806
",,,,,,,,,,,,,,,,,,,,,,,,,,,,,,,,,,,,,,,,,,
1,"x: 216.61785888671875
y: 184.98477172851562
z: -0.3937833309173584
visibility: 0.9999726414680481
","x: 218.96328735351562
y: 174.65518188476562
z: -0.37573733925819397
visibility: 0.9999027252197266
","x: 220.69821166992188
y: 174.86785888671875
z: -0.37580233812332153
visibility: 0.9998902678489685
","x: 222.50111389160156
y: 175.1197967529297
z: -0.3758169710636139
visibility: 0.9998732209205627
","x: 213.46051025390625
y: 173.97366333007812
z: -0.37961727380752563
visibility: 0.999910295009613
","x: 211.1268310546875
y: 173.8623809814453
z: -0.3796452581882477
visibility: 0.9999019503593445
","x: 208.81260681152344
y: 173.9176788330078
z: -0.3796798884868622
visibility: 0.9998915791511536
","x: 224.46194458007812
y: 178.0189666748047
z: -0.23742476105690002
visibility: 0.9996619820594788
","x: 204.2046356201172
y: 177.5454559326172
z: -0.25617969036102295
visibility: 0.9998400807380676
","x: 219.141845703125
y: 194.8743896484375
z: -0.33890289068222046
visibility: 0.9999570846557617
","x: 212.62477111816406
y: 195.2536163330078
z: -0.34412655234336853
visibility: 0.9999585151672363
","x: 239.6923370361328
y: 216.62051391601562
z: -0.13945642113685608
visibility: 0.9999768137931824
","x: 190.1430206298828
y: 240.3187255859375
z: -0.1389695554971695
visibility: 0.9999420642852783
","x: 253.44703674316406
y: 274.89410400390625
z: -0.13640393316745758
visibility: 0.9653420448303223
","x: 193.86981201171875
y: 310.451171875
z: -0.06541120260953903
visibility: 0.9927806854248047
","x: 239.55560302734375
y: 316.01513671875
z: -0.33119791746139526
visibility: 0.9591261744499207
","x: 194.23678588867188
y: 370.08966064453125
z: -0.17569631338119507
visibility: 0.9833701252937317
","x: 237.28395080566406
y: 328.2510070800781
z: -0.3807017505168915
visibility: 0.9263154864311218
","x: 194.11038208007812
y: 389.92877197265625
z: -0.20943371951580048
visibility: 0.9648444056510925
","x: 233.00392150878906
y: 325.00750732421875
z: -0.40484100580215454
visibility: 0.9355823993682861
","x: 196.22689819335938
y: 389.68865966796875
z: -0.24798619747161865
visibility: 0.9685609340667725
","x: 233.20339965820312
y: 321.28802490234375
z: -0.34371381998062134
visibility: 0.922886312007904
","x: 196.9269561767578
y: 384.3470458984375
z: -0.1920795440673828
visibility: 0.9599361419677734
","x: 238.19508361816406
y: 355.9893493652344
z: 0.008523623459041119
visibility: 0.9999117255210876
","x: 212.0797119140625
y: 358.82403564453125
z: -0.008484234102070332
visibility: 0.9996898770332336
","x: 238.8245086669922
y: 443.9442443847656
z: -0.042336978018283844
visibility: 0.9873287081718445
","x: 211.47491455078125
y: 444.47705078125
z: -0.06336411833763123
visibility: 0.9582865834236145
","x: 235.0395965576172
y: 540.5322265625
z: 0.12111643701791763
visibility: 0.9768109321594238
","x: 212.72698974609375
y: 516.8956298828125
z: 0.16423524916172028
visibility: 0.8205747604370117
","x: 231.32579040527344
y: 554.940673828125
z: 0.1302594244480133
visibility: 0.8904939889907837
","x: 211.8479461669922
y: 522.4459228515625
z: 0.17949266731739044
visibility: 0.5952752828598022
","x: 240.71554565429688
y: 564.917724609375
z: 0.0017057193908840418
visibility: 0.9745634198188782
","x: 221.71632385253906
y: 546.1488037109375
z: 0.05411980673670769
visibility: 0.8534923791885376
","x: 197.28257751464844
y: 373.0609130859375
z: 0.0
","x: 193.5686798095703
y: 376.3309020996094
z: -0.004002239555120468
","x: 191.28219604492188
y: 383.00750732421875
z: -0.006971432361751795
","x: 191.95225524902344
y: 386.935791015625
z: -0.010552190244197845
","x: 193.169677734375
y: 387.6083679199219
z: -0.01355348527431488
","x: 193.53607177734375
y: 397.54058837890625
z: -0.002086491324007511
","x: 194.37396240234375
y: 407.48773193359375
z: -0.006892534904181957
","x: 194.8672332763672
y: 405.0473327636719
z: -0.009404386393725872
","x: 194.68487548828125
y: 400.3320617675781
z: -0.01037404965609312
","x: 197.0455322265625
y: 396.96942138671875
z: -0.0031542121432721615
","x: 198.16514587402344
y: 406.903076171875
z: -0.008020754903554916
","x: 198.6836395263672
y: 403.93902587890625
z: -0.00970980990678072
","x: 198.6173553466797
y: 398.9961242675781
z: -0.009746671654284
","x: 200.1509246826172
y: 394.44183349609375
z: -0.00524450559169054
","x: 201.7272491455078
y: 402.17816162109375
z: -0.009244279004633427
","x: 201.99935913085938
y: 400.43707275390625
z: -0.009408431127667427
","x: 201.65380859375
y: 397.01422119140625
z: -0.00862355250865221
","x: 202.9878692626953
y: 390.1584167480469
z: -0.008094598539173603
","x: 205.08819580078125
y: 395.888916015625
z: -0.010749360546469688
","x: 205.94363403320312
y: 396.11383056640625
z: -0.010946683585643768
","x: 206.13255310058594
y: 394.93609619140625
z: -0.010348718613386154
",,,,,,,,,,,,,,,,,,,,,
2,"x: 216.61785888671875
y: 184.98477172851562
z: -0.3937833309173584
visibility: 0.9999726414680481
","x: 218.96328735351562
y: 174.65518188476562
z: -0.37573733925819397
visibility: 0.9999027252197266
","x: 220.69821166992188
y: 174.86785888671875
z: -0.37580233812332153
visibility: 0.9998902678489685
","x: 222.50111389160156
y: 175.1197967529297
z: -0.3758169710636139
visibility: 0.9998732209205627
","x: 213.46051025390625
y: 173.97366333007812
z: -0.37961727380752563
visibility: 0.999910295009613
","x: 211.1268310546875
y: 173.8623809814453
z: -0.3796452581882477
visibility: 0.9999019503593445
","x: 208.81260681152344
y: 173.9176788330078
z: -0.3796798884868622
visibility: 0.9998915791511536
","x: 224.46194458007812
y: 178.0189666748047
z: -0.23742476105690002
visibility: 0.9996619820594788
","x: 204.2046356201172
y: 177.5454559326172
z: -0.25617969036102295
visibility: 0.9998400807380676
","x: 219.141845703125
y: 194.8743896484375
z: -0.33890289068222046
visibility: 0.9999570846557617
","x: 212.62477111816406
y: 195.2536163330078
z: -0.34412655234336853
visibility: 0.9999585151672363
","x: 239.6923370361328
y: 216.62051391601562
z: -0.13945642113685608
visibility: 0.9999768137931824
","x: 190.1430206298828
y: 240.3187255859375
z: -0.1389695554971695
visibility: 0.9999420642852783
","x: 253.44703674316406
y: 274.89410400390625
z: -0.13640393316745758
visibility: 0.9653420448303223
","x: 193.86981201171875
y: 310.451171875
z: -0.06541120260953903
visibility: 0.9927806854248047
","x: 239.55560302734375
y: 316.01513671875
z: -0.33119791746139526
visibility: 0.9591261744499207
","x: 194.23678588867188
y: 370.08966064453125
z: -0.17569631338119507
visibility: 0.9833701252937317
","x: 237.28395080566406
y: 328.2510070800781
z: -0.3807017505168915
visibility: 0.9263154864311218
","x: 194.11038208007812
y: 389.92877197265625
z: -0.20943371951580048
visibility: 0.9648444056510925
","x: 233.00392150878906
y: 325.00750732421875
z: -0.40484100580215454
visibility: 0.9355823993682861
","x: 196.22689819335938
y: 389.68865966796875
z: -0.24798619747161865
visibility: 0.9685609340667725
","x: 233.20339965820312
y: 321.28802490234375
z: -0.34371381998062134
visibility: 0.922886312007904
","x: 196.9269561767578
y: 384.3470458984375
z: -0.1920795440673828
visibility: 0.9599361419677734
","x: 238.19508361816406
y: 355.9893493652344
z: 0.008523623459041119
visibility: 0.9999117255210876
","x: 212.0797119140625
y: 358.82403564453125
z: -0.008484234102070332
visibility: 0.9996898770332336
","x: 238.8245086669922
y: 443.9442443847656
z: -0.042336978018283844
visibility: 0.9873287081718445
","x: 211.47491455078125
y: 444.47705078125
z: -0.06336411833763123
visibility: 0.9582865834236145
","x: 235.0395965576172
y: 540.5322265625
z: 0.12111643701791763
visibility: 0.9768109321594238
","x: 212.72698974609375
y: 516.8956298828125
z: 0.16423524916172028
visibility: 0.8205747604370117
","x: 231.32579040527344
y: 554.940673828125
z: 0.1302594244480133
visibility: 0.8904939889907837
","x: 211.8479461669922
y: 522.4459228515625
z: 0.17949266731739044
visibility: 0.5952752828598022
","x: 240.71554565429688
y: 564.917724609375
z: 0.0017057193908840418
visibility: 0.9745634198188782
","x: 221.71632385253906
y: 546.1488037109375
z: 0.05411980673670769
visibility: 0.8534923791885376
","x: 197.28257751464844
y: 373.0609130859375
z: 0.0
","x: 193.5686798095703
y: 376.3309020996094
z: -0.004002239555120468
","x: 191.28219604492188
y: 383.00750732421875
z: -0.006971432361751795
","x: 191.95225524902344
y: 386.935791015625
z: -0.010552190244197845
","x: 193.169677734375
y: 387.6083679199219
z: -0.01355348527431488
","x: 193.53607177734375
y: 397.54058837890625
z: -0.002086491324007511
","x: 194.37396240234375
y: 407.48773193359375
z: -0.006892534904181957
","x: 194.8672332763672
y: 405.0473327636719
z: -0.009404386393725872
","x: 194.68487548828125
y: 400.3320617675781
z: -0.01037404965609312
","x: 197.0455322265625
y: 396.96942138671875
z: -0.0031542121432721615
","x: 198.16514587402344
y: 406.903076171875
z: -0.008020754903554916
","x: 198.6836395263672
y: 403.93902587890625
z: -0.00970980990678072
","x: 198.6173553466797
y: 398.9961242675781
z: -0.009746671654284
","x: 200.1509246826172
y: 394.44183349609375
z: -0.00524450559169054
","x: 201.7272491455078
y: 402.17816162109375
z: -0.009244279004633427
","x: 201.99935913085938
y: 400.43707275390625
z: -0.009408431127667427
","x: 201.65380859375
y: 397.01422119140625
z: -0.00862355250865221
","x: 202.9878692626953
y: 390.1584167480469
z: -0.008094598539173603
","x: 205.08819580078125
y: 395.888916015625
z: -0.010749360546469688
","x: 205.94363403320312
y: 396.11383056640625
z: -0.010946683585643768
","x: 206.13255310058594
y: 394.93609619140625
z: -0.010348718613386154
",,,,,,,,,,,,,,,,,,,,,
3,"x: 216.58554077148438
y: 184.79043579101562
z: -0.45374393463134766
visibility: 0.9999662041664124
","x: 218.95909118652344
y: 174.4090576171875
z: -0.43799862265586853
visibility: 0.9998838305473328
","x: 220.64903259277344
y: 174.53463745117188
z: -0.4380342960357666
visibility: 0.9998729825019836
","x: 222.31947326660156
y: 174.6902618408203
z: -0.4380599558353424
visibility: 0.9998548030853271
","x: 213.422607421875
y: 173.90814208984375
z: -0.4382112920284271
visibility: 0.9998939633369446
","x: 211.0601043701172
y: 173.83352661132812
z: -0.4382876455783844
visibility: 0.9998868703842163
","x: 208.76162719726562
y: 173.9163360595703
z: -0.43836888670921326
visibility: 0.999878466129303
","x: 224.06161499023438
y: 177.3806915283203
z: -0.30191144347190857
visibility: 0.9996190071105957
","x: 203.88514709472656
y: 177.66014099121094
z: -0.3027675747871399
visibility: 0.9998086094856262
","x: 219.13653564453125
y: 194.53988647460938
z: -0.398476243019104
visibility: 0.9999392032623291
","x: 212.61203002929688
y: 195.08795166015625
z: -0.3986058533191681
visibility: 0.9999394416809082
","x: 239.63623046875
y: 215.045166015625
z: -0.20080319046974182
visibility: 0.9999667406082153
","x: 190.2933807373047
y: 237.53445434570312
z: -0.1509610265493393
visibility: 0.999927282333374
","x: 245.73452758789062
y: 274.0745849609375
z: -0.19720831513404846
visibility: 0.9647026062011719
","x: 199.07281494140625
y: 307.4955139160156
z: -0.0952722579240799
visibility: 0.990502655506134
","x: 229.42437744140625
y: 315.8118591308594
z: -0.37405306100845337
visibility: 0.956940770149231
","x: 205.64537048339844
y: 368.8629455566406
z: -0.20157723128795624
visibility: 0.9777768850326538
","x: 226.73667907714844
y: 328.0155944824219
z: -0.4200162887573242
visibility: 0.923648476600647
","x: 207.33543395996094
y: 387.7963562011719
z: -0.23282575607299805
visibility: 0.9553844332695007
","x: 222.0349884033203
y: 321.04266357421875
z: -0.4429730474948883
visibility: 0.9324654340744019
","x: 211.93641662597656
y: 386.39227294921875
z: -0.26859885454177856
visibility: 0.9594144821166992
","x: 222.02655029296875
y: 318.361572265625
z: -0.38577625155448914
visibility: 0.9173136949539185
","x: 211.80316162109375
y: 380.765869140625
z: -0.2164449691772461
visibility: 0.9495298862457275
","x: 234.486083984375
y: 345.1645202636719
z: -0.014225440099835396
visibility: 0.9997559189796448
","x: 208.72274780273438
y: 343.7752685546875
z: 0.014185314998030663
visibility: 0.9995253086090088
","x: 221.99740600585938
y: 435.4432678222656
z: -0.06780765950679779
visibility: 0.9834862947463989
","x: 208.78363037109375
y: 435.2758483886719
z: -0.02242739498615265
visibility: 0.9523810148239136
","x: 214.77536010742188
y: 535.287353515625
z: 0.06084250658750534
visibility: 0.9739990830421448
","x: 210.03189086914062
y: 518.7794799804688
z: 0.16069695353507996
visibility: 0.8241317272186279
","x: 214.14553833007812
y: 547.5162963867188
z: 0.0656619518995285
visibility: 0.8749477863311768
","x: 210.66998291015625
y: 529.7843017578125
z: 0.1707380712032318
visibility: 0.5914015769958496
","x: 213.47406005859375
y: 560.0076904296875
z: -0.07512059062719345
visibility: 0.970350444316864
","x: 208.8832550048828
y: 546.2003173828125
z: 0.03861193731427193
visibility: 0.854074239730835
",,,,,,,,,,,,,,,,,,,,,,,,,,,,,,,,,,,,,,,,,,
4,"x: 215.5808563232422
y: 183.25360107421875
z: -0.3902978301048279
visibility: 0.9998950362205505
","x: 217.12673950195312
y: 172.6950225830078
z: -0.37748977541923523
visibility: 0.9996347427368164
","x: 218.66954040527344
y: 172.73394775390625
z: -0.3775586485862732
visibility: 0.9996545910835266
","x: 220.3258056640625
y: 172.77713012695312
z: -0.3776099979877472
visibility: 0.999615490436554
","x: 212.03695678710938
y: 172.51773071289062
z: -0.37582701444625854
visibility: 0.999645471572876
","x: 209.8189239501953
y: 172.65379333496094
z: -0.3758900761604309
visibility: 0.9996457099914551
","x: 207.3503875732422
y: 173.01820373535156
z: -0.3759983479976654
visibility: 0.9996387362480164
","x: 222.0027618408203
y: 175.16732788085938
z: -0.2599431276321411
visibility: 0.9992780089378357
","x: 202.84637451171875
y: 177.18930053710938
z: -0.2486814707517624
visibility: 0.9993224143981934
","x: 218.22019958496094
y: 193.15127563476562
z: -0.3401840329170227
visibility: 0.9998050332069397
","x: 211.8104248046875
y: 194.0211639404297
z: -0.3378247618675232
visibility: 0.9997466802597046
","x: 238.7419891357422
y: 214.54290771484375
z: -0.17607064545154572
visibility: 0.9999440312385559
","x: 190.29319763183594
y: 233.93316650390625
z: -0.11591353267431259
visibility: 0.9997920989990234
","x: 237.4006805419922
y: 276.5296325683594
z: -0.1487446427345276
visibility: 0.965065598487854
","x: 200.67581176757812
y: 298.6977233886719
z: -0.06424926966428757
visibility: 0.9744829535484314
","x: 221.47564697265625
y: 325.19903564453125
z: -0.3051847815513611
visibility: 0.9549660682678223
","x: 209.2164306640625
y: 346.24200439453125
z: -0.1960684061050415
visibility: 0.9608031511306763
","x: 219.77178955078125
y: 342.479248046875
z: -0.33348146080970764
visibility: 0.9215416312217712
","x: 210.25387573242188
y: 363.4266662597656
z: -0.23550792038440704
visibility: 0.9352723360061646
","x: 214.64332580566406
y: 337.4798889160156
z: -0.3775308430194855
visibility: 0.9298886060714722
","x: 212.9772491455078
y: 360.8185119628906
z: -0.26898694038391113
visibility: 0.9401880502700806
","x: 214.48239135742188
y: 331.90936279296875
z: -0.3394300043582916
visibility: 0.9134743213653564
","x: 212.75848388671875
y: 354.7265625
z: -0.2115936279296875
visibility: 0.9290550351142883
","x: 232.47561645507812
y: 340.0235595703125
z: -0.03382422775030136
visibility: 0.9994632005691528
","x: 205.63629150390625
y: 340.4100036621094
z: 0.033891789615154266
visibility: 0.9991738796234131
","x: 216.04811096191406
y: 435.17572021484375
z: -0.08077628910541534
visibility: 0.9771047830581665
","x: 203.89346313476562
y: 434.0668029785156
z: -0.04098689183592796
visibility: 0.9375186562538147
","x: 210.54116821289062
y: 531.2843627929688
z: 0.04164767637848854
visibility: 0.9696810841560364
","x: 209.71331787109375
y: 521.89599609375
z: 0.08506196737289429
visibility: 0.8296960592269897
","x: 212.48158264160156
y: 544.2101440429688
z: 0.044908132404088974
visibility: 0.8539297580718994
","x: 213.90609741210938
y: 537.2719116210938
z: 0.0892210379242897
visibility: 0.6035731434822083
","x: 204.2286376953125
y: 558.8218994140625
z: -0.09632520377635956
visibility: 0.9636126160621643
","x: 203.89816284179688
y: 548.7891845703125
z: -0.04668591171503067
visibility: 0.856427013874054
",,,,,,,,,,,,,,,,,,,,,,"x: 218.15078735351562
y: 326.893310546875
z: 0.0
","x: 212.88319396972656
y: 328.4481201171875
z: -0.003976039122790098
","x: 208.785888671875
y: 332.5286560058594
z: -0.007406741846352816
","x: 205.52752685546875
y: 336.144287109375
z: -0.01046955306082964
","x: 202.63697814941406
y: 338.39105224609375
z: -0.013518661260604858
","x: 212.61993408203125
y: 342.8323059082031
z: -0.009302951395511627
","x: 211.5388641357422
y: 351.29815673828125
z: -0.013009394519031048
","x: 210.78855895996094
y: 357.0000915527344
z: -0.01463150791823864
","x: 210.25685119628906
y: 361.85345458984375
z: -0.015470793470740318
","x: 215.78237915039062
y: 345.0305480957031
z: -0.009316359646618366
","x: 214.66885375976562
y: 355.0202941894531
z: -0.012630224227905273
","x: 213.72744750976562
y: 360.4407958984375
z: -0.013220247812569141
","x: 213.28045654296875
y: 364.3806457519531
z: -0.013674103654921055
","x: 218.40267944335938
y: 345.5676574707031
z: -0.009336420334875584
","x: 217.89634704589844
y: 354.8603820800781
z: -0.012541851960122585
","x: 216.96412658691406
y: 359.3083190917969
z: -0.013154974207282066
","x: 216.35289001464844
y: 362.6244812011719
z: -0.013503935188055038
","x: 220.48342895507812
y: 345.0793762207031
z: -0.009675123728811741
","x: 220.6035614013672
y: 352.33074951171875
z: -0.012278313748538494
","x: 220.08108520507812
y: 355.8148193359375
z: -0.012963566929101944
","x: 219.3944854736328
y: 358.3526306152344
z: -0.01334270741790533
"
5,"x: 215.5808563232422
y: 183.25360107421875
z: -0.3902978301048279
visibility: 0.9998950362205505
","x: 217.12673950195312
y: 172.6950225830078
z: -0.37748977541923523
visibility: 0.9996347427368164
","x: 218.66954040527344
y: 172.73394775390625
z: -0.3775586485862732
visibility: 0.9996545910835266
","x: 220.3258056640625
y: 172.77713012695312
z: -0.3776099979877472
visibility: 0.999615490436554
","x: 212.03695678710938
y: 172.51773071289062
z: -0.37582701444625854
visibility: 0.999645471572876
","x: 209.8189239501953
y: 172.65379333496094
z: -0.3758900761604309
visibility: 0.9996457099914551
","x: 207.3503875732422
y: 173.01820373535156
z: -0.3759983479976654
visibility: 0.9996387362480164
","x: 222.0027618408203
y: 175.16732788085938
z: -0.2599431276321411
visibility: 0.9992780089378357
","x: 202.84637451171875
y: 177.18930053710938
z: -0.2486814707517624
visibility: 0.9993224143981934
","x: 218.22019958496094
y: 193.15127563476562
z: -0.3401840329170227
visibility: 0.9998050332069397
","x: 211.8104248046875
y: 194.0211639404297
z: -0.3378247618675232
visibility: 0.9997466802597046
","x: 238.7419891357422
y: 214.54290771484375
z: -0.17607064545154572
visibility: 0.9999440312385559
","x: 190.29319763183594
y: 233.93316650390625
z: -0.11591353267431259
visibility: 0.9997920989990234
","x: 237.4006805419922
y: 276.5296325683594
z: -0.1487446427345276
visibility: 0.965065598487854
","x: 200.67581176757812
y: 298.6977233886719
z: -0.06424926966428757
visibility: 0.9744829535484314
","x: 221.47564697265625
y: 325.19903564453125
z: -0.3051847815513611
visibility: 0.9549660682678223
","x: 209.2164306640625
y: 346.24200439453125
z: -0.1960684061050415
visibility: 0.9608031511306763
","x: 219.77178955078125
y: 342.479248046875
z: -0.33348146080970764
visibility: 0.9215416312217712
","x: 210.25387573242188
y: 363.4266662597656
z: -0.23550792038440704
visibility: 0.9352723360061646
","x: 214.64332580566406
y: 337.4798889160156
z: -0.3775308430194855
visibility: 0.9298886060714722
","x: 212.9772491455078
y: 360.8185119628906
z: -0.26898694038391113
visibility: 0.9401880502700806
","x: 214.48239135742188
y: 331.90936279296875
z: -0.3394300043582916
visibility: 0.9134743213653564
","x: 212.75848388671875
y: 354.7265625
z: -0.2115936279296875
visibility: 0.9290550351142883
","x: 232.47561645507812
y: 340.0235595703125
z: -0.03382422775030136
visibility: 0.9994632005691528
","x: 205.63629150390625
y: 340.4100036621094
z: 0.033891789615154266
visibility: 0.9991738796234131
","x: 216.04811096191406
y: 435.17572021484375
z: -0.08077628910541534
visibility: 0.9771047830581665
","x: 203.89346313476562
y: 434.0668029785156
z: -0.04098689183592796
visibility: 0.9375186562538147
","x: 210.54116821289062
y: 531.2843627929688
z: 0.04164767637848854
visibility: 0.9696810841560364
","x: 209.71331787109375
y: 521.89599609375
z: 0.08506196737289429
visibility: 0.8296960592269897
","x: 212.48158264160156
y: 544.2101440429688
z: 0.044908132404088974
visibility: 0.8539297580718994
","x: 213.90609741210938
y: 537.2719116210938
z: 0.0892210379242897
visibility: 0.6035731434822083
","x: 204.2286376953125
y: 558.8218994140625
z: -0.09632520377635956
visibility: 0.9636126160621643
","x: 203.89816284179688
y: 548.7891845703125
z: -0.04668591171503067
visibility: 0.856427013874054
",,,,,,,,,,,,,,,,,,,,,,"x: 218.15078735351562
y: 326.893310546875
z: 0.0
","x: 212.88319396972656
y: 328.4481201171875
z: -0.003976039122790098
","x: 208.785888671875
y: 332.5286560058594
z: -0.007406741846352816
","x: 205.52752685546875
y: 336.144287109375
z: -0.01046955306082964
","x: 202.63697814941406
y: 338.39105224609375
z: -0.013518661260604858
","x: 212.61993408203125
y: 342.8323059082031
z: -0.009302951395511627
","x: 211.5388641357422
y: 351.29815673828125
z: -0.013009394519031048
","x: 210.78855895996094
y: 357.0000915527344
z: -0.01463150791823864
","x: 210.25685119628906
y: 361.85345458984375
z: -0.015470793470740318
","x: 215.78237915039062
y: 345.0305480957031
z: -0.009316359646618366
","x: 214.66885375976562
y: 355.0202941894531
z: -0.012630224227905273
","x: 213.72744750976562
y: 360.4407958984375
z: -0.013220247812569141
","x: 213.28045654296875
y: 364.3806457519531
z: -0.013674103654921055
","x: 218.40267944335938
y: 345.5676574707031
z: -0.009336420334875584
","x: 217.89634704589844
y: 354.8603820800781
z: -0.012541851960122585
","x: 216.96412658691406
y: 359.3083190917969
z: -0.013154974207282066
","x: 216.35289001464844
y: 362.6244812011719
z: -0.013503935188055038
","x: 220.48342895507812
y: 345.0793762207031
z: -0.009675123728811741
","x: 220.6035614013672
y: 352.33074951171875
z: -0.012278313748538494
","x: 220.08108520507812
y: 355.8148193359375
z: -0.012963566929101944
","x: 219.3944854736328
y: 358.3526306152344
z: -0.01334270741790533
"
6,"x: 213.29586791992188
y: 182.45965576171875
z: -0.28325164318084717
visibility: 0.9998756647109985
","x: 214.75369262695312
y: 172.17404174804688
z: -0.2666553854942322
visibility: 0.9995740056037903
","x: 216.30752563476562
y: 172.12632751464844
z: -0.26674002408981323
visibility: 0.9995931386947632
","x: 217.57797241210938
y: 172.09532165527344
z: -0.2667728662490845
visibility: 0.999548614025116
","x: 209.58523559570312
y: 172.35952758789062
z: -0.2646563947200775
visibility: 0.9995885491371155
","x: 207.535400390625
y: 172.55889892578125
z: -0.26468589901924133
visibility: 0.9995794892311096
","x: 205.49024963378906
y: 172.93153381347656
z: -0.26474204659461975
visibility: 0.9995734095573425
","x: 219.25392150878906
y: 174.640380859375
z: -0.14675816893577576
visibility: 0.9992244839668274
","x: 201.61338806152344
y: 177.18020629882812
z: -0.13589046895503998
visibility: 0.999199390411377
","x: 216.32899475097656
y: 191.94837951660156
z: -0.23495152592658997
visibility: 0.9997702240943909
","x: 209.8419952392578
y: 193.2626190185547
z: -0.23183265328407288
visibility: 0.9996926188468933
","x: 236.89532470703125
y: 212.7707061767578
z: -0.10545448958873749
visibility: 0.9999422430992126
","x: 190.19235229492188
y: 233.39341735839844
z: -0.016920197755098343
visibility: 0.9997291564941406
","x: 235.8683624267578
y: 276.7643127441406
z: -0.13287721574306488
visibility: 0.9658575654029846
","x: 200.5513458251953
y: 295.95904541015625
z: 0.014100183732807636
visibility: 0.9560269713401794
","x: 218.93055725097656
y: 325.93756103515625
z: -0.29078182578086853
visibility: 0.9545401334762573
","x: 206.15452575683594
y: 341.0580749511719
z: -0.12207554280757904
visibility: 0.944060742855072
","x: 216.52664184570312
y: 344.55731201171875
z: -0.3116779923439026
visibility: 0.9220631122589111
","x: 206.3939208984375
y: 359.5864562988281
z: -0.16063901782035828
visibility: 0.9166352152824402
","x: 211.85202026367188
y: 340.1959533691406
z: -0.3600477874279022
visibility: 0.9297873973846436
","x: 208.50665283203125
y: 356.17681884765625
z: -0.1954256147146225
visibility: 0.9224621057510376
","x: 211.8309326171875
y: 333.848388671875
z: -0.3139750361442566
visibility: 0.9125837683677673
","x: 208.8959503173828
y: 349.42364501953125
z: -0.13892382383346558
visibility: 0.9104412794113159
","x: 233.57388305664062
y: 341.1773681640625
z: -0.04545293003320694
visibility: 0.9993958473205566
","x: 206.83802795410156
y: 343.6832275390625
z: 0.04562540724873543
visibility: 0.9990382194519043
","x: 217.28744506835938
y: 436.21923828125
z: -0.1322908103466034
visibility: 0.9757065176963806
","x: 204.09774780273438
y: 438.9662170410156
z: -0.04241671413183212
visibility: 0.9296076893806458
","x: 212.1990509033203
y: 530.796630859375
z: -0.006930232979357243
visibility: 0.9685132503509521
","x: 210.3358612060547
y: 522.8711547851562
z: 0.07383626699447632
visibility: 0.8362680077552795
","x: 214.49203491210938
y: 543.2684326171875
z: -0.013686321675777435
visibility: 0.8454318046569824
","x: 215.2783966064453
y: 537.4705200195312
z: 0.07674308121204376
visibility: 0.621085524559021
","x: 204.79774475097656
y: 557.6903076171875
z: -0.1116923838853836
visibility: 0.9614086151123047
","x: 201.6743927001953
y: 550.1043090820312
z: -0.044755082577466965
visibility: 0.8600013256072998
",,,,,,,,,,,,,,,,,,,,,,"x: 216.5335693359375
y: 325.9803466796875
z: 0.0
","x: 211.25192260742188
y: 329.0633544921875
z: -0.0011835434706881642
","x: 207.35105895996094
y: 335.181884765625
z: -0.0030190355610102415
","x: 204.89451599121094
y: 341.01416015625
z: -0.004672778770327568
","x: 202.44631958007812
y: 344.4737243652344
z: -0.006300617475062609
","x: 208.69915771484375
y: 340.0150146484375
z: -0.006316075567156076
","x: 206.53610229492188
y: 350.3545837402344
z: -0.009286618791520596
","x: 205.3635711669922
y: 356.9930725097656
z: -0.010497381910681725
","x: 204.5611114501953
y: 362.1015930175781
z: -0.011082964017987251
","x: 211.6715850830078
y: 342.3718566894531
z: -0.007342216093093157
","x: 209.00698852539062
y: 352.5729675292969
z: -0.010269315913319588
","x: 207.0144500732422
y: 359.6293640136719
z: -0.010967060923576355
","x: 205.44656372070312
y: 365.0399475097656
z: -0.011499956250190735
","x: 214.58163452148438
y: 343.94110107421875
z: -0.00819502305239439
","x: 212.0001678466797
y: 353.33251953125
z: -0.010882863774895668
","x: 209.97203063964844
y: 359.62860107421875
z: -0.011590971611440182
","x: 208.3202362060547
y: 364.46453857421875
z: -0.012158377096056938
","x: 217.3099822998047
y: 344.8924560546875
z: -0.009079691022634506
","x: 215.71612548828125
y: 352.54290771484375
z: -0.011230606585741043
","x: 214.44476318359375
y: 357.3582763671875
z: -0.011826751753687859
","x: 213.29689025878906
y: 361.27960205078125
z: -0.0122834462672472
"
7,"x: 213.29586791992188
y: 182.45965576171875
z: -0.28325164318084717
visibility: 0.9998756647109985
","x: 214.75369262695312
y: 172.17404174804688
z: -0.2666553854942322
visibility: 0.9995740056037903
","x: 216.30752563476562
y: 172.12632751464844
z: -0.26674002408981323
visibility: 0.9995931386947632
","x: 217.57797241210938
y: 172.09532165527344
z: -0.2667728662490845
visibility: 0.999548614025116
","x: 209.58523559570312
y: 172.35952758789062
z: -0.2646563947200775
visibility: 0.9995885491371155
","x: 207.535400390625
y: 172.55889892578125
z: -0.26468589901924133
visibility: 0.9995794892311096
","x: 205.49024963378906
y: 172.93153381347656
z: -0.26474204659461975
visibility: 0.9995734095573425
","x: 219.25392150878906
y: 174.640380859375
z: -0.14675816893577576
visibility: 0.9992244839668274
","x: 201.61338806152344
y: 177.18020629882812
z: -0.13589046895503998
visibility: 0.999199390411377
","x: 216.32899475097656
y: 191.94837951660156
z: -0.23495152592658997
visibility: 0.9997702240943909
","x: 209.8419952392578
y: 193.2626190185547
z: -0.23183265328407288
visibility: 0.9996926188468933
","x: 236.89532470703125
y: 212.7707061767578
z: -0.10545448958873749
visibility: 0.9999422430992126
","x: 190.19235229492188
y: 233.39341735839844
z: -0.016920197755098343
visibility: 0.9997291564941406
","x: 235.8683624267578
y: 276.7643127441406
z: -0.13287721574306488
visibility: 0.9658575654029846
","x: 200.5513458251953
y: 295.95904541015625
z: 0.014100183732807636
visibility: 0.9560269713401794
","x: 218.93055725097656
y: 325.93756103515625
z: -0.29078182578086853
visibility: 0.9545401334762573
","x: 206.15452575683594
y: 341.0580749511719
z: -0.12207554280757904
visibility: 0.944060742855072
","x: 216.52664184570312
y: 344.55731201171875
z: -0.3116779923439026
visibility: 0.9220631122589111
","x: 206.3939208984375
y: 359.5864562988281
z: -0.16063901782035828
visibility: 0.9166352152824402
","x: 211.85202026367188
y: 340.1959533691406
z: -0.3600477874279022
visibility: 0.9297873973846436
","x: 208.50665283203125
y: 356.17681884765625
z: -0.1954256147146225
visibility: 0.9224621057510376
","x: 211.8309326171875
y: 333.848388671875
z: -0.3139750361442566
visibility: 0.9125837683677673
","x: 208.8959503173828
y: 349.42364501953125
z: -0.13892382383346558
visibility: 0.9104412794113159
","x: 233.57388305664062
y: 341.1773681640625
z: -0.04545293003320694
visibility: 0.9993958473205566
","x: 206.83802795410156
y: 343.6832275390625
z: 0.04562540724873543
visibility: 0.9990382194519043
","x: 217.28744506835938
y: 436.21923828125
z: -0.1322908103466034
visibility: 0.9757065176963806
","x: 204.09774780273438
y: 438.9662170410156
z: -0.04241671413183212
visibility: 0.9296076893806458
","x: 212.1990509033203
y: 530.796630859375
z: -0.006930232979357243
visibility: 0.9685132503509521
","x: 210.3358612060547
y: 522.8711547851562
z: 0.07383626699447632
visibility: 0.8362680077552795
","x: 214.49203491210938
y: 543.2684326171875
z: -0.013686321675777435
visibility: 0.8454318046569824
","x: 215.2783966064453
y: 537.4705200195312
z: 0.07674308121204376
visibility: 0.621085524559021
","x: 204.79774475097656
y: 557.6903076171875
z: -0.1116923838853836
visibility: 0.9614086151123047
","x: 201.6743927001953
y: 550.1043090820312
z: -0.044755082577466965
visibility: 0.8600013256072998
",,,,,,,,,,,,,,,,,,,,,,"x: 216.5335693359375
y: 325.9803466796875
z: 0.0
","x: 211.25192260742188
y: 329.0633544921875
z: -0.0011835434706881642
","x: 207.35105895996094
y: 335.181884765625
z: -0.0030190355610102415
","x: 204.89451599121094
y: 341.01416015625
z: -0.004672778770327568
","x: 202.44631958007812
y: 344.4737243652344
z: -0.006300617475062609
","x: 208.69915771484375
y: 340.0150146484375
z: -0.006316075567156076
","x: 206.53610229492188
y: 350.3545837402344
z: -0.009286618791520596
","x: 205.3635711669922
y: 356.9930725097656
z: -0.010497381910681725
","x: 204.5611114501953
y: 362.1015930175781
z: -0.011082964017987251
","x: 211.6715850830078
y: 342.3718566894531
z: -0.007342216093093157
","x: 209.00698852539062
y: 352.5729675292969
z: -0.010269315913319588
","x: 207.0144500732422
y: 359.6293640136719
z: -0.010967060923576355
","x: 205.44656372070312
y: 365.0399475097656
z: -0.011499956250190735
","x: 214.58163452148438
y: 343.94110107421875
z: -0.00819502305239439
","x: 212.0001678466797
y: 353.33251953125
z: -0.010882863774895668
","x: 209.97203063964844
y: 359.62860107421875
z: -0.011590971611440182
","x: 208.3202362060547
y: 364.46453857421875
z: -0.012158377096056938
","x: 217.3099822998047
y: 344.8924560546875
z: -0.009079691022634506
","x: 215.71612548828125
y: 352.54290771484375
z: -0.011230606585741043
","x: 214.44476318359375
y: 357.3582763671875
z: -0.011826751753687859
","x: 213.29689025878906
y: 361.27960205078125
z: -0.0122834462672472
"
8,"x: 212.34817504882812
y: 182.63795471191406
z: -0.2626919746398926
visibility: 0.9998824596405029
","x: 214.0755157470703
y: 172.28814697265625
z: -0.24559661746025085
visibility: 0.9996021389961243
","x: 215.6663818359375
y: 172.14158630371094
z: -0.245673269033432
visibility: 0.9996175169944763
","x: 216.83718872070312
y: 172.14979553222656
z: -0.24570095539093018
visibility: 0.9995768666267395
","x: 208.52378845214844
y: 172.8791961669922
z: -0.24289481341838837
visibility: 0.9996165037155151
","x: 206.38623046875
y: 173.0858612060547
z: -0.24292953312397003
visibility: 0.9996051788330078
","x: 204.26589965820312
y: 173.41860961914062
z: -0.2429577112197876
visibility: 0.9996002316474915
","x: 218.58291625976562
y: 174.75628662109375
z: -0.1243705004453659
visibility: 0.9992822408676147
","x: 200.63250732421875
y: 177.62147521972656
z: -0.11217565834522247
visibility: 0.9992464780807495
","x: 215.45448303222656
y: 192.03311157226562
z: -0.21431216597557068
visibility: 0.9997837543487549
","x: 208.6389923095703
y: 193.33843994140625
z: -0.21069061756134033
visibility: 0.9997096061706543
","x: 235.9398193359375
y: 211.88035583496094
z: -0.08984197676181793
visibility: 0.9999451637268066
","x: 190.03146362304688
y: 234.6372833251953
z: 0.008752734400331974
visibility: 0.999728798866272
","x: 234.7176055908203
y: 278.5192565917969
z: -0.1283741295337677
visibility: 0.9672800302505493
","x: 199.95330810546875
y: 297.3578796386719
z: 0.028980877250432968
visibility: 0.9448888897895813
","x: 215.93467712402344
y: 328.4404296875
z: -0.28828194737434387
visibility: 0.955721378326416
","x: 203.24951171875
y: 347.0443115234375
z: -0.121678426861763
visibility: 0.9314593076705933
","x: 212.8186798095703
y: 350.64715576171875
z: -0.3398393988609314
visibility: 0.924554169178009
","x: 202.9857177734375
y: 364.5499267578125
z: -0.15954336524009705
visibility: 0.9023128747940063
","x: 208.23316955566406
y: 345.04498291015625
z: -0.36203256249427795
visibility: 0.9316491484642029
","x: 204.596923828125
y: 361.7619323730469
z: -0.19480298459529877
visibility: 0.9087383151054382
","x: 208.62014770507812
y: 337.7403564453125
z: -0.30106210708618164
visibility: 0.9139165282249451
","x: 205.02276611328125
y: 355.3871154785156
z: -0.1387380212545395
visibility: 0.8956719636917114
","x: 234.46865844726562
y: 343.357666015625
z: -0.04875447601079941
visibility: 0.9994146227836609
","x: 208.79913330078125
y: 346.9884033203125
z: 0.04895055666565895
visibility: 0.9990411996841431
","x: 219.49205017089844
y: 436.5113830566406
z: -0.23908014595508575
visibility: 0.9745244979858398
","x: 205.25845336914062
y: 440.64453125
z: -0.05911818891763687
visibility: 0.9190146327018738
","x: 212.35939025878906
y: 531.2786254882812
z: -0.16397176682949066
visibility: 0.9660293459892273
","x: 211.19805908203125
y: 526.6546020507812
z: 0.030738841742277145
visibility: 0.8369301557540894
","x: 214.39193725585938
y: 544.8097534179688
z: -0.1648419350385666
visibility: 0.8452762961387634
","x: 216.09524536132812
y: 542.273681640625
z: 0.031149694696068764
visibility: 0.6331069469451904
","x: 204.37042236328125
y: 558.4031982421875
z: -0.3031221330165863
visibility: 0.959415078163147
","x: 201.5077667236328
y: 554.1029663085938
z: -0.09118552505970001
visibility: 0.8583310842514038
",,,,,,,,,,,,,,,,,,,,,,"x: 215.3350067138672
y: 328.01251220703125
z: 0.0
","x: 209.45228576660156
y: 331.01666259765625
z: 0.0005662118783220649
","x: 205.17239379882812
y: 335.99346923828125
z: 0.0001413073914591223
","x: 203.19862365722656
y: 341.33050537109375
z: -0.0006220911745913327
","x: 202.36517333984375
y: 346.1320495605469
z: -0.0013778008287772536
","x: 205.77239990234375
y: 343.04833984375
z: -0.000570223608519882
","x: 203.86184692382812
y: 350.71697998046875
z: -0.0022300048731267452
","x: 202.81069946289062
y: 356.3206787109375
z: -0.0032614008523523808
","x: 202.20883178710938
y: 361.031982421875
z: -0.003833442460745573
","x: 208.6150665283203
y: 345.8892822265625
z: -0.0023648838978260756
","x: 206.57379150390625
y: 353.6219482421875
z: -0.0036022989079356194
","x: 205.2122802734375
y: 359.3701477050781
z: -0.004228435922414064
","x: 204.23947143554688
y: 364.1505432128906
z: -0.004856884479522705
","x: 211.64984130859375
y: 347.9936218261719
z: -0.004229416139423847
","x: 209.5335235595703
y: 355.48382568359375
z: -0.005599671043455601
","x: 208.17674255371094
y: 360.467041015625
z: -0.006035420577973127
","x: 207.0777130126953
y: 364.400634765625
z: -0.006483149249106646
","x: 214.7782440185547
y: 349.2474365234375
z: -0.006198219954967499
","x: 213.38563537597656
y: 356.5845947265625
z: -0.007661187089979649
","x: 212.45199584960938
y: 361.2300109863281
z: -0.007995322346687317
","x: 211.64285278320312
y: 365.1988220214844
z: -0.008204113692045212
"
9,"x: 212.34817504882812
y: 182.63795471191406
z: -0.2626919746398926
visibility: 0.9998824596405029
","x: 214.0755157470703
y: 172.28814697265625
z: -0.24559661746025085
visibility: 0.9996021389961243
","x: 215.6663818359375
y: 172.14158630371094
z: -0.245673269033432
visibility: 0.9996175169944763
","x: 216.83718872070312
y: 172.14979553222656
z: -0.24570095539093018
visibility: 0.9995768666267395
","x: 208.52378845214844
y: 172.8791961669922
z: -0.24289481341838837
visibility: 0.9996165037155151
","x: 206.38623046875
y: 173.0858612060547
z: -0.24292953312397003
visibility: 0.9996051788330078
","x: 204.26589965820312
y: 173.41860961914062
z: -0.2429577112197876
visibility: 0.9996002316474915
","x: 218.58291625976562
y: 174.75628662109375
z: -0.1243705004453659
visibility: 0.9992822408676147
","x: 200.63250732421875
y: 177.62147521972656
z: -0.11217565834522247
visibility: 0.9992464780807495
","x: 215.45448303222656
y: 192.03311157226562
z: -0.21431216597557068
visibility: 0.9997837543487549
","x: 208.6389923095703
y: 193.33843994140625
z: -0.21069061756134033
visibility: 0.9997096061706543
","x: 235.9398193359375
y: 211.88035583496094
z: -0.08984197676181793
visibility: 0.9999451637268066
","x: 190.03146362304688
y: 234.6372833251953
z: 0.008752734400331974
visibility: 0.999728798866272
","x: 234.7176055908203
y: 278.5192565917969
z: -0.1283741295337677
visibility: 0.9672800302505493
","x: 199.95330810546875
y: 297.3578796386719
z: 0.028980877250432968
visibility: 0.9448888897895813
","x: 215.93467712402344
y: 328.4404296875
z: -0.28828194737434387
visibility: 0.955721378326416
","x: 203.24951171875
y: 347.0443115234375
z: -0.121678426861763
visibility: 0.9314593076705933
","x: 212.8186798095703
y: 350.64715576171875
z: -0.3398393988609314
visibility: 0.924554169178009
","x: 202.9857177734375
y: 364.5499267578125
z: -0.15954336524009705
visibility: 0.9023128747940063
","x: 208.23316955566406
y: 345.04498291015625
z: -0.36203256249427795
visibility: 0.9316491484642029
","x: 204.596923828125
y: 361.7619323730469
z: -0.19480298459529877
visibility: 0.9087383151054382
","x: 208.62014770507812
y: 337.7403564453125
z: -0.30106210708618164
visibility: 0.9139165282249451
","x: 205.02276611328125
y: 355.3871154785156
z: -0.1387380212545395
visibility: 0.8956719636917114
","x: 234.46865844726562
y: 343.357666015625
z: -0.04875447601079941
visibility: 0.9994146227836609
","x: 208.79913330078125
y: 346.9884033203125
z: 0.04895055666565895
visibility: 0.9990411996841431
","x: 219.49205017089844
y: 436.5113830566406
z: -0.23908014595508575
visibility: 0.9745244979858398
","x: 205.25845336914062
y: 440.64453125
z: -0.05911818891763687
visibility: 0.9190146327018738
","x: 212.35939025878906
y: 531.2786254882812
z: -0.16397176682949066
visibility: 0.9660293459892273
","x: 211.19805908203125
y: 526.6546020507812
z: 0.030738841742277145
visibility: 0.8369301557540894
","x: 214.39193725585938
y: 544.8097534179688
z: -0.1648419350385666
visibility: 0.8452762961387634
","x: 216.09524536132812
y: 542.273681640625
z: 0.031149694696068764
visibility: 0.6331069469451904
","x: 204.37042236328125
y: 558.4031982421875
z: -0.3031221330165863
visibility: 0.959415078163147
","x: 201.5077667236328
y: 554.1029663085938
z: -0.09118552505970001
visibility: 0.8583310842514038
",,,,,,,,,,,,,,,,,,,,,,"x: 215.3350067138672
y: 328.01251220703125
z: 0.0
","x: 209.45228576660156
y: 331.01666259765625
z: 0.0005662118783220649
","x: 205.17239379882812
y: 335.99346923828125
z: 0.0001413073914591223
","x: 203.19862365722656
y: 341.33050537109375
z: -0.0006220911745913327
","x: 202.36517333984375
y: 346.1320495605469
z: -0.0013778008287772536
","x: 205.77239990234375
y: 343.04833984375
z: -0.000570223608519882
","x: 203.86184692382812
y: 350.71697998046875
z: -0.0022300048731267452
","x: 202.81069946289062
y: 356.3206787109375
z: -0.0032614008523523808
","x: 202.20883178710938
y: 361.031982421875
z: -0.003833442460745573
","x: 208.6150665283203
y: 345.8892822265625
z: -0.0023648838978260756
","x: 206.57379150390625
y: 353.6219482421875
z: -0.0036022989079356194
","x: 205.2122802734375
y: 359.3701477050781
z: -0.004228435922414064
","x: 204.23947143554688
y: 364.1505432128906
z: -0.004856884479522705
","x: 211.64984130859375
y: 347.9936218261719
z: -0.004229416139423847
","x: 209.5335235595703
y: 355.48382568359375
z: -0.005599671043455601
","x: 208.17674255371094
y: 360.467041015625
z: -0.006035420577973127
","x: 207.0777130126953
y: 364.400634765625
z: -0.006483149249106646
","x: 214.7782440185547
y: 349.2474365234375
z: -0.006198219954967499
","x: 213.38563537597656
y: 356.5845947265625
z: -0.007661187089979649
","x: 212.45199584960938
y: 361.2300109863281
z: -0.007995322346687317
","x: 211.64285278320312
y: 365.1988220214844
z: -0.008204113692045212
"
10,"x: 214.7855987548828
y: 183.1266632080078
z: -0.3832782804965973
visibility: 0.9998841285705566
","x: 215.22312927246094
y: 173.19349670410156
z: -0.36613157391548157
visibility: 0.9996127486228943
","x: 216.5416717529297
y: 172.885009765625
z: -0.36620455980300903
visibility: 0.9996263980865479
","x: 217.2802734375
y: 172.73684692382812
z: -0.36628594994544983
visibility: 0.9995895624160767
","x: 210.83877563476562
y: 173.50088500976562
z: -0.3628212809562683
visibility: 0.9996302723884583
","x: 208.66574096679688
y: 173.49334716796875
z: -0.3629201054573059
visibility: 0.9996174573898315
","x: 206.3604736328125
y: 173.6549072265625
z: -0.36298084259033203
visibility: 0.9996121525764465
","x: 219.08839416503906
y: 174.7805938720703
z: -0.23793911933898926
visibility: 0.9993054270744324
","x: 200.76686096191406
y: 177.84579467773438
z: -0.21898944675922394
visibility: 0.9992546439170837
","x: 216.87782287597656
y: 192.3953399658203
z: -0.3317868113517761
visibility: 0.9997910261154175
","x: 211.37844848632812
y: 193.70230102539062
z: -0.32677537202835083
visibility: 0.9997148513793945
","x: 235.87420654296875
y: 209.71377563476562
z: -0.19793333113193512
visibility: 0.9999483823776245
","x: 190.36248779296875
y: 236.34490966796875
z: -0.06359382718801498
visibility: 0.9996983408927917
","x: 237.584716796875
y: 276.4502868652344
z: -0.2270818054676056
visibility: 0.9684060215950012
","x: 198.71392822265625
y: 303.7547607421875
z: -0.03378092870116234
visibility: 0.941521942615509
","x: 213.8026123046875
y: 326.9002990722656
z: -0.37149134278297424
visibility: 0.9543299078941345
","x: 201.66644287109375
y: 369.4228515625
z: -0.16433009505271912
visibility: 0.9192236065864563
","x: 209.9987030029297
y: 346.46307373046875
z: -0.42717379331588745
visibility: 0.9223341941833496
","x: 201.00732421875
y: 385.42376708984375
z: -0.1995401680469513
visibility: 0.8859782814979553
","x: 205.24191284179688
y: 341.46649169921875
z: -0.4439317286014557
visibility: 0.9290317893028259
","x: 203.2861328125
y: 383.7890625
z: -0.2366107702255249
visibility: 0.8934133052825928
","x: 206.42967224121094
y: 335.61376953125
z: -0.380372554063797
visibility: 0.9088581204414368
","x: 204.171142578125
y: 377.73638916015625
z: -0.18131984770298004
visibility: 0.8801043033599854
","x: 235.6358184814453
y: 344.54296875
z: -0.05473263934254646
visibility: 0.9994451403617859
","x: 212.2821807861328
y: 348.6875
z: 0.05488262325525284
visibility: 0.9990235567092896
","x: 220.0692901611328
y: 437.13330078125
z: -0.22840440273284912
visibility: 0.9749383926391602
","x: 206.44688415527344
y: 440.654296875
z: 0.039536867290735245
visibility: 0.8995694518089294
","x: 211.14443969726562
y: 532.8936157226562
z: -0.15168499946594238
visibility: 0.9671584963798523
","x: 213.63906860351562
y: 522.8540649414062
z: 0.1492314338684082
visibility: 0.827454149723053
","x: 212.28912353515625
y: 545.53955078125
z: -0.1517920047044754
visibility: 0.8489842414855957
","x: 216.36166381835938
y: 536.4496459960938
z: 0.12392352521419525
visibility: 0.6306652426719666
","x: 201.02590942382812
y: 563.9176025390625
z: -0.3030836284160614
visibility: 0.9600566625595093
","x: 206.51336669921875
y: 552.8438110351562
z: 0.04897378012537956
visibility: 0.8498564958572388
","x: 205.39013671875
y: 368.8255615234375
z: 0.0
","x: 201.15643310546875
y: 374.413330078125
z: -0.0025310292840003967
","x: 198.2252655029297
y: 379.8984375
z: -0.004516112618148327
","x: 195.95291137695312
y: 382.62603759765625
z: -0.00687266094610095
","x: 193.84616088867188
y: 383.58935546875
z: -0.009051852859556675
","x: 203.78248596191406
y: 392.93048095703125
z: -0.002139096846804023
","x: 204.6116485595703
y: 403.10400390625
z: -0.00498419813811779
","x: 205.10768127441406
y: 409.5945739746094
z: -0.007004131097346544
","x: 205.4966583251953
y: 414.9584655761719
z: -0.008238428272306919
","x: 207.2528533935547
y: 391.9642639160156
z: -0.0031026084907352924
","x: 209.16659545898438
y: 400.59466552734375
z: -0.005300367716699839
","x: 209.98716735839844
y: 404.968017578125
z: -0.0061765373684465885
","x: 210.49783325195312
y: 408.092041015625
z: -0.006694163661450148
","x: 210.020751953125
y: 389.0257263183594
z: -0.0046433936804533005
","x: 212.03472900390625
y: 393.7494201660156
z: -0.007088951300829649
","x: 211.73988342285156
y: 392.5601501464844
z: -0.007201573345810175
","x: 211.02597045898438
y: 390.8675537109375
z: -0.006781618110835552
","x: 212.1312255859375
y: 384.886474609375
z: -0.006810181308537722
","x: 214.46014404296875
y: 388.20391845703125
z: -0.009146595373749733
","x: 214.998291015625
y: 388.289306640625
z: -0.009551679715514183
","x: 214.92486572265625
y: 387.7025146484375
z: -0.009274802170693874
",,,,,,,,,,,,,,,,,,,,,
11,"x: 214.7855987548828
y: 183.1266632080078
z: -0.3832782804965973
visibility: 0.9998841285705566
","x: 215.22312927246094
y: 173.19349670410156
z: -0.36613157391548157
visibility: 0.9996127486228943
","x: 216.5416717529297
y: 172.885009765625
z: -0.36620455980300903
visibility: 0.9996263980865479
","x: 217.2802734375
y: 172.73684692382812
z: -0.36628594994544983
visibility: 0.9995895624160767
","x: 210.83877563476562
y: 173.50088500976562
z: -0.3628212809562683
visibility: 0.9996302723884583
","x: 208.66574096679688
y: 173.49334716796875
z: -0.3629201054573059
visibility: 0.9996174573898315
","x: 206.3604736328125
y: 173.6549072265625
z: -0.36298084259033203
visibility: 0.9996121525764465
","x: 219.08839416503906
y: 174.7805938720703
z: -0.23793911933898926
visibility: 0.9993054270744324
","x: 200.76686096191406
y: 177.84579467773438
z: -0.21898944675922394
visibility: 0.9992546439170837
","x: 216.87782287597656
y: 192.3953399658203
z: -0.3317868113517761
visibility: 0.9997910261154175
","x: 211.37844848632812
y: 193.70230102539062
z: -0.32677537202835083
visibility: 0.9997148513793945
","x: 235.87420654296875
y: 209.71377563476562
z: -0.19793333113193512
visibility: 0.9999483823776245
","x: 190.36248779296875
y: 236.34490966796875
z: -0.06359382718801498
visibility: 0.9996983408927917
","x: 237.584716796875
y: 276.4502868652344
z: -0.2270818054676056
visibility: 0.9684060215950012
","x: 198.71392822265625
y: 303.7547607421875
z: -0.03378092870116234
visibility: 0.941521942615509
","x: 213.8026123046875
y: 326.9002990722656
z: -0.37149134278297424
visibility: 0.9543299078941345
","x: 201.66644287109375
y: 369.4228515625
z: -0.16433009505271912
visibility: 0.9192236065864563
","x: 209.9987030029297
y: 346.46307373046875
z: -0.42717379331588745
visibility: 0.9223341941833496
","x: 201.00732421875
y: 385.42376708984375
z: -0.1995401680469513
visibility: 0.8859782814979553
","x: 205.24191284179688
y: 341.46649169921875
z: -0.4439317286014557
visibility: 0.9290317893028259
","x: 203.2861328125
y: 383.7890625
z: -0.2366107702255249
visibility: 0.8934133052825928
","x: 206.42967224121094
y: 335.61376953125
z: -0.380372554063797
visibility: 0.9088581204414368
","x: 204.171142578125
y: 377.73638916015625
z: -0.18131984770298004
visibility: 0.8801043033599854
","x: 235.6358184814453
y: 344.54296875
z: -0.05473263934254646
visibility: 0.9994451403617859
","x: 212.2821807861328
y: 348.6875
z: 0.05488262325525284
visibility: 0.9990235567092896
","x: 220.0692901611328
y: 437.13330078125
z: -0.22840440273284912
visibility: 0.9749383926391602
","x: 206.44688415527344
y: 440.654296875
z: 0.039536867290735245
visibility: 0.8995694518089294
","x: 211.14443969726562
y: 532.8936157226562
z: -0.15168499946594238
visibility: 0.9671584963798523
","x: 213.63906860351562
y: 522.8540649414062
z: 0.1492314338684082
visibility: 0.827454149723053
","x: 212.28912353515625
y: 545.53955078125
z: -0.1517920047044754
visibility: 0.8489842414855957
","x: 216.36166381835938
y: 536.4496459960938
z: 0.12392352521419525
visibility: 0.6306652426719666
","x: 201.02590942382812
y: 563.9176025390625
z: -0.3030836284160614
visibility: 0.9600566625595093
","x: 206.51336669921875
y: 552.8438110351562
z: 0.04897378012537956
visibility: 0.8498564958572388
","x: 205.39013671875
y: 368.8255615234375
z: 0.0
","x: 201.15643310546875
y: 374.413330078125
z: -0.0025310292840003967
","x: 198.2252655029297
y: 379.8984375
z: -0.004516112618148327
","x: 195.95291137695312
y: 382.62603759765625
z: -0.00687266094610095
","x: 193.84616088867188
y: 383.58935546875
z: -0.009051852859556675
","x: 203.78248596191406
y: 392.93048095703125
z: -0.002139096846804023
","x: 204.6116485595703
y: 403.10400390625
z: -0.00498419813811779
","x: 205.10768127441406
y: 409.5945739746094
z: -0.007004131097346544
","x: 205.4966583251953
y: 414.9584655761719
z: -0.008238428272306919
","x: 207.2528533935547
y: 391.9642639160156
z: -0.0031026084907352924
","x: 209.16659545898438
y: 400.59466552734375
z: -0.005300367716699839
","x: 209.98716735839844
y: 404.968017578125
z: -0.0061765373684465885
","x: 210.49783325195312
y: 408.092041015625
z: -0.006694163661450148
","x: 210.020751953125
y: 389.0257263183594
z: -0.0046433936804533005
","x: 212.03472900390625
y: 393.7494201660156
z: -0.007088951300829649
","x: 211.73988342285156
y: 392.5601501464844
z: -0.007201573345810175
","x: 211.02597045898438
y: 390.8675537109375
z: -0.006781618110835552
","x: 212.1312255859375
y: 384.886474609375
z: -0.006810181308537722
","x: 214.46014404296875
y: 388.20391845703125
z: -0.009146595373749733
","x: 214.998291015625
y: 388.289306640625
z: -0.009551679715514183
","x: 214.92486572265625
y: 387.7025146484375
z: -0.009274802170693874
",,,,,,,,,,,,,,,,,,,,,
12,"x: 221.11293029785156
y: 183.0677490234375
z: -0.4650266170501709
visibility: 0.9998916983604431
","x: 220.8739776611328
y: 173.2044219970703
z: -0.45040959119796753
visibility: 0.999639630317688
","x: 221.91729736328125
y: 172.8801727294922
z: -0.45046934485435486
visibility: 0.9996523857116699
","x: 222.71868896484375
y: 172.66488647460938
z: -0.45052915811538696
visibility: 0.9996191263198853
","x: 216.99984741210938
y: 173.52073669433594
z: -0.44532814621925354
visibility: 0.9996575117111206
","x: 214.96981811523438
y: 173.52423095703125
z: -0.4454042911529541
visibility: 0.9996440410614014
","x: 212.70620727539062
y: 173.68882751464844
z: -0.44544845819473267
visibility: 0.999639630317688
","x: 221.92698669433594
y: 174.6094970703125
z: -0.3228085935115814
visibility: 0.999357283115387
","x: 205.8716278076172
y: 177.85321044921875
z: -0.29637110233306885
visibility: 0.999302864074707
","x: 222.60989379882812
y: 192.05873107910156
z: -0.4121466279029846
visibility: 0.9998051524162292
","x: 218.11001586914062
y: 193.57305908203125
z: -0.40458211302757263
visibility: 0.9997317790985107
","x: 236.9347686767578
y: 205.9326934814453
z: -0.27896517515182495
visibility: 0.9999528527259827
","x: 195.55352783203125
y: 238.19509887695312
z: -0.09990110248327255
visibility: 0.9997062683105469
","x: 239.2796173095703
y: 273.1927185058594
z: -0.3306654691696167
visibility: 0.9708601832389832
","x: 200.89779663085938
y: 310.4129333496094
z: -0.04837961494922638
visibility: 0.937153697013855
","x: 214.6893310546875
y: 320.55035400390625
z: -0.4907859265804291
visibility: 0.9572947025299072
","x: 204.8455810546875
y: 377.9403381347656
z: -0.1680833250284195
visibility: 0.9161971807479858
","x: 208.48330688476562
y: 337.079833984375
z: -0.5486068725585938
visibility: 0.9271650910377502
","x: 203.4997100830078
y: 394.10546875
z: -0.20034770667552948
visibility: 0.8818703293800354
","x: 205.29617309570312
y: 333.22314453125
z: -0.5612697005271912
visibility: 0.9331380128860474
","x: 206.26365661621094
y: 393.0700988769531
z: -0.2405981719493866
visibility: 0.8894301652908325
","x: 207.1505584716797
y: 328.09063720703125
z: -0.4977731704711914
visibility: 0.9130271077156067
","x: 207.54962158203125
y: 387.4366455078125
z: -0.186446413397789
visibility: 0.8759739398956299
","x: 240.42039489746094
y: 344.92633056640625
z: -0.07362371683120728
visibility: 0.9994784593582153
","x: 218.56094360351562
y: 349.6426086425781
z: 0.0736837163567543
visibility: 0.9990718364715576
","x: 222.42694091796875
y: 437.77056884765625
z: -0.11441775411367416
visibility: 0.9762370586395264
","x: 214.66824340820312
y: 441.88739013671875
z: 0.06036444380879402
visibility: 0.8998550176620483
","x: 211.73382568359375
y: 535.3812866210938
z: 0.0013753798557445407
visibility: 0.9700198769569397
","x: 232.17510986328125
y: 516.7382202148438
z: 0.20937585830688477
visibility: 0.8412631750106812
","x: 211.07101440429688
y: 548.971435546875
z: 0.0043429057113826275
visibility: 0.8602524399757385
","x: 238.04595947265625
y: 524.9895629882812
z: 0.20135454833507538
visibility: 0.6600962281227112
","x: 202.58615112304688
y: 565.156494140625
z: -0.13982267677783966
visibility: 0.963363528251648
","x: 220.57769775390625
y: 552.4913940429688
z: 0.12167129665613174
visibility: 0.8619139194488525
","x: 207.56544494628906
y: 372.42156982421875
z: 0.0
","x: 204.32623291015625
y: 381.50750732421875
z: 0.0007396676228381693
","x: 201.8377227783203
y: 388.69561767578125
z: 0.0001809051464078948
","x: 199.8944549560547
y: 393.09918212890625
z: -0.0014807665720582008
","x: 198.5816192626953
y: 396.0502624511719
z: -0.003215889912098646
","x: 206.4495391845703
y: 397.5811767578125
z: 0.0024274811148643494
","x: 206.38983154296875
y: 405.76947021484375
z: -0.0002322451036889106
","x: 206.69390869140625
y: 411.51556396484375
z: -0.002496989443898201
","x: 207.01406860351562
y: 416.5710144042969
z: -0.0038924075197428465
","x: 208.99630737304688
y: 396.5875244140625
z: -0.000604882079642266
","x: 209.35452270507812
y: 404.56524658203125
z: -0.0027668075636029243
","x: 209.73838806152344
y: 410.85760498046875
z: -0.004449909087270498
","x: 210.29901123046875
y: 416.5138244628906
z: -0.005761309992522001
","x: 211.28334045410156
y: 393.9351806640625
z: -0.004217096138745546
","x: 211.76492309570312
y: 401.2340087890625
z: -0.006615803577005863
","x: 212.1178436279297
y: 407.34002685546875
z: -0.008138570003211498
","x: 212.5353240966797
y: 412.73309326171875
z: -0.009263881482183933
","x: 213.24990844726562
y: 389.6900939941406
z: -0.008097796700894833
","x: 214.1740264892578
y: 394.6870422363281
z: -0.009873789735138416
","x: 214.8571319580078
y: 398.3662414550781
z: -0.01053586695343256
","x: 215.4708251953125
y: 401.739501953125
z: -0.011095074005424976
",,,,,,,,,,,,,,,,,,,,,
13,"x: 221.11293029785156
y: 183.0677490234375
z: -0.4650266170501709
visibility: 0.9998916983604431
","x: 220.8739776611328
y: 173.2044219970703
z: -0.45040959119796753
visibility: 0.999639630317688
","x: 221.91729736328125
y: 172.8801727294922
z: -0.45046934485435486
visibility: 0.9996523857116699
","x: 222.71868896484375
y: 172.66488647460938
z: -0.45052915811538696
visibility: 0.9996191263198853
","x: 216.99984741210938
y: 173.52073669433594
z: -0.44532814621925354
visibility: 0.9996575117111206
","x: 214.96981811523438
y: 173.52423095703125
z: -0.4454042911529541
visibility: 0.9996440410614014
","x: 212.70620727539062
y: 173.68882751464844
z: -0.44544845819473267
visibility: 0.999639630317688
","x: 221.92698669433594
y: 174.6094970703125
z: -0.3228085935115814
visibility: 0.999357283115387
","x: 205.8716278076172
y: 177.85321044921875
z: -0.29637110233306885
visibility: 0.999302864074707
","x: 222.60989379882812
y: 192.05873107910156
z: -0.4121466279029846
visibility: 0.9998051524162292
","x: 218.11001586914062
y: 193.57305908203125
z: -0.40458211302757263
visibility: 0.9997317790985107
","x: 236.9347686767578
y: 205.9326934814453
z: -0.27896517515182495
visibility: 0.9999528527259827
","x: 195.55352783203125
y: 238.19509887695312
z: -0.09990110248327255
visibility: 0.9997062683105469
","x: 239.2796173095703
y: 273.1927185058594
z: -0.3306654691696167
visibility: 0.9708601832389832
","x: 200.89779663085938
y: 310.4129333496094
z: -0.04837961494922638
visibility: 0.937153697013855
","x: 214.6893310546875
y: 320.55035400390625
z: -0.4907859265804291
visibility: 0.9572947025299072
","x: 204.8455810546875
y: 377.9403381347656
z: -0.1680833250284195
visibility: 0.9161971807479858
","x: 208.48330688476562
y: 337.079833984375
z: -0.5486068725585938
visibility: 0.9271650910377502
","x: 203.4997100830078
y: 394.10546875
z: -0.20034770667552948
visibility: 0.8818703293800354
","x: 205.29617309570312
y: 333.22314453125
z: -0.5612697005271912
visibility: 0.9331380128860474
","x: 206.26365661621094
y: 393.0700988769531
z: -0.2405981719493866
visibility: 0.8894301652908325
","x: 207.1505584716797
y: 328.09063720703125
z: -0.4977731704711914
visibility: 0.9130271077156067
","x: 207.54962158203125
y: 387.4366455078125
z: -0.186446413397789
visibility: 0.8759739398956299
","x: 240.42039489746094
y: 344.92633056640625
z: -0.07362371683120728
visibility: 0.9994784593582153
","x: 218.56094360351562
y: 349.6426086425781
z: 0.0736837163567543
visibility: 0.9990718364715576
","x: 222.42694091796875
y: 437.77056884765625
z: -0.11441775411367416
visibility: 0.9762370586395264
","x: 214.66824340820312
y: 441.88739013671875
z: 0.06036444380879402
visibility: 0.8998550176620483
","x: 211.73382568359375
y: 535.3812866210938
z: 0.0013753798557445407
visibility: 0.9700198769569397
","x: 232.17510986328125
y: 516.7382202148438
z: 0.20937585830688477
visibility: 0.8412631750106812
","x: 211.07101440429688
y: 548.971435546875
z: 0.0043429057113826275
visibility: 0.8602524399757385
","x: 238.04595947265625
y: 524.9895629882812
z: 0.20135454833507538
visibility: 0.6600962281227112
","x: 202.58615112304688
y: 565.156494140625
z: -0.13982267677783966
visibility: 0.963363528251648
","x: 220.57769775390625
y: 552.4913940429688
z: 0.12167129665613174
visibility: 0.8619139194488525
","x: 207.56544494628906
y: 372.42156982421875
z: 0.0
","x: 204.32623291015625
y: 381.50750732421875
z: 0.0007396676228381693
","x: 201.8377227783203
y: 388.69561767578125
z: 0.0001809051464078948
","x: 199.8944549560547
y: 393.09918212890625
z: -0.0014807665720582008
","x: 198.5816192626953
y: 396.0502624511719
z: -0.003215889912098646
","x: 206.4495391845703
y: 397.5811767578125
z: 0.0024274811148643494
","x: 206.38983154296875
y: 405.76947021484375
z: -0.0002322451036889106
","x: 206.69390869140625
y: 411.51556396484375
z: -0.002496989443898201
","x: 207.01406860351562
y: 416.5710144042969
z: -0.0038924075197428465
","x: 208.99630737304688
y: 396.5875244140625
z: -0.000604882079642266
","x: 209.35452270507812
y: 404.56524658203125
z: -0.0027668075636029243
","x: 209.73838806152344
y: 410.85760498046875
z: -0.004449909087270498
","x: 210.29901123046875
y: 416.5138244628906
z: -0.005761309992522001
","x: 211.28334045410156
y: 393.9351806640625
z: -0.004217096138745546
","x: 211.76492309570312
y: 401.2340087890625
z: -0.006615803577005863
","x: 212.1178436279297
y: 407.34002685546875
z: -0.008138570003211498
","x: 212.5353240966797
y: 412.73309326171875
z: -0.009263881482183933
","x: 213.24990844726562
y: 389.6900939941406
z: -0.008097796700894833
","x: 214.1740264892578
y: 394.6870422363281
z: -0.009873789735138416
","x: 214.8571319580078
y: 398.3662414550781
z: -0.01053586695343256
","x: 215.4708251953125
y: 401.739501953125
z: -0.011095074005424976
",,,,,,,,,,,,,,,,,,,,,
14,"x: 227.29995727539062
y: 182.87664794921875
z: -0.38743099570274353
visibility: 0.9998999834060669
","x: 227.70968627929688
y: 173.20462036132812
z: -0.37121298909187317
visibility: 0.999667763710022
","x: 228.89816284179688
y: 172.89381408691406
z: -0.37126994132995605
visibility: 0.9996790289878845
","x: 230.04539489746094
y: 172.68197631835938
z: -0.37129339575767517
visibility: 0.9996477961540222
","x: 223.24269104003906
y: 173.47430419921875
z: -0.3688523471355438
visibility: 0.9996849298477173
","x: 221.20230102539062
y: 173.43331909179688
z: -0.3689185380935669
visibility: 0.9996722340583801
","x: 219.19850158691406
y: 173.5179443359375
z: -0.3689660429954529
visibility: 0.9996680617332458
","x: 229.14443969726562
y: 174.6710205078125
z: -0.24866464734077454
visibility: 0.9994062185287476
","x: 213.3576202392578
y: 177.81654357910156
z: -0.23584385216236115
visibility: 0.9993562698364258
","x: 228.82774353027344
y: 191.852783203125
z: -0.3370817303657532
visibility: 0.9998196959495544
","x: 223.75164794921875
y: 193.2190704345703
z: -0.3336498737335205
visibility: 0.9997513890266418
","x: 241.12269592285156
y: 206.4238739013672
z: -0.21193595230579376
visibility: 0.9999563097953796
","x: 199.43728637695312
y: 239.55735778808594
z: -0.07506386935710907
visibility: 0.9997194409370422
","x: 242.1626739501953
y: 272.7964172363281
z: -0.24551627039909363
visibility: 0.9726302027702332
","x: 203.06964111328125
y: 314.8280029296875
z: -0.01594620943069458
visibility: 0.9361013174057007
","x: 215.8971710205078
y: 310.22747802734375
z: -0.41301289200782776
visibility: 0.9598354697227478
","x: 208.7515869140625
y: 378.91546630859375
z: -0.12673957645893097
visibility: 0.9164202213287354
","x: 208.63914489746094
y: 322.6103210449219
z: -0.4660479426383972
visibility: 0.9310025572776794
","x: 206.99295043945312
y: 395.4115295410156
z: -0.1558407098054886
visibility: 0.8818499445915222
","x: 205.91014099121094
y: 317.97406005859375
z: -0.4751790463924408
visibility: 0.9363747239112854
","x: 209.52532958984375
y: 394.7210998535156
z: -0.1935214400291443
visibility: 0.889489471912384
","x: 207.7064208984375
y: 314.06689453125
z: -0.41869622468948364
visibility: 0.9162507653236389
","x: 210.8269805908203
y: 389.5340576171875
z: -0.14348739385604858
visibility: 0.8759742975234985
","x: 245.136962890625
y: 348.0183410644531
z: -0.05898485332727432
visibility: 0.9995005130767822
","x: 222.33499145507812
y: 353.72369384765625
z: 0.059017159044742584
visibility: 0.9991011023521423
","x: 229.46607971191406
y: 437.8889465332031
z: -0.11919478327035904
visibility: 0.9775853753089905
","x: 219.79495239257812
y: 443.7304992675781
z: 0.04772558808326721
visibility: 0.9047217965126038
","x: 217.51007080078125
y: 535.1310424804688
z: 0.02841544710099697
visibility: 0.9722036719322205
","x: 235.7063751220703
y: 515.26806640625
z: 0.22194352746009827
visibility: 0.853752613067627
","x: 215.80943298339844
y: 548.5869750976562
z: 0.03602370619773865
visibility: 0.8689349889755249
","x: 241.2962188720703
y: 524.1728515625
z: 0.22328171133995056
visibility: 0.6840482950210571
","x: 209.44422912597656
y: 564.0117797851562
z: -0.08800099790096283
visibility: 0.9658799767494202
","x: 227.23056030273438
y: 548.8623657226562
z: 0.14420706033706665
visibility: 0.872043251991272
","x: 209.598876953125
y: 375.75469970703125
z: 0.0
","x: 206.02236938476562
y: 382.5992126464844
z: -0.0005697586457245052
","x: 203.50282287597656
y: 388.7673645019531
z: -0.0010174033232033253
","x: 201.82139587402344
y: 392.762939453125
z: -0.00224781921133399
","x: 200.56759643554688
y: 395.32012939453125
z: -0.003420937107875943
","x: 207.00047302246094
y: 399.25042724609375
z: 0.002634501550346613
","x: 207.22389221191406
y: 407.9493408203125
z: 0.0009175423183478415
","x: 207.58615112304688
y: 413.463134765625
z: -0.0007046206737868488
","x: 207.9052276611328
y: 418.26666259765625
z: -0.0017028118018060923
","x: 209.75479125976562
y: 399.161865234375
z: 0.0007998860673978925
","x: 210.30824279785156
y: 407.837890625
z: -0.00022594057372771204
","x: 210.54620361328125
y: 413.742431640625
z: -0.0015089802909642458
","x: 210.87493896484375
y: 418.81866455078125
z: -0.0025589417200535536
","x: 212.39251708984375
y: 397.38702392578125
z: -0.0017149696359410882
","x: 213.1349639892578
y: 404.5550231933594
z: -0.0033545461483299732
","x: 213.1822509765625
y: 409.0013122558594
z: -0.00457975035533309
","x: 213.22679138183594
y: 412.28875732421875
z: -0.00534411845728755
","x: 214.8824005126953
y: 394.142578125
z: -0.00465939287096262
","x: 216.249267578125
y: 399.01300048828125
z: -0.006073013413697481
","x: 217.1646728515625
y: 401.9664306640625
z: -0.006701940204948187
","x: 217.91708374023438
y: 404.2339782714844
z: -0.007040192373096943
",,,,,,,,,,,,,,,,,,,,,
15,"x: 227.29995727539062
y: 182.87664794921875
z: -0.38743099570274353
visibility: 0.9998999834060669
","x: 227.70968627929688
y: 173.20462036132812
z: -0.37121298909187317
visibility: 0.999667763710022
","x: 228.89816284179688
y: 172.89381408691406
z: -0.37126994132995605
visibility: 0.9996790289878845
","x: 230.04539489746094
y: 172.68197631835938
z: -0.37129339575767517
visibility: 0.9996477961540222
","x: 223.24269104003906
y: 173.47430419921875
z: -0.3688523471355438
visibility: 0.9996849298477173
","x: 221.20230102539062
y: 173.43331909179688
z: -0.3689185380935669
visibility: 0.9996722340583801
","x: 219.19850158691406
y: 173.5179443359375
z: -0.3689660429954529
visibility: 0.9996680617332458
","x: 229.14443969726562
y: 174.6710205078125
z: -0.24866464734077454
visibility: 0.9994062185287476
","x: 213.3576202392578
y: 177.81654357910156
z: -0.23584385216236115
visibility: 0.9993562698364258
","x: 228.82774353027344
y: 191.852783203125
z: -0.3370817303657532
visibility: 0.9998196959495544
","x: 223.75164794921875
y: 193.2190704345703
z: -0.3336498737335205
visibility: 0.9997513890266418
","x: 241.12269592285156
y: 206.4238739013672
z: -0.21193595230579376
visibility: 0.9999563097953796
","x: 199.43728637695312
y: 239.55735778808594
z: -0.07506386935710907
visibility: 0.9997194409370422
","x: 242.1626739501953
y: 272.7964172363281
z: -0.24551627039909363
visibility: 0.9726302027702332
","x: 203.06964111328125
y: 314.8280029296875
z: -0.01594620943069458
visibility: 0.9361013174057007
","x: 215.8971710205078
y: 310.22747802734375
z: -0.41301289200782776
visibility: 0.9598354697227478
","x: 208.7515869140625
y: 378.91546630859375
z: -0.12673957645893097
visibility: 0.9164202213287354
","x: 208.63914489746094
y: 322.6103210449219
z: -0.4660479426383972
visibility: 0.9310025572776794
","x: 206.99295043945312
y: 395.4115295410156
z: -0.1558407098054886
visibility: 0.8818499445915222
","x: 205.91014099121094
y: 317.97406005859375
z: -0.4751790463924408
visibility: 0.9363747239112854
","x: 209.52532958984375
y: 394.7210998535156
z: -0.1935214400291443
visibility: 0.889489471912384
","x: 207.7064208984375
y: 314.06689453125
z: -0.41869622468948364
visibility: 0.9162507653236389
","x: 210.8269805908203
y: 389.5340576171875
z: -0.14348739385604858
visibility: 0.8759742975234985
","x: 245.136962890625
y: 348.0183410644531
z: -0.05898485332727432
visibility: 0.9995005130767822
","x: 222.33499145507812
y: 353.72369384765625
z: 0.059017159044742584
visibility: 0.9991011023521423
","x: 229.46607971191406
y: 437.8889465332031
z: -0.11919478327035904
visibility: 0.9775853753089905
","x: 219.79495239257812
y: 443.7304992675781
z: 0.04772558808326721
visibility: 0.9047217965126038
","x: 217.51007080078125
y: 535.1310424804688
z: 0.02841544710099697
visibility: 0.9722036719322205
","x: 235.7063751220703
y: 515.26806640625
z: 0.22194352746009827
visibility: 0.853752613067627
","x: 215.80943298339844
y: 548.5869750976562
z: 0.03602370619773865
visibility: 0.8689349889755249
","x: 241.2962188720703
y: 524.1728515625
z: 0.22328171133995056
visibility: 0.6840482950210571
","x: 209.44422912597656
y: 564.0117797851562
z: -0.08800099790096283
visibility: 0.9658799767494202
","x: 227.23056030273438
y: 548.8623657226562
z: 0.14420706033706665
visibility: 0.872043251991272
","x: 209.598876953125
y: 375.75469970703125
z: 0.0
","x: 206.02236938476562
y: 382.5992126464844
z: -0.0005697586457245052
","x: 203.50282287597656
y: 388.7673645019531
z: -0.0010174033232033253
","x: 201.82139587402344
y: 392.762939453125
z: -0.00224781921133399
","x: 200.56759643554688
y: 395.32012939453125
z: -0.003420937107875943
","x: 207.00047302246094
y: 399.25042724609375
z: 0.002634501550346613
","x: 207.22389221191406
y: 407.9493408203125
z: 0.0009175423183478415
","x: 207.58615112304688
y: 413.463134765625
z: -0.0007046206737868488
","x: 207.9052276611328
y: 418.26666259765625
z: -0.0017028118018060923
","x: 209.75479125976562
y: 399.161865234375
z: 0.0007998860673978925
","x: 210.30824279785156
y: 407.837890625
z: -0.00022594057372771204
","x: 210.54620361328125
y: 413.742431640625
z: -0.0015089802909642458
","x: 210.87493896484375
y: 418.81866455078125
z: -0.0025589417200535536
","x: 212.39251708984375
y: 397.38702392578125
z: -0.0017149696359410882
","x: 213.1349639892578
y: 404.5550231933594
z: -0.0033545461483299732
","x: 213.1822509765625
y: 409.0013122558594
z: -0.00457975035533309
","x: 213.22679138183594
y: 412.28875732421875
z: -0.00534411845728755
","x: 214.8824005126953
y: 394.142578125
z: -0.00465939287096262
","x: 216.249267578125
y: 399.01300048828125
z: -0.006073013413697481
","x: 217.1646728515625
y: 401.9664306640625
z: -0.006701940204948187
","x: 217.91708374023438
y: 404.2339782714844
z: -0.007040192373096943
",,,,,,,,,,,,,,,,,,,,,
16,"x: 235.70169067382812
y: 180.33468627929688
z: -0.3932746350765228
visibility: 0.9999012351036072
","x: 236.2957305908203
y: 171.4583740234375
z: -0.3764503002166748
visibility: 0.9996690154075623
","x: 237.61630249023438
y: 171.52391052246094
z: -0.3764915466308594
visibility: 0.9996801018714905
","x: 238.9068145751953
y: 171.65927124023438
z: -0.3765093684196472
visibility: 0.9996487498283386
","x: 232.17465209960938
y: 170.7382354736328
z: -0.37718480825424194
visibility: 0.9996888041496277
","x: 230.1062774658203
y: 170.4917755126953
z: -0.37723928689956665
visibility: 0.9996756315231323
","x: 227.8520050048828
y: 170.3473663330078
z: -0.37729713320732117
visibility: 0.999673068523407
","x: 237.96981811523438
y: 174.206298828125
z: -0.251920223236084
visibility: 0.9994192719459534
","x: 221.68975830078125
y: 174.9543914794922
z: -0.2522889971733093
visibility: 0.9993691444396973
","x: 237.10482788085938
y: 189.82220458984375
z: -0.34288713335990906
visibility: 0.999824583530426
","x: 231.77810668945312
y: 190.25692749023438
z: -0.34326493740081787
visibility: 0.9997599720954895
","x: 250.77297973632812
y: 207.95318603515625
z: -0.20909444987773895
visibility: 0.999955952167511
","x: 205.42982482910156
y: 235.3953857421875
z: -0.09702588617801666
visibility: 0.9997252821922302
","x: 250.4673614501953
y: 277.4459533691406
z: -0.24874940514564514
visibility: 0.9732141494750977
","x: 206.22390747070312
y: 308.45489501953125
z: -0.03574030473828316
visibility: 0.9343253970146179
","x: 220.23883056640625
y: 305.58392333984375
z: -0.4125317633152008
visibility: 0.9588884711265564
","x: 206.9842529296875
y: 376.9197998046875
z: -0.14319588243961334
visibility: 0.9148457050323486
","x: 213.87615966796875
y: 311.70587158203125
z: -0.4621609151363373
visibility: 0.9299347996711731
","x: 205.30300903320312
y: 392.9006652832031
z: -0.1754342019557953
visibility: 0.8793948888778687
","x: 211.30442810058594
y: 303.2482604980469
z: -0.4721716046333313
visibility: 0.9346768856048584
","x: 206.97532653808594
y: 391.8214416503906
z: -0.21509882807731628
visibility: 0.8872559666633606
","x: 212.81446838378906
y: 302.204345703125
z: -0.41873353719711304
visibility: 0.91203773021698
","x: 208.26626586914062
y: 386.8786926269531
z: -0.16160190105438232
visibility: 0.8735671639442444
","x: 250.07276916503906
y: 348.06988525390625
z: -0.05122118070721626
visibility: 0.9995078444480896
","x: 224.07078552246094
y: 353.7313232421875
z: 0.0512407124042511
visibility: 0.9991439580917358
","x: 246.6341094970703
y: 437.9957275390625
z: -0.0911405012011528
visibility: 0.9797129034996033
","x: 221.09156799316406
y: 446.34759521484375
z: 0.04234557971358299
visibility: 0.9138159155845642
","x: 266.1017761230469
y: 523.1324462890625
z: 0.11028363555669785
visibility: 0.9748343825340271
","x: 238.08987426757812
y: 515.4051513671875
z: 0.2813568115234375
visibility: 0.8679575324058533
","x: 269.4833068847656
y: 531.8201904296875
z: 0.1218881607055664
visibility: 0.8729789853096008
","x: 244.8111572265625
y: 524.1749877929688
z: 0.2967512905597687
visibility: 0.711277961730957
","x: 265.86053466796875
y: 554.9115600585938
z: -0.025642529129981995
visibility: 0.9689602851867676
","x: 230.17852783203125
y: 548.4238891601562
z: 0.18714776635169983
visibility: 0.8842113614082336
","x: 207.2903289794922
y: 372.40142822265625
z: 0.0
","x: 204.46458435058594
y: 375.3514099121094
z: -0.002334072720259428
","x: 202.31932067871094
y: 380.27154541015625
z: -0.004404448438435793
","x: 201.4089813232422
y: 383.7112121582031
z: -0.00704400148242712
","x: 200.61395263671875
y: 386.63330078125
z: -0.00962172169238329
","x: 203.4564666748047
y: 393.4206848144531
z: -0.0011950547341257334
","x: 202.8737335205078
y: 402.5790710449219
z: -0.0040807262994349
","x: 202.52610778808594
y: 407.7459716796875
z: -0.006180058233439922
","x: 202.2435760498047
y: 412.1206970214844
z: -0.007546401582658291
","x: 205.889404296875
y: 393.64013671875
z: -0.0027412159834057093
","x: 205.4818572998047
y: 402.3113708496094
z: -0.004958925768733025
","x: 205.00840759277344
y: 406.08233642578125
z: -0.006106578279286623
","x: 204.8773651123047
y: 408.8603515625
z: -0.006904284935444593
","x: 208.38543701171875
y: 391.6854248046875
z: -0.0050159115344285965
","x: 208.4835968017578
y: 398.72283935546875
z: -0.007875283248722553
","x: 208.25282287597656
y: 402.26190185546875
z: -0.009212221018970013
","x: 208.08363342285156
y: 404.423095703125
z: -0.00993567518889904
","x: 210.9387969970703
y: 388.1359558105469
z: -0.007787688635289669
","x: 212.49391174316406
y: 392.468505859375
z: -0.01019195094704628
","x: 213.33905029296875
y: 394.7671203613281
z: -0.011126784607768059
","x: 213.9644775390625
y: 395.8902282714844
z: -0.011616989970207214
",,,,,,,,,,,,,,,,,,,,,
17,"x: 235.70169067382812
y: 180.33468627929688
z: -0.3932746350765228
visibility: 0.9999012351036072
","x: 236.2957305908203
y: 171.4583740234375
z: -0.3764503002166748
visibility: 0.9996690154075623
","x: 237.61630249023438
y: 171.52391052246094
z: -0.3764915466308594
visibility: 0.9996801018714905
","x: 238.9068145751953
y: 171.65927124023438
z: -0.3765093684196472
visibility: 0.9996487498283386
","x: 232.17465209960938
y: 170.7382354736328
z: -0.37718480825424194
visibility: 0.9996888041496277
","x: 230.1062774658203
y: 170.4917755126953
z: -0.37723928689956665
visibility: 0.9996756315231323
","x: 227.8520050048828
y: 170.3473663330078
z: -0.37729713320732117
visibility: 0.999673068523407
","x: 237.96981811523438
y: 174.206298828125
z: -0.251920223236084
visibility: 0.9994192719459534
","x: 221.68975830078125
y: 174.9543914794922
z: -0.2522889971733093
visibility: 0.9993691444396973
","x: 237.10482788085938
y: 189.82220458984375
z: -0.34288713335990906
visibility: 0.999824583530426
","x: 231.77810668945312
y: 190.25692749023438
z: -0.34326493740081787
visibility: 0.9997599720954895
","x: 250.77297973632812
y: 207.95318603515625
z: -0.20909444987773895
visibility: 0.999955952167511
","x: 205.42982482910156
y: 235.3953857421875
z: -0.09702588617801666
visibility: 0.9997252821922302
","x: 250.4673614501953
y: 277.4459533691406
z: -0.24874940514564514
visibility: 0.9732141494750977
","x: 206.22390747070312
y: 308.45489501953125
z: -0.03574030473828316
visibility: 0.9343253970146179
","x: 220.23883056640625
y: 305.58392333984375
z: -0.4125317633152008
visibility: 0.9588884711265564
","x: 206.9842529296875
y: 376.9197998046875
z: -0.14319588243961334
visibility: 0.9148457050323486
","x: 213.87615966796875
y: 311.70587158203125
z: -0.4621609151363373
visibility: 0.9299347996711731
","x: 205.30300903320312
y: 392.9006652832031
z: -0.1754342019557953
visibility: 0.8793948888778687
","x: 211.30442810058594
y: 303.2482604980469
z: -0.4721716046333313
visibility: 0.9346768856048584
","x: 206.97532653808594
y: 391.8214416503906
z: -0.21509882807731628
visibility: 0.8872559666633606
","x: 212.81446838378906
y: 302.204345703125
z: -0.41873353719711304
visibility: 0.91203773021698
","x: 208.26626586914062
y: 386.8786926269531
z: -0.16160190105438232
visibility: 0.8735671639442444
","x: 250.07276916503906
y: 348.06988525390625
z: -0.05122118070721626
visibility: 0.9995078444480896
","x: 224.07078552246094
y: 353.7313232421875
z: 0.0512407124042511
visibility: 0.9991439580917358
","x: 246.6341094970703
y: 437.9957275390625
z: -0.0911405012011528
visibility: 0.9797129034996033
","x: 221.09156799316406
y: 446.34759521484375
z: 0.04234557971358299
visibility: 0.9138159155845642
","x: 266.1017761230469
y: 523.1324462890625
z: 0.11028363555669785
visibility: 0.9748343825340271
","x: 238.08987426757812
y: 515.4051513671875
z: 0.2813568115234375
visibility: 0.8679575324058533
","x: 269.4833068847656
y: 531.8201904296875
z: 0.1218881607055664
visibility: 0.8729789853096008
","x: 244.8111572265625
y: 524.1749877929688
z: 0.2967512905597687
visibility: 0.711277961730957
","x: 265.86053466796875
y: 554.9115600585938
z: -0.025642529129981995
visibility: 0.9689602851867676
","x: 230.17852783203125
y: 548.4238891601562
z: 0.18714776635169983
visibility: 0.8842113614082336
","x: 207.2903289794922
y: 372.40142822265625
z: 0.0
","x: 204.46458435058594
y: 375.3514099121094
z: -0.002334072720259428
","x: 202.31932067871094
y: 380.27154541015625
z: -0.004404448438435793
","x: 201.4089813232422
y: 383.7112121582031
z: -0.00704400148242712
","x: 200.61395263671875
y: 386.63330078125
z: -0.00962172169238329
","x: 203.4564666748047
y: 393.4206848144531
z: -0.0011950547341257334
","x: 202.8737335205078
y: 402.5790710449219
z: -0.0040807262994349
","x: 202.52610778808594
y: 407.7459716796875
z: -0.006180058233439922
","x: 202.2435760498047
y: 412.1206970214844
z: -0.007546401582658291
","x: 205.889404296875
y: 393.64013671875
z: -0.0027412159834057093
","x: 205.4818572998047
y: 402.3113708496094
z: -0.004958925768733025
","x: 205.00840759277344
y: 406.08233642578125
z: -0.006106578279286623
","x: 204.8773651123047
y: 408.8603515625
z: -0.006904284935444593
","x: 208.38543701171875
y: 391.6854248046875
z: -0.0050159115344285965
","x: 208.4835968017578
y: 398.72283935546875
z: -0.007875283248722553
","x: 208.25282287597656
y: 402.26190185546875
z: -0.009212221018970013
","x: 208.08363342285156
y: 404.423095703125
z: -0.00993567518889904
","x: 210.9387969970703
y: 388.1359558105469
z: -0.007787688635289669
","x: 212.49391174316406
y: 392.468505859375
z: -0.01019195094704628
","x: 213.33905029296875
y: 394.7671203613281
z: -0.011126784607768059
","x: 213.9644775390625
y: 395.8902282714844
z: -0.011616989970207214
",,,,,,,,,,,,,,,,,,,,,
18,"x: 239.73507690429688
y: 178.63287353515625
z: -0.3990013301372528
visibility: 0.9999058842658997
","x: 241.58749389648438
y: 169.87501525878906
z: -0.3810550570487976
visibility: 0.9996827244758606
","x: 242.71531677246094
y: 170.27099609375
z: -0.38109689950942993
visibility: 0.9996936917304993
","x: 243.96214294433594
y: 170.675048828125
z: -0.3811158239841461
visibility: 0.9996615052223206
","x: 236.8736572265625
y: 168.5548095703125
z: -0.3824599087238312
visibility: 0.9997037053108215
","x: 234.58657836914062
y: 168.14801025390625
z: -0.382504403591156
visibility: 0.9996913075447083
","x: 232.36114501953125
y: 167.87576293945312
z: -0.38255035877227783
visibility: 0.9996879696846008
","x: 244.60791015625
y: 174.0973663330078
z: -0.25469475984573364
visibility: 0.9994480609893799
","x: 227.0199737548828
y: 172.40919494628906
z: -0.25632911920547485
visibility: 0.9994014501571655
","x: 241.3593292236328
y: 188.55032348632812
z: -0.348544180393219
visibility: 0.9998352527618408
","x: 235.3516845703125
y: 188.59381103515625
z: -0.3495938181877136
visibility: 0.9997761249542236
","x: 256.7599182128906
y: 212.9038848876953
z: -0.21118378639221191
visibility: 0.9999566674232483
","x: 208.61587524414062
y: 233.47474670410156
z: -0.10831143707036972
visibility: 0.9997419118881226
","x: 254.48561096191406
y: 285.1022033691406
z: -0.26752418279647827
visibility: 0.9738522171974182
","x: 208.27053833007812
y: 306.8172607421875
z: -0.04056168347597122
visibility: 0.9314199090003967
","x: 223.04092407226562
y: 302.0491638183594
z: -0.4580393433570862
visibility: 0.9582988023757935
","x: 205.3141326904297
y: 372.2203369140625
z: -0.15076832473278046
visibility: 0.9150195717811584
","x: 217.1025390625
y: 303.1063232421875
z: -0.511500358581543
visibility: 0.9298481345176697
","x: 203.4081573486328
y: 390.5904541015625
z: -0.18391849100589752
visibility: 0.8799669146537781
","x: 215.02545166015625
y: 293.8612976074219
z: -0.5204516649246216
visibility: 0.9339922070503235
","x: 205.2747802734375
y: 391.2676696777344
z: -0.2254113405942917
visibility: 0.8879122138023376
","x: 216.35714721679688
y: 293.8531799316406
z: -0.46443676948547363
visibility: 0.9088780879974365
","x: 206.4524688720703
y: 385.1309509277344
z: -0.1701422929763794
visibility: 0.8738741874694824
","x: 253.63795471191406
y: 350.6834411621094
z: -0.047763753682374954
visibility: 0.9995353817939758
","x: 226.1878204345703
y: 355.49542236328125
z: 0.04782140627503395
visibility: 0.9992019534111023
","x: 259.3677673339844
y: 441.2774353027344
z: -0.08579479157924652
visibility: 0.9816725254058838
","x: 224.6883087158203
y: 449.9433898925781
z: 0.08675134181976318
visibility: 0.9220865368843079
","x: 285.3726806640625
y: 519.4653930664062
z: 0.12116551399230957
visibility: 0.9772540330886841
","x: 239.935791015625
y: 515.3001708984375
z: 0.3791601359844208
visibility: 0.8808447122573853
","x: 291.5723876953125
y: 528.4093017578125
z: 0.1321972757577896
visibility: 0.8767101764678955
","x: 246.5934600830078
y: 524.0360107421875
z: 0.39998453855514526
visibility: 0.7366063594818115
","x: 279.9356994628906
y: 555.3026123046875
z: -0.03052704967558384
visibility: 0.9718219041824341
","x: 229.40921020507812
y: 546.6121826171875
z: 0.2864672541618347
visibility: 0.8953166007995605
","x: 205.90158081054688
y: 369.23651123046875
z: 0.0
","x: 202.7529754638672
y: 372.0189208984375
z: -0.0022323529701679945
","x: 200.49478149414062
y: 376.34161376953125
z: -0.0038002924993634224
","x: 199.7938232421875
y: 380.375732421875
z: -0.005922733340412378
","x: 198.37130737304688
y: 383.21368408203125
z: -0.007758955005556345
","x: 200.7597198486328
y: 388.3215637207031
z: -0.00046279956586658955
","x: 199.5050811767578
y: 397.819091796875
z: -0.003080513561144471
","x: 198.9949493408203
y: 403.41046142578125
z: -0.004869614727795124
","x: 198.64553833007812
y: 407.9051513671875
z: -0.0059541878290474415
","x: 203.3099365234375
y: 388.9981384277344
z: -0.0016195822972804308
","x: 202.7877960205078
y: 397.3334045410156
z: -0.0043068137019872665
","x: 202.9259796142578
y: 400.18634033203125
z: -0.005413812585175037
","x: 202.9674530029297
y: 401.4989929199219
z: -0.005696523003280163
","x: 206.0994415283203
y: 387.9220886230469
z: -0.0034668256994336843
","x: 206.22640991210938
y: 392.6698303222656
z: -0.00630194740369916
","x: 206.23794555664062
y: 390.08056640625
z: -0.0061850775964558125
","x: 205.88111877441406
y: 386.8989562988281
z: -0.005301561672240496
","x: 209.19229125976562
y: 385.81158447265625
z: -0.0059278979897499084
","x: 210.11952209472656
y: 390.1840515136719
z: -0.008133851923048496
","x: 210.3928985595703
y: 389.859130859375
z: -0.008186621591448784
","x: 210.18780517578125
y: 388.30340576171875
z: -0.007528002839535475
",,,,,,,,,,,,,,,,,,,,,
19,"x: 239.73507690429688
y: 178.63287353515625
z: -0.3990013301372528
visibility: 0.9999058842658997
","x: 241.58749389648438
y: 169.87501525878906
z: -0.3810550570487976
visibility: 0.9996827244758606
","x: 242.71531677246094
y: 170.27099609375
z: -0.38109689950942993
visibility: 0.9996936917304993
","x: 243.96214294433594
y: 170.675048828125
z: -0.3811158239841461
visibility: 0.9996615052223206
","x: 236.8736572265625
y: 168.5548095703125
z: -0.3824599087238312
visibility: 0.9997037053108215
","x: 234.58657836914062
y: 168.14801025390625
z: -0.382504403591156
visibility: 0.9996913075447083
","x: 232.36114501953125
y: 167.87576293945312
z: -0.38255035877227783
visibility: 0.9996879696846008
","x: 244.60791015625
y: 174.0973663330078
z: -0.25469475984573364
visibility: 0.9994480609893799
","x: 227.0199737548828
y: 172.40919494628906
z: -0.25632911920547485
visibility: 0.9994014501571655
","x: 241.3593292236328
y: 188.55032348632812
z: -0.348544180393219
visibility: 0.9998352527618408
","x: 235.3516845703125
y: 188.59381103515625
z: -0.3495938181877136
visibility: 0.9997761249542236
","x: 256.7599182128906
y: 212.9038848876953
z: -0.21118378639221191
visibility: 0.9999566674232483
","x: 208.61587524414062
y: 233.47474670410156
z: -0.10831143707036972
visibility: 0.9997419118881226
","x: 254.48561096191406
y: 285.1022033691406
z: -0.26752418279647827
visibility: 0.9738522171974182
","x: 208.27053833007812
y: 306.8172607421875
z: -0.04056168347597122
visibility: 0.9314199090003967
","x: 223.04092407226562
y: 302.0491638183594
z: -0.4580393433570862
visibility: 0.9582988023757935
","x: 205.3141326904297
y: 372.2203369140625
z: -0.15076832473278046
visibility: 0.9150195717811584
","x: 217.1025390625
y: 303.1063232421875
z: -0.511500358581543
visibility: 0.9298481345176697
","x: 203.4081573486328
y: 390.5904541015625
z: -0.18391849100589752
visibility: 0.8799669146537781
","x: 215.02545166015625
y: 293.8612976074219
z: -0.5204516649246216
visibility: 0.9339922070503235
","x: 205.2747802734375
y: 391.2676696777344
z: -0.2254113405942917
visibility: 0.8879122138023376
","x: 216.35714721679688
y: 293.8531799316406
z: -0.46443676948547363
visibility: 0.9088780879974365
","x: 206.4524688720703
y: 385.1309509277344
z: -0.1701422929763794
visibility: 0.8738741874694824
","x: 253.63795471191406
y: 350.6834411621094
z: -0.047763753682374954
visibility: 0.9995353817939758
","x: 226.1878204345703
y: 355.49542236328125
z: 0.04782140627503395
visibility: 0.9992019534111023
","x: 259.3677673339844
y: 441.2774353027344
z: -0.08579479157924652
visibility: 0.9816725254058838
","x: 224.6883087158203
y: 449.9433898925781
z: 0.08675134181976318
visibility: 0.9220865368843079
","x: 285.3726806640625
y: 519.4653930664062
z: 0.12116551399230957
visibility: 0.9772540330886841
","x: 239.935791015625
y: 515.3001708984375
z: 0.3791601359844208
visibility: 0.8808447122573853
","x: 291.5723876953125
y: 528.4093017578125
z: 0.1321972757577896
visibility: 0.8767101764678955
","x: 246.5934600830078
y: 524.0360107421875
z: 0.39998453855514526
visibility: 0.7366063594818115
","x: 279.9356994628906
y: 555.3026123046875
z: -0.03052704967558384
visibility: 0.9718219041824341
","x: 229.40921020507812
y: 546.6121826171875
z: 0.2864672541618347
visibility: 0.8953166007995605
","x: 205.90158081054688
y: 369.23651123046875
z: 0.0
","x: 202.7529754638672
y: 372.0189208984375
z: -0.0022323529701679945
","x: 200.49478149414062
y: 376.34161376953125
z: -0.0038002924993634224
","x: 199.7938232421875
y: 380.375732421875
z: -0.005922733340412378
","x: 198.37130737304688
y: 383.21368408203125
z: -0.007758955005556345
","x: 200.7597198486328
y: 388.3215637207031
z: -0.00046279956586658955
","x: 199.5050811767578
y: 397.819091796875
z: -0.003080513561144471
","x: 198.9949493408203
y: 403.41046142578125
z: -0.004869614727795124
","x: 198.64553833007812
y: 407.9051513671875
z: -0.0059541878290474415
","x: 203.3099365234375
y: 388.9981384277344
z: -0.0016195822972804308
","x: 202.7877960205078
y: 397.3334045410156
z: -0.0043068137019872665
","x: 202.9259796142578
y: 400.18634033203125
z: -0.005413812585175037
","x: 202.9674530029297
y: 401.4989929199219
z: -0.005696523003280163
","x: 206.0994415283203
y: 387.9220886230469
z: -0.0034668256994336843
","x: 206.22640991210938
y: 392.6698303222656
z: -0.00630194740369916
","x: 206.23794555664062
y: 390.08056640625
z: -0.0061850775964558125
","x: 205.88111877441406
y: 386.8989562988281
z: -0.005301561672240496
","x: 209.19229125976562
y: 385.81158447265625
z: -0.0059278979897499084
","x: 210.11952209472656
y: 390.1840515136719
z: -0.008133851923048496
","x: 210.3928985595703
y: 389.859130859375
z: -0.008186621591448784
","x: 210.18780517578125
y: 388.30340576171875
z: -0.007528002839535475
",,,,,,,,,,,,,,,,,,,,,
20,"x: 245.622802734375
y: 178.87530517578125
z: -0.4342270493507385
visibility: 0.9999081492424011
","x: 248.0508270263672
y: 169.97633361816406
z: -0.41544634103775024
visibility: 0.9996935129165649
","x: 249.32301330566406
y: 170.36734008789062
z: -0.41551607847213745
visibility: 0.9997050166130066
","x: 250.9698486328125
y: 170.7571258544922
z: -0.4155637323856354
visibility: 0.9996655583381653
","x: 242.80889892578125
y: 168.6127471923828
z: -0.4190334677696228
visibility: 0.9997145533561707
","x: 240.2670135498047
y: 168.16270446777344
z: -0.4190942347049713
visibility: 0.999706506729126
","x: 238.0318145751953
y: 167.82598876953125
z: -0.419123113155365
visibility: 0.99969881772995
","x: 252.38894653320312
y: 174.1244354248047
z: -0.2795472741127014
visibility: 0.9994553923606873
","x: 233.38490295410156
y: 171.9061279296875
z: -0.2940707206726074
visibility: 0.9994397163391113
","x: 247.97247314453125
y: 188.7777557373047
z: -0.3808708190917969
visibility: 0.9998461604118347
","x: 241.10716247558594
y: 188.76304626464844
z: -0.3856678009033203
visibility: 0.9997943639755249
","x: 263.88311767578125
y: 217.53970336914062
z: -0.22784247994422913
visibility: 0.9999576807022095
","x: 212.57479858398438
y: 230.38668823242188
z: -0.15712176263332367
visibility: 0.9997634291648865
","x: 260.3260192871094
y: 292.59332275390625
z: -0.3158768117427826
visibility: 0.9742953181266785
","x: 210.6589813232422
y: 304.33697509765625
z: -0.08891807496547699
visibility: 0.9342983961105347
","x: 225.64443969726562
y: 294.81268310546875
z: -0.5432758927345276
visibility: 0.9583126902580261
","x: 204.80426025390625
y: 366.74908447265625
z: -0.20700879395008087
visibility: 0.9156880974769592
","x: 219.3841552734375
y: 289.9844055175781
z: -0.6045619249343872
visibility: 0.9304019212722778
","x: 202.62840270996094
y: 385.3164367675781
z: -0.24533525109291077
visibility: 0.8807358145713806
","x: 216.24664306640625
y: 280.1922912597656
z: -0.6079720258712769
visibility: 0.9339630007743835
","x: 204.486572265625
y: 387.6620788574219
z: -0.28638797998428345
visibility: 0.8887714147567749
","x: 219.33917236328125
y: 280.83563232421875
z: -0.5488515496253967
visibility: 0.9067896604537964
","x: 205.51365661621094
y: 381.4315490722656
z: -0.22592809796333313
visibility: 0.8737191557884216
","x: 258.74285888671875
y: 354.1330261230469
z: -0.027366820722818375
visibility: 0.9995670914649963
","x: 230.14993286132812
y: 356.496337890625
z: 0.027315959334373474
visibility: 0.9992543458938599
","x: 268.106201171875
y: 442.43572998046875
z: -0.009336648508906364
visibility: 0.9833239912986755
","x: 225.52813720703125
y: 451.0011291503906
z: 0.10263295471668243
visibility: 0.9292359352111816
","x: 285.1107482910156
y: 519.006103515625
z: 0.2808661460876465
visibility: 0.9791655540466309
","x: 228.40138244628906
y: 509.67999267578125
z: 0.45782551169395447
visibility: 0.8915830850601196
","x: 288.7608337402344
y: 528.5601806640625
z: 0.3021860718727112
visibility: 0.8757994771003723
","x: 230.23114013671875
y: 515.4146728515625
z: 0.4865117073059082
visibility: 0.7490116953849792
","x: 283.0974426269531
y: 554.0781860351562
z: 0.154514342546463
visibility: 0.9737556576728821
","x: 227.24993896484375
y: 541.3133544921875
z: 0.36686840653419495
visibility: 0.9039528369903564
","x: 204.34957885742188
y: 366.42950439453125
z: 0.0
","x: 201.29078674316406
y: 370.19622802734375
z: -0.003921750467270613
","x: 199.3572540283203
y: 375.1252746582031
z: -0.006339126266539097
","x: 199.40969848632812
y: 380.382568359375
z: -0.008991748094558716
","x: 198.89500427246094
y: 384.15478515625
z: -0.011556952260434628
","x: 198.98899841308594
y: 384.8412780761719
z: -0.0034534831065684557
","x: 197.58523559570312
y: 393.79034423828125
z: -0.0073568448424339294
","x: 196.94879150390625
y: 399.2088317871094
z: -0.010040831752121449
","x: 196.49484252929688
y: 403.366455078125
z: -0.011723670177161694
","x: 201.65667724609375
y: 385.80767822265625
z: -0.00411052955314517
","x: 201.24679565429688
y: 394.40582275390625
z: -0.008292577229440212
","x: 201.51580810546875
y: 397.53155517578125
z: -0.010498450137674809
","x: 201.77706909179688
y: 399.0252990722656
z: -0.011487933807075024
","x: 204.44337463378906
y: 385.0164489746094
z: -0.005465332418680191
","x: 205.0848388671875
y: 391.416015625
z: -0.009671654552221298
","x: 205.44656372070312
y: 390.52484130859375
z: -0.010728972963988781
","x: 205.46832275390625
y: 388.481689453125
z: -0.010586968623101711
","x: 207.41256713867188
y: 382.9752197265625
z: -0.00744203757494688
","x: 208.8013153076172
y: 388.6801452636719
z: -0.010823961347341537
","x: 209.30641174316406
y: 390.4824523925781
z: -0.011859411373734474
","x: 209.42660522460938
y: 390.75689697265625
z: -0.011889597401022911
","x: 225.06639099121094
y: 295.4185485839844
z: 0.0
","x: 220.57888793945312
y: 289.5654296875
z: 0.0003680667723529041
","x: 218.19532775878906
y: 281.21417236328125
z: -0.0012617784086614847
","x: 216.8482208251953
y: 275.5545349121094
z: -0.0036292870063334703
","x: 216.5123291015625
y: 272.629150390625
z: -0.005531438160687685
","x: 221.3753662109375
y: 272.4737243652344
z: -0.0033169968519359827
","x: 218.5270233154297
y: 264.45208740234375
z: -0.007270597852766514
","x: 215.8925323486328
y: 266.375244140625
z: -0.009159951470792294
","x: 214.70606994628906
y: 269.4102783203125
z: -0.010015732608735561
","x: 221.88783264160156
y: 275.3007507324219
z: -0.005858791060745716
","x: 219.34317016601562
y: 268.24493408203125
z: -0.01017867773771286
","x: 217.03750610351562
y: 270.2326965332031
z: -0.01096324808895588
","x: 216.3731231689453
y: 273.1395568847656
z: -0.011163149029016495
","x: 222.2018585205078
y: 279.51763916015625
z: -0.00848184060305357
","x: 220.108154296875
y: 273.94451904296875
z: -0.011822443455457687
","x: 218.06617736816406
y: 274.9236145019531
z: -0.011299597099423409
","x: 217.407958984375
y: 276.645263671875
z: -0.010743738152086735
","x: 222.26223754882812
y: 284.7481689453125
z: -0.011313027702271938
","x: 220.65524291992188
y: 281.6134948730469
z: -0.013530929572880268
