uscmakers/ReverseChoreography/data/2_ymca_village_people.csv
,NOSE,LEFT_EYE_INNER,LEFT_EYE,LEFT_EYE_OUTER,RIGHT_EYE_INNER,RIGHT_EYE,RIGHT_EYE_OUTER,LEFT_EAR,RIGHT_EAR,MOUTH_LEFT,MOUTH_RIGHT,LEFT_SHOULDER,RIGHT_SHOULDER,LEFT_ELBOW,RIGHT_ELBOW,LEFT_WRIST,RIGHT_WRIST,LEFT_PINKY,RIGHT_PINKY,LEFT_INDEX,RIGHT_INDEX,LEFT_THUMB,RIGHT_THUMB,LEFT_HIP,RIGHT_HIP,LEFT_KNEE,RIGHT_KNEE,LEFT_ANKLE,RIGHT_ANKLE,LEFT_HEEL,RIGHT_HEEL,LEFT_FOOT_INDEX,RIGHT_FOOT_INDEX,WRIST,THUMB_CPC,THUMB_MCP,THUMB_IP,THUMB_TIP,INDEX_FINGER_MCP,INDEX_FINGER_PIP,INDEX_FINGER_DIP,INDEX_FINGER_TIP,MIDDLE_FINGER_MCP,MIDDLE_FINGER_PIP,MIDDLE_FINGER_DIP,MIDDLE_FINGER_TIP,RING_FINGER_PIP,RING_FINGER_DIP,RING_FINGER_TIP,RING_FINGER_MCP,PINKY_MCP,PINKY_PIP,PINKY_DIP,PINKY_TIP,WRIST2,THUMB_CPC2,THUMB_MCP2,THUMB_IP2,THUMB_TIP2,INDEX_FINGER_MCP2,INDEX_FINGER_PIP2,INDEX_FINGER_DIP2,INDEX_FINGER_TIP2,MIDDLE_FINGER_MCP2,MIDDLE_FINGER_PIP2,MIDDLE_FINGER_DIP2,MIDDLE_FINGER_TIP2,RING_FINGER_PIP2,RING_FINGER_DIP2,RING_FINGER_TIP2,RING_FINGER_MCP2,PINKY_MCP2,PINKY_PIP2,PINKY_DIP2,PINKY_TIP2
0,"x: 209.11692810058594
y: 173.5682830810547
z: -0.3496381640434265
visibility: 0.9999945163726807
","x: 211.11090087890625
y: 166.95993041992188
z: -0.3220156729221344
visibility: 0.9999728202819824
","x: 212.4498291015625
y: 167.4939727783203
z: -0.3220479488372803
visibility: 0.999970555305481
","x: 213.8911895751953
y: 168.1529998779297
z: -0.32207587361335754
visibility: 0.9999635219573975
","x: 206.839111328125
y: 165.9542236328125
z: -0.3360183835029602
visibility: 0.9999809265136719
","x: 205.00148010253906
y: 165.85308837890625
z: -0.3360610902309418
visibility: 0.9999842643737793
","x: 202.9342803955078
y: 165.99244689941406
z: -0.33605343103408813
visibility: 0.9999785423278809
","x: 214.74021911621094
y: 173.22894287109375
z: -0.1694301962852478
visibility: 0.9998630285263062
","x: 198.87542724609375
y: 171.17051696777344
z: -0.23432831466197968
visibility: 0.9999709129333496
","x: 210.77806091308594
y: 183.45480346679688
z: -0.2921258807182312
visibility: 0.9999736547470093
","x: 205.05715942382812
y: 182.97128295898438
z: -0.310806542634964
visibility: 0.9999867677688599
","x: 224.7704620361328
y: 223.38742065429688
z: -0.019361931830644608
visibility: 0.9999821186065674
","x: 184.83078002929688
y: 221.65020751953125
z: -0.19875197112560272
visibility: 0.9999892711639404
","x: 239.41461181640625
y: 273.5376281738281
z: 0.07134999334812164
visibility: 0.9802889227867126
","x: 179.58258056640625
y: 288.67474365234375
z: -0.19378113746643066
visibility: 0.9966251850128174
","x: 264.33612060546875
y: 304.41351318359375
z: -0.04921238496899605
visibility: 0.9925740957260132
","x: 177.72474670410156
y: 342.0596008300781
z: -0.2843189239501953
visibility: 0.991166889667511
","x: 271.5247802734375
y: 312.56671142578125
z: -0.07577157020568848
visibility: 0.9823837280273438
","x: 176.14173889160156
y: 362.02935791015625
z: -0.320791631937027
visibility: 0.977771520614624
","x: 271.9175720214844
y: 312.33294677734375
z: -0.11881278455257416
visibility: 0.9858500361442566
","x: 179.30740356445312
y: 361.6673278808594
z: -0.35194212198257446
visibility: 0.9790762662887573
","x: 269.39117431640625
y: 310.3958740234375
z: -0.07143596559762955
visibility: 0.9823992252349854
","x: 181.16513061523438
y: 356.2849426269531
z: -0.2976304888725281
visibility: 0.9709502458572388
","x: 219.98739624023438
y: 333.97735595703125
z: 0.07878654450178146
visibility: 0.9997461438179016
","x: 197.68382263183594
y: 335.587158203125
z: -0.07882789522409439
visibility: 0.9998114705085754
","x: 234.99598693847656
y: 411.5959167480469
z: 0.05853741616010666
visibility: 0.9352183938026428
","x: 210.2736053466797
y: 415.9371643066406
z: -0.20048201084136963
visibility: 0.9964147806167603
","x: 218.120361328125
y: 489.057373046875
z: 0.2532341778278351
visibility: 0.9594566226005554
","x: 191.5997772216797
y: 488.6694030761719
z: -0.05954445153474808
visibility: 0.9961530566215515
","x: 212.7959747314453
y: 501.4626770019531
z: 0.26517245173454285
visibility: 0.91446852684021
","x: 185.5386505126953
y: 496.4657897949219
z: -0.05296145752072334
visibility: 0.943476676940918
","x: 234.5634002685547
y: 508.1717529296875
z: 0.1738559454679489
visibility: 0.966378927230835
","x: 198.69378662109375
y: 523.922607421875
z: -0.18355117738246918
visibility: 0.994687557220459
",,,,,,,,,,,,,,,,,,,,,,,,,,,,,,,,,,,,,,,,,,
1,"x: 230.23086547851562
y: 172.64625549316406
z: -0.21322385966777802
visibility: 0.9999913573265076
","x: 229.38404846191406
y: 165.75082397460938
z: -0.19394700229167938
visibility: 0.9999644756317139
","x: 229.66946411132812
y: 166.0596923828125
z: -0.19397325813770294
visibility: 0.9999609589576721
","x: 229.86285400390625
y: 166.3845977783203
z: -0.19396616518497467
visibility: 0.9999546408653259
","x: 226.91036987304688
y: 165.09228515625
z: -0.2246287316083908
visibility: 0.9999748468399048
","x: 225.36305236816406
y: 164.93923950195312
z: -0.2246657907962799
visibility: 0.9999783635139465
","x: 223.76795959472656
y: 164.82476806640625
z: -0.22472074627876282
visibility: 0.999972403049469
","x: 224.34535217285156
y: 170.62705993652344
z: -0.08254742622375488
visibility: 0.9998503923416138
","x: 216.82568359375
y: 168.31468200683594
z: -0.22141596674919128
visibility: 0.9999639391899109
","x: 229.51568603515625
y: 182.05970764160156
z: -0.16868600249290466
visibility: 0.9999717473983765
","x: 226.5122528076172
y: 181.5768280029297
z: -0.2091904878616333
visibility: 0.9999861717224121
","x: 231.70184326171875
y: 220.44557189941406
z: 0.03222998231649399
visibility: 0.9999783635139465
","x: 195.47328186035156
y: 221.4342041015625
z: -0.2224242389202118
visibility: 0.9999887943267822
","x: 239.66651916503906
y: 277.40380859375
z: 0.10545523464679718
visibility: 0.9568278789520264
","x: 190.52647399902344
y: 286.3377990722656
z: -0.2355264127254486
visibility: 0.9967511892318726
","x: 253.43020629882812
y: 317.26763916015625
z: 0.003445983398705721
visibility: 0.9814844727516174
","x: 197.06410217285156
y: 342.1591491699219
z: -0.28432604670524597
visibility: 0.9915692806243896
","x: 257.0947265625
y: 330.8072204589844
z: -0.01653393544256687
visibility: 0.9678656458854675
","x: 196.66529846191406
y: 361.5559387207031
z: -0.32029861211776733
visibility: 0.9789660573005676
","x: 257.0981140136719
y: 330.5619812011719
z: -0.05311382934451103
visibility: 0.972521960735321
","x: 200.19483947753906
y: 361.4306640625
z: -0.3409894108772278
visibility: 0.9801318049430847
","x: 255.31846618652344
y: 327.11083984375
z: -0.015486997552216053
visibility: 0.9676744341850281
","x: 201.4530487060547
y: 355.7940673828125
z: -0.2939564883708954
visibility: 0.971993088722229
","x: 229.98948669433594
y: 337.2768859863281
z: 0.08270542323589325
visibility: 0.9997233748435974
","x: 210.5064239501953
y: 340.3660888671875
z: -0.08271528780460358
visibility: 0.9997717142105103
","x: 249.92291259765625
y: 411.46630859375
z: 0.021255172789096832
visibility: 0.9392187595367432
","x: 219.93313598632812
y: 427.6033935546875
z: -0.10082640498876572
visibility: 0.9954380393028259
","x: 225.5657501220703
y: 475.6353759765625
z: 0.25377488136291504
visibility: 0.9570950269699097
","x: 200.26943969726562
y: 502.2362976074219
z: 0.06911875307559967
visibility: 0.9956276416778564
","x: 219.04302978515625
y: 482.8609924316406
z: 0.2720133364200592
visibility: 0.914358913898468
","x: 195.29266357421875
y: 512.3287353515625
z: 0.07951613515615463
visibility: 0.9409639835357666
","x: 236.56686401367188
y: 506.33929443359375
z: 0.20969955623149872
visibility: 0.9657296538352966
","x: 215.13430786132812
y: 529.1893920898438
z: -0.0395120270550251
visibility: 0.9938724040985107
","x: 198.84579467773438
y: 341.51153564453125
z: 0.0
","x: 202.01358032226562
y: 348.24072265625
z: -0.00013056550233159214
","x: 203.3443145751953
y: 356.8055725097656
z: -0.000557448249310255
","x: 203.88800048828125
y: 363.11279296875
z: -0.0016043409705162048
","x: 204.33941650390625
y: 368.17413330078125
z: -0.0022964116651564837
","x: 198.43821716308594
y: 364.9122314453125
z: 0.002836525207385421
","x: 199.04124450683594
y: 373.1119384765625
z: 0.001374976709485054
","x: 199.97064208984375
y: 377.3642578125
z: 0.0005594065296463668
","x: 200.83424377441406
y: 380.546630859375
z: 0.000258173473412171
","x: 196.92721557617188
y: 364.3175964355469
z: 0.0011912354966625571
","x: 197.5070343017578
y: 372.50750732421875
z: -3.9850769098848104e-05
","x: 198.59559631347656
y: 376.6683349609375
z: -0.00046011852100491524
","x: 199.71157836914062
y: 380.06890869140625
z: -0.0006148860557004809
","x: 195.77487182617188
y: 362.9173583984375
z: -0.0010566612472757697
","x: 196.2388153076172
y: 370.3716735839844
z: -0.0027345868293195963
","x: 197.3152313232422
y: 374.405517578125
z: -0.0030087586492300034
","x: 198.4121551513672
y: 377.528076171875
z: -0.0028980965726077557
","x: 194.969482421875
y: 360.6730651855469
z: -0.003639017231762409
","x: 195.20193481445312
y: 366.8963317871094
z: -0.0048727295361459255
","x: 196.12232971191406
y: 370.80340576171875
z: -0.00503682903945446
","x: 197.12020874023438
y: 373.73541259765625
z: -0.004923631437122822
",,,,,,,,,,,,,,,,,,,,,
2,"x: 230.23086547851562
y: 172.64625549316406
z: -0.21322385966777802
visibility: 0.9999913573265076
","x: 229.38404846191406
y: 165.75082397460938
z: -0.19394700229167938
visibility: 0.9999644756317139
","x: 229.66946411132812
y: 166.0596923828125
z: -0.19397325813770294
visibility: 0.9999609589576721
","x: 229.86285400390625
y: 166.3845977783203
z: -0.19396616518497467
visibility: 0.9999546408653259
","x: 226.91036987304688
y: 165.09228515625
z: -0.2246287316083908
visibility: 0.9999748468399048
","x: 225.36305236816406
y: 164.93923950195312
z: -0.2246657907962799
visibility: 0.9999783635139465
","x: 223.76795959472656
y: 164.82476806640625
z: -0.22472074627876282
visibility: 0.999972403049469
","x: 224.34535217285156
y: 170.62705993652344
z: -0.08254742622375488
visibility: 0.9998503923416138
","x: 216.82568359375
y: 168.31468200683594
z: -0.22141596674919128
visibility: 0.9999639391899109
","x: 229.51568603515625
y: 182.05970764160156
z: -0.16868600249290466
visibility: 0.9999717473983765
","x: 226.5122528076172
y: 181.5768280029297
z: -0.2091904878616333
visibility: 0.9999861717224121
","x: 231.70184326171875
y: 220.44557189941406
z: 0.03222998231649399
visibility: 0.9999783635139465
","x: 195.47328186035156
y: 221.4342041015625
z: -0.2224242389202118
visibility: 0.9999887943267822
","x: 239.66651916503906
y: 277.40380859375
z: 0.10545523464679718
visibility: 0.9568278789520264
","x: 190.52647399902344
y: 286.3377990722656
z: -0.2355264127254486
visibility: 0.9967511892318726
","x: 253.43020629882812
y: 317.26763916015625
z: 0.003445983398705721
visibility: 0.9814844727516174
","x: 197.06410217285156
y: 342.1591491699219
z: -0.28432604670524597
visibility: 0.9915692806243896
","x: 257.0947265625
y: 330.8072204589844
z: -0.01653393544256687
visibility: 0.9678656458854675
","x: 196.66529846191406
y: 361.5559387207031
z: -0.32029861211776733
visibility: 0.9789660573005676
","x: 257.0981140136719
y: 330.5619812011719
z: -0.05311382934451103
visibility: 0.972521960735321
","x: 200.19483947753906
y: 361.4306640625
z: -0.3409894108772278
visibility: 0.9801318049430847
","x: 255.31846618652344
y: 327.11083984375
z: -0.015486997552216053
visibility: 0.9676744341850281
","x: 201.4530487060547
y: 355.7940673828125
z: -0.2939564883708954
visibility: 0.971993088722229
","x: 229.98948669433594
y: 337.2768859863281
z: 0.08270542323589325
visibility: 0.9997233748435974
","x: 210.5064239501953
y: 340.3660888671875
z: -0.08271528780460358
visibility: 0.9997717142105103
","x: 249.92291259765625
y: 411.46630859375
z: 0.021255172789096832
visibility: 0.9392187595367432
","x: 219.93313598632812
y: 427.6033935546875
z: -0.10082640498876572
visibility: 0.9954380393028259
","x: 225.5657501220703
y: 475.6353759765625
z: 0.25377488136291504
visibility: 0.9570950269699097
","x: 200.26943969726562
y: 502.2362976074219
z: 0.06911875307559967
visibility: 0.9956276416778564
","x: 219.04302978515625
y: 482.8609924316406
z: 0.2720133364200592
visibility: 0.914358913898468
","x: 195.29266357421875
y: 512.3287353515625
z: 0.07951613515615463
visibility: 0.9409639835357666
","x: 236.56686401367188
y: 506.33929443359375
z: 0.20969955623149872
visibility: 0.9657296538352966
","x: 215.13430786132812
y: 529.1893920898438
z: -0.0395120270550251
visibility: 0.9938724040985107
","x: 198.84579467773438
y: 341.51153564453125
z: 0.0
","x: 202.01358032226562
y: 348.24072265625
z: -0.00013056550233159214
","x: 203.3443145751953
y: 356.8055725097656
z: -0.000557448249310255
","x: 203.88800048828125
y: 363.11279296875
z: -0.0016043409705162048
","x: 204.33941650390625
y: 368.17413330078125
z: -0.0022964116651564837
","x: 198.43821716308594
y: 364.9122314453125
z: 0.002836525207385421
","x: 199.04124450683594
y: 373.1119384765625
z: 0.001374976709485054
","x: 199.97064208984375
y: 377.3642578125
z: 0.0005594065296463668
","x: 200.83424377441406
y: 380.546630859375
z: 0.000258173473412171
","x: 196.92721557617188
y: 364.3175964355469
z: 0.0011912354966625571
","x: 197.5070343017578
y: 372.50750732421875
z: -3.9850769098848104e-05
","x: 198.59559631347656
y: 376.6683349609375
z: -0.00046011852100491524
","x: 199.71157836914062
y: 380.06890869140625
z: -0.0006148860557004809
","x: 195.77487182617188
y: 362.9173583984375
z: -0.0010566612472757697
","x: 196.2388153076172
y: 370.3716735839844
z: -0.0027345868293195963
","x: 197.3152313232422
y: 374.405517578125
z: -0.0030087586492300034
","x: 198.4121551513672
y: 377.528076171875
z: -0.0028980965726077557
","x: 194.969482421875
y: 360.6730651855469
z: -0.003639017231762409
","x: 195.20193481445312
y: 366.8963317871094
z: -0.0048727295361459255
","x: 196.12232971191406
y: 370.80340576171875
z: -0.00503682903945446
","x: 197.12020874023438
y: 373.73541259765625
z: -0.004923631437122822
",,,,,,,,,,,,,,,,,,,,,
3,"x: 237.61216735839844
y: 169.4406280517578
z: -0.17150506377220154
visibility: 0.9999587535858154
","x: 236.48114013671875
y: 161.63754272460938
z: -0.15148308873176575
visibility: 0.999880313873291
","x: 236.45899963378906
y: 161.76351928710938
z: -0.15150555968284607
visibility: 0.9998587965965271
","x: 236.39132690429688
y: 161.93910217285156
z: -0.15147331357002258
visibility: 0.9998281598091125
","x: 234.71278381347656
y: 161.4241180419922
z: -0.1858181655406952
visibility: 0.9999228715896606
","x: 233.4694061279297
y: 161.34747314453125
z: -0.1858527809381485
visibility: 0.9999329447746277
","x: 232.12066650390625
y: 161.2318115234375
z: -0.18593046069145203
visibility: 0.9999254941940308
","x: 229.88763427734375
y: 166.0911407470703
z: -0.04143533855676651
visibility: 0.9994741082191467
","x: 225.51356506347656
y: 164.27117919921875
z: -0.198331817984581
visibility: 0.9999345541000366
","x: 235.98609924316406
y: 178.7734375
z: -0.12714985013008118
visibility: 0.9998652935028076
","x: 233.8985595703125
y: 178.17633056640625
z: -0.17242811620235443
visibility: 0.9999614357948303
","x: 230.8976287841797
y: 217.17918395996094
z: 0.09082441031932831
visibility: 0.999726414680481
","x: 204.4293212890625
y: 211.7275390625
z: -0.23475447297096252
visibility: 0.9999879002571106
","x: 225.88082885742188
y: 278.712158203125
z: 0.16210760176181793
visibility: 0.8636936545372009
","x: 194.0610809326172
y: 268.229736328125
z: -0.2695099711418152
visibility: 0.9968763589859009
","x: 229.93580627441406
y: 320.3030700683594
z: 0.08996215462684631
visibility: 0.8883431553840637
","x: 205.82321166992188
y: 325.3323059082031
z: -0.287979394197464
visibility: 0.9914125800132751
","x: 232.08209228515625
y: 334.80584716796875
z: 0.0797356367111206
visibility: 0.8772685527801514
","x: 207.1647491455078
y: 344.43536376953125
z: -0.3235503137111664
visibility: 0.9788415431976318
","x: 232.9191131591797
y: 333.8428039550781
z: 0.04788176342844963
visibility: 0.8817910552024841
","x: 211.6307373046875
y: 343.34295654296875
z: -0.33129680156707764
visibility: 0.9797676205635071
","x: 231.5547637939453
y: 329.26702880859375
z: 0.07243362069129944
visibility: 0.8777117729187012
","x: 212.49851989746094
y: 337.95440673828125
z: -0.29234299063682556
visibility: 0.9705575108528137
","x: 232.2381591796875
y: 337.033203125
z: 0.0974113792181015
visibility: 0.9996254444122314
","x: 214.19847106933594
y: 339.9293518066406
z: -0.09737031161785126
visibility: 0.9997216463088989
","x: 258.15753173828125
y: 401.8780517578125
z: 0.07855800539255142
visibility: 0.9428061842918396
","x: 223.4617156982422
y: 427.1145324707031
z: -0.09910978376865387
visibility: 0.9956635236740112
","x: 248.21885681152344
y: 477.7308654785156
z: 0.25264686346054077
visibility: 0.9598747491836548
","x: 202.76229858398438
y: 504.26336669921875
z: 0.04125595837831497
visibility: 0.9958561658859253
","x: 242.8502655029297
y: 488.03717041015625
z: 0.2661954164505005
visibility: 0.9201205372810364
","x: 196.77621459960938
y: 514.6757202148438
z: 0.04864058643579483
visibility: 0.9437834620475769
","x: 267.927490234375
y: 502.51397705078125
z: 0.19785764813423157
visibility: 0.9679827690124512
","x: 216.55223083496094
y: 530.7774658203125
z: -0.06150319427251816
visibility: 0.9941104650497437
",,,,,,,,,,,,,,,,,,,,,,,,,,,,,,,,,,,,,,,,,,
4,"x: 245.79483032226562
y: 169.72796630859375
z: -0.19241245090961456
visibility: 0.9999545216560364
","x: 245.6231689453125
y: 162.12298583984375
z: -0.1695467233657837
visibility: 0.9998698234558105
","x: 245.97364807128906
y: 162.31942749023438
z: -0.16956569254398346
visibility: 0.9998416900634766
","x: 246.31585693359375
y: 162.57948303222656
z: -0.16953136026859283
visibility: 0.9998037219047546
","x: 243.29603576660156
y: 161.75794982910156
z: -0.19997574388980865
visibility: 0.9999176263809204
","x: 241.9178924560547
y: 161.6145477294922
z: -0.20001456141471863
visibility: 0.9999285340309143
","x: 240.42193603515625
y: 161.41552734375
z: -0.20006927847862244
visibility: 0.9999215006828308
","x: 241.97116088867188
y: 166.72525024414062
z: -0.04835748299956322
visibility: 0.9992991089820862
","x: 233.80126953125
y: 163.97415161132812
z: -0.18850326538085938
visibility: 0.9999324083328247
","x: 244.6087646484375
y: 179.0818634033203
z: -0.14452260732650757
visibility: 0.9998093843460083
","x: 241.8638458251953
y: 178.4493865966797
z: -0.18492946028709412
visibility: 0.9999496340751648
","x: 237.65158081054688
y: 217.78033447265625
z: 0.08926744014024734
visibility: 0.9994667172431946
","x: 214.17552185058594
y: 210.86038208007812
z: -0.22585341334342957
visibility: 0.9999874234199524
","x: 229.8756103515625
y: 278.38348388671875
z: 0.1543818563222885
visibility: 0.7796266674995422
","x: 207.7841033935547
y: 271.7862854003906
z: -0.2602009177207947
visibility: 0.9969242215156555
","x: 236.370849609375
y: 332.9126281738281
z: 0.08099362999200821
visibility: 0.8051272630691528
","x: 222.36341857910156
y: 325.60101318359375
z: -0.2888863980770111
visibility: 0.9912334680557251
","x: 237.66604614257812
y: 341.353515625
z: 0.07226239144802094
visibility: 0.7961510419845581
","x: 224.53689575195312
y: 343.1477355957031
z: -0.3254251182079315
visibility: 0.9785451292991638
","x: 240.26910400390625
y: 349.5216369628906
z: 0.04039164260029793
visibility: 0.8007161617279053
","x: 228.3235626220703
y: 340.8996276855469
z: -0.3273637592792511
visibility: 0.9793066382408142
","x: 238.8673095703125
y: 335.29412841796875
z: 0.06376340985298157
visibility: 0.7971376180648804
","x: 228.44114685058594
y: 335.4505615234375
z: -0.29014983773231506
visibility: 0.969060480594635
","x: 241.28602600097656
y: 337.6973876953125
z: 0.09393401443958282
visibility: 0.9995718598365784
","x: 222.982666015625
y: 340.9622802734375
z: -0.09393703937530518
visibility: 0.9996976256370544
","x: 261.595458984375
y: 406.8553466796875
z: 0.1165909543633461
visibility: 0.9454457759857178
","x: 228.3530731201172
y: 431.28680419921875
z: -0.08303052932024002
visibility: 0.9958633184432983
","x: 270.2154846191406
y: 488.0218200683594
z: 0.25120267271995544
visibility: 0.9627113342285156
","x: 204.6776123046875
y: 504.5946044921875
z: 0.04511050507426262
visibility: 0.9960447549819946
","x: 266.3631286621094
y: 501.2503356933594
z: 0.259260356426239
visibility: 0.9242936372756958
","x: 196.55201721191406
y: 514.779296875
z: 0.05231313034892082
visibility: 0.9443345069885254
","x: 287.4869079589844
y: 510.3616943359375
z: 0.18899475038051605
visibility: 0.9699450135231018
","x: 217.0675506591797
y: 533.976318359375
z: -0.05444689840078354
visibility: 0.9942527413368225
",,,,,,,,,,,,,,,,,,,,,,,,,,,,,,,,,,,,,,,,,,
5,"x: 245.9822235107422
y: 169.1622772216797
z: -0.24420134723186493
visibility: 0.9999589920043945
","x: 246.67076110839844
y: 162.18646240234375
z: -0.20059657096862793
visibility: 0.9998825192451477
","x: 247.58116149902344
y: 162.47735595703125
z: -0.20050616562366486
visibility: 0.9998570680618286
","x: 248.34097290039062
y: 162.8285369873047
z: -0.2003607302904129
visibility: 0.9998227953910828
","x: 242.94256591796875
y: 161.6260528564453
z: -0.244674950838089
visibility: 0.9999256730079651
","x: 241.25672912597656
y: 161.4414825439453
z: -0.24463844299316406
visibility: 0.9999354481697083
","x: 239.34735107421875
y: 161.23834228515625
z: -0.24457252025604248
visibility: 0.9999291300773621
","x: 245.45162963867188
y: 167.09715270996094
z: -0.08860854059457779
visibility: 0.9993659853935242
","x: 233.1373291015625
y: 164.4029083251953
z: -0.20498916506767273
visibility: 0.99993896484375
","x: 246.36114501953125
y: 178.645751953125
z: -0.15626408159732819
visibility: 0.9998272657394409
","x: 242.2110595703125
y: 177.78016662597656
z: -0.22603614628314972
visibility: 0.9999544024467468
","x: 243.93362426757812
y: 219.61676025390625
z: 0.055853474885225296
visibility: 0.9995068311691284
","x: 216.52430725097656
y: 211.5389862060547
z: -0.22539298236370087
visibility: 0.9999875426292419
","x: 239.56271362304688
y: 279.0677490234375
z: 0.13408219814300537
visibility: 0.7282352447509766
","x: 209.82566833496094
y: 273.92718505859375
z: -0.27739495038986206
visibility: 0.9969830513000488
","x: 254.1287078857422
y: 320.7565612792969
z: 0.03663497790694237
visibility: 0.8019049763679504
","x: 227.126220703125
y: 324.82757568359375
z: -0.37023305892944336
visibility: 0.991304874420166
","x: 262.500732421875
y: 334.020263671875
z: 0.019730355590581894
visibility: 0.790806233882904
","x: 230.1859130859375
y: 341.7703552246094
z: -0.41464465856552124
visibility: 0.9787230491638184
","x: 265.02886962890625
y: 332.4516296386719
z: -0.01876703090965748
visibility: 0.7976208925247192
","x: 235.07070922851562
y: 338.75946044921875
z: -0.4186893105506897
visibility: 0.9793779253959656
","x: 260.88409423828125
y: 325.17742919921875
z: 0.016573425382375717
visibility: 0.7902652025222778
","x: 234.8690185546875
y: 333.2980651855469
z: -0.3719192147254944
visibility: 0.9687649011611938
","x: 244.824462890625
y: 337.71527099609375
z: 0.0926399976015091
visibility: 0.9995956420898438
","x: 224.73785400390625
y: 340.65338134765625
z: -0.09260882437229156
visibility: 0.9997060298919678
","x: 264.01556396484375
y: 410.9427490234375
z: 0.0935208648443222
visibility: 0.9494403600692749
","x: 232.73611450195312
y: 431.77099609375
z: -0.05777851492166519
visibility: 0.9960864186286926
","x: 271.70355224609375
y: 492.5555114746094
z: 0.24398966133594513
visibility: 0.9656885266304016
","x: 205.05587768554688
y: 504.9855041503906
z: 0.12469041347503662
visibility: 0.9962586760520935
","x: 268.0597839355469
y: 505.245361328125
z: 0.25188225507736206
visibility: 0.9286180734634399
","x: 196.75205993652344
y: 514.828125
z: 0.1371331512928009
visibility: 0.9446097612380981
","x: 288.44964599609375
y: 514.0904541015625
z: 0.16052354872226715
visibility: 0.9720876216888428
","x: 219.29710388183594
y: 534.48828125
z: 0.019370947033166885
visibility: 0.9944427013397217
",,,,,,,,,,,,,,,,,,,,,,,,,,,,,,,,,,,,,,,,,,
6,"x: 239.0518341064453
y: 167.76060485839844
z: -0.2610045075416565
visibility: 0.9999630451202393
","x: 241.5926513671875
y: 161.66189575195312
z: -0.22992941737174988
visibility: 0.9998942017555237
","x: 243.05056762695312
y: 162.25791931152344
z: -0.2299228459596634
visibility: 0.9998713135719299
","x: 244.45538330078125
y: 162.8563690185547
z: -0.22988109290599823
visibility: 0.9998404383659363
","x: 236.94058227539062
y: 160.59335327148438
z: -0.2550930082798004
visibility: 0.9999330639839172
","x: 235.18080139160156
y: 160.33998107910156
z: -0.25509580969810486
visibility: 0.9999418258666992
","x: 233.59310913085938
y: 160.09019470214844
z: -0.2550983428955078
visibility: 0.9999361038208008
","x: 245.04612731933594
y: 167.4272918701172
z: -0.08491480350494385
visibility: 0.9994291067123413
","x: 230.4053192138672
y: 164.41030883789062
z: -0.1674502193927765
visibility: 0.9999450445175171
","x: 240.69351196289062
y: 177.60098266601562
z: -0.19680283963680267
visibility: 0.999844491481781
","x: 235.33322143554688
y: 176.06121826171875
z: -0.2310756891965866
visibility: 0.9999589323997498
","x: 249.30441284179688
y: 219.67218017578125
z: 0.05676279217004776
visibility: 0.9995551705360413
","x: 213.29144287109375
y: 211.23394775390625
z: -0.1331690400838852
visibility: 0.999988317489624
","x: 253.61163330078125
y: 286.91522216796875
z: -0.004097417462617159
visibility: 0.7497811317443848
","x: 204.9550323486328
y: 268.1242980957031
z: -0.2269936054944992
visibility: 0.9964879751205444
","x: 260.61944580078125
y: 255.88255310058594
z: -0.2943311631679535
visibility: 0.8212243914604187
","x: 216.80072021484375
y: 290.5492248535156
z: -0.40579843521118164
visibility: 0.9914734959602356
","x: 265.3478088378906
y: 247.42132568359375
z: -0.3487737774848938
visibility: 0.8108876347541809
","x: 221.76327514648438
y: 303.6509094238281
z: -0.4544824957847595
visibility: 0.9795503616333008
","x: 265.7925109863281
y: 240.9683074951172
z: -0.36158961057662964
visibility: 0.8170860409736633
","x: 224.77281188964844
y: 296.5106506347656
z: -0.465151309967041
visibility: 0.9801232218742371
","x: 262.9128723144531
y: 243.6054229736328
z: -0.30765247344970703
visibility: 0.8099126815795898
","x: 223.8267059326172
y: 292.97698974609375
z: -0.4116825461387634
visibility: 0.969623863697052
","x: 244.26527404785156
y: 336.52880859375
z: 0.08512041717767715
visibility: 0.999624490737915
","x: 221.96189880371094
y: 339.9190673828125
z: -0.08526457846164703
visibility: 0.9997224807739258
","x: 263.0249938964844
y: 410.8446960449219
z: 0.09107724577188492
visibility: 0.9528921246528625
","x: 231.8145294189453
y: 429.88336181640625
z: -0.10465381294488907
visibility: 0.9962900280952454
","x: 271.19287109375
y: 493.0041198730469
z: 0.2509790360927582
visibility: 0.9685068726539612
","x: 204.06747436523438
y: 505.676025390625
z: 0.05158912017941475
visibility: 0.996448278427124
","x: 267.6844787597656
y: 505.78924560546875
z: 0.2597939074039459
visibility: 0.9327021241188049
","x: 196.84059143066406
y: 515.8214111328125
z: 0.060624510049819946
visibility: 0.9456593990325928
","x: 287.15325927734375
y: 514.6620483398438
z: 0.1577197015285492
visibility: 0.9740411639213562
","x: 219.1586151123047
y: 534.251220703125
z: -0.01099248044192791
visibility: 0.9946144819259644
",,,,,,,,,,,,,,,,,,,,,,"x: 261.9794006347656
y: 251.89718627929688
z: 0.0
","x: 263.7743225097656
y: 244.28231811523438
z: 0.0004783312033396214
","x: 265.7545471191406
y: 236.8745574951172
z: -0.000644512998405844
","x: 266.32940673828125
y: 231.19935607910156
z: -0.002644320484250784
","x: 266.17510986328125
y: 227.35641479492188
z: -0.004334981087595224
","x: 269.6416320800781
y: 233.22105407714844
z: 0.0009081207099370658
","x: 269.991943359375
y: 226.7720947265625
z: -0.002042187377810478
","x: 268.65167236328125
y: 222.50234985351562
z: -0.004048242699354887
","x: 267.1697082519531
y: 219.25863647460938
z: -0.005078538786619902
","x: 269.2265625
y: 234.73928833007812
z: -0.001532300841063261
","x: 269.5228271484375
y: 228.21176147460938
z: -0.0044570788741111755
","x: 268.01080322265625
y: 225.29330444335938
z: -0.005611112341284752
","x: 266.5015563964844
y: 223.14328002929688
z: -0.006158791482448578
","x: 268.3103942871094
y: 237.1239471435547
z: -0.00439617782831192
","x: 268.26025390625
y: 230.830810546875
z: -0.006814542226493359
","x: 266.85284423828125
y: 228.45196533203125
z: -0.006531525868922472
","x: 265.56591796875
y: 226.85025024414062
z: -0.006095259916037321
","x: 266.8878479003906
y: 240.22793579101562
z: -0.007533887401223183
","x: 266.56378173828125
y: 234.3567657470703
z: -0.008825737982988358
","x: 265.3318786621094
y: 232.28485107421875
z: -0.008184099569916725
","x: 264.1424560546875
y: 231.14309692382812
z: -0.007544268388301134
"
7,"x: 239.0518341064453
y: 167.76060485839844
z: -0.2610045075416565
visibility: 0.9999630451202393
","x: 241.5926513671875
y: 161.66189575195312
z: -0.22992941737174988
visibility: 0.9998942017555237
","x: 243.05056762695312
y: 162.25791931152344
z: -0.2299228459596634
visibility: 0.9998713135719299
","x: 244.45538330078125
y: 162.8563690185547
z: -0.22988109290599823
visibility: 0.9998404383659363
","x: 236.94058227539062
y: 160.59335327148438
z: -0.2550930082798004
visibility: 0.9999330639839172
","x: 235.18080139160156
y: 160.33998107910156
z: -0.25509580969810486
visibility: 0.9999418258666992
","x: 233.59310913085938
y: 160.09019470214844
z: -0.2550983428955078
visibility: 0.9999361038208008
","x: 245.04612731933594
y: 167.4272918701172
z: -0.08491480350494385
visibility: 0.9994291067123413
","x: 230.4053192138672
y: 164.41030883789062
z: -0.1674502193927765
visibility: 0.9999450445175171
","x: 240.69351196289062
y: 177.60098266601562
z: -0.19680283963680267
visibility: 0.999844491481781
","x: 235.33322143554688
y: 176.06121826171875
z: -0.2310756891965866
visibility: 0.9999589323997498
","x: 249.30441284179688
y: 219.67218017578125
z: 0.05676279217004776
visibility: 0.9995551705360413
","x: 213.29144287109375
y: 211.23394775390625
z: -0.1331690400838852
visibility: 0.999988317489624
","x: 253.61163330078125
y: 286.91522216796875
z: -0.004097417462617159
visibility: 0.7497811317443848
","x: 204.9550323486328
y: 268.1242980957031
z: -0.2269936054944992
visibility: 0.9964879751205444
","x: 260.61944580078125
y: 255.88255310058594
z: -0.2943311631679535
visibility: 0.8212243914604187
","x: 216.80072021484375
y: 290.5492248535156
z: -0.40579843521118164
visibility: 0.9914734959602356
","x: 265.3478088378906
y: 247.42132568359375
z: -0.3487737774848938
visibility: 0.8108876347541809
","x: 221.76327514648438
y: 303.6509094238281
z: -0.4544824957847595
visibility: 0.9795503616333008
","x: 265.7925109863281
y: 240.9683074951172
z: -0.36158961057662964
visibility: 0.8170860409736633
","x: 224.77281188964844
y: 296.5106506347656
z: -0.465151309967041
visibility: 0.9801232218742371
","x: 262.9128723144531
y: 243.6054229736328
z: -0.30765247344970703
visibility: 0.8099126815795898
","x: 223.8267059326172
y: 292.97698974609375
z: -0.4116825461387634
visibility: 0.969623863697052
","x: 244.26527404785156
y: 336.52880859375
z: 0.08512041717767715
visibility: 0.999624490737915
","x: 221.96189880371094
y: 339.9190673828125
z: -0.08526457846164703
visibility: 0.9997224807739258
","x: 263.0249938964844
y: 410.8446960449219
z: 0.09107724577188492
visibility: 0.9528921246528625
","x: 231.8145294189453
y: 429.88336181640625
z: -0.10465381294488907
visibility: 0.9962900280952454
","x: 271.19287109375
y: 493.0041198730469
z: 0.2509790360927582
visibility: 0.9685068726539612
","x: 204.06747436523438
y: 505.676025390625
z: 0.05158912017941475
visibility: 0.996448278427124
","x: 267.6844787597656
y: 505.78924560546875
z: 0.2597939074039459
visibility: 0.9327021241188049
","x: 196.84059143066406
y: 515.8214111328125
z: 0.060624510049819946
visibility: 0.9456593990325928
","x: 287.15325927734375
y: 514.6620483398438
z: 0.1577197015285492
visibility: 0.9740411639213562
","x: 219.1586151123047
y: 534.251220703125
z: -0.01099248044192791
visibility: 0.9946144819259644
",,,,,,,,,,,,,,,,,,,,,,"x: 261.9794006347656
y: 251.89718627929688
z: 0.0
","x: 263.7743225097656
y: 244.28231811523438
z: 0.0004783312033396214
","x: 265.7545471191406
y: 236.8745574951172
z: -0.000644512998405844
","x: 266.32940673828125
y: 231.19935607910156
z: -0.002644320484250784
","x: 266.17510986328125
y: 227.35641479492188
z: -0.004334981087595224
","x: 269.6416320800781
y: 233.22105407714844
z: 0.0009081207099370658
","x: 269.991943359375
y: 226.7720947265625
z: -0.002042187377810478
","x: 268.65167236328125
y: 222.50234985351562
z: -0.004048242699354887
","x: 267.1697082519531
y: 219.25863647460938
z: -0.005078538786619902
","x: 269.2265625
y: 234.73928833007812
z: -0.001532300841063261
","x: 269.5228271484375
y: 228.21176147460938
z: -0.0044570788741111755
","x: 268.01080322265625
y: 225.29330444335938
z: -0.005611112341284752
","x: 266.5015563964844
y: 223.14328002929688
z: -0.006158791482448578
","x: 268.3103942871094
y: 237.1239471435547
z: -0.00439617782831192
","x: 268.26025390625
y: 230.830810546875
z: -0.006814542226493359
","x: 266.85284423828125
y: 228.45196533203125
z: -0.006531525868922472
","x: 265.56591796875
y: 226.85025024414062
z: -0.006095259916037321
","x: 266.8878479003906
y: 240.22793579101562
z: -0.007533887401223183
","x: 266.56378173828125
y: 234.3567657470703
z: -0.008825737982988358
","x: 265.3318786621094
y: 232.28485107421875
z: -0.008184099569916725
","x: 264.1424560546875
y: 231.14309692382812
z: -0.007544268388301134
"
8,"x: 238.1565399169922
y: 165.46273803710938
z: -0.26894161105155945
visibility: 0.9999667406082153
","x: 237.08599853515625
y: 159.78839111328125
z: -0.24865230917930603
visibility: 0.9999047517776489
","x: 238.0047607421875
y: 160.3262176513672
z: -0.24870240688323975
visibility: 0.9998841285705566
","x: 239.1044921875
y: 160.8805694580078
z: -0.2486812323331833
visibility: 0.9998563528060913
","x: 234.10418701171875
y: 158.64244079589844
z: -0.2620362937450409
visibility: 0.9999396800994873
","x: 232.5391082763672
y: 158.44854736328125
z: -0.26205557584762573
visibility: 0.9999476075172424
","x: 231.11419677734375
y: 158.3873291015625
z: -0.26206111907958984
visibility: 0.9999423623085022
","x: 240.3279266357422
y: 166.25291442871094
z: -0.11224726587533951
visibility: 0.9994860291481018
","x: 225.0735626220703
y: 163.64825439453125
z: -0.1562499850988388
visibility: 0.9999504089355469
","x: 236.3892364501953
y: 175.62969970703125
z: -0.2143184244632721
visibility: 0.9998599886894226
","x: 234.34230041503906
y: 174.37246704101562
z: -0.23737815022468567
visibility: 0.9999630451202393
","x: 249.16566467285156
y: 216.05886840820312
z: -0.02061416022479534
visibility: 0.9995992183685303
","x: 209.2152557373047
y: 211.892578125
z: -0.08619455993175507
visibility: 0.9999889731407166
","x: 255.36666870117188
y: 286.789794921875
z: -0.12401501834392548
visibility: 0.7739255428314209
","x: 205.3733367919922
y: 270.66021728515625
z: -0.17149405181407928
visibility: 0.9939498901367188
","x: 254.96469116210938
y: 242.38095092773438
z: -0.4004454016685486
visibility: 0.8389617204666138
","x: 198.98556518554688
y: 266.86236572265625
z: -0.4235804080963135
visibility: 0.9914267659187317
","x: 252.80908203125
y: 232.7336883544922
z: -0.45654529333114624
visibility: 0.8295032382011414
","x: 191.5051727294922
y: 265.6687316894531
z: -0.47492271661758423
visibility: 0.9804014563560486
","x: 252.36923217773438
y: 224.61119079589844
z: -0.4629172682762146
visibility: 0.8350920081138611
","x: 190.27195739746094
y: 257.5359802246094
z: -0.49485570192337036
visibility: 0.9809795022010803
","x: 251.93804931640625
y: 226.6877899169922
z: -0.40891218185424805
visibility: 0.8283918499946594
","x: 192.72647094726562
y: 258.0323486328125
z: -0.4370204508304596
visibility: 0.970853865146637
","x: 246.07484436035156
y: 336.1905212402344
z: 0.05307148024439812
visibility: 0.9996570348739624
","x: 221.482666015625
y: 339.59637451171875
z: -0.053362827748060226
visibility: 0.9997460842132568
","x: 262.0755615234375
y: 414.20819091796875
z: 0.07732890546321869
visibility: 0.9566750526428223
","x: 228.8583526611328
y: 428.84197998046875
z: -0.10037066787481308
visibility: 0.9964526295661926
","x: 271.2070617675781
y: 493.3681640625
z: 0.29088079929351807
visibility: 0.9710128903388977
","x: 203.41273498535156
y: 505.8032531738281
z: 0.07068582624197006
visibility: 0.9965711832046509
","x: 267.9453125
y: 506.51025390625
z: 0.3065294325351715
visibility: 0.9357628226280212
","x: 197.0672149658203
y: 515.8247680664062
z: 0.08057891577482224
visibility: 0.943737804889679
","x: 287.32818603515625
y: 514.8673095703125
z: 0.1927718222141266
visibility: 0.9758479595184326
","x: 218.43600463867188
y: 533.7424926757812
z: -0.052290093153715134
visibility: 0.9946966767311096
","x: 196.32830810546875
y: 269.18194580078125
z: 0.0
","x: 193.32025146484375
y: 260.64202880859375
z: 0.001683862996287644
","x: 189.39637756347656
y: 254.91940307617188
z: 0.00148774276021868
","x: 185.52078247070312
y: 253.19480895996094
z: 0.00011264197382843122
","x: 182.49447631835938
y: 253.23211669921875
z: -0.0010079147759824991
","x: 186.49708557128906
y: 252.89581298828125
z: 0.002594043966382742
","x: 181.5347442626953
y: 249.403076171875
z: 0.0003854050883091986
","x: 178.7035369873047
y: 247.33700561523438
z: -0.0009420532733201981
","x: 176.4980010986328
y: 245.84799194335938
z: -0.0016111377626657486
","x: 185.54595947265625
y: 257.1069030761719
z: -0.0001057334229699336
","x: 180.83433532714844
y: 256.0196533203125
z: -0.0030347697902470827
","x: 182.81715393066406
y: 257.25543212890625
z: -0.0028161639347672462
","x: 185.0407257080078
y: 258.3477478027344
z: -0.0015532966936007142
","x: 185.09251403808594
y: 262.1041259765625
z: -0.0031382401939481497
","x: 180.7503662109375
y: 261.4780578613281
z: -0.005387965124100447
","x: 183.05087280273438
y: 262.4646911621094
z: -0.0035105214919894934
","x: 185.37376403808594
y: 263.0661315917969
z: -0.0015162902418524027
","x: 185.00869750976562
y: 267.6076354980469
z: -0.0064168949611485004
","x: 181.363037109375
y: 267.28582763671875
z: -0.007322581950575113
","x: 182.87306213378906
y: 267.4560241699219
z: -0.0058347322046756744
","x: 184.8665313720703
y: 267.6446533203125
z: -0.0042142802849411964
",,,,,,,,,,,,,,,,,,,,,
9,"x: 238.1565399169922
y: 165.46273803710938
z: -0.26894161105155945
visibility: 0.9999667406082153
","x: 237.08599853515625
y: 159.78839111328125
z: -0.24865230917930603
visibility: 0.9999047517776489
","x: 238.0047607421875
y: 160.3262176513672
z: -0.24870240688323975
visibility: 0.9998841285705566
","x: 239.1044921875
y: 160.8805694580078
z: -0.2486812323331833
visibility: 0.9998563528060913
","x: 234.10418701171875
y: 158.64244079589844
z: -0.2620362937450409
visibility: 0.9999396800994873
","x: 232.5391082763672
y: 158.44854736328125
z: -0.26205557584762573
visibility: 0.9999476075172424
","x: 231.11419677734375
y: 158.3873291015625
z: -0.26206111907958984
visibility: 0.9999423623085022
","x: 240.3279266357422
y: 166.25291442871094
z: -0.11224726587533951
visibility: 0.9994860291481018
","x: 225.0735626220703
y: 163.64825439453125
z: -0.1562499850988388
visibility: 0.9999504089355469
","x: 236.3892364501953
y: 175.62969970703125
z: -0.2143184244632721
visibility: 0.9998599886894226
","x: 234.34230041503906
y: 174.37246704101562
z: -0.23737815022468567
visibility: 0.9999630451202393
","x: 249.16566467285156
y: 216.05886840820312
z: -0.02061416022479534
visibility: 0.9995992183685303
","x: 209.2152557373047
y: 211.892578125
z: -0.08619455993175507
visibility: 0.9999889731407166
","x: 255.36666870117188
y: 286.789794921875
z: -0.12401501834392548
visibility: 0.7739255428314209
","x: 205.3733367919922
y: 270.66021728515625
z: -0.17149405181407928
visibility: 0.9939498901367188
","x: 254.96469116210938
y: 242.38095092773438
z: -0.4004454016685486
visibility: 0.8389617204666138
","x: 198.98556518554688
y: 266.86236572265625
z: -0.4235804080963135
visibility: 0.9914267659187317
","x: 252.80908203125
y: 232.7336883544922
z: -0.45654529333114624
visibility: 0.8295032382011414
","x: 191.5051727294922
y: 265.6687316894531
z: -0.47492271661758423
visibility: 0.9804014563560486
","x: 252.36923217773438
y: 224.61119079589844
z: -0.4629172682762146
visibility: 0.8350920081138611
","x: 190.27195739746094
y: 257.5359802246094
z: -0.49485570192337036
visibility: 0.9809795022010803
","x: 251.93804931640625
y: 226.6877899169922
z: -0.40891218185424805
visibility: 0.8283918499946594
","x: 192.72647094726562
y: 258.0323486328125
z: -0.4370204508304596
visibility: 0.970853865146637
","x: 246.07484436035156
y: 336.1905212402344
z: 0.05307148024439812
visibility: 0.9996570348739624
","x: 221.482666015625
y: 339.59637451171875
z: -0.053362827748060226
visibility: 0.9997460842132568
","x: 262.0755615234375
y: 414.20819091796875
z: 0.07732890546321869
visibility: 0.9566750526428223
","x: 228.8583526611328
y: 428.84197998046875
z: -0.10037066787481308
visibility: 0.9964526295661926
","x: 271.2070617675781
y: 493.3681640625
z: 0.29088079929351807
visibility: 0.9710128903388977
","x: 203.41273498535156
y: 505.8032531738281
z: 0.07068582624197006
visibility: 0.9965711832046509
","x: 267.9453125
y: 506.51025390625
z: 0.3065294325351715
visibility: 0.9357628226280212
","x: 197.0672149658203
y: 515.8247680664062
z: 0.08057891577482224
visibility: 0.943737804889679
","x: 287.32818603515625
y: 514.8673095703125
z: 0.1927718222141266
visibility: 0.9758479595184326
","x: 218.43600463867188
y: 533.7424926757812
z: -0.052290093153715134
visibility: 0.9946966767311096
","x: 196.32830810546875
y: 269.18194580078125
z: 0.0
","x: 193.32025146484375
y: 260.64202880859375
z: 0.001683862996287644
","x: 189.39637756347656
y: 254.91940307617188
z: 0.00148774276021868
","x: 185.52078247070312
y: 253.19480895996094
z: 0.00011264197382843122
","x: 182.49447631835938
y: 253.23211669921875
z: -0.0010079147759824991
","x: 186.49708557128906
y: 252.89581298828125
z: 0.002594043966382742
","x: 181.5347442626953
y: 249.403076171875
z: 0.0003854050883091986
","x: 178.7035369873047
y: 247.33700561523438
z: -0.0009420532733201981
","x: 176.4980010986328
y: 245.84799194335938
z: -0.0016111377626657486
","x: 185.54595947265625
y: 257.1069030761719
z: -0.0001057334229699336
","x: 180.83433532714844
y: 256.0196533203125
z: -0.0030347697902470827
","x: 182.81715393066406
y: 257.25543212890625
z: -0.0028161639347672462
","x: 185.0407257080078
y: 258.3477478027344
z: -0.0015532966936007142
","x: 185.09251403808594
y: 262.1041259765625
z: -0.0031382401939481497
","x: 180.7503662109375
y: 261.4780578613281
z: -0.005387965124100447
","x: 183.05087280273438
y: 262.4646911621094
z: -0.0035105214919894934
","x: 185.37376403808594
y: 263.0661315917969
z: -0.0015162902418524027
","x: 185.00869750976562
y: 267.6076354980469
z: -0.0064168949611485004
","x: 181.363037109375
y: 267.28582763671875
z: -0.007322581950575113
","x: 182.87306213378906
y: 267.4560241699219
z: -0.0058347322046756744
","x: 184.8665313720703
y: 267.6446533203125
z: -0.0042142802849411964
",,,,,,,,,,,,,,,,,,,,,
10,"x: 230.12794494628906
y: 165.89666748046875
z: -0.27307191491127014
visibility: 0.9999699592590332
","x: 233.0199432373047
y: 160.1727294921875
z: -0.25679051876068115
visibility: 0.9999141097068787
","x: 235.29583740234375
y: 160.6934356689453
z: -0.2568763792514801
visibility: 0.9998955726623535
","x: 237.42713928222656
y: 161.25221252441406
z: -0.256860613822937
visibility: 0.9998705387115479
","x: 227.4667510986328
y: 158.9950714111328
z: -0.2620489001274109
visibility: 0.999945342540741
","x: 225.99124145507812
y: 158.6810302734375
z: -0.262067049741745
visibility: 0.9999524354934692
","x: 224.5439453125
y: 158.45689392089844
z: -0.2620484530925751
visibility: 0.9999474883079529
","x: 237.3529815673828
y: 166.5888214111328
z: -0.13269618153572083
visibility: 0.9995369911193848
","x: 224.46273803710938
y: 164.8646697998047
z: -0.139108806848526
visibility: 0.9999541640281677
","x: 234.00637817382812
y: 176.06497192382812
z: -0.22802360355854034
visibility: 0.9998738765716553
","x: 227.51229858398438
y: 174.41622924804688
z: -0.23639138042926788
visibility: 0.999966561794281
","x: 248.193115234375
y: 215.69805908203125
z: -0.06969188898801804
visibility: 0.9996390342712402
","x: 206.932373046875
y: 216.9148406982422
z: -0.04973142221570015
visibility: 0.9999882578849792
","x: 255.36196899414062
y: 284.791748046875
z: -0.16773337125778198
visibility: 0.7960091233253479
","x: 203.63694763183594
y: 278.0619201660156
z: -0.08876509964466095
visibility: 0.9923460483551025
","x: 250.18739318847656
y: 260.1221923828125
z: -0.4342508316040039
visibility: 0.854991614818573
","x: 184.15257263183594
y: 274.3691101074219
z: -0.35756948590278625
visibility: 0.9918346405029297
","x: 246.6593780517578
y: 259.18408203125
z: -0.4923519492149353
visibility: 0.846392035484314
","x: 175.08026123046875
y: 276.31109619140625
z: -0.42624735832214355
visibility: 0.9817354679107666
","x: 244.86322021484375
y: 250.95285034179688
z: -0.5055719017982483
visibility: 0.8514334559440613
","x: 173.2017822265625
y: 268.93896484375
z: -0.4477657377719879
visibility: 0.9823300838470459
","x: 245.01834106445312
y: 250.3033447265625
z: -0.4441482424736023
visibility: 0.8452669382095337
","x: 176.88624572753906
y: 268.274658203125
z: -0.40907254815101624
visibility: 0.9729384779930115
","x: 246.1726837158203
y: 339.09521484375
z: 0.02898394502699375
visibility: 0.9996852874755859
","x: 221.44395446777344
y: 342.3980712890625
z: -0.029235485941171646
visibility: 0.9997656941413879
","x: 262.8393859863281
y: 417.30718994140625
z: 0.0713847205042839
visibility: 0.9605923295021057
","x: 227.1693878173828
y: 431.4608459472656
z: -0.07303724437952042
visibility: 0.9966794848442078
","x: 271.66912841796875
y: 493.7364501953125
z: 0.29960936307907104
visibility: 0.9735682606697083
","x: 203.2158660888672
y: 506.4222717285156
z: 0.09520284831523895
visibility: 0.9967281818389893
","x: 267.88812255859375
y: 506.4056091308594
z: 0.31651395559310913
visibility: 0.9384533166885376
","x: 197.4436798095703
y: 516.421875
z: 0.10558805614709854
visibility: 0.9409317374229431
","x: 286.1849670410156
y: 514.8177490234375
z: 0.20224492251873016
visibility: 0.9777469635009766
","x: 217.563720703125
y: 534.0650634765625
z: -0.029646355658769608
visibility: 0.9948557615280151
","x: 181.79541015625
y: 274.11322021484375
z: 0.0
","x: 176.640869140625
y: 265.8542175292969
z: -0.0004627448506653309
","x: 171.29000854492188
y: 263.50970458984375
z: -0.0011104923905804753
","x: 166.82473754882812
y: 265.6274108886719
z: -0.0026119528338313103
","x: 163.60227966308594
y: 267.8066101074219
z: -0.003642880590632558
","x: 167.63111877441406
y: 270.3544921875
z: 0.002853002864867449
","x: 162.8514404296875
y: 272.5081787109375
z: 0.0009043805184774101
","x: 160.07191467285156
y: 273.23370361328125
z: -0.0003197614278178662
","x: 157.62464904785156
y: 273.7976989746094
z: -0.0010443883948028088
","x: 168.4608154296875
y: 274.3875427246094
z: 0.0010604140115901828
","x: 164.42462158203125
y: 275.61474609375
z: -0.0005776557954959571
","x: 162.91038513183594
y: 274.4155578613281
z: -0.0011045330902561545
","x: 161.68362426757812
y: 273.60919189453125
z: -0.0011872134637087584
","x: 170.1856231689453
y: 277.61865234375
z: -0.0014062129193916917
","x: 167.2586212158203
y: 276.3486328125
z: -0.0035682297311723232
","x: 168.07164001464844
y: 273.1807861328125
z: -0.002754766494035721
","x: 169.26889038085938
y: 271.23760986328125
z: -0.001568581792525947
","x: 172.48341369628906
y: 280.4154052734375
z: -0.004354769363999367
","x: 170.1340789794922
y: 279.1662292480469
z: -0.006100015714764595
","x: 170.29879760742188
y: 276.9762268066406
z: -0.005441402085125446
","x: 171.05770874023438
y: 275.5000915527344
z: -0.004302640445530415
","x: 249.30052185058594
y: 267.2248229980469
z: 0.0
","x: 246.58505249023438
y: 260.1716613769531
z: 0.0003321691183373332
","x: 242.86605834960938
y: 253.93768310546875
z: -0.002079855650663376
","x: 239.3358612060547
y: 253.2618408203125
z: -0.00479859160259366
","x: 237.21131896972656
y: 255.2295684814453
z: -0.006915891543030739
","x: 245.17044067382812
y: 247.9926300048828
z: -0.007598943542689085
","x: 237.9576873779297
y: 248.1485137939453
z: -0.01144039910286665
","x: 237.67605590820312
y: 252.6414794921875
z: -0.011584373190999031
","x: 239.28485107421875
y: 254.8320770263672
z: -0.01116170547902584
","x: 245.3851318359375
y: 252.787109375
z: -0.009883720427751541
","x: 238.49517822265625
y: 253.25341796875
z: -0.012989852577447891
","x: 238.34780883789062
y: 257.0975646972656
z: -0.011160269379615784
","x: 239.66502380371094
y: 258.607666015625
z: -0.009834633208811283
","x: 245.39431762695312
y: 258.6283264160156
z: -0.011984567157924175
","x: 239.5160675048828
y: 259.5989685058594
z: -0.014328922145068645
","x: 239.6793212890625
y: 262.350830078125
z: -0.011627055704593658
","x: 241.1186065673828
y: 262.9806213378906
z: -0.009834252297878265
","x: 245.21380615234375
y: 264.6804504394531
z: -0.014048882760107517
","x: 240.71005249023438
y: 265.6969299316406
z: -0.015493697486817837
","x: 240.93687438964844
y: 267.39111328125
z: -0.013768373988568783
","x: 242.2345428466797
y: 268.0965881347656
z: -0.012409094721078873
"
11,"x: 230.12794494628906
y: 165.89666748046875
z: -0.27307191491127014
visibility: 0.9999699592590332
","x: 233.0199432373047
y: 160.1727294921875
z: -0.25679051876068115
visibility: 0.9999141097068787
","x: 235.29583740234375
y: 160.6934356689453
z: -0.2568763792514801
visibility: 0.9998955726623535
","x: 237.42713928222656
y: 161.25221252441406
z: -0.256860613822937
visibility: 0.9998705387115479
","x: 227.4667510986328
y: 158.9950714111328
z: -0.2620489001274109
visibility: 0.999945342540741
","x: 225.99124145507812
y: 158.6810302734375
z: -0.262067049741745
visibility: 0.9999524354934692
","x: 224.5439453125
y: 158.45689392089844
z: -0.2620484530925751
visibility: 0.9999474883079529
","x: 237.3529815673828
y: 166.5888214111328
z: -0.13269618153572083
visibility: 0.9995369911193848
","x: 224.46273803710938
y: 164.8646697998047
z: -0.139108806848526
visibility: 0.9999541640281677
","x: 234.00637817382812
y: 176.06497192382812
z: -0.22802360355854034
visibility: 0.9998738765716553
","x: 227.51229858398438
y: 174.41622924804688
z: -0.23639138042926788
visibility: 0.999966561794281
","x: 248.193115234375
y: 215.69805908203125
z: -0.06969188898801804
visibility: 0.9996390342712402
","x: 206.932373046875
y: 216.9148406982422
z: -0.04973142221570015
visibility: 0.9999882578849792
","x: 255.36196899414062
y: 284.791748046875
z: -0.16773337125778198
visibility: 0.7960091233253479
","x: 203.63694763183594
y: 278.0619201660156
z: -0.08876509964466095
visibility: 0.9923460483551025
","x: 250.18739318847656
y: 260.1221923828125
z: -0.4342508316040039
visibility: 0.854991614818573
","x: 184.15257263183594
y: 274.3691101074219
z: -0.35756948590278625
visibility: 0.9918346405029297
","x: 246.6593780517578
y: 259.18408203125
z: -0.4923519492149353
visibility: 0.846392035484314
","x: 175.08026123046875
y: 276.31109619140625
z: -0.42624735832214355
visibility: 0.9817354679107666
","x: 244.86322021484375
y: 250.95285034179688
z: -0.5055719017982483
visibility: 0.8514334559440613
","x: 173.2017822265625
y: 268.93896484375
z: -0.4477657377719879
visibility: 0.9823300838470459
","x: 245.01834106445312
y: 250.3033447265625
z: -0.4441482424736023
visibility: 0.8452669382095337
","x: 176.88624572753906
y: 268.274658203125
z: -0.40907254815101624
visibility: 0.9729384779930115
","x: 246.1726837158203
y: 339.09521484375
z: 0.02898394502699375
visibility: 0.9996852874755859
","x: 221.44395446777344
y: 342.3980712890625
z: -0.029235485941171646
visibility: 0.9997656941413879
","x: 262.8393859863281
y: 417.30718994140625
z: 0.0713847205042839
visibility: 0.9605923295021057
","x: 227.1693878173828
y: 431.4608459472656
z: -0.07303724437952042
visibility: 0.9966794848442078
","x: 271.66912841796875
y: 493.7364501953125
z: 0.29960936307907104
visibility: 0.9735682606697083
","x: 203.2158660888672
y: 506.4222717285156
z: 0.09520284831523895
visibility: 0.9967281818389893
","x: 267.88812255859375
y: 506.4056091308594
z: 0.31651395559310913
visibility: 0.9384533166885376
","x: 197.4436798095703
y: 516.421875
z: 0.10558805614709854
visibility: 0.9409317374229431
","x: 286.1849670410156
y: 514.8177490234375
z: 0.20224492251873016
visibility: 0.9777469635009766
","x: 217.563720703125
y: 534.0650634765625
z: -0.029646355658769608
visibility: 0.9948557615280151
","x: 181.79541015625
y: 274.11322021484375
z: 0.0
","x: 176.640869140625
y: 265.8542175292969
z: -0.0004627448506653309
","x: 171.29000854492188
y: 263.50970458984375
z: -0.0011104923905804753
","x: 166.82473754882812
y: 265.6274108886719
z: -0.0026119528338313103
","x: 163.60227966308594
y: 267.8066101074219
z: -0.003642880590632558
","x: 167.63111877441406
y: 270.3544921875
z: 0.002853002864867449
","x: 162.8514404296875
y: 272.5081787109375
z: 0.0009043805184774101
","x: 160.07191467285156
y: 273.23370361328125
z: -0.0003197614278178662
","x: 157.62464904785156
y: 273.7976989746094
z: -0.0010443883948028088
","x: 168.4608154296875
y: 274.3875427246094
z: 0.0010604140115901828
","x: 164.42462158203125
y: 275.61474609375
z: -0.0005776557954959571
","x: 162.91038513183594
y: 274.4155578613281
z: -0.0011045330902561545
","x: 161.68362426757812
y: 273.60919189453125
z: -0.0011872134637087584
","x: 170.1856231689453
y: 277.61865234375
z: -0.0014062129193916917
","x: 167.2586212158203
y: 276.3486328125
z: -0.0035682297311723232
","x: 168.07164001464844
y: 273.1807861328125
z: -0.002754766494035721
","x: 169.26889038085938
y: 271.23760986328125
z: -0.001568581792525947
","x: 172.48341369628906
y: 280.4154052734375
z: -0.004354769363999367
","x: 170.1340789794922
y: 279.1662292480469
z: -0.006100015714764595
","x: 170.29879760742188
y: 276.9762268066406
z: -0.005441402085125446
","x: 171.05770874023438
y: 275.5000915527344
z: -0.004302640445530415
","x: 249.30052185058594
y: 267.2248229980469
z: 0.0
","x: 246.58505249023438
y: 260.1716613769531
z: 0.0003321691183373332
","x: 242.86605834960938
y: 253.93768310546875
z: -0.002079855650663376
","x: 239.3358612060547
y: 253.2618408203125
z: -0.00479859160259366
","x: 237.21131896972656
y: 255.2295684814453
z: -0.006915891543030739
","x: 245.17044067382812
y: 247.9926300048828
z: -0.007598943542689085
","x: 237.9576873779297
y: 248.1485137939453
z: -0.01144039910286665
","x: 237.67605590820312
y: 252.6414794921875
z: -0.011584373190999031
","x: 239.28485107421875
y: 254.8320770263672
z: -0.01116170547902584
","x: 245.3851318359375
y: 252.787109375
z: -0.009883720427751541
","x: 238.49517822265625
y: 253.25341796875
z: -0.012989852577447891
","x: 238.34780883789062
y: 257.0975646972656
z: -0.011160269379615784
","x: 239.66502380371094
y: 258.607666015625
z: -0.009834633208811283
","x: 245.39431762695312
y: 258.6283264160156
z: -0.011984567157924175
","x: 239.5160675048828
y: 259.5989685058594
z: -0.014328922145068645
","x: 239.6793212890625
y: 262.350830078125
z: -0.011627055704593658
","x: 241.1186065673828
y: 262.9806213378906
z: -0.009834252297878265
","x: 245.21380615234375
y: 264.6804504394531
z: -0.014048882760107517
","x: 240.71005249023438
y: 265.6969299316406
z: -0.015493697486817837
","x: 240.93687438964844
y: 267.39111328125
z: -0.013768373988568783
","x: 242.2345428466797
y: 268.0965881347656
z: -0.012409094721078873
"
12,"x: 230.12794494628906
y: 165.89666748046875
z: -0.27307191491127014
visibility: 0.9999699592590332
","x: 233.0199432373047
y: 160.1727294921875
z: -0.25679051876068115
visibility: 0.9999141097068787
","x: 235.29583740234375
y: 160.6934356689453
z: -0.2568763792514801
visibility: 0.9998955726623535
","x: 237.42713928222656
y: 161.25221252441406
z: -0.256860613822937
visibility: 0.9998705387115479
","x: 227.4667510986328
y: 158.9950714111328
z: -0.2620489001274109
visibility: 0.999945342540741
","x: 225.99124145507812
y: 158.6810302734375
z: -0.262067049741745
visibility: 0.9999524354934692
","x: 224.5439453125
y: 158.45689392089844
z: -0.2620484530925751
visibility: 0.9999474883079529
","x: 237.3529815673828
y: 166.5888214111328
z: -0.13269618153572083
visibility: 0.9995369911193848
","x: 224.46273803710938
y: 164.8646697998047
z: -0.139108806848526
visibility: 0.9999541640281677
","x: 234.00637817382812
y: 176.06497192382812
z: -0.22802360355854034
visibility: 0.9998738765716553
","x: 227.51229858398438
y: 174.41622924804688
z: -0.23639138042926788
visibility: 0.999966561794281
","x: 248.193115234375
y: 215.69805908203125
z: -0.06969188898801804
visibility: 0.9996390342712402
","x: 206.932373046875
y: 216.9148406982422
z: -0.04973142221570015
visibility: 0.9999882578849792
","x: 255.36196899414062
y: 284.791748046875
z: -0.16773337125778198
visibility: 0.7960091233253479
","x: 203.63694763183594
y: 278.0619201660156
z: -0.08876509964466095
visibility: 0.9923460483551025
","x: 250.18739318847656
y: 260.1221923828125
z: -0.4342508316040039
visibility: 0.854991614818573
","x: 184.15257263183594
y: 274.3691101074219
z: -0.35756948590278625
visibility: 0.9918346405029297
","x: 246.6593780517578
y: 259.18408203125
z: -0.4923519492149353
visibility: 0.846392035484314
","x: 175.08026123046875
y: 276.31109619140625
z: -0.42624735832214355
visibility: 0.9817354679107666
","x: 244.86322021484375
y: 250.95285034179688
z: -0.5055719017982483
visibility: 0.8514334559440613
","x: 173.2017822265625
y: 268.93896484375
z: -0.4477657377719879
visibility: 0.9823300838470459
","x: 245.01834106445312
y: 250.3033447265625
z: -0.4441482424736023
visibility: 0.8452669382095337
","x: 176.88624572753906
y: 268.274658203125
z: -0.40907254815101624
visibility: 0.9729384779930115
","x: 246.1726837158203
y: 339.09521484375
z: 0.02898394502699375
visibility: 0.9996852874755859
","x: 221.44395446777344
y: 342.3980712890625
z: -0.029235485941171646
visibility: 0.9997656941413879
","x: 262.8393859863281
y: 417.30718994140625
z: 0.0713847205042839
visibility: 0.9605923295021057
","x: 227.1693878173828
y: 431.4608459472656
z: -0.07303724437952042
visibility: 0.9966794848442078
","x: 271.66912841796875
y: 493.7364501953125
z: 0.29960936307907104
visibility: 0.9735682606697083
","x: 203.2158660888672
y: 506.4222717285156
z: 0.09520284831523895
visibility: 0.9967281818389893
","x: 267.88812255859375
y: 506.4056091308594
z: 0.31651395559310913
visibility: 0.9384533166885376
","x: 197.4436798095703
y: 516.421875
z: 0.10558805614709854
visibility: 0.9409317374229431
","x: 286.1849670410156
y: 514.8177490234375
z: 0.20224492251873016
visibility: 0.9777469635009766
","x: 217.563720703125
y: 534.0650634765625
z: -0.029646355658769608
visibility: 0.9948557615280151
","x: 181.79541015625
y: 274.11322021484375
z: 0.0
","x: 176.640869140625
y: 265.8542175292969
z: -0.0004627448506653309
","x: 171.29000854492188
y: 263.50970458984375
z: -0.0011104923905804753
","x: 166.82473754882812
y: 265.6274108886719
z: -0.0026119528338313103
","x: 163.60227966308594
y: 267.8066101074219
z: -0.003642880590632558
","x: 167.63111877441406
y: 270.3544921875
z: 0.002853002864867449
","x: 162.8514404296875
y: 272.5081787109375
z: 0.0009043805184774101
","x: 160.07191467285156
y: 273.23370361328125
z: -0.0003197614278178662
","x: 157.62464904785156
y: 273.7976989746094
z: -0.0010443883948028088
","x: 168.4608154296875
y: 274.3875427246094
z: 0.0010604140115901828
","x: 164.42462158203125
y: 275.61474609375
z: -0.0005776557954959571
","x: 162.91038513183594
y: 274.4155578613281
z: -0.0011045330902561545
","x: 161.68362426757812
y: 273.60919189453125
z: -0.0011872134637087584
","x: 170.1856231689453
y: 277.61865234375
z: -0.0014062129193916917
","x: 167.2586212158203
y: 276.3486328125
z: -0.0035682297311723232
","x: 168.07164001464844
y: 273.1807861328125
z: -0.002754766494035721
","x: 169.26889038085938
y: 271.23760986328125
z: -0.001568581792525947
","x: 172.48341369628906
y: 280.4154052734375
z: -0.004354769363999367
","x: 170.1340789794922
y: 279.1662292480469
z: -0.006100015714764595
","x: 170.29879760742188
y: 276.9762268066406
z: -0.005441402085125446
","x: 171.05770874023438
y: 275.5000915527344
z: -0.004302640445530415
","x: 249.30052185058594
y: 267.2248229980469
z: 0.0
","x: 246.58505249023438
y: 260.1716613769531
z: 0.0003321691183373332
","x: 242.86605834960938
y: 253.93768310546875
z: -0.002079855650663376
","x: 239.3358612060547
y: 253.2618408203125
z: -0.00479859160259366
","x: 237.21131896972656
y: 255.2295684814453
z: -0.006915891543030739
","x: 245.17044067382812
y: 247.9926300048828
z: -0.007598943542689085
","x: 237.9576873779297
y: 248.1485137939453
z: -0.01144039910286665
","x: 237.67605590820312
y: 252.6414794921875
z: -0.011584373190999031
","x: 239.28485107421875
y: 254.8320770263672
z: -0.01116170547902584
","x: 245.3851318359375
y: 252.787109375
z: -0.009883720427751541
","x: 238.49517822265625
y: 253.25341796875
z: -0.012989852577447891
","x: 238.34780883789062
y: 257.0975646972656
z: -0.011160269379615784
","x: 239.66502380371094
y: 258.607666015625
z: -0.009834633208811283
","x: 245.39431762695312
y: 258.6283264160156
z: -0.011984567157924175
","x: 239.5160675048828
y: 259.5989685058594
z: -0.014328922145068645
","x: 239.6793212890625
y: 262.350830078125
z: -0.011627055704593658
","x: 241.1186065673828
y: 262.9806213378906
z: -0.009834252297878265
","x: 245.21380615234375
y: 264.6804504394531
z: -0.014048882760107517
","x: 240.71005249023438
y: 265.6969299316406
z: -0.015493697486817837
","x: 240.93687438964844
y: 267.39111328125
z: -0.013768373988568783
","x: 242.2345428466797
y: 268.0965881347656
z: -0.012409094721078873
"
13,"x: 224.76742553710938
y: 166.45281982421875
z: -0.2950959801673889
visibility: 0.9999727010726929
","x: 228.59951782226562
y: 160.387939453125
z: -0.2781815528869629
visibility: 0.9999222755432129
","x: 231.23532104492188
y: 160.8340606689453
z: -0.27827075123786926
visibility: 0.9999055862426758
","x: 233.7924041748047
y: 161.353271484375
z: -0.2782725393772125
visibility: 0.9998830556869507
","x: 222.64910888671875
y: 159.75851440429688
z: -0.27387261390686035
visibility: 0.9999499917030334
","x: 221.03184509277344
y: 159.68869018554688
z: -0.27389293909072876
visibility: 0.9999562501907349
","x: 219.8723907470703
y: 159.6041259765625
z: -0.27385586500167847
visibility: 0.9999514222145081
","x: 236.53927612304688
y: 166.8470001220703
z: -0.1583898365497589
visibility: 0.9995823502540588
","x: 220.52252197265625
y: 166.51885986328125
z: -0.1540152132511139
visibility: 0.9999560117721558
","x: 229.720458984375
y: 176.42259216308594
z: -0.2513580322265625
visibility: 0.9998862147331238
","x: 222.0282745361328
y: 175.68350219726562
z: -0.2460181713104248
visibility: 0.999969482421875
","x: 247.2036590576172
y: 216.04916381835938
z: -0.09780672192573547
visibility: 0.9996747374534607
","x: 206.42587280273438
y: 220.71633911132812
z: -0.06119313836097717
visibility: 0.999987006187439
","x: 254.48606872558594
y: 279.9791259765625
z: -0.18882860243320465
visibility: 0.8155659437179565
","x: 202.40611267089844
y: 283.5268859863281
z: -0.09520964324474335
visibility: 0.9906325936317444
","x: 250.76454162597656
y: 271.14971923828125
z: -0.44919028878211975
visibility: 0.8693224787712097
","x: 181.18402099609375
y: 278.52978515625
z: -0.3546413779258728
visibility: 0.992103636264801
","x: 247.62986755371094
y: 272.4151916503906
z: -0.5064147710800171
visibility: 0.8614171147346497
","x: 172.96676635742188
y: 279.5987548828125
z: -0.40310078859329224
visibility: 0.9828065037727356
","x: 246.2943115234375
y: 264.6849365234375
z: -0.5229431986808777
visibility: 0.8659792542457581
","x: 170.99169921875
y: 272.77935791015625
z: -0.42085203528404236
visibility: 0.9834337830543518
","x: 246.53451538085938
y: 263.1163330078125
z: -0.4602769911289215
visibility: 0.8601821660995483
","x: 174.4898223876953
y: 272.6833190917969
z: -0.37564653158187866
visibility: 0.9746556878089905
","x: 247.21942138671875
y: 340.8229064941406
z: 0.02089568041265011
visibility: 0.9997106194496155
","x: 222.2322235107422
y: 345.5940246582031
z: -0.021109480410814285
visibility: 0.9997832775115967
","x: 263.18096923828125
y: 418.142333984375
z: 0.07387500256299973
visibility: 0.9641277194023132
","x: 226.526611328125
y: 433.0537414550781
z: -0.05658147856593132
visibility: 0.9968854188919067
","x: 271.33282470703125
y: 493.40838623046875
z: 0.34042951464653015
visibility: 0.9758324027061462
","x: 203.45486450195312
y: 505.6397705078125
z: 0.13030152022838593
visibility: 0.996858537197113
","x: 267.4320068359375
y: 506.1513977050781
z: 0.3609897494316101
visibility: 0.9400386214256287
","x: 198.2558135986328
y: 515.5744018554688
z: 0.14317049086093903
visibility: 0.938004732131958
","x: 285.21630859375
y: 514.4226684570312
z: 0.24796149134635925
visibility: 0.979392945766449
","x: 217.32650756835938
y: 533.7215576171875
z: 0.00900307483971119
visibility: 0.9949727058410645
","x: 180.31590270996094
y: 276.50732421875
z: 0.0
","x: 176.58982849121094
y: 268.8719482421875
z: 0.0008611438679508865
","x: 172.67921447753906
y: 264.72833251953125
z: 0.0008744908845983446
","x: 169.46615600585938
y: 263.9480285644531
z: -0.0005419569788500667
","x: 166.99037170410156
y: 265.4308776855469
z: -0.0016429116949439049
","x: 167.17755126953125
y: 269.2017517089844
z: 0.005777089856564999
","x: 162.56900024414062
y: 267.9315490722656
z: 0.004024193622171879
","x: 159.79946899414062
y: 267.19024658203125
z: 0.0025252748746424913
","x: 157.3243865966797
y: 266.8547668457031
z: 0.0016499828780069947
","x: 167.03631591796875
y: 273.0685119628906
z: 0.0028744626324623823
","x: 162.36199951171875
y: 272.16986083984375
z: 0.0011897493386641145
","x: 160.07913208007812
y: 270.4159240722656
z: -4.501231524045579e-05
","x: 158.21607971191406
y: 269.0829162597656
z: -0.0006131322588771582
","x: 167.53387451171875
y: 277.1248779296875
z: -0.0008349186391569674
","x: 163.73216247558594
y: 275.8215026855469
z: -0.002764221979305148
","x: 165.62005615234375
y: 272.85009765625
z: -0.0017414299072697759
","x: 167.96395874023438
y: 270.7939453125
z: -0.00040523428469896317
","x: 168.5489501953125
y: 281.5311279296875
z: -0.005072389263659716
","x: 165.1353759765625
y: 280.405029296875
z: -0.006169870961457491
","x: 165.9309844970703
y: 278.1512145996094
z: -0.005063251592218876
","x: 167.75103759765625
y: 276.3243713378906
z: -0.0037425991613417864
","x: 251.60110473632812
y: 273.4984130859375
z: 0.0
","x: 247.4791717529297
y: 268.91607666015625
z: 0.00021498028945643455
","x: 242.00369262695312
y: 267.2225646972656
z: -0.001609663013368845
","x: 237.83493041992188
y: 268.01812744140625
z: -0.003639965085312724
","x: 234.6845703125
y: 269.1480712890625
z: -0.005520401988178492
","x: 244.30947875976562
y: 264.6815185546875
z: -0.006099986378103495
","x: 238.28610229492188
y: 266.416748046875
z: -0.008740996941924095
","x: 236.27572631835938
y: 267.9949645996094
z: -0.008737783879041672
","x: 234.892822265625
y: 269.082275390625
z: -0.008646019734442234
","x: 245.72122192382812
y: 269.4107360839844
z: -0.008418024517595768
","x: 238.66384887695312
y: 272.39068603515625
z: -0.012071417644619942
","x: 238.8553924560547
y: 273.54058837890625
z: -0.011031825095415115
","x: 240.01193237304688
y: 273.8101806640625
z: -0.009642304852604866
","x: 246.76466369628906
y: 274.5218811035156
z: -0.010435652919113636
","x: 240.20547485351562
y: 277.21759033203125
z: -0.01296814065426588
","x: 241.79623413085938
y: 276.893798828125
z: -0.009946217760443687
","x: 244.04421997070312
y: 275.8158874511719
z: -0.00753651512786746
","x: 247.57530212402344
y: 279.65924072265625
z: -0.012505430728197098
","x: 242.1518096923828
y: 281.3504333496094
z: -0.013960082083940506
","x: 243.37002563476562
y: 280.86810302734375
z: -0.011972550302743912
","x: 245.4814910888672
y: 280.0030212402344
z: -0.010192611254751682
"
14,"x: 224.76742553710938
y: 166.45281982421875
z: -0.2950959801673889
visibility: 0.9999727010726929
","x: 228.59951782226562
y: 160.387939453125
z: -0.2781815528869629
visibility: 0.9999222755432129
","x: 231.23532104492188
y: 160.8340606689453
z: -0.27827075123786926
visibility: 0.9999055862426758
","x: 233.7924041748047
y: 161.353271484375
z: -0.2782725393772125
visibility: 0.9998830556869507
","x: 222.64910888671875
y: 159.75851440429688
z: -0.27387261390686035
visibility: 0.9999499917030334
","x: 221.03184509277344
y: 159.68869018554688
z: -0.27389293909072876
visibility: 0.9999562501907349
","x: 219.8723907470703
y: 159.6041259765625
z: -0.27385586500167847
visibility: 0.9999514222145081
","x: 236.53927612304688
y: 166.8470001220703
z: -0.1583898365497589
visibility: 0.9995823502540588
","x: 220.52252197265625
y: 166.51885986328125
z: -0.1540152132511139
visibility: 0.9999560117721558
","x: 229.720458984375
y: 176.42259216308594
z: -0.2513580322265625
visibility: 0.9998862147331238
","x: 222.0282745361328
y: 175.68350219726562
z: -0.2460181713104248
visibility: 0.999969482421875
","x: 247.2036590576172
y: 216.04916381835938
z: -0.09780672192573547
visibility: 0.9996747374534607
","x: 206.42587280273438
y: 220.71633911132812
z: -0.06119313836097717
visibility: 0.999987006187439
","x: 254.48606872558594
y: 279.9791259765625
z: -0.18882860243320465
visibility: 0.8155659437179565
","x: 202.40611267089844
y: 283.5268859863281
z: -0.09520964324474335
visibility: 0.9906325936317444
","x: 250.76454162597656
y: 271.14971923828125
z: -0.44919028878211975
visibility: 0.8693224787712097
","x: 181.18402099609375
y: 278.52978515625
z: -0.3546413779258728
visibility: 0.992103636264801
","x: 247.62986755371094
y: 272.4151916503906
z: -0.5064147710800171
visibility: 0.8614171147346497
","x: 172.96676635742188
y: 279.5987548828125
z: -0.40310078859329224
visibility: 0.9828065037727356
","x: 246.2943115234375
y: 264.6849365234375
z: -0.5229431986808777
visibility: 0.8659792542457581
","x: 170.99169921875
y: 272.77935791015625
z: -0.42085203528404236
visibility: 0.9834337830543518
","x: 246.53451538085938
y: 263.1163330078125
z: -0.4602769911289215
visibility: 0.8601821660995483
","x: 174.4898223876953
y: 272.6833190917969
z: -0.37564653158187866
visibility: 0.9746556878089905
","x: 247.21942138671875
y: 340.8229064941406
z: 0.02089568041265011
visibility: 0.9997106194496155
","x: 222.2322235107422
y: 345.5940246582031
z: -0.021109480410814285
visibility: 0.9997832775115967
","x: 263.18096923828125
y: 418.142333984375
z: 0.07387500256299973
visibility: 0.9641277194023132
","x: 226.526611328125
y: 433.0537414550781
z: -0.05658147856593132
visibility: 0.9968854188919067
","x: 271.33282470703125
y: 493.40838623046875
z: 0.34042951464653015
visibility: 0.9758324027061462
","x: 203.45486450195312
y: 505.6397705078125
z: 0.13030152022838593
visibility: 0.996858537197113
","x: 267.4320068359375
y: 506.1513977050781
z: 0.3609897494316101
visibility: 0.9400386214256287
","x: 198.2558135986328
y: 515.5744018554688
z: 0.14317049086093903
visibility: 0.938004732131958
","x: 285.21630859375
y: 514.4226684570312
z: 0.24796149134635925
visibility: 0.979392945766449
","x: 217.32650756835938
y: 533.7215576171875
z: 0.00900307483971119
visibility: 0.9949727058410645
","x: 180.31590270996094
y: 276.50732421875
z: 0.0
","x: 176.58982849121094
y: 268.8719482421875
z: 0.0008611438679508865
","x: 172.67921447753906
y: 264.72833251953125
z: 0.0008744908845983446
","x: 169.46615600585938
y: 263.9480285644531
z: -0.0005419569788500667
","x: 166.99037170410156
y: 265.4308776855469
z: -0.0016429116949439049
","x: 167.17755126953125
y: 269.2017517089844
z: 0.005777089856564999
","x: 162.56900024414062
y: 267.9315490722656
z: 0.004024193622171879
","x: 159.79946899414062
y: 267.19024658203125
z: 0.0025252748746424913
","x: 157.3243865966797
y: 266.8547668457031
z: 0.0016499828780069947
","x: 167.03631591796875
y: 273.0685119628906
z: 0.0028744626324623823
","x: 162.36199951171875
y: 272.16986083984375
z: 0.0011897493386641145
","x: 160.07913208007812
y: 270.4159240722656
z: -4.501231524045579e-05
","x: 158.21607971191406
y: 269.0829162597656
z: -0.0006131322588771582
","x: 167.53387451171875
y: 277.1248779296875
z: -0.0008349186391569674
","x: 163.73216247558594
y: 275.8215026855469
z: -0.002764221979305148
","x: 165.62005615234375
y: 272.85009765625
z: -0.0017414299072697759
","x: 167.96395874023438
y: 270.7939453125
z: -0.00040523428469896317
","x: 168.5489501953125
y: 281.5311279296875
z: -0.005072389263659716
","x: 165.1353759765625
y: 280.405029296875
z: -0.006169870961457491
","x: 165.9309844970703
y: 278.1512145996094
z: -0.005063251592218876
","x: 167.75103759765625
y: 276.3243713378906
z: -0.0037425991613417864
","x: 251.60110473632812
y: 273.4984130859375
z: 0.0
","x: 247.4791717529297
y: 268.91607666015625
z: 0.00021498028945643455
","x: 242.00369262695312
y: 267.2225646972656
z: -0.001609663013368845
","x: 237.83493041992188
y: 268.01812744140625
z: -0.003639965085312724
","x: 234.6845703125
y: 269.1480712890625
z: -0.005520401988178492
","x: 244.30947875976562
y: 264.6815185546875
z: -0.006099986378103495
","x: 238.28610229492188
y: 266.416748046875
z: -0.008740996941924095
","x: 236.27572631835938
y: 267.9949645996094
z: -0.008737783879041672
","x: 234.892822265625
y: 269.082275390625
z: -0.008646019734442234
","x: 245.72122192382812
y: 269.4107360839844
z: -0.008418024517595768
","x: 238.66384887695312
y: 272.39068603515625
z: -0.012071417644619942
","x: 238.8553924560547
y: 273.54058837890625
z: -0.011031825095415115
","x: 240.01193237304688
y: 273.8101806640625
z: -0.009642304852604866
","x: 246.76466369628906
y: 274.5218811035156
z: -0.010435652919113636
","x: 240.20547485351562
y: 277.21759033203125
z: -0.01296814065426588
","x: 241.79623413085938
y: 276.893798828125
z: -0.009946217760443687
","x: 244.04421997070312
y: 275.8158874511719
z: -0.00753651512786746
","x: 247.57530212402344
y: 279.65924072265625
z: -0.012505430728197098
","x: 242.1518096923828
y: 281.3504333496094
z: -0.013960082083940506
","x: 243.37002563476562
y: 280.86810302734375
z: -0.011972550302743912
","x: 245.4814910888672
y: 280.0030212402344
z: -0.010192611254751682
"
15,"x: 224.76742553710938
y: 166.45281982421875
z: -0.2950959801673889
visibility: 0.9999727010726929
","x: 228.59951782226562
y: 160.387939453125
z: -0.2781815528869629
visibility: 0.9999222755432129
","x: 231.23532104492188
y: 160.8340606689453
z: -0.27827075123786926
visibility: 0.9999055862426758
","x: 233.7924041748047
y: 161.353271484375
z: -0.2782725393772125
visibility: 0.9998830556869507
","x: 222.64910888671875
y: 159.75851440429688
z: -0.27387261390686035
visibility: 0.9999499917030334
","x: 221.03184509277344
y: 159.68869018554688
z: -0.27389293909072876
visibility: 0.9999562501907349
","x: 219.8723907470703
y: 159.6041259765625
z: -0.27385586500167847
visibility: 0.9999514222145081
","x: 236.53927612304688
y: 166.8470001220703
z: -0.1583898365497589
visibility: 0.9995823502540588
","x: 220.52252197265625
y: 166.51885986328125
z: -0.1540152132511139
visibility: 0.9999560117721558
","x: 229.720458984375
y: 176.42259216308594
z: -0.2513580322265625
visibility: 0.9998862147331238
","x: 222.0282745361328
y: 175.68350219726562
z: -0.2460181713104248
visibility: 0.999969482421875
","x: 247.2036590576172
y: 216.04916381835938
z: -0.09780672192573547
visibility: 0.9996747374534607
","x: 206.42587280273438
y: 220.71633911132812
z: -0.06119313836097717
visibility: 0.999987006187439
","x: 254.48606872558594
y: 279.9791259765625
z: -0.18882860243320465
visibility: 0.8155659437179565
","x: 202.40611267089844
y: 283.5268859863281
z: -0.09520964324474335
visibility: 0.9906325936317444
","x: 250.76454162597656
y: 271.14971923828125
z: -0.44919028878211975
visibility: 0.8693224787712097
","x: 181.18402099609375
y: 278.52978515625
z: -0.3546413779258728
visibility: 0.992103636264801
","x: 247.62986755371094
y: 272.4151916503906
z: -0.5064147710800171
visibility: 0.8614171147346497
","x: 172.96676635742188
y: 279.5987548828125
z: -0.40310078859329224
visibility: 0.9828065037727356
","x: 246.2943115234375
y: 264.6849365234375
z: -0.5229431986808777
visibility: 0.8659792542457581
","x: 170.99169921875
y: 272.77935791015625
z: -0.42085203528404236
visibility: 0.9834337830543518
","x: 246.53451538085938
y: 263.1163330078125
z: -0.4602769911289215
visibility: 0.8601821660995483
","x: 174.4898223876953
y: 272.6833190917969
z: -0.37564653158187866
visibility: 0.9746556878089905
","x: 247.21942138671875
y: 340.8229064941406
z: 0.02089568041265011
visibility: 0.9997106194496155
","x: 222.2322235107422
y: 345.5940246582031
z: -0.021109480410814285
visibility: 0.9997832775115967
","x: 263.18096923828125
y: 418.142333984375
z: 0.07387500256299973
visibility: 0.9641277194023132
","x: 226.526611328125
y: 433.0537414550781
z: -0.05658147856593132
visibility: 0.9968854188919067
","x: 271.33282470703125
y: 493.40838623046875
z: 0.34042951464653015
visibility: 0.9758324027061462
","x: 203.45486450195312
y: 505.6397705078125
z: 0.13030152022838593
visibility: 0.996858537197113
","x: 267.4320068359375
y: 506.1513977050781
z: 0.3609897494316101
visibility: 0.9400386214256287
","x: 198.2558135986328
y: 515.5744018554688
z: 0.14317049086093903
visibility: 0.938004732131958
","x: 285.21630859375
y: 514.4226684570312
z: 0.24796149134635925
visibility: 0.979392945766449
","x: 217.32650756835938
y: 533.7215576171875
z: 0.00900307483971119
visibility: 0.9949727058410645
","x: 180.31590270996094
y: 276.50732421875
z: 0.0
","x: 176.58982849121094
y: 268.8719482421875
z: 0.0008611438679508865
","x: 172.67921447753906
y: 264.72833251953125
z: 0.0008744908845983446
","x: 169.46615600585938
y: 263.9480285644531
z: -0.0005419569788500667
","x: 166.99037170410156
y: 265.4308776855469
z: -0.0016429116949439049
","x: 167.17755126953125
y: 269.2017517089844
z: 0.005777089856564999
","x: 162.56900024414062
y: 267.9315490722656
z: 0.004024193622171879
","x: 159.79946899414062
y: 267.19024658203125
z: 0.0025252748746424913
","x: 157.3243865966797
y: 266.8547668457031
z: 0.0016499828780069947
","x: 167.03631591796875
y: 273.0685119628906
z: 0.0028744626324623823
","x: 162.36199951171875
y: 272.16986083984375
z: 0.0011897493386641145
","x: 160.07913208007812
y: 270.4159240722656
z: -4.501231524045579e-05
","x: 158.21607971191406
y: 269.0829162597656
z: -0.0006131322588771582
","x: 167.53387451171875
y: 277.1248779296875
z: -0.0008349186391569674
","x: 163.73216247558594
y: 275.8215026855469
z: -0.002764221979305148
","x: 165.62005615234375
y: 272.85009765625
z: -0.0017414299072697759
","x: 167.96395874023438
y: 270.7939453125
z: -0.00040523428469896317
","x: 168.5489501953125
y: 281.5311279296875
z: -0.005072389263659716
","x: 165.1353759765625
y: 280.405029296875
z: -0.006169870961457491
","x: 165.9309844970703
y: 278.1512145996094
z: -0.005063251592218876
","x: 167.75103759765625
y: 276.3243713378906
z: -0.0037425991613417864
","x: 251.60110473632812
y: 273.4984130859375
z: 0.0
","x: 247.4791717529297
y: 268.91607666015625
z: 0.00021498028945643455
","x: 242.00369262695312
y: 267.2225646972656
z: -0.001609663013368845
","x: 237.83493041992188
y: 268.01812744140625
z: -0.003639965085312724
","x: 234.6845703125
y: 269.1480712890625
z: -0.005520401988178492
","x: 244.30947875976562
y: 264.6815185546875
z: -0.006099986378103495
","x: 238.28610229492188
y: 266.416748046875
z: -0.008740996941924095
","x: 236.27572631835938
y: 267.9949645996094
z: -0.008737783879041672
","x: 234.892822265625
y: 269.082275390625
z: -0.008646019734442234
","x: 245.72122192382812
y: 269.4107360839844
z: -0.008418024517595768
","x: 238.66384887695312
y: 272.39068603515625
z: -0.012071417644619942
","x: 238.8553924560547
y: 273.54058837890625
z: -0.011031825095415115
","x: 240.01193237304688
y: 273.8101806640625
z: -0.009642304852604866
","x: 246.76466369628906
y: 274.5218811035156
z: -0.010435652919113636
","x: 240.20547485351562
y: 277.21759033203125
z: -0.01296814065426588
","x: 241.79623413085938
y: 276.893798828125
z: -0.009946217760443687
","x: 244.04421997070312
y: 275.8158874511719
z: -0.00753651512786746
","x: 247.57530212402344
y: 279.65924072265625
z: -0.012505430728197098
","x: 242.1518096923828
y: 281.3504333496094
z: -0.013960082083940506
","x: 243.37002563476562
y: 280.86810302734375
z: -0.011972550302743912
","x: 245.4814910888672
y: 280.0030212402344
z: -0.010192611254751682
"
16,"x: 221.10247802734375
y: 166.6263427734375
z: -0.3226322829723358
visibility: 0.9999752640724182
","x: 225.0923309326172
y: 160.6125030517578
z: -0.30481430888175964
visibility: 0.9999297857284546
","x: 227.56146240234375
y: 161.06178283691406
z: -0.3048994243144989
visibility: 0.9999147653579712
","x: 230.0696563720703
y: 161.57736206054688
z: -0.3049119710922241
visibility: 0.9998944401741028
","x: 219.6348876953125
y: 159.94915771484375
z: -0.3016025424003601
visibility: 0.9999545216560364
","x: 218.29539489746094
y: 159.88027954101562
z: -0.30162665247917175
visibility: 0.9999600648880005
","x: 217.311767578125
y: 159.81524658203125
z: -0.3015877604484558
visibility: 0.9999555349349976
","x: 234.86293029785156
y: 166.88088989257812
z: -0.17979340255260468
visibility: 0.9996234774589539
","x: 217.73170471191406
y: 166.61172485351562
z: -0.16676539182662964
visibility: 0.9999590516090393
","x: 225.4466552734375
y: 176.99359130859375
z: -0.27583515644073486
visibility: 0.9998974204063416
","x: 218.70684814453125
y: 175.82525634765625
z: -0.2724756598472595
visibility: 0.9999722838401794
","x: 245.94435119628906
y: 216.00567626953125
z: -0.10948483645915985
visibility: 0.9997068643569946
","x: 204.7539520263672
y: 221.6050567626953
z: -0.07586352527141571
visibility: 0.9999869465827942
","x: 254.1830291748047
y: 276.215087890625
z: -0.1972147673368454
visibility: 0.8331329822540283
","x: 202.0777130126953
y: 284.94158935546875
z: -0.10221926867961884
visibility: 0.9886865019798279
","x: 249.53604125976562
y: 271.14276123046875
z: -0.45948654413223267
visibility: 0.8821883797645569
","x: 181.56814575195312
y: 280.60076904296875
z: -0.3485342860221863
visibility: 0.9922288656234741
","x: 245.5728759765625
y: 272.81048583984375
z: -0.5174322724342346
visibility: 0.8748865127563477
","x: 174.12258911132812
y: 283.10308837890625
z: -0.3963763117790222
visibility: 0.983674943447113
","x: 243.91636657714844
y: 263.57794189453125
z: -0.5323916077613831
visibility: 0.8790194392204285
","x: 172.407958984375
y: 275.9559326171875
z: -0.42234382033348083
visibility: 0.9843462109565735
","x: 244.3339385986328
y: 261.88067626953125
z: -0.46997785568237305
visibility: 0.8735082149505615
","x: 175.71401977539062
y: 275.1867980957031
z: -0.36599865555763245
visibility: 0.9760745763778687
","x: 246.99142456054688
y: 340.8177185058594
z: 0.02169409580528736
visibility: 0.9997336268424988
","x: 222.08413696289062
y: 346.1805725097656
z: -0.021886950358748436
visibility: 0.9997995495796204
","x: 264.1053771972656
y: 418.0625915527344
z: 0.07466508448123932
visibility: 0.9672719240188599
","x: 226.2040557861328
y: 433.10382080078125
z: -0.06472789496183395
visibility: 0.9970805644989014
","x: 271.3956604003906
y: 493.1396484375
z: 0.3402620553970337
visibility: 0.9778172373771667
","x: 203.29293823242188
y: 505.4676513671875
z: 0.12159846723079681
visibility: 0.9969814419746399
","x: 267.04656982421875
y: 505.85931396484375
z: 0.3603495955467224
visibility: 0.9415795803070068
","x: 198.31809997558594
y: 515.2384033203125
z: 0.1342134028673172
visibility: 0.9362742304801941
","x: 286.041015625
y: 514.1680297851562
z: 0.24947421252727509
visibility: 0.9808216691017151
","x: 217.26870727539062
y: 533.661376953125
z: 0.0007820941391400993
visibility: 0.995090663433075
","x: 180.7488555908203
y: 277.78790283203125
z: 0.0
","x: 177.71286010742188
y: 270.58050537109375
z: -0.0009094816632568836
","x: 174.11868286132812
y: 267.0643005371094
z: -0.0014122668653726578
","x: 170.78074645996094
y: 267.570556640625
z: -0.0027836968656629324
","x: 168.51425170898438
y: 269.1933898925781
z: -0.0038310338277369738
","x: 169.77032470703125
y: 270.8209533691406
z: 0.003362238174304366
","x: 165.64764404296875
y: 270.6380615234375
z: 0.0010037794709205627
","x: 163.76275634765625
y: 269.7415466308594
z: -0.0006167168030515313
","x: 162.624755859375
y: 269.0649719238281
z: -0.0013960149371996522
","x: 169.52236938476562
y: 274.97369384765625
z: 0.0016998392529785633
","x: 165.00216674804688
y: 274.93115234375
z: -0.0007504521054215729
","x: 163.7892303466797
y: 273.5400390625
z: -0.002235856605693698
","x: 163.41639709472656
y: 272.4643249511719
z: -0.002686193212866783
","x: 169.95199584960938
y: 279.2669372558594
z: -0.0008088548202067614
","x: 166.46478271484375
y: 279.0677490234375
z: -0.003310652682557702
","x: 168.5377197265625
y: 277.57427978515625
z: -0.0029951969627290964
","x: 170.95889282226562
y: 276.6692810058594
z: -0.0019495115848258138
","x: 170.95126342773438
y: 283.899169921875
z: -0.0038446709513664246
","x: 168.04469299316406
y: 283.3206787109375
z: -0.005461081396788359
","x: 169.21063232421875
y: 281.8704528808594
z: -0.00502062076702714
","x: 171.13827514648438
y: 280.9878845214844
z: -0.00405051838606596
","x: 247.47488403320312
y: 269.8856201171875
z: 0.0
","x: 244.16201782226562
y: 264.27392578125
z: -0.00014292077685240656
","x: 239.1340789794922
y: 261.6495056152344
z: -0.0018978571752086282
","x: 235.14540100097656
y: 262.15386962890625
z: -0.0038291115779429674
","x: 232.25604248046875
y: 263.72601318359375
z: -0.0056905788369476795
","x: 241.2220001220703
y: 260.6123046875
z: -0.005946687888354063
","x: 235.62744140625
y: 261.14910888671875
z: -0.008574508130550385
","x: 233.31283569335938
y: 262.02301025390625
z: -0.008771996945142746
","x: 231.71035766601562
y: 262.697021484375
z: -0.008753775618970394
","x: 242.06170654296875
y: 265.4626159667969
z: -0.007861509919166565
","x: 235.3430633544922
y: 267.8741760253906
z: -0.011606570333242416
","x: 236.5449981689453
y: 268.4965515136719
z: -0.010484998114407063
","x: 238.82823181152344
y: 268.2577209472656
z: -0.00873997900635004
","x: 242.5269775390625
y: 270.50836181640625
z: -0.009524152614176273
","x: 236.47592163085938
y: 272.4502258300781
z: -0.012201628647744656
","x: 238.09359741210938
y: 272.386962890625
z: -0.009561518207192421
","x: 240.3563690185547
y: 271.4505615234375
z: -0.007235547993332148
","x: 242.9220428466797
y: 275.25836181640625
z: -0.011250746436417103
","x: 237.97007751464844
y: 276.2259521484375
z: -0.012667400762438774
","x: 239.32858276367188
y: 275.8139343261719
z: -0.010842002928256989
","x: 241.63934326171875
y: 275.0982971191406
z: -0.00912009458988905
"
17,"x: 221.10247802734375
y: 166.6263427734375
z: -0.3226322829723358
visibility: 0.9999752640724182
","x: 225.0923309326172
y: 160.6125030517578
z: -0.30481430888175964
visibility: 0.9999297857284546
","x: 227.56146240234375
y: 161.06178283691406
z: -0.3048994243144989
visibility: 0.9999147653579712
","x: 230.0696563720703
y: 161.57736206054688
z: -0.3049119710922241
visibility: 0.9998944401741028
","x: 219.6348876953125
y: 159.94915771484375
z: -0.3016025424003601
visibility: 0.9999545216560364
","x: 218.29539489746094
y: 159.88027954101562
z: -0.30162665247917175
visibility: 0.9999600648880005
","x: 217.311767578125
y: 159.81524658203125
z: -0.3015877604484558
visibility: 0.9999555349349976
","x: 234.86293029785156
y: 166.88088989257812
z: -0.17979340255260468
visibility: 0.9996234774589539
","x: 217.73170471191406
y: 166.61172485351562
z: -0.16676539182662964
visibility: 0.9999590516090393
","x: 225.4466552734375
y: 176.99359130859375
z: -0.27583515644073486
visibility: 0.9998974204063416
","x: 218.70684814453125
y: 175.82525634765625
z: -0.2724756598472595
visibility: 0.9999722838401794
","x: 245.94435119628906
y: 216.00567626953125
z: -0.10948483645915985
visibility: 0.9997068643569946
","x: 204.7539520263672
y: 221.6050567626953
z: -0.07586352527141571
visibility: 0.9999869465827942
","x: 254.1830291748047
y: 276.215087890625
z: -0.1972147673368454
visibility: 0.8331329822540283
","x: 202.0777130126953
y: 284.94158935546875
z: -0.10221926867961884
visibility: 0.9886865019798279
","x: 249.53604125976562
y: 271.14276123046875
z: -0.45948654413223267
visibility: 0.8821883797645569
","x: 181.56814575195312
y: 280.60076904296875
z: -0.3485342860221863
visibility: 0.9922288656234741
","x: 245.5728759765625
y: 272.81048583984375
z: -0.5174322724342346
visibility: 0.8748865127563477
","x: 174.12258911132812
y: 283.10308837890625
z: -0.3963763117790222
visibility: 0.983674943447113
","x: 243.91636657714844
y: 263.57794189453125
z: -0.5323916077613831
visibility: 0.8790194392204285
","x: 172.407958984375
y: 275.9559326171875
z: -0.42234382033348083
visibility: 0.9843462109565735
","x: 244.3339385986328
y: 261.88067626953125
z: -0.46997785568237305
visibility: 0.8735082149505615
","x: 175.71401977539062
y: 275.1867980957031
z: -0.36599865555763245
visibility: 0.9760745763778687
","x: 246.99142456054688
y: 340.8177185058594
z: 0.02169409580528736
visibility: 0.9997336268424988
","x: 222.08413696289062
y: 346.1805725097656
z: -0.021886950358748436
visibility: 0.9997995495796204
","x: 264.1053771972656
y: 418.0625915527344
z: 0.07466508448123932
visibility: 0.9672719240188599
","x: 226.2040557861328
y: 433.10382080078125
z: -0.06472789496183395
visibility: 0.9970805644989014
","x: 271.3956604003906
y: 493.1396484375
z: 0.3402620553970337
visibility: 0.9778172373771667
","x: 203.29293823242188
y: 505.4676513671875
z: 0.12159846723079681
visibility: 0.9969814419746399
","x: 267.04656982421875
y: 505.85931396484375
z: 0.3603495955467224
visibility: 0.9415795803070068
","x: 198.31809997558594
y: 515.2384033203125
z: 0.1342134028673172
visibility: 0.9362742304801941
","x: 286.041015625
y: 514.1680297851562
z: 0.24947421252727509
visibility: 0.9808216691017151
","x: 217.26870727539062
y: 533.661376953125
z: 0.0007820941391400993
visibility: 0.995090663433075
","x: 180.7488555908203
y: 277.78790283203125
z: 0.0
","x: 177.71286010742188
y: 270.58050537109375
z: -0.0009094816632568836
","x: 174.11868286132812
y: 267.0643005371094
z: -0.0014122668653726578
","x: 170.78074645996094
y: 267.570556640625
z: -0.0027836968656629324
","x: 168.51425170898438
y: 269.1933898925781
z: -0.0038310338277369738
","x: 169.77032470703125
y: 270.8209533691406
z: 0.003362238174304366
","x: 165.64764404296875
y: 270.6380615234375
z: 0.0010037794709205627
","x: 163.76275634765625
y: 269.7415466308594
z: -0.0006167168030515313
","x: 162.624755859375
y: 269.0649719238281
z: -0.0013960149371996522
","x: 169.52236938476562
y: 274.97369384765625
z: 0.0016998392529785633
","x: 165.00216674804688
y: 274.93115234375
z: -0.0007504521054215729
","x: 163.7892303466797
y: 273.5400390625
z: -0.002235856605693698
","x: 163.41639709472656
y: 272.4643249511719
z: -0.002686193212866783
","x: 169.95199584960938
y: 279.2669372558594
z: -0.0008088548202067614
","x: 166.46478271484375
y: 279.0677490234375
z: -0.003310652682557702
","x: 168.5377197265625
y: 277.57427978515625
z: -0.0029951969627290964
","x: 170.95889282226562
y: 276.6692810058594
z: -0.0019495115848258138
","x: 170.95126342773438
y: 283.899169921875
z: -0.0038446709513664246
","x: 168.04469299316406
y: 283.3206787109375
z: -0.005461081396788359
","x: 169.21063232421875
y: 281.8704528808594
z: -0.00502062076702714
","x: 171.13827514648438
y: 280.9878845214844
z: -0.00405051838606596
","x: 247.47488403320312
y: 269.8856201171875
z: 0.0
","x: 244.16201782226562
y: 264.27392578125
z: -0.00014292077685240656
","x: 239.1340789794922
y: 261.6495056152344
z: -0.0018978571752086282
","x: 235.14540100097656
y: 262.15386962890625
z: -0.0038291115779429674
","x: 232.25604248046875
y: 263.72601318359375
z: -0.0056905788369476795
","x: 241.2220001220703
y: 260.6123046875
z: -0.005946687888354063
","x: 235.62744140625
y: 261.14910888671875
z: -0.008574508130550385
","x: 233.31283569335938
y: 262.02301025390625
z: -0.008771996945142746
","x: 231.71035766601562
y: 262.697021484375
z: -0.008753775618970394
","x: 242.06170654296875
y: 265.4626159667969
z: -0.007861509919166565
","x: 235.3430633544922
y: 267.8741760253906
z: -0.011606570333242416
","x: 236.5449981689453
y: 268.4965515136719
z: -0.010484998114407063
","x: 238.82823181152344
y: 268.2577209472656
z: -0.00873997900635004
","x: 242.5269775390625
y: 270.50836181640625
z: -0.009524152614176273
","x: 236.47592163085938
y: 272.4502258300781
z: -0.012201628647744656
","x: 238.09359741210938
y: 272.386962890625
z: -0.009561518207192421
","x: 240.3563690185547
y: 271.4505615234375
z: -0.007235547993332148
","x: 242.9220428466797
y: 275.25836181640625
z: -0.011250746436417103
","x: 237.97007751464844
y: 276.2259521484375
z: -0.012667400762438774
","x: 239.32858276367188
y: 275.8139343261719
z: -0.010842002928256989
","x: 241.63934326171875
y: 275.0982971191406
z: -0.00912009458988905
"
18,"x: 221.10247802734375
y: 166.6263427734375
z: -0.3226322829723358
visibility: 0.9999752640724182
","x: 225.0923309326172
y: 160.6125030517578
z: -0.30481430888175964
visibility: 0.9999297857284546
","x: 227.56146240234375
y: 161.06178283691406
z: -0.3048994243144989
visibility: 0.9999147653579712
","x: 230.0696563720703
y: 161.57736206054688
z: -0.3049119710922241
visibility: 0.9998944401741028
","x: 219.6348876953125
y: 159.94915771484375
z: -0.3016025424003601
visibility: 0.9999545216560364
","x: 218.29539489746094
y: 159.88027954101562
z: -0.30162665247917175
visibility: 0.9999600648880005
","x: 217.311767578125
y: 159.81524658203125
z: -0.3015877604484558
visibility: 0.9999555349349976
","x: 234.86293029785156
y: 166.88088989257812
z: -0.17979340255260468
visibility: 0.9996234774589539
","x: 217.73170471191406
y: 166.61172485351562
z: -0.16676539182662964
visibility: 0.9999590516090393
","x: 225.4466552734375
y: 176.99359130859375
z: -0.27583515644073486
visibility: 0.9998974204063416
","x: 218.70684814453125
y: 175.82525634765625
z: -0.2724756598472595
visibility: 0.9999722838401794
","x: 245.94435119628906
y: 216.00567626953125
z: -0.10948483645915985
visibility: 0.9997068643569946
","x: 204.7539520263672
y: 221.6050567626953
z: -0.07586352527141571
visibility: 0.9999869465827942
","x: 254.1830291748047
y: 276.215087890625
z: -0.1972147673368454
visibility: 0.8331329822540283
","x: 202.0777130126953
y: 284.94158935546875
z: -0.10221926867961884
visibility: 0.9886865019798279
","x: 249.53604125976562
y: 271.14276123046875
z: -0.45948654413223267
visibility: 0.8821883797645569
","x: 181.56814575195312
y: 280.60076904296875
z: -0.3485342860221863
visibility: 0.9922288656234741
","x: 245.5728759765625
y: 272.81048583984375
z: -0.5174322724342346
visibility: 0.8748865127563477
","x: 174.12258911132812
y: 283.10308837890625
z: -0.3963763117790222
visibility: 0.983674943447113
","x: 243.91636657714844
y: 263.57794189453125
z: -0.5323916077613831
visibility: 0.8790194392204285
","x: 172.407958984375
y: 275.9559326171875
z: -0.42234382033348083
visibility: 0.9843462109565735
","x: 244.3339385986328
y: 261.88067626953125
z: -0.46997785568237305
visibility: 0.8735082149505615
","x: 175.71401977539062
y: 275.1867980957031
z: -0.36599865555763245
visibility: 0.9760745763778687
","x: 246.99142456054688
y: 340.8177185058594
z: 0.02169409580528736
visibility: 0.9997336268424988
","x: 222.08413696289062
y: 346.1805725097656
z: -0.021886950358748436
visibility: 0.9997995495796204
","x: 264.1053771972656
y: 418.0625915527344
z: 0.07466508448123932
visibility: 0.9672719240188599
","x: 226.2040557861328
y: 433.10382080078125
z: -0.06472789496183395
visibility: 0.9970805644989014
","x: 271.3956604003906
y: 493.1396484375
z: 0.3402620553970337
visibility: 0.9778172373771667
","x: 203.29293823242188
y: 505.4676513671875
z: 0.12159846723079681
visibility: 0.9969814419746399
","x: 267.04656982421875
y: 505.85931396484375
z: 0.3603495955467224
visibility: 0.9415795803070068
","x: 198.31809997558594
y: 515.2384033203125
z: 0.1342134028673172
visibility: 0.9362742304801941
","x: 286.041015625
y: 514.1680297851562
z: 0.24947421252727509
visibility: 0.9808216691017151
","x: 217.26870727539062
y: 533.661376953125
z: 0.0007820941391400993
visibility: 0.995090663433075
","x: 180.7488555908203
y: 277.78790283203125
z: 0.0
","x: 177.71286010742188
y: 270.58050537109375
z: -0.0009094816632568836
","x: 174.11868286132812
y: 267.0643005371094
z: -0.0014122668653726578
","x: 170.78074645996094
y: 267.570556640625
z: -0.0027836968656629324
","x: 168.51425170898438
y: 269.1933898925781
z: -0.0038310338277369738
","x: 169.77032470703125
y: 270.8209533691406
z: 0.003362238174304366
","x: 165.64764404296875
y: 270.6380615234375
z: 0.0010037794709205627
","x: 163.76275634765625
y: 269.7415466308594
z: -0.0006167168030515313
","x: 162.624755859375
y: 269.0649719238281
z: -0.0013960149371996522
","x: 169.52236938476562
y: 274.97369384765625
z: 0.0016998392529785633
","x: 165.00216674804688
y: 274.93115234375
z: -0.0007504521054215729
","x: 163.7892303466797
y: 273.5400390625
z: -0.002235856605693698
","x: 163.41639709472656
y: 272.4643249511719
z: -0.002686193212866783
","x: 169.95199584960938
y: 279.2669372558594
z: -0.0008088548202067614
","x: 166.46478271484375
y: 279.0677490234375
z: -0.003310652682557702
","x: 168.5377197265625
y: 277.57427978515625
z: -0.0029951969627290964
","x: 170.95889282226562
y: 276.6692810058594
z: -0.0019495115848258138
","x: 170.95126342773438
y: 283.899169921875
z: -0.0038446709513664246
","x: 168.04469299316406
y: 283.3206787109375
z: -0.005461081396788359
","x: 169.21063232421875
y: 281.8704528808594
z: -0.00502062076702714
","x: 171.13827514648438
y: 280.9878845214844
z: -0.00405051838606596
","x: 247.47488403320312
y: 269.8856201171875
z: 0.0
","x: 244.16201782226562
y: 264.27392578125
z: -0.00014292077685240656
","x: 239.1340789794922
y: 261.6495056152344
z: -0.0018978571752086282
","x: 235.14540100097656
y: 262.15386962890625
z: -0.0038291115779429674
","x: 232.25604248046875
y: 263.72601318359375
z: -0.0056905788369476795
","x: 241.2220001220703
y: 260.6123046875
z: -0.005946687888354063
","x: 235.62744140625
y: 261.14910888671875
z: -0.008574508130550385
","x: 233.31283569335938
y: 262.02301025390625
z: -0.008771996945142746
","x: 231.71035766601562
y: 262.697021484375
z: -0.008753775618970394
","x: 242.06170654296875
y: 265.4626159667969
z: -0.007861509919166565
","x: 235.3430633544922
y: 267.8741760253906
z: -0.011606570333242416
","x: 236.5449981689453
y: 268.4965515136719
z: -0.010484998114407063
","x: 238.82823181152344
y: 268.2577209472656
z: -0.00873997900635004
","x: 242.5269775390625
y: 270.50836181640625
z: -0.009524152614176273
","x: 236.47592163085938
y: 272.4502258300781
z: -0.012201628647744656
","x: 238.09359741210938
y: 272.386962890625
z: -0.009561518207192421
","x: 240.3563690185547
y: 271.4505615234375
z: -0.007235547993332148
","x: 242.9220428466797
y: 275.25836181640625
z: -0.011250746436417103
","x: 237.97007751464844
y: 276.2259521484375
z: -0.012667400762438774
","x: 239.32858276367188
y: 275.8139343261719
z: -0.010842002928256989
","x: 241.63934326171875
y: 275.0982971191406
z: -0.00912009458988905
"
19,"x: 220.1513671875
y: 166.69252014160156
z: -0.3246220350265503
visibility: 0.9999775886535645
","x: 223.8425750732422
y: 160.76318359375
z: -0.3062508702278137
visibility: 0.9999365210533142
","x: 226.15956115722656
y: 161.2248992919922
z: -0.306334912776947
visibility: 0.9999229907989502
","x: 228.50936889648438
y: 161.75132751464844
z: -0.30635079741477966
visibility: 0.9999046921730042
","x: 218.5789031982422
y: 159.9736328125
z: -0.30421850085258484
visibility: 0.9999585151672363
","x: 217.2501983642578
y: 159.95245361328125
z: -0.3042404055595398
visibility: 0.9999634623527527
","x: 216.25721740722656
y: 159.92385864257812
z: -0.30420175194740295
visibility: 0.9999591112136841
","x: 233.55963134765625
y: 167.02406311035156
z: -0.18005365133285522
visibility: 0.9996604919433594
