uscmakers/ReverseChoreography/data/3_get_up_ciara.csv
,NOSE,LEFT_EYE_INNER,LEFT_EYE,LEFT_EYE_OUTER,RIGHT_EYE_INNER,RIGHT_EYE,RIGHT_EYE_OUTER,LEFT_EAR,RIGHT_EAR,MOUTH_LEFT,MOUTH_RIGHT,LEFT_SHOULDER,RIGHT_SHOULDER,LEFT_ELBOW,RIGHT_ELBOW,LEFT_WRIST,RIGHT_WRIST,LEFT_PINKY,RIGHT_PINKY,LEFT_INDEX,RIGHT_INDEX,LEFT_THUMB,RIGHT_THUMB,LEFT_HIP,RIGHT_HIP,LEFT_KNEE,RIGHT_KNEE,LEFT_ANKLE,RIGHT_ANKLE,LEFT_HEEL,RIGHT_HEEL,LEFT_FOOT_INDEX,RIGHT_FOOT_INDEX,WRIST,THUMB_CPC,THUMB_MCP,THUMB_IP,THUMB_TIP,INDEX_FINGER_MCP,INDEX_FINGER_PIP,INDEX_FINGER_DIP,INDEX_FINGER_TIP,MIDDLE_FINGER_MCP,MIDDLE_FINGER_PIP,MIDDLE_FINGER_DIP,MIDDLE_FINGER_TIP,RING_FINGER_PIP,RING_FINGER_DIP,RING_FINGER_TIP,RING_FINGER_MCP,PINKY_MCP,PINKY_PIP,PINKY_DIP,PINKY_TIP,WRIST2,THUMB_CPC2,THUMB_MCP2,THUMB_IP2,THUMB_TIP2,INDEX_FINGER_MCP2,INDEX_FINGER_PIP2,INDEX_FINGER_DIP2,INDEX_FINGER_TIP2,MIDDLE_FINGER_MCP2,MIDDLE_FINGER_PIP2,MIDDLE_FINGER_DIP2,MIDDLE_FINGER_TIP2,RING_FINGER_PIP2,RING_FINGER_DIP2,RING_FINGER_TIP2,RING_FINGER_MCP2,PINKY_MCP2,PINKY_PIP2,PINKY_DIP2,PINKY_TIP2
0,"x: 270.8458251953125
y: 297.47039794921875
z: -0.18601316213607788
visibility: 0.999997615814209
","x: 270.3653869628906
y: 289.64459228515625
z: -0.16464710235595703
visibility: 0.999997615814209
","x: 271.0067443847656
y: 289.3887023925781
z: -0.16465505957603455
visibility: 0.9999964237213135
","x: 271.6104431152344
y: 289.1495056152344
z: -0.16467593610286713
visibility: 0.9999958276748657
","x: 267.3184814453125
y: 290.26776123046875
z: -0.17965514957904816
visibility: 0.9999978542327881
","x: 265.7286071777344
y: 290.60601806640625
z: -0.17967046797275543
visibility: 0.9999974966049194
","x: 264.02642822265625
y: 291.02740478515625
z: -0.17965365946292877
visibility: 0.9999974966049194
","x: 269.4371337890625
y: 292.03387451171875
z: -0.04391710087656975
visibility: 0.9999923706054688
","x: 258.89715576171875
y: 294.82763671875
z: -0.1150062084197998
visibility: 0.9999984502792358
","x: 271.9824523925781
y: 304.0402526855469
z: -0.1402190625667572
visibility: 0.9999960660934448
","x: 267.7820739746094
y: 306.59478759765625
z: -0.16085678339004517
visibility: 0.9999983310699463
","x: 281.3610534667969
y: 328.6297607421875
z: 0.03553302586078644
visibility: 0.9999585151672363
","x: 245.28704833984375
y: 337.4516296386719
z: -0.0855085551738739
visibility: 0.999977707862854
","x: 291.09130859375
y: 367.0321350097656
z: -0.03111257217824459
visibility: 0.872016191482544
","x: 225.26783752441406
y: 370.9048767089844
z: -0.2084885537624359
visibility: 0.9976474642753601
","x: 295.7902526855469
y: 355.8309326171875
z: -0.23688694834709167
visibility: 0.9660130143165588
","x: 238.0403594970703
y: 369.6414489746094
z: -0.36834174394607544
visibility: 0.9933953881263733
","x: 295.67913818359375
y: 348.2808837890625
z: -0.2745698392391205
visibility: 0.94449383020401
","x: 243.85597229003906
y: 364.4723205566406
z: -0.40528565645217896
visibility: 0.9799736738204956
","x: 295.221923828125
y: 343.27496337890625
z: -0.28252193331718445
visibility: 0.9467954039573669
","x: 246.11634826660156
y: 358.8399658203125
z: -0.39716675877571106
visibility: 0.9784043431282043
","x: 294.3674621582031
y: 347.23382568359375
z: -0.24618908762931824
visibility: 0.9275895357131958
","x: 244.5350341796875
y: 360.9013671875
z: -0.36735865473747253
visibility: 0.9654411673545837
","x: 284.1401672363281
y: 441.3795471191406
z: 0.03729419782757759
visibility: 0.9999397993087769
","x: 261.7944641113281
y: 445.2514953613281
z: -0.03730209544301033
visibility: 0.9999322891235352
","x: 303.97784423828125
y: 510.4652099609375
z: 0.012182016856968403
visibility: 0.9981327652931213
","x: 245.30673217773438
y: 518.7374267578125
z: -0.05125518888235092
visibility: 0.999024510383606
","x: 305.6165771484375
y: 572.364501953125
z: 0.21808774769306183
visibility: 0.9973288774490356
","x: 231.56051635742188
y: 576.8572387695312
z: 0.10672105848789215
visibility: 0.9988248944282532
","x: 300.6822814941406
y: 583.1341552734375
z: 0.23310783505439758
visibility: 0.9817805886268616
","x: 231.30618286132812
y: 584.8290405273438
z: 0.11775384843349457
visibility: 0.9556774497032166
","x: 319.14093017578125
y: 595.5870971679688
z: 0.14676256477832794
visibility: 0.9943056702613831
","x: 226.89178466796875
y: 601.8177490234375
z: 0.01127293985337019
visibility: 0.9962747097015381
","x: 239.58551025390625
y: 367.81085205078125
z: 0.0
","x: 243.1971435546875
y: 368.1822204589844
z: -0.0028059384785592556
","x: 246.59918212890625
y: 366.4724426269531
z: -0.004485609941184521
","x: 249.45968627929688
y: 366.0673828125
z: -0.006170721724629402
","x: 252.0420684814453
y: 366.82916259765625
z: -0.007681466639041901
","x: 245.607177734375
y: 352.6112365722656
z: -0.0020960660185664892
","x: 247.65855407714844
y: 344.18798828125
z: -0.004015916492789984
","x: 248.7174530029297
y: 341.01690673828125
z: -0.0050669461488723755
","x: 249.3728790283203
y: 339.4110107421875
z: -0.005521824583411217
","x: 243.14666748046875
y: 350.8749694824219
z: -0.0021570553071796894
","x: 244.14688110351562
y: 342.55511474609375
z: -0.0031571323052048683
","x: 244.7847137451172
y: 339.1591796875
z: -0.0035459320060908794
","x: 245.03883361816406
y: 337.0329284667969
z: -0.0038254752289503813
","x: 240.80072021484375
y: 350.8348388671875
z: -0.002698844065889716
","x: 241.28390502929688
y: 343.7309265136719
z: -0.004454928450286388
","x: 241.53408813476562
y: 340.24365234375
z: -0.005342424847185612
","x: 241.69618225097656
y: 338.2351379394531
z: -0.005710640922188759
","x: 238.77444458007812
y: 352.18182373046875
z: -0.0036596728023141623
","x: 238.51097106933594
y: 346.7873840332031
z: -0.005672725383192301
","x: 238.4942626953125
y: 343.9582824707031
z: -0.006517558824270964
","x: 238.4604034423828
y: 342.3575439453125
z: -0.006742645986378193
","x: 297.49774169921875
y: 354.1070556640625
z: 0.0
","x: 293.9083251953125
y: 351.14312744140625
z: -0.000899323436897248
","x: 290.76983642578125
y: 347.04266357421875
z: -0.0020878552459180355
","x: 288.5920104980469
y: 344.07275390625
z: -0.0038033032324165106
","x: 286.9052429199219
y: 342.9515380859375
z: -0.005543375387787819
","x: 292.7562255859375
y: 337.3292236328125
z: 0.00021703359379898757
","x: 291.1959228515625
y: 330.522705078125
z: -0.001891993684694171
","x: 290.4046325683594
y: 326.54852294921875
z: -0.0034004496410489082
","x: 289.78955078125
y: 323.2687683105469
z: -0.004326340742409229
","x: 294.96966552734375
y: 335.9852600097656
z: -0.0013906663516536355
","x: 294.3138732910156
y: 328.2586669921875
z: -0.003042415715754032
","x: 294.08673095703125
y: 323.80499267578125
z: -0.004225274082273245
","x: 293.7754211425781
y: 320.2079772949219
z: -0.005122631788253784
","x: 297.2711181640625
y: 336.0345153808594
z: -0.003468615934252739
","x: 297.22198486328125
y: 328.7605285644531
z: -0.005532996729016304
","x: 297.22149658203125
y: 324.51593017578125
z: -0.006646743509918451
","x: 297.0185546875
y: 321.2017517089844
z: -0.007313394453376532
","x: 299.57586669921875
y: 337.4287109375
z: -0.005815276876091957
","x: 300.63787841796875
y: 332.0283203125
z: -0.007590078748762608
","x: 301.4743957519531
y: 328.6513671875
z: -0.008286253549158573
","x: 302.0085754394531
y: 325.9014587402344
z: -0.008670207113027573
"
1,"x: 270.8458251953125
y: 297.47039794921875
z: -0.18601316213607788
visibility: 0.999997615814209
","x: 270.3653869628906
y: 289.64459228515625
z: -0.16464710235595703
visibility: 0.999997615814209
","x: 271.0067443847656
y: 289.3887023925781
z: -0.16465505957603455
visibility: 0.9999964237213135
","x: 271.6104431152344
y: 289.1495056152344
z: -0.16467593610286713
visibility: 0.9999958276748657
","x: 267.3184814453125
y: 290.26776123046875
z: -0.17965514957904816
visibility: 0.9999978542327881
","x: 265.7286071777344
y: 290.60601806640625
z: -0.17967046797275543
visibility: 0.9999974966049194
","x: 264.02642822265625
y: 291.02740478515625
z: -0.17965365946292877
visibility: 0.9999974966049194
","x: 269.4371337890625
y: 292.03387451171875
z: -0.04391710087656975
visibility: 0.9999923706054688
","x: 258.89715576171875
y: 294.82763671875
z: -0.1150062084197998
visibility: 0.9999984502792358
","x: 271.9824523925781
y: 304.0402526855469
z: -0.1402190625667572
visibility: 0.9999960660934448
","x: 267.7820739746094
y: 306.59478759765625
z: -0.16085678339004517
visibility: 0.9999983310699463
","x: 281.3610534667969
y: 328.6297607421875
z: 0.03553302586078644
visibility: 0.9999585151672363
","x: 245.28704833984375
y: 337.4516296386719
z: -0.0855085551738739
visibility: 0.999977707862854
","x: 291.09130859375
y: 367.0321350097656
z: -0.03111257217824459
visibility: 0.872016191482544
","x: 225.26783752441406
y: 370.9048767089844
z: -0.2084885537624359
visibility: 0.9976474642753601
","x: 295.7902526855469
y: 355.8309326171875
z: -0.23688694834709167
visibility: 0.9660130143165588
","x: 238.0403594970703
y: 369.6414489746094
z: -0.36834174394607544
visibility: 0.9933953881263733
","x: 295.67913818359375
y: 348.2808837890625
z: -0.2745698392391205
visibility: 0.94449383020401
","x: 243.85597229003906
y: 364.4723205566406
z: -0.40528565645217896
visibility: 0.9799736738204956
","x: 295.221923828125
y: 343.27496337890625
z: -0.28252193331718445
visibility: 0.9467954039573669
","x: 246.11634826660156
y: 358.8399658203125
z: -0.39716675877571106
visibility: 0.9784043431282043
","x: 294.3674621582031
y: 347.23382568359375
z: -0.24618908762931824
visibility: 0.9275895357131958
","x: 244.5350341796875
y: 360.9013671875
z: -0.36735865473747253
visibility: 0.9654411673545837
","x: 284.1401672363281
y: 441.3795471191406
z: 0.03729419782757759
visibility: 0.9999397993087769
","x: 261.7944641113281
y: 445.2514953613281
z: -0.03730209544301033
visibility: 0.9999322891235352
","x: 303.97784423828125
y: 510.4652099609375
z: 0.012182016856968403
visibility: 0.9981327652931213
","x: 245.30673217773438
y: 518.7374267578125
z: -0.05125518888235092
visibility: 0.999024510383606
","x: 305.6165771484375
y: 572.364501953125
z: 0.21808774769306183
visibility: 0.9973288774490356
","x: 231.56051635742188
y: 576.8572387695312
z: 0.10672105848789215
visibility: 0.9988248944282532
","x: 300.6822814941406
y: 583.1341552734375
z: 0.23310783505439758
visibility: 0.9817805886268616
","x: 231.30618286132812
y: 584.8290405273438
z: 0.11775384843349457
visibility: 0.9556774497032166
","x: 319.14093017578125
y: 595.5870971679688
z: 0.14676256477832794
visibility: 0.9943056702613831
","x: 226.89178466796875
y: 601.8177490234375
z: 0.01127293985337019
visibility: 0.9962747097015381
","x: 239.58551025390625
y: 367.81085205078125
z: 0.0
","x: 243.1971435546875
y: 368.1822204589844
z: -0.0028059384785592556
","x: 246.59918212890625
y: 366.4724426269531
z: -0.004485609941184521
","x: 249.45968627929688
y: 366.0673828125
z: -0.006170721724629402
","x: 252.0420684814453
y: 366.82916259765625
z: -0.007681466639041901
","x: 245.607177734375
y: 352.6112365722656
z: -0.0020960660185664892
","x: 247.65855407714844
y: 344.18798828125
z: -0.004015916492789984
","x: 248.7174530029297
y: 341.01690673828125
z: -0.0050669461488723755
","x: 249.3728790283203
y: 339.4110107421875
z: -0.005521824583411217
","x: 243.14666748046875
y: 350.8749694824219
z: -0.0021570553071796894
","x: 244.14688110351562
y: 342.55511474609375
z: -0.0031571323052048683
","x: 244.7847137451172
y: 339.1591796875
z: -0.0035459320060908794
","x: 245.03883361816406
y: 337.0329284667969
z: -0.0038254752289503813
","x: 240.80072021484375
y: 350.8348388671875
z: -0.002698844065889716
","x: 241.28390502929688
y: 343.7309265136719
z: -0.004454928450286388
","x: 241.53408813476562
y: 340.24365234375
z: -0.005342424847185612
","x: 241.69618225097656
y: 338.2351379394531
z: -0.005710640922188759
","x: 238.77444458007812
y: 352.18182373046875
z: -0.0036596728023141623
","x: 238.51097106933594
y: 346.7873840332031
z: -0.005672725383192301
","x: 238.4942626953125
y: 343.9582824707031
z: -0.006517558824270964
","x: 238.4604034423828
y: 342.3575439453125
z: -0.006742645986378193
","x: 297.49774169921875
y: 354.1070556640625
z: 0.0
","x: 293.9083251953125
y: 351.14312744140625
z: -0.000899323436897248
","x: 290.76983642578125
y: 347.04266357421875
z: -0.0020878552459180355
","x: 288.5920104980469
y: 344.07275390625
z: -0.0038033032324165106
","x: 286.9052429199219
y: 342.9515380859375
z: -0.005543375387787819
","x: 292.7562255859375
y: 337.3292236328125
z: 0.00021703359379898757
","x: 291.1959228515625
y: 330.522705078125
z: -0.001891993684694171
","x: 290.4046325683594
y: 326.54852294921875
z: -0.0034004496410489082
","x: 289.78955078125
y: 323.2687683105469
z: -0.004326340742409229
","x: 294.96966552734375
y: 335.9852600097656
z: -0.0013906663516536355
","x: 294.3138732910156
y: 328.2586669921875
z: -0.003042415715754032
","x: 294.08673095703125
y: 323.80499267578125
z: -0.004225274082273245
","x: 293.7754211425781
y: 320.2079772949219
z: -0.005122631788253784
","x: 297.2711181640625
y: 336.0345153808594
z: -0.003468615934252739
","x: 297.22198486328125
y: 328.7605285644531
z: -0.005532996729016304
","x: 297.22149658203125
y: 324.51593017578125
z: -0.006646743509918451
","x: 297.0185546875
y: 321.2017517089844
z: -0.007313394453376532
","x: 299.57586669921875
y: 337.4287109375
z: -0.005815276876091957
","x: 300.63787841796875
y: 332.0283203125
z: -0.007590078748762608
","x: 301.4743957519531
y: 328.6513671875
z: -0.008286253549158573
","x: 302.0085754394531
y: 325.9014587402344
z: -0.008670207113027573
"
2,"x: 270.8458251953125
y: 297.47039794921875
z: -0.18601316213607788
visibility: 0.999997615814209
","x: 270.3653869628906
y: 289.64459228515625
z: -0.16464710235595703
visibility: 0.999997615814209
","x: 271.0067443847656
y: 289.3887023925781
z: -0.16465505957603455
visibility: 0.9999964237213135
","x: 271.6104431152344
y: 289.1495056152344
z: -0.16467593610286713
visibility: 0.9999958276748657
","x: 267.3184814453125
y: 290.26776123046875
z: -0.17965514957904816
visibility: 0.9999978542327881
","x: 265.7286071777344
y: 290.60601806640625
z: -0.17967046797275543
visibility: 0.9999974966049194
","x: 264.02642822265625
y: 291.02740478515625
z: -0.17965365946292877
visibility: 0.9999974966049194
","x: 269.4371337890625
y: 292.03387451171875
z: -0.04391710087656975
visibility: 0.9999923706054688
","x: 258.89715576171875
y: 294.82763671875
z: -0.1150062084197998
visibility: 0.9999984502792358
","x: 271.9824523925781
y: 304.0402526855469
z: -0.1402190625667572
visibility: 0.9999960660934448
","x: 267.7820739746094
y: 306.59478759765625
z: -0.16085678339004517
visibility: 0.9999983310699463
","x: 281.3610534667969
y: 328.6297607421875
z: 0.03553302586078644
visibility: 0.9999585151672363
","x: 245.28704833984375
y: 337.4516296386719
z: -0.0855085551738739
visibility: 0.999977707862854
","x: 291.09130859375
y: 367.0321350097656
z: -0.03111257217824459
visibility: 0.872016191482544
","x: 225.26783752441406
y: 370.9048767089844
z: -0.2084885537624359
visibility: 0.9976474642753601
","x: 295.7902526855469
y: 355.8309326171875
z: -0.23688694834709167
visibility: 0.9660130143165588
","x: 238.0403594970703
y: 369.6414489746094
z: -0.36834174394607544
visibility: 0.9933953881263733
","x: 295.67913818359375
y: 348.2808837890625
z: -0.2745698392391205
visibility: 0.94449383020401
","x: 243.85597229003906
y: 364.4723205566406
z: -0.40528565645217896
visibility: 0.9799736738204956
","x: 295.221923828125
y: 343.27496337890625
z: -0.28252193331718445
visibility: 0.9467954039573669
","x: 246.11634826660156
y: 358.8399658203125
z: -0.39716675877571106
visibility: 0.9784043431282043
","x: 294.3674621582031
y: 347.23382568359375
z: -0.24618908762931824
visibility: 0.9275895357131958
","x: 244.5350341796875
y: 360.9013671875
z: -0.36735865473747253
visibility: 0.9654411673545837
","x: 284.1401672363281
y: 441.3795471191406
z: 0.03729419782757759
visibility: 0.9999397993087769
","x: 261.7944641113281
y: 445.2514953613281
z: -0.03730209544301033
visibility: 0.9999322891235352
","x: 303.97784423828125
y: 510.4652099609375
z: 0.012182016856968403
visibility: 0.9981327652931213
","x: 245.30673217773438
y: 518.7374267578125
z: -0.05125518888235092
visibility: 0.999024510383606
","x: 305.6165771484375
y: 572.364501953125
z: 0.21808774769306183
visibility: 0.9973288774490356
","x: 231.56051635742188
y: 576.8572387695312
z: 0.10672105848789215
visibility: 0.9988248944282532
","x: 300.6822814941406
y: 583.1341552734375
z: 0.23310783505439758
visibility: 0.9817805886268616
","x: 231.30618286132812
y: 584.8290405273438
z: 0.11775384843349457
visibility: 0.9556774497032166
","x: 319.14093017578125
y: 595.5870971679688
z: 0.14676256477832794
visibility: 0.9943056702613831
","x: 226.89178466796875
y: 601.8177490234375
z: 0.01127293985337019
visibility: 0.9962747097015381
","x: 239.58551025390625
y: 367.81085205078125
z: 0.0
","x: 243.1971435546875
y: 368.1822204589844
z: -0.0028059384785592556
","x: 246.59918212890625
y: 366.4724426269531
z: -0.004485609941184521
","x: 249.45968627929688
y: 366.0673828125
z: -0.006170721724629402
","x: 252.0420684814453
y: 366.82916259765625
z: -0.007681466639041901
","x: 245.607177734375
y: 352.6112365722656
z: -0.0020960660185664892
","x: 247.65855407714844
y: 344.18798828125
z: -0.004015916492789984
","x: 248.7174530029297
y: 341.01690673828125
z: -0.0050669461488723755
","x: 249.3728790283203
y: 339.4110107421875
z: -0.005521824583411217
","x: 243.14666748046875
y: 350.8749694824219
z: -0.0021570553071796894
","x: 244.14688110351562
y: 342.55511474609375
z: -0.0031571323052048683
","x: 244.7847137451172
y: 339.1591796875
z: -0.0035459320060908794
","x: 245.03883361816406
y: 337.0329284667969
z: -0.0038254752289503813
","x: 240.80072021484375
y: 350.8348388671875
z: -0.002698844065889716
","x: 241.28390502929688
y: 343.7309265136719
z: -0.004454928450286388
","x: 241.53408813476562
y: 340.24365234375
z: -0.005342424847185612
","x: 241.69618225097656
y: 338.2351379394531
z: -0.005710640922188759
","x: 238.77444458007812
y: 352.18182373046875
z: -0.0036596728023141623
","x: 238.51097106933594
y: 346.7873840332031
z: -0.005672725383192301
","x: 238.4942626953125
y: 343.9582824707031
z: -0.006517558824270964
","x: 238.4604034423828
y: 342.3575439453125
z: -0.006742645986378193
","x: 297.49774169921875
y: 354.1070556640625
z: 0.0
","x: 293.9083251953125
y: 351.14312744140625
z: -0.000899323436897248
","x: 290.76983642578125
y: 347.04266357421875
z: -0.0020878552459180355
","x: 288.5920104980469
y: 344.07275390625
z: -0.0038033032324165106
","x: 286.9052429199219
y: 342.9515380859375
z: -0.005543375387787819
","x: 292.7562255859375
y: 337.3292236328125
z: 0.00021703359379898757
","x: 291.1959228515625
y: 330.522705078125
z: -0.001891993684694171
","x: 290.4046325683594
y: 326.54852294921875
z: -0.0034004496410489082
","x: 289.78955078125
y: 323.2687683105469
z: -0.004326340742409229
","x: 294.96966552734375
y: 335.9852600097656
z: -0.0013906663516536355
","x: 294.3138732910156
y: 328.2586669921875
z: -0.003042415715754032
","x: 294.08673095703125
y: 323.80499267578125
z: -0.004225274082273245
","x: 293.7754211425781
y: 320.2079772949219
z: -0.005122631788253784
","x: 297.2711181640625
y: 336.0345153808594
z: -0.003468615934252739
","x: 297.22198486328125
y: 328.7605285644531
z: -0.005532996729016304
","x: 297.22149658203125
y: 324.51593017578125
z: -0.006646743509918451
","x: 297.0185546875
y: 321.2017517089844
z: -0.007313394453376532
","x: 299.57586669921875
y: 337.4287109375
z: -0.005815276876091957
","x: 300.63787841796875
y: 332.0283203125
z: -0.007590078748762608
","x: 301.4743957519531
y: 328.6513671875
z: -0.008286253549158573
","x: 302.0085754394531
y: 325.9014587402344
z: -0.008670207113027573
"
3,"x: 261.5316467285156
y: 296.1254577636719
z: -0.22516889870166779
visibility: 0.9999918937683105
","x: 264.0030822753906
y: 289.6468200683594
z: -0.20753684639930725
visibility: 0.9999909400939941
","x: 265.1058654785156
y: 289.5892639160156
z: -0.20758318901062012
visibility: 0.9999879002571106
","x: 266.2453308105469
y: 289.75360107421875
z: -0.20762741565704346
visibility: 0.9999876022338867
","x: 259.9779052734375
y: 289.6178283691406
z: -0.2092457264661789
visibility: 0.9999914169311523
","x: 258.3963623046875
y: 289.639892578125
z: -0.20927970111370087
visibility: 0.9999899864196777
","x: 256.8143615722656
y: 289.6994323730469
z: -0.20925971865653992
visibility: 0.9999898076057434
","x: 267.3515625
y: 294.59527587890625
z: -0.10194577276706696
visibility: 0.9999802708625793
","x: 254.37815856933594
y: 293.91656494140625
z: -0.11558413505554199
visibility: 0.9999839067459106
","x: 263.5775451660156
y: 303.5864562988281
z: -0.18647383153438568
visibility: 0.9999897480010986
","x: 258.0924377441406
y: 303.7369689941406
z: -0.18987596035003662
visibility: 0.9999911785125732
","x: 278.06365966796875
y: 338.7979431152344
z: -0.0646003782749176
visibility: 0.9999233484268188
","x: 238.22994995117188
y: 338.431640625
z: -0.04998716339468956
visibility: 0.9999389052391052
","x: 295.16058349609375
y: 373.3626708984375
z: -0.17145520448684692
visibility: 0.884056806564331
","x: 222.52407836914062
y: 370.52899169921875
z: -0.15318800508975983
visibility: 0.9932790398597717
","x: 285.8670654296875
y: 369.2043762207031
z: -0.3626309633255005
visibility: 0.9672756791114807
","x: 217.4723358154297
y: 369.6026611328125
z: -0.374141663312912
visibility: 0.9896767139434814
","x: 280.1015625
y: 366.81317138671875
z: -0.4056324064731598
visibility: 0.9446276426315308
","x: 215.5316162109375
y: 364.27545166015625
z: -0.4173782467842102
visibility: 0.9743772745132446
","x: 277.57000732421875
y: 361.444580078125
z: -0.4052630364894867
visibility: 0.9466826319694519
","x: 217.45989990234375
y: 359.3311767578125
z: -0.4251634478569031
visibility: 0.9731541275978088
","x: 278.9723815917969
y: 362.8614807128906
z: -0.3661997616291046
visibility: 0.9271477460861206
","x: 218.5576171875
y: 361.55291748046875
z: -0.3828543424606323
visibility: 0.9596964120864868
","x: 271.2784729003906
y: 443.02978515625
z: -0.005589940119534731
visibility: 0.9999213814735413
","x: 248.12864685058594
y: 445.3149719238281
z: 0.005541623570024967
visibility: 0.999923050403595
","x: 285.7063903808594
y: 514.3047485351562
z: 0.032062482088804245
visibility: 0.9975630044937134
","x: 232.57447814941406
y: 516.9542236328125
z: 0.017142202705144882
visibility: 0.9987756013870239
","x: 296.3291320800781
y: 577.662109375
z: 0.19375555217266083
visibility: 0.9967793822288513
","x: 228.97975158691406
y: 579.4324340820312
z: 0.16225601732730865
visibility: 0.9985719919204712
","x: 293.4871520996094
y: 588.72265625
z: 0.20337021350860596
visibility: 0.9773122668266296
","x: 231.25233459472656
y: 588.6033935546875
z: 0.17095454037189484
visibility: 0.9556944966316223
","x: 308.0893249511719
y: 597.404541015625
z: 0.11337264627218246
visibility: 0.9932853579521179
","x: 216.26834106445312
y: 600.6544189453125
z: 0.08142713457345963
visibility: 0.9955979585647583
","x: 214.08802795410156
y: 378.387939453125
z: 0.0
","x: 217.49147033691406
y: 375.6656188964844
z: -0.00382602890022099
","x: 219.66152954101562
y: 371.1764831542969
z: -0.005498762242496014
","x: 220.011474609375
y: 367.8770751953125
z: -0.007155934814363718
","x: 220.0729217529297
y: 364.84423828125
z: -0.008619350381195545
","x: 216.95774841308594
y: 358.69354248046875
z: -0.0008511315099895
","x: 216.93174743652344
y: 351.612548828125
z: -0.0025780661962926388
","x: 217.42092895507812
y: 348.1146240234375
z: -0.0039017493836581707
","x: 217.83607482910156
y: 345.4734802246094
z: -0.00464511988684535
","x: 214.35206604003906
y: 357.7862548828125
z: -0.000800838228315115
","x: 213.93185424804688
y: 349.9781799316406
z: -0.001771956798620522
","x: 214.07662963867188
y: 345.64593505859375
z: -0.002993118017911911
","x: 214.32595825195312
y: 342.2418518066406
z: -0.004013589583337307
","x: 212.0192108154297
y: 358.5321044921875
z: -0.0015327719738706946
","x: 211.3714599609375
y: 351.28900146484375
z: -0.002883407287299633
","x: 211.17282104492188
y: 347.1017150878906
z: -0.004331142175942659
","x: 211.1712188720703
y: 343.6442565917969
z: -0.005387782584875822
","x: 209.90357971191406
y: 360.67437744140625
z: -0.0028728574980050325
","x: 209.0001983642578
y: 354.8006591796875
z: -0.004178900271654129
","x: 208.4783477783203
y: 351.4784240722656
z: -0.00528219947591424
","x: 208.16677856445312
y: 348.70263671875
z: -0.006070476956665516
","x: 279.9142761230469
y: 373.467529296875
z: 0.0
","x: 275.558349609375
y: 372.685791015625
z: -0.0017550456104800105
","x: 271.477294921875
y: 369.28179931640625
z: -0.002544199349358678
","x: 268.0453796386719
y: 366.0788269042969
z: -0.003049179445952177
","x: 265.5408630371094
y: 364.4456787109375
z: -0.002901433501392603
","x: 272.7359619140625
y: 355.74285888671875
z: -0.000613611948210746
","x: 269.4140930175781
y: 347.1484069824219
z: -0.000536066887434572
","x: 268.23089599609375
y: 345.65753173828125
z: 0.0007106881821528077
","x: 267.88800048828125
y: 346.2054748535156
z: 0.002015556674450636
","x: 274.868408203125
y: 353.7613525390625
z: 2.2777132471674122e-05
","x: 272.36688232421875
y: 345.69110107421875
z: 0.0009844355517998338
","x: 270.96466064453125
y: 343.9961242675781
z: 0.0027578677982091904
","x: 270.34619140625
y: 344.09173583984375
z: 0.00406144792214036
","x: 276.99090576171875
y: 353.4864501953125
z: 0.0003636932815425098
","x: 275.2503967285156
y: 346.7132263183594
z: 0.0009035277180373669
","x: 273.57135009765625
y: 344.4974365234375
z: 0.001780388643965125
","x: 272.62750244140625
y: 344.0922546386719
z: 0.00249571749009192
","x: 278.90850830078125
y: 354.30023193359375
z: 0.0004053603915963322
","x: 278.3157043457031
y: 349.0882568359375
z: 0.0005958248511888087
","x: 277.548095703125
y: 347.34893798828125
z: 0.0009945015190169215
","x: 277.2515563964844
y: 346.8833923339844
z: 0.0016022279160097241
"
4,"x: 261.5316467285156
y: 296.1254577636719
z: -0.22516889870166779
visibility: 0.9999918937683105
","x: 264.0030822753906
y: 289.6468200683594
z: -0.20753684639930725
visibility: 0.9999909400939941
","x: 265.1058654785156
y: 289.5892639160156
z: -0.20758318901062012
visibility: 0.9999879002571106
","x: 266.2453308105469
y: 289.75360107421875
z: -0.20762741565704346
visibility: 0.9999876022338867
","x: 259.9779052734375
y: 289.6178283691406
z: -0.2092457264661789
visibility: 0.9999914169311523
","x: 258.3963623046875
y: 289.639892578125
z: -0.20927970111370087
visibility: 0.9999899864196777
","x: 256.8143615722656
y: 289.6994323730469
z: -0.20925971865653992
visibility: 0.9999898076057434
","x: 267.3515625
y: 294.59527587890625
z: -0.10194577276706696
visibility: 0.9999802708625793
","x: 254.37815856933594
y: 293.91656494140625
z: -0.11558413505554199
visibility: 0.9999839067459106
","x: 263.5775451660156
y: 303.5864562988281
z: -0.18647383153438568
visibility: 0.9999897480010986
","x: 258.0924377441406
y: 303.7369689941406
z: -0.18987596035003662
visibility: 0.9999911785125732
","x: 278.06365966796875
y: 338.7979431152344
z: -0.0646003782749176
visibility: 0.9999233484268188
","x: 238.22994995117188
y: 338.431640625
z: -0.04998716339468956
visibility: 0.9999389052391052
","x: 295.16058349609375
y: 373.3626708984375
z: -0.17145520448684692
visibility: 0.884056806564331
","x: 222.52407836914062
y: 370.52899169921875
z: -0.15318800508975983
visibility: 0.9932790398597717
","x: 285.8670654296875
y: 369.2043762207031
z: -0.3626309633255005
visibility: 0.9672756791114807
","x: 217.4723358154297
y: 369.6026611328125
z: -0.374141663312912
visibility: 0.9896767139434814
","x: 280.1015625
y: 366.81317138671875
z: -0.4056324064731598
visibility: 0.9446276426315308
","x: 215.5316162109375
y: 364.27545166015625
z: -0.4173782467842102
visibility: 0.9743772745132446
","x: 277.57000732421875
y: 361.444580078125
z: -0.4052630364894867
visibility: 0.9466826319694519
","x: 217.45989990234375
y: 359.3311767578125
z: -0.4251634478569031
visibility: 0.9731541275978088
","x: 278.9723815917969
y: 362.8614807128906
z: -0.3661997616291046
visibility: 0.9271477460861206
","x: 218.5576171875
y: 361.55291748046875
z: -0.3828543424606323
visibility: 0.9596964120864868
","x: 271.2784729003906
y: 443.02978515625
z: -0.005589940119534731
visibility: 0.9999213814735413
","x: 248.12864685058594
y: 445.3149719238281
z: 0.005541623570024967
visibility: 0.999923050403595
","x: 285.7063903808594
y: 514.3047485351562
z: 0.032062482088804245
visibility: 0.9975630044937134
","x: 232.57447814941406
y: 516.9542236328125
z: 0.017142202705144882
visibility: 0.9987756013870239
","x: 296.3291320800781
y: 577.662109375
z: 0.19375555217266083
visibility: 0.9967793822288513
","x: 228.97975158691406
y: 579.4324340820312
z: 0.16225601732730865
visibility: 0.9985719919204712
","x: 293.4871520996094
y: 588.72265625
z: 0.20337021350860596
visibility: 0.9773122668266296
","x: 231.25233459472656
y: 588.6033935546875
z: 0.17095454037189484
visibility: 0.9556944966316223
","x: 308.0893249511719
y: 597.404541015625
z: 0.11337264627218246
visibility: 0.9932853579521179
","x: 216.26834106445312
y: 600.6544189453125
z: 0.08142713457345963
visibility: 0.9955979585647583
","x: 214.08802795410156
y: 378.387939453125
z: 0.0
","x: 217.49147033691406
y: 375.6656188964844
z: -0.00382602890022099
","x: 219.66152954101562
y: 371.1764831542969
z: -0.005498762242496014
","x: 220.011474609375
y: 367.8770751953125
z: -0.007155934814363718
","x: 220.0729217529297
y: 364.84423828125
z: -0.008619350381195545
","x: 216.95774841308594
y: 358.69354248046875
z: -0.0008511315099895
","x: 216.93174743652344
y: 351.612548828125
z: -0.0025780661962926388
","x: 217.42092895507812
y: 348.1146240234375
z: -0.0039017493836581707
","x: 217.83607482910156
y: 345.4734802246094
z: -0.00464511988684535
","x: 214.35206604003906
y: 357.7862548828125
z: -0.000800838228315115
","x: 213.93185424804688
y: 349.9781799316406
z: -0.001771956798620522
","x: 214.07662963867188
y: 345.64593505859375
z: -0.002993118017911911
","x: 214.32595825195312
y: 342.2418518066406
z: -0.004013589583337307
","x: 212.0192108154297
y: 358.5321044921875
z: -0.0015327719738706946
","x: 211.3714599609375
y: 351.28900146484375
z: -0.002883407287299633
","x: 211.17282104492188
y: 347.1017150878906
z: -0.004331142175942659
","x: 211.1712188720703
y: 343.6442565917969
z: -0.005387782584875822
","x: 209.90357971191406
y: 360.67437744140625
z: -0.0028728574980050325
","x: 209.0001983642578
y: 354.8006591796875
z: -0.004178900271654129
","x: 208.4783477783203
y: 351.4784240722656
z: -0.00528219947591424
","x: 208.16677856445312
y: 348.70263671875
z: -0.006070476956665516
","x: 279.9142761230469
y: 373.467529296875
z: 0.0
","x: 275.558349609375
y: 372.685791015625
z: -0.0017550456104800105
","x: 271.477294921875
y: 369.28179931640625
z: -0.002544199349358678
","x: 268.0453796386719
y: 366.0788269042969
z: -0.003049179445952177
","x: 265.5408630371094
y: 364.4456787109375
z: -0.002901433501392603
","x: 272.7359619140625
y: 355.74285888671875
z: -0.000613611948210746
","x: 269.4140930175781
y: 347.1484069824219
z: -0.000536066887434572
","x: 268.23089599609375
y: 345.65753173828125
z: 0.0007106881821528077
","x: 267.88800048828125
y: 346.2054748535156
z: 0.002015556674450636
","x: 274.868408203125
y: 353.7613525390625
z: 2.2777132471674122e-05
","x: 272.36688232421875
y: 345.69110107421875
z: 0.0009844355517998338
","x: 270.96466064453125
y: 343.9961242675781
z: 0.0027578677982091904
","x: 270.34619140625
y: 344.09173583984375
z: 0.00406144792214036
","x: 276.99090576171875
y: 353.4864501953125
z: 0.0003636932815425098
","x: 275.2503967285156
y: 346.7132263183594
z: 0.0009035277180373669
","x: 273.57135009765625
y: 344.4974365234375
z: 0.001780388643965125
","x: 272.62750244140625
y: 344.0922546386719
z: 0.00249571749009192
","x: 278.90850830078125
y: 354.30023193359375
z: 0.0004053603915963322
","x: 278.3157043457031
y: 349.0882568359375
z: 0.0005958248511888087
","x: 277.548095703125
y: 347.34893798828125
z: 0.0009945015190169215
","x: 277.2515563964844
y: 346.8833923339844
z: 0.0016022279160097241
"
5,"x: 261.5316467285156
y: 296.1254577636719
z: -0.22516889870166779
visibility: 0.9999918937683105
","x: 264.0030822753906
y: 289.6468200683594
z: -0.20753684639930725
visibility: 0.9999909400939941
","x: 265.1058654785156
y: 289.5892639160156
z: -0.20758318901062012
visibility: 0.9999879002571106
","x: 266.2453308105469
y: 289.75360107421875
z: -0.20762741565704346
visibility: 0.9999876022338867
","x: 259.9779052734375
y: 289.6178283691406
z: -0.2092457264661789
visibility: 0.9999914169311523
","x: 258.3963623046875
y: 289.639892578125
z: -0.20927970111370087
visibility: 0.9999899864196777
","x: 256.8143615722656
y: 289.6994323730469
z: -0.20925971865653992
visibility: 0.9999898076057434
","x: 267.3515625
y: 294.59527587890625
z: -0.10194577276706696
visibility: 0.9999802708625793
","x: 254.37815856933594
y: 293.91656494140625
z: -0.11558413505554199
visibility: 0.9999839067459106
","x: 263.5775451660156
y: 303.5864562988281
z: -0.18647383153438568
visibility: 0.9999897480010986
","x: 258.0924377441406
y: 303.7369689941406
z: -0.18987596035003662
visibility: 0.9999911785125732
","x: 278.06365966796875
y: 338.7979431152344
z: -0.0646003782749176
visibility: 0.9999233484268188
","x: 238.22994995117188
y: 338.431640625
z: -0.04998716339468956
visibility: 0.9999389052391052
","x: 295.16058349609375
y: 373.3626708984375
z: -0.17145520448684692
visibility: 0.884056806564331
","x: 222.52407836914062
y: 370.52899169921875
z: -0.15318800508975983
visibility: 0.9932790398597717
","x: 285.8670654296875
y: 369.2043762207031
z: -0.3626309633255005
visibility: 0.9672756791114807
","x: 217.4723358154297
y: 369.6026611328125
z: -0.374141663312912
visibility: 0.9896767139434814
","x: 280.1015625
y: 366.81317138671875
z: -0.4056324064731598
visibility: 0.9446276426315308
","x: 215.5316162109375
y: 364.27545166015625
z: -0.4173782467842102
visibility: 0.9743772745132446
","x: 277.57000732421875
y: 361.444580078125
z: -0.4052630364894867
visibility: 0.9466826319694519
","x: 217.45989990234375
y: 359.3311767578125
z: -0.4251634478569031
visibility: 0.9731541275978088
","x: 278.9723815917969
y: 362.8614807128906
z: -0.3661997616291046
visibility: 0.9271477460861206
","x: 218.5576171875
y: 361.55291748046875
z: -0.3828543424606323
visibility: 0.9596964120864868
","x: 271.2784729003906
y: 443.02978515625
z: -0.005589940119534731
visibility: 0.9999213814735413
","x: 248.12864685058594
y: 445.3149719238281
z: 0.005541623570024967
visibility: 0.999923050403595
","x: 285.7063903808594
y: 514.3047485351562
z: 0.032062482088804245
visibility: 0.9975630044937134
","x: 232.57447814941406
y: 516.9542236328125
z: 0.017142202705144882
visibility: 0.9987756013870239
","x: 296.3291320800781
y: 577.662109375
z: 0.19375555217266083
visibility: 0.9967793822288513
","x: 228.97975158691406
y: 579.4324340820312
z: 0.16225601732730865
visibility: 0.9985719919204712
","x: 293.4871520996094
y: 588.72265625
z: 0.20337021350860596
visibility: 0.9773122668266296
","x: 231.25233459472656
y: 588.6033935546875
z: 0.17095454037189484
visibility: 0.9556944966316223
","x: 308.0893249511719
y: 597.404541015625
z: 0.11337264627218246
visibility: 0.9932853579521179
","x: 216.26834106445312
y: 600.6544189453125
z: 0.08142713457345963
visibility: 0.9955979585647583
","x: 214.08802795410156
y: 378.387939453125
z: 0.0
","x: 217.49147033691406
y: 375.6656188964844
z: -0.00382602890022099
","x: 219.66152954101562
y: 371.1764831542969
z: -0.005498762242496014
","x: 220.011474609375
y: 367.8770751953125
z: -0.007155934814363718
","x: 220.0729217529297
y: 364.84423828125
z: -0.008619350381195545
","x: 216.95774841308594
y: 358.69354248046875
z: -0.0008511315099895
","x: 216.93174743652344
y: 351.612548828125
z: -0.0025780661962926388
","x: 217.42092895507812
y: 348.1146240234375
z: -0.0039017493836581707
","x: 217.83607482910156
y: 345.4734802246094
z: -0.00464511988684535
","x: 214.35206604003906
y: 357.7862548828125
z: -0.000800838228315115
","x: 213.93185424804688
y: 349.9781799316406
z: -0.001771956798620522
","x: 214.07662963867188
y: 345.64593505859375
z: -0.002993118017911911
","x: 214.32595825195312
y: 342.2418518066406
z: -0.004013589583337307
","x: 212.0192108154297
y: 358.5321044921875
z: -0.0015327719738706946
","x: 211.3714599609375
y: 351.28900146484375
z: -0.002883407287299633
","x: 211.17282104492188
y: 347.1017150878906
z: -0.004331142175942659
","x: 211.1712188720703
y: 343.6442565917969
z: -0.005387782584875822
","x: 209.90357971191406
y: 360.67437744140625
z: -0.0028728574980050325
","x: 209.0001983642578
y: 354.8006591796875
z: -0.004178900271654129
","x: 208.4783477783203
y: 351.4784240722656
z: -0.00528219947591424
","x: 208.16677856445312
y: 348.70263671875
z: -0.006070476956665516
","x: 279.9142761230469
y: 373.467529296875
z: 0.0
","x: 275.558349609375
y: 372.685791015625
z: -0.0017550456104800105
","x: 271.477294921875
y: 369.28179931640625
z: -0.002544199349358678
","x: 268.0453796386719
y: 366.0788269042969
z: -0.003049179445952177
","x: 265.5408630371094
y: 364.4456787109375
z: -0.002901433501392603
","x: 272.7359619140625
y: 355.74285888671875
z: -0.000613611948210746
","x: 269.4140930175781
y: 347.1484069824219
z: -0.000536066887434572
","x: 268.23089599609375
y: 345.65753173828125
z: 0.0007106881821528077
","x: 267.88800048828125
y: 346.2054748535156
z: 0.002015556674450636
","x: 274.868408203125
y: 353.7613525390625
z: 2.2777132471674122e-05
","x: 272.36688232421875
y: 345.69110107421875
z: 0.0009844355517998338
","x: 270.96466064453125
y: 343.9961242675781
z: 0.0027578677982091904
","x: 270.34619140625
y: 344.09173583984375
z: 0.00406144792214036
","x: 276.99090576171875
y: 353.4864501953125
z: 0.0003636932815425098
","x: 275.2503967285156
y: 346.7132263183594
z: 0.0009035277180373669
","x: 273.57135009765625
y: 344.4974365234375
z: 0.001780388643965125
","x: 272.62750244140625
y: 344.0922546386719
z: 0.00249571749009192
","x: 278.90850830078125
y: 354.30023193359375
z: 0.0004053603915963322
","x: 278.3157043457031
y: 349.0882568359375
z: 0.0005958248511888087
","x: 277.548095703125
y: 347.34893798828125
z: 0.0009945015190169215
","x: 277.2515563964844
y: 346.8833923339844
z: 0.0016022279160097241
"
6,"x: 259.1874694824219
y: 289.9353332519531
z: -0.24456889927387238
visibility: 0.9999845027923584
","x: 261.6779479980469
y: 283.83941650390625
z: -0.23314502835273743
visibility: 0.9999688267707825
","x: 263.0444030761719
y: 284.3103332519531
z: -0.2331816703081131
visibility: 0.999963641166687
","x: 264.47723388671875
y: 284.95709228515625
z: -0.23321612179279327
visibility: 0.9999659657478333
","x: 257.29949951171875
y: 282.7652282714844
z: -0.23062065243721008
visibility: 0.999970555305481
","x: 255.71463012695312
y: 282.65216064453125
z: -0.2306530773639679
visibility: 0.999966561794281
","x: 254.20840454101562
y: 282.6417236328125
z: -0.2306380569934845
visibility: 0.9999682307243347
","x: 266.7758483886719
y: 288.7851867675781
z: -0.14184772968292236
visibility: 0.9999544024467468
","x: 252.11700439453125
y: 286.33929443359375
z: -0.1297234147787094
visibility: 0.9999390244483948
","x: 261.8686218261719
y: 297.9888000488281
z: -0.20857934653759003
visibility: 0.9999825954437256
","x: 256.0246276855469
y: 297.3387756347656
z: -0.20565447211265564
visibility: 0.9999802112579346
","x: 278.06964111328125
y: 326.1319580078125
z: -0.08295036852359772
visibility: 0.9999245405197144
","x: 238.4040069580078
y: 323.5819091796875
z: -0.03696712851524353
visibility: 0.9999285936355591
","x: 298.8402404785156
y: 350.38031005859375
z: -0.1451459527015686
visibility: 0.8952542543411255
","x: 225.1496124267578
y: 354.67230224609375
z: 0.055139053612947464
visibility: 0.9894808530807495
","x: 284.4165344238281
y: 376.61846923828125
z: -0.11620776355266571
visibility: 0.9680072665214539
","x: 223.57464599609375
y: 388.19677734375
z: 0.013800064101815224
visibility: 0.9833336472511292
","x: 280.3061218261719
y: 387.81427001953125
z: -0.13994473218917847
visibility: 0.9427816271781921
","x: 222.0403594970703
y: 399.47955322265625
z: -0.0024990125093609095
visibility: 0.9644595384597778
","x: 276.9676513671875
y: 384.9256591796875
z: -0.15803483128547668
visibility: 0.9445662498474121
","x: 223.9709014892578
y: 399.673095703125
z: -0.03253832086920738
visibility: 0.9643599987030029
","x: 277.4835205078125
y: 382.0069580078125
z: -0.12284556776285172
visibility: 0.9243817925453186
","x: 225.45501708984375
y: 396.77935791015625
z: 0.001045165117830038
visibility: 0.9511189460754395
","x: 268.6657409667969
y: 434.9840087890625
z: -0.010109346359968185
visibility: 0.9998739361763
","x: 246.3167724609375
y: 435.17010498046875
z: 0.01013257633894682
visibility: 0.9998873472213745
","x: 282.6633605957031
y: 511.4786376953125
z: 0.009727134369313717
visibility: 0.9974085092544556
","x: 233.14732360839844
y: 510.1548767089844
z: -0.0038177073001861572
visibility: 0.9987106323242188
","x: 292.35272216796875
y: 575.1819458007812
z: 0.15374188125133514
visibility: 0.996547520160675
","x: 226.8950958251953
y: 579.2520751953125
z: 0.12778668105602264
visibility: 0.9984959959983826
","x: 290.35870361328125
y: 585.371826171875
z: 0.1618090569972992
visibility: 0.9711885452270508
","x: 229.78065490722656
y: 589.1890869140625
z: 0.12668509781360626
visibility: 0.9560918807983398
","x: 298.0298767089844
y: 597.282470703125
z: 0.05834219604730606
visibility: 0.9926389455795288
","x: 214.35585021972656
y: 600.4102783203125
z: 0.024203721433877945
visibility: 0.9954664707183838
",,,,,,,,,,,,,,,,,,,,,,,,,,,,,,,,,,,,,,,,,,
7,"x: 260.5341491699219
y: 293.5753173828125
z: -0.26995277404785156
visibility: 0.9999804496765137
","x: 262.3409423828125
y: 288.073974609375
z: -0.25885137915611267
visibility: 0.9999501705169678
","x: 263.6459655761719
y: 288.4685363769531
z: -0.2588813900947571
visibility: 0.9999464154243469
","x: 264.96551513671875
y: 288.94329833984375
z: -0.2588805556297302
visibility: 0.9999486804008484
","x: 258.49981689453125
y: 287.2825012207031
z: -0.2560140788555145
visibility: 0.9999480247497559
","x: 257.0356750488281
y: 287.22723388671875
z: -0.25603392720222473
visibility: 0.9999432563781738
","x: 255.5714569091797
y: 287.2513122558594
z: -0.25605830550193787
visibility: 0.9999390244483948
","x: 266.9533996582031
y: 293.9123840332031
z: -0.17520715296268463
visibility: 0.9999058842658997
","x: 253.18179321289062
y: 292.13134765625
z: -0.16369260847568512
visibility: 0.9998343586921692
","x: 263.02618408203125
y: 302.2767028808594
z: -0.23799851536750793
visibility: 0.9999688863754272
","x: 257.8559875488281
y: 300.3930969238281
z: -0.234850212931633
visibility: 0.9999606013298035
","x: 278.2812805175781
y: 340.03369140625
z: -0.12172653526067734
visibility: 0.9999241232872009
","x: 239.1211700439453
y: 336.7127685546875
z: -0.07850068807601929
visibility: 0.999921977519989
","x: 290.4348449707031
y: 389.2913818359375
z: -0.09583015739917755
visibility: 0.9047763347625732
","x: 240.6222686767578
y: 392.8503112792969
z: -0.025738051161170006
visibility: 0.9788836240768433
","x: 286.2078552246094
y: 441.0682678222656
z: -0.15318194031715393
visibility: 0.9697325825691223
","x: 235.00091552734375
y: 443.3382873535156
z: -0.09118886291980743
visibility: 0.976581335067749
","x: 288.6739196777344
y: 456.1693115234375
z: -0.17551015317440033
visibility: 0.9451456069946289
","x: 225.27508544921875
y: 456.8287353515625
z: -0.11251431703567505
visibility: 0.9561173319816589
","x: 283.9104309082031
y: 457.1625061035156
z: -0.2035125195980072
visibility: 0.9469582438468933
","x: 230.27598571777344
y: 457.2618103027344
z: -0.14693410694599152
visibility: 0.9570716619491577
","x: 279.46722412109375
y: 452.08935546875
z: -0.16489389538764954
visibility: 0.9279311299324036
","x: 227.76463317871094
y: 452.6836853027344
z: -0.10696433484554291
visibility: 0.9438721537590027
","x: 271.1122741699219
y: 441.01318359375
z: -0.0030792304314672947
visibility: 0.9998743534088135
","x: 249.11721801757812
y: 438.20379638671875
z: 0.0030247685499489307
visibility: 0.9998906254768372
","x: 283.60369873046875
y: 517.3713989257812
z: 0.03669385239481926
visibility: 0.997252881526947
","x: 234.90158081054688
y: 512.3609619140625
z: 0.002084731590002775
visibility: 0.9986900091171265
","x: 290.1393737792969
y: 578.7095336914062
z: 0.177842378616333
visibility: 0.9964715242385864
","x: 226.89866638183594
y: 579.352294921875
z: 0.13313883543014526
visibility: 0.9984747171401978
","x: 287.506103515625
y: 588.3107299804688
z: 0.1895287036895752
visibility: 0.9690569639205933
","x: 229.53155517578125
y: 590.3763427734375
z: 0.1378723680973053
visibility: 0.9555822014808655
","x: 299.82501220703125
y: 597.322021484375
z: 0.093543142080307
visibility: 0.9924805760383606
","x: 214.33883666992188
y: 599.9672241210938
z: 0.036770038306713104
visibility: 0.9954633712768555
",,,,,,,,,,,,,,,,,,,,,,"x: 289.61529541015625
y: 442.5918884277344
z: 0.0
","x: 287.4795227050781
y: 449.162841796875
z: -0.0007391410181298852
","x: 286.9263610839844
y: 455.88653564453125
z: -0.0009754271013662219
","x: 286.9234924316406
y: 460.86822509765625
z: -0.0016558256465941668
","x: 286.8367919921875
y: 464.26910400390625
z: -0.0023511576000601053
","x: 289.6246032714844
y: 461.8412780761719
z: 0.0009355481597594917
","x: 289.46246337890625
y: 469.1851501464844
z: -0.0006450128275901079
","x: 289.2301330566406
y: 473.304443359375
z: -0.001797236269339919
","x: 289.0241394042969
y: 476.8899230957031
z: -0.002559722401201725
","x: 291.50860595703125
y: 461.35906982421875
z: -0.000415861199144274
","x: 292.28546142578125
y: 469.0508728027344
z: -0.0016812327085062861
","x: 292.51251220703125
y: 473.6065673828125
z: -0.002935423282906413
","x: 292.63800048828125
y: 477.58685302734375
z: -0.003973620943725109
","x: 293.13140869140625
y: 459.58978271484375
z: -0.002211266662925482
","x: 294.4034423828125
y: 466.0838317871094
z: -0.004089645575731993
","x: 294.8595275878906
y: 470.24066162109375
z: -0.005766469985246658
","x: 295.1502380371094
y: 474.0182189941406
z: -0.006879168562591076
","x: 294.4970397949219
y: 456.60382080078125
z: -0.004234961699694395
","x: 296.1112976074219
y: 460.93939208984375
z: -0.005983894225209951
","x: 296.92657470703125
y: 463.8101806640625
z: -0.007122550159692764
","x: 297.49737548828125
y: 466.49517822265625
z: -0.00789314229041338
"
8,"x: 260.5341491699219
y: 293.5753173828125
z: -0.26995277404785156
visibility: 0.9999804496765137
","x: 262.3409423828125
y: 288.073974609375
z: -0.25885137915611267
visibility: 0.9999501705169678
","x: 263.6459655761719
y: 288.4685363769531
z: -0.2588813900947571
visibility: 0.9999464154243469
","x: 264.96551513671875
y: 288.94329833984375
z: -0.2588805556297302
visibility: 0.9999486804008484
","x: 258.49981689453125
y: 287.2825012207031
z: -0.2560140788555145
visibility: 0.9999480247497559
","x: 257.0356750488281
y: 287.22723388671875
z: -0.25603392720222473
visibility: 0.9999432563781738
","x: 255.5714569091797
y: 287.2513122558594
z: -0.25605830550193787
visibility: 0.9999390244483948
","x: 266.9533996582031
y: 293.9123840332031
z: -0.17520715296268463
visibility: 0.9999058842658997
","x: 253.18179321289062
y: 292.13134765625
z: -0.16369260847568512
visibility: 0.9998343586921692
","x: 263.02618408203125
y: 302.2767028808594
z: -0.23799851536750793
visibility: 0.9999688863754272
","x: 257.8559875488281
y: 300.3930969238281
z: -0.234850212931633
visibility: 0.9999606013298035
","x: 278.2812805175781
y: 340.03369140625
z: -0.12172653526067734
visibility: 0.9999241232872009
","x: 239.1211700439453
y: 336.7127685546875
z: -0.07850068807601929
visibility: 0.999921977519989
","x: 290.4348449707031
y: 389.2913818359375
z: -0.09583015739917755
visibility: 0.9047763347625732
","x: 240.6222686767578
y: 392.8503112792969
z: -0.025738051161170006
visibility: 0.9788836240768433
","x: 286.2078552246094
y: 441.0682678222656
z: -0.15318194031715393
visibility: 0.9697325825691223
","x: 235.00091552734375
y: 443.3382873535156
z: -0.09118886291980743
visibility: 0.976581335067749
","x: 288.6739196777344
y: 456.1693115234375
z: -0.17551015317440033
visibility: 0.9451456069946289
","x: 225.27508544921875
y: 456.8287353515625
z: -0.11251431703567505
visibility: 0.9561173319816589
","x: 283.9104309082031
y: 457.1625061035156
z: -0.2035125195980072
visibility: 0.9469582438468933
","x: 230.27598571777344
y: 457.2618103027344
z: -0.14693410694599152
visibility: 0.9570716619491577
","x: 279.46722412109375
y: 452.08935546875
z: -0.16489389538764954
visibility: 0.9279311299324036
","x: 227.76463317871094
y: 452.6836853027344
z: -0.10696433484554291
visibility: 0.9438721537590027
","x: 271.1122741699219
y: 441.01318359375
z: -0.0030792304314672947
visibility: 0.9998743534088135
","x: 249.11721801757812
y: 438.20379638671875
z: 0.0030247685499489307
visibility: 0.9998906254768372
","x: 283.60369873046875
y: 517.3713989257812
z: 0.03669385239481926
visibility: 0.997252881526947
","x: 234.90158081054688
y: 512.3609619140625
z: 0.002084731590002775
visibility: 0.9986900091171265
","x: 290.1393737792969
y: 578.7095336914062
z: 0.177842378616333
visibility: 0.9964715242385864
","x: 226.89866638183594
y: 579.352294921875
z: 0.13313883543014526
visibility: 0.9984747171401978
","x: 287.506103515625
y: 588.3107299804688
z: 0.1895287036895752
visibility: 0.9690569639205933
","x: 229.53155517578125
y: 590.3763427734375
z: 0.1378723680973053
visibility: 0.9555822014808655
","x: 299.82501220703125
y: 597.322021484375
z: 0.093543142080307
visibility: 0.9924805760383606
","x: 214.33883666992188
y: 599.9672241210938
z: 0.036770038306713104
visibility: 0.9954633712768555
",,,,,,,,,,,,,,,,,,,,,,"x: 289.61529541015625
y: 442.5918884277344
z: 0.0
","x: 287.4795227050781
y: 449.162841796875
z: -0.0007391410181298852
","x: 286.9263610839844
y: 455.88653564453125
z: -0.0009754271013662219
","x: 286.9234924316406
y: 460.86822509765625
z: -0.0016558256465941668
","x: 286.8367919921875
y: 464.26910400390625
z: -0.0023511576000601053
","x: 289.6246032714844
y: 461.8412780761719
z: 0.0009355481597594917
","x: 289.46246337890625
y: 469.1851501464844
z: -0.0006450128275901079
","x: 289.2301330566406
y: 473.304443359375
z: -0.001797236269339919
","x: 289.0241394042969
y: 476.8899230957031
z: -0.002559722401201725
","x: 291.50860595703125
y: 461.35906982421875
z: -0.000415861199144274
","x: 292.28546142578125
y: 469.0508728027344
z: -0.0016812327085062861
","x: 292.51251220703125
y: 473.6065673828125
z: -0.002935423282906413
","x: 292.63800048828125
y: 477.58685302734375
z: -0.003973620943725109
","x: 293.13140869140625
y: 459.58978271484375
z: -0.002211266662925482
","x: 294.4034423828125
y: 466.0838317871094
z: -0.004089645575731993
","x: 294.8595275878906
y: 470.24066162109375
z: -0.005766469985246658
","x: 295.1502380371094
y: 474.0182189941406
z: -0.006879168562591076
","x: 294.4970397949219
y: 456.60382080078125
z: -0.004234961699694395
","x: 296.1112976074219
y: 460.93939208984375
z: -0.005983894225209951
","x: 296.92657470703125
y: 463.8101806640625
z: -0.007122550159692764
","x: 297.49737548828125
y: 466.49517822265625
z: -0.00789314229041338
"
9,"x: 262.5337829589844
y: 293.7485046386719
z: -0.2513125538825989
visibility: 0.9999808669090271
","x: 264.7410583496094
y: 288.4515075683594
z: -0.23693399131298065
visibility: 0.9999495148658752
","x: 266.1722412109375
y: 288.9319763183594
z: -0.2369193285703659
visibility: 0.999945342540741
","x: 267.56597900390625
y: 289.51397705078125
z: -0.2369081974029541
visibility: 0.9999473690986633
","x: 260.8686218261719
y: 287.60125732421875
z: -0.23942461609840393
visibility: 0.9999497532844543
","x: 259.56365966796875
y: 287.5425109863281
z: -0.23945553600788116
visibility: 0.999945878982544
","x: 258.302490234375
y: 287.554443359375
z: -0.23945145308971405
visibility: 0.9999422430992126
","x: 269.3983459472656
y: 295.36334228515625
z: -0.14461007714271545
visibility: 0.9999005794525146
","x: 255.90499877929688
y: 293.13885498046875
z: -0.15643785893917084
visibility: 0.9998441338539124
","x: 264.6944580078125
y: 302.3971862792969
z: -0.21632342040538788
visibility: 0.9999685287475586
","x: 260.1162109375
y: 300.91534423828125
z: -0.21985065937042236
visibility: 0.9999617338180542
","x: 281.2980041503906
y: 338.7901306152344
z: -0.0816204696893692
visibility: 0.9999255537986755
","x: 242.08193969726562
y: 341.5588684082031
z: -0.07926125824451447
visibility: 0.9999244213104248
","x: 296.5479736328125
y: 381.03704833984375
z: -0.01704319752752781
visibility: 0.9134924411773682
","x: 238.7357940673828
y: 388.5018615722656
z: -0.027765706181526184
visibility: 0.9790762662887573
","x: 290.0597229003906
y: 417.8100280761719
z: -0.06522582471370697
visibility: 0.9701359272003174
","x: 245.1441192626953
y: 430.44488525390625
z: -0.07837376743555069
visibility: 0.9727218151092529
","x: 292.20452880859375
y: 432.392822265625
z: -0.08575519919395447
visibility: 0.9443272352218628
","x: 244.552978515625
y: 444.4433898925781
z: -0.09819371998310089
visibility: 0.9478138089179993
","x: 287.7984924316406
y: 430.3687744140625
z: -0.11207073926925659
visibility: 0.9463120102882385
","x: 247.75637817382812
y: 442.28515625
z: -0.12249264866113663
visibility: 0.9490782022476196
","x: 284.44232177734375
y: 424.8489990234375
z: -0.07594405859708786
visibility: 0.9270343780517578
","x: 247.56631469726562
y: 437.37774658203125
z: -0.08809550851583481
visibility: 0.9345536231994629
","x: 280.53070068359375
y: 438.9381408691406
z: -0.003389233723282814
visibility: 0.9998486638069153
","x: 256.9615173339844
y: 438.8760070800781
z: 0.003368112724274397
visibility: 0.9998855590820312
","x: 288.0826721191406
y: 515.6437377929688
z: 0.029679324477910995
visibility: 0.9972806572914124
","x: 236.93197631835938
y: 509.85308837890625
z: -0.004129779990762472
visibility: 0.9986453056335449
","x: 290.4940185546875
y: 578.4561767578125
z: 0.1558910459280014
visibility: 0.996513307094574
","x: 227.31591796875
y: 578.5817260742188
z: 0.10022058337926865
visibility: 0.9984769821166992
","x: 286.7769775390625
y: 588.1790771484375
z: 0.16223375499248505
visibility: 0.9662454724311829
","x: 230.04962158203125
y: 590.0602416992188
z: 0.1019776314496994
visibility: 0.9561386704444885
","x: 299.8529968261719
y: 597.2598876953125
z: 0.05909191817045212
visibility: 0.9925105571746826
","x: 213.74143981933594
y: 598.6197509765625
z: -0.0012563904747366905
visibility: 0.9955207705497742
",,,,,,,,,,,,,,,,,,,,,,,,,,,,,,,,,,,,,,,,,,
10,"x: 267.55743408203125
y: 295.7474060058594
z: -0.23868438601493835
visibility: 0.9999762177467346
","x: 268.33551025390625
y: 290.7142333984375
z: -0.2310766875743866
visibility: 0.9999372959136963
","x: 269.38360595703125
y: 291.16497802734375
z: -0.23077483475208282
visibility: 0.9999226927757263
","x: 270.3870849609375
y: 291.67681884765625
z: -0.23074860870838165
visibility: 0.999926745891571
","x: 264.71063232421875
y: 289.87353515625
z: -0.23440146446228027
visibility: 0.9999485015869141
","x: 263.28509521484375
y: 289.7740783691406
z: -0.2342677116394043
visibility: 0.9999457001686096
","x: 261.87750244140625
y: 289.70477294921875
z: -0.23419654369354248
visibility: 0.9999444484710693
","x: 270.4982604980469
y: 297.0443115234375
z: -0.12082640826702118
visibility: 0.999850869178772
","x: 258.6043701171875
y: 295.02056884765625
z: -0.15110069513320923
visibility: 0.9998536109924316
","x: 268.613525390625
y: 304.3953552246094
z: -0.21356360614299774
visibility: 0.9999560713768005
","x: 264.4967956542969
y: 303.1363220214844
z: -0.21028193831443787
visibility: 0.9999592304229736
","x: 283.1156311035156
y: 337.2895812988281
z: -0.057311899960041046
visibility: 0.9998943209648132
","x: 244.36471557617188
y: 341.870361328125
z: -0.08396563678979874
visibility: 0.999924898147583
","x: 299.59625244140625
y: 358.8414306640625
z: 0.07943294942378998
visibility: 0.911395251750946
","x: 235.46673583984375
y: 383.3990783691406
z: -0.023121224716305733
visibility: 0.9794953465461731
","x: 288.9430847167969
y: 414.7315673828125
z: 0.1255159080028534
visibility: 0.9371647834777832
","x: 248.53294372558594
y: 416.07476806640625
z: -0.00021308581926859915
visibility: 0.9622737169265747
","x: 286.5087890625
y: 407.0874328613281
z: 0.12556004524230957
visibility: 0.8959124684333801
","x: 252.4706573486328
y: 424.4322509765625
z: -0.007377970963716507
visibility: 0.9273485541343689
","x: 283.5968933105469
y: 403.5525817871094
z: 0.10947593301534653
visibility: 0.8989924192428589
","x: 254.41534423828125
y: 421.6518859863281
z: -0.018082838505506516
visibility: 0.9285792112350464
","x: 283.2113037109375
y: 403.1064453125
z: 0.12115298211574554
visibility: 0.8760243058204651
","x: 253.27914428710938
y: 418.34368896484375
z: -0.0016061041969805956
visibility: 0.909712553024292
","x: 286.0982360839844
y: 436.6146240234375
z: 0.002948430832475424
visibility: 0.9997376799583435
","x: 263.00457763671875
y: 439.25244140625
z: -0.002952359151095152
visibility: 0.9998499155044556
","x: 289.74407958984375
y: 514.5665893554688
z: 0.02658718265593052
visibility: 0.996558666229248
","x: 241.15435791015625
y: 510.7738037109375
z: -0.054863620549440384
visibility: 0.9982143044471741
","x: 291.8694763183594
y: 577.9076538085938
z: 0.16479052603244781
visibility: 0.9958069324493408
","x: 224.80960083007812
y: 573.823974609375
z: 0.031835488975048065
visibility: 0.9982419610023499
","x: 288.5315856933594
y: 587.7840576171875
z: 0.17337341606616974
visibility: 0.95965975522995
","x: 225.46481323242188
y: 583.9161376953125
z: 0.0353546179831028
visibility: 0.9535810947418213
","x: 299.6155700683594
y: 596.5979614257812
z: 0.08068807423114777
visibility: 0.9910688400268555
","x: 212.21507263183594
y: 596.0032348632812
z: -0.06806227564811707
visibility: 0.9950188994407654
",,,,,,,,,,,,,,,,,,,,,,,,,,,,,,,,,,,,,,,,,,
11,"x: 268.4076232910156
y: 301.6781005859375
z: -0.2471332997083664
visibility: 0.9999743700027466
","x: 269.6468811035156
y: 296.70361328125
z: -0.2309465855360031
visibility: 0.9999351501464844
","x: 270.7252197265625
y: 297.1469421386719
z: -0.23088252544403076
visibility: 0.9999169111251831
","x: 271.7383117675781
y: 297.55352783203125
z: -0.2308865487575531
visibility: 0.999920666217804
","x: 265.91943359375
y: 295.3901062011719
z: -0.2378045618534088
visibility: 0.9999494552612305
","x: 264.4043884277344
y: 294.984375
z: -0.23781931400299072
visibility: 0.9999467730522156
","x: 262.94659423828125
y: 294.5888977050781
z: -0.2378140389919281
visibility: 0.9999468922615051
","x: 271.4839782714844
y: 301.5218811035156
z: -0.12167700380086899
visibility: 0.9998213052749634
","x: 259.0513916015625
y: 298.3121032714844
z: -0.15750274062156677
visibility: 0.9998641610145569
","x: 269.2652282714844
y: 309.02740478515625
z: -0.20792075991630554
visibility: 0.999947726726532
","x: 265.05413818359375
y: 307.46746826171875
z: -0.21653075516223907
visibility: 0.9999591708183289
","x: 281.78955078125
y: 339.05804443359375
z: -0.05871765688061714
visibility: 0.9998372793197632
","x: 245.0190887451172
y: 343.4389953613281
z: -0.0795988067984581
visibility: 0.9999256730079651
","x: 290.38873291015625
y: 362.8463439941406
z: 0.00456642173230648
visibility: 0.8994570374488831
","x: 234.0052032470703
y: 382.65130615234375
z: -0.0070169479586184025
visibility: 0.9784036874771118
","x: 274.6496887207031
y: 391.125732421875
z: -0.05340253561735153
visibility: 0.907804012298584
","x: 248.3479461669922
y: 413.769287109375
z: 0.00421780813485384
visibility: 0.9430719017982483
","x: 270.0286865234375
y: 390.0756530761719
z: -0.07345424592494965
visibility: 0.8604332208633423
","x: 252.78273010253906
y: 422.54150390625
z: -0.00463133305311203
visibility: 0.8950685262680054
","x: 268.86322021484375
y: 383.7799072265625
z: -0.09651452302932739
visibility: 0.8634836673736572
","x: 255.30712890625
y: 419.5834045410156
z: -0.016752853989601135
visibility: 0.896308183670044
","x: 270.09637451171875
y: 382.99212646484375
z: -0.06448615342378616
visibility: 0.835331916809082
","x: 254.37681579589844
y: 416.4469909667969
z: 0.0017735057044774294
visibility: 0.874657392501831
","x: 285.4638977050781
y: 436.8410949707031
z: 0.004888576455414295
visibility: 0.9997055530548096
","x: 263.15911865234375
y: 439.57586669921875
z: -0.004890552256256342
visibility: 0.9998437166213989
","x: 290.18621826171875
y: 513.8145141601562
z: 0.039871592074632645
visibility: 0.9963192343711853
","x: 243.66015625
y: 511.7291564941406
z: -0.03258008509874344
visibility: 0.9981426000595093
","x: 292.2449645996094
y: 577.657958984375
z: 0.19908468425273895
visibility: 0.995556652545929
","x: 224.906494140625
y: 573.9835205078125
z: 0.05350299924612045
visibility: 0.9981721043586731
","x: 289.103515625
y: 587.5260620117188
z: 0.21025657653808594
visibility: 0.9582421779632568
","x: 225.2667999267578
y: 583.400634765625
z: 0.06351602077484131
visibility: 0.9530364871025085
","x: 300.95538330078125
y: 596.5076293945312
z: 0.1158892959356308
visibility: 0.9906191229820251
","x: 212.0977325439453
y: 594.1138916015625
z: -0.03226747736334801
visibility: 0.9948121309280396
",,,,,,,,,,,,,,,,,,,,,,,,,,,,,,,,,,,,,,,,,,
12,"x: 266.5869140625
y: 300.9281005859375
z: -0.2411516010761261
visibility: 0.999973714351654
","x: 268.0796203613281
y: 295.4970703125
z: -0.22406427562236786
visibility: 0.9999359846115112
","x: 269.2276611328125
y: 295.8484191894531
z: -0.2240123450756073
visibility: 0.9999151229858398
","x: 270.339599609375
y: 296.18585205078125
z: -0.22403618693351746
visibility: 0.9999183416366577
","x: 264.311767578125
y: 294.4995422363281
z: -0.23175819218158722
visibility: 0.9999524354934692
","x: 262.7834167480469
y: 294.23199462890625
z: -0.23181109130382538
visibility: 0.9999502301216125
","x: 261.26513671875
y: 293.9922790527344
z: -0.23181584477424622
visibility: 0.9999510645866394
","x: 270.7015686035156
y: 300.22906494140625
z: -0.11865831911563873
visibility: 0.9998145699501038
","x: 257.2596740722656
y: 298.02532958984375
z: -0.157034769654274
visibility: 0.9998763799667358
","x: 267.8827819824219
y: 308.27008056640625
z: -0.2017083615064621
visibility: 0.999941885471344
","x: 263.2660827636719
y: 307.2179870605469
z: -0.2124619036912918
visibility: 0.9999601244926453
","x: 280.4752197265625
y: 339.012939453125
z: -0.04466427490115166
visibility: 0.9996130466461182
","x: 242.88267517089844
y: 342.79803466796875
z: -0.08619346469640732
visibility: 0.9999229907989502
","x: 287.5118103027344
y: 361.9879455566406
z: 0.12922915816307068
visibility: 0.866583526134491
","x: 226.7369384765625
y: 377.89532470703125
z: -0.01939280517399311
visibility: 0.979015588760376
","x: 276.43408203125
y: 382.5254821777344
z: 0.24071642756462097
visibility: 0.844007670879364
","x: 247.3824920654297
y: 408.9178161621094
z: 0.016513660550117493
visibility: 0.9269479513168335
","x: 272.46661376953125
y: 385.137939453125
z: 0.2561062276363373
visibility: 0.7939691543579102
","x: 249.5052947998047
y: 416.6578369140625
z: 0.015216141939163208
visibility: 0.8629444241523743
","x: 271.1020202636719
y: 379.7160339355469
z: 0.24405527114868164
visibility: 0.7968622446060181
","x: 251.8522491455078
y: 413.3384704589844
z: 0.0068516903556883335
visibility: 0.8634029030799866
","x: 272.45135498046875
y: 378.1795654296875
z: 0.23992173373699188
visibility: 0.7693468928337097
","x: 252.2799072265625
y: 410.5115966796875
z: 0.016463767737150192
visibility: 0.8410195708274841
","x: 282.7912292480469
y: 436.66265869140625
z: 0.005772658158093691
visibility: 0.9996673464775085
","x: 260.4554443359375
y: 439.7879333496094
z: -0.005752078257501125
visibility: 0.999824583530426
","x: 287.66571044921875
y: 512.728271484375
z: 0.017751362174749374
visibility: 0.995746374130249
","x: 240.89297485351562
y: 512.1068725585938
z: -0.030109217390418053
visibility: 0.9973186254501343
","x: 292.4503173828125
y: 577.5118408203125
z: 0.15956608951091766
visibility: 0.9948644638061523
","x: 223.31573486328125
y: 573.912109375
z: 0.06802546232938766
visibility: 0.9977203011512756
","x: 289.7384338378906
y: 587.4164428710938
z: 0.16909527778625488
visibility: 0.9508771300315857
","x: 223.28004455566406
y: 582.5360717773438
z: 0.07618801295757294
visibility: 0.9490044116973877
","x: 300.39202880859375
y: 596.515625
z: 0.08008600771427155
visibility: 0.9894837737083435
","x: 212.39102172851562
y: 593.6646118164062
z: -0.01644972711801529
visibility: 0.9939035773277283
",,,,,,,,,,,,,,,,,,,,,,,,,,,,,,,,,,,,,,,,,,
13,"x: 257.41644287109375
y: 298.6774597167969
z: -0.20169039070606232
visibility: 0.9999264478683472
","x: 259.2171325683594
y: 293.7027587890625
z: -0.18980368971824646
visibility: 0.9998160004615784
","x: 260.4714660644531
y: 294.0026550292969
z: -0.18974453210830688
visibility: 0.9997671842575073
","x: 261.7740783691406
y: 294.3914794921875
z: -0.189767524600029
visibility: 0.9997791051864624
","x: 255.7445526123047
y: 293.3714904785156
z: -0.19190841913223267
visibility: 0.9998782873153687
","x: 254.5099639892578
y: 293.34661865234375
z: -0.19197344779968262
visibility: 0.9998840689659119
","x: 253.26072692871094
y: 293.3480224609375
z: -0.1919916272163391
visibility: 0.999901294708252
","x: 263.280029296875
y: 299.40509033203125
z: -0.11113008111715317
visibility: 0.9996029734611511
","x: 250.38128662109375
y: 297.462646484375
z: -0.12166810035705566
visibility: 0.9998195171356201
","x: 259.2046203613281
y: 305.44183349609375
z: -0.17094285786151886
visibility: 0.9998679161071777
","x: 254.60801696777344
y: 305.00054931640625
z: -0.17465968430042267
visibility: 0.999904453754425
","x: 275.5860900878906
y: 338.04437255859375
z: -0.047538720071315765
visibility: 0.9995663166046143
","x: 236.46832275390625
y: 337.3852233886719
z: -0.06707774847745895
visibility: 0.9999101161956787
","x: 288.16937255859375
y: 353.9608154296875
z: 0.054889291524887085
visibility: 0.8710495233535767
","x: 214.29396057128906
y: 353.1263427734375
z: -0.0020873856265097857
visibility: 0.9784289002418518
","x: 273.4195556640625
y: 382.32342529296875
z: 0.11472105979919434
visibility: 0.8151786923408508
","x: 231.93972778320312
y: 387.9623718261719
z: 0.03728004917502403
visibility: 0.9049391746520996
","x: 268.7304382324219
y: 386.9940185546875
z: 0.11827286332845688
visibility: 0.7512731552124023
","x: 236.58795166015625
y: 400.4568176269531
z: 0.035241857171058655
visibility: 0.8289350271224976
","x: 266.04840087890625
y: 384.8192138671875
z: 0.111740842461586
visibility: 0.7536242604255676
","x: 239.4841766357422
y: 398.1228942871094
z: 0.028300166130065918
visibility: 0.8288906812667847
","x: 267.5821533203125
y: 381.00347900390625
z: 0.11490148305892944
visibility: 0.7250446677207947
","x: 238.80596923828125
y: 393.33270263671875
z: 0.03635818883776665
visibility: 0.8066584467887878
","x: 268.5020446777344
y: 436.8072204589844
z: 0.0038586189039051533
visibility: 0.9996227025985718
","x: 246.28411865234375
y: 438.90057373046875
z: -0.0038917611818760633
visibility: 0.9997569918632507
","x: 280.3858337402344
y: 511.1629943847656
z: -0.005754577461630106
visibility: 0.9952031970024109
","x: 232.0448455810547
y: 511.08251953125
z: -0.007600001059472561
visibility: 0.9970267415046692
","x: 291.9649353027344
y: 577.3577270507812
z: 0.11124080419540405
visibility: 0.9947670698165894
","x: 221.6351318359375
y: 573.0677490234375
z: 0.1123243123292923
visibility: 0.997406542301178
","x: 289.72894287109375
y: 587.3203735351562
z: 0.11772708594799042
visibility: 0.949499785900116
","x: 222.47982788085938
y: 581.3842163085938
z: 0.12066956609487534
visibility: 0.9454140663146973
","x: 301.0357971191406
y: 596.5711059570312
z: 0.028867289423942566
visibility: 0.9889464378356934
","x: 212.7069854736328
y: 592.9407348632812
z: 0.0365506112575531
visibility: 0.993116021156311
",,,,,,,,,,,,,,,,,,,,,,,,,,,,,,,,,,,,,,,,,,
14,"x: 246.7545928955078
y: 300.27288818359375
z: -0.23272188007831573
visibility: 0.9999048709869385
","x: 248.89349365234375
y: 294.73828125
z: -0.22498878836631775
visibility: 0.9997544288635254
","x: 250.2798614501953
y: 294.8703918457031
z: -0.22495809197425842
visibility: 0.9996899962425232
","x: 251.78662109375
y: 295.04071044921875
z: -0.22497045993804932
visibility: 0.9997091293334961
","x: 245.1748504638672
y: 294.47882080078125
z: -0.22055955231189728
visibility: 0.9998292922973633
","x: 243.8363494873047
y: 294.4044189453125
z: -0.22064414620399475
visibility: 0.9998224377632141
","x: 242.52789306640625
y: 294.4046630859375
z: -0.220677450299263
visibility: 0.999849259853363
","x: 255.09652709960938
y: 299.0666809082031
z: -0.14613333344459534
visibility: 0.9994545578956604
","x: 242.10768127441406
y: 298.1960754394531
z: -0.12867750227451324
visibility: 0.9997550845146179
","x: 249.63938903808594
y: 306.3291015625
z: -0.20259928703308105
visibility: 0.999833345413208
","x: 244.9976043701172
y: 306.2750244140625
z: -0.1977124661207199
visibility: 0.999876081943512
","x: 270.4294738769531
y: 337.7835388183594
z: -0.07382351160049438
visibility: 0.9995450973510742
","x: 230.61009216308594
y: 337.36669921875
z: -0.07773525267839432
visibility: 0.9999041557312012
","x: 287.1104431152344
y: 361.176513671875
z: -0.03223805874586105
visibility: 0.8818839192390442
","x: 208.33889770507812
y: 355.05841064453125
z: -0.02692415937781334
visibility: 0.9784762859344482
","x: 269.80999755859375
y: 394.9378967285156
z: -0.02997688017785549
visibility: 0.8121460676193237
","x: 229.02183532714844
y: 380.94830322265625
z: -0.00592786492779851
visibility: 0.8838178515434265
","x: 264.34197998046875
y: 402.54449462890625
z: -0.03812543675303459
visibility: 0.7307045459747314
","x: 233.5955810546875
y: 389.6299743652344
z: -0.015566051006317139
visibility: 0.7950553894042969
","x: 261.7354431152344
y: 399.86346435546875
z: -0.03602821007370949
visibility: 0.7329190373420715
","x: 235.63128662109375
y: 388.99163818359375
z: -0.019163286313414574
visibility: 0.7938547134399414
","x: 263.39166259765625
y: 396.8680419921875
z: -0.027029355987906456
visibility: 0.7031382322311401
","x: 234.7700958251953
y: 385.381103515625
z: -0.006224409677088261
visibility: 0.7718818783760071
","x: 255.37062072753906
y: 438.17510986328125
z: 0.005495854653418064
visibility: 0.999544620513916
","x: 234.57484436035156
y: 438.2061767578125
z: -0.005530997179448605
visibility: 0.999691903591156
","x: 271.03253173828125
y: 510.9920654296875
z: 0.0026206166949123144
visibility: 0.9919571280479431
","x: 227.1228485107422
y: 509.3371276855469
z: -0.0034504656214267015
visibility: 0.9966838359832764
","x: 290.29547119140625
y: 575.3690185546875
z: 0.09176430851221085
visibility: 0.9935692548751831
","x: 220.08558654785156
y: 573.2708129882812
z: 0.11513681709766388
visibility: 0.9966961145401001
","x: 288.8536682128906
y: 587.23193359375
z: 0.09528392553329468
visibility: 0.9483171701431274
","x: 220.43270874023438
y: 581.4718017578125
z: 0.12266144901514053
visibility: 0.936127781867981
","x: 303.92315673828125
y: 586.7803344726562
z: 0.0005388176068663597
visibility: 0.9868009090423584
","x: 212.5374755859375
y: 592.7095336914062
z: 0.027671074494719505
visibility: 0.9907576441764832
",,,,,,,,,,,,,,,,,,,,,,,,,,,,,,,,,,,,,,,,,,
15,"x: 241.51022338867188
y: 300.54840087890625
z: -0.2326243668794632
visibility: 0.999898374080658
","x: 243.8575439453125
y: 294.9100341796875
z: -0.22009405493736267
visibility: 0.9997320771217346
","x: 245.2113037109375
y: 294.9355773925781
z: -0.22006836533546448
visibility: 0.9996641278266907
","x: 246.5260467529297
y: 295.0277404785156
z: -0.2200804501771927
visibility: 0.9996780753135681
","x: 240.45396423339844
y: 295.0252685546875
z: -0.2174755036830902
visibility: 0.9998171329498291
","x: 239.4786376953125
y: 295.07537841796875
z: -0.21756330132484436
visibility: 0.999809980392456
","x: 238.49253845214844
y: 295.163330078125
z: -0.2176050841808319
visibility: 0.9998375773429871
","x: 250.3514404296875
y: 298.7432861328125
z: -0.1400061547756195
visibility: 0.9994064569473267
","x: 239.3208770751953
y: 298.63153076171875
z: -0.12314258515834808
visibility: 0.9997414350509644
","x: 244.62704467773438
y: 306.37493896484375
z: -0.19791179895401
visibility: 0.9998226761817932
","x: 240.67820739746094
y: 306.5845642089844
z: -0.1934855580329895
visibility: 0.999866783618927
","x: 267.61651611328125
y: 337.4543762207031
z: -0.06635384261608124
visibility: 0.999528169631958
","x: 228.9151153564453
y: 337.3881530761719
z: -0.07611720263957977
visibility: 0.9999039173126221
","x: 286.764892578125
y: 361.5242919921875
z: -0.01627148874104023
visibility: 0.8901046514511108
","x: 208.1029052734375
y: 358.9120178222656
z: -0.029064040631055832
visibility: 0.9784674048423767
","x: 268.480712890625
y: 396.5179443359375
z: 0.01300622709095478
visibility: 0.8020915985107422
","x: 227.32022094726562
y: 380.4637451171875
z: -0.0196214709430933
visibility: 0.8765496611595154
","x: 263.9508972167969
y: 406.6487121582031
z: 0.00777248153463006
visibility: 0.7040908932685852
","x: 231.94752502441406
y: 388.31549072265625
z: -0.030751850455999374
visibility: 0.7807689309120178
","x: 261.2518615722656
y: 403.4925537109375
z: -0.0018856776878237724
visibility: 0.7065768241882324
","x: 233.80276489257812
y: 386.95245361328125
z: -0.03431789204478264
visibility: 0.7785117030143738
","x: 262.440673828125
y: 399.6383361816406
z: 0.01145095843821764
visibility: 0.6758666038513184
","x: 232.78526306152344
y: 383.747802734375
z: -0.01974339783191681
visibility: 0.7542162537574768
","x: 255.2109375
y: 438.5889892578125
z: 0.006043135188519955
visibility: 0.9994428753852844
","x: 234.23721313476562
y: 438.09808349609375
z: -0.006064691115170717
visibility: 0.9996516108512878
","x: 270.2416687011719
y: 511.0371398925781
z: 0.0037263487465679646
visibility: 0.99039226770401
","x: 225.7335968017578
y: 508.000732421875
z: 0.0017879605293273926
visibility: 0.9965705871582031
","x: 290.23492431640625
y: 574.2931518554688
z: 0.0974903255701065
visibility: 0.9931136965751648
","x: 219.5053253173828
y: 573.2903442382812
z: 0.11822301149368286
visibility: 0.9964582920074463
","x: 288.5201110839844
y: 586.7919311523438
z: 0.1010955423116684
visibility: 0.9492338299751282
","x: 220.77488708496094
y: 581.503662109375
z: 0.12548284232616425
visibility: 0.9316709041595459
","x: 306.7460021972656
y: 584.1895751953125
z: 0.007787829730659723
visibility: 0.9860198497772217
","x: 212.72499084472656
y: 592.05810546875
z: 0.028195062652230263
visibility: 0.9897722601890564
",,,,,,,,,,,,,,,,,,,,,,,,,,,,,,,,,,,,,,,,,,
16,"x: 247.23561096191406
y: 299.66986083984375
z: -0.12065134197473526
visibility: 0.9998787045478821
","x: 247.64276123046875
y: 293.9633483886719
z: -0.12238490581512451
visibility: 0.9996745586395264
","x: 247.94671630859375
y: 293.8927917480469
z: -0.12240376323461533
visibility: 0.9995843172073364
","x: 248.20986938476562
y: 293.8990478515625
z: -0.12243369966745377
visibility: 0.9996198415756226
","x: 246.53611755371094
y: 294.06341552734375
z: -0.12409423291683197
visibility: 0.999763011932373
","x: 245.9473876953125
y: 294.0589599609375
z: -0.12411985546350479
visibility: 0.9997279644012451
","x: 245.12518310546875
y: 294.1144714355469
z: -0.1241598129272461
visibility: 0.9997770190238953
","x: 249.1861114501953
y: 296.4392395019531
z: -0.09610892832279205
visibility: 0.9992833733558655
","x: 243.91842651367188
y: 296.872314453125
z: -0.10188062489032745
visibility: 0.9996352791786194
","x: 248.05670166015625
y: 304.8272399902344
z: -0.10588426887989044
visibility: 0.9997720718383789
","x: 246.7086181640625
y: 304.87847900390625
z: -0.10817284882068634
visibility: 0.9998128414154053
","x: 264.0361022949219
y: 331.76080322265625
z: -0.0669965147972107
visibility: 0.9995278716087341
","x: 239.61398315429688
y: 327.28900146484375
z: -0.08267830312252045
visibility: 0.9998795390129089
","x: 269.84100341796875
y: 361.7183837890625
z: -0.0741603896021843
visibility: 0.8958866000175476
","x: 231.0027313232422
y: 352.55780029296875
z: -0.07745969295501709
visibility: 0.9746593236923218
","x: 265.5481262207031
y: 392.102783203125
z: -0.084946408867836
visibility: 0.7516064047813416
","x: 229.83274841308594
y: 384.1277770996094
z: -0.02689814567565918
visibility: 0.8286635279655457
","x: 258.052734375
y: 401.59014892578125
z: -0.09895928204059601
visibility: 0.6500245332717896
","x: 237.1523895263672
y: 389.1961364746094
z: -0.05580054968595505
visibility: 0.7303977608680725
","x: 255.82260131835938
y: 403.0021667480469
z: -0.0986967533826828
visibility: 0.6517379879951477
","x: 239.08497619628906
y: 387.7191162109375
z: -0.06533006578683853
visibility: 0.7282655835151672
","x: 257.2333068847656
y: 395.62841796875
z: -0.08521544933319092
visibility: 0.6254904866218567
","x: 237.91531372070312
y: 384.687744140625
z: -0.03622524067759514
visibility: 0.7070426344871521
","x: 255.4542236328125
y: 437.0239562988281
z: 0.006136610172688961
visibility: 0.9992685317993164
","x: 236.6271209716797
y: 432.777099609375
z: -0.006170137785375118
visibility: 0.999534547328949
","x: 259.4942321777344
y: 510.74993896484375
z: 0.03944336250424385
visibility: 0.9819203019142151
","x: 250.2555389404297
y: 505.56201171875
z: 0.018245698884129524
visibility: 0.9945128560066223
","x: 265.03936767578125
y: 570.8650512695312
z: 0.10132582485675812
visibility: 0.9917209148406982
","x: 254.47085571289062
y: 570.94873046875
z: 0.09568396955728531
visibility: 0.9958104491233826
","x: 264.0557556152344
y: 581.9842529296875
z: 0.10453584045171738
visibility: 0.9509026408195496
","x: 256.79547119140625
y: 579.8121337890625
z: 0.1010974645614624
visibility: 0.9337752461433411
","x: 272.96820068359375
y: 583.7452392578125
z: 0.032978881150484085
visibility: 0.9825696349143982
","x: 252.31309509277344
y: 590.3833618164062
z: 0.04582510143518448
visibility: 0.9875373244285583
",,,,,,,,,,,,,,,,,,,,,,,,,,,,,,,,,,,,,,,,,,
17,"x: 263.627197265625
y: 304.9677734375
z: -0.1624455600976944
visibility: 0.9998570680618286
","x: 263.3878479003906
y: 297.62860107421875
z: -0.15273331105709076
visibility: 0.9996123909950256
","x: 263.53790283203125
y: 297.3349304199219
z: -0.15272285044193268
visibility: 0.9995070099830627
","x: 263.64532470703125
y: 297.01055908203125
z: -0.15272894501686096
visibility: 0.9995434284210205
","x: 261.79119873046875
y: 297.43621826171875
z: -0.1608653962612152
visibility: 0.9997429847717285
","x: 260.720947265625
y: 297.0145263671875
z: -0.1609191596508026
visibility: 0.9997134804725647
","x: 259.54583740234375
y: 296.59259033203125
z: -0.16095413267612457
visibility: 0.9997686147689819
","x: 260.7532653808594
y: 298.0999450683594
z: -0.08095157146453857
visibility: 0.9990880489349365
","x: 254.59909057617188
y: 297.93133544921875
z: -0.11091236770153046
visibility: 0.999615490436554
","x: 262.7080383300781
y: 311.06341552734375
z: -0.13317731022834778
visibility: 0.9997401237487793
","x: 260.6751403808594
y: 310.8993225097656
z: -0.14411412179470062
visibility: 0.9998087286949158
","x: 272.7286071777344
y: 333.3677978515625
z: -0.044863514602184296
visibility: 0.9995419383049011
","x: 239.6092071533203
y: 328.4405822753906
z: -0.06964650750160217
visibility: 0.9998825788497925
","x: 294.4167785644531
y: 361.3197326660156
z: -0.04133915901184082
visibility: 0.9007193446159363
","x: 227.1784210205078
y: 365.2388000488281
z: -0.03822803497314453
visibility: 0.9758983254432678
","x: 266.5143127441406
y: 390.55487060546875
z: -0.1160506010055542
visibility: 0.752938985824585
","x: 237.1973876953125
y: 402.88916015625
z: -0.029734071344137192
visibility: 0.8347115516662598
","x: 260.6164855957031
y: 399.2391662597656
z: -0.14303164184093475
visibility: 0.6423212885856628
","x: 242.84597778320312
y: 410.0160217285156
z: -0.044372476637363434
visibility: 0.7336771488189697
","x: 256.46417236328125
y: 398.23828125
z: -0.14944417774677277
visibility: 0.6446958780288696
","x: 245.07806396484375
y: 406.7741394042969
z: -0.05169050768017769
visibility: 0.7319365739822388
","x: 258.410400390625
y: 393.72296142578125
z: -0.12050048261880875
visibility: 0.613184928894043
","x: 243.5069580078125
y: 404.0310974121094
z: -0.03125915676355362
visibility: 0.7065812349319458
","x: 273.44305419921875
y: 433.66815185546875
z: 0.004443180747330189
visibility: 0.9989267587661743
","x: 252.71487426757812
y: 433.7828063964844
z: -0.0043979668989777565
visibility: 0.9994982481002808
","x: 280.3802185058594
y: 508.26458740234375
z: 0.03493526577949524
visibility: 0.9828779101371765
","x: 245.62889099121094
y: 506.6384582519531
z: -0.05965731292963028
visibility: 0.9946666359901428
","x: 281.9965515136719
y: 568.7675170898438
z: 0.16850732266902924
visibility: 0.9914858937263489
","x: 232.281982421875
y: 571.2677612304688
z: 0.0027261576615273952
visibility: 0.995919406414032
","x: 281.116943359375
y: 579.14599609375
z: 0.17795008420944214
visibility: 0.9456100463867188
","x: 229.81402587890625
y: 580.314208984375
z: 0.003191025462001562
visibility: 0.9330438375473022
","x: 286.1611328125
y: 584.9389038085938
z: 0.08744259923696518
visibility: 0.9820182919502258
","x: 222.46597290039062
y: 590.8726806640625
z: -0.10535015165805817
visibility: 0.9878111481666565
",,,,,,,,,,,,,,,,,,,,,,,,,,,,,,,,,,,,,,,,,,
18,"x: 270.1781005859375
y: 311.18115234375
z: -0.2334355115890503
visibility: 0.9998671412467957
","x: 270.52752685546875
y: 304.5859375
z: -0.2199045717716217
visibility: 0.999639630317688
","x: 271.0733947753906
y: 304.25091552734375
z: -0.2198396921157837
visibility: 0.9995368123054504
","x: 271.55255126953125
y: 303.84588623046875
z: -0.2198217213153839
visibility: 0.9995688199996948
","x: 267.8286437988281
y: 304.709716796875
z: -0.2303003966808319
visibility: 0.9997647404670715
","x: 266.4739685058594
y: 304.47412109375
z: -0.23038046061992645
visibility: 0.999738335609436
","x: 265.0558776855469
y: 304.22747802734375
z: -0.23039710521697998
visibility: 0.9997892379760742
","x: 269.99993896484375
y: 303.5220947265625
z: -0.12339022010564804
visibility: 0.999133288860321
","x: 260.26318359375
y: 304.6993713378906
z: -0.17208215594291687
visibility: 0.9996507167816162
","x: 270.4217834472656
y: 317.0201416015625
z: -0.1949700266122818
visibility: 0.9997556209564209
","x: 266.88714599609375
y: 317.35272216796875
z: -0.20931923389434814
visibility: 0.9998248219490051
","x: 280.73895263671875
y: 339.4582824707031
z: -0.050927143543958664
visibility: 0.9995686411857605
","x: 244.58685302734375
y: 339.64990234375
z: -0.0994860902428627
visibility: 0.999891459941864
","x: 303.723388671875
y: 362.5738220214844
z: 0.02434820495545864
visibility: 0.9057167768478394
","x: 227.68972778320312
y: 372.0899658203125
z: -0.04092425853013992
visibility: 0.9778314828872681
","x: 282.79766845703125
y: 390.20391845703125
z: 0.013747687451541424
visibility: 0.7611711025238037
","x: 243.54354858398438
y: 410.481201171875
z: -0.014031022787094116
visibility: 0.8466113805770874
","x: 278.19287109375
y: 398.5645751953125
z: 0.003412308869883418
visibility: 0.6449499726295471
","x: 248.492431640625
y: 420.6824035644531
z: -0.020799333229660988
visibility: 0.7479639053344727
","x: 275.81402587890625
y: 396.7480163574219
z: -0.010886928997933865
visibility: 0.6479295492172241
","x: 250.485107421875
y: 417.4969787597656
z: -0.026638831943273544
visibility: 0.746364414691925
","x: 276.79302978515625
y: 393.51153564453125
z: 0.008775346912443638
visibility: 0.6135145425796509
","x: 248.78611755371094
y: 413.53863525390625
z: -0.012833209708333015
visibility: 0.719618558883667
","x: 282.0028381347656
y: 435.03961181640625
z: 0.00840805284678936
visibility: 0.9988800883293152
","x: 261.382080078125
y: 439.3666076660156
z: -0.008325723931193352
visibility: 0.9995128512382507
","x: 286.390625
y: 508.6197204589844
z: 0.04371434450149536
visibility: 0.984001100063324
","x: 245.30560302734375
y: 510.9552307128906
z: -0.06056401878595352
visibility: 0.9949455261230469
","x: 286.8598937988281
y: 568.596435546875
z: 0.21824534237384796
visibility: 0.9916441440582275
","x: 227.1862030029297
y: 571.5326538085938
z: 0.03132692724466324
visibility: 0.9961180686950684
","x: 286.4786376953125
y: 578.87158203125
z: 0.23110279440879822
visibility: 0.9456050395965576
","x: 226.25831604003906
y: 580.6207885742188
z: 0.03542468324303627
visibility: 0.9348546266555786
","x: 290.6693420410156
y: 585.4309692382812
z: 0.14510008692741394
visibility: 0.9822843074798584
","x: 215.70452880859375
y: 591.0578002929688
z: -0.07025431096553802
visibility: 0.9883373975753784
",,,,,,,,,,,,,,,,,,,,,,,,,,,,,,,,,,,,,,,,,,
19,"x: 262.923095703125
y: 308.81976318359375
z: -0.21134813129901886
visibility: 0.9998703598976135
","x: 266.2796630859375
y: 301.5732727050781
z: -0.21015973389148712
visibility: 0.9996504187583923
","x: 268.3589782714844
y: 300.8962707519531
z: -0.21013593673706055
visibility: 0.9995543956756592
","x: 270.7456359863281
y: 300.1974182128906
z: -0.21014375984668732
visibility: 0.9995858073234558
","x: 262.0758361816406
y: 302.15936279296875
z: -0.19983993470668793
visibility: 0.999768853187561
","x: 261.18505859375
y: 301.81048583984375
z: -0.19993188977241516
visibility: 0.9997468590736389
","x: 260.4010925292969
y: 301.4746398925781
z: -0.1999378651380539
visibility: 0.9997966885566711
","x: 268.0685119628906
y: 300.058837890625
z: -0.14482544362545013
visibility: 0.9991769194602966
","x: 257.8793640136719
y: 301.89208984375
z: -0.11433706432580948
visibility: 0.9996616244316101
","x: 268.69329833984375
y: 313.0592041015625
z: -0.18634139001369476
visibility: 0.9997698068618774
","x: 263.528564453125
y: 313.86602783203125
z: -0.17452004551887512
visibility: 0.9998316168785095
","x: 282.80816650390625
y: 333.8538818359375
z: -0.08122465759515762
visibility: 0.9995993971824646
","x: 246.35321044921875
y: 332.62353515625
z: -0.04845298081636429
visibility: 0.9998980760574341
","x: 303.4588317871094
y: 360.49371337890625
z: 0.018182726576924324
visibility: 0.9140625596046448
","x: 229.6293182373047
y: 356.1523742675781
z: 0.03763534873723984
visibility: 0.9775058031082153
","x: 283.8656921386719
y: 390.33880615234375
z: 0.02853217162191868
visibility: 0.7765392065048218
","x: 241.7361602783203
y: 397.0028991699219
z: 0.04072238504886627
visibility: 0.8448155522346497
","x: 278.84014892578125
y: 400.1919250488281
z: 0.02523922361433506
visibility: 0.6594151258468628
","x: 247.00218200683594
y: 419.3319091796875
z: 0.03144479915499687
visibility: 0.743018388748169
","x: 276.08526611328125
y: 398.1600341796875
z: 0.014610698446631432
visibility: 0.6620042324066162
","x: 248.27276611328125
y: 416.3456726074219
z: 0.019442308694124222
visibility: 0.7419185042381287
","x: 277.3668518066406
y: 394.64593505859375
z: 0.027945086359977722
visibility: 0.6254282593727112
","x: 246.98338317871094
y: 409.8990478515625
z: 0.037005819380283356
visibility: 0.7139949202537537
","x: 278.9790344238281
y: 433.955078125
z: -0.001184473978355527
visibility: 0.9989346265792847
","x: 255.03599548339844
y: 432.1129150390625
z: 0.0011795538011938334
visibility: 0.9995234608650208
","x: 281.36346435546875
y: 507.05218505859375
z: 0.01719992235302925
visibility: 0.9839966297149658
","x: 236.8280029296875
y: 501.70001220703125
z: -0.05095776915550232
visibility: 0.9950682520866394
","x: 287.2828063964844
y: 567.78857421875
z: 0.1502244770526886
visibility: 0.9915211200714111
","x: 222.93299865722656
y: 565.2479248046875
z: 0.04064416140317917
visibility: 0.9958677291870117
","x: 287.5499267578125
y: 577.398193359375
z: 0.15854734182357788
visibility: 0.9412047863006592
","x: 222.16143798828125
y: 574.7747192382812
z: 0.0453120656311512
visibility: 0.9284420013427734
","x: 293.32196044921875
y: 584.952392578125
z: 0.060372017323970795
visibility: 0.9820271730422974
","x: 215.83287048339844
y: 588.3690795898438
z: -0.05518373101949692
visibility: 0.9882195591926575
",,,,,,,,,,,,,,,,,,,,,,,,,,,,,,,,,,,,,,,,,,
20,"x: 252.55825805664062
y: 311.4185485839844
z: -0.22922959923744202
visibility: 0.9997768402099609
","x: 254.4552001953125
y: 304.99969482421875
z: -0.23020966351032257
visibility: 0.9994913935661316
","x: 255.78359985351562
y: 304.54400634765625
z: -0.23026058077812195
visibility: 0.9994405508041382
","x: 257.26739501953125
y: 304.03521728515625
z: -0.23033471405506134
visibility: 0.999493420124054
","x: 251.80337524414062
y: 305.26617431640625
z: -0.21540530025959015
visibility: 0.9994076490402222
","x: 251.2122039794922
y: 305.0141296386719
z: -0.2154274880886078
visibility: 0.9992947578430176
","x: 250.5836639404297
y: 304.76995849609375
z: -0.2154107391834259
visibility: 0.9992417097091675
","x: 259.8503723144531
y: 304.7273864746094
z: -0.17963287234306335
visibility: 0.9991604089736938
","x: 250.8035430908203
y: 305.4073486328125
z: -0.11782436072826385
visibility: 0.9984952211380005
","x: 255.46469116210938
y: 316.0633239746094
z: -0.20715627074241638
visibility: 0.9997293949127197
","x: 252.58291625976562
y: 316.43121337890625
z: -0.187978133559227
visibility: 0.9996609687805176
","x: 273.54632568359375
y: 341.5810852050781
z: -0.14952024817466736
visibility: 0.9996353387832642
","x: 240.7322998046875
y: 339.45758056640625
z: -0.012093163095414639
visibility: 0.9998043179512024
","x: 290.48431396484375
y: 378.8061218261719
z: -0.162995845079422
visibility: 0.922427237033844
","x: 231.3999481201172
y: 366.19390869140625
z: 0.03470947965979576
visibility: 0.9190796613693237
","x: 270.67156982421875
y: 416.1563415527344
z: -0.2216285765171051
visibility: 0.7972496151924133
","x: 234.66696166992188
y: 390.41033935546875
z: -0.08621366322040558
visibility: 0.8092737793922424
","x: 266.6043701171875
y: 426.3970642089844
z: -0.25203680992126465
visibility: 0.6888551712036133
","x: 234.5580596923828
y: 399.36297607421875
z: -0.11086084693670273
visibility: 0.7188792824745178
","x: 264.0538330078125
y: 420.096435546875
z: -0.26023057103157043
visibility: 0.6912307143211365
","x: 235.5094757080078
y: 397.4829406738281
z: -0.13798925280570984
visibility: 0.720091700553894
","x: 264.9806823730469
y: 417.27374267578125
z: -0.22389674186706543
visibility: 0.6559300422668457
","x: 236.3045196533203
y: 395.15753173828125
z: -0.1015053540468216
visibility: 0.6911857724189758
","x: 255.58950805664062
y: 436.8564453125
z: -0.03224526345729828
visibility: 0.9990054368972778
","x: 240.59388732910156
y: 433.0351257324219
z: 0.03233979269862175
visibility: 0.9995139241218567
","x: 264.97772216796875
y: 510.1598815917969
z: -0.03107011690735817
visibility: 0.9849402904510498
","x: 229.0422821044922
y: 503.1425476074219
z: 0.020666396245360374
visibility: 0.9944015145301819
","x: 284.796630859375
y: 567.3507080078125
z: 0.09408298134803772
visibility: 0.9919461011886597
","x: 221.37301635742188
y: 565.8411254882812
z: 0.14508411288261414
visibility: 0.995415210723877
","x: 286.3130187988281
y: 574.85888671875
z: 0.1020713597536087
visibility: 0.9426262378692627
","x: 222.03762817382812
y: 575.5823974609375
z: 0.15196530520915985
visibility: 0.9270147085189819
","x: 293.30731201171875
y: 585.4492797851562
z: 0.008038632571697235
visibility: 0.9827917814254761
","x: 212.99900817871094
y: 585.5068359375
z: 0.057452328503131866
visibility: 0.9873813390731812
",,,,,,,,,,,,,,,,,,,,,,,,,,,,,,,,,,,,,,,,,,
21,"x: 251.42515563964844
y: 304.0350341796875
z: -0.22180990874767303
visibility: 0.9997943043708801
","x: 252.86688232421875
y: 298.88494873046875
z: -0.21738412976264954
visibility: 0.9995275139808655
","x: 254.04470825195312
y: 299.0146484375
z: -0.21739692986011505
visibility: 0.9994816184043884
","x: 255.27792358398438
y: 299.23779296875
z: -0.21742932498455048
visibility: 0.9995304942131042
","x: 249.8705596923828
y: 298.7643737792969
z: -0.21073058247566223
visibility: 0.9994529485702515
","x: 248.9260711669922
y: 298.81378173828125
z: -0.21076317131519318
visibility: 0.9993494749069214
","x: 247.9451141357422
y: 298.9078063964844
z: -0.21074414253234863
visibility: 0.9992992281913757
","x: 256.9207763671875
y: 303.44195556640625
z: -0.14200785756111145
visibility: 0.9992225766181946
","x: 246.39730834960938
y: 302.78436279296875
z: -0.11971833556890488
visibility: 0.9986103773117065
","x: 253.47633361816406
y: 310.0940856933594
z: -0.19458678364753723
visibility: 0.9997476935386658
","x: 249.6521453857422
y: 309.5337219238281
z: -0.18810030817985535
visibility: 0.9996815919876099
","x: 269.3714904785156
y: 340.4513244628906
z: -0.07462617009878159
visibility: 0.999660074710846
","x: 233.54129028320312
y: 339.2860412597656
z: -0.03517546504735947
visibility: 0.999799370765686
","x: 285.1188049316406
y: 370.2252197265625
z: 0.01412983424961567
visibility: 0.9295138716697693
","x: 220.5393524169922
y: 363.0546569824219
z: 0.023294948041439056
visibility: 0.9246018528938293
","x: 274.3146057128906
y: 407.0986328125
z: 0.016578786075115204
visibility: 0.8150537014007568
","x: 224.0123748779297
y: 383.9632873535156
z: 0.04563885182142258
visibility: 0.8206276297569275
","x: 274.0498046875
y: 419.00628662109375
z: 0.010176737792789936
visibility: 0.7121772766113281
","x: 225.4171600341797
y: 393.70587158203125
z: 0.04151859134435654
visibility: 0.7313269972801208
","x: 271.3369140625
y: 416.4858703613281
z: -0.012715348973870277
visibility: 0.7149381637573242
","x: 228.08212280273438
y: 391.63067626953125
z: 0.02284526452422142
visibility: 0.7330306768417358
","x: 270.6244812011719
y: 412.8135681152344
z: 0.008999770507216454
visibility: 0.6816249489784241
","x: 228.51742553710938
y: 389.0248107910156
z: 0.039588090032339096
visibility: 0.7052807807922363
","x: 254.77337646484375
y: 436.4060974121094
z: -0.0066375331953167915
visibility: 0.9990582466125488
","x: 234.55653381347656
y: 433.3974609375
z: 0.00657071266323328
visibility: 0.9995233416557312
","x: 270.6490478515625
y: 504.9638366699219
z: -0.023202531039714813
visibility: 0.9859667420387268
","x: 225.9737091064453
y: 503.9446716308594
z: -0.00031761714490130544
visibility: 0.9946654438972473
","x: 284.1320495605469
y: 567.1275634765625
z: 0.08391650021076202
visibility: 0.9923383593559265
","x: 220.860595703125
y: 566.5018310546875
z: 0.11120001971721649
visibility: 0.9956292510032654
","x: 281.6402282714844
y: 575.7910766601562
z: 0.08938205987215042
visibility: 0.9453436136245728
","x: 222.4074249267578
y: 575.969482421875
z: 0.11745835840702057
visibility: 0.928247332572937
","x: 296.0559387207031
y: 585.7322387695312
z: -0.00039558933349326253
visibility: 0.9835734963417053
","x: 211.16299438476562
y: 585.6776123046875
z: 0.02214384824037552
visibility: 0.9879241585731506
",,,,,,,,,,,,,,,,,,,,,,,,,,,,,,,,,,,,,,,,,,
22,"x: 253.1069793701172
y: 297.27532958984375
z: -0.21919497847557068
visibility: 0.9998143911361694
","x: 254.34059143066406
y: 291.7718811035156
z: -0.20265550911426544
visibility: 0.9995729327201843
","x: 255.30958557128906
y: 292.10040283203125
z: -0.20270219445228577
visibility: 0.9995315670967102
","x: 256.28265380859375
y: 292.55926513671875
z: -0.20277610421180725
visibility: 0.9995754957199097
","x: 251.4755401611328
y: 290.9438171386719
z: -0.20713801681995392
visibility: 0.9995058178901672
","x: 250.45260620117188
y: 290.73590087890625
z: -0.20712459087371826
visibility: 0.999412477016449
","x: 249.39720153808594
y: 290.609619140625
z: -0.2070959508419037
visibility: 0.9993669390678406
","x: 256.667236328125
y: 296.33172607421875
z: -0.10303082317113876
visibility: 0.9992960095405579
","x: 246.94851684570312
y: 293.3401184082031
z: -0.12166823446750641
visibility: 0.9987462162971497
","x: 254.6011199951172
y: 304.21343994140625
z: -0.17960114777088165
visibility: 0.9997721314430237
","x: 250.98976135253906
y: 302.88250732421875
z: -0.18650060892105103
visibility: 0.9997127056121826
","x: 265.6231384277344
y: 338.73016357421875
z: -0.02117488533258438
visibility: 0.9996933341026306
","x: 233.5832977294922
y: 326.37432861328125
z: -0.07013033330440521
visibility: 0.9998184442520142
","x: 281.33905029296875
y: 374.20599365234375
z: 0.030049841850996017
visibility: 0.9349806308746338
","x: 221.68409729003906
y: 363.0814208984375
z: -0.09295163303613663
visibility: 0.930671215057373
","x: 298.22943115234375
y: 403.4808654785156
z: -0.0614115372300148
visibility: 0.8324648141860962
","x: 227.7904815673828
y: 396.3076477050781
z: -0.1999683678150177
visibility: 0.8357729911804199
","x: 306.37249755859375
y: 413.5048828125
z: -0.08821519464254379
visibility: 0.7384774088859558
","x: 230.10348510742188
y: 407.33050537109375
z: -0.23149451613426208
visibility: 0.7526788711547852
","x: 307.7607421875
y: 410.4220886230469
z: -0.12816905975341797
visibility: 0.7414891719818115
","x: 232.34622192382812
y: 407.051025390625
z: -0.24665994942188263
visibility: 0.7544831037521362
","x: 304.42877197265625
y: 407.5170593261719
z: -0.08280837535858154
visibility: 0.7109753489494324
","x: 232.7427520751953
y: 403.69024658203125
z: -0.20826928317546844
visibility: 0.7277954816818237
","x: 258.8470153808594
y: 430.3143615722656
z: 0.01706058159470558
visibility: 0.9991300106048584
","x: 239.15127563476562
y: 430.2601318359375
z: -0.017111074179410934
visibility: 0.9995540380477905
","x: 275.7676086425781
y: 500.04217529296875
z: -0.010034830309450626
visibility: 0.9870457053184509
","x: 228.43429565429688
y: 502.7999267578125
z: -0.040654707700014114
visibility: 0.9949674010276794
","x: 296.1912841796875
y: 558.4420166015625
z: 0.13752204179763794
visibility: 0.9926924705505371
","x: 219.87355041503906
y: 566.2879028320312
z: 0.1062636598944664
visibility: 0.9957835078239441
","x: 293.6240234375
y: 566.8395385742188
z: 0.1474718153476715
visibility: 0.9455541372299194
","x: 219.72264099121094
y: 574.9671630859375
z: 0.1152598038315773
visibility: 0.9247721433639526
","x: 304.9566955566406
y: 583.2843627929688
z: 0.03436742722988129
visibility: 0.9840993881225586
","x: 212.86517333984375
y: 586.0048828125
z: 0.012333186343312263
visibility: 0.9882445931434631
",,,,,,,,,,,,,,,,,,,,,,,,,,,,,,,,,,,,,,,,,,
23,"x: 261.12530517578125
y: 299.28350830078125
z: -0.17379119992256165
visibility: 0.9998302459716797
","x: 261.0775146484375
y: 292.57940673828125
z: -0.15269039571285248
visibility: 0.9996107220649719
","x: 261.33843994140625
y: 292.9756774902344
z: -0.15272516012191772
visibility: 0.9995724558830261
","x: 261.58062744140625
y: 293.389404296875
z: -0.15278904139995575
visibility: 0.999612033367157
","x: 259.2529296875
y: 291.04052734375
z: -0.17267408967018127
visibility: 0.999550998210907
","x: 258.2755432128906
y: 291.0540466308594
z: -0.17269380390644073
visibility: 0.9994670152664185
","x: 257.26751708984375
y: 291.17803955078125
z: -0.1727193295955658
visibility: 0.9994248151779175
","x: 257.3377685546875
y: 296.4540710449219
z: -0.0418049618601799
visibility: 0.999351978302002
","x: 252.2059783935547
y: 294.0314025878906
z: -0.1255200207233429
visibility: 0.9988654851913452
","x: 260.52862548828125
y: 306.1697998046875
z: -0.131129652261734
visibility: 0.9997851848602295
","x: 258.1383972167969
y: 304.9080505371094
z: -0.1586003601551056
visibility: 0.9997327327728271
","x: 267.75048828125
y: 338.5835266113281
z: 0.04549527168273926
visibility: 0.9997134208679199
","x: 237.29550170898438
y: 327.49908447265625
z: -0.12660817801952362
visibility: 0.9997760057449341
","x: 284.093505859375
y: 373.65435791015625
z: 0.07262351363897324
visibility: 0.9337800741195679
","x: 235.14453125
y: 369.8545837402344
z: -0.26986345648765564
visibility: 0.9312012791633606
","x: 304.9030456542969
y: 345.0201416015625
z: -0.006427467800676823
visibility: 0.8476844429969788
","x: 244.44894409179688
y: 356.61492919921875
z: -0.41833966970443726
visibility: 0.8459094166755676
","x: 311.9821472167969
y: 338.9001770019531
z: -0.01981314830482006
visibility: 0.7610961198806763
","x: 250.89935302734375
y: 351.69500732421875
z: -0.45508018136024475
visibility: 0.7666520476341248
","x: 312.870361328125
y: 335.643310546875
z: -0.03998265415430069
visibility: 0.7643619775772095
","x: 248.0384521484375
y: 347.5051574707031
z: -0.4486421048641205
visibility: 0.7676584124565125
","x: 310.2352600097656
y: 337.5226135253906
