uscmakers/ReverseChoreography/data/3_humble_kendrick_lamar.csv
,NOSE,LEFT_EYE_INNER,LEFT_EYE,LEFT_EYE_OUTER,RIGHT_EYE_INNER,RIGHT_EYE,RIGHT_EYE_OUTER,LEFT_EAR,RIGHT_EAR,MOUTH_LEFT,MOUTH_RIGHT,LEFT_SHOULDER,RIGHT_SHOULDER,LEFT_ELBOW,RIGHT_ELBOW,LEFT_WRIST,RIGHT_WRIST,LEFT_PINKY,RIGHT_PINKY,LEFT_INDEX,RIGHT_INDEX,LEFT_THUMB,RIGHT_THUMB,LEFT_HIP,RIGHT_HIP,LEFT_KNEE,RIGHT_KNEE,LEFT_ANKLE,RIGHT_ANKLE,LEFT_HEEL,RIGHT_HEEL,LEFT_FOOT_INDEX,RIGHT_FOOT_INDEX,WRIST,THUMB_CPC,THUMB_MCP,THUMB_IP,THUMB_TIP,INDEX_FINGER_MCP,INDEX_FINGER_PIP,INDEX_FINGER_DIP,INDEX_FINGER_TIP,MIDDLE_FINGER_MCP,MIDDLE_FINGER_PIP,MIDDLE_FINGER_DIP,MIDDLE_FINGER_TIP,RING_FINGER_PIP,RING_FINGER_DIP,RING_FINGER_TIP,RING_FINGER_MCP,PINKY_MCP,PINKY_PIP,PINKY_DIP,PINKY_TIP,WRIST2,THUMB_CPC2,THUMB_MCP2,THUMB_IP2,THUMB_TIP2,INDEX_FINGER_MCP2,INDEX_FINGER_PIP2,INDEX_FINGER_DIP2,INDEX_FINGER_TIP2,MIDDLE_FINGER_MCP2,MIDDLE_FINGER_PIP2,MIDDLE_FINGER_DIP2,MIDDLE_FINGER_TIP2,RING_FINGER_PIP2,RING_FINGER_DIP2,RING_FINGER_TIP2,RING_FINGER_MCP2,PINKY_MCP2,PINKY_PIP2,PINKY_DIP2,PINKY_TIP2
0,"x: 213.8824462890625
y: 316.0653381347656
z: -0.2195446789264679
visibility: 0.9999538660049438
","x: 215.89027404785156
y: 312.22943115234375
z: -0.20519737899303436
visibility: 0.9998672008514404
","x: 216.99429321289062
y: 312.8267822265625
z: -0.20518259704113007
visibility: 0.9998239874839783
","x: 218.01815795898438
y: 313.3358154296875
z: -0.20515194535255432
visibility: 0.9998230338096619
","x: 212.49234008789062
y: 310.44769287109375
z: -0.20947761833667755
visibility: 0.999909520149231
","x: 211.22364807128906
y: 309.78857421875
z: -0.2094840705394745
visibility: 0.9998971223831177
","x: 209.99957275390625
y: 308.9805908203125
z: -0.20949366688728333
visibility: 0.999914288520813
","x: 218.5894012451172
y: 316.2515563964844
z: -0.11088678985834122
visibility: 0.9993938207626343
","x: 207.1685028076172
y: 310.5242919921875
z: -0.13579250872135162
visibility: 0.9998078942298889
","x: 214.92352294921875
y: 321.9688415527344
z: -0.18352466821670532
visibility: 0.999890923500061
","x: 210.9342498779297
y: 320.02740478515625
z: -0.1906401365995407
visibility: 0.9999581575393677
","x: 225.40989685058594
y: 348.5796813964844
z: -0.04395412653684616
visibility: 0.9998688697814941
","x: 193.2290496826172
y: 345.8919982910156
z: -0.07268673181533813
visibility: 0.9999736547470093
","x: 234.5396728515625
y: 379.2779846191406
z: 0.004490945488214493
visibility: 0.9667383432388306
","x: 184.11448669433594
y: 378.9706115722656
z: -0.03510121628642082
visibility: 0.989507257938385
","x: 229.61256408691406
y: 413.7764892578125
z: -0.0659613162279129
visibility: 0.9611257910728455
","x: 188.75094604492188
y: 414.97869873046875
z: -0.09088004380464554
visibility: 0.9500988721847534
","x: 228.34886169433594
y: 426.4419250488281
z: -0.08910316228866577
visibility: 0.9254536628723145
","x: 190.0123291015625
y: 424.7372131347656
z: -0.11097154766321182
visibility: 0.9090803265571594
","x: 225.88832092285156
y: 424.6548767089844
z: -0.1107911616563797
visibility: 0.92497718334198
","x: 192.4420623779297
y: 424.71331787109375
z: -0.13158822059631348
visibility: 0.9116548895835876
","x: 225.55393981933594
y: 420.22357177734375
z: -0.07533062249422073
visibility: 0.9003867506980896
","x: 192.2867889404297
y: 421.0856628417969
z: -0.09924977272748947
visibility: 0.8919647932052612
","x: 219.14744567871094
y: 433.4121398925781
z: 0.02217520959675312
visibility: 0.9994876384735107
","x: 202.0452423095703
y: 431.7892150878906
z: -0.022161582484841347
visibility: 0.9999072551727295
","x: 220.32801818847656
y: 489.8210144042969
z: 0.10613808780908585
visibility: 0.9647316336631775
","x: 199.98724365234375
y: 492.39697265625
z: -0.0592522919178009
visibility: 0.9956045150756836
","x: 206.78778076171875
y: 534.197021484375
z: 0.28578096628189087
visibility: 0.9551137089729309
","x: 196.5909881591797
y: 551.7272338867188
z: 0.014707875438034534
visibility: 0.9928476810455322
","x: 202.67466735839844
y: 544.8184814453125
z: 0.3002736568450928
visibility: 0.9114469885826111
","x: 195.3289337158203
y: 561.5748901367188
z: 0.01744229532778263
visibility: 0.904202938079834
","x: 217.32579040527344
y: 549.2515869140625
z: 0.24135306477546692
visibility: 0.9604550004005432
","x: 198.6175537109375
y: 570.534423828125
z: -0.08195092529058456
visibility: 0.987206220626831
",,,,,,,,,,,,,,,,,,,,,,,,,,,,,,,,,,,,,,,,,,
1,"x: 212.92025756835938
y: 315.2635498046875
z: -0.16556185483932495
visibility: 0.9994572401046753
","x: 214.79177856445312
y: 311.1005554199219
z: -0.15226906538009644
visibility: 0.9986719489097595
","x: 215.7528533935547
y: 311.5130920410156
z: -0.1522851437330246
visibility: 0.9981303811073303
","x: 216.67868041992188
y: 311.8080749511719
z: -0.15227851271629333
visibility: 0.9979859590530396
","x: 211.7267608642578
y: 309.1514892578125
z: -0.15579187870025635
visibility: 0.9991214275360107
","x: 210.51564025878906
y: 308.25628662109375
z: -0.15579143166542053
visibility: 0.9990759491920471
","x: 209.26583862304688
y: 307.3515930175781
z: -0.1558557003736496
visibility: 0.9992517828941345
","x: 217.15481567382812
y: 315.0807800292969
z: -0.0672890916466713
visibility: 0.9963482022285461
","x: 205.75015258789062
y: 309.81256103515625
z: -0.08418899774551392
visibility: 0.999068021774292
","x: 213.93209838867188
y: 321.74658203125
z: -0.13232457637786865
visibility: 0.9992057681083679
","x: 210.0341796875
y: 319.62921142578125
z: -0.13735400140285492
visibility: 0.9997280240058899
","x: 222.8959197998047
y: 340.9358215332031
z: -0.03293188661336899
visibility: 0.9992802739143372
","x: 192.57571411132812
y: 338.5007019042969
z: -0.06899677962064743
visibility: 0.9999394416809082
","x: 231.96022033691406
y: 358.7995910644531
z: -0.1421855241060257
visibility: 0.9646883606910706
","x: 182.3097686767578
y: 362.5399475097656
z: -0.1713220477104187
visibility: 0.9897258281707764
","x: 211.6162109375
y: 343.5834045410156
z: -0.26191335916519165
visibility: 0.9559643864631653
","x: 201.3457489013672
y: 347.9061584472656
z: -0.26203587651252747
visibility: 0.9519217610359192
","x: 207.1907501220703
y: 336.5165710449219
z: -0.2925227880477905
visibility: 0.9145940542221069
","x: 206.24847412109375
y: 344.1305236816406
z: -0.28846997022628784
visibility: 0.9097963571548462
","x: 207.2163848876953
y: 334.31475830078125
z: -0.2757968604564667
visibility: 0.9120115041732788
","x: 206.70458984375
y: 343.265380859375
z: -0.27607741951942444
visibility: 0.9108103513717651
","x: 208.17823791503906
y: 337.16650390625
z: -0.2587425112724304
visibility: 0.8860791921615601
","x: 205.45681762695312
y: 345.3320617675781
z: -0.2583083212375641
visibility: 0.8888763189315796
","x: 215.61526489257812
y: 431.6210632324219
z: 0.022175166755914688
visibility: 0.9994043707847595
","x: 198.6236572265625
y: 430.07708740234375
z: -0.022163666784763336
visibility: 0.9998680949211121
","x: 219.2370147705078
y: 488.75872802734375
z: 0.07441098988056183
visibility: 0.9512300491333008
","x: 198.93490600585938
y: 491.0413818359375
z: -0.02616395428776741
visibility: 0.99347323179245
","x: 205.53509521484375
y: 534.0174560546875
z: 0.26287972927093506
visibility: 0.9264193773269653
","x: 196.9622802734375
y: 551.2841796875
z: 0.06886304914951324
visibility: 0.988800585269928
","x: 202.2378387451172
y: 542.5194091796875
z: 0.28003013134002686
visibility: 0.8855597972869873
","x: 195.6001739501953
y: 560.3707275390625
z: 0.07526565343141556
visibility: 0.8888079524040222
","x: 216.9951171875
y: 549.3577880859375
z: 0.23309750854969025
visibility: 0.9431242346763611
","x: 201.45870971679688
y: 570.0921630859375
z: -0.005528533365577459
visibility: 0.9814501404762268
",,,,,,,,,,,,,,,,,,,,,,,,,,,,,,,,,,,,,,,,,,
2,"x: 212.55630493164062
y: 315.8841247558594
z: -0.24656906723976135
visibility: 0.9995030164718628
","x: 214.03106689453125
y: 311.70050048828125
z: -0.2297331541776657
visibility: 0.9987877011299133
","x: 214.7021484375
y: 311.935791015625
z: -0.22967755794525146
visibility: 0.9982911944389343
","x: 215.4351806640625
y: 312.11907958984375
z: -0.22969648241996765
visibility: 0.9981644153594971
","x: 211.7030029296875
y: 310.6673889160156
z: -0.23897269368171692
visibility: 0.9991994500160217
","x: 210.52066040039062
y: 310.2762451171875
z: -0.2390032261610031
visibility: 0.9991570711135864
","x: 209.43470764160156
y: 309.9404602050781
z: -0.2390231192111969
visibility: 0.9993180632591248
","x: 215.47564697265625
y: 315.1009826660156
z: -0.12837344408035278
visibility: 0.9966546893119812
","x: 206.06869506835938
y: 311.8816223144531
z: -0.1724427342414856
visibility: 0.9991529583930969
","x: 213.36891174316406
y: 321.74615478515625
z: -0.2079029530286789
visibility: 0.9992697238922119
","x: 210.05950927734375
y: 320.23553466796875
z: -0.2206232249736786
visibility: 0.999748945236206
","x: 220.6028594970703
y: 342.19549560546875
z: -0.06341902166604996
visibility: 0.9992809295654297
","x: 191.68426513671875
y: 339.52593994140625
z: -0.15072664618492126
visibility: 0.9999237060546875
","x: 236.8629150390625
y: 344.11859130859375
z: -0.17139104008674622
visibility: 0.9674399495124817
","x: 170.55551147460938
y: 343.80987548828125
z: -0.28389233350753784
visibility: 0.9906487464904785
","x: 229.3304443359375
y: 326.48614501953125
z: -0.3171156942844391
visibility: 0.9576066732406616
","x: 184.9443359375
y: 321.8907165527344
z: -0.4005421996116638
visibility: 0.9556483626365662
","x: 226.8239288330078
y: 323.5726318359375
z: -0.3481758236885071
visibility: 0.9122905731201172
","x: 189.50160217285156
y: 322.0730895996094
z: -0.43134522438049316
visibility: 0.9144023060798645
","x: 224.4129638671875
y: 324.30865478515625
z: -0.3381916582584381
visibility: 0.9092816114425659
","x: 190.80587768554688
y: 322.6528625488281
z: -0.4157010614871979
visibility: 0.9145258069038391
","x: 224.85067749023438
y: 326.4975280761719
z: -0.3180123567581177
visibility: 0.8837572932243347
","x: 189.65274047851562
y: 323.83624267578125
z: -0.3968302607536316
visibility: 0.8924407958984375
","x: 214.18246459960938
y: 427.41375732421875
z: 0.03777506574988365
visibility: 0.9992570281028748
","x: 199.09832763671875
y: 425.9603576660156
z: -0.037934593856334686
visibility: 0.9997650980949402
","x: 215.30740356445312
y: 488.10870361328125
z: 0.036025725305080414
visibility: 0.939577043056488
","x: 199.29843139648438
y: 486.65032958984375
z: -0.045182641595602036
visibility: 0.9910303354263306
","x: 205.423095703125
y: 534.323486328125
z: 0.19796571135520935
visibility: 0.9196717739105225
","x: 198.05978393554688
y: 546.4859619140625
z: 0.06812227517366409
visibility: 0.9865149259567261
","x: 202.246826171875
y: 542.6055908203125
z: 0.21008391678333282
visibility: 0.8798398971557617
","x: 196.2783966064453
y: 556.5953979492188
z: 0.07560384273529053
visibility: 0.877859890460968
","x: 215.49868774414062
y: 550.3856811523438
z: 0.13922160863876343
visibility: 0.9378660321235657
","x: 201.8890380859375
y: 565.669189453125
z: -0.018146585673093796
visibility: 0.9780997037887573
",,,,,,,,,,,,,,,,,,,,,,,,,,,,,,,,,,,,,,,,,,
3,"x: 214.10931396484375
y: 319.7225646972656
z: -0.13265350461006165
visibility: 0.9995418190956116
","x: 214.74945068359375
y: 315.3512878417969
z: -0.1162322536110878
visibility: 0.9988747239112854
","x: 215.0771484375
y: 315.531982421875
z: -0.11624058336019516
visibility: 0.9984104037284851
","x: 215.489990234375
y: 315.6619567871094
z: -0.1162675991654396
visibility: 0.9982979893684387
","x: 212.90162658691406
y: 314.31549072265625
z: -0.13222965598106384
visibility: 0.9992647171020508
","x: 211.9146728515625
y: 313.8698425292969
z: -0.13225311040878296
visibility: 0.9992250204086304
","x: 210.95919799804688
y: 313.44189453125
z: -0.13229423761367798
visibility: 0.9993732571601868
","x: 215.4004669189453
y: 317.2919921875
z: -0.034480221569538116
visibility: 0.9968787431716919
","x: 207.11346435546875
y: 314.28289794921875
z: -0.11008886992931366
visibility: 0.9992262721061707
","x: 213.73171997070312
y: 324.4872741699219
z: -0.10128702223300934
visibility: 0.9993167519569397
","x: 211.2256317138672
y: 323.7841491699219
z: -0.12281130254268646
visibility: 0.9997665882110596
","x: 220.50555419921875
y: 344.6104431152344
z: 0.026281410828232765
visibility: 0.9993069767951965
","x: 191.54763793945312
y: 340.3074951171875
z: -0.12565472722053528
visibility: 0.9999217987060547
","x: 238.4963836669922
y: 353.5716247558594
z: 0.04037489369511604
visibility: 0.9696707129478455
","x: 168.99899291992188
y: 349.289794921875
z: -0.14855048060417175
visibility: 0.9915420413017273
","x: 247.44500732421875
y: 316.3458251953125
z: -0.024846350774168968
visibility: 0.9611276984214783
","x: 163.6584930419922
y: 311.2884216308594
z: -0.23782746493816376
visibility: 0.9600121378898621
","x: 251.74729919433594
y: 306.11724853515625
z: -0.036600008606910706
visibility: 0.9182946085929871
","x: 161.3468780517578
y: 300.07977294921875
z: -0.2695048451423645
visibility: 0.922609806060791
","x: 250.73818969726562
y: 304.8669738769531
z: -0.041168078780174255
visibility: 0.9157189726829529
","x: 162.47560119628906
y: 298.3407287597656
z: -0.2928614020347595
visibility: 0.922709584236145
","x: 248.98890686035156
y: 308.44915771484375
z: -0.031353749334812164
visibility: 0.8926759958267212
","x: 163.6946563720703
y: 302.2216491699219
z: -0.24146005511283875
visibility: 0.9026407599449158
","x: 214.93443298339844
y: 428.78302001953125
z: 0.04140155017375946
visibility: 0.9992241263389587
","x: 199.14871215820312
y: 427.15325927734375
z: -0.04146002605557442
visibility: 0.9997199773788452
","x: 218.34144592285156
y: 492.4935607910156
z: 0.04009781777858734
visibility: 0.935631513595581
","x: 198.71292114257812
y: 486.3392639160156
z: -0.08285598456859589
visibility: 0.9882886409759521
","x: 203.3098602294922
y: 535.3601684570312
z: 0.1772719919681549
visibility: 0.9061786532402039
","x: 197.7922821044922
y: 546.5446166992188
z: -0.005400157067924738
visibility: 0.9828357696533203
","x: 199.77719116210938
y: 542.4078979492188
z: 0.18822996318340302
visibility: 0.8674540519714355
","x: 195.66006469726562
y: 555.02587890625
z: -0.0013914259616285563
visibility: 0.8743391036987305
","x: 211.40713500976562
y: 553.1138305664062
z: 0.13734976947307587
visibility: 0.929135799407959
","x: 201.55880737304688
y: 566.2615966796875
z: -0.085341677069664
visibility: 0.9753444194793701
",,,,,,,,,,,,,,,,,,,,,,,,,,,,,,,,,,,,,,,,,,
4,"x: 215.01060485839844
y: 321.4025573730469
z: -0.13467203080654144
visibility: 0.9995770454406738
","x: 215.797607421875
y: 316.75958251953125
z: -0.11782902479171753
visibility: 0.998955249786377
","x: 216.10324096679688
y: 316.97528076171875
z: -0.11785461008548737
visibility: 0.9985252618789673
","x: 216.39767456054688
y: 317.1237487792969
z: -0.11788196861743927
visibility: 0.9984237551689148
","x: 213.89724731445312
y: 315.26806640625
z: -0.1325407773256302
visibility: 0.9993203282356262
","x: 212.89073181152344
y: 314.5349426269531
z: -0.13255828619003296
visibility: 0.9992836713790894
","x: 211.8523712158203
y: 313.7723083496094
z: -0.13260507583618164
visibility: 0.9994202852249146
","x: 215.65673828125
y: 317.84832763671875
z: -0.02970598265528679
visibility: 0.9970877170562744
","x: 207.75894165039062
y: 314.0792236328125
z: -0.0995953306555748
visibility: 0.9992891550064087
","x: 214.32261657714844
y: 325.96063232421875
z: -0.10087013244628906
visibility: 0.9993579983711243
","x: 211.85577392578125
y: 324.8260192871094
z: -0.12089425325393677
visibility: 0.99978107213974
","x: 220.20762634277344
y: 345.98504638671875
z: 0.03442377969622612
visibility: 0.9993489980697632
","x: 191.28558349609375
y: 340.6935119628906
z: -0.0799071341753006
visibility: 0.9999215602874756
","x: 237.3139190673828
y: 361.0517578125
z: 0.05159685015678406
visibility: 0.9708117246627808
","x: 170.09571838378906
y: 355.80426025390625
z: -0.10571442544460297
visibility: 0.9923145771026611
","x: 245.60073852539062
y: 327.88885498046875
z: -0.023940404877066612
visibility: 0.964281439781189
","x: 156.7006378173828
y: 329.35321044921875
z: -0.1924937218427658
visibility: 0.963939905166626
","x: 248.46267700195312
y: 319.0460510253906
z: -0.037912093102931976
visibility: 0.9239780902862549
","x: 151.67430114746094
y: 321.22027587890625
z: -0.2095583975315094
visibility: 0.9300740957260132
","x: 247.88409423828125
y: 317.17138671875
z: -0.0423051118850708
visibility: 0.9217690825462341
","x: 152.4535369873047
y: 317.08734130859375
z: -0.23642022907733917
visibility: 0.930180013179779
","x: 246.47755432128906
y: 319.69671630859375
z: -0.029993947595357895
visibility: 0.9008288979530334
","x: 154.59048461914062
y: 320.64306640625
z: -0.20656979084014893
visibility: 0.911998450756073
","x: 215.37696838378906
y: 430.2428894042969
z: 0.03759993240237236
visibility: 0.9991384148597717
","x: 199.46328735351562
y: 428.92596435546875
z: -0.03761238977313042
visibility: 0.9996541142463684
","x: 219.45758056640625
y: 493.4060974121094
z: 0.030972590669989586
visibility: 0.9276019334793091
","x: 199.18495178222656
y: 485.6753845214844
z: -0.0998343974351883
visibility: 0.9823392033576965
","x: 203.0306396484375
y: 535.5519409179688
z: 0.16250140964984894
visibility: 0.8885238766670227
","x: 197.74632263183594
y: 546.7340698242188
z: -0.02640582248568535
visibility: 0.9741115570068359
","x: 199.54859924316406
y: 542.4000244140625
z: 0.17292296886444092
visibility: 0.853549599647522
","x: 195.58460998535156
y: 555.4818115234375
z: -0.022637050598859787
visibility: 0.8622051477432251
","x: 211.4771270751953
y: 553.2664184570312
z: 0.12070177495479584
visibility: 0.9193404316902161
","x: 201.78988647460938
y: 566.41796875
z: -0.10783829540014267
visibility: 0.9689405560493469
",,,,,,,,,,,,,,,,,,,,,,,,,,,,,,,,,,,,,,,,,,
5,"x: 216.4149627685547
y: 321.03216552734375
z: -0.15889506042003632
visibility: 0.9996154308319092
","x: 217.26846313476562
y: 316.3843994140625
z: -0.14343181252479553
visibility: 0.9990479946136475
","x: 217.4271240234375
y: 316.2939758300781
z: -0.14343850314617157
visibility: 0.9986592531204224
","x: 217.55905151367188
y: 316.1330871582031
z: -0.14344628155231476
visibility: 0.9985659122467041
","x: 215.68675231933594
y: 315.1424560546875
z: -0.15819230675697327
visibility: 0.9993802905082703
","x: 214.69937133789062
y: 314.2592468261719
z: -0.15820732712745667
visibility: 0.9993478059768677
","x: 213.59649658203125
y: 313.3087463378906
z: -0.1582535058259964
visibility: 0.9994696974754333
","x: 215.7519989013672
y: 315.53765869140625
z: -0.05437173694372177
visibility: 0.9973500967025757
","x: 208.85861206054688
y: 311.74090576171875
z: -0.13169869780540466
visibility: 0.9993548393249512
","x: 215.0037384033203
y: 325.6687927246094
z: -0.12422244250774384
visibility: 0.9994146227836609
","x: 212.96971130371094
y: 324.4142150878906
z: -0.14427290856838226
visibility: 0.9997996091842651
","x: 219.8487548828125
y: 346.02484130859375
z: 0.022995267063379288
visibility: 0.9994104504585266
","x: 191.3596649169922
y: 341.03192138671875
z: -0.11257493495941162
visibility: 0.9999274611473083
","x: 232.437744140625
y: 374.5648193359375
z: 0.08686751127243042
visibility: 0.9711169004440308
","x: 172.7760009765625
y: 360.44873046875
z: -0.11847452819347382
visibility: 0.9930088520050049
","x: 246.96490478515625
y: 348.65472412109375
z: 0.031228404492139816
visibility: 0.9676464796066284
","x: 152.83465576171875
y: 354.2004699707031
z: -0.18536154925823212
visibility: 0.9674878120422363
","x: 250.46868896484375
y: 343.50469970703125
z: 0.023993786424398422
visibility: 0.9309914708137512
","x: 144.78482055664062
y: 349.1727294921875
z: -0.20839901268482208
visibility: 0.9368921518325806
","x: 250.0177001953125
y: 340.7585144042969
z: 0.00903383083641529
visibility: 0.9290801286697388
","x: 143.8720703125
y: 346.3489074707031
z: -0.22357328236103058
visibility: 0.9370135068893433
","x: 248.71707153320312
y: 342.443359375
z: 0.02188802883028984
visibility: 0.9101487994194031
","x: 146.45863342285156
y: 349.1006164550781
z: -0.19498056173324585
visibility: 0.9205846786499023
","x: 215.54058837890625
y: 430.3382873535156
z: 0.047917988151311874
visibility: 0.9991818070411682
","x: 199.65792846679688
y: 429.0600280761719
z: -0.04795842990279198
visibility: 0.9996591210365295
","x: 218.98631286621094
y: 493.1120300292969
z: 0.11785660684108734
visibility: 0.921714186668396
","x: 199.19949340820312
y: 486.2291259765625
z: -0.043392613530159
visibility: 0.9803707003593445
","x: 202.67568969726562
y: 535.6163330078125
z: 0.2725730538368225
visibility: 0.8872217535972595
","x: 197.27650451660156
y: 546.8372802734375
z: 0.06907551735639572
visibility: 0.9724105000495911
","x: 199.2863006591797
y: 542.3836669921875
z: 0.28582650423049927
visibility: 0.8568698167800903
","x: 195.19908142089844
y: 555.4093627929688
z: 0.07692623883485794
visibility: 0.862118661403656
","x: 212.2693634033203
y: 553.1016235351562
z: 0.23822994530200958
visibility: 0.9211575388908386
","x: 202.6146697998047
y: 564.8875732421875
z: -0.006547596305608749
visibility: 0.9681198596954346
",,,,,,,,,,,,,,,,,,,,,,,,,,,,,,,,,,,,,,,,,,
6,"x: 217.79945373535156
y: 316.494384765625
z: -0.1239992156624794
visibility: 0.9996528625488281
","x: 218.02471923828125
y: 310.2637939453125
z: -0.10930198431015015
visibility: 0.9991407990455627
","x: 218.171630859375
y: 310.0643005371094
z: -0.1093427985906601
visibility: 0.998790979385376
","x: 218.2826385498047
y: 309.8083801269531
z: -0.10934573411941528
visibility: 0.9987065196037292
","x: 216.4820556640625
y: 309.4439392089844
z: -0.12562717497348785
visibility: 0.9994391798973083
","x: 215.45155334472656
y: 308.6355285644531
z: -0.12562209367752075
visibility: 0.9994094967842102
","x: 214.34271240234375
y: 307.7676696777344
z: -0.12566664814949036
visibility: 0.9995179772377014
","x: 215.8250732421875
y: 309.530517578125
z: -0.018661854788661003
visibility: 0.9976078271865845
","x: 209.541748046875
y: 306.5281982421875
z: -0.09666682779788971
visibility: 0.9994170665740967
","x: 216.54705810546875
y: 321.30743408203125
z: -0.08819523453712463
visibility: 0.9994717240333557
","x: 214.69912719726562
y: 320.1011657714844
z: -0.110384501516819
visibility: 0.9998186826705933
","x: 220.25926208496094
y: 344.4122314453125
z: 0.0606110505759716
visibility: 0.9994686245918274
","x: 192.88296508789062
y: 337.5892639160156
z: -0.07376370579004288
visibility: 0.9999338388442993
","x: 228.18142700195312
y: 380.3564147949219
z: 0.04797469452023506
visibility: 0.966680109500885
","x: 182.98403930664062
y: 371.8691711425781
z: -0.0411461666226387
visibility: 0.9931647777557373
","x: 242.75619506835938
y: 355.97467041015625
z: -0.11095106601715088
visibility: 0.9703306555747986
","x: 173.76446533203125
y: 411.5992431640625
z: -0.043574873358011246
visibility: 0.9698294401168823
","x: 248.4661407470703
y: 348.87811279296875
z: -0.13863465189933777
visibility: 0.9368308186531067
","x: 173.37692260742188
y: 421.4724426269531
z: -0.05082438141107559
visibility: 0.9412614703178406
","x: 248.44407653808594
y: 349.442138671875
z: -0.15789711475372314
visibility: 0.9352465271949768
","x: 174.9774169921875
y: 422.51824951171875
z: -0.07239045202732086
visibility: 0.9414560198783875
","x: 246.318603515625
y: 349.2268371582031
z: -0.1252777874469757
visibility: 0.9178252816200256
","x: 175.63780212402344
y: 419.1043395996094
z: -0.050680287182331085
visibility: 0.9260031580924988
","x: 214.279541015625
y: 428.35003662109375
z: 0.05001341179013252
visibility: 0.9992141127586365
","x: 199.05706787109375
y: 426.8554382324219
z: -0.050029437988996506
visibility: 0.9996567964553833
","x: 214.6702423095703
y: 491.5931396484375
z: 0.08911634981632233
visibility: 0.9102819561958313
","x: 200.29783630371094
y: 487.60052490234375
z: -0.05036771297454834
visibility: 0.9800875186920166
","x: 202.74874877929688
y: 536.9405517578125
z: 0.19735877215862274
visibility: 0.884232223033905
","x: 197.2683563232422
y: 549.01904296875
z: 0.04583209380507469
visibility: 0.9714831709861755
","x: 199.53152465820312
y: 544.5604248046875
z: 0.20552566647529602
visibility: 0.8564496636390686
","x: 194.94114685058594
y: 558.8822021484375
z: 0.05128837749361992
visibility: 0.8583608865737915
","x: 212.65927124023438
y: 553.6409912109375
z: 0.14952179789543152
visibility: 0.9200775027275085
","x: 203.04229736328125
y: 565.4620971679688
z: -0.03578324615955353
visibility: 0.9670028686523438
",,,,,,,,,,,,,,,,,,,,,,,,,,,,,,,,,,,,,,,,,,
7,"x: 217.2549591064453
y: 311.3076171875
z: -0.12943293154239655
visibility: 0.9996796250343323
","x: 217.80931091308594
y: 305.9738464355469
z: -0.11446350812911987
visibility: 0.9991937279701233
","x: 218.0541534423828
y: 306.0537109375
z: -0.11451537907123566
visibility: 0.9988813400268555
","x: 218.28707885742188
y: 306.12286376953125
z: -0.11451997607946396
visibility: 0.998802900314331
","x: 216.36520385742188
y: 305.17889404296875
z: -0.11736001074314117
visibility: 0.9994624853134155
","x: 215.4016571044922
y: 304.71099853515625
z: -0.11734821647405624
visibility: 0.9994383454322815
","x: 214.25750732421875
y: 304.2261962890625
z: -0.11738018691539764
visibility: 0.9995347857475281
","x: 216.54197692871094
y: 308.45489501953125
z: -0.03346806392073631
visibility: 0.9977808594703674
","x: 209.3524932861328
y: 305.5428771972656
z: -0.04772098734974861
visibility: 0.9994341731071472
","x: 216.43722534179688
y: 317.3982849121094
z: -0.09965097159147263
visibility: 0.9995118379592896
","x: 214.21115112304688
y: 315.9970703125
z: -0.10415373742580414
visibility: 0.9998246431350708
","x: 221.35693359375
y: 338.7084655761719
z: 0.0059610637836158276
visibility: 0.9995168447494507
","x: 194.43182373046875
y: 338.5455017089844
z: -0.0016473345458507538
visibility: 0.9999324083328247
","x: 236.53640747070312
y: 353.08648681640625
z: -0.10402748733758926
visibility: 0.9696849584579468
","x: 187.78396606445312
y: 382.9263000488281
z: 0.03595881909132004
visibility: 0.9916002750396729
","x: 219.85940551757812
y: 338.8576965332031
z: -0.2506139576435089
visibility: 0.9725918769836426
","x: 180.74856567382812
y: 421.4910888671875
z: -0.007541583385318518
visibility: 0.9690807461738586
","x: 215.13455200195312
y: 338.7041015625
z: -0.28495678305625916
visibility: 0.9404165744781494
","x: 178.30458068847656
y: 433.5361328125
z: -0.021262207999825478
visibility: 0.9407058358192444
","x: 214.0179901123047
y: 339.0771789550781
z: -0.27848291397094727
visibility: 0.9386919736862183
","x: 179.3360595703125
y: 434.84869384765625
z: -0.04405909776687622
visibility: 0.9410405158996582
","x: 215.5670623779297
y: 339.0390319824219
z: -0.2515436112880707
visibility: 0.9217873811721802
","x: 181.1033935546875
y: 431.68994140625
z: -0.01696506142616272
visibility: 0.9249029755592346
","x: 213.65016174316406
y: 428.51507568359375
z: 0.023234406486153603
visibility: 0.9992767572402954
","x: 197.4026641845703
y: 424.802490234375
z: -0.023393193259835243
visibility: 0.9996753931045532
","x: 212.24903869628906
y: 492.156005859375
z: 0.040755968540906906
visibility: 0.9061659574508667
","x: 194.931884765625
y: 487.65386962890625
z: -0.03556351736187935
visibility: 0.9803800582885742
","x: 201.4860076904297
y: 536.9954833984375
z: 0.19566044211387634
visibility: 0.8788251280784607
","x: 191.70639038085938
y: 547.5830688476562
z: 0.06697897613048553
visibility: 0.9703166484832764
","x: 198.49671936035156
y: 544.4664306640625
z: 0.20876085758209229
visibility: 0.8473643660545349
","x: 189.95596313476562
y: 555.1392211914062
z: 0.07339902222156525
visibility: 0.8424738645553589
","x: 210.4817657470703
y: 555.2347412109375
z: 0.15007799863815308
visibility: 0.9153696298599243
","x: 198.31378173828125
y: 565.6263427734375
z: -0.013174831867218018
visibility: 0.9644041061401367
",,,,,,,,,,,,,,,,,,,,,,,,,,,,,,,,,,,,,,,,,,
8,"x: 214.51397705078125
y: 311.237548828125
z: -0.19967399537563324
visibility: 0.9997113347053528
","x: 215.56008911132812
y: 305.85223388671875
z: -0.18497958779335022
visibility: 0.9992731809616089
","x: 216.20237731933594
y: 305.8868713378906
z: -0.18501372635364532
visibility: 0.9989922046661377
","x: 216.88558959960938
y: 305.9540100097656
z: -0.18502554297447205
visibility: 0.9989210963249207
","x: 213.65338134765625
y: 305.5874938964844
z: -0.18464192748069763
visibility: 0.9995151162147522
","x: 212.8099365234375
y: 305.35968017578125
z: -0.18463993072509766
visibility: 0.9994934797286987
","x: 211.8663330078125
y: 305.01568603515625
z: -0.18463848531246185
visibility: 0.9995798468589783
","x: 216.61663818359375
y: 309.221435546875
z: -0.09291611611843109
visibility: 0.9979996681213379
","x: 209.0878143310547
y: 307.031982421875
z: -0.061359815299510956
visibility: 0.999489963054657
","x: 215.57736206054688
y: 317.592041015625
z: -0.16553235054016113
visibility: 0.9995598793029785
","x: 213.00860595703125
y: 316.6784973144531
z: -0.16533632576465607
visibility: 0.9998416900634766
","x: 224.77395629882812
y: 339.6018981933594
z: -0.03636356443166733
visibility: 0.9995633363723755
","x: 196.64968872070312
y: 342.51116943359375
z: -0.03581584244966507
visibility: 0.9999367594718933
","x: 244.3590850830078
y: 345.8502502441406
z: -0.12640832364559174
visibility: 0.9724678993225098
","x: 189.46644592285156
y: 384.6285705566406
z: 0.020403319969773293
visibility: 0.9899687170982361
","x: 252.48699951171875
y: 314.2781677246094
z: -0.30512285232543945
visibility: 0.9750224947929382
","x: 181.23219299316406
y: 418.299072265625
z: -0.00392578449100256
visibility: 0.9681353569030762
","x: 256.2982177734375
y: 307.5374450683594
z: -0.34149524569511414
visibility: 0.9452172517776489
","x: 178.026123046875
y: 427.8404235839844
z: -0.01167137548327446
visibility: 0.938652753829956
","x: 256.08544921875
y: 306.4908142089844
z: -0.3529638350009918
visibility: 0.943730890750885
","x: 178.3555450439453
y: 429.1490478515625
z: -0.038699641823768616
visibility: 0.9396699070930481
","x: 254.41543579101562
y: 308.8253173828125
z: -0.31576523184776306
visibility: 0.9281963109970093
","x: 180.93923950195312
y: 426.64007568359375
z: -0.014520108699798584
visibility: 0.9232840538024902
","x: 214.42486572265625
y: 430.20654296875
z: 0.010318024083971977
visibility: 0.9993465542793274
","x: 197.8253631591797
y: 425.46148681640625
z: -0.010297778062522411
visibility: 0.9997066259384155
","x: 213.31126403808594
y: 493.2824401855469
z: 0.05103151127696037
visibility: 0.9149176478385925
","x: 182.09812927246094
y: 485.9505615234375
z: -0.04383905231952667
visibility: 0.9822998046875
","x: 201.8669891357422
y: 537.3404541015625
z: 0.25413015484809875
visibility: 0.8903741240501404
","x: 163.07574462890625
y: 540.2008056640625
z: 0.05706050246953964
visibility: 0.9732096791267395
","x: 198.539306640625
y: 545.295166015625
z: 0.2706829607486725
visibility: 0.86074298620224
","x: 161.44009399414062
y: 544.883056640625
z: 0.062094010412693024
visibility: 0.8551996350288391
","x: 211.1382293701172
y: 554.8742065429688
z: 0.1908000111579895
visibility: 0.9230687022209167
","x: 159.75704956054688
y: 564.233154296875
z: -0.02937754988670349
visibility: 0.9677534103393555
",,,,,,,,,,,,,,,,,,,,,,,,,,,,,,,,,,,,,,,,,,
9,"x: 214.2121124267578
y: 311.6246337890625
z: -0.1994318664073944
visibility: 0.999739408493042
","x: 215.33938598632812
y: 306.33160400390625
z: -0.1827189028263092
visibility: 0.9993407726287842
","x: 216.10528564453125
y: 306.4215087890625
z: -0.18273304402828217
visibility: 0.9990874528884888
","x: 216.87290954589844
y: 306.54461669921875
z: -0.1827480047941208
visibility: 0.9990212321281433
","x: 212.85731506347656
y: 306.0887756347656
z: -0.18666717410087585
visibility: 0.9995605945587158
","x: 211.74517822265625
y: 305.8844299316406
z: -0.18668735027313232
visibility: 0.9995419979095459
","x: 210.52903747558594
y: 305.4183044433594
z: -0.18670383095741272
visibility: 0.9996193051338196
","x: 217.2980499267578
y: 309.85711669921875
z: -0.08798197656869888
visibility: 0.9981755614280701
","x: 208.30865478515625
y: 309.24462890625
z: -0.08705072104930878
visibility: 0.9995388984680176
","x: 215.63372802734375
y: 318.0641784667969
z: -0.16458049416542053
visibility: 0.9995999932289124
","x: 212.8017120361328
y: 317.0554504394531
z: -0.17018119990825653
visibility: 0.9998555779457092
","x: 226.94924926757812
y: 340.380615234375
z: -0.025219867005944252
visibility: 0.9996020197868347
","x: 197.6080780029297
y: 347.6335144042969
z: -0.05401099473237991
visibility: 0.9999374747276306
","x: 246.28927612304688
y: 350.140869140625
z: -0.006539168767631054
visibility: 0.9749600291252136
","x: 191.98146057128906
y: 388.55731201171875
z: -0.042204130440950394
visibility: 0.9886438846588135
","x: 264.0877990722656
y: 325.58251953125
z: -0.08351092040538788
visibility: 0.9773088097572327
","x: 186.3651885986328
y: 424.1874694824219
z: -0.1261521279811859
visibility: 0.9681991338729858
","x: 269.7935791015625
y: 319.9923400878906
z: -0.10440917313098907
visibility: 0.9498322010040283
","x: 183.33847045898438
y: 434.1070251464844
z: -0.1461465060710907
visibility: 0.9389880299568176
","x: 269.8428039550781
y: 318.3070983886719
z: -0.12716060876846313
visibility: 0.9486305713653564
","x: 183.87408447265625
y: 434.28369140625
z: -0.17441131174564362
visibility: 0.9403395056724548
","x: 267.7196350097656
y: 320.0637512207031
z: -0.09713935852050781
visibility: 0.9345784783363342
","x: 185.5736083984375
y: 432.0045471191406
z: -0.13905027508735657
visibility: 0.9241651296615601
","x: 218.18202209472656
y: 431.5666198730469
z: 0.014099257998168468
visibility: 0.999406635761261
","x: 200.17630004882812
y: 425.8558349609375
z: -0.014157752506434917
visibility: 0.9997318983078003
","x: 213.9098358154297
y: 493.427734375
z: 0.0379001647233963
visibility: 0.9225242137908936
","x: 181.7590789794922
y: 480.2507019042969
z: -0.04677950590848923
visibility: 0.9839405417442322
","x: 201.9691162109375
y: 537.2647705078125
z: 0.23172709345817566
visibility: 0.9007747769355774
","x: 160.36471557617188
y: 521.419189453125
z: 0.08129744976758957
visibility: 0.9757389426231384
","x: 198.6514892578125
y: 545.280029296875
z: 0.24591271579265594
visibility: 0.8727421760559082
","x: 158.76806640625
y: 525.2482299804688
z: 0.08993513137102127
visibility: 0.8666898608207703
","x: 211.1165771484375
y: 554.6383056640625
z: 0.16361863911151886
visibility: 0.9299217462539673
","x: 153.1967010498047
y: 543.9810791015625
z: -0.0002797492197714746
visibility: 0.9706732630729675
",,,,,,,,,,,,,,,,,,,,,,,,,,,,,,,,,,,,,,,,,,
10,"x: 214.50018310546875
y: 311.5473327636719
z: -0.19166994094848633
visibility: 0.9997607469558716
","x: 215.5487823486328
y: 306.4358215332031
z: -0.1748773753643036
visibility: 0.9993554353713989
","x: 216.39434814453125
y: 306.50439453125
z: -0.1748889684677124
visibility: 0.9991293549537659
","x: 217.2717742919922
y: 306.6114501953125
z: -0.17489513754844666
visibility: 0.9990552067756653
","x: 213.021240234375
y: 306.3415222167969
z: -0.18613483011722565
visibility: 0.9995798468589783
","x: 211.93276977539062
y: 306.2009582519531
z: -0.18616518378257751
visibility: 0.9995685815811157
","x: 210.7557373046875
y: 305.6939697265625
z: -0.18612313270568848
visibility: 0.9996358156204224
","x: 218.4727783203125
y: 309.8940734863281
z: -0.08952994644641876
visibility: 0.9981613159179688
","x: 208.9086456298828
y: 309.8574523925781
z: -0.09580527991056442
visibility: 0.9995629787445068
","x: 216.4610595703125
y: 317.8637390136719
z: -0.1568422019481659
visibility: 0.9996079802513123
","x: 213.24435424804688
y: 317.33148193359375
z: -0.16586677730083466
visibility: 0.9998484253883362
","x: 228.66836547851562
y: 340.46240234375
z: -0.03079078532755375
visibility: 0.9996139407157898
","x: 200.31056213378906
y: 348.8335876464844
z: -0.05454102158546448
visibility: 0.9999242424964905
","x: 243.66488647460938
y: 353.65771484375
z: 0.02915962040424347
visibility: 0.9750910997390747
","x: 196.25160217285156
y: 391.2347106933594
z: -0.0415288507938385
visibility: 0.9876017570495605
","x: 262.3697814941406
y: 342.9541015625
z: 0.008434329181909561
visibility: 0.9772915840148926
","x: 193.98431396484375
y: 429.2166442871094
z: -0.11102195084095001
visibility: 0.9692848324775696
","x: 267.67156982421875
y: 341.4095764160156
z: -4.8274072469212115e-05
visibility: 0.9491450786590576
","x: 191.58168029785156
y: 442.3669738769531
z: -0.12549778819084167
visibility: 0.9402345418930054
","x: 268.32476806640625
y: 339.9007568359375
z: -0.02300434559583664
visibility: 0.9490998387336731
","x: 192.97268676757812
y: 443.32769775390625
z: -0.15804363787174225
visibility: 0.9416425824165344
","x: 266.5368957519531
y: 341.08660888671875
z: -0.0027974476106464863
visibility: 0.9362519979476929
","x: 194.33334350585938
y: 439.79473876953125
z: -0.12481781095266342
visibility: 0.9258379340171814
","x: 221.39950561523438
y: 431.5577392578125
z: -0.005642781965434551
visibility: 0.9994435906410217
","x: 203.93939208984375
y: 425.27203369140625
z: 0.005646059289574623
visibility: 0.99973464012146
","x: 214.03091430664062
y: 489.52581787109375
z: -0.011542050167918205
visibility: 0.927679717540741
","x: 185.7781524658203
y: 471.1385498046875
z: 0.011943302117288113
visibility: 0.9840019941329956
","x: 202.1011962890625
y: 537.2132568359375
z: 0.11499594151973724
visibility: 0.9087079167366028
","x: 183.21661376953125
y: 513.5862426757812
z: 0.20107528567314148
visibility: 0.9757166504859924
","x: 198.82997131347656
y: 544.786865234375
z: 0.12250478565692902
visibility: 0.8790441155433655
","x: 186.91043090820312
y: 519.9569091796875
z: 0.21562647819519043
visibility: 0.8688499927520752
","x: 210.22369384765625
y: 554.5380249023438
z: 0.04216074198484421
visibility: 0.9347269535064697
","x: 170.54486083984375
y: 534.8054809570312
z: 0.150192990899086
visibility: 0.9708106517791748
",,,,,,,,,,,,,,,,,,,,,,,,,,,,,,,,,,,,,,,,,,
11,"x: 218.19371032714844
y: 311.4635314941406
z: -0.23380637168884277
visibility: 0.999782383441925
","x: 218.81881713867188
y: 305.92205810546875
z: -0.2223510444164276
visibility: 0.999407172203064
","x: 219.61322021484375
y: 305.8990173339844
z: -0.22238950431346893
visibility: 0.9992033243179321
","x: 220.4193572998047
y: 305.9112854003906
z: -0.22241875529289246
visibility: 0.9991358518600464
","x: 216.11904907226562
y: 306.0583190917969
z: -0.22384102642536163
visibility: 0.9996132254600525
","x: 214.98562622070312
y: 306.0535583496094
z: -0.2238745391368866
visibility: 0.9996035695075989
","x: 213.77137756347656
y: 305.81134033203125
z: -0.2238924503326416
visibility: 0.9996645450592041
","x: 221.07264709472656
y: 308.61346435546875
z: -0.14007408916950226
visibility: 0.9983115792274475
","x: 211.75906372070312
y: 309.7649841308594
z: -0.1423257291316986
visibility: 0.9995926022529602
","x: 219.77862548828125
y: 317.4062194824219
z: -0.20079419016838074
visibility: 0.999642014503479
","x: 216.4849090576172
y: 317.36962890625
z: -0.20207715034484863
visibility: 0.999858021736145
","x: 232.52235412597656
y: 337.77874755859375
z: -0.07226967066526413
visibility: 0.999649167060852
","x: 203.20436096191406
y: 348.12884521484375
z: -0.07833454012870789
visibility: 0.9999273419380188
","x: 243.7393035888672
y: 364.554931640625
z: 0.015812020748853683
visibility: 0.9761419892311096
","x: 201.3970184326172
y: 387.16973876953125
z: -0.058376215398311615
visibility: 0.9873732924461365
","x: 258.1759033203125
y: 387.6069641113281
z: -0.07163946330547333
visibility: 0.9769671559333801
","x: 205.81280517578125
y: 418.619873046875
z: -0.14234574139118195
visibility: 0.9708411693572998
","x: 262.6685485839844
y: 395.65997314453125
z: -0.08971208333969116
visibility: 0.9495975971221924
","x: 207.05923461914062
y: 430.75787353515625
z: -0.16656163334846497
visibility: 0.9431993365287781
","x: 262.3726501464844
y: 396.8023681640625
z: -0.11127473413944244
visibility: 0.9502379894256592
","x: 209.48143005371094
y: 429.1661376953125
z: -0.18929460644721985
visibility: 0.9446861743927002
","x: 260.8296813964844
y: 394.682861328125
z: -0.08268915116786957
visibility: 0.9380894899368286
","x: 209.6444549560547
y: 425.2964782714844
z: -0.1524347960948944
visibility: 0.9293786287307739
","x: 227.90591430664062
y: 425.0473327636719
z: -0.014259780757129192
visibility: 0.9994398951530457
","x: 211.82537841796875
y: 422.8610534667969
z: 0.014319670386612415
visibility: 0.9996633529663086
","x: 216.2626953125
y: 483.364501953125
z: -0.041551120579242706
visibility: 0.9322798848152161
","x: 213.5413818359375
y: 475.36065673828125
z: 0.04239082708954811
visibility: 0.9807414412498474
","x: 206.6210479736328
y: 536.998046875
z: 0.0449550487101078
visibility: 0.9163590669631958
","x: 228.5731201171875
y: 518.548095703125
z: 0.17868411540985107
visibility: 0.9747641086578369
","x: 205.22886657714844
y: 544.1619873046875
z: 0.04828880727291107
visibility: 0.8841522932052612
","x: 233.2032012939453
y: 522.1220703125
z: 0.1883774697780609
visibility: 0.8754361271858215
","x: 208.46250915527344
y: 553.04296875
z: -0.04019663855433464
visibility: 0.938480794429779
","x: 223.92596435546875
y: 541.1502685546875
z: 0.11970733106136322
visibility: 0.9693378806114197
",,,,,,,,,,,,,,,,,,,,,,,,,,,,,,,,,,,,,,,,,,
12,"x: 219.92893981933594
y: 310.5011291503906
z: -0.22975261509418488
visibility: 0.999795138835907
","x: 220.7095184326172
y: 304.8196105957031
z: -0.21944451332092285
visibility: 0.9994213581085205
","x: 221.50149536132812
y: 304.8718566894531
z: -0.2194935828447342
visibility: 0.9992391467094421
","x: 222.3052978515625
y: 305.017333984375
z: -0.21954429149627686
visibility: 0.9991809725761414
","x: 218.21392822265625
y: 304.91009521484375
z: -0.21842367947101593
visibility: 0.9996073246002197
","x: 217.24510192871094
y: 304.99163818359375
z: -0.21844610571861267
visibility: 0.9995934963226318
","x: 216.23556518554688
y: 305.0245361328125
z: -0.2184598743915558
visibility: 0.9996461272239685
","x: 223.16017150878906
y: 308.18701171875
z: -0.13687171041965485
visibility: 0.9984185695648193
","x: 214.67739868164062
y: 309.05108642578125
z: -0.1326947957277298
visibility: 0.9995219111442566
","x: 221.33827209472656
y: 316.5166931152344
z: -0.19657792150974274
visibility: 0.9996616840362549
","x: 218.44424438476562
y: 316.69256591796875
z: -0.19542482495307922
visibility: 0.9998478293418884
","x: 234.6844940185547
y: 335.31561279296875
z: -0.07879267632961273
visibility: 0.9996809363365173
","x: 206.8981475830078
y: 344.6474609375
z: -0.059214793145656586
visibility: 0.9999246597290039
","x: 247.0062713623047
y: 366.1932678222656
z: -0.045214612036943436
visibility: 0.9779703617095947
","x: 204.50148010253906
y: 378.36053466796875
z: -0.05160076543688774
visibility: 0.9787843823432922
","x: 259.7326354980469
y: 394.7139892578125
z: -0.1117798313498497
visibility: 0.9774613976478577
","x: 208.5097198486328
y: 401.10736083984375
z: -0.16572964191436768
visibility: 0.9648383855819702
","x: 262.74346923828125
y: 404.5852355957031
z: -0.13284187018871307
visibility: 0.9505462646484375
","x: 209.3565216064453
y: 412.97119140625
z: -0.19197675585746765
visibility: 0.9365608096122742
","x: 261.33453369140625
y: 405.66241455078125
z: -0.15743198990821838
visibility: 0.9517173767089844
","x: 211.62631225585938
y: 411.0171813964844
z: -0.21565409004688263
visibility: 0.9389854073524475
","x: 260.0943298339844
y: 402.9488525390625
z: -0.12254069745540619
visibility: 0.9398922920227051
","x: 211.88584899902344
y: 406.868408203125
z: -0.1778346598148346
visibility: 0.9228370189666748
","x: 232.9986572265625
y: 418.2506103515625
z: -0.01964673586189747
visibility: 0.9993982315063477
","x: 217.53619384765625
y: 419.274169921875
z: 0.019751636311411858
visibility: 0.9996311068534851
","x: 223.1590576171875
y: 476.9612121582031
z: -0.03418796509504318
visibility: 0.931469202041626
","x: 219.99386596679688
y: 474.543701171875
z: -0.03021550551056862
visibility: 0.9704638719558716
","x: 226.3221435546875
y: 528.2698974609375
z: 0.08272626996040344
visibility: 0.918565034866333
","x: 230.9307403564453
y: 523.7354125976562
z: 0.06192237138748169
visibility: 0.9707868695259094
","x: 225.06137084960938
y: 531.606689453125
z: 0.09009440243244171
visibility: 0.8785528540611267
","x: 235.6217498779297
y: 528.7928466796875
z: 0.06610678881406784
visibility: 0.8736916184425354
","x: 227.07969665527344
y: 546.7698974609375
z: 0.00922043714672327
visibility: 0.9383403062820435
","x: 227.9205322265625
y: 546.3190307617188
z: -0.024111848324537277
visibility: 0.9659733176231384
",,,,,,,,,,,,,,,,,,,,,,,,,,,,,,,,,,,,,,,,,,
13,"x: 222.98666381835938
y: 309.4537048339844
z: -0.12271120399236679
visibility: 0.9998153448104858
","x: 224.00413513183594
y: 304.1369934082031
z: -0.1074642539024353
visibility: 0.9994785189628601
","x: 224.9651336669922
y: 304.02276611328125
z: -0.10745741426944733
visibility: 0.9993144273757935
","x: 225.84129333496094
y: 303.94708251953125
z: -0.1074754148721695
visibility: 0.9992619752883911
","x: 220.9766387939453
y: 304.55523681640625
z: -0.10744141042232513
visibility: 0.9996460676193237
","x: 219.82525634765625
y: 304.687744140625
z: -0.10749318450689316
visibility: 0.9996336698532104
","x: 218.66238403320312
y: 304.7433166503906
z: -0.10747040808200836
visibility: 0.9996811151504517
","x: 226.95497131347656
y: 306.36370849609375
z: -0.021567370742559433
visibility: 0.9985760450363159
","x: 217.0259552001953
y: 307.5690612792969
z: -0.02171512320637703
visibility: 0.9995690584182739
","x: 225.02462768554688
y: 314.668701171875
z: -0.09023558348417282
visibility: 0.9996949434280396
","x: 221.2481689453125
y: 315.1607971191406
z: -0.09039539843797684
visibility: 0.9998621940612793
","x: 238.93600463867188
y: 330.88525390625
z: 0.022337278351187706
visibility: 0.9997124075889587
","x: 210.961181640625
y: 342.6931457519531
z: 0.026734283193945885
visibility: 0.9999275207519531
","x: 253.1871337890625
y: 357.8131408691406
z: 0.06108308583498001
visibility: 0.9799780249595642
","x: 205.36453247070312
y: 378.49859619140625
z: -0.07202120870351791
visibility: 0.9806525707244873
","x: 265.69970703125
y: 385.1428527832031
z: 0.028349900618195534
visibility: 0.9793311953544617
","x: 214.86216735839844
y: 357.4829406738281
z: -0.2524748742580414
visibility: 0.968216598033905
","x: 268.80242919921875
y: 395.26141357421875
z: 0.018692854791879654
visibility: 0.9542494416236877
","x: 219.75148010253906
y: 353.3425598144531
z: -0.28546783328056335
visibility: 0.9424159526824951
","x: 266.8757019042969
y: 396.58709716796875
z: 0.00377717730589211
visibility: 0.9554367661476135
","x: 220.5967254638672
y: 349.7886657714844
z: -0.28210657835006714
visibility: 0.9445697665214539
","x: 265.59893798828125
y: 393.6527099609375
z: 0.02257518842816353
visibility: 0.9444496035575867
","x: 219.85757446289062
y: 350.59332275390625
z: -0.2545408308506012
visibility: 0.9296614527702332
","x: 241.22984313964844
y: 413.9408874511719
z: -0.02846599742770195
visibility: 0.9994558691978455
","x: 227.0159149169922
y: 418.48870849609375
z: 0.028572577983140945
visibility: 0.99965900182724
","x: 230.82249450683594
y: 469.47918701171875
z: -0.1455141007900238
visibility: 0.9366143345832825
","x: 225.3009796142578
y: 474.6789245605469
z: 0.020421987399458885
visibility: 0.9466878175735474
","x: 235.50494384765625
y: 528.7477416992188
z: -0.07675202190876007
visibility: 0.9244575500488281
","x: 239.19334411621094
y: 522.1480712890625
z: 0.12747032940387726
visibility: 0.9615626931190491
","x: 235.6802215576172
y: 534.785888671875
z: -0.07317520678043365
visibility: 0.8844413161277771
","x: 244.59068298339844
y: 526.0003051757812
z: 0.1346140205860138
visibility: 0.8694813847541809
","x: 232.3776397705078
y: 547.3563232421875
z: -0.15177488327026367
visibility: 0.9424031972885132
","x: 235.32843017578125
y: 546.5624389648438
z: 0.06597497314214706
visibility: 0.9583607316017151
","x: 215.36026000976562
y: 351.57818603515625
z: 0.0
","x: 217.45599365234375
y: 346.98583984375
z: 0.0011789079289883375
","x: 220.76425170898438
y: 343.9541320800781
z: 0.0007003432256169617
","x: 223.6815185546875
y: 343.47930908203125
z: -0.00024070694053079933
","x: 225.67982482910156
y: 344.075439453125
z: -0.0010572586907073855
","x: 221.65159606933594
y: 342.9983825683594
z: -0.0022307841572910547
","x: 226.11859130859375
y: 343.8310546875
z: -0.003899797098711133
","x: 227.11639404296875
y: 345.335693359375
z: -0.0038917209021747112
","x: 226.9541778564453
y: 346.12286376953125
z: -0.0035689938813447952
","x: 221.7000732421875
y: 346.0980529785156
z: -0.003934584092348814
","x: 226.2793731689453
y: 346.869140625
z: -0.005895010661333799
","x: 227.39271545410156
y: 347.7112121582031
z: -0.005382339004427195
","x: 227.51376342773438
y: 347.96124267578125
z: -0.004680537153035402
","x: 221.65003967285156
y: 349.6116943359375
z: -0.005432725418359041
","x: 226.07199096679688
y: 350.1240234375
z: -0.007044697180390358
","x: 227.20034790039062
y: 350.470458984375
z: -0.005778767634183168
","x: 227.42166137695312
y: 350.5075378417969
z: -0.004686944652348757
","x: 221.53225708007812
y: 353.22430419921875
z: -0.0068929558619856834
","x: 225.20895385742188
y: 353.1982116699219
z: -0.008062460459768772
","x: 226.4083251953125
y: 352.9314880371094
z: -0.007292444352060556
","x: 226.9595489501953
y: 352.56158447265625
z: -0.006450148764997721
",,,,,,,,,,,,,,,,,,,,,
14,"x: 222.98666381835938
y: 309.4537048339844
z: -0.12271120399236679
visibility: 0.9998153448104858
","x: 224.00413513183594
y: 304.1369934082031
z: -0.1074642539024353
visibility: 0.9994785189628601
","x: 224.9651336669922
y: 304.02276611328125
z: -0.10745741426944733
visibility: 0.9993144273757935
","x: 225.84129333496094
y: 303.94708251953125
z: -0.1074754148721695
visibility: 0.9992619752883911
","x: 220.9766387939453
y: 304.55523681640625
z: -0.10744141042232513
visibility: 0.9996460676193237
","x: 219.82525634765625
y: 304.687744140625
z: -0.10749318450689316
visibility: 0.9996336698532104
","x: 218.66238403320312
y: 304.7433166503906
z: -0.10747040808200836
visibility: 0.9996811151504517
","x: 226.95497131347656
y: 306.36370849609375
z: -0.021567370742559433
visibility: 0.9985760450363159
","x: 217.0259552001953
y: 307.5690612792969
z: -0.02171512320637703
visibility: 0.9995690584182739
","x: 225.02462768554688
y: 314.668701171875
z: -0.09023558348417282
visibility: 0.9996949434280396
","x: 221.2481689453125
y: 315.1607971191406
z: -0.09039539843797684
visibility: 0.9998621940612793
","x: 238.93600463867188
y: 330.88525390625
z: 0.022337278351187706
visibility: 0.9997124075889587
","x: 210.961181640625
y: 342.6931457519531
z: 0.026734283193945885
visibility: 0.9999275207519531
","x: 253.1871337890625
y: 357.8131408691406
z: 0.06108308583498001
visibility: 0.9799780249595642
","x: 205.36453247070312
y: 378.49859619140625
z: -0.07202120870351791
visibility: 0.9806525707244873
","x: 265.69970703125
y: 385.1428527832031
z: 0.028349900618195534
visibility: 0.9793311953544617
","x: 214.86216735839844
y: 357.4829406738281
z: -0.2524748742580414
visibility: 0.968216598033905
","x: 268.80242919921875
y: 395.26141357421875
z: 0.018692854791879654
visibility: 0.9542494416236877
","x: 219.75148010253906
y: 353.3425598144531
z: -0.28546783328056335
visibility: 0.9424159526824951
","x: 266.8757019042969
y: 396.58709716796875
z: 0.00377717730589211
visibility: 0.9554367661476135
","x: 220.5967254638672
y: 349.7886657714844
z: -0.28210657835006714
visibility: 0.9445697665214539
","x: 265.59893798828125
y: 393.6527099609375
z: 0.02257518842816353
visibility: 0.9444496035575867
","x: 219.85757446289062
y: 350.59332275390625
z: -0.2545408308506012
visibility: 0.9296614527702332
","x: 241.22984313964844
y: 413.9408874511719
z: -0.02846599742770195
visibility: 0.9994558691978455
","x: 227.0159149169922
y: 418.48870849609375
z: 0.028572577983140945
visibility: 0.99965900182724
","x: 230.82249450683594
y: 469.47918701171875
z: -0.1455141007900238
visibility: 0.9366143345832825
","x: 225.3009796142578
y: 474.6789245605469
z: 0.020421987399458885
visibility: 0.9466878175735474
","x: 235.50494384765625
y: 528.7477416992188
z: -0.07675202190876007
visibility: 0.9244575500488281
","x: 239.19334411621094
y: 522.1480712890625
z: 0.12747032940387726
visibility: 0.9615626931190491
","x: 235.6802215576172
y: 534.785888671875
z: -0.07317520678043365
visibility: 0.8844413161277771
","x: 244.59068298339844
y: 526.0003051757812
z: 0.1346140205860138
visibility: 0.8694813847541809
","x: 232.3776397705078
y: 547.3563232421875
z: -0.15177488327026367
visibility: 0.9424031972885132
","x: 235.32843017578125
y: 546.5624389648438
z: 0.06597497314214706
visibility: 0.9583607316017151
","x: 215.36026000976562
y: 351.57818603515625
z: 0.0
","x: 217.45599365234375
y: 346.98583984375
z: 0.0011789079289883375
","x: 220.76425170898438
y: 343.9541320800781
z: 0.0007003432256169617
","x: 223.6815185546875
y: 343.47930908203125
z: -0.00024070694053079933
","x: 225.67982482910156
y: 344.075439453125
z: -0.0010572586907073855
","x: 221.65159606933594
y: 342.9983825683594
z: -0.0022307841572910547
","x: 226.11859130859375
y: 343.8310546875
z: -0.003899797098711133
","x: 227.11639404296875
y: 345.335693359375
z: -0.0038917209021747112
","x: 226.9541778564453
y: 346.12286376953125
z: -0.0035689938813447952
","x: 221.7000732421875
y: 346.0980529785156
z: -0.003934584092348814
","x: 226.2793731689453
y: 346.869140625
z: -0.005895010661333799
","x: 227.39271545410156
y: 347.7112121582031
z: -0.005382339004427195
","x: 227.51376342773438
y: 347.96124267578125
z: -0.004680537153035402
","x: 221.65003967285156
y: 349.6116943359375
z: -0.005432725418359041
","x: 226.07199096679688
y: 350.1240234375
z: -0.007044697180390358
","x: 227.20034790039062
y: 350.470458984375
z: -0.005778767634183168
","x: 227.42166137695312
y: 350.5075378417969
z: -0.004686944652348757
","x: 221.53225708007812
y: 353.22430419921875
z: -0.0068929558619856834
","x: 225.20895385742188
y: 353.1982116699219
z: -0.008062460459768772
","x: 226.4083251953125
y: 352.9314880371094
z: -0.007292444352060556
","x: 226.9595489501953
y: 352.56158447265625
z: -0.006450148764997721
",,,,,,,,,,,,,,,,,,,,,
15,"x: 225.5877227783203
y: 321.3412780761719
z: -0.24254962801933289
visibility: 0.9998244047164917
","x: 226.92752075195312
y: 316.46282958984375
z: -0.23169395327568054
visibility: 0.9994980096817017
","x: 227.9424285888672
y: 316.3226013183594
z: -0.2316695898771286
visibility: 0.999348521232605
","x: 228.9014892578125
y: 316.1934814453125
z: -0.23170295357704163
visibility: 0.9992974400520325
","x: 223.6428680419922
y: 317.1416015625
z: -0.23311766982078552
visibility: 0.999656617641449
","x: 222.3867645263672
y: 317.3851623535156
z: -0.23318076133728027
visibility: 0.9996476769447327
","x: 221.12411499023438
y: 317.6461181640625
z: -0.2331872284412384
visibility: 0.9996863603591919
","x: 229.7785186767578
y: 318.2764892578125
z: -0.14510302245616913
visibility: 0.9986846446990967
","x: 219.0832061767578
y: 320.88861083984375
z: -0.15286704897880554
visibility: 0.9995779395103455
","x: 227.430419921875
y: 326.118896484375
z: -0.20735375583171844
visibility: 0.99970942735672
","x: 223.69171142578125
y: 328.38641357421875
z: -0.20986028015613556
visibility: 0.9998562932014465
","x: 240.55841064453125
y: 333.9679260253906
z: -0.08822064101696014
visibility: 0.9997391700744629
","x: 212.2539825439453
y: 347.6905517578125
z: -0.08774837851524353
visibility: 0.9999136328697205
","x: 257.126220703125
y: 357.9296569824219
z: -0.06099424511194229
visibility: 0.98175048828125
","x: 201.2332763671875
y: 365.4776611328125
z: -0.20790569484233856
visibility: 0.9823804497718811
","x: 269.9224853515625
y: 382.6435546875
z: -0.10769613087177277
visibility: 0.9808521270751953
","x: 211.38699340820312
y: 347.5265808105469
z: -0.37696388363838196
visibility: 0.9707618355751038
","x: 275.46234130859375
y: 391.7911376953125
z: -0.12209860980510712
visibility: 0.9571278691291809
","x: 216.2755584716797
y: 343.9974670410156
z: -0.4109034538269043
visibility: 0.9455438256263733
","x: 273.5049133300781
y: 393.420166015625
z: -0.14289946854114532
visibility: 0.9584367871284485
","x: 218.31973266601562
y: 344.1675109863281
z: -0.4071769714355469
visibility: 0.9473400712013245
","x: 271.4303283691406
y: 391.64849853515625
z: -0.11604306846857071
visibility: 0.9481591582298279
","x: 217.7046661376953
y: 345.8670654296875
z: -0.3791145980358124
visibility: 0.932944118976593
","x: 246.18203735351562
y: 416.6778869628906
z: -0.025447184219956398
visibility: 0.9994631409645081
","x: 230.70606994628906
y: 422.410400390625
z: 0.025499364361166954
visibility: 0.9995965957641602
","x: 246.4895477294922
y: 474.9661560058594
z: -0.052127301692962646
visibility: 0.9414725303649902
","x: 233.94813537597656
y: 480.5920104980469
z: 0.07777995616197586
visibility: 0.9357271790504456
","x: 248.39910888671875
y: 529.083740234375
z: 0.03936871141195297
visibility: 0.9296756386756897
","x: 245.75062561035156
y: 524.4179077148438
z: 0.2065986692905426
visibility: 0.9498077034950256
","x: 249.79098510742188
y: 535.8683471679688
z: 0.043146468698978424
visibility: 0.8764484524726868
","x: 248.54150390625
y: 529.027587890625
z: 0.2154703587293625
visibility: 0.8562613129615784
","x: 241.83160400390625
y: 549.1734008789062
z: -0.0497005470097065
visibility: 0.9451940059661865
","x: 239.42266845703125
y: 547.0023803710938
z: 0.14207026362419128
visibility: 0.9522070288658142
",,,,,,,,,,,,,,,,,,,,,,,,,,,,,,,,,,,,,,,,,,
16,"x: 228.879638671875
y: 331.30865478515625
z: -0.25220268964767456
visibility: 0.9998394250869751
","x: 230.4293975830078
y: 326.620361328125
z: -0.24171912670135498
visibility: 0.9995421171188354
","x: 231.54896545410156
y: 326.77667236328125
z: -0.24172690510749817
visibility: 0.9994081854820251
","x: 232.64437866210938
y: 327.0135192871094
z: -0.2417810708284378
visibility: 0.9993622899055481
","x: 227.4392852783203
y: 326.43719482421875
z: -0.23869159817695618
visibility: 0.9996793270111084
","x: 226.42001342773438
y: 326.3953857421875
z: -0.2387346774339676
visibility: 0.9996693730354309
","x: 225.40199279785156
y: 326.3179931640625
z: -0.23869308829307556
visibility: 0.9997023940086365
","x: 234.35870361328125
y: 329.3830871582031
z: -0.1644488424062729
visibility: 0.9988129734992981
","x: 224.0968780517578
y: 327.7765197753906
z: -0.15000692009925842
visibility: 0.9996016621589661
","x: 230.6290740966797
y: 336.9552001953125
z: -0.22238409519195557
visibility: 0.9997358322143555
","x: 227.39166259765625
y: 336.62152099609375
z: -0.21827438473701477
visibility: 0.9998635649681091
","x: 244.12484741210938
y: 352.79852294921875
z: -0.13855993747711182
visibility: 0.9997645020484924
","x: 215.8696746826172
y: 351.252685546875
z: -0.07198755443096161
visibility: 0.9999051094055176
","x: 260.0677185058594
y: 373.29241943359375
z: -0.18416878581047058
visibility: 0.9834291338920593
","x: 199.61170959472656
y: 354.4751281738281
z: -0.05536399036645889
visibility: 0.9837205410003662
","x: 273.2478942871094
y: 388.45513916015625
z: -0.31625422835350037
visibility: 0.9821662306785583
","x: 185.7698516845703
y: 341.6075439453125
z: -0.13592371344566345
visibility: 0.9731627702713013
","x: 279.05303955078125
y: 394.792236328125
z: -0.3468378484249115
visibility: 0.9595164656639099
","x: 180.2642059326172
y: 339.2709045410156
z: -0.15376047790050507
visibility: 0.9488855600357056
","x: 278.1650390625
y: 396.1659240722656
z: -0.3711391091346741
visibility: 0.9609977602958679
","x: 179.92630004882812
y: 338.1175231933594
z: -0.1769360601902008
visibility: 0.9507752656936646
","x: 275.9967346191406
y: 394.6148681640625
z: -0.3300561308860779
visibility: 0.9512971043586731
","x: 182.01429748535156
y: 339.5695495605469
z: -0.1507907211780548
visibility: 0.9379475712776184
","x: 250.05967712402344
y: 418.90692138671875
z: -0.0320080891251564
visibility: 0.9995037317276001
","x: 235.02383422851562
y: 430.174072265625
z: 0.03200654685497284
visibility: 0.9996247291564941
","x: 265.1436462402344
y: 476.61724853515625
z: -0.0933825671672821
visibility: 0.9472296833992004
","x: 232.7910919189453
y: 485.9007263183594
z: 0.02778088115155697
visibility: 0.941754937171936
","x: 283.11224365234375
y: 529.9817504882812
z: -0.006082608364522457
visibility: 0.9365493059158325
","x: 248.4523162841797
y: 530.2339477539062
z: 0.16545377671718597
visibility: 0.9542310833930969
","x: 285.4514465332031
y: 536.7354125976562
z: -0.003581179305911064
visibility: 0.8810652494430542
","x: 253.3097686767578
y: 536.1987915039062
z: 0.1737772524356842
visibility: 0.8676549792289734
","x: 286.05999755859375
y: 554.0459594726562
z: -0.11243230104446411
visibility: 0.9502742886543274
","x: 237.82623291015625
y: 547.732177734375
z: 0.09927608072757721
visibility: 0.9562061429023743
",,,,,,,,,,,,,,,,,,,,,,,,,,,,,,,,,,,,,,,,,,
17,"x: 232.85110473632812
y: 328.43914794921875
z: -0.3511813282966614
visibility: 0.9998541474342346
","x: 234.52305603027344
y: 324.6305847167969
z: -0.3411654829978943
visibility: 0.9995840787887573
","x: 235.5727081298828
y: 324.9698486328125
z: -0.3411668539047241
visibility: 0.9994639754295349
","x: 236.64268493652344
y: 325.2943115234375
z: -0.3412588834762573
visibility: 0.9994229674339294
","x: 231.38409423828125
y: 324.1614074707031
z: -0.3400675654411316
visibility: 0.9997015595436096
","x: 230.2657470703125
y: 324.13134765625
z: -0.34013980627059937
visibility: 0.999690592288971
","x: 229.11663818359375
y: 324.09722900390625
z: -0.34010669589042664
visibility: 0.9997196793556213
","x: 238.1153564453125
y: 328.6435241699219
z: -0.2608972489833832
visibility: 0.998928964138031
","x: 227.49684143066406
y: 326.01727294921875
z: -0.25536373257637024
visibility: 0.9996203184127808
","x: 234.38282775878906
y: 334.6602783203125
z: -0.31902363896369934
visibility: 0.9997601509094238
","x: 230.62710571289062
y: 333.97369384765625
z: -0.3175840675830841
visibility: 0.9998707175254822
","x: 247.85760498046875
y: 356.78411865234375
z: -0.22464752197265625
visibility: 0.9997871518135071
","x: 217.1887664794922
y: 350.5619812011719
z: -0.1520775854587555
visibility: 0.9998971819877625
","x: 262.8473205566406
y: 381.20355224609375
z: -0.2554064095020294
visibility: 0.9849988222122192
","x: 198.67039489746094
y: 351.15924072265625
z: -0.12314437329769135
visibility: 0.9851303696632385
","x: 274.4501953125
y: 410.94171142578125
z: -0.34321191906929016
visibility: 0.9834655523300171
","x: 176.73634338378906
y: 347.522705078125
z: -0.15232178568840027
visibility: 0.9754530191421509
","x: 279.11395263671875
y: 420.4646301269531
z: -0.3685072362422943
visibility: 0.9618375897407532
","x: 169.8142547607422
y: 347.73681640625
z: -0.17406238615512848
visibility: 0.9524005651473999
","x: 277.96624755859375
y: 422.23388671875
z: -0.39222949743270874
visibility: 0.9633855223655701
","x: 169.3641815185547
y: 347.0293884277344
z: -0.17763805389404297
visibility: 0.9543132781982422
","x: 275.96728515625
y: 419.40185546875
z: -0.35576051473617554
visibility: 0.9542989730834961
","x: 171.48092651367188
y: 347.5946044921875
z: -0.16155722737312317
visibility: 0.9429135918617249
","x: 251.1326141357422
y: 419.5785827636719
z: -0.02904364839196205
visibility: 0.9995440244674683
","x: 234.9304962158203
y: 430.6346130371094
z: 0.029002198949456215
visibility: 0.999652624130249
","x: 268.0854187011719
y: 476.5382385253906
z: -0.11273802816867828
visibility: 0.9524444937705994
","x: 234.7523956298828
y: 486.6941833496094
z: 0.015791576355695724
visibility: 0.9472496509552002
","x: 288.3702697753906
y: 522.643798828125
z: 0.0014680749736726284
visibility: 0.9428174495697021
","x: 248.19155883789062
y: 532.0634765625
z: 0.1600114107131958
visibility: 0.9585824608802795
","x: 290.112060546875
y: 526.2554931640625
z: 0.006487667560577393
visibility: 0.8887905478477478
","x: 252.84925842285156
y: 539.7274169921875
z: 0.16962195932865143
visibility: 0.8788243532180786
","x: 294.2838439941406
y: 546.534423828125
z: -0.09496548026800156
visibility: 0.9550169110298157
","x: 237.70510864257812
y: 548.115966796875
z: 0.09074418246746063
visibility: 0.9601650834083557
",,,,,,,,,,,,,,,,,,,,,,,,,,,,,,,,,,,,,,,,,,
18,"x: 234.99867248535156
y: 320.6685791015625
z: -0.338067889213562
visibility: 0.9998679161071777
","x: 237.2632598876953
y: 316.8731384277344
z: -0.3291953206062317
visibility: 0.9996230006217957
","x: 238.45989990234375
y: 317.48431396484375
z: -0.3291429579257965
visibility: 0.9995157122612
","x: 239.57901000976562
y: 318.1220703125
z: -0.3291175365447998
visibility: 0.9994778037071228
","x: 233.49618530273438
y: 315.8002014160156
z: -0.3282697796821594
visibility: 0.9997264742851257
","x: 232.1791534423828
y: 315.60137939453125
z: -0.3283347189426422
visibility: 0.9997177720069885
","x: 230.8960418701172
y: 315.4831237792969
z: -0.3283340632915497
visibility: 0.9997437000274658
","x: 241.091796875
y: 321.9271545410156
z: -0.24770966172218323
visibility: 0.9990325570106506
","x: 229.45071411132812
y: 317.8682861328125
z: -0.24895122647285461
visibility: 0.9996495842933655
","x: 236.9114227294922
y: 327.84326171875
z: -0.30627116560935974
visibility: 0.9997822046279907
","x: 232.32785034179688
y: 326.24017333984375
z: -0.30670982599258423
visibility: 0.9998815655708313
","x: 251.20179748535156
y: 354.19073486328125
z: -0.19968876242637634
visibility: 0.9998071193695068
","x: 219.95663452148438
y: 348.9285888671875
z: -0.14465220272541046
visibility: 0.999904215335846
","x: 259.8451232910156
y: 390.4669189453125
z: -0.18415823578834534
visibility: 0.986173152923584
","x: 208.51333618164062
y: 363.2884521484375
z: -0.05251801759004593
visibility: 0.985647976398468
","x: 268.9916687011719
y: 428.68096923828125
z: -0.250862181186676
visibility: 0.9846656918525696
","x: 194.8048553466797
y: 392.9674987792969
z: -0.03411000221967697
visibility: 0.9770033955574036
","x: 273.2813415527344
y: 438.55145263671875
z: -0.2719178795814514
visibility: 0.9638469815254211
","x: 189.1979522705078
y: 401.42572021484375
z: -0.03681173175573349
visibility: 0.9547794461250305
","x: 273.4640808105469
y: 439.959228515625
z: -0.29534295201301575
visibility: 0.9653556942939758
","x: 190.332275390625
y: 402.497802734375
z: -0.05983885005116463
visibility: 0.9568533301353455
","x: 272.0511779785156
y: 437.780517578125
z: -0.2616208791732788
visibility: 0.9567316770553589
","x: 192.82669067382812
y: 400.4111022949219
z: -0.04301607236266136
visibility: 0.9464904069900513
","x: 250.94692993164062
y: 418.8266296386719
z: -0.023369546979665756
visibility: 0.9995786547660828
","x: 233.9560089111328
y: 425.8418273925781
z: 0.02346181683242321
visibility: 0.9996855854988098
","x: 259.7008972167969
y: 472.35699462890625
z: 0.06962902843952179
visibility: 0.9568178653717041
","x: 238.48667907714844
y: 486.1668395996094
z: 0.02964867278933525
visibility: 0.9520304799079895
","x: 268.44097900390625
y: 493.8922424316406
z: 0.32277369499206543
visibility: 0.9471496939659119
","x: 243.96566772460938
y: 532.5001220703125
z: 0.1541551649570465
visibility: 0.9622361660003662
","x: 268.5598449707031
y: 493.8037109375
z: 0.34606194496154785
visibility: 0.8836829662322998
","x: 246.16905212402344
y: 539.52978515625
z: 0.16250041127204895
visibility: 0.8824032545089722
","x: 269.83123779296875
y: 518.42626953125
z: 0.28712570667266846
visibility: 0.9582393765449524
","x: 240.95492553710938
y: 548.3954467773438
z: 0.07880866527557373
visibility: 0.963397204875946
",,,,,,,,,,,,,,,,,,,,,,,,,,,,,,,,,,,,,,,,,,
19,"x: 235.0080108642578
y: 313.66455078125
z: -0.22404685616493225
visibility: 0.9998804926872253
","x: 237.21917724609375
y: 308.30682373046875
z: -0.2167619913816452
visibility: 0.9996587038040161
","x: 238.5371856689453
y: 308.4058837890625
z: -0.21677212417125702
visibility: 0.9995619654655457
","x: 239.81478881835938
y: 308.4959716796875
z: -0.2167857438325882
visibility: 0.9995277523994446
","x: 233.68133544921875
y: 307.943603515625
z: -0.21050512790679932
visibility: 0.9997517466545105
","x: 232.70677185058594
y: 307.69561767578125
z: -0.21050170063972473
visibility: 0.9997435808181763
","x: 231.74220275878906
y: 307.44305419921875
z: -0.21052038669586182
visibility: 0.9997668266296387
","x: 242.39187622070312
y: 310.5761413574219
z: -0.1597207486629486
visibility: 0.9991273880004883
","x: 232.21142578125
y: 309.48956298828125
z: -0.12962466478347778
visibility: 0.9996771216392517
","x: 237.72244262695312
y: 319.22998046875
z: -0.20053859055042267
visibility: 0.9998036026954651
","x: 233.48727416992188
y: 318.9761657714844
z: -0.19285210967063904
visibility: 0.9998929500579834
","x: 254.88755798339844
y: 346.7871398925781
z: -0.13916948437690735
visibility: 0.9998250007629395
","x: 224.53750610351562
y: 344.7958984375
z: -0.04993527755141258
visibility: 0.999912679195404
","x: 257.9602966308594
y: 384.3244934082031
z: -0.13770152628421783
visibility: 0.9872928261756897
","x: 223.47335815429688
y: 383.4476013183594
z: -0.0014685360947623849
visibility: 0.982854425907135
","x: 253.25692749023438
y: 419.8178405761719
z: -0.19817093014717102
visibility: 0.985274076461792
","x: 221.51669311523438
y: 422.2610168457031
z: -0.06969135999679565
visibility: 0.974358081817627
","x: 252.33901977539062
y: 430.8677673339844
z: -0.22802825272083282
visibility: 0.964813768863678
","x: 221.041259765625
y: 433.6488342285156
z: -0.08453437685966492
visibility: 0.9519129395484924
","x: 249.67807006835938
y: 429.30242919921875
z: -0.23319730162620544
visibility: 0.96616131067276
","x: 221.703369140625
y: 433.8490295410156
z: -0.10689685493707657
visibility: 0.9540472030639648
","x: 249.47293090820312
y: 425.7088623046875
z: -0.19915643334388733
visibility: 0.9576584100723267
","x: 222.46636962890625
y: 430.5760192871094
z: -0.07997647672891617
visibility: 0.9434537291526794
","x: 250.3614501953125
y: 417.35845947265625
z: -0.02000521495938301
visibility: 0.999614953994751
","x: 233.787841796875
y: 420.8224182128906
z: 0.020048104226589203
visibility: 0.9997142553329468
","x: 253.83737182617188
y: 474.0353698730469
z: -0.06663291901350021
visibility: 0.9546061158180237
","x: 238.30235290527344
y: 484.5128173828125
z: 0.03121897019445896
visibility: 0.9531795382499695
","x: 266.4338684082031
y: 459.05023193359375
z: 0.2096399962902069
visibility: 0.8722477555274963
","x: 243.144287109375
y: 532.435302734375
z: 0.15368936955928802
visibility: 0.9596587419509888
","x: 256.4183654785156
y: 451.7793273925781
z: 0.2373373806476593
visibility: 0.8240731358528137
","x: 244.8136749267578
y: 539.4822998046875
z: 0.16324861347675323
visibility: 0.871974527835846
","x: 253.28475952148438
y: 475.2831726074219
z: 0.23003189265727997
visibility: 0.894195556640625
","x: 240.47274780273438
y: 546.769775390625
z: 0.10378863662481308
visibility: 0.9578878879547119
",,,,,,,,,,,,,,,,,,,,,,"x: 251.1189422607422
y: 420.69964599609375
z: 0.0
","x: 248.41748046875
y: 420.6558532714844
z: -0.0028528154361993074
","x: 246.12464904785156
y: 423.6428527832031
z: -0.0040988558903336525
","x: 244.68853759765625
y: 427.0589904785156
z: -0.005088952835649252
","x: 243.34539794921875
y: 429.5050048828125
z: -0.005889842752367258
","x: 247.61473083496094
y: 431.30523681640625
z: -0.0017269874224439263
","x: 246.4509735107422
y: 435.5621032714844
z: -0.0032213625963777304
","x: 245.9290771484375
y: 438.4454345703125
z: -0.00417746277526021
","x: 245.7135772705078
y: 440.9169006347656
z: -0.004693433176726103
","x: 248.89271545410156
y: 433.25799560546875
z: -0.0013773691607639194
","x: 248.0055389404297
y: 438.5443115234375
z: -0.002675791271030903
","x: 247.46827697753906
y: 441.8728332519531
z: -0.003636879613623023
","x: 247.16403198242188
y: 444.84423828125
z: -0.004356298130005598
","x: 249.94302368164062
y: 434.1743469238281
z: -0.001442501088604331
","x: 249.37025451660156
y: 439.28265380859375
z: -0.0031162553932517767
","x: 248.98443603515625
y: 442.45916748046875
z: -0.00433283019810915
","x: 248.71685791015625
y: 445.3283386230469
z: -0.0050596632063388824
","x: 250.89317321777344
y: 434.2021484375
z: -0.0018212244613096118
","x: 250.80828857421875
y: 438.5968322753906
z: -0.003182691289111972
","x: 250.7957000732422
y: 441.11865234375
z: -0.004074615892022848
","x: 250.76499938964844
y: 443.2880859375
z: -0.004652576986700296
"
20,"x: 235.0080108642578
y: 313.66455078125
z: -0.22404685616493225
visibility: 0.9998804926872253
","x: 237.21917724609375
y: 308.30682373046875
z: -0.2167619913816452
visibility: 0.9996587038040161
","x: 238.5371856689453
y: 308.4058837890625
z: -0.21677212417125702
visibility: 0.9995619654655457
","x: 239.81478881835938
y: 308.4959716796875
z: -0.2167857438325882
visibility: 0.9995277523994446
","x: 233.68133544921875
y: 307.943603515625
z: -0.21050512790679932
visibility: 0.9997517466545105
","x: 232.70677185058594
y: 307.69561767578125
z: -0.21050170063972473
visibility: 0.9997435808181763
","x: 231.74220275878906
y: 307.44305419921875
z: -0.21052038669586182
visibility: 0.9997668266296387
","x: 242.39187622070312
y: 310.5761413574219
z: -0.1597207486629486
visibility: 0.9991273880004883
","x: 232.21142578125
y: 309.48956298828125
z: -0.12962466478347778
visibility: 0.9996771216392517
","x: 237.72244262695312
y: 319.22998046875
z: -0.20053859055042267
visibility: 0.9998036026954651
","x: 233.48727416992188
y: 318.9761657714844
z: -0.19285210967063904
visibility: 0.9998929500579834
","x: 254.88755798339844
y: 346.7871398925781
z: -0.13916948437690735
visibility: 0.9998250007629395
","x: 224.53750610351562
y: 344.7958984375
z: -0.04993527755141258
visibility: 0.999912679195404
","x: 257.9602966308594
y: 384.3244934082031
z: -0.13770152628421783
visibility: 0.9872928261756897
","x: 223.47335815429688
y: 383.4476013183594
z: -0.0014685360947623849
visibility: 0.982854425907135
","x: 253.25692749023438
y: 419.8178405761719
z: -0.19817093014717102
visibility: 0.985274076461792
","x: 221.51669311523438
y: 422.2610168457031
z: -0.06969135999679565
visibility: 0.974358081817627
","x: 252.33901977539062
y: 430.8677673339844
z: -0.22802825272083282
visibility: 0.964813768863678
","x: 221.041259765625
y: 433.6488342285156
z: -0.08453437685966492
visibility: 0.9519129395484924
","x: 249.67807006835938
y: 429.30242919921875
z: -0.23319730162620544
visibility: 0.96616131067276
","x: 221.703369140625
y: 433.8490295410156
z: -0.10689685493707657
visibility: 0.9540472030639648
","x: 249.47293090820312
y: 425.7088623046875
z: -0.19915643334388733
visibility: 0.9576584100723267
","x: 222.46636962890625
y: 430.5760192871094
z: -0.07997647672891617
visibility: 0.9434537291526794
","x: 250.3614501953125
y: 417.35845947265625
z: -0.02000521495938301
visibility: 0.999614953994751
","x: 233.787841796875
y: 420.8224182128906
z: 0.020048104226589203
visibility: 0.9997142553329468
","x: 253.83737182617188
y: 474.0353698730469
z: -0.06663291901350021
visibility: 0.9546061158180237
","x: 238.30235290527344
y: 484.5128173828125
z: 0.03121897019445896
visibility: 0.9531795382499695
","x: 266.4338684082031
y: 459.05023193359375
z: 0.2096399962902069
visibility: 0.8722477555274963
","x: 243.144287109375
y: 532.435302734375
z: 0.15368936955928802
visibility: 0.9596587419509888
","x: 256.4183654785156
y: 451.7793273925781
z: 0.2373373806476593
visibility: 0.8240731358528137
","x: 244.8136749267578
y: 539.4822998046875
z: 0.16324861347675323
visibility: 0.871974527835846
","x: 253.28475952148438
y: 475.2831726074219
z: 0.23003189265727997
visibility: 0.894195556640625
","x: 240.47274780273438
y: 546.769775390625
z: 0.10378863662481308
visibility: 0.9578878879547119
",,,,,,,,,,,,,,,,,,,,,,"x: 251.1189422607422
y: 420.69964599609375
z: 0.0
","x: 248.41748046875
y: 420.6558532714844
z: -0.0028528154361993074
","x: 246.12464904785156
y: 423.6428527832031
z: -0.0040988558903336525
","x: 244.68853759765625
y: 427.0589904785156
z: -0.005088952835649252
","x: 243.34539794921875
y: 429.5050048828125
z: -0.005889842752367258
","x: 247.61473083496094
y: 431.30523681640625
z: -0.0017269874224439263
","x: 246.4509735107422
y: 435.5621032714844
z: -0.0032213625963777304
","x: 245.9290771484375
y: 438.4454345703125
z: -0.00417746277526021
","x: 245.7135772705078
y: 440.9169006347656
z: -0.004693433176726103
","x: 248.89271545410156
y: 433.25799560546875
z: -0.0013773691607639194
","x: 248.0055389404297
y: 438.5443115234375
z: -0.002675791271030903
","x: 247.46827697753906
y: 441.8728332519531
z: -0.003636879613623023
","x: 247.16403198242188
y: 444.84423828125
z: -0.004356298130005598
","x: 249.94302368164062
y: 434.1743469238281
z: -0.001442501088604331
","x: 249.37025451660156
y: 439.28265380859375
z: -0.0031162553932517767
","x: 248.98443603515625
y: 442.45916748046875
z: -0.00433283019810915
","x: 248.71685791015625
y: 445.3283386230469
z: -0.0050596632063388824
","x: 250.89317321777344
y: 434.2021484375
z: -0.0018212244613096118
","x: 250.80828857421875
y: 438.5968322753906
z: -0.003182691289111972
","x: 250.7957000732422
y: 441.11865234375
z: -0.004074615892022848
","x: 250.76499938964844
y: 443.2880859375
z: -0.004652576986700296
"
21,"x: 236.30767822265625
y: 305.8465270996094
z: -0.20940515398979187
visibility: 0.9998902678489685
","x: 238.30535888671875
y: 301.22021484375
z: -0.20703665912151337
visibility: 0.999686062335968
","x: 239.5052490234375
y: 301.42901611328125
z: -0.2070598155260086
visibility: 0.9995989799499512
","x: 240.68540954589844
y: 301.66656494140625
z: -0.207060307264328
visibility: 0.9995681047439575
","x: 235.49171447753906
y: 300.6381530761719
z: -0.1986139714717865
visibility: 0.9997693300247192
","x: 234.69667053222656
y: 300.44049072265625
z: -0.19861926138401031
visibility: 0.9997597932815552
","x: 233.91366577148438
y: 300.31005859375
z: -0.19864389300346375
visibility: 0.999780535697937
","x: 243.80555725097656
y: 304.0158386230469
z: -0.15913552045822144
visibility: 0.9992071986198425
","x: 234.92813110351562
y: 302.68792724609375
z: -0.1230422854423523
visibility: 0.9996805787086487
","x: 238.99777221679688
y: 311.70782470703125
z: -0.18973705172538757
visibility: 0.9998207688331604
","x: 235.70892333984375
y: 311.1531982421875
z: -0.17919662594795227
visibility: 0.9999008178710938
","x: 255.07398986816406
y: 335.2455139160156
z: -0.13581523299217224
visibility: 0.9998387694358826
","x: 227.64088439941406
y: 339.414794921875
z: -0.037454213947057724
visibility: 0.9999175071716309
","x: 260.0555725097656
y: 378.3985900878906
z: -0.12927083671092987
visibility: 0.9883949756622314
","x: 224.25079345703125
y: 379.96295166015625
z: 0.02005178853869438
visibility: 0.9780513048171997
","x: 250.39414978027344
y: 410.337158203125
z: -0.18529778718948364
visibility: 0.986397385597229
","x: 218.09071350097656
y: 414.7358703613281
z: -0.04652371257543564
visibility: 0.9720262289047241
","x: 249.12225341796875
y: 422.4673156738281
z: -0.21093793213367462
visibility: 0.9672935605049133
","x: 215.13601684570312
y: 425.7461242675781
z: -0.05885618180036545
visibility: 0.9486802220344543
","x: 246.47509765625
y: 420.6488342285156
z: -0.21969835460186005
visibility: 0.9685306549072266
","x: 215.20729064941406
y: 427.04022216796875
z: -0.08491440117359161
visibility: 0.9512815475463867
","x: 246.33416748046875
y: 416.56854248046875
z: -0.18701723217964172
visibility: 0.9602940082550049
","x: 216.9967803955078
y: 422.6479797363281
z: -0.05834941193461418
visibility: 0.9402725100517273
","x: 250.50189208984375
y: 410.21368408203125
z: -0.020737294107675552
visibility: 0.9996022582054138
","x: 234.6923828125
y: 412.92889404296875
z: 0.020771954208612442
visibility: 0.9997340440750122
","x: 250.85580444335938
y: 470.0950927734375
z: -0.00771641731262207
visibility: 0.9580665826797485
","x: 237.44210815429688
y: 477.7769470214844
z: -0.014491677284240723
visibility: 0.9571755528450012
","x: 256.68865966796875
y: 491.85125732421875
z: 0.16774538159370422
visibility: 0.8808194994926453
","x: 243.58860778808594
y: 530.7598876953125
z: 0.027961889281868935
visibility: 0.9627652764320374
","x: 255.15286254882812
y: 491.6563720703125
z: 0.18258684873580933
visibility: 0.8294157981872559
","x: 245.85218811035156
y: 538.257080078125
z: 0.027325788512825966
visibility: 0.8746974468231201
","x: 256.7551574707031
y: 509.8257751464844
z: 0.13431066274642944
visibility: 0.9005317687988281
","x: 240.61346435546875
y: 546.5032348632812
z: -0.0521494522690773
visibility: 0.9602946639060974
",,,,,,,,,,,,,,,,,,,,,,,,,,,,,,,,,,,,,,,,,,
22,"x: 238.7724609375
y: 308.27484130859375
z: -0.14057955145835876
visibility: 0.9998394250869751
","x: 241.75787353515625
y: 303.09002685546875
z: -0.13193775713443756
visibility: 0.9995935559272766
","x: 242.95269775390625
y: 303.0970458984375
z: -0.13197533786296844
visibility: 0.9995129704475403
","x: 244.18447875976562
y: 303.17755126953125
z: -0.13200616836547852
visibility: 0.9994978308677673
","x: 238.86529541015625
y: 303.1568298339844
z: -0.12568987905979156
visibility: 0.9996284246444702
","x: 238.0714874267578
y: 303.15625
z: -0.12570255994796753
visibility: 0.999602735042572
","x: 237.322265625
y: 303.1859130859375
z: -0.12571820616722107
visibility: 0.999619722366333
","x: 247.24937438964844
y: 305.5751647949219
z: -0.07074128091335297
visibility: 0.9991658926010132
","x: 238.14585876464844
y: 305.4491271972656
z: -0.043552808463573456
visibility: 0.9994478225708008
","x: 240.94448852539062
y: 314.44189453125
z: -0.11732007563114166
visibility: 0.99981689453125
","x: 237.07138061523438
y: 313.8968200683594
z: -0.10968448221683502
visibility: 0.9998760223388672
","x: 256.8323974609375
y: 337.7457275390625
z: -0.07342392206192017
visibility: 0.999843955039978
","x: 230.4404754638672
y: 339.56695556640625
z: 0.011152304708957672
visibility: 0.9998814463615417
","x: 264.1482238769531
y: 361.26605224609375
z: -0.18615373969078064
visibility: 0.989223837852478
","x: 219.4663543701172
y: 361.1932373046875
z: -0.03470106050372124
visibility: 0.9735500812530518
","x: 244.40065002441406
y: 359.181884765625
z: -0.31659579277038574
visibility: 0.9874182939529419
","x: 214.2761993408203
y: 371.31402587890625
z: -0.2296655923128128
visibility: 0.9703608155250549
","x: 239.2280731201172
y: 362.1700744628906
z: -0.352469265460968
visibility: 0.9697610139846802
","x: 212.19580078125
y: 374.406005859375
z: -0.2636171579360962
visibility: 0.947468638420105
","x: 237.63320922851562
y: 360.5948486328125
z: -0.34712520241737366
visibility: 0.9708356261253357
","x: 214.05340576171875
y: 373.899658203125
z: -0.269929438829422
visibility: 0.9499546885490417
","x: 238.9542694091797
y: 359.84796142578125
z: -0.3163885772228241
visibility: 0.9627798199653625
","x: 215.6275634765625
y: 373.1974792480469
z: -0.23775871098041534
visibility: 0.9390203952789307
","x: 254.1969451904297
y: 416.4361267089844
z: -0.01977125182747841
visibility: 0.9995924234390259
","x: 237.4510955810547
y: 413.446044921875
z: 0.019722435623407364
visibility: 0.9996691942214966
","x: 249.6920623779297
y: 476.0598449707031
z: -0.017783459275960922
visibility: 0.9589909911155701
","x: 235.2783660888672
y: 476.9365234375
z: -0.036057088524103165
visibility: 0.9569017291069031
","x: 253.64488220214844
y: 528.090576171875
z: 0.11822961270809174
visibility: 0.8850089907646179
","x: 238.9183807373047
y: 527.8782348632812
z: 0.08733397722244263
visibility: 0.9570678472518921
","x: 252.81512451171875
y: 533.27197265625
z: 0.12805870175361633
visibility: 0.8017304539680481
","x: 241.1950225830078
y: 534.3350830078125
z: 0.09147252887487411
visibility: 0.8418295383453369
","x: 250.00474548339844
y: 541.1290893554688
z: 0.04582986235618591
visibility: 0.8997147679328918
","x: 240.21580505371094
y: 545.3851928710938
z: 0.01496096421033144
visibility: 0.9540945291519165
",,,,,,,,,,,,,,,,,,,,,,,,,,,,,,,,,,,,,,,,,,
23,"x: 239.97299194335938
y: 309.0951843261719
z: -0.19329534471035004
visibility: 0.9998399019241333
","x: 241.80453491210938
y: 304.1009826660156
z: -0.1839045286178589
visibility: 0.9995751976966858
","x: 242.94053649902344
y: 304.0585632324219
z: -0.18391981720924377
visibility: 0.9995067119598389
","x: 244.02891540527344
y: 304.08624267578125
z: -0.18393956124782562
visibility: 0.9994898438453674
","x: 238.760498046875
y: 304.3919677734375
z: -0.18060967326164246
visibility: 0.9996119737625122
","x: 237.901123046875
y: 304.4974365234375
z: -0.1806342601776123
visibility: 0.9995918273925781
","x: 237.1143341064453
y: 304.6033630371094
z: -0.18065094947814941
visibility: 0.9996128082275391
","x: 246.40660095214844
y: 306.3509521484375
z: -0.11364573240280151
visibility: 0.9991629719734192
","x: 236.9058380126953
y: 306.93463134765625
z: -0.09884319454431534
visibility: 0.9994444847106934
","x: 242.5151824951172
y: 314.90032958984375
z: -0.16595354676246643
visibility: 0.9998201131820679
","x: 238.65028381347656
y: 315.10791015625
z: -0.1619839370250702
visibility: 0.9998726844787598
","x: 256.7007751464844
y: 336.7088317871094
z: -0.0880388468503952
visibility: 0.9998541474342346
","x: 228.8960723876953
y: 340.1759033203125
z: -0.020328421145677567
visibility: 0.9998804926872253
","x: 263.4798583984375
y: 358.41241455078125
z: -0.10247576236724854
visibility: 0.9889172911643982
","x: 214.86351013183594
y: 362.9159240722656
z: 0.01936657354235649
visibility: 0.9741362929344177
","x: 246.36582946777344
y: 374.165771484375
z: -0.18834760785102844
visibility: 0.9853341579437256
","x: 220.41078186035156
y: 387.2254638671875
z: -0.05201437324285507
visibility: 0.9689865708351135
","x: 243.335205078125
y: 373.904296875
z: -0.2185591757297516
visibility: 0.9660183191299438
","x: 222.4353790283203
y: 399.3495178222656
z: -0.0714845061302185
visibility: 0.9440280795097351
","x: 240.67994689941406
y: 374.5810241699219
z: -0.22918061912059784
visibility: 0.9669738411903381
","x: 224.89920043945312
y: 397.3929443359375
z: -0.08848345279693604
visibility: 0.9463403820991516
","x: 240.72561645507812
y: 375.64471435546875
z: -0.19322259724140167
visibility: 0.9562217593193054
","x: 225.0164031982422
y: 393.07440185546875
z: -0.05981525033712387
visibility: 0.9348644614219666
","x: 255.6893310546875
y: 416.5617370605469
z: -0.021082065999507904
visibility: 0.9995431303977966
","x: 238.9090118408203
y: 415.61376953125
z: 0.02104904316365719
visibility: 0.9996260404586792
","x: 250.9105682373047
y: 477.2761535644531
z: -0.019960004836320877
visibility: 0.9623652696609497
","x: 234.3621826171875
y: 476.9559326171875
z: -0.02088928036391735
visibility: 0.9605426788330078
","x: 251.9248809814453
y: 532.3739013671875
z: 0.10813383758068085
visibility: 0.8958063125610352
","x: 239.5086212158203
y: 526.5747680664062
z: 0.12486513704061508
visibility: 0.9603657126426697
","x: 251.35923767089844
y: 538.2041015625
z: 0.11498363316059113
visibility: 0.8086106777191162
","x: 241.8988037109375
y: 533.36279296875
z: 0.13315793871879578
visibility: 0.8486487865447998
","x: 248.18003845214844
y: 549.1070556640625
z: 0.020923735573887825
visibility: 0.9085261225700378
","x: 238.6834259033203
y: 545.884033203125
z: 0.053843867033720016
visibility: 0.9574286937713623
",,,,,,,,,,,,,,,,,,,,,,,,,,,,,,,,,,,,,,,,,,
24,"x: 238.58493041992188
y: 304.750732421875
z: -0.1912001073360443
visibility: 0.9998483061790466
","x: 239.879150390625
y: 299.30224609375
z: -0.18342702090740204
visibility: 0.9995872974395752
","x: 240.8845672607422
y: 299.17706298828125
z: -0.18344876170158386
visibility: 0.9995299577713013
","x: 241.9187469482422
y: 299.12890625
z: -0.18345670402050018
visibility: 0.9995167851448059
","x: 237.40640258789062
y: 299.72784423828125
z: -0.17984214425086975
visibility: 0.9996156096458435
","x: 236.6585235595703
y: 299.8812255859375
z: -0.17985054850578308
visibility: 0.9995974898338318
","x: 235.89927673339844
y: 300.05059814453125
z: -0.17989763617515564
visibility: 0.9996165633201599
","x: 244.1641387939453
y: 301.7530517578125
z: -0.12066169083118439
visibility: 0.9992117285728455
","x: 234.97042846679688
y: 302.67230224609375
z: -0.10449077188968658
visibility: 0.9994014501571655
","x: 240.64584350585938
y: 310.0686950683594
z: -0.1666756570339203
visibility: 0.9998314380645752
","x: 237.4936065673828
y: 310.52655029296875
z: -0.1620858907699585
visibility: 0.999874472618103
","x: 254.9196319580078
y: 330.12689208984375
z: -0.09346793591976166
visibility: 0.9998664855957031
","x: 228.67478942871094
y: 336.57916259765625
z: -0.02854505553841591
visibility: 0.9998664855957031
","x: 261.5220031738281
y: 361.4482421875
z: -0.07735581696033478
visibility: 0.9894130229949951
","x: 226.23220825195312
y: 374.21343994140625
z: 0.008578227832913399
visibility: 0.9649161696434021
","x: 255.866943359375
y: 407.1219482421875
z: -0.13744902610778809
visibility: 0.9857257008552551
","x: 230.73779296875
y: 414.2367248535156
z: -0.05530938506126404
visibility: 0.962440013885498
","x: 256.62213134765625
y: 419.1141357421875
z: -0.1599145084619522
visibility: 0.9673187732696533
","x: 230.0718231201172
y: 427.25262451171875
z: -0.07191174477338791
visibility: 0.9349387884140015
","x: 252.4803466796875
y: 418.0260009765625
z: -0.179635688662529
visibility: 0.9682542681694031
","x: 232.68658447265625
y: 426.02947998046875
z: -0.09487989544868469
visibility: 0.9374828934669495
","x: 250.708984375
y: 415.6445617675781
z: -0.14527931809425354
visibility: 0.957745373249054
","x: 233.8008270263672
y: 422.1571350097656
z: -0.0654023140668869
visibility: 0.9251598715782166
","x: 254.53268432617188
y: 412.30224609375
z: -0.024747945368289948
visibility: 0.9995076060295105
","x: 239.20437622070312
y: 413.99969482421875
z: 0.02472778782248497
visibility: 0.9995415210723877
","x: 253.15737915039062
y: 475.5291442871094
z: -0.021061310544610023
visibility: 0.9655327200889587
","x: 237.54180908203125
y: 476.44036865234375
z: 0.02106359228491783
visibility: 0.9624683856964111
","x: 253.79006958007812
y: 529.239990234375
z: 0.08663512021303177
visibility: 0.9054267406463623
","x: 240.07925415039062
y: 526.694091796875
z: 0.12684844434261322
visibility: 0.9626133441925049
","x: 254.07977294921875
y: 534.9566650390625
z: 0.09155689924955368
visibility: 0.8105738162994385
","x: 242.6438751220703
y: 533.3775024414062
z: 0.13279764354228973
visibility: 0.8518469929695129
","x: 247.30198669433594
y: 546.8278198242188
z: 0.0012143984204158187
visibility: 0.9161932468414307
","x: 238.64395141601562
y: 545.6146240234375
z: 0.05403633788228035
visibility: 0.9596282839775085
",,,,,,,,,,,,,,,,,,,,,,,,,,,,,,,,,,,,,,,,,,
25,"x: 239.7392578125
y: 320.19842529296875
z: -0.21958330273628235
visibility: 0.9998337626457214
","x: 240.38609313964844
y: 314.0560302734375
z: -0.21620476245880127
visibility: 0.9995479583740234
","x: 241.17527770996094
y: 313.3471984863281
z: -0.21623258292675018
visibility: 0.9995001554489136
","x: 241.92506408691406
y: 311.5302734375
z: -0.21626994013786316
visibility: 0.9994763731956482
","x: 238.0869140625
y: 315.0896911621094
z: -0.2169109582901001
visibility: 0.9995894432067871
","x: 237.22023010253906
y: 315.27386474609375
z: -0.21697267889976501
visibility: 0.9995739459991455
","x: 236.35818481445312
y: 315.525634765625
z: -0.21702149510383606
visibility: 0.9995974898338318
","x: 242.94989013671875
y: 309.665771484375
z: -0.14611870050430298
visibility: 0.9992119073867798
","x: 234.51492309570312
y: 314.2501525878906
z: -0.1467311680316925
visibility: 0.9993777275085449
","x: 241.21224975585938
y: 321.17181396484375
z: -0.18768329918384552
visibility: 0.9997974038124084
","x: 238.26434326171875
y: 322.95770263671875
z: -0.1887231022119522
visibility: 0.9998364448547363
","x: 253.7625274658203
y: 332.9006652832031
z: -0.09220317751169205
visibility: 0.9998741745948792
","x: 227.3069305419922
y: 337.84503173828125
z: -0.061363328248262405
visibility: 0.9998533129692078
","x: 264.88775634765625
y: 359.23223876953125
z: -0.07865644246339798
visibility: 0.9885791540145874
","x: 220.65284729003906
y: 383.91015625
z: -0.07936857640743256
visibility: 0.9658768773078918
","x: 270.9436340332031
y: 378.57720947265625
z: -0.16596804559230804
visibility: 0.9818034768104553
","x: 233.81549072265625
y: 393.2864074707031
z: -0.20402288436889648
visibility: 0.9643959999084473
","x: 272.9861145019531
y: 386.18304443359375
z: -0.1899028718471527
visibility: 0.9620239734649658
","x: 238.42478942871094
y: 395.03350830078125
z: -0.2300504446029663
visibility: 0.9378043413162231
","x: 270.44732666015625
y: 385.4818115234375
z: -0.20878955721855164
visibility: 0.9638229012489319
","x: 239.25582885742188
y: 386.8802490234375
z: -0.24059176445007324
visibility: 0.9402741193771362
","x: 269.3746032714844
y: 383.68035888671875
z: -0.17479358613491058
visibility: 0.9528799057006836
","x: 238.21995544433594
y: 385.8178405761719
z: -0.2094913274049759
visibility: 0.9275853037834167
","x: 254.9362335205078
y: 413.107666015625
z: -0.028374936431646347
visibility: 0.9994214773178101
","x: 239.9534912109375
y: 415.0967102050781
z: 0.02845662273466587
visibility: 0.999426543712616
","x: 250.8711700439453
y: 467.9956359863281
z: -0.06161153316497803
visibility: 0.9677907228469849
","x: 238.7989044189453
y: 474.2763671875
z: 0.021544327959418297
visibility: 0.9563533067703247
","x: 252.59677124023438
y: 526.6088256835938
z: 0.012511737644672394
visibility: 0.9132914543151855
","x: 244.28758239746094
y: 527.5158081054688
z: 0.08168568462133408
visibility: 0.9614425301551819
","x: 253.26295471191406
y: 531.2130126953125
z: 0.015607793815433979
visibility: 0.8179177045822144
","x: 246.8380126953125
y: 535.921875
z: 0.08250903338193893
visibility: 0.8527142405509949
","x: 247.7793731689453
y: 545.005615234375
z: -0.057183898985385895
visibility: 0.9226238131523132
","x: 238.3385009765625
y: 545.882568359375
z: 0.010891714133322239
visibility: 0.9587751626968384
","x: 233.19338989257812
y: 386.28399658203125
z: 0.0
","x: 236.24147033691406
y: 390.4955749511719
z: -0.0013144139666110277
","x: 239.65475463867188
y: 391.5426940917969
z: -0.00241663446649909
","x: 242.6173553466797
y: 390.87744140625
z: -0.0034744555596262217
","x: 244.60971069335938
y: 390.2462158203125
z: -0.004048815928399563
","x: 240.71470642089844
y: 382.55096435546875
z: -0.00287054106593132
","x: 245.2045440673828
y: 384.30267333984375
z: -0.003696801606565714
","x: 244.7129669189453
y: 387.1737060546875
z: -0.0032338397577404976
","x: 243.6624755859375
y: 387.97198486328125
z: -0.002783619100227952
","x: 240.505859375
y: 380.0805358886719
z: -0.0030018275137990713
","x: 244.9098358154297
y: 381.8507080078125
z: -0.003616238944232464
","x: 244.5559539794922
y: 384.9209289550781
z: -0.002568716648966074
","x: 243.4757080078125
y: 386.0980529785156
z: -0.0017703225603327155
","x: 240.273681640625
y: 379.286376953125
z: -0.003202032996341586
","x: 244.31874084472656
y: 381.38720703125
z: -0.0038860372733324766
","x: 243.9201202392578
y: 384.1979675292969
z: -0.0027390329632908106
","x: 242.8030548095703
y: 385.30242919921875
z: -0.0019515074091032147
","x: 240.11241149902344
y: 379.67034912109375
z: -0.00359125854447484
","x: 243.37815856933594
y: 381.8388366699219
z: -0.004135506693273783
","x: 243.07192993164062
y: 384.0704040527344
z: -0.003482855623587966
","x: 242.11386108398438
y: 385.23992919921875
z: -0.002840859815478325
",,,,,,,,,,,,,,,,,,,,,
26,"x: 239.7392578125
y: 320.19842529296875
z: -0.21958330273628235
visibility: 0.9998337626457214
","x: 240.38609313964844
y: 314.0560302734375
z: -0.21620476245880127
visibility: 0.9995479583740234
","x: 241.17527770996094
y: 313.3471984863281
z: -0.21623258292675018
visibility: 0.9995001554489136
","x: 241.92506408691406
y: 311.5302734375
z: -0.21626994013786316
visibility: 0.9994763731956482
","x: 238.0869140625
y: 315.0896911621094
z: -0.2169109582901001
visibility: 0.9995894432067871
","x: 237.22023010253906
y: 315.27386474609375
z: -0.21697267889976501
visibility: 0.9995739459991455
","x: 236.35818481445312
y: 315.525634765625
z: -0.21702149510383606
visibility: 0.9995974898338318
","x: 242.94989013671875
y: 309.665771484375
z: -0.14611870050430298
visibility: 0.9992119073867798
","x: 234.51492309570312
y: 314.2501525878906
z: -0.1467311680316925
visibility: 0.9993777275085449
","x: 241.21224975585938
y: 321.17181396484375
z: -0.18768329918384552
visibility: 0.9997974038124084
","x: 238.26434326171875
y: 322.95770263671875
z: -0.1887231022119522
visibility: 0.9998364448547363
","x: 253.7625274658203
y: 332.9006652832031
z: -0.09220317751169205
visibility: 0.9998741745948792
","x: 227.3069305419922
y: 337.84503173828125
z: -0.061363328248262405
visibility: 0.9998533129692078
","x: 264.88775634765625
y: 359.23223876953125
z: -0.07865644246339798
visibility: 0.9885791540145874
","x: 220.65284729003906
y: 383.91015625
z: -0.07936857640743256
visibility: 0.9658768773078918
","x: 270.9436340332031
y: 378.57720947265625
z: -0.16596804559230804
visibility: 0.9818034768104553
","x: 233.81549072265625
y: 393.2864074707031
z: -0.20402288436889648
visibility: 0.9643959999084473
","x: 272.9861145019531
y: 386.18304443359375
z: -0.1899028718471527
visibility: 0.9620239734649658
","x: 238.42478942871094
y: 395.03350830078125
z: -0.2300504446029663
visibility: 0.9378043413162231
","x: 270.44732666015625
y: 385.4818115234375
z: -0.20878955721855164
visibility: 0.9638229012489319
","x: 239.25582885742188
y: 386.8802490234375
z: -0.24059176445007324
visibility: 0.9402741193771362
","x: 269.3746032714844
y: 383.68035888671875
z: -0.17479358613491058
visibility: 0.9528799057006836
","x: 238.21995544433594
y: 385.8178405761719
z: -0.2094913274049759
visibility: 0.9275853037834167
","x: 254.9362335205078
y: 413.107666015625
z: -0.028374936431646347
visibility: 0.9994214773178101
","x: 239.9534912109375
y: 415.0967102050781
z: 0.02845662273466587
visibility: 0.999426543712616
","x: 250.8711700439453
y: 467.9956359863281
z: -0.06161153316497803
visibility: 0.9677907228469849
","x: 238.7989044189453
y: 474.2763671875
z: 0.021544327959418297
visibility: 0.9563533067703247
","x: 252.59677124023438
y: 526.6088256835938
z: 0.012511737644672394
visibility: 0.9132914543151855
","x: 244.28758239746094
y: 527.5158081054688
z: 0.08168568462133408
visibility: 0.9614425301551819
","x: 253.26295471191406
y: 531.2130126953125
z: 0.015607793815433979
visibility: 0.8179177045822144
","x: 246.8380126953125
y: 535.921875
z: 0.08250903338193893
visibility: 0.8527142405509949
","x: 247.7793731689453
y: 545.005615234375
z: -0.057183898985385895
visibility: 0.9226238131523132
","x: 238.3385009765625
y: 545.882568359375
z: 0.010891714133322239
visibility: 0.9587751626968384
","x: 233.19338989257812
y: 386.28399658203125
z: 0.0
","x: 236.24147033691406
y: 390.4955749511719
z: -0.0013144139666110277
","x: 239.65475463867188
y: 391.5426940917969
z: -0.00241663446649909
","x: 242.6173553466797
y: 390.87744140625
z: -0.0034744555596262217
","x: 244.60971069335938
y: 390.2462158203125
z: -0.004048815928399563
","x: 240.71470642089844
y: 382.55096435546875
z: -0.00287054106593132
","x: 245.2045440673828
y: 384.30267333984375
z: -0.003696801606565714
","x: 244.7129669189453
y: 387.1737060546875
z: -0.0032338397577404976
","x: 243.6624755859375
y: 387.97198486328125
z: -0.002783619100227952
","x: 240.505859375
y: 380.0805358886719
z: -0.0030018275137990713
","x: 244.9098358154297
y: 381.8507080078125
z: -0.003616238944232464
","x: 244.5559539794922
y: 384.9209289550781
z: -0.002568716648966074
","x: 243.4757080078125
y: 386.0980529785156
z: -0.0017703225603327155
","x: 240.273681640625
y: 379.286376953125
z: -0.003202032996341586
","x: 244.31874084472656
y: 381.38720703125
z: -0.0038860372733324766
","x: 243.9201202392578
y: 384.1979675292969
z: -0.0027390329632908106
","x: 242.8030548095703
y: 385.30242919921875
z: -0.0019515074091032147
","x: 240.11241149902344
y: 379.67034912109375
z: -0.00359125854447484
","x: 243.37815856933594
y: 381.8388366699219
z: -0.004135506693273783
","x: 243.07192993164062
y: 384.0704040527344
z: -0.003482855623587966
","x: 242.11386108398438
y: 385.23992919921875
z: -0.002840859815478325
",,,,,,,,,,,,,,,,,,,,,
27,"x: 242.67408752441406
y: 318.9362487792969
z: -0.25957268476486206
visibility: 0.999812662601471
