uscmakers/ReverseChoreography/data/3_jupiter_love_trey_songz.csv
,NOSE,LEFT_EYE_INNER,LEFT_EYE,LEFT_EYE_OUTER,RIGHT_EYE_INNER,RIGHT_EYE,RIGHT_EYE_OUTER,LEFT_EAR,RIGHT_EAR,MOUTH_LEFT,MOUTH_RIGHT,LEFT_SHOULDER,RIGHT_SHOULDER,LEFT_ELBOW,RIGHT_ELBOW,LEFT_WRIST,RIGHT_WRIST,LEFT_PINKY,RIGHT_PINKY,LEFT_INDEX,RIGHT_INDEX,LEFT_THUMB,RIGHT_THUMB,LEFT_HIP,RIGHT_HIP,LEFT_KNEE,RIGHT_KNEE,LEFT_ANKLE,RIGHT_ANKLE,LEFT_HEEL,RIGHT_HEEL,LEFT_FOOT_INDEX,RIGHT_FOOT_INDEX,WRIST2,THUMB_CPC2,THUMB_MCP2,THUMB_IP2,THUMB_TIP2,INDEX_FINGER_MCP2,INDEX_FINGER_PIP2,INDEX_FINGER_DIP2,INDEX_FINGER_TIP2,MIDDLE_FINGER_MCP2,MIDDLE_FINGER_PIP2,MIDDLE_FINGER_DIP2,MIDDLE_FINGER_TIP2,RING_FINGER_PIP2,RING_FINGER_DIP2,RING_FINGER_TIP2,RING_FINGER_MCP2,PINKY_MCP2,PINKY_PIP2,PINKY_DIP2,PINKY_TIP2,WRIST,THUMB_CPC,THUMB_MCP,THUMB_IP,THUMB_TIP,INDEX_FINGER_MCP,INDEX_FINGER_PIP,INDEX_FINGER_DIP,INDEX_FINGER_TIP,MIDDLE_FINGER_MCP,MIDDLE_FINGER_PIP,MIDDLE_FINGER_DIP,MIDDLE_FINGER_TIP,RING_FINGER_PIP,RING_FINGER_DIP,RING_FINGER_TIP,RING_FINGER_MCP,PINKY_MCP,PINKY_PIP,PINKY_DIP,PINKY_TIP
0,"x: 263.920166015625
y: 439.68878173828125
z: -0.04362885653972626
visibility: 0.9999561309814453
","x: 264.38372802734375
y: 433.74810791015625
z: -0.06177704408764839
visibility: 0.9999628067016602
","x: 265.0394592285156
y: 433.71697998046875
z: -0.06175412982702255
visibility: 0.9999635219573975
","x: 265.7019348144531
y: 433.7160949707031
z: -0.061771880835294724
visibility: 0.9999561309814453
","x: 263.5718994140625
y: 432.7933044433594
z: -0.03872019052505493
visibility: 0.9999256134033203
","x: 263.65380859375
y: 432.1556091308594
z: -0.03870071470737457
visibility: 0.9999340772628784
","x: 263.8251037597656
y: 431.6070251464844
z: -0.03875881806015968
visibility: 0.9999575614929199
","x: 270.3240966796875
y: 432.6689147949219
z: -0.11330695450305939
visibility: 0.9999428987503052
","x: 268.6552734375
y: 431.2777404785156
z: -0.009286193177103996
visibility: 0.999964714050293
","x: 267.9322204589844
y: 444.4387512207031
z: -0.06040661409497261
visibility: 0.9999200105667114
","x: 266.9163513183594
y: 443.5843505859375
z: -0.03046342357993126
visibility: 0.9998894929885864
","x: 284.89666748046875
y: 454.197998046875
z: -0.15397702157497406
visibility: 0.9999822378158569
","x: 278.927490234375
y: 443.292236328125
z: 0.03902048245072365
visibility: 0.9999853372573853
","x: 271.81732177734375
y: 499.8632507324219
z: -0.13926970958709717
visibility: 0.9871705174446106
","x: 268.180908203125
y: 488.1800842285156
z: 0.05409277230501175
visibility: 0.2879067659378052
","x: 269.7183837890625
y: 466.0074157714844
z: -0.05904263257980347
visibility: 0.933136522769928
","x: 249.8207244873047
y: 516.8684692382812
z: -0.008748648688197136
visibility: 0.3279007375240326
","x: 258.35992431640625
y: 468.37847900390625
z: -0.06593688577413559
visibility: 0.892095148563385
","x: 243.63192749023438
y: 524.7928466796875
z: -0.0056520733051002026
visibility: 0.3025532364845276
","x: 259.5357666015625
y: 463.72021484375
z: -0.053425781428813934
visibility: 0.8878369927406311
","x: 242.89627075195312
y: 524.3985595703125
z: -0.026183005422353745
visibility: 0.30058553814888
","x: 260.705078125
y: 465.3638000488281
z: -0.05097772553563118
visibility: 0.83663010597229
","x: 246.5310821533203
y: 521.2627563476562
z: -0.018385455012321472
visibility: 0.30554115772247314
","x: 274.7960510253906
y: 537.75439453125
z: -0.0647754892706871
visibility: 0.9999634027481079
","x: 269.2901916503906
y: 525.5391235351562
z: 0.06483250856399536
visibility: 0.9999673366546631
","x: 239.38339233398438
y: 566.5689697265625
z: -0.09266448765993118
visibility: 0.9850569367408752
","x: 234.62741088867188
y: 550.0501098632812
z: 0.10487918555736542
visibility: 0.4995148777961731
","x: 276.4397888183594
y: 561.6015014648438
z: -0.004574060905724764
visibility: 0.7751474976539612
","x: 272.4830017089844
y: 551.6900024414062
z: 0.16581398248672485
visibility: 0.12394995987415314
","x: 279.3796081542969
y: 556.900390625
z: 0.007442651782184839
visibility: 0.6440101265907288
","x: 275.5709533691406
y: 548.006103515625
z: 0.17205999791622162
visibility: 0.1854299157857895
","x: 288.5520935058594
y: 571.9170532226562
z: 0.07413952797651291
visibility: 0.7994345426559448
","x: 282.3117370605469
y: 564.5048828125
z: 0.23532314598560333
visibility: 0.18488681316375732
",,,,,,,,,,,,,,,,,,,,,,,,,,,,,,,,,,,,,,,,,,
1,"x: 237.48367309570312
y: 503.72442626953125
z: -0.2863239347934723
visibility: 0.999893307685852
","x: 237.95645141601562
y: 503.5738830566406
z: -0.30841031670570374
visibility: 0.999933123588562
","x: 238.67935180664062
y: 503.218505859375
z: -0.3084140121936798
visibility: 0.9999302625656128
","x: 239.40704345703125
y: 502.898193359375
z: -0.3085266351699829
visibility: 0.9999284744262695
","x: 236.4071044921875
y: 504.04931640625
z: -0.29949575662612915
visibility: 0.9999098777770996
","x: 236.20339965820312
y: 504.2503662109375
z: -0.2995065152645111
visibility: 0.9999099969863892
","x: 235.99658203125
y: 504.46484375
z: -0.29957056045532227
visibility: 0.9999237060546875
","x: 243.89756774902344
y: 498.30609130859375
z: -0.32901379466056824
visibility: 0.999932587146759
","x: 237.55384826660156
y: 500.7307434082031
z: -0.2859281599521637
visibility: 0.9999470710754395
","x: 240.68167114257812
y: 502.0494079589844
z: -0.2829165756702423
visibility: 0.9999175667762756
","x: 239.72442626953125
y: 502.9010009765625
z: -0.2709774672985077
visibility: 0.9998928904533386
","x: 257.705810546875
y: 482.13336181640625
z: -0.26465198397636414
visibility: 0.9999786019325256
","x: 237.4853515625
y: 498.0052490234375
z: -0.20142921805381775
visibility: 0.9999774694442749
","x: 260.52880859375
y: 459.9158935546875
z: -0.15423144400119781
visibility: 0.9509322047233582
","x: 234.24169921875
y: 528.5449829101562
z: -0.09924942255020142
visibility: 0.26763397455215454
","x: 264.5050048828125
y: 427.16998291015625
z: -0.0496864952147007
visibility: 0.9148443341255188
","x: 232.32421875
y: 568.164306640625
z: -0.07683157920837402
visibility: 0.3128967881202698
","x: 262.5333251953125
y: 417.54449462890625
z: -0.05029512569308281
visibility: 0.877454936504364
","x: 225.280517578125
y: 574.1377563476562
z: -0.0766901820898056
visibility: 0.29432210326194763
","x: 261.2469787597656
y: 417.0849304199219
z: -0.060730528086423874
visibility: 0.8744198083877563
","x: 226.11968994140625
y: 574.6936645507812
z: -0.10153168439865112
visibility: 0.2942679524421692
","x: 261.3779296875
y: 421.7795104980469
z: -0.050217144191265106
visibility: 0.8254409432411194
","x: 232.26026916503906
y: 562.99462890625
z: -0.08401749283075333
visibility: 0.3038809597492218
","x: 254.71902465820312
y: 524.7462768554688
z: -0.021361546590924263
visibility: 0.9999670386314392
","x: 242.11309814453125
y: 518.235595703125
z: 0.021523181349039078
visibility: 0.999970555305481
","x: 268.1845703125
y: 549.6016845703125
z: -0.11703293025493622
visibility: 0.9826678037643433
","x: 238.86090087890625
y: 499.4372863769531
z: 0.018172021955251694
visibility: 0.5066461563110352
","x: 262.5373229980469
y: 523.7882080078125
z: 0.03045656345784664
visibility: 0.7347261905670166
","x: 231.3924102783203
y: 494.66082763671875
z: 0.11896172910928726
visibility: 0.1269310861825943
","x: 260.7725830078125
y: 518.044921875
z: 0.050675440579652786
visibility: 0.6044952869415283
","x: 230.15330505371094
y: 497.42694091796875
z: 0.13448992371559143
visibility: 0.1829930692911148
","x: 258.7839660644531
y: 511.6181945800781
z: 0.07252819836139679
visibility: 0.7586060762405396
","x: 227.271240234375
y: 480.39990234375
z: 0.1589237004518509
visibility: 0.19289442896842957
",,,,,,,,,,,,,,,,,,,,,,,,,,,,,,,,,,,,,,,,,,
2,"x: 214.0488739013672
y: 477.9349365234375
z: -0.22815696895122528
visibility: 0.9996153116226196
","x: 214.64808654785156
y: 471.8262939453125
z: -0.24903912842273712
visibility: 0.9998829364776611
","x: 216.0906219482422
y: 471.98052978515625
z: -0.2490624189376831
visibility: 0.9998857378959656
","x: 217.34518432617188
y: 472.21051025390625
z: -0.2492130696773529
visibility: 0.9998655319213867
","x: 212.24037170410156
y: 471.454345703125
z: -0.2362792193889618
visibility: 0.9998377561569214
","x: 211.80247497558594
y: 471.2174987792969
z: -0.2362997978925705
visibility: 0.999843418598175
","x: 211.65245056152344
y: 470.6396484375
z: -0.23639707267284393
visibility: 0.9998067021369934
","x: 222.32945251464844
y: 472.7780456542969
z: -0.2841280400753021
visibility: 0.9999174475669861
","x: 216.30645751953125
y: 470.0875549316406
z: -0.228602796792984
visibility: 0.9998388290405273
","x: 219.2616729736328
y: 483.6167907714844
z: -0.23423278331756592
visibility: 0.9998857975006104
","x: 216.63302612304688
y: 483.4777526855469
z: -0.21787992119789124
visibility: 0.999864935874939
","x: 243.41233825683594
y: 496.2756652832031
z: -0.2525973618030548
visibility: 0.9999661445617676
","x: 231.48892211914062
y: 480.0236511230469
z: -0.18437263369560242
visibility: 0.9999409317970276
","x: 244.383056640625
y: 526.9996948242188
z: -0.26544737815856934
visibility: 0.9008015394210815
","x: 240.3422393798828
y: 508.07513427734375
z: -0.13074634969234467
visibility: 0.2616182863712311
","x: 238.02523803710938
y: 563.2478637695312
z: -0.29168155789375305
visibility: 0.8904092311859131
","x: 239.04571533203125
y: 512.2924194335938
z: -0.11484430730342865
visibility: 0.3096921741962433
","x: 237.59071350097656
y: 563.7302856445312
z: -0.30941128730773926
visibility: 0.862133264541626
","x: 233.79190063476562
y: 512.3217163085938
z: -0.10870343446731567
visibility: 0.30864235758781433
","x: 233.9573211669922
y: 559.397216796875
z: -0.3161279559135437
visibility: 0.8564431071281433
","x: 235.521728515625
y: 509.9792175292969
z: -0.12355039268732071
visibility: 0.3107239603996277
","x: 233.6138153076172
y: 557.3279418945312
z: -0.29344841837882996
visibility: 0.8089460730552673
","x: 232.7323455810547
y: 510.7612609863281
z: -0.1188371330499649
visibility: 0.3176901936531067
","x: 250.85226440429688
y: 515.2933349609375
z: -0.009166864678263664
visibility: 0.9999703168869019
","x: 236.8179931640625
y: 506.7877502441406
z: 0.009083748795092106
visibility: 0.9999731779098511
","x: 279.40496826171875
y: 529.8829345703125
z: -0.12211743742227554
visibility: 0.9818716049194336
","x: 238.2130889892578
y: 469.90643310546875
z: 0.030507007613778114
visibility: 0.536437451839447
","x: 256.41009521484375
y: 545.5849609375
z: -0.12603920698165894
visibility: 0.7474766373634338
","x: 234.63595581054688
y: 454.8794250488281
z: 0.10217291116714478
visibility: 0.15950161218643188
","x: 251.95555114746094
y: 550.5225219726562
z: -0.12235722690820694
visibility: 0.6326900124549866
","x: 233.63539123535156
y: 457.3220520019531
z: 0.11526583135128021
visibility: 0.2424333244562149
","x: 251.66754150390625
y: 561.0475463867188
z: -0.12939779460430145
visibility: 0.7717092633247375
","x: 237.08338928222656
y: 438.94482421875
z: 0.13757380843162537
visibility: 0.23335783183574677
",,,,,,,,,,,,,,,,,,,,,,,,,,,,,,,,,,,,,,,,,,
3,"x: 226.6815948486328
y: 494.7315979003906
z: -0.2027139663696289
visibility: 0.9996315240859985
","x: 226.22940063476562
y: 495.219482421875
z: -0.21744835376739502
visibility: 0.9998883605003357
","x: 227.16891479492188
y: 495.0378723144531
z: -0.21744997799396515
visibility: 0.999890148639679
","x: 228.0872344970703
y: 494.9212646484375
z: -0.21753446757793427
visibility: 0.9998727440834045
","x: 224.38389587402344
y: 495.98577880859375
z: -0.21229195594787598
visibility: 0.9998489022254944
","x: 223.97227478027344
y: 496.6092529296875
z: -0.21234099566936493
visibility: 0.9998534321784973
","x: 223.60340881347656
y: 497.21685791015625
z: -0.21247997879981995
visibility: 0.999820351600647
","x: 234.23016357421875
y: 483.6265563964844
z: -0.22995257377624512
visibility: 0.999923825263977
","x: 226.18455505371094
y: 496.3478088378906
z: -0.20563602447509766
visibility: 0.9998511672019958
","x: 231.77114868164062
y: 493.95648193359375
z: -0.20101535320281982
visibility: 0.9998949766159058
","x: 229.94651794433594
y: 495.3701171875
z: -0.1943340301513672
visibility: 0.9998763203620911
","x: 253.53175354003906
y: 491.1395568847656
z: -0.21840521693229675
visibility: 0.9999471306800842
","x: 233.0915069580078
y: 495.7811279296875
z: -0.17444215714931488
visibility: 0.9999399781227112
","x: 250.3603973388672
y: 515.885498046875
z: -0.20579668879508972
visibility: 0.8660362362861633
","x: 233.7857666015625
y: 526.5113525390625
z: -0.1781318485736847
visibility: 0.24595239758491516
","x: 229.974609375
y: 498.27496337890625
z: -0.21000006794929504
visibility: 0.8584408760070801
","x: 226.3794403076172
y: 531.8118896484375
z: -0.24543693661689758
visibility: 0.30120736360549927
","x: 227.1619415283203
y: 474.37200927734375
z: -0.21831095218658447
visibility: 0.8285241723060608
","x: 221.11920166015625
y: 534.8104248046875
z: -0.2578900456428528
visibility: 0.3066796362400055
","x: 227.27745056152344
y: 476.1900329589844
z: -0.21313893795013428
visibility: 0.8222603797912598
","x: 222.13160705566406
y: 530.001708984375
z: -0.27114713191986084
visibility: 0.31065458059310913
","x: 228.91009521484375
y: 482.7268981933594
z: -0.20542053878307343
visibility: 0.7788938283920288
","x: 225.25291442871094
y: 530.1502685546875
z: -0.25186190009117126
visibility: 0.3224259316921234
","x: 253.36549377441406
y: 519.1453857421875
z: 0.004705939907580614
visibility: 0.9999729990959167
","x: 238.77247619628906
y: 517.7938232421875
z: -0.00466802716255188
visibility: 0.9999755620956421
","x: 280.2920837402344
y: 531.486572265625
z: -0.05865847319364548
visibility: 0.9738214015960693
","x: 247.80035400390625
y: 521.7167358398438
z: -0.06908848881721497
visibility: 0.5638998746871948
","x: 254.44911193847656
y: 547.9871826171875
z: -0.02153920568525791
visibility: 0.7152935266494751
","x: 242.48117065429688
y: 541.7241821289062
z: 0.023667987436056137
visibility: 0.15955017507076263
","x: 251.0249481201172
y: 551.2300415039062
z: -0.015356553718447685
visibility: 0.6006320714950562
","x: 242.23097229003906
y: 543.8472900390625
z: 0.0381261445581913
visibility: 0.24171264469623566
","x: 245.37054443359375
y: 563.6409301757812
z: -0.006871738471090794
visibility: 0.7346124649047852
","x: 242.7536163330078
y: 542.7965087890625
z: 0.056084632873535156
visibility: 0.23104599118232727
",,,,,,,,,,,,,,,,,,,,,,,,,,,,,,,,,,,,,,,,,,
4,"x: 220.30860900878906
y: 483.4411926269531
z: -0.15603406727313995
visibility: 0.9995627999305725
","x: 219.0472869873047
y: 477.92584228515625
z: -0.17480622231960297
visibility: 0.9998534917831421
","x: 219.86907958984375
y: 477.6570129394531
z: -0.17481353878974915
visibility: 0.999862790107727
","x: 221.10096740722656
y: 487.1368103027344
z: -0.17484623193740845
visibility: 0.9998341798782349
","x: 217.32064819335938
y: 477.3922119140625
z: -0.1585235446691513
visibility: 0.999779999256134
","x: 216.98757934570312
y: 476.97882080078125
z: -0.15852072834968567
visibility: 0.9997857213020325
","x: 216.6956329345703
y: 476.60296630859375
z: -0.15860076248645782
visibility: 0.9997233152389526
","x: 226.8120574951172
y: 472.21051025390625
z: -0.21877768635749817
visibility: 0.9999091625213623
","x: 221.1118927001953
y: 474.6394348144531
z: -0.14256420731544495
visibility: 0.9997125864028931
","x: 225.57223510742188
y: 486.86651611328125
z: -0.1666298508644104
visibility: 0.9998757839202881
","x: 224.2997589111328
y: 487.3707275390625
z: -0.14510324597358704
visibility: 0.9998282790184021
","x: 249.7843780517578
y: 498.328369140625
z: -0.23661363124847412
visibility: 0.9999483823776245
","x: 240.3226318359375
y: 479.95159912109375
z: -0.09496521204710007
visibility: 0.9998571276664734
","x: 237.5863037109375
y: 539.3054809570312
z: -0.2540646493434906
visibility: 0.8744669556617737
","x: 236.54640197753906
y: 520.3277587890625
z: -0.0970139354467392
visibility: 0.22225244343280792
","x: 211.67803955078125
y: 546.117919921875
z: -0.22161003947257996
visibility: 0.8694393634796143
","x: 221.70855712890625
y: 543.1353149414062
z: -0.1762431263923645
visibility: 0.2725422978401184
","x: 206.84127807617188
y: 544.0062866210938
z: -0.23316410183906555
visibility: 0.8396979570388794
","x: 217.01861572265625
y: 549.0222778320312
z: -0.17695912718772888
visibility: 0.27820268273353577
","x: 207.745849609375
y: 539.29150390625
z: -0.223887637257576
visibility: 0.8336474895477295
","x: 216.33670043945312
y: 545.647705078125
z: -0.19023312628269196
visibility: 0.2820107936859131
","x: 209.58648681640625
y: 542.089599609375
z: -0.21475818753242493
visibility: 0.7918949723243713
","x: 218.71624755859375
y: 545.0160522460938
z: -0.18386894464492798
visibility: 0.29332950711250305
","x: 255.15005493164062
y: 541.3116455078125
z: -0.005635756999254227
visibility: 0.9999714493751526
","x: 244.38795471191406
y: 530.9090576171875
z: 0.003979237284511328
visibility: 0.9999671578407288
","x: 266.96929931640625
y: 538.2286376953125
z: -0.11474794149398804
visibility: 0.9622130393981934
","x: 236.26788330078125
y: 520.4339599609375
z: 0.010507311671972275
visibility: 0.5347670316696167
","x: 254.11683654785156
y: 568.7515869140625
z: -0.09514670073986053
visibility: 0.7044122219085693
","x: 230.863037109375
y: 569.0189819335938
z: 0.008300809189677238
visibility: 0.19703778624534607
","x: 254.32608032226562
y: 575.003662109375
z: -0.09053123742341995
visibility: 0.6072433590888977
","x: 232.91873168945312
y: 578.9320068359375
z: 0.006489703897386789
visibility: 0.2816629707813263
","x: 246.7531280517578
y: 578.6126098632812
z: -0.09379075467586517
visibility: 0.7366244196891785
","x: 220.2257843017578
y: 576.8030395507812
z: -0.009785937145352364
visibility: 0.273107647895813
",,,,,,,,,,,,,,,,,,,,,,,,,,,,,,,,,,,,,,,,,,
5,"x: 221.77513122558594
y: 489.9220275878906
z: -0.22711798548698425
visibility: 0.9995840787887573
","x: 222.1602325439453
y: 484.63604736328125
z: -0.24374230206012726
visibility: 0.9998480677604675
","x: 223.92347717285156
y: 484.89666748046875
z: -0.24373595416545868
visibility: 0.9998650550842285
","x: 224.97467041015625
y: 485.6141357421875
z: -0.24373240768909454
visibility: 0.999830961227417
","x: 219.59353637695312
y: 484.415283203125
z: -0.22965125739574432
visibility: 0.9997594952583313
","x: 218.53451538085938
y: 483.4635009765625
z: -0.22963640093803406
visibility: 0.9997739791870117
","x: 217.97007751464844
y: 482.9872131347656
z: -0.2296958714723587
visibility: 0.9996963739395142
","x: 228.5321044921875
y: 478.1030578613281
z: -0.26366451382637024
visibility: 0.9999106526374817
","x: 220.83663940429688
y: 477.4618835449219
z: -0.20131179690361023
visibility: 0.9997011423110962
","x: 227.53704833984375
y: 492.62890625
z: -0.22791194915771484
visibility: 0.9998723268508911
","x: 224.31532287597656
y: 492.60675048828125
z: -0.20951049029827118
visibility: 0.9998210668563843
","x: 255.1568145751953
y: 501.92218017578125
z: -0.22787456214427948
visibility: 0.9999457597732544
","x: 229.58621215820312
y: 477.2984313964844
z: -0.14455002546310425
visibility: 0.9998522400856018
","x: 235.809326171875
y: 551.285400390625
z: -0.22642120718955994
visibility: 0.8723160028457642
","x: 225.29637145996094
y: 526.3716430664062
z: -0.11594778299331665
visibility: 0.22530829906463623
","x: 211.10183715820312
y: 572.3345336914062
z: -0.1978052258491516
visibility: 0.8745921850204468
","x: 210.6204071044922
y: 555.322509765625
z: -0.13866622745990753
visibility: 0.2848968803882599
","x: 206.82919311523438
y: 576.0804443359375
z: -0.20564782619476318
visibility: 0.8447735905647278
","x: 206.7786865234375
y: 564.0184326171875
z: -0.13594409823417664
visibility: 0.2900054454803467
","x: 205.1856689453125
y: 572.0739135742188
z: -0.2012588083744049
visibility: 0.8391072154045105
","x: 205.89321899414062
y: 564.7881469726562
z: -0.14981569349765778
visibility: 0.29783302545547485
","x: 206.6144561767578
y: 570.1282958984375
z: -0.19352573156356812
visibility: 0.8001672625541687
","x: 208.35140991210938
y: 564.66357421875
z: -0.14449888467788696
visibility: 0.31197845935821533
","x: 258.1343078613281
y: 525.8209838867188
z: -0.011227209120988846
visibility: 0.9999718070030212
","x: 241.01358032226562
y: 515.3881225585938
z: 0.01101017091423273
visibility: 0.9999668598175049
","x: 277.4901123046875
y: 535.84521484375
z: -0.15376034379005432
visibility: 0.9582718014717102
","x: 234.9413299560547
y: 521.890380859375
z: -0.10524512827396393
visibility: 0.5675958395004272
","x: 256.87939453125
y: 575.9283447265625
z: -0.08434590697288513
visibility: 0.7224162220954895
","x: 227.14932250976562
y: 571.8935546875
z: -0.039026565849781036
visibility: 0.26459670066833496
","x: 254.53138732910156
y: 577.4052124023438
z: -0.07699156552553177
visibility: 0.6250625252723694
","x: 227.61062622070312
y: 578.406005859375
z: -0.031529899686574936
visibility: 0.3346026539802551
","x: 252.17156982421875
y: 596.0863647460938
z: -0.10491551458835602
visibility: 0.7522542476654053
","x: 222.14443969726562
y: 587.0665283203125
z: -0.0631139725446701
visibility: 0.3351428210735321
",,,,,,,,,,,,,,,,,,,,,,,,,,,,,,,,,,,,,,,,,,
6,"x: 222.22732543945312
y: 481.3897399902344
z: -0.2295340597629547
visibility: 0.9996183514595032
","x: 222.16107177734375
y: 476.2005920410156
z: -0.2436201572418213
visibility: 0.9998573064804077
","x: 223.54710388183594
y: 473.9678649902344
z: -0.24362187087535858
visibility: 0.999873697757721
","x: 224.8424835205078
y: 470.14361572265625
z: -0.24366328120231628
visibility: 0.9998408555984497
","x: 219.15374755859375
y: 478.5836486816406
z: -0.2297164648771286
visibility: 0.9997743368148804
","x: 218.46359252929688
y: 478.0517272949219
z: -0.22971539199352264
visibility: 0.9997877478599548
","x: 217.87738037109375
y: 478.07171630859375
z: -0.2298099547624588
visibility: 0.9997153282165527
","x: 229.14901733398438
y: 467.02679443359375
z: -0.26402005553245544
visibility: 0.9999157190322876
","x: 221.59524536132812
y: 471.2216491699219
z: -0.20410671830177307
visibility: 0.999719500541687
","x: 228.08795166015625
y: 484.27630615234375
z: -0.23283651471138
visibility: 0.9998818039894104
","x: 224.52178955078125
y: 484.3382263183594
z: -0.21507041156291962
visibility: 0.9998355507850647
","x: 254.0974884033203
y: 492.10003662109375
z: -0.2536642849445343
visibility: 0.9999502897262573
","x: 231.43116760253906
y: 474.51312255859375
z: -0.1516692340373993
visibility: 0.999864935874939
","x: 234.3416290283203
y: 538.888427734375
z: -0.27255818247795105
visibility: 0.8807521462440491
","x: 224.8802490234375
y: 523.6602172851562
z: -0.1932157427072525
visibility: 0.21072416007518768
","x: 211.38990783691406
y: 564.0971069335938
z: -0.2659167945384979
visibility: 0.8845001459121704
","x: 217.93994140625
y: 556.2601928710938
z: -0.2897831201553345
visibility: 0.2740476429462433
","x: 206.09375
y: 569.0846557617188
z: -0.2838616967201233
visibility: 0.855358898639679
","x: 212.664794921875
y: 563.7645874023438
z: -0.2982049584388733
visibility: 0.28166788816452026
","x: 204.28329467773438
y: 563.8558349609375
z: -0.2779495120048523
visibility: 0.850482165813446
","x: 213.17884826660156
y: 561.490478515625
z: -0.310116171836853
visibility: 0.2916089594364166
","x: 206.27383422851562
y: 563.1044921875
z: -0.2619050145149231
visibility: 0.8136110305786133
","x: 215.9373321533203
y: 559.3712768554688
z: -0.29667070508003235
visibility: 0.30751678347587585
","x: 256.37921142578125
y: 531.5671997070312
z: -0.0171449463814497
visibility: 0.9999734163284302
","x: 240.64315795898438
y: 518.63134765625
z: 0.017121879383921623
visibility: 0.999970018863678
","x: 259.4129638671875
y: 588.4189453125
z: -0.0129194725304842
visibility: 0.9550891518592834
","x: 233.84518432617188
y: 545.7081909179688
z: -0.1250024139881134
visibility: 0.6019508838653564
","x: 266.8952331542969
y: 571.3421020507812
z: 0.1965489685535431
visibility: 0.687704861164093
","x: 229.62387084960938
y: 569.4127197265625
z: -0.03950513154268265
visibility: 0.2999642789363861
","x: 270.1588134765625
y: 571.4891967773438
z: 0.2196827232837677
visibility: 0.585212230682373
","x: 230.82073974609375
y: 572.0398559570312
z: -0.027941133826971054
visibility: 0.34481674432754517
","x: 269.4977722167969
y: 583.3992309570312
z: 0.24185839295387268
visibility: 0.7109577655792236
","x: 225.38169860839844
y: 581.3093872070312
z: -0.035686347633600235
visibility: 0.3624114990234375
","x: 212.8454132080078
y: 562.19091796875
z: 0.0
","x: 208.600341796875
y: 558.7332763671875
z: 0.001449058996513486
","x: 204.0688934326172
y: 557.280029296875
z: 0.0011524294968694448
","x: 200.68777465820312
y: 556.3347778320312
z: 0.0003224668325856328
","x: 198.08795166015625
y: 554.7614135742188
z: -0.0003830730856861919
","x: 202.288818359375
y: 559.2338256835938
z: 0.0008073927601799369
","x: 198.07688903808594
y: 561.4664916992188
z: -0.000593690958339721
","x: 195.36355590820312
y: 562.7605590820312
z: -0.001232316717505455
","x: 193.14508056640625
y: 563.6427612304688
z: -0.0015737473731860518
","x: 202.66041564941406
y: 561.7338256835938
z: -0.00123616645578295
","x: 198.32666015625
y: 563.53125
z: -0.002448954153805971
","x: 195.42819213867188
y: 564.5386962890625
z: -0.002626534551382065
","x: 192.8628387451172
y: 565.4708251953125
z: -0.0028491395059973
","x: 203.315673828125
y: 564.50146484375
z: -0.0033603000920265913
","x: 199.01687622070312
y: 565.66455078125
z: -0.00465517770498991
","x: 196.30084228515625
y: 566.5991821289062
z: -0.004450214561074972
","x: 194.05117797851562
y: 567.4564208984375
z: -0.004381803795695305
","x: 204.2830810546875
y: 567.3157348632812
z: -0.005500254686921835
","x: 200.73963928222656
y: 568.2648315429688
z: -0.006604574155062437
","x: 198.31886291503906
y: 568.7658081054688
z: -0.006517078727483749
","x: 196.14419555664062
y: 569.2371215820312
z: -0.006430947221815586
",,,,,,,,,,,,,,,,,,,,,
7,"x: 222.22732543945312
y: 481.3897399902344
z: -0.2295340597629547
visibility: 0.9996183514595032
","x: 222.16107177734375
y: 476.2005920410156
z: -0.2436201572418213
visibility: 0.9998573064804077
","x: 223.54710388183594
y: 473.9678649902344
z: -0.24362187087535858
visibility: 0.999873697757721
","x: 224.8424835205078
y: 470.14361572265625
z: -0.24366328120231628
visibility: 0.9998408555984497
","x: 219.15374755859375
y: 478.5836486816406
z: -0.2297164648771286
visibility: 0.9997743368148804
","x: 218.46359252929688
y: 478.0517272949219
z: -0.22971539199352264
visibility: 0.9997877478599548
","x: 217.87738037109375
y: 478.07171630859375
z: -0.2298099547624588
visibility: 0.9997153282165527
","x: 229.14901733398438
y: 467.02679443359375
z: -0.26402005553245544
visibility: 0.9999157190322876
","x: 221.59524536132812
y: 471.2216491699219
z: -0.20410671830177307
visibility: 0.999719500541687
","x: 228.08795166015625
y: 484.27630615234375
z: -0.23283651471138
visibility: 0.9998818039894104
","x: 224.52178955078125
y: 484.3382263183594
z: -0.21507041156291962
visibility: 0.9998355507850647
","x: 254.0974884033203
y: 492.10003662109375
z: -0.2536642849445343
visibility: 0.9999502897262573
","x: 231.43116760253906
y: 474.51312255859375
z: -0.1516692340373993
visibility: 0.999864935874939
","x: 234.3416290283203
y: 538.888427734375
z: -0.27255818247795105
visibility: 0.8807521462440491
","x: 224.8802490234375
y: 523.6602172851562
z: -0.1932157427072525
visibility: 0.21072416007518768
","x: 211.38990783691406
y: 564.0971069335938
z: -0.2659167945384979
visibility: 0.8845001459121704
","x: 217.93994140625
y: 556.2601928710938
z: -0.2897831201553345
visibility: 0.2740476429462433
","x: 206.09375
y: 569.0846557617188
z: -0.2838616967201233
visibility: 0.855358898639679
","x: 212.664794921875
y: 563.7645874023438
z: -0.2982049584388733
visibility: 0.28166788816452026
","x: 204.28329467773438
y: 563.8558349609375
z: -0.2779495120048523
visibility: 0.850482165813446
","x: 213.17884826660156
y: 561.490478515625
z: -0.310116171836853
visibility: 0.2916089594364166
","x: 206.27383422851562
y: 563.1044921875
z: -0.2619050145149231
visibility: 0.8136110305786133
","x: 215.9373321533203
y: 559.3712768554688
z: -0.29667070508003235
visibility: 0.30751678347587585
","x: 256.37921142578125
y: 531.5671997070312
z: -0.0171449463814497
visibility: 0.9999734163284302
","x: 240.64315795898438
y: 518.63134765625
z: 0.017121879383921623
visibility: 0.999970018863678
","x: 259.4129638671875
y: 588.4189453125
z: -0.0129194725304842
visibility: 0.9550891518592834
","x: 233.84518432617188
y: 545.7081909179688
z: -0.1250024139881134
visibility: 0.6019508838653564
","x: 266.8952331542969
y: 571.3421020507812
z: 0.1965489685535431
visibility: 0.687704861164093
","x: 229.62387084960938
y: 569.4127197265625
z: -0.03950513154268265
visibility: 0.2999642789363861
","x: 270.1588134765625
y: 571.4891967773438
z: 0.2196827232837677
visibility: 0.585212230682373
","x: 230.82073974609375
y: 572.0398559570312
z: -0.027941133826971054
visibility: 0.34481674432754517
","x: 269.4977722167969
y: 583.3992309570312
z: 0.24185839295387268
visibility: 0.7109577655792236
","x: 225.38169860839844
y: 581.3093872070312
z: -0.035686347633600235
visibility: 0.3624114990234375
","x: 212.8454132080078
y: 562.19091796875
z: 0.0
","x: 208.600341796875
y: 558.7332763671875
z: 0.001449058996513486
","x: 204.0688934326172
y: 557.280029296875
z: 0.0011524294968694448
","x: 200.68777465820312
y: 556.3347778320312
z: 0.0003224668325856328
","x: 198.08795166015625
y: 554.7614135742188
z: -0.0003830730856861919
","x: 202.288818359375
y: 559.2338256835938
z: 0.0008073927601799369
","x: 198.07688903808594
y: 561.4664916992188
z: -0.000593690958339721
","x: 195.36355590820312
y: 562.7605590820312
z: -0.001232316717505455
","x: 193.14508056640625
y: 563.6427612304688
z: -0.0015737473731860518
","x: 202.66041564941406
y: 561.7338256835938
z: -0.00123616645578295
","x: 198.32666015625
y: 563.53125
z: -0.002448954153805971
","x: 195.42819213867188
y: 564.5386962890625
z: -0.002626534551382065
","x: 192.8628387451172
y: 565.4708251953125
z: -0.0028491395059973
","x: 203.315673828125
y: 564.50146484375
z: -0.0033603000920265913
","x: 199.01687622070312
y: 565.66455078125
z: -0.00465517770498991
","x: 196.30084228515625
y: 566.5991821289062
z: -0.004450214561074972
","x: 194.05117797851562
y: 567.4564208984375
z: -0.004381803795695305
","x: 204.2830810546875
y: 567.3157348632812
z: -0.005500254686921835
","x: 200.73963928222656
y: 568.2648315429688
z: -0.006604574155062437
","x: 198.31886291503906
y: 568.7658081054688
z: -0.006517078727483749
","x: 196.14419555664062
y: 569.2371215820312
z: -0.006430947221815586
",,,,,,,,,,,,,,,,,,,,,
8,"x: 221.93801879882812
y: 470.12750244140625
z: -0.24296030402183533
visibility: 0.9996483325958252
","x: 222.89276123046875
y: 460.8952331542969
z: -0.24969728291034698
visibility: 0.9998573064804077
","x: 225.07040405273438
y: 472.1949768066406
z: -0.24969251453876495
visibility: 0.9998728632926941
","x: 226.37440490722656
y: 467.48828125
z: -0.24974581599235535
visibility: 0.9998409152030945
","x: 218.65664672851562
y: 462.2474365234375
z: -0.24356818199157715
visibility: 0.9997817277908325
","x: 217.82748413085938
y: 462.9803161621094
z: -0.24354083836078644
visibility: 0.9997907876968384
","x: 217.08648681640625
y: 463.77447509765625
z: -0.24358215928077698
visibility: 0.9997186660766602
","x: 231.41598510742188
y: 466.4880065917969
z: -0.23820486664772034
visibility: 0.9999041557312012
","x: 221.2577362060547
y: 469.62872314453125
z: -0.20454223453998566
visibility: 0.99972003698349
","x: 228.34617614746094
y: 476.0786437988281
z: -0.2323576956987381
visibility: 0.999885618686676
","x: 223.5699920654297
y: 475.5038146972656
z: -0.2237028181552887
visibility: 0.9998410940170288
","x: 253.24716186523438
y: 481.82666015625
z: -0.19010767340660095
visibility: 0.9999541640281677
","x: 227.0419921875
y: 472.07537841796875
z: -0.16191372275352478
visibility: 0.9998775124549866
","x: 250.54556274414062
y: 520.1063842773438
z: -0.23769192397594452
visibility: 0.8863129615783691
","x: 225.99151611328125
y: 519.77587890625
z: -0.15812604129314423
visibility: 0.23016256093978882
","x: 241.48207092285156
y: 518.7144165039062
z: -0.2974069118499756
visibility: 0.8907167911529541
","x: 223.41146850585938
y: 555.4036865234375
z: -0.19456754624843597
visibility: 0.30800843238830566
","x: 235.24807739257812
y: 515.6953125
z: -0.3155418932437897
visibility: 0.8606751561164856
","x: 217.18643188476562
y: 576.0447998046875
z: -0.20398955047130585
visibility: 0.3143540024757385
","x: 231.21273803710938
y: 512.5029296875
z: -0.3102076053619385
visibility: 0.8572263717651367
","x: 221.1908721923828
y: 566.27099609375
z: -0.21491877734661102
visibility: 0.32577207684516907
","x: 235.01953125
y: 508.7466125488281
z: -0.29563236236572266
visibility: 0.8230790495872498
","x: 222.39990234375
y: 571.2775268554688
z: -0.19954507052898407
visibility: 0.3419676721096039
","x: 248.93411254882812
y: 523.0578002929688
z: -0.013030864298343658
visibility: 0.9999757409095764
","x: 232.66334533691406
y: 510.04901123046875
z: 0.013041171245276928
visibility: 0.9999729990959167
","x: 251.16815185546875
y: 580.45703125
z: -0.0018366507720202208
visibility: 0.9519689679145813
","x: 218.31103515625
y: 497.8062438964844
z: -0.11828656494617462
visibility: 0.6368714570999146
","x: 266.84234619140625
y: 570.0501098632812
z: 0.22004985809326172
visibility: 0.6872758865356445
","x: 211.10557556152344
y: 567.271484375
z: -0.05430873483419418
visibility: 0.3657294511795044
","x: 269.2777404785156
y: 566.6832885742188
z: 0.2445129156112671
visibility: 0.5862966775894165
","x: 213.84800720214844
y: 563.2276611328125
z: -0.04704020544886589
visibility: 0.3989790976047516
","x: 273.5968322753906
y: 581.3974609375
z: 0.2512356638908386
visibility: 0.7047846913337708
","x: 193.70777893066406
y: 572.0800170898438
z: -0.0743267685174942
visibility: 0.4209272563457489
",,,,,,,,,,,,,,,,,,,,,,,,,,,,,,,,,,,,,,,,,,
9,"x: 215.831298828125
y: 438.4902648925781
z: -0.27378207445144653
visibility: 0.9996802806854248
","x: 214.8213653564453
y: 431.539306640625
z: -0.27164703607559204
visibility: 0.9998584985733032
","x: 215.7040557861328
y: 431.93475341796875
z: -0.2716134786605835
visibility: 0.9998695254325867
","x: 216.86683654785156
y: 431.393798828125
z: -0.27167099714279175
visibility: 0.9998432397842407
","x: 211.96743774414062
y: 435.4543762207031
z: -0.27416107058525085
visibility: 0.9997977614402771
","x: 210.9252166748047
y: 437.2544860839844
z: -0.27414411306381226
visibility: 0.9998042583465576
","x: 209.92022705078125
y: 440.4810791015625
z: -0.2741658091545105
visibility: 0.9997388124465942
","x: 218.9129180908203
y: 434.02142333984375
z: -0.22920966148376465
visibility: 0.999886155128479
","x: 209.76063537597656
y: 445.8115234375
z: -0.23340800404548645
visibility: 0.9997344613075256
","x: 220.49801635742188
y: 444.17822265625
z: -0.25293129682540894
visibility: 0.9998890161514282
","x: 216.27764892578125
y: 447.3848876953125
z: -0.2559329867362976
visibility: 0.9998501539230347
","x: 241.79208374023438
y: 440.2560119628906
z: -0.1522255688905716
visibility: 0.9999560713768005
","x: 215.5784454345703
y: 467.8545837402344
z: -0.2092108279466629
visibility: 0.9998875260353088
","x: 250.5556640625
y: 453.34283447265625
z: -0.08061880618333817
visibility: 0.8881875276565552
","x: 221.1365203857422
y: 516.25830078125
z: -0.21396520733833313
visibility: 0.3019735813140869
","x: 270.130859375
y: 459.3772888183594
z: -0.014748337678611279
visibility: 0.897230863571167
","x: 224.22784423828125
y: 560.834228515625
z: -0.22516465187072754
visibility: 0.3745521903038025
","x: 273.44427490234375
y: 463.4513854980469
z: -0.005604221951216459
visibility: 0.8660637140274048
","x: 220.45008850097656
y: 573.8403930664062
z: -0.23756146430969238
visibility: 0.3776123523712158
","x: 273.2752380371094
y: 466.6192626953125
z: -0.027468044310808182
visibility: 0.8649990558624268
","x: 221.6275177001953
y: 573.9924926757812
z: -0.24717748165130615
visibility: 0.388560950756073
","x: 272.216552734375
y: 464.95050048828125
z: -0.021545233204960823
visibility: 0.8343380689620972
","x: 224.59571838378906
y: 571.3673095703125
z: -0.22876079380512238
visibility: 0.40257030725479126
","x: 235.65399169921875
y: 514.435546875
z: 0.006843416951596737
visibility: 0.9999769330024719
","x: 220.3626708984375
y: 513.2074584960938
z: -0.0070281801745295525
visibility: 0.9999750256538391
","x: 251.04246520996094
y: 574.999267578125
z: 0.01835009455680847
visibility: 0.9529628157615662
","x: 217.13978576660156
y: 508.8357849121094
z: -0.06194685772061348
visibility: 0.6713133454322815
","x: 266.5438232421875
y: 564.1080932617188
z: 0.20672333240509033
visibility: 0.6982795596122742
","x: 211.68116760253906
y: 561.4949340820312
z: 0.09868346154689789
visibility: 0.41863974928855896
","x: 268.75238037109375
y: 558.8707275390625
z: 0.22775857150554657
visibility: 0.5923476219177246
","x: 212.608642578125
y: 553.3403930664062
z: 0.11892640590667725
visibility: 0.43369340896606445
","x: 272.4431457519531
y: 574.556396484375
z: 0.23750069737434387
visibility: 0.7141591906547546
","x: 199.72023010253906
y: 567.3330078125
z: 0.13317468762397766
visibility: 0.46733224391937256
",,,,,,,,,,,,,,,,,,,,,,,,,,,,,,,,,,,,,,,,,,
10,"x: 208.2202606201172
y: 432.6499938964844
z: -0.352605402469635
visibility: 0.9997058510780334
","x: 208.0770721435547
y: 426.475830078125
z: -0.34863144159317017
visibility: 0.9998591542243958
","x: 208.8991241455078
y: 426.5146179199219
z: -0.3486173748970032
visibility: 0.9998658299446106
","x: 209.71595764160156
y: 426.49481201171875
z: -0.3487466871738434
visibility: 0.9998468160629272
","x: 205.14601135253906
y: 429.0951843261719
z: -0.3502560257911682
visibility: 0.9998113512992859
","x: 203.7115020751953
y: 430.3893737792969
z: -0.35032033920288086
visibility: 0.9998149275779724
","x: 202.5159454345703
y: 433.283447265625
z: -0.3503599762916565
visibility: 0.9997577667236328
","x: 210.57760620117188
y: 430.41864013671875
z: -0.2909565567970276
visibility: 0.9998723864555359
","x: 202.0216064453125
y: 439.33489990234375
z: -0.2970650792121887
visibility: 0.9997512698173523
","x: 210.53012084960938
y: 439.81622314453125
z: -0.3281763792037964
visibility: 0.999891459941864
","x: 207.5751953125
y: 443.4539489746094
z: -0.32997047901153564
visibility: 0.999860405921936
","x: 231.2238006591797
y: 441.3854675292969
z: -0.2003033608198166
visibility: 0.9999499320983887
","x: 209.53353881835938
y: 469.3003845214844
z: -0.24941706657409668
visibility: 0.9998931288719177
","x: 248.66448974609375
y: 450.6443786621094
z: -0.12498912960290909
visibility: 0.8895137310028076
","x: 210.67990112304688
y: 516.1625366210938
z: -0.2278379648923874
visibility: 0.3645491898059845
","x: 275.9433288574219
y: 448.2156982421875
z: -0.18472376465797424
visibility: 0.8984739184379578
","x: 219.71115112304688
y: 559.375732421875
z: -0.21485385298728943
visibility: 0.4292072653770447
","x: 281.0423278808594
y: 447.0267028808594
z: -0.19065770506858826
visibility: 0.8641585111618042
","x: 219.23570251464844
y: 571.4141235351562
z: -0.22580938041210175
visibility: 0.42450857162475586
","x: 281.2201843261719
y: 448.7284851074219
z: -0.21929128468036652
visibility: 0.8659276962280273
","x: 222.17018127441406
y: 572.2366943359375
z: -0.2347743958234787
visibility: 0.4359043538570404
","x: 279.6840515136719
y: 450.0021057128906
z: -0.19749167561531067
visibility: 0.8374348878860474
","x: 223.3057403564453
y: 568.5840454101562
z: -0.21797654032707214
visibility: 0.4485682249069214
","x: 227.97802734375
y: 508.550537109375
z: 0.005993248429149389
visibility: 0.9999743103981018
","x: 218.2939910888672
y: 514.5177001953125
z: -0.0061013041995465755
visibility: 0.9999755620956421
","x: 248.1310272216797
y: 573.0156860351562
z: -0.008661013096570969
visibility: 0.9523494243621826
","x: 226.5630340576172
y: 541.4892578125
z: -0.05784313753247261
visibility: 0.6933555006980896
","x: 248.16015625
y: 556.1622314453125
z: 0.18938066065311432
visibility: 0.6985191702842712
","x: 233.060302734375
y: 560.1549072265625
z: 0.09687219560146332
visibility: 0.4519404172897339
","x: 245.90989685058594
y: 547.156005859375
z: 0.2122630625963211
visibility: 0.5916786789894104
","x: 233.1922149658203
y: 556.3989868164062
z: 0.11591355502605438
visibility: 0.4438856840133667
","x: 250.9017333984375
y: 563.4305419921875
z: 0.21578867733478546
visibility: 0.7067786455154419
","x: 239.08782958984375
y: 569.8203125
z: 0.11294152587652206
visibility: 0.4927937984466553
",,,,,,,,,,,,,,,,,,,,,,,,,,,,,,,,,,,,,,,,,,
11,"x: 213.60069274902344
y: 426.6277770996094
z: -0.22085349261760712
visibility: 0.9997318387031555
","x: 214.35662841796875
y: 419.64093017578125
z: -0.204880028963089
visibility: 0.9998577833175659
","x: 215.55740356445312
y: 419.0980224609375
z: -0.20490491390228271
visibility: 0.9998584389686584
","x: 216.788818359375
y: 418.697265625
z: -0.20493371784687042
visibility: 0.9998403787612915
","x: 211.06564331054688
y: 421.48333740234375
z: -0.20479997992515564
visibility: 0.9998210072517395
","x: 209.91563415527344
y: 422.2230529785156
z: -0.2048356533050537
visibility: 0.9998218417167664
","x: 208.878662109375
y: 423.17822265625
z: -0.20486590266227722
visibility: 0.9997715950012207
","x: 219.95489501953125
y: 420.4284973144531
z: -0.13457226753234863
visibility: 0.9997844696044922
","x: 208.99154663085938
y: 426.17724609375
z: -0.12222670018672943
visibility: 0.9997631907463074
","x: 217.0170135498047
y: 432.2966003417969
z: -0.18626224994659424
visibility: 0.999893307685852
","x: 213.23277282714844
y: 434.77117919921875
z: -0.18480530381202698
visibility: 0.9998705387115479
","x: 238.2877655029297
y: 439.627197265625
z: -0.08703114092350006
visibility: 0.9999527335166931
","x: 211.648681640625
y: 462.6934509277344
z: -0.09194760024547577
visibility: 0.9999032020568848
","x: 255.3526153564453
y: 454.5517578125
z: -0.15238472819328308
visibility: 0.8973037004470825
","x: 212.3279571533203
y: 513.5216674804688
z: -0.12633325159549713
visibility: 0.40786823630332947
","x: 263.1142272949219
y: 444.5888977050781
z: -0.30920130014419556
visibility: 0.9054983258247375
","x: 217.46124267578125
y: 557.1861572265625
z: -0.17385715246200562
visibility: 0.46841660141944885
","x: 264.0548095703125
y: 441.3124084472656
z: -0.3367878794670105
visibility: 0.8705741763114929
","x: 216.6649627685547
y: 569.7554321289062
z: -0.19836296141147614
visibility: 0.4544093906879425
","x: 262.833984375
y: 439.7549743652344
z: -0.33379703760147095
visibility: 0.8722213506698608
","x: 220.08636474609375
y: 570.3505859375
z: -0.20795626938343048
visibility: 0.4650100767612457
","x: 261.93707275390625
y: 441.5348815917969
z: -0.31181246042251587
visibility: 0.8445386290550232
","x: 221.0071258544922
y: 566.2364501953125
z: -0.1770542860031128
visibility: 0.4754026234149933
","x: 240.1571807861328
y: 517.3349609375
z: -0.0039154645055532455
visibility: 0.9999725818634033
","x: 224.5699005126953
y: 521.1456298828125
z: 0.0038512602914124727
visibility: 0.9999776482582092
","x: 247.63255310058594
y: 574.2479248046875
z: -0.007648249622434378
visibility: 0.9511786103248596
","x: 211.26548767089844
y: 508.20751953125
z: -0.1905604749917984
visibility: 0.721818745136261
","x: 262.31011962890625
y: 562.6306762695312
z: 0.22228971123695374
visibility: 0.7058507800102234
","x: 204.6779022216797
y: 558.9151611328125
z: -0.1129884272813797
visibility: 0.5038073062896729
","x: 264.9220886230469
y: 555.7618408203125
z: 0.24505791068077087
visibility: 0.595888078212738
","x: 205.98533630371094
y: 565.4535522460938
z: -0.10539472103118896
visibility: 0.4917152225971222
","x: 270.045166015625
y: 564.890380859375
z: 0.22122637927532196
visibility: 0.7073864340782166
","x: 188.0638427734375
y: 567.458740234375
z: -0.16078932583332062
visibility: 0.5396433472633362
",,,,,,,,,,,,,,,,,,,,,,"x: 218.5977020263672
y: 564.0185546875
z: 0.0
","x: 220.84181213378906
y: 568.8543090820312
z: -0.0011887262808158994
","x: 222.49575805664062
y: 574.9362182617188
z: -0.0026554728392511606
","x: 223.87460327148438
y: 579.0593872070312
z: -0.004647578578442335
","x: 225.40943908691406
y: 581.2117919921875
z: -0.006271584425121546
","x: 219.4920654296875
y: 580.099365234375
z: -0.0009818447288125753
","x: 219.1028289794922
y: 585.3856811523438
z: -0.0037824935279786587
","x: 219.4347686767578
y: 583.9720458984375
z: -0.004943229258060455
","x: 219.71282958984375
y: 581.7066650390625
z: -0.005324208177626133
","x: 217.2941131591797
y: 579.2080078125
z: -0.002229281235486269
","x: 216.42115783691406
y: 584.681396484375
z: -0.005361613817512989
","x: 216.72227478027344
y: 582.6148681640625
z: -0.005905021447688341
","x: 217.09605407714844
y: 579.441650390625
z: -0.005582302343100309
","x: 215.3477020263672
y: 577.3482666015625
z: -0.0038626540917903185
","x: 213.9747772216797
y: 582.2511596679688
z: -0.00651750760152936
","x: 213.92684936523438
y: 581.3849487304688
z: -0.005884187296032906
","x: 214.07974243164062
y: 579.6143188476562
z: -0.004885281436145306
","x: 213.6982421875
y: 574.728515625
z: -0.005819268524646759
","x: 212.08233642578125
y: 578.229736328125
z: -0.007572947070002556
","x: 211.4853057861328
y: 578.7329711914062
z: -0.007242609281092882
","x: 211.2045440673828
y: 578.7366943359375
z: -0.006511269602924585
"
12,"x: 213.60069274902344
y: 426.6277770996094
z: -0.22085349261760712
visibility: 0.9997318387031555
","x: 214.35662841796875
y: 419.64093017578125
z: -0.204880028963089
visibility: 0.9998577833175659
","x: 215.55740356445312
y: 419.0980224609375
z: -0.20490491390228271
visibility: 0.9998584389686584
","x: 216.788818359375
y: 418.697265625
z: -0.20493371784687042
visibility: 0.9998403787612915
","x: 211.06564331054688
y: 421.48333740234375
z: -0.20479997992515564
visibility: 0.9998210072517395
","x: 209.91563415527344
y: 422.2230529785156
z: -0.2048356533050537
visibility: 0.9998218417167664
","x: 208.878662109375
y: 423.17822265625
z: -0.20486590266227722
visibility: 0.9997715950012207
","x: 219.95489501953125
y: 420.4284973144531
z: -0.13457226753234863
visibility: 0.9997844696044922
","x: 208.99154663085938
y: 426.17724609375
z: -0.12222670018672943
visibility: 0.9997631907463074
","x: 217.0170135498047
y: 432.2966003417969
z: -0.18626224994659424
visibility: 0.999893307685852
","x: 213.23277282714844
y: 434.77117919921875
z: -0.18480530381202698
visibility: 0.9998705387115479
","x: 238.2877655029297
y: 439.627197265625
z: -0.08703114092350006
visibility: 0.9999527335166931
","x: 211.648681640625
y: 462.6934509277344
z: -0.09194760024547577
visibility: 0.9999032020568848
","x: 255.3526153564453
y: 454.5517578125
z: -0.15238472819328308
visibility: 0.8973037004470825
","x: 212.3279571533203
y: 513.5216674804688
z: -0.12633325159549713
visibility: 0.40786823630332947
","x: 263.1142272949219
y: 444.5888977050781
z: -0.30920130014419556
visibility: 0.9054983258247375
","x: 217.46124267578125
y: 557.1861572265625
z: -0.17385715246200562
visibility: 0.46841660141944885
","x: 264.0548095703125
y: 441.3124084472656
z: -0.3367878794670105
visibility: 0.8705741763114929
","x: 216.6649627685547
y: 569.7554321289062
z: -0.19836296141147614
visibility: 0.4544093906879425
","x: 262.833984375
y: 439.7549743652344
z: -0.33379703760147095
visibility: 0.8722213506698608
","x: 220.08636474609375
y: 570.3505859375
z: -0.20795626938343048
visibility: 0.4650100767612457
","x: 261.93707275390625
y: 441.5348815917969
z: -0.31181246042251587
visibility: 0.8445386290550232
","x: 221.0071258544922
y: 566.2364501953125
z: -0.1770542860031128
visibility: 0.4754026234149933
","x: 240.1571807861328
y: 517.3349609375
z: -0.0039154645055532455
visibility: 0.9999725818634033
","x: 224.5699005126953
y: 521.1456298828125
z: 0.0038512602914124727
visibility: 0.9999776482582092
","x: 247.63255310058594
y: 574.2479248046875
z: -0.007648249622434378
visibility: 0.9511786103248596
","x: 211.26548767089844
y: 508.20751953125
z: -0.1905604749917984
visibility: 0.721818745136261
","x: 262.31011962890625
y: 562.6306762695312
z: 0.22228971123695374
visibility: 0.7058507800102234
","x: 204.6779022216797
y: 558.9151611328125
z: -0.1129884272813797
visibility: 0.5038073062896729
","x: 264.9220886230469
y: 555.7618408203125
z: 0.24505791068077087
visibility: 0.595888078212738
","x: 205.98533630371094
y: 565.4535522460938
z: -0.10539472103118896
visibility: 0.4917152225971222
","x: 270.045166015625
y: 564.890380859375
z: 0.22122637927532196
visibility: 0.7073864340782166
","x: 188.0638427734375
y: 567.458740234375
z: -0.16078932583332062
visibility: 0.5396433472633362
",,,,,,,,,,,,,,,,,,,,,,"x: 218.5977020263672
y: 564.0185546875
z: 0.0
","x: 220.84181213378906
y: 568.8543090820312
z: -0.0011887262808158994
","x: 222.49575805664062
y: 574.9362182617188
z: -0.0026554728392511606
","x: 223.87460327148438
y: 579.0593872070312
z: -0.004647578578442335
","x: 225.40943908691406
y: 581.2117919921875
z: -0.006271584425121546
","x: 219.4920654296875
y: 580.099365234375
z: -0.0009818447288125753
","x: 219.1028289794922
y: 585.3856811523438
z: -0.0037824935279786587
","x: 219.4347686767578
y: 583.9720458984375
z: -0.004943229258060455
","x: 219.71282958984375
y: 581.7066650390625
z: -0.005324208177626133
","x: 217.2941131591797
y: 579.2080078125
z: -0.002229281235486269
","x: 216.42115783691406
y: 584.681396484375
z: -0.005361613817512989
","x: 216.72227478027344
y: 582.6148681640625
z: -0.005905021447688341
","x: 217.09605407714844
y: 579.441650390625
z: -0.005582302343100309
","x: 215.3477020263672
y: 577.3482666015625
z: -0.0038626540917903185
","x: 213.9747772216797
y: 582.2511596679688
z: -0.00651750760152936
","x: 213.92684936523438
y: 581.3849487304688
z: -0.005884187296032906
","x: 214.07974243164062
y: 579.6143188476562
z: -0.004885281436145306
","x: 213.6982421875
y: 574.728515625
z: -0.005819268524646759
","x: 212.08233642578125
y: 578.229736328125
z: -0.007572947070002556
","x: 211.4853057861328
y: 578.7329711914062
z: -0.007242609281092882
","x: 211.2045440673828
y: 578.7366943359375
z: -0.006511269602924585
"
13,"x: 220.63735961914062
y: 426.21331787109375
z: -0.18447791039943695
visibility: 0.9997573494911194
","x: 224.14659118652344
y: 419.9258117675781
z: -0.18557921051979065
visibility: 0.999868631362915
","x: 225.24288940429688
y: 419.9366760253906
z: -0.18557201325893402
visibility: 0.9998654723167419
","x: 226.42835998535156
y: 419.950439453125
z: -0.18558381497859955
visibility: 0.9998491406440735
","x: 222.67422485351562
y: 419.7342224121094
z: -0.17434953153133392
visibility: 0.999837338924408
","x: 222.71859741210938
y: 419.63372802734375
z: -0.17441776394844055
visibility: 0.9998375177383423
","x: 222.79458618164062
y: 419.6664123535156
z: -0.17449399828910828
visibility: 0.9997928738594055
","x: 231.4159698486328
y: 420.7650451660156
z: -0.16137418150901794
visibility: 0.9997851848602295
","x: 226.17837524414062
y: 421.2716064453125
z: -0.10880917310714722
visibility: 0.999783992767334
","x: 224.1265869140625
y: 433.508544921875
z: -0.17174673080444336
visibility: 0.9999017119407654
","x: 222.77224731445312
y: 433.8876953125
z: -0.15674708783626556
visibility: 0.9998826384544373
","x: 250.2244415283203
y: 444.4701843261719
z: -0.14422616362571716
visibility: 0.9999551177024841
","x: 221.09129333496094
y: 453.8265380859375
z: -0.06168258935213089
visibility: 0.9999127388000488
","x: 259.7218017578125
y: 471.69757080078125
z: -0.22067956626415253
visibility: 0.9068624973297119
","x: 219.72061157226562
y: 503.718994140625
z: -0.05970937758684158
visibility: 0.4440738260746002
","x: 234.5305938720703
y: 455.7596130371094
z: -0.2803892493247986
visibility: 0.9139262437820435
","x: 220.02052307128906
y: 555.73046875
z: -0.12371973693370819
visibility: 0.5057790875434875
","x: 228.678955078125
y: 449.9335021972656
z: -0.30266624689102173
visibility: 0.8806887865066528
","x: 216.99478149414062
y: 567.404296875
z: -0.13649073243141174
visibility: 0.4876563847064972
","x: 229.45989990234375
y: 446.5957946777344
z: -0.2930893898010254
visibility: 0.881859540939331
","x: 219.14166259765625
y: 566.1494750976562
z: -0.15375319123268127
visibility: 0.4973708987236023
","x: 230.9099578857422
y: 448.2003479003906
z: -0.2768819332122803
visibility: 0.8550945520401001
","x: 220.686767578125
y: 562.9547119140625
z: -0.13059799373149872
visibility: 0.506432056427002
","x: 250.26930236816406
y: 528.7758178710938
z: -0.028784623369574547
visibility: 0.9999746084213257
","x: 228.4596405029297
y: 522.1658935546875
z: 0.028649160638451576
visibility: 0.9999798536300659
","x: 248.87649536132812
y: 581.4549560546875
z: -0.07157551497220993
visibility: 0.9553214311599731
","x: 208.03082275390625
y: 498.03228759765625
z: -0.11321555078029633
visibility: 0.746688723564148
","x: 266.0225830078125
y: 563.0814819335938
z: 0.20212459564208984
visibility: 0.7025408148765564
","x: 193.25717163085938
y: 557.7887573242188
z: -0.06306156516075134
visibility: 0.5506464242935181
","x: 269.37750244140625
y: 555.959716796875
z: 0.2328895777463913
visibility: 0.6036686897277832
","x: 195.9088897705078
y: 566.934326171875
z: -0.057645104825496674
visibility: 0.5384642481803894
","x: 273.1060791015625
y: 565.303466796875
z: 0.24774964153766632
visibility: 0.6981553435325623
","x: 175.20635986328125
y: 566.243408203125
z: -0.07958905398845673
visibility: 0.5814880728721619
","x: 232.9935760498047
y: 456.0360107421875
z: 0.0
","x: 230.2303466796875
y: 457.88494873046875
z: -0.004945330321788788
","x: 227.25161743164062
y: 456.3263244628906
z: -0.00809985026717186
","x: 224.4877166748047
y: 453.9596252441406
z: -0.010625624097883701
","x: 222.30841064453125
y: 453.8095397949219
z: -0.012962544336915016
","x: 230.41807556152344
y: 446.9989318847656
z: -0.007686552591621876
","x: 230.1875
y: 439.7283630371094
z: -0.010724847204983234
","x: 229.81483459472656
y: 435.3660583496094
z: -0.012179698795080185
","x: 229.46505737304688
y: 431.673583984375
z: -0.012996332719922066
","x: 231.2135772705078
y: 443.3890380859375
z: -0.006555358413606882
","x: 230.63229370117188
y: 435.9958190917969
z: -0.009670926257967949
","x: 229.84588623046875
y: 431.4190368652344
z: -0.011053742840886116
","x: 229.3515625
y: 427.42724609375
z: -0.012141574174165726
","x: 231.45315551757812
y: 441.1564636230469
z: -0.005551787093281746
","x: 230.68138122558594
y: 434.5387268066406
z: -0.008441172540187836
","x: 230.00393676757812
y: 430.6416015625
z: -0.009609723463654518
","x: 229.52210998535156
y: 427.21649169921875
z: -0.01037592813372612
","x: 231.14703369140625
y: 439.9839782714844
z: -0.004932499956339598
","x: 230.06553649902344
y: 434.33013916015625
z: -0.006921373773366213
","x: 229.43560791015625
y: 431.0589294433594
z: -0.0077951629646122456
","x: 229.07008361816406
y: 428.251708984375
z: -0.00841324869543314
","x: 219.5104522705078
y: 553.9609375
z: 0.0
","x: 221.1876983642578
y: 559.265380859375
z: -0.0016010325634852052
","x: 221.9593505859375
y: 565.5687255859375
z: -0.003015244612470269
","x: 222.42507934570312
y: 570.970947265625
z: -0.004642827436327934
","x: 223.4421844482422
y: 574.8004760742188
z: -0.006251975428313017
","x: 218.42312622070312
y: 568.2847900390625
z: -0.0016133388271555305
","x: 217.73988342285156
y: 573.9383544921875
z: -0.0036944495514035225
","x: 217.27581787109375
y: 577.10546875
z: -0.004901072476059198
","x: 216.854248046875
y: 579.486328125
z: -0.005649249069392681
","x: 216.53363037109375
y: 567.405517578125
z: -0.0025764668826013803
","x: 214.86451721191406
y: 573.0343017578125
z: -0.004269927274435759
","x: 213.74383544921875
y: 575.9786376953125
z: -0.005293229129165411
","x: 212.70387268066406
y: 578.2778930664062
z: -0.0061392029747366905
","x: 214.96060180664062
y: 565.447509765625
z: -0.003905894933268428
","x: 212.7563018798828
y: 569.7808837890625
z: -0.005892516579478979
","x: 211.3501739501953
y: 572.024658203125
z: -0.006936925929039717
","x: 210.208740234375
y: 573.9588623046875
z: -0.007640248164534569
","x: 213.77098083496094
y: 562.5215454101562
z: -0.005468355491757393
","x: 211.5525665283203
y: 564.8511352539062
z: -0.007043482270091772
","x: 210.2305908203125
y: 565.904296875
z: -0.007743070367723703
","x: 209.15850830078125
y: 566.9669189453125
z: -0.008220705203711987
"
14,"x: 220.63735961914062
y: 426.21331787109375
z: -0.18447791039943695
visibility: 0.9997573494911194
","x: 224.14659118652344
y: 419.9258117675781
z: -0.18557921051979065
visibility: 0.999868631362915
","x: 225.24288940429688
y: 419.9366760253906
z: -0.18557201325893402
visibility: 0.9998654723167419
","x: 226.42835998535156
y: 419.950439453125
z: -0.18558381497859955
visibility: 0.9998491406440735
","x: 222.67422485351562
y: 419.7342224121094
z: -0.17434953153133392
visibility: 0.999837338924408
","x: 222.71859741210938
y: 419.63372802734375
z: -0.17441776394844055
visibility: 0.9998375177383423
","x: 222.79458618164062
y: 419.6664123535156
z: -0.17449399828910828
visibility: 0.9997928738594055
","x: 231.4159698486328
y: 420.7650451660156
z: -0.16137418150901794
visibility: 0.9997851848602295
","x: 226.17837524414062
y: 421.2716064453125
z: -0.10880917310714722
visibility: 0.999783992767334
","x: 224.1265869140625
y: 433.508544921875
z: -0.17174673080444336
visibility: 0.9999017119407654
","x: 222.77224731445312
y: 433.8876953125
z: -0.15674708783626556
visibility: 0.9998826384544373
","x: 250.2244415283203
y: 444.4701843261719
z: -0.14422616362571716
visibility: 0.9999551177024841
","x: 221.09129333496094
y: 453.8265380859375
z: -0.06168258935213089
visibility: 0.9999127388000488
","x: 259.7218017578125
y: 471.69757080078125
z: -0.22067956626415253
visibility: 0.9068624973297119
","x: 219.72061157226562
y: 503.718994140625
z: -0.05970937758684158
visibility: 0.4440738260746002
","x: 234.5305938720703
y: 455.7596130371094
z: -0.2803892493247986
visibility: 0.9139262437820435
","x: 220.02052307128906
y: 555.73046875
z: -0.12371973693370819
visibility: 0.5057790875434875
","x: 228.678955078125
y: 449.9335021972656
z: -0.30266624689102173
visibility: 0.8806887865066528
","x: 216.99478149414062
y: 567.404296875
z: -0.13649073243141174
visibility: 0.4876563847064972
","x: 229.45989990234375
y: 446.5957946777344
z: -0.2930893898010254
visibility: 0.881859540939331
","x: 219.14166259765625
y: 566.1494750976562
z: -0.15375319123268127
visibility: 0.4973708987236023
","x: 230.9099578857422
y: 448.2003479003906
z: -0.2768819332122803
visibility: 0.8550945520401001
","x: 220.686767578125
y: 562.9547119140625
z: -0.13059799373149872
visibility: 0.506432056427002
","x: 250.26930236816406
y: 528.7758178710938
z: -0.028784623369574547
visibility: 0.9999746084213257
","x: 228.4596405029297
y: 522.1658935546875
z: 0.028649160638451576
visibility: 0.9999798536300659
","x: 248.87649536132812
y: 581.4549560546875
z: -0.07157551497220993
visibility: 0.9553214311599731
","x: 208.03082275390625
y: 498.03228759765625
z: -0.11321555078029633
visibility: 0.746688723564148
","x: 266.0225830078125
y: 563.0814819335938
z: 0.20212459564208984
visibility: 0.7025408148765564
","x: 193.25717163085938
y: 557.7887573242188
z: -0.06306156516075134
visibility: 0.5506464242935181
","x: 269.37750244140625
y: 555.959716796875
z: 0.2328895777463913
visibility: 0.6036686897277832
","x: 195.9088897705078
y: 566.934326171875
z: -0.057645104825496674
visibility: 0.5384642481803894
","x: 273.1060791015625
y: 565.303466796875
z: 0.24774964153766632
visibility: 0.6981553435325623
","x: 175.20635986328125
y: 566.243408203125
z: -0.07958905398845673
visibility: 0.5814880728721619
","x: 232.9935760498047
y: 456.0360107421875
z: 0.0
","x: 230.2303466796875
y: 457.88494873046875
z: -0.004945330321788788
","x: 227.25161743164062
y: 456.3263244628906
z: -0.00809985026717186
","x: 224.4877166748047
y: 453.9596252441406
z: -0.010625624097883701
","x: 222.30841064453125
y: 453.8095397949219
z: -0.012962544336915016
","x: 230.41807556152344
y: 446.9989318847656
z: -0.007686552591621876
","x: 230.1875
y: 439.7283630371094
z: -0.010724847204983234
","x: 229.81483459472656
y: 435.3660583496094
z: -0.012179698795080185
","x: 229.46505737304688
y: 431.673583984375
z: -0.012996332719922066
","x: 231.2135772705078
y: 443.3890380859375
z: -0.006555358413606882
","x: 230.63229370117188
y: 435.9958190917969
z: -0.009670926257967949
","x: 229.84588623046875
y: 431.4190368652344
z: -0.011053742840886116
","x: 229.3515625
y: 427.42724609375
z: -0.012141574174165726
","x: 231.45315551757812
y: 441.1564636230469
z: -0.005551787093281746
","x: 230.68138122558594
y: 434.5387268066406
z: -0.008441172540187836
","x: 230.00393676757812
y: 430.6416015625
z: -0.009609723463654518
","x: 229.52210998535156
y: 427.21649169921875
z: -0.01037592813372612
","x: 231.14703369140625
y: 439.9839782714844
z: -0.004932499956339598
","x: 230.06553649902344
y: 434.33013916015625
z: -0.006921373773366213
","x: 229.43560791015625
y: 431.0589294433594
z: -0.0077951629646122456
","x: 229.07008361816406
y: 428.251708984375
z: -0.00841324869543314
","x: 219.5104522705078
y: 553.9609375
z: 0.0
","x: 221.1876983642578
y: 559.265380859375
z: -0.0016010325634852052
","x: 221.9593505859375
y: 565.5687255859375
z: -0.003015244612470269
","x: 222.42507934570312
y: 570.970947265625
z: -0.004642827436327934
","x: 223.4421844482422
y: 574.8004760742188
z: -0.006251975428313017
","x: 218.42312622070312
y: 568.2847900390625
z: -0.0016133388271555305
","x: 217.73988342285156
y: 573.9383544921875
z: -0.0036944495514035225
","x: 217.27581787109375
y: 577.10546875
z: -0.004901072476059198
","x: 216.854248046875
y: 579.486328125
z: -0.005649249069392681
","x: 216.53363037109375
y: 567.405517578125
z: -0.0025764668826013803
","x: 214.86451721191406
y: 573.0343017578125
z: -0.004269927274435759
","x: 213.74383544921875
y: 575.9786376953125
z: -0.005293229129165411
","x: 212.70387268066406
y: 578.2778930664062
z: -0.0061392029747366905
","x: 214.96060180664062
y: 565.447509765625
z: -0.003905894933268428
","x: 212.7563018798828
y: 569.7808837890625
z: -0.005892516579478979
","x: 211.3501739501953
y: 572.024658203125
z: -0.006936925929039717
","x: 210.208740234375
y: 573.9588623046875
z: -0.007640248164534569
","x: 213.77098083496094
y: 562.5215454101562
z: -0.005468355491757393
","x: 211.5525665283203
y: 564.8511352539062
z: -0.007043482270091772
","x: 210.2305908203125
y: 565.904296875
z: -0.007743070367723703
","x: 209.15850830078125
y: 566.9669189453125
z: -0.008220705203711987
"
15,"x: 220.63735961914062
y: 426.21331787109375
z: -0.18447791039943695
visibility: 0.9997573494911194
","x: 224.14659118652344
y: 419.9258117675781
z: -0.18557921051979065
visibility: 0.999868631362915
","x: 225.24288940429688
y: 419.9366760253906
z: -0.18557201325893402
visibility: 0.9998654723167419
","x: 226.42835998535156
y: 419.950439453125
z: -0.18558381497859955
visibility: 0.9998491406440735
","x: 222.67422485351562
y: 419.7342224121094
z: -0.17434953153133392
visibility: 0.999837338924408
","x: 222.71859741210938
y: 419.63372802734375
z: -0.17441776394844055
visibility: 0.9998375177383423
","x: 222.79458618164062
y: 419.6664123535156
z: -0.17449399828910828
visibility: 0.9997928738594055
","x: 231.4159698486328
y: 420.7650451660156
z: -0.16137418150901794
visibility: 0.9997851848602295
","x: 226.17837524414062
y: 421.2716064453125
z: -0.10880917310714722
visibility: 0.999783992767334
","x: 224.1265869140625
y: 433.508544921875
z: -0.17174673080444336
visibility: 0.9999017119407654
","x: 222.77224731445312
y: 433.8876953125
z: -0.15674708783626556
visibility: 0.9998826384544373
","x: 250.2244415283203
y: 444.4701843261719
z: -0.14422616362571716
visibility: 0.9999551177024841
","x: 221.09129333496094
y: 453.8265380859375
z: -0.06168258935213089
visibility: 0.9999127388000488
","x: 259.7218017578125
y: 471.69757080078125
z: -0.22067956626415253
visibility: 0.9068624973297119
","x: 219.72061157226562
y: 503.718994140625
z: -0.05970937758684158
visibility: 0.4440738260746002
","x: 234.5305938720703
y: 455.7596130371094
z: -0.2803892493247986
visibility: 0.9139262437820435
","x: 220.02052307128906
y: 555.73046875
z: -0.12371973693370819
visibility: 0.5057790875434875
","x: 228.678955078125
y: 449.9335021972656
z: -0.30266624689102173
visibility: 0.8806887865066528
","x: 216.99478149414062
y: 567.404296875
z: -0.13649073243141174
visibility: 0.4876563847064972
","x: 229.45989990234375
y: 446.5957946777344
z: -0.2930893898010254
visibility: 0.881859540939331
","x: 219.14166259765625
y: 566.1494750976562
z: -0.15375319123268127
visibility: 0.4973708987236023
","x: 230.9099578857422
y: 448.2003479003906
z: -0.2768819332122803
visibility: 0.8550945520401001
","x: 220.686767578125
y: 562.9547119140625
z: -0.13059799373149872
visibility: 0.506432056427002
","x: 250.26930236816406
y: 528.7758178710938
z: -0.028784623369574547
visibility: 0.9999746084213257
","x: 228.4596405029297
y: 522.1658935546875
z: 0.028649160638451576
visibility: 0.9999798536300659
","x: 248.87649536132812
y: 581.4549560546875
z: -0.07157551497220993
visibility: 0.9553214311599731
","x: 208.03082275390625
y: 498.03228759765625
z: -0.11321555078029633
visibility: 0.746688723564148
","x: 266.0225830078125
y: 563.0814819335938
z: 0.20212459564208984
visibility: 0.7025408148765564
","x: 193.25717163085938
y: 557.7887573242188
z: -0.06306156516075134
visibility: 0.5506464242935181
","x: 269.37750244140625
y: 555.959716796875
z: 0.2328895777463913
visibility: 0.6036686897277832
","x: 195.9088897705078
y: 566.934326171875
z: -0.057645104825496674
visibility: 0.5384642481803894
","x: 273.1060791015625
y: 565.303466796875
z: 0.24774964153766632
visibility: 0.6981553435325623
","x: 175.20635986328125
y: 566.243408203125
z: -0.07958905398845673
visibility: 0.5814880728721619
","x: 232.9935760498047
y: 456.0360107421875
z: 0.0
","x: 230.2303466796875
y: 457.88494873046875
z: -0.004945330321788788
","x: 227.25161743164062
y: 456.3263244628906
z: -0.00809985026717186
","x: 224.4877166748047
y: 453.9596252441406
z: -0.010625624097883701
","x: 222.30841064453125
y: 453.8095397949219
z: -0.012962544336915016
","x: 230.41807556152344
y: 446.9989318847656
z: -0.007686552591621876
","x: 230.1875
y: 439.7283630371094
z: -0.010724847204983234
","x: 229.81483459472656
y: 435.3660583496094
z: -0.012179698795080185
","x: 229.46505737304688
y: 431.673583984375
z: -0.012996332719922066
","x: 231.2135772705078
y: 443.3890380859375
z: -0.006555358413606882
","x: 230.63229370117188
y: 435.9958190917969
z: -0.009670926257967949
","x: 229.84588623046875
y: 431.4190368652344
z: -0.011053742840886116
","x: 229.3515625
y: 427.42724609375
z: -0.012141574174165726
","x: 231.45315551757812
y: 441.1564636230469
z: -0.005551787093281746
","x: 230.68138122558594
y: 434.5387268066406
z: -0.008441172540187836
","x: 230.00393676757812
y: 430.6416015625
z: -0.009609723463654518
","x: 229.52210998535156
y: 427.21649169921875
z: -0.01037592813372612
","x: 231.14703369140625
y: 439.9839782714844
z: -0.004932499956339598
","x: 230.06553649902344
y: 434.33013916015625
z: -0.006921373773366213
","x: 229.43560791015625
y: 431.0589294433594
z: -0.0077951629646122456
","x: 229.07008361816406
y: 428.251708984375
z: -0.00841324869543314
","x: 219.5104522705078
y: 553.9609375
z: 0.0
","x: 221.1876983642578
y: 559.265380859375
z: -0.0016010325634852052
","x: 221.9593505859375
y: 565.5687255859375
z: -0.003015244612470269
","x: 222.42507934570312
y: 570.970947265625
z: -0.004642827436327934
","x: 223.4421844482422
y: 574.8004760742188
z: -0.006251975428313017
","x: 218.42312622070312
y: 568.2847900390625
z: -0.0016133388271555305
","x: 217.73988342285156
y: 573.9383544921875
z: -0.0036944495514035225
","x: 217.27581787109375
y: 577.10546875
z: -0.004901072476059198
","x: 216.854248046875
y: 579.486328125
z: -0.005649249069392681
","x: 216.53363037109375
y: 567.405517578125
z: -0.0025764668826013803
","x: 214.86451721191406
y: 573.0343017578125
z: -0.004269927274435759
","x: 213.74383544921875
y: 575.9786376953125
z: -0.005293229129165411
","x: 212.70387268066406
y: 578.2778930664062
z: -0.0061392029747366905
","x: 214.96060180664062
y: 565.447509765625
z: -0.003905894933268428
","x: 212.7563018798828
y: 569.7808837890625
z: -0.005892516579478979
","x: 211.3501739501953
y: 572.024658203125
z: -0.006936925929039717
","x: 210.208740234375
y: 573.9588623046875
z: -0.007640248164534569
","x: 213.77098083496094
y: 562.5215454101562
z: -0.005468355491757393
","x: 211.5525665283203
y: 564.8511352539062
z: -0.007043482270091772
","x: 210.2305908203125
y: 565.904296875
z: -0.007743070367723703
","x: 209.15850830078125
y: 566.9669189453125
z: -0.008220705203711987
"
16,"x: 245.74644470214844
y: 422.76837158203125
z: -0.18982353806495667
visibility: 0.9997726082801819
","x: 248.13250732421875
y: 418.0001220703125
z: -0.19630739092826843
visibility: 0.9998652935028076
","x: 248.82843017578125
y: 418.3438415527344
z: -0.19628174602985382
visibility: 0.9998460412025452
","x: 249.5858612060547
y: 418.7152404785156
z: -0.19629912078380585
visibility: 0.9998316168785095
","x: 247.58413696289062
y: 416.9959716796875
z: -0.18041792511940002
visibility: 0.9998461008071899
","x: 247.85691833496094
y: 416.6985778808594
z: -0.18048104643821716
visibility: 0.9998440146446228
","x: 248.14505004882812
y: 416.40093994140625
z: -0.18058040738105774
visibility: 0.9998072981834412
","x: 255.7473907470703
y: 421.2994384765625
z: -0.17825594544410706
visibility: 0.9997416734695435
","x: 253.22576904296875
y: 418.1529541015625
z: -0.11826349794864655
visibility: 0.9997879266738892
","x: 247.78469848632812
y: 429.7693176269531
z: -0.1843695193529129
visibility: 0.9998865127563477
","x: 247.226806640625
y: 428.5650634765625
z: -0.16425290703773499
visibility: 0.9998857975006104
","x: 267.2140197753906
y: 456.90673828125
z: -0.19603320956230164
visibility: 0.999905526638031
","x: 247.36941528320312
y: 445.29779052734375
z: -0.05430573970079422
visibility: 0.9999207258224487
","x: 251.45932006835938
y: 485.1695556640625
z: -0.2100830376148224
visibility: 0.9134880304336548
","x: 238.5789794921875
y: 492.6833801269531
z: -0.03321316838264465
visibility: 0.44149714708328247
","x: 229.0729522705078
y: 466.833984375
z: -0.1554582118988037
visibility: 0.9200342297554016
","x: 226.78134155273438
y: 537.5987548828125
z: -0.08572883158922195
visibility: 0.5204158425331116
","x: 224.60842895507812
y: 460.74908447265625
z: -0.16665183007717133
visibility: 0.8872641921043396
","x: 220.94705200195312
y: 546.63818359375
z: -0.09335582703351974
visibility: 0.5012394189834595
","x: 225.72605895996094
y: 457.2517395019531
z: -0.16230280697345734
visibility: 0.8878563642501831
","x: 222.38186645507812
y: 547.8003540039062
z: -0.11400602757930756
visibility: 0.510127067565918
","x: 227.1956329345703
y: 458.89892578125
z: -0.15120631456375122
visibility: 0.8605567216873169
","x: 224.53614807128906
y: 544.4686279296875
z: -0.09449861943721771
visibility: 0.5164613127708435
","x: 258.30987548828125
y: 532.6705322265625
z: -0.039244070649147034
visibility: 0.99997478723526
","x: 242.13380432128906
y: 517.3218994140625
z: 0.03909565508365631
visibility: 0.9999817609786987
","x: 248.91783142089844
y: 583.8519897460938
z: -0.11081801354885101
visibility: 0.9596009850502014
","x: 209.47154235839844
y: 504.5756530761719
z: -0.09204910695552826
visibility: 0.7709259390830994
","x: 270.7772521972656
y: 563.09033203125
z: 0.16360509395599365
visibility: 0.7172639966011047
","x: 186.56202697753906
y: 557.7027587890625
z: -0.05922072380781174
visibility: 0.5948339104652405
","x: 273.41375732421875
y: 556.0960083007812
z: 0.18372879922389984
visibility: 0.6243990659713745
","x: 187.89535522460938
y: 564.62255859375
z: -0.05571947619318962
visibility: 0.5826376676559448
","x: 275.5118408203125
y: 565.9844360351562
z: 0.19927720725536346
visibility: 0.7060126662254333
","x: 168.23080444335938
y: 564.3775024414062
z: -0.07381259649991989
visibility: 0.6220435500144958
",,,,,,,,,,,,,,,,,,,,,,"x: 226.86314392089844
y: 539.424560546875
z: 0.0
","x: 228.03927612304688
y: 544.2957153320312
z: -0.002096107229590416
","x: 227.5634765625
y: 550.2596435546875
z: -0.0038387326058000326
","x: 227.0911407470703
y: 555.4328002929688
z: -0.0056969597935676575
","x: 227.4561004638672
y: 559.5690307617188
z: -0.0074479286558926105
","x: 222.77728271484375
y: 549.05615234375
z: -0.001568924868479371
","x: 221.10791015625
y: 551.8347778320312
z: -0.00380592979490757
","x: 220.2487030029297
y: 553.4969482421875
z: -0.005023216363042593
","x: 219.67233276367188
y: 554.7368774414062
z: -0.005671422928571701
","x: 221.09544372558594
y: 547.0823974609375
z: -0.002182801952585578
","x: 218.22471618652344
y: 549.8303833007812
z: -0.004069838672876358
","x: 216.56480407714844
y: 551.0091552734375
z: -0.005074814893305302
","x: 215.294677734375
y: 551.88037109375
z: -0.005811224691569805
","x: 220.02735900878906
y: 545.0159912109375
z: -0.003218595404177904
","x: 217.015869140625
y: 547.6055908203125
z: -0.005316747818142176
","x: 215.27981567382812
y: 548.8124389648438
z: -0.006087179761379957
","x: 213.9567108154297
y: 549.817626953125
z: -0.0064824968576431274
","x: 219.53038024902344
y: 542.6705322265625
z: -0.004539014305919409
","x: 216.75059509277344
y: 543.8573608398438
z: -0.006094347219914198
","x: 215.2015380859375
y: 544.36474609375
z: -0.006650506518781185
","x: 213.96420288085938
y: 545.0488891601562
z: -0.0069359601475298405
"
17,"x: 245.74644470214844
y: 422.76837158203125
z: -0.18982353806495667
visibility: 0.9997726082801819
","x: 248.13250732421875
y: 418.0001220703125
z: -0.19630739092826843
visibility: 0.9998652935028076
","x: 248.82843017578125
y: 418.3438415527344
z: -0.19628174602985382
visibility: 0.9998460412025452
","x: 249.5858612060547
y: 418.7152404785156
z: -0.19629912078380585
visibility: 0.9998316168785095
","x: 247.58413696289062
y: 416.9959716796875
z: -0.18041792511940002
visibility: 0.9998461008071899
","x: 247.85691833496094
y: 416.6985778808594
z: -0.18048104643821716
visibility: 0.9998440146446228
","x: 248.14505004882812
y: 416.40093994140625
z: -0.18058040738105774
visibility: 0.9998072981834412
","x: 255.7473907470703
y: 421.2994384765625
z: -0.17825594544410706
visibility: 0.9997416734695435
","x: 253.22576904296875
y: 418.1529541015625
z: -0.11826349794864655
visibility: 0.9997879266738892
","x: 247.78469848632812
y: 429.7693176269531
z: -0.1843695193529129
visibility: 0.9998865127563477
","x: 247.226806640625
y: 428.5650634765625
z: -0.16425290703773499
visibility: 0.9998857975006104
","x: 267.2140197753906
y: 456.90673828125
z: -0.19603320956230164
visibility: 0.999905526638031
","x: 247.36941528320312
y: 445.29779052734375
z: -0.05430573970079422
visibility: 0.9999207258224487
","x: 251.45932006835938
y: 485.1695556640625
z: -0.2100830376148224
visibility: 0.9134880304336548
","x: 238.5789794921875
y: 492.6833801269531
z: -0.03321316838264465
visibility: 0.44149714708328247
","x: 229.0729522705078
y: 466.833984375
z: -0.1554582118988037
visibility: 0.9200342297554016
","x: 226.78134155273438
y: 537.5987548828125
z: -0.08572883158922195
visibility: 0.5204158425331116
","x: 224.60842895507812
y: 460.74908447265625
z: -0.16665183007717133
visibility: 0.8872641921043396
","x: 220.94705200195312
y: 546.63818359375
z: -0.09335582703351974
visibility: 0.5012394189834595
","x: 225.72605895996094
y: 457.2517395019531
z: -0.16230280697345734
visibility: 0.8878563642501831
","x: 222.38186645507812
y: 547.8003540039062
z: -0.11400602757930756
visibility: 0.510127067565918
","x: 227.1956329345703
y: 458.89892578125
z: -0.15120631456375122
visibility: 0.8605567216873169
","x: 224.53614807128906
y: 544.4686279296875
z: -0.09449861943721771
visibility: 0.5164613127708435
","x: 258.30987548828125
y: 532.6705322265625
z: -0.039244070649147034
visibility: 0.99997478723526
","x: 242.13380432128906
y: 517.3218994140625
z: 0.03909565508365631
visibility: 0.9999817609786987
","x: 248.91783142089844
y: 583.8519897460938
z: -0.11081801354885101
visibility: 0.9596009850502014
","x: 209.47154235839844
y: 504.5756530761719
z: -0.09204910695552826
visibility: 0.7709259390830994
","x: 270.7772521972656
y: 563.09033203125
z: 0.16360509395599365
visibility: 0.7172639966011047
","x: 186.56202697753906
y: 557.7027587890625
z: -0.05922072380781174
visibility: 0.5948339104652405
","x: 273.41375732421875
y: 556.0960083007812
z: 0.18372879922389984
visibility: 0.6243990659713745
","x: 187.89535522460938
y: 564.62255859375
z: -0.05571947619318962
visibility: 0.5826376676559448
","x: 275.5118408203125
y: 565.9844360351562
z: 0.19927720725536346
visibility: 0.7060126662254333
","x: 168.23080444335938
y: 564.3775024414062
z: -0.07381259649991989
visibility: 0.6220435500144958
",,,,,,,,,,,,,,,,,,,,,,"x: 226.86314392089844
y: 539.424560546875
z: 0.0
","x: 228.03927612304688
y: 544.2957153320312
z: -0.002096107229590416
","x: 227.5634765625
y: 550.2596435546875
z: -0.0038387326058000326
","x: 227.0911407470703
y: 555.4328002929688
z: -0.0056969597935676575
","x: 227.4561004638672
y: 559.5690307617188
z: -0.0074479286558926105
","x: 222.77728271484375
y: 549.05615234375
z: -0.001568924868479371
","x: 221.10791015625
y: 551.8347778320312
z: -0.00380592979490757
","x: 220.2487030029297
y: 553.4969482421875
z: -0.005023216363042593
","x: 219.67233276367188
y: 554.7368774414062
z: -0.005671422928571701
","x: 221.09544372558594
y: 547.0823974609375
z: -0.002182801952585578
","x: 218.22471618652344
y: 549.8303833007812
z: -0.004069838672876358
","x: 216.56480407714844
y: 551.0091552734375
z: -0.005074814893305302
","x: 215.294677734375
y: 551.88037109375
z: -0.005811224691569805
","x: 220.02735900878906
y: 545.0159912109375
z: -0.003218595404177904
","x: 217.015869140625
y: 547.6055908203125
z: -0.005316747818142176
","x: 215.27981567382812
y: 548.8124389648438
z: -0.006087179761379957
","x: 213.9567108154297
y: 549.817626953125
z: -0.0064824968576431274
","x: 219.53038024902344
y: 542.6705322265625
z: -0.004539014305919409
","x: 216.75059509277344
y: 543.8573608398438
z: -0.006094347219914198
","x: 215.2015380859375
y: 544.36474609375
z: -0.006650506518781185
","x: 213.96420288085938
y: 545.0488891601562
z: -0.0069359601475298405
"
18,"x: 267.8458251953125
y: 428.56011962890625
z: -0.297374427318573
visibility: 0.9997127056121826
","x: 271.20928955078125
y: 423.7730712890625
z: -0.3027042746543884
visibility: 0.9997502565383911
","x: 272.07464599609375
y: 424.25732421875
z: -0.3026757538318634
visibility: 0.9995919466018677
","x: 273.0090637207031
y: 424.80169677734375
z: -0.3027225136756897
visibility: 0.9995944499969482
","x: 270.20867919921875
y: 422.733154296875
z: -0.28952667117118835
visibility: 0.9997925162315369
","x: 270.324462890625
y: 422.3672790527344
z: -0.2896043658256531
visibility: 0.9997636675834656
","x: 270.4828186035156
y: 422.0345458984375
z: -0.2897183299064636
visibility: 0.9997643828392029
","x: 277.6813049316406
y: 427.210205078125
z: -0.2768408954143524
visibility: 0.9994692206382751
","x: 273.9970703125
y: 423.517333984375
z: -0.21622569859027863
visibility: 0.9996760487556458
","x: 269.4029541015625
y: 436.4858703613281
z: -0.28319793939590454
visibility: 0.9998372197151184
","x: 267.74224853515625
y: 434.70391845703125
z: -0.2658838629722595
visibility: 0.999872088432312
","x: 281.5058288574219
y: 458.356689453125
z: -0.26825207471847534
visibility: 0.9998780488967896
","x: 260.6514892578125
y: 443.5058898925781
z: -0.11624105274677277
visibility: 0.9999275803565979
","x: 251.54473876953125
y: 485.4380798339844
z: -0.28157633543014526
visibility: 0.9184424877166748
","x: 249.67166137695312
y: 490.5038146972656
z: -0.09951259940862656
visibility: 0.43625491857528687
","x: 230.65631103515625
y: 475.48077392578125
z: -0.28374260663986206
visibility: 0.9186879992485046
","x: 236.4037322998047
y: 524.8834838867188
z: -0.1953597515821457
visibility: 0.5094786882400513
","x: 225.94627380371094
y: 462.85546875
z: -0.3088793456554413
visibility: 0.8857440948486328
","x: 229.33738708496094
y: 534.2227783203125
z: -0.21525616943836212
visibility: 0.49661195278167725
","x: 227.35862731933594
y: 462.9460144042969
z: -0.309877872467041
visibility: 0.886085033416748
","x: 231.70867919921875
y: 533.7984619140625
z: -0.23590536415576935
visibility: 0.5047831535339355
","x: 228.745849609375
y: 461.1748962402344
z: -0.2830044627189636
visibility: 0.8552463054656982
","x: 235.68356323242188
y: 530.1578369140625
z: -0.20556791126728058
visibility: 0.5081314444541931
","x: 265.3627014160156
y: 532.82861328125
z: -0.03688913956284523
visibility: 0.9999684691429138
","x: 251.10394287109375
y: 514.722900390625
z: 0.03674648329615593
visibility: 0.9999827146530151
","x: 251.74066162109375
y: 580.4322509765625
z: -0.1472482681274414
visibility: 0.961675226688385
","x: 210.41873168945312
y: 525.36279296875
z: -0.037340737879276276
visibility: 0.7914641499519348
","x: 270.8069763183594
y: 560.4353637695312
z: 0.12558744847774506
visibility: 0.6864229440689087
","x: 177.83445739746094
y: 556.7955932617188
z: -0.025885602459311485
visibility: 0.6334632635116577
","x: 272.9117126464844
y: 554.648193359375
z: 0.1564863622188568
visibility: 0.5959809422492981
","x: 177.30516052246094
y: 563.9153442382812
z: -0.019755946472287178
visibility: 0.618035078048706
","x: 274.1779479980469
y: 566.4612426757812
z: 0.18192186951637268
visibility: 0.6680859923362732
","x: 161.34483337402344
y: 562.485107421875
z: -0.04044615849852562
visibility: 0.6555539965629578
",,,,,,,,,,,,,,,,,,,,,,,,,,,,,,,,,,,,,,,,,,
19,"x: 278.22857666015625
y: 442.71551513671875
z: -0.1765148639678955
visibility: 0.9997366070747375
","x: 280.66400146484375
y: 438.653564453125
z: -0.19303719699382782
visibility: 0.9997661709785461
","x: 281.38519287109375
y: 439.0899658203125
z: -0.19296196103096008
visibility: 0.9996224641799927
","x: 282.18011474609375
y: 439.5309143066406
z: -0.1929658055305481
visibility: 0.999623715877533
","x: 279.752685546875
y: 437.53240966796875
z: -0.17170493304729462
visibility: 0.9998029470443726
","x: 279.8187561035156
y: 437.2286376953125
z: -0.17172002792358398
visibility: 0.999775767326355
","x: 279.9153747558594
y: 436.9132995605469
z: -0.1717766672372818
visibility: 0.9997764229774475
","x: 287.32244873046875
y: 441.99053955078125
z: -0.21267881989479065
visibility: 0.9995147585868835
","x: 284.1588134765625
y: 438.16607666015625
z: -0.11822421848773956
visibility: 0.9996953010559082
","x: 279.7967834472656
y: 449.8236389160156
z: -0.17897725105285645
visibility: 0.9998501539230347
","x: 278.67724609375
y: 447.82110595703125
z: -0.1517290621995926
visibility: 0.9998795986175537
","x: 288.762939453125
y: 489.7330017089844
z: -0.2112613022327423
visibility: 0.9998879432678223
","x: 282.10009765625
y: 452.8995056152344
z: -0.04764104634523392
visibility: 0.9999346733093262
","x: 262.68206787109375
y: 508.5336608886719
z: -0.2235552817583084
visibility: 0.9255967736244202
","x: 265.3060302734375
y: 478.362060546875
z: 0.013699484057724476
visibility: 0.43468722701072693
","x: 236.72991943359375
y: 497.69061279296875
z: -0.20357993245124817
visibility: 0.9250191450119019
","x: 250.99473571777344
y: 485.61724853515625
z: -0.005160768516361713
visibility: 0.5179725885391235
","x: 232.31076049804688
y: 491.5662841796875
z: -0.21551068127155304
visibility: 0.8929764628410339
","x: 245.43411254882812
y: 484.4355773925781
z: -0.004921646323055029
visibility: 0.5047828555107117
","x: 233.0596466064453
y: 486.6587829589844
z: -0.21230372786521912
visibility: 0.8928955793380737
","x: 245.6582794189453
y: 483.00091552734375
z: -0.0225889440625906
visibility: 0.5129567384719849
","x: 234.58966064453125
y: 489.1649169921875
z: -0.199240043759346
visibility: 0.862703800201416
","x: 246.97503662109375
y: 484.1568298339844
z: -0.012942427769303322
visibility: 0.5137067437171936
","x: 264.7427062988281
y: 545.90966796875
z: -0.02931508794426918
visibility: 0.9999649524688721
","x: 254.4290771484375
y: 523.9315185546875
z: 0.02919384278357029
visibility: 0.9999838471412659
","x: 258.01873779296875
y: 572.3875122070312
z: -0.16130775213241577
visibility: 0.9624354839324951
","x: 212.73837280273438
y: 536.39208984375
z: -0.05204986408352852
visibility: 0.8117403388023376
","x: 272.2957458496094
y: 558.4117431640625
z: 0.033860716968774796
visibility: 0.6820194125175476
","x: 178.10711669921875
y: 555.3885498046875
z: -0.010931785218417645
visibility: 0.6694056987762451
","x: 276.5914611816406
y: 558.051025390625
z: 0.05521025508642197
visibility: 0.6039686799049377
","x: 178.17672729492188
y: 560.9577026367188
z: -0.008485965430736542
visibility: 0.6528570055961609
","x: 276.4721374511719
y: 562.518310546875
z: 0.06804671138525009
visibility: 0.6711140871047974
","x: 162.18310546875
y: 562.4853515625
z: -0.03902274742722511
visibility: 0.6885656714439392
",,,,,,,,,,,,,,,,,,,,,,,,,,,,,,,,,,,,,,,,,,
20,"x: 278.230224609375
y: 441.9493103027344
z: -0.17693091928958893
visibility: 0.9997446537017822
","x: 280.64599609375
y: 438.0805969238281
z: -0.19368724524974823
visibility: 0.9997524619102478
","x: 281.34515380859375
y: 438.580322265625
z: -0.1936044543981552
visibility: 0.9996116757392883
","x: 282.095703125
y: 439.0709228515625
z: -0.19359725713729858
visibility: 0.9996138215065002
","x: 279.7847900390625
y: 436.844482421875
z: -0.17196185886859894
visibility: 0.9997838139533997
","x: 279.9031982421875
y: 436.5199279785156
z: -0.17199334502220154
visibility: 0.9997422099113464
","x: 280.0751647949219
y: 436.2152404785156
z: -0.17205767333507538
visibility: 0.9997553825378418
","x: 286.8512268066406
y: 441.719482421875
z: -0.2160654515028
visibility: 0.9995355010032654
","x: 284.22161865234375
y: 437.9316711425781
z: -0.11903425306081772
visibility: 0.9996992945671082
","x: 279.77288818359375
y: 449.29376220703125
z: -0.18037483096122742
visibility: 0.9998559951782227
","x: 278.73260498046875
y: 447.15496826171875
z: -0.1524682193994522
visibility: 0.9998823404312134
","x: 287.3028564453125
y: 489.5865478515625
z: -0.2155207097530365
visibility: 0.9998942613601685
","x: 282.3671569824219
y: 451.5048828125
z: -0.048037052154541016
visibility: 0.9999411106109619
","x: 262.894775390625
y: 508.56884765625
z: -0.23998740315437317
visibility: 0.9313066601753235
","x: 265.62872314453125
y: 446.1676025390625
z: 0.031256627291440964
visibility: 0.47310885787010193
","x: 240.2533416748047
y: 497.6893615722656
z: -0.22798767685890198
visibility: 0.9299233555793762
","x: 254.92718505859375
y: 458.02392578125
z: 0.06487244367599487
visibility: 0.5328885912895203
","x: 233.8804931640625
y: 497.051025390625
z: -0.23894290626049042
visibility: 0.8987231850624084
","x: 250.26803588867188
y: 459.64453125
z: 0.07377322763204575
visibility: 0.5120524764060974
","x: 234.26133728027344
y: 493.2435607910156
z: -0.2375023066997528
visibility: 0.898233950138092
","x: 251.5444793701172
y: 462.88275146484375
z: 0.06322475522756577
visibility: 0.520840048789978
","x: 236.32229614257812
y: 493.0731506347656
z: -0.22477960586547852
visibility: 0.8672543168067932
","x: 253.642822265625
y: 463.61138916015625
z: 0.060734041035175323
visibility: 0.520569384098053
","x: 264.44482421875
y: 546.100341796875
z: -0.029358958825469017
visibility: 0.9999485611915588
","x: 254.3063201904297
y: 523.5755004882812
z: 0.029226744547486305
visibility: 0.999984622001648
","x: 257.99749755859375
y: 572.1099853515625
z: -0.15355810523033142
visibility: 0.9601712822914124
","x: 212.9698486328125
y: 530.3648071289062
z: -0.07093866169452667
visibility: 0.8300334811210632
","x: 272.4593505859375
y: 558.7616577148438
z: 0.02560938335955143
visibility: 0.6754962205886841
","x: 180.9517364501953
y: 554.427978515625
z: -0.035029832273721695
visibility: 0.7015661597251892
","x: 276.0118713378906
y: 557.3218994140625
z: 0.045173753052949905
visibility: 0.6134641766548157
","x: 180.47244262695312
y: 560.8508911132812
z: -0.03335537761449814
visibility: 0.6842234134674072
","x: 276.82281494140625
y: 562.75
z: 0.04618118703365326
visibility: 0.6746273040771484
","x: 164.37437438964844
y: 562.3180541992188
z: -0.07611764967441559
visibility: 0.7180540561676025
",,,,,,,,,,,,,,,,,,,,,,,,,,,,,,,,,,,,,,,,,,
21,"x: 273.63372802734375
y: 438.61517333984375
z: -0.19594119489192963
visibility: 0.9997692108154297
","x: 276.4073791503906
y: 435.34326171875
z: -0.21122846007347107
visibility: 0.9997760057449341
","x: 277.2156066894531
y: 436.1763000488281
z: -0.21112987399101257
visibility: 0.9996485114097595
","x: 278.04681396484375
y: 436.9551086425781
z: -0.21111130714416504
visibility: 0.9996501803398132
","x: 275.2734069824219
y: 433.4396667480469
z: -0.1907462775707245
visibility: 0.9998042583465576
","x: 275.2828063964844
y: 433.06036376953125
z: -0.19078335165977478
visibility: 0.9997662901878357
","x: 275.3206787109375
y: 432.7496643066406
z: -0.19083192944526672
visibility: 0.9997787475585938
","x: 282.54754638671875
y: 440.4308776855469
z: -0.22681209444999695
visibility: 0.9995793104171753
","x: 279.87396240234375
y: 436.09881591796875
z: -0.13479992747306824
visibility: 0.9997285604476929
","x: 274.98944091796875
y: 446.2454833984375
z: -0.1971723735332489
visibility: 0.999869167804718
","x: 273.7720947265625
y: 443.9630126953125
z: -0.17066846787929535
visibility: 0.9998934268951416
","x: 284.9439697265625
y: 484.4949645996094
z: -0.22068198025226593
visibility: 0.9999006986618042
","x: 276.2035217285156
y: 448.5537414550781
z: -0.0758892074227333
visibility: 0.9999470114707947
","x: 251.9762420654297
y: 499.4308776855469
z: -0.23577871918678284
visibility: 0.937778115272522
","x: 248.84033203125
y: 441.26483154296875
z: -0.07573392242193222
visibility: 0.5231211185455322
","x: 250.89369201660156
y: 457.0347900390625
z: -0.18554577231407166
visibility: 0.9328587651252747
","x: 234.70001220703125
y: 467.4552001953125
z: -0.14834406971931458
visibility: 0.5703242421150208
","x: 249.9020538330078
y: 449.4713134765625
z: -0.19689391553401947
visibility: 0.8991180062294006
","x: 229.170654296875
y: 469.1433410644531
z: -0.15306195616722107
visibility: 0.5424591302871704
","x: 253.3417205810547
y: 449.92559814453125
z: -0.18958401679992676
visibility: 0.8987146019935608
","x: 232.33627319335938
y: 478.2649230957031
z: -0.1665949523448944
visibility: 0.5507678389549255
","x: 254.22157287597656
y: 453.226318359375
z: -0.1805196851491928
visibility: 0.8675363659858704
","x: 234.8580780029297
y: 475.1665954589844
z: -0.15440362691879272
visibility: 0.5511260628700256
","x: 261.0804138183594
y: 544.6586303710938
z: -0.04069633409380913
visibility: 0.9999341368675232
","x: 254.5982208251953
y: 521.286865234375
z: 0.04065456613898277
visibility: 0.9999855756759644
","x: 251.97764587402344
y: 547.1192016601562
z: -0.12391465902328491
visibility: 0.9603019952774048
","x: 217.91893005371094
y: 510.3719787597656
z: 0.020098671317100525
visibility: 0.8450497388839722
","x: 276.82763671875
y: 556.3006591796875
z: -0.003856224939227104
visibility: 0.6853331923484802
","x: 192.48275756835938
y: 554.261962890625
z: 0.06687192618846893
visibility: 0.7297159433364868
","x: 281.10992431640625
y: 556.46533203125
z: 0.01004969235509634
visibility: 0.6328505277633667
","x: 193.56982421875
y: 563.64111328125
z: 0.07106885313987732
visibility: 0.7122156023979187
","x: 283.6531677246094
y: 566.0404052734375
z: 0.033163584768772125
visibility: 0.687441885471344
","x: 175.439697265625
y: 562.5404052734375
z: 0.06551451981067657
visibility: 0.7428277134895325
",,,,,,,,,,,,,,,,,,,,,,"x: 230.94949340820312
y: 472.9069519042969
z: 0.0
","x: 232.7720489501953
y: 477.30389404296875
z: -0.00032782775815576315
","x: 232.94644165039062
y: 482.6807861328125
z: -0.0007561020320281386
","x: 232.1786651611328
y: 486.48199462890625
z: -0.001543274032883346
","x: 231.37290954589844
y: 489.16058349609375
z: -0.002336839446797967
","x: 230.63418579101562
y: 487.1236877441406
z: 0.0003339950926601887
","x: 229.86541748046875
y: 492.4388122558594
z: -0.0010766483610495925
","x: 229.36097717285156
y: 495.5999450683594
z: -0.0019277662504464388
","x: 228.9953155517578
y: 498.0919189453125
z: -0.0023521895054727793
","x: 228.8112030029297
y: 486.4259033203125
z: -0.00075775251025334
","x: 227.60614013671875
y: 491.7530822753906
z: -0.002048203721642494
","x: 227.05284118652344
y: 494.8896484375
z: -0.002728377003222704
","x: 226.8252716064453
y: 497.59979248046875
z: -0.0031073428690433502
","x: 227.21929931640625
y: 484.93560791015625
z: -0.0021343885455280542
","x: 225.78517150878906
y: 490.15753173828125
z: -0.003686180105432868
","x: 225.2154083251953
y: 493.34222412109375
z: -0.0041758157312870026
","x: 225.02435302734375
y: 495.8736572265625
z: -0.004364793188869953
","x: 225.8585968017578
y: 482.59033203125
z: -0.0036783667746931314
","x: 224.0918731689453
y: 486.5028076171875
z: -0.004946134053170681
","x: 223.1383819580078
y: 489.0701599121094
z: -0.005336049944162369
","x: 222.54714965820312
y: 491.18792724609375
z: -0.005471900105476379
"
22,"x: 273.63372802734375
y: 438.61517333984375
z: -0.19594119489192963
visibility: 0.9997692108154297
","x: 276.4073791503906
y: 435.34326171875
z: -0.21122846007347107
visibility: 0.9997760057449341
","x: 277.2156066894531
y: 436.1763000488281
z: -0.21112987399101257
visibility: 0.9996485114097595
","x: 278.04681396484375
y: 436.9551086425781
z: -0.21111130714416504
visibility: 0.9996501803398132
","x: 275.2734069824219
y: 433.4396667480469
z: -0.1907462775707245
visibility: 0.9998042583465576
","x: 275.2828063964844
y: 433.06036376953125
z: -0.19078335165977478
visibility: 0.9997662901878357
","x: 275.3206787109375
y: 432.7496643066406
z: -0.19083192944526672
visibility: 0.9997787475585938
","x: 282.54754638671875
y: 440.4308776855469
z: -0.22681209444999695
visibility: 0.9995793104171753
","x: 279.87396240234375
y: 436.09881591796875
z: -0.13479992747306824
visibility: 0.9997285604476929
","x: 274.98944091796875
y: 446.2454833984375
z: -0.1971723735332489
visibility: 0.999869167804718
","x: 273.7720947265625
y: 443.9630126953125
z: -0.17066846787929535
visibility: 0.9998934268951416
","x: 284.9439697265625
y: 484.4949645996094
z: -0.22068198025226593
visibility: 0.9999006986618042
","x: 276.2035217285156
y: 448.5537414550781
z: -0.0758892074227333
visibility: 0.9999470114707947
","x: 251.9762420654297
y: 499.4308776855469
z: -0.23577871918678284
visibility: 0.937778115272522
","x: 248.84033203125
y: 441.26483154296875
z: -0.07573392242193222
visibility: 0.5231211185455322
","x: 250.89369201660156
y: 457.0347900390625
z: -0.18554577231407166
visibility: 0.9328587651252747
","x: 234.70001220703125
y: 467.4552001953125
z: -0.14834406971931458
visibility: 0.5703242421150208
","x: 249.9020538330078
y: 449.4713134765625
z: -0.19689391553401947
visibility: 0.8991180062294006
","x: 229.170654296875
y: 469.1433410644531
z: -0.15306195616722107
visibility: 0.5424591302871704
","x: 253.3417205810547
y: 449.92559814453125
z: -0.18958401679992676
visibility: 0.8987146019935608
","x: 232.33627319335938
y: 478.2649230957031
z: -0.1665949523448944
visibility: 0.5507678389549255
","x: 254.22157287597656
y: 453.226318359375
z: -0.1805196851491928
visibility: 0.8675363659858704
","x: 234.8580780029297
y: 475.1665954589844
z: -0.15440362691879272
visibility: 0.5511260628700256
","x: 261.0804138183594
y: 544.6586303710938
z: -0.04069633409380913
visibility: 0.9999341368675232
","x: 254.5982208251953
y: 521.286865234375
z: 0.04065456613898277
visibility: 0.9999855756759644
","x: 251.97764587402344
y: 547.1192016601562
z: -0.12391465902328491
visibility: 0.9603019952774048
","x: 217.91893005371094
y: 510.3719787597656
z: 0.020098671317100525
visibility: 0.8450497388839722
","x: 276.82763671875
y: 556.3006591796875
z: -0.003856224939227104
visibility: 0.6853331923484802
","x: 192.48275756835938
y: 554.261962890625
z: 0.06687192618846893
visibility: 0.7297159433364868
","x: 281.10992431640625
y: 556.46533203125
z: 0.01004969235509634
visibility: 0.6328505277633667
","x: 193.56982421875
y: 563.64111328125
z: 0.07106885313987732
visibility: 0.7122156023979187
","x: 283.6531677246094
y: 566.0404052734375
z: 0.033163584768772125
visibility: 0.687441885471344
","x: 175.439697265625
y: 562.5404052734375
z: 0.06551451981067657
visibility: 0.7428277134895325
",,,,,,,,,,,,,,,,,,,,,,"x: 230.94949340820312
y: 472.9069519042969
z: 0.0
","x: 232.7720489501953
y: 477.30389404296875
z: -0.00032782775815576315
","x: 232.94644165039062
y: 482.6807861328125
z: -0.0007561020320281386
","x: 232.1786651611328
y: 486.48199462890625
z: -0.001543274032883346
","x: 231.37290954589844
y: 489.16058349609375
z: -0.002336839446797967
","x: 230.63418579101562
y: 487.1236877441406
z: 0.0003339950926601887
","x: 229.86541748046875
y: 492.4388122558594
z: -0.0010766483610495925
","x: 229.36097717285156
y: 495.5999450683594
z: -0.0019277662504464388
","x: 228.9953155517578
y: 498.0919189453125
z: -0.0023521895054727793
","x: 228.8112030029297
y: 486.4259033203125
z: -0.00075775251025334
","x: 227.60614013671875
y: 491.7530822753906
z: -0.002048203721642494
","x: 227.05284118652344
y: 494.8896484375
z: -0.002728377003222704
","x: 226.8252716064453
y: 497.59979248046875
z: -0.0031073428690433502
","x: 227.21929931640625
y: 484.93560791015625
z: -0.0021343885455280542
","x: 225.78517150878906
y: 490.15753173828125
z: -0.003686180105432868
","x: 225.2154083251953
y: 493.34222412109375
z: -0.0041758157312870026
","x: 225.02435302734375
y: 495.8736572265625
z: -0.004364793188869953
","x: 225.8585968017578
y: 482.59033203125
z: -0.0036783667746931314
","x: 224.0918731689453
y: 486.5028076171875
z: -0.004946134053170681
","x: 223.1383819580078
y: 489.0701599121094
z: -0.005336049944162369
","x: 222.54714965820312
y: 491.18792724609375
z: -0.005471900105476379
"
23,"x: 248.11740112304688
y: 435.2652587890625
z: -0.17875513434410095
visibility: 0.9997842311859131
","x: 250.75247192382812
y: 431.2207336425781
z: -0.19524192810058594
visibility: 0.9997897744178772
","x: 251.39405822753906
y: 431.7036437988281
z: -0.1952485740184784
visibility: 0.9996729493141174
","x: 252.0939483642578
y: 432.2177429199219
z: -0.1953260898590088
visibility: 0.9996751546859741
","x: 250.1380615234375
y: 430.3851013183594
z: -0.17416246235370636
visibility: 0.9998139142990112
","x: 250.29653930664062
y: 430.27655029296875
z: -0.1741817444562912
visibility: 0.9997733235359192
","x: 250.50979614257812
y: 430.18316650390625
z: -0.17421086132526398
visibility: 0.9997847080230713
","x: 257.3993225097656
y: 436.274658203125
z: -0.2266881763935089
visibility: 0.9996079802513123
","x: 255.3793487548828
y: 433.265380859375
z: -0.13345977663993835
visibility: 0.9997410178184509
","x: 249.0200958251953
y: 442.33209228515625
z: -0.185357004404068
visibility: 0.9998748302459717
","x: 248.17892456054688
y: 441.0118103027344
z: -0.15798094868659973
visibility: 0.9998973608016968
","x: 260.92218017578125
y: 480.75567626953125
z: -0.21860332787036896
visibility: 0.9999092221260071
","x: 256.1206970214844
y: 456.0577087402344
z: -0.06226106360554695
visibility: 0.999951958656311
","x: 234.4696044921875
y: 500.1263122558594
z: -0.2442602813243866
visibility: 0.9420040845870972
","x: 242.21165466308594
y: 481.6358947753906
z: 0.032436467707157135
visibility: 0.47254547476768494
","x: 223.3097381591797
y: 467.93951416015625
z: -0.22644169628620148
visibility: 0.9387098550796509
","x: 230.2052001953125
y: 470.9857177734375
z: 0.054853908717632294
visibility: 0.5211347341537476
","x: 225.5059814453125
y: 458.2078857421875
z: -0.2375672310590744
visibility: 0.9069045186042786
","x: 229.26319885253906
y: 465.3013610839844
z: 0.06567858159542084
visibility: 0.4992890954017639
","x: 228.48577880859375
y: 456.91021728515625
z: -0.2259856015443802
visibility: 0.9063502550125122
","x: 229.81874084472656
y: 465.47589111328125
z: 0.04827968776226044
visibility: 0.5072770714759827
","x: 228.6511688232422
y: 459.5810546875
z: -0.21978053450584412
visibility: 0.8754597902297974
","x: 231.02442932128906
y: 467.1332092285156
z: 0.04900054633617401
visibility: 0.5070768594741821
","x: 246.4336700439453
