uscmakers/ReverseChoreography/data/3_kilby_girl_backseat_lovers.csv
,NOSE,LEFT_EYE_INNER,LEFT_EYE,LEFT_EYE_OUTER,RIGHT_EYE_INNER,RIGHT_EYE,RIGHT_EYE_OUTER,LEFT_EAR,RIGHT_EAR,MOUTH_LEFT,MOUTH_RIGHT,LEFT_SHOULDER,RIGHT_SHOULDER,LEFT_ELBOW,RIGHT_ELBOW,LEFT_WRIST,RIGHT_WRIST,LEFT_PINKY,RIGHT_PINKY,LEFT_INDEX,RIGHT_INDEX,LEFT_THUMB,RIGHT_THUMB,LEFT_HIP,RIGHT_HIP,LEFT_KNEE,RIGHT_KNEE,LEFT_ANKLE,RIGHT_ANKLE,LEFT_HEEL,RIGHT_HEEL,LEFT_FOOT_INDEX,RIGHT_FOOT_INDEX,WRIST2,THUMB_CPC2,THUMB_MCP2,THUMB_IP2,THUMB_TIP2,INDEX_FINGER_MCP2,INDEX_FINGER_PIP2,INDEX_FINGER_DIP2,INDEX_FINGER_TIP2,MIDDLE_FINGER_MCP2,MIDDLE_FINGER_PIP2,MIDDLE_FINGER_DIP2,MIDDLE_FINGER_TIP2,RING_FINGER_PIP2,RING_FINGER_DIP2,RING_FINGER_TIP2,RING_FINGER_MCP2,PINKY_MCP2,PINKY_PIP2,PINKY_DIP2,PINKY_TIP2,WRIST,THUMB_CPC,THUMB_MCP,THUMB_IP,THUMB_TIP,INDEX_FINGER_MCP,INDEX_FINGER_PIP,INDEX_FINGER_DIP,INDEX_FINGER_TIP,MIDDLE_FINGER_MCP,MIDDLE_FINGER_PIP,MIDDLE_FINGER_DIP,MIDDLE_FINGER_TIP,RING_FINGER_PIP,RING_FINGER_DIP,RING_FINGER_TIP,RING_FINGER_MCP,PINKY_MCP,PINKY_PIP,PINKY_DIP,PINKY_TIP
0,"x: 222.20806884765625
y: 313.9857177734375
z: -0.3238542377948761
visibility: 0.9998750686645508
","x: 220.3085174560547
y: 309.5721740722656
z: -0.3061765134334564
visibility: 0.9997575879096985
","x: 220.58070373535156
y: 308.91107177734375
z: -0.30616429448127747
visibility: 0.9995810389518738
","x: 220.85879516601562
y: 308.12762451171875
z: -0.3062101900577545
visibility: 0.9996116757392883
","x: 218.69847106933594
y: 312.4371337890625
z: -0.31901243329048157
visibility: 0.9998878240585327
","x: 217.7622528076172
y: 313.98193359375
z: -0.31911423802375793
visibility: 0.9998935461044312
","x: 216.72262573242188
y: 315.6396789550781
z: -0.31920138001441956
visibility: 0.9999303817749023
","x: 219.70130920410156
y: 311.47955322265625
z: -0.19866466522216797
visibility: 0.9987857937812805
","x: 213.5157470703125
y: 321.75634765625
z: -0.2544929087162018
visibility: 0.9999006986618042
","x: 223.8065643310547
y: 319.0829162597656
z: -0.2815183699131012
visibility: 0.999455988407135
","x: 221.50558471679688
y: 323.8099670410156
z: -0.297629714012146
visibility: 0.9996328353881836
","x: 232.43869018554688
y: 338.67791748046875
z: -0.06970283389091492
visibility: 0.9943239688873291
","x: 215.75083923339844
y: 356.23480224609375
z: -0.24913635849952698
visibility: 0.9997265934944153
","x: 239.11036682128906
y: 381.2679748535156
z: -0.008982469327747822
visibility: 0.10002250969409943
","x: 237.96624755859375
y: 394.1919250488281
z: -0.2751803994178772
visibility: 0.9957273006439209
","x: 237.16000366210938
y: 417.3728942871094
z: -0.04804342985153198
visibility: 0.07289761304855347
","x: 262.149658203125
y: 421.7039794921875
z: -0.3110409379005432
visibility: 0.9780356884002686
","x: 237.0855712890625
y: 427.61859130859375
z: -0.05481814593076706
visibility: 0.08096947520971298
","x: 268.1330261230469
y: 431.47119140625
z: -0.3450695276260376
visibility: 0.9485859274864197
","x: 237.42881774902344
y: 424.47430419921875
z: -0.08162865787744522
visibility: 0.08112054318189621
","x: 269.9590759277344
y: 432.35205078125
z: -0.3439858853816986
visibility: 0.9448766112327576
","x: 237.1273956298828
y: 420.1767578125
z: -0.06073159724473953
visibility: 0.07923152297735214
","x: 267.4533386230469
y: 428.46533203125
z: -0.31107044219970703
visibility: 0.9060393571853638
","x: 239.4847412109375
y: 427.43414306640625
z: 0.031545188277959824
visibility: 0.9990457892417908
","x: 223.78021240234375
y: 428.4853820800781
z: -0.03146854043006897
visibility: 0.9995872378349304
","x: 246.03904724121094
y: 494.5330505371094
z: -0.04965967684984207
visibility: 0.9833438992500305
","x: 212.4730682373047
y: 492.59881591796875
z: -0.1190655454993248
visibility: 0.9956660270690918
","x: 234.70285034179688
y: 551.5335693359375
z: 0.10446200519800186
visibility: 0.9840601682662964
","x: 207.1520538330078
y: 557.5261840820312
z: 0.008898606523871422
visibility: 0.998054027557373
","x: 227.82763671875
y: 557.777587890625
z: 0.11448129266500473
visibility: 0.9451435208320618
","x: 209.03053283691406
y: 564.7474365234375
z: 0.01701970025897026
visibility: 0.9711636900901794
","x: 237.06234741210938
y: 579.4439697265625
z: 0.03354760259389877
visibility: 0.9790819883346558
","x: 203.229248046875
y: 582.5629272460938
z: -0.0790586918592453
visibility: 0.996338963508606
",,,,,,,,,,,,,,,,,,,,,,,,,,,,,,,,,,,,,,,,,,
1,"x: 268.5983581542969
y: 316.5625305175781
z: -0.042443953454494476
visibility: 0.9997331500053406
","x: 269.257080078125
y: 312.37896728515625
z: -0.05484875291585922
visibility: 0.9996216297149658
","x: 269.5099792480469
y: 312.4934997558594
z: -0.054921574890613556
visibility: 0.9994322061538696
","x: 269.7416687011719
y: 312.6782531738281
z: -0.0549875907599926
visibility: 0.9994720816612244
","x: 268.60491943359375
y: 313.15283203125
z: -0.05009027197957039
visibility: 0.9997203946113586
","x: 268.3578186035156
y: 314.0981140136719
z: -0.050104059278964996
visibility: 0.9996719360351562
","x: 268.0538635253906
y: 315.52838134765625
z: -0.05018184706568718
visibility: 0.9997145533561707
","x: 270.72210693359375
y: 317.2852783203125
z: -0.0750187486410141
visibility: 0.9987244606018066
","x: 268.9053039550781
y: 320.822998046875
z: -0.05424283817410469
visibility: 0.9996481537818909
","x: 269.1515808105469
y: 322.96502685546875
z: -0.0453372448682785
visibility: 0.9994269013404846
","x: 268.1592102050781
y: 323.9158630371094
z: -0.03996250033378601
visibility: 0.9995824098587036
","x: 263.8419189453125
y: 348.81719970703125
z: -0.08659366518259048
visibility: 0.9947199821472168
","x: 267.2378234863281
y: 354.568603515625
z: -0.00951523706316948
visibility: 0.9994352459907532
","x: 265.62921142578125
y: 383.6835021972656
z: -0.13652381300926208
visibility: 0.14011187851428986
","x: 270.53558349609375
y: 387.06396484375
z: 0.04686857387423515
visibility: 0.8986406326293945
","x: 267.852783203125
y: 370.60308837890625
z: -0.20061738789081573
visibility: 0.10921604931354523
","x: 273.0568542480469
y: 378.0867004394531
z: 0.08091158419847488
visibility: 0.8825551867485046
","x: 268.0057067871094
y: 365.6382751464844
z: -0.2193622589111328
visibility: 0.11463912576436996
","x: 275.02911376953125
y: 377.9241638183594
z: 0.08632981032133102
visibility: 0.8574381470680237
","x: 270.2239074707031
y: 361.258544921875
z: -0.21786658465862274
visibility: 0.11456431448459625
","x: 273.9869079589844
y: 374.264892578125
z: 0.07545172423124313
visibility: 0.8541486859321594
","x: 269.832275390625
y: 363.81170654296875
z: -0.2016308754682541
visibility: 0.10727273672819138
","x: 272.8665466308594
y: 374.2287902832031
z: 0.07711336761713028
visibility: 0.8193297386169434
","x: 272.79302978515625
y: 432.92730712890625
z: -0.016803039237856865
visibility: 0.9990966320037842
","x: 263.6746826171875
y: 433.8885498046875
z: 0.016888462007045746
visibility: 0.999596357345581
","x: 278.5487976074219
y: 492.88385009765625
z: 0.029665092006325722
visibility: 0.9815310835838318
","x: 267.8805236816406
y: 491.5292663574219
z: 0.09088818728923798
visibility: 0.9925534129142761
","x: 277.6529541015625
y: 509.51220703125
z: 0.2773972749710083
visibility: 0.9538816213607788
","x: 278.7419738769531
y: 538.060546875
z: 0.21961215138435364
visibility: 0.9941496849060059
","x: 274.0267028808594
y: 510.62109375
z: 0.3038519024848938
visibility: 0.917070746421814
","x: 281.37890625
y: 543.4639282226562
z: 0.23227401077747345
visibility: 0.9657169580459595
","x: 272.5293273925781
y: 527.0836181640625
z: 0.28713783621788025
visibility: 0.9343600273132324
","x: 274.3851013183594
y: 555.5799560546875
z: 0.1879117488861084
visibility: 0.9854210019111633
","x: 275.35284423828125
y: 370.34893798828125
z: 0.0
","x: 272.8316650390625
y: 367.9180603027344
z: -0.0026193836238235235
","x: 270.7849426269531
y: 363.1782531738281
z: -0.005270106717944145
","x: 269.72857666015625
y: 358.93646240234375
z: -0.007951902225613594
","x: 269.33245849609375
y: 355.4239196777344
z: -0.010717947967350483
","x: 272.6663818359375
y: 354.1699523925781
z: -0.004838780965656042
","x: 272.81146240234375
y: 346.5818786621094
z: -0.008346110582351685
","x: 272.7622375488281
y: 341.22210693359375
z: -0.010897248983383179
","x: 272.7314453125
y: 336.90252685546875
z: -0.012499839998781681
","x: 274.4638977050781
y: 353.5095520019531
z: -0.005660070572048426
","x: 274.33355712890625
y: 345.7472229003906
z: -0.00918175745755434
","x: 274.3169250488281
y: 339.87933349609375
z: -0.011461595073342323
","x: 274.1856384277344
y: 334.82427978515625
z: -0.01305871456861496
","x: 276.3177185058594
y: 353.9486999511719
z: -0.0067214216105639935
","x: 276.24920654296875
y: 346.5435791015625
z: -0.009922459721565247
","x: 276.14447021484375
y: 341.0636901855469
z: -0.011676006950438023
","x: 275.8843994140625
y: 336.4924621582031
z: -0.01289801299571991
","x: 278.2238464355469
y: 355.5746154785156
z: -0.008032231591641903
","x: 278.36114501953125
y: 349.7748107910156
z: -0.010288692079484463
","x: 278.2357177734375
y: 345.6802978515625
z: -0.01130001526325941
","x: 278.0395202636719
y: 342.12188720703125
z: -0.01212295051664114
",,,,,,,,,,,,,,,,,,,,,
2,"x: 268.5983581542969
y: 316.5625305175781
z: -0.042443953454494476
visibility: 0.9997331500053406
","x: 269.257080078125
y: 312.37896728515625
z: -0.05484875291585922
visibility: 0.9996216297149658
","x: 269.5099792480469
y: 312.4934997558594
z: -0.054921574890613556
visibility: 0.9994322061538696
","x: 269.7416687011719
y: 312.6782531738281
z: -0.0549875907599926
visibility: 0.9994720816612244
","x: 268.60491943359375
y: 313.15283203125
z: -0.05009027197957039
visibility: 0.9997203946113586
","x: 268.3578186035156
y: 314.0981140136719
z: -0.050104059278964996
visibility: 0.9996719360351562
","x: 268.0538635253906
y: 315.52838134765625
z: -0.05018184706568718
visibility: 0.9997145533561707
","x: 270.72210693359375
y: 317.2852783203125
z: -0.0750187486410141
visibility: 0.9987244606018066
","x: 268.9053039550781
y: 320.822998046875
z: -0.05424283817410469
visibility: 0.9996481537818909
","x: 269.1515808105469
y: 322.96502685546875
z: -0.0453372448682785
visibility: 0.9994269013404846
","x: 268.1592102050781
y: 323.9158630371094
z: -0.03996250033378601
visibility: 0.9995824098587036
","x: 263.8419189453125
y: 348.81719970703125
z: -0.08659366518259048
visibility: 0.9947199821472168
","x: 267.2378234863281
y: 354.568603515625
z: -0.00951523706316948
visibility: 0.9994352459907532
","x: 265.62921142578125
y: 383.6835021972656
z: -0.13652381300926208
visibility: 0.14011187851428986
","x: 270.53558349609375
y: 387.06396484375
z: 0.04686857387423515
visibility: 0.8986406326293945
","x: 267.852783203125
y: 370.60308837890625
z: -0.20061738789081573
visibility: 0.10921604931354523
","x: 273.0568542480469
y: 378.0867004394531
z: 0.08091158419847488
visibility: 0.8825551867485046
","x: 268.0057067871094
y: 365.6382751464844
z: -0.2193622589111328
visibility: 0.11463912576436996
","x: 275.02911376953125
y: 377.9241638183594
z: 0.08632981032133102
visibility: 0.8574381470680237
","x: 270.2239074707031
y: 361.258544921875
z: -0.21786658465862274
visibility: 0.11456431448459625
","x: 273.9869079589844
y: 374.264892578125
z: 0.07545172423124313
visibility: 0.8541486859321594
","x: 269.832275390625
y: 363.81170654296875
z: -0.2016308754682541
visibility: 0.10727273672819138
","x: 272.8665466308594
y: 374.2287902832031
z: 0.07711336761713028
visibility: 0.8193297386169434
","x: 272.79302978515625
y: 432.92730712890625
z: -0.016803039237856865
visibility: 0.9990966320037842
","x: 263.6746826171875
y: 433.8885498046875
z: 0.016888462007045746
visibility: 0.999596357345581
","x: 278.5487976074219
y: 492.88385009765625
z: 0.029665092006325722
visibility: 0.9815310835838318
","x: 267.8805236816406
y: 491.5292663574219
z: 0.09088818728923798
visibility: 0.9925534129142761
","x: 277.6529541015625
y: 509.51220703125
z: 0.2773972749710083
visibility: 0.9538816213607788
","x: 278.7419738769531
y: 538.060546875
z: 0.21961215138435364
visibility: 0.9941496849060059
","x: 274.0267028808594
y: 510.62109375
z: 0.3038519024848938
visibility: 0.917070746421814
","x: 281.37890625
y: 543.4639282226562
z: 0.23227401077747345
visibility: 0.9657169580459595
","x: 272.5293273925781
y: 527.0836181640625
z: 0.28713783621788025
visibility: 0.9343600273132324
","x: 274.3851013183594
y: 555.5799560546875
z: 0.1879117488861084
visibility: 0.9854210019111633
","x: 275.35284423828125
y: 370.34893798828125
z: 0.0
","x: 272.8316650390625
y: 367.9180603027344
z: -0.0026193836238235235
","x: 270.7849426269531
y: 363.1782531738281
z: -0.005270106717944145
","x: 269.72857666015625
y: 358.93646240234375
z: -0.007951902225613594
","x: 269.33245849609375
y: 355.4239196777344
z: -0.010717947967350483
","x: 272.6663818359375
y: 354.1699523925781
z: -0.004838780965656042
","x: 272.81146240234375
y: 346.5818786621094
z: -0.008346110582351685
","x: 272.7622375488281
y: 341.22210693359375
z: -0.010897248983383179
","x: 272.7314453125
y: 336.90252685546875
z: -0.012499839998781681
","x: 274.4638977050781
y: 353.5095520019531
z: -0.005660070572048426
","x: 274.33355712890625
y: 345.7472229003906
z: -0.00918175745755434
","x: 274.3169250488281
y: 339.87933349609375
z: -0.011461595073342323
","x: 274.1856384277344
y: 334.82427978515625
z: -0.01305871456861496
","x: 276.3177185058594
y: 353.9486999511719
z: -0.0067214216105639935
","x: 276.24920654296875
y: 346.5435791015625
z: -0.009922459721565247
","x: 276.14447021484375
y: 341.0636901855469
z: -0.011676006950438023
","x: 275.8843994140625
y: 336.4924621582031
z: -0.01289801299571991
","x: 278.2238464355469
y: 355.5746154785156
z: -0.008032231591641903
","x: 278.36114501953125
y: 349.7748107910156
z: -0.010288692079484463
","x: 278.2357177734375
y: 345.6802978515625
z: -0.01130001526325941
","x: 278.0395202636719
y: 342.12188720703125
z: -0.01212295051664114
",,,,,,,,,,,,,,,,,,,,,
3,"x: 273.4309387207031
y: 324.1454772949219
z: 0.01210748590528965
visibility: 0.9997080564498901
","x: 275.2647705078125
y: 321.9471435546875
z: -0.0018324449192732573
visibility: 0.9995942711830139
","x: 275.3503112792969
y: 323.2370300292969
z: -0.0018452598014846444
visibility: 0.9994266033172607
","x: 275.4037170410156
y: 324.53173828125
z: -0.0018441301072016358
visibility: 0.9994447827339172
","x: 275.1571960449219
y: 318.6634216308594
z: 0.00442089606076479
visibility: 0.9996851086616516
","x: 275.13409423828125
y: 317.8409118652344
z: 0.004371551796793938
visibility: 0.999646782875061
","x: 275.03271484375
y: 317.3202209472656
z: 0.0043597896583378315
visibility: 0.9996867179870605
","x: 275.55908203125
y: 328.6842041015625
z: -0.03617865592241287
visibility: 0.9987705945968628
","x: 275.25262451171875
y: 321.05242919921875
z: -0.010880984365940094
visibility: 0.9996373653411865
","x: 272.4330749511719
y: 330.636474609375
z: 0.0038408800028264523
visibility: 0.9994202852249146
","x: 272.12298583984375
y: 326.71612548828125
z: 0.010757805779576302
visibility: 0.9995836019515991
","x: 260.7357177734375
y: 355.6776428222656
z: -0.08557213842868805
visibility: 0.9951640963554382
","x: 278.09375
y: 352.825439453125
z: 0.0232235100120306
visibility: 0.9994429349899292
","x: 258.4423522949219
y: 390.6183166503906
z: -0.14066031575202942
visibility: 0.21765455603599548
","x: 272.9612731933594
y: 381.32647705078125
z: -0.031247716397047043
visibility: 0.8207690119743347
","x: 259.4269104003906
y: 384.98583984375
z: -0.18889907002449036
visibility: 0.15583395957946777
","x: 271.7596435546875
y: 386.00274658203125
z: -0.11742045730352402
visibility: 0.8010147213935852
","x: 257.3952331542969
y: 381.3037109375
z: -0.21105894446372986
visibility: 0.15932419896125793
","x: 273.44635009765625
y: 388.30859375
z: -0.12423322349786758
visibility: 0.7815245389938354
","x: 259.88250732421875
y: 378.858642578125
z: -0.20271635055541992
visibility: 0.16033044457435608
","x: 273.5940246582031
y: 385.6688232421875
z: -0.13068905472755432
visibility: 0.7786900997161865
","x: 260.2492980957031
y: 379.8363037109375
z: -0.1872372180223465
visibility: 0.14863166213035583
","x: 271.82159423828125
y: 384.9334716796875
z: -0.12136827409267426
visibility: 0.7468552589416504
","x: 263.79266357421875
y: 432.2344970703125
z: -0.040439423173666
visibility: 0.9991335868835449
","x: 274.5811462402344
y: 430.5602722167969
z: 0.04040488600730896
visibility: 0.9995825290679932
","x: 265.57672119140625
y: 483.8980712890625
z: -0.00272005470469594
visibility: 0.9827917814254761
","x: 274.3456115722656
y: 485.4693603515625
z: 0.07248490303754807
visibility: 0.9843832850456238
","x: 273.3687438964844
y: 524.8477783203125
z: -0.06868669390678406
visibility: 0.9579237699508667
","x: 275.04449462890625
y: 529.979248046875
z: 0.028337934985756874
visibility: 0.9912233948707581
","x: 274.5389404296875
y: 530.1146240234375
z: -0.07402397692203522
visibility: 0.9251351952552795
","x: 277.0210876464844
y: 537.30908203125
z: 0.018916044384241104
visibility: 0.9666759371757507
","x: 272.78497314453125
y: 541.4610595703125
z: -0.09933111071586609
visibility: 0.9374736547470093
","x: 272.7719421386719
y: 544.4149169921875
z: 0.015126243233680725
visibility: 0.9744290709495544
",,,,,,,,,,,,,,,,,,,,,,,,,,,,,,,,,,,,,,,,,,
4,"x: 271.2806396484375
y: 331.772705078125
z: -0.3871458172798157
visibility: 0.9996994137763977
","x: 274.5821533203125
y: 332.1817626953125
z: -0.3814542591571808
visibility: 0.9995815753936768
","x: 275.04400634765625
y: 334.0129089355469
z: -0.3813893496990204
visibility: 0.9994447827339172
","x: 275.55303955078125
y: 335.78668212890625
z: -0.3814387619495392
visibility: 0.9994292259216309
","x: 273.40765380859375
y: 326.31787109375
z: -0.3801337480545044
visibility: 0.9996196627616882
","x: 272.94610595703125
y: 324.3958740234375
z: -0.3802109956741333
visibility: 0.999608039855957
","x: 272.41046142578125
y: 322.48638916015625
z: -0.38019484281539917
visibility: 0.9996324777603149
","x: 275.50396728515625
y: 339.205810546875
z: -0.30210158228874207
visibility: 0.9988251328468323
","x: 270.6790466308594
y: 323.15966796875
z: -0.30051904916763306
visibility: 0.9996094703674316
","x: 269.4149169921875
y: 338.8791198730469
z: -0.35368213057518005
visibility: 0.9993482232093811
","x: 267.9846496582031
y: 331.8495178222656
z: -0.3534800112247467
visibility: 0.9995084404945374
","x: 271.3116149902344
y: 365.1573181152344
z: -0.23881880939006805
visibility: 0.995631992816925
","x: 255.41123962402344
y: 332.939697265625
z: -0.10440196841955185
visibility: 0.9994387626647949
","x: 264.976318359375
y: 401.7280578613281
z: -0.20365914702415466
visibility: 0.294020414352417
","x: 254.63162231445312
y: 327.748046875
z: -0.006501323077827692
visibility: 0.8206766843795776
","x: 260.0494384765625
y: 430.301513671875
z: -0.23428526520729065
visibility: 0.23732730746269226
","x: 250.01063537597656
y: 328.28289794921875
z: 0.09152429550886154
visibility: 0.8141358494758606
","x: 258.9923095703125
y: 439.15032958984375
z: -0.2524808943271637
visibility: 0.23544009029865265
","x: 248.62066650390625
y: 325.47406005859375
z: 0.10827545821666718
visibility: 0.7896970510482788
","x: 258.1307067871094
y: 438.7779541015625
z: -0.26941317319869995
visibility: 0.23684261739253998
","x: 249.16262817382812
y: 326.3497314453125
z: 0.08989014476537704
visibility: 0.7883570194244385
","x: 258.1464538574219
y: 435.3845520019531
z: -0.24044175446033478
visibility: 0.22275526821613312
","x: 249.60101318359375
y: 327.6454162597656
z: 0.08835011720657349
visibility: 0.7595520615577698
","x: 266.75921630859375
y: 417.10260009765625
z: -0.024426713585853577
visibility: 0.9991854429244995
","x: 255.38369750976562
y: 412.6996154785156
z: 0.02442314475774765
visibility: 0.999596893787384
","x: 270.56787109375
y: 474.3206787109375
z: -0.05168398097157478
visibility: 0.9842674732208252
","x: 249.9611053466797
y: 470.099853515625
z: 0.044054459780454636
visibility: 0.9834838509559631
","x: 276.71466064453125
y: 524.38671875
z: -0.0063742948696017265
visibility: 0.9618833065032959
","x: 252.60667419433594
y: 508.20458984375
z: 0.1787736415863037
visibility: 0.9910567998886108
","x: 275.1884765625
y: 531.5562133789062
z: -0.005076062865555286
visibility: 0.9299724102020264
","x: 255.89596557617188
y: 513.9901123046875
z: 0.18779264390468597
visibility: 0.9651487469673157
","x: 281.4888000488281
y: 537.0335083007812
z: -0.08422268182039261
visibility: 0.9432888627052307
","x: 245.69712829589844
y: 527.3421630859375
z: 0.12464293092489243
visibility: 0.9753931164741516
",,,,,,,,,,,,,,,,,,,,,,,,,,,,,,,,,,,,,,,,,,
5,"x: 261.26055908203125
y: 341.64837646484375
z: -0.30949166417121887
visibility: 0.9996792674064636
","x: 263.9469299316406
y: 341.55523681640625
z: -0.3066249191761017
visibility: 0.9994642734527588
","x: 264.4263610839844
y: 342.6737060546875
z: -0.30661818385124207
visibility: 0.9993392825126648
","x: 264.8504333496094
y: 343.6871032714844
z: -0.30666691064834595
visibility: 0.9993024468421936
","x: 263.5457763671875
y: 337.82562255859375
z: -0.30306339263916016
visibility: 0.9993271231651306
","x: 263.5796813964844
y: 336.43017578125
z: -0.30316177010536194
visibility: 0.9993026256561279
","x: 263.5422668457031
y: 334.7418518066406
z: -0.3032222390174866
visibility: 0.9992832541465759
","x: 265.5287170410156
y: 346.6339111328125
z: -0.25473982095718384
visibility: 0.9987538456916809
","x: 262.7007141113281
y: 333.46490478515625
z: -0.2392360270023346
visibility: 0.999118447303772
","x: 259.5556335449219
y: 346.6770935058594
z: -0.28610914945602417
visibility: 0.9993351697921753
","x: 258.90765380859375
y: 342.4289245605469
z: -0.2819767892360687
visibility: 0.9994147419929504
","x: 265.37994384765625
y: 368.8018493652344
z: -0.20641107857227325
visibility: 0.996060311794281
","x: 247.98345947265625
y: 335.5809020996094
z: -0.11194433271884918
visibility: 0.9994899034500122
","x: 269.5851745605469
y: 407.1656494140625
z: -0.2066880762577057
visibility: 0.3644161522388458
","x: 235.91432189941406
y: 316.801025390625
z: -0.1393132507801056
visibility: 0.8384593725204468
","x: 276.1658935546875
y: 443.3572998046875
z: -0.25914686918258667
visibility: 0.31289321184158325
","x: 223.82647705078125
y: 290.71533203125
z: -0.1941288262605667
visibility: 0.8326441645622253
","x: 279.452392578125
y: 453.5687255859375
z: -0.27828696370124817
visibility: 0.30999496579170227
","x: 220.1514434814453
y: 282.5361328125
z: -0.20742376148700714
visibility: 0.8104646801948547
","x: 278.8094787597656
y: 454.47747802734375
z: -0.2947779893875122
visibility: 0.31159529089927673
","x: 220.61920166015625
y: 282.62689208984375
z: -0.23475174605846405
visibility: 0.8092741370201111
","x: 277.521484375
y: 451.6630554199219
z: -0.2678646445274353
visibility: 0.2986830472946167
","x: 221.97225952148438
y: 286.0562744140625
z: -0.20893819630146027
visibility: 0.7833636999130249
","x: 259.0511474609375
y: 419.90478515625
z: -0.028146564960479736
visibility: 0.9992473125457764
","x: 248.80099487304688
y: 416.6062927246094
z: 0.0281418114900589
visibility: 0.9996235370635986
","x: 261.2574462890625
y: 473.439697265625
z: -0.09640933573246002
visibility: 0.9855155944824219
","x: 243.81346130371094
y: 470.3471374511719
z: 0.018224863335490227
visibility: 0.981648325920105
","x: 270.02276611328125
y: 523.6262817382812
z: -0.03606246039271355
visibility: 0.9650725722312927
","x: 248.98011779785156
y: 515.6683959960938
z: 0.13738827407360077
visibility: 0.9893802404403687
","x: 269.68292236328125
y: 531.3052978515625
z: -0.03325430303812027
visibility: 0.9351650476455688
","x: 252.61167907714844
y: 522.4572143554688
z: 0.14504753053188324
visibility: 0.9646298885345459
","x: 275.373291015625
y: 535.22314453125
z: -0.11189483106136322
visibility: 0.9473969340324402
","x: 241.77357482910156
y: 528.499755859375
z: 0.06974536180496216
visibility: 0.9742358922958374
",,,,,,,,,,,,,,,,,,,,,,,,,,,,,,,,,,,,,,,,,,
6,"x: 256.80291748046875
y: 344.1442565917969
z: -0.32591766119003296
visibility: 0.9996902346611023
","x: 258.2872619628906
y: 341.8555908203125
z: -0.3258815407752991
visibility: 0.999457061290741
","x: 258.5475769042969
y: 341.81353759765625
z: -0.3258245885372162
visibility: 0.9993535876274109
","x: 258.8228454589844
y: 341.7135925292969
z: -0.3258393406867981
visibility: 0.9992984533309937
","x: 257.9930419921875
y: 340.64068603515625
z: -0.33041322231292725
visibility: 0.9993100762367249
","x: 257.8750305175781
y: 339.83355712890625
z: -0.33049556612968445
visibility: 0.9992935061454773
","x: 257.9605407714844
y: 337.919921875
z: -0.33054524660110474
visibility: 0.9992505311965942
","x: 258.9487609863281
y: 339.4155578613281
z: -0.274554580450058
visibility: 0.9987809062004089
","x: 256.70672607421875
y: 335.3211975097656
z: -0.29819029569625854
visibility: 0.9990443587303162
","x: 255.53048706054688
y: 345.7035827636719
z: -0.30089524388313293
visibility: 0.9993177056312561
","x: 254.9560546875
y: 344.4217224121094
z: -0.30812448263168335
visibility: 0.9993773102760315
","x: 258.5755615234375
y: 356.0199279785156
z: -0.22130092978477478
visibility: 0.9964300990104675
","x: 240.50462341308594
y: 333.2831115722656
z: -0.22834952175617218
visibility: 0.9994941353797913
","x: 263.456787109375
y: 376.03497314453125
z: -0.1854843646287918
visibility: 0.4229598045349121
","x: 223.0202178955078
y: 309.4766845703125
z: -0.2450898140668869
visibility: 0.8538551926612854
","x: 264.941650390625
y: 385.9765930175781
z: -0.20472308993339539
visibility: 0.3758094012737274
","x: 211.2659912109375
y: 280.5426940917969
z: -0.2849186062812805
visibility: 0.8484143018722534
","x: 265.8973693847656
y: 391.25128173828125
z: -0.21850180625915527
visibility: 0.36603105068206787
","x: 211.61265563964844
y: 294.81573486328125
z: -0.3014901280403137
visibility: 0.826839804649353
","x: 266.5825500488281
y: 387.4595947265625
z: -0.23231597244739532
visibility: 0.36845478415489197
","x: 207.8177490234375
y: 271.9321594238281
z: -0.3182872235774994
visibility: 0.8260606527328491
","x: 265.79962158203125
y: 385.0457763671875
z: -0.21120622754096985
visibility: 0.3560361862182617
","x: 209.9890899658203
y: 278.1101379394531
z: -0.2938152253627777
visibility: 0.8022199869155884
","x: 247.43150329589844
y: 417.2732849121094
z: -0.015415407717227936
visibility: 0.9992881417274475
","x: 235.8656768798828
y: 415.7698059082031
z: 0.01541543286293745
visibility: 0.9996330738067627
","x: 242.70567321777344
y: 470.351318359375
z: 0.047930456697940826
visibility: 0.9837726950645447
","x: 241.5670928955078
y: 468.1396789550781
z: 0.07140251249074936
visibility: 0.9768191576004028
","x: 244.27133178710938
y: 515.5993041992188
z: 0.15851165354251862
visibility: 0.9652373790740967
","x: 243.8738555908203
y: 514.074951171875
z: 0.20168058574199677
visibility: 0.9858996272087097
","x: 243.51199340820312
y: 524.0136108398438
z: 0.16726195812225342
visibility: 0.9374749064445496
","x: 249.71495056152344
y: 520.9758911132812
z: 0.2123861312866211
visibility: 0.9603636264801025
","x: 245.73423767089844
y: 528.3728637695312
z: 0.1066872626543045
visibility: 0.944979727268219
","x: 239.81732177734375
y: 528.9644165039062
z: 0.14605262875556946
visibility: 0.966696560382843
",,,,,,,,,,,,,,,,,,,,,,,,,,,,,,,,,,,,,,,,,,
7,"x: 254.0037078857422
y: 328.18170166015625
z: -0.2156786173582077
visibility: 0.9996554851531982
","x: 255.0477752685547
y: 328.04229736328125
z: -0.20887966454029083
visibility: 0.9993325471878052
","x: 255.1919708251953
y: 328.20263671875
z: -0.2088460624217987
visibility: 0.999222993850708
","x: 255.36624145507812
y: 328.23797607421875
z: -0.20887883007526398
visibility: 0.9991670846939087
","x: 254.70445251464844
y: 327.4915771484375
z: -0.21321864426136017
visibility: 0.9991055727005005
","x: 254.50091552734375
y: 327.259765625
z: -0.21328988671302795
visibility: 0.99910569190979
","x: 254.2998504638672
y: 326.6466064453125
z: -0.21333205699920654
visibility: 0.9990851879119873
","x: 255.3475799560547
y: 328.3316345214844
z: -0.15622763335704803
visibility: 0.9986211657524109
","x: 252.448486328125
y: 325.71240234375
z: -0.1785370111465454
visibility: 0.99871826171875
","x: 253.25506591796875
y: 330.7873229980469
z: -0.1941535770893097
visibility: 0.9992688298225403
","x: 252.15280151367188
y: 329.9916076660156
z: -0.20086374878883362
visibility: 0.9992929697036743
","x: 257.2585144042969
y: 354.3818359375
z: -0.1163279190659523
visibility: 0.9967291951179504
","x: 232.96861267089844
y: 331.9952087402344
z: -0.12834414839744568
visibility: 0.9994643926620483
","x: 259.7121276855469
y: 379.75115966796875
z: -0.0697331503033638
visibility: 0.4777708053588867
","x: 217.1912384033203
y: 309.40771484375
z: -0.1646117866039276
visibility: 0.8681908249855042
","x: 264.6780090332031
y: 401.7322082519531
z: -0.09136377274990082
visibility: 0.42552414536476135
","x: 211.89906311035156
y: 270.1480407714844
z: -0.22257831692695618
visibility: 0.8630552291870117
","x: 266.2722473144531
y: 414.42498779296875
z: -0.09851883351802826
visibility: 0.4020926356315613
","x: 211.59512329101562
y: 261.76434326171875
z: -0.23874357342720032
visibility: 0.8422986268997192
","x: 266.1925964355469
y: 418.21429443359375
z: -0.11364106088876724
visibility: 0.4072689414024353
","x: 212.4707489013672
y: 259.9769287109375
z: -0.2495155781507492
visibility: 0.8416663408279419
","x: 265.41265869140625
y: 414.2825622558594
z: -0.09869547933340073
visibility: 0.39685168862342834
","x: 212.88075256347656
y: 263.5841064453125
z: -0.22564367949962616
visibility: 0.8199930191040039
","x: 239.0919189453125
y: 412.9093933105469
z: -0.016171999275684357
visibility: 0.9993125200271606
","x: 228.8291473388672
y: 410.0561218261719
z: 0.01613241620361805
visibility: 0.9996334910392761
","x: 230.90093994140625
y: 465.8639221191406
z: 0.023767802864313126
visibility: 0.9809756278991699
","x: 232.45298767089844
y: 466.87261962890625
z: 0.04077443480491638
visibility: 0.9592429399490356
","x: 230.59539794921875
y: 512.8980102539062
z: 0.09178602695465088
visibility: 0.9656604528427124
","x: 240.0437774658203
y: 510.4908447265625
z: 0.151632159948349
visibility: 0.9776310920715332
","x: 227.759521484375
y: 517.3304443359375
z: 0.0993870422244072
visibility: 0.9369308352470398
","x: 243.580078125
y: 515.3853149414062
z: 0.1601523905992508
visibility: 0.9459221363067627
","x: 230.52410888671875
y: 532.4043579101562
z: 0.03261028975248337
visibility: 0.9458978176116943
","x: 239.061279296875
y: 529.3355102539062
z: 0.08842991292476654
visibility: 0.9591190814971924
",,,,,,,,,,,,,,,,,,,,,,,,,,,,,,,,,,,,,,,,,,
8,"x: 244.97052001953125
y: 310.4302673339844
z: -0.0045317960903048515
visibility: 0.9995348453521729
","x: 245.24957275390625
y: 307.24920654296875
z: -0.02023458667099476
visibility: 0.9991514086723328
","x: 244.67047119140625
y: 306.9515380859375
z: -0.02020423859357834
visibility: 0.9990196228027344
","x: 244.0384521484375
y: 306.5567321777344
z: -0.020172741264104843
visibility: 0.9989331364631653
","x: 246.87338256835938
y: 307.92755126953125
z: -0.018880661576986313
visibility: 0.9990547895431519
","x: 247.47442626953125
y: 308.1530456542969
z: -0.018900685012340546
visibility: 0.9990416169166565
","x: 248.06622314453125
y: 308.2288818359375
z: -0.01895655132830143
visibility: 0.9990513324737549
","x: 242.38380432128906
y: 307.5050964355469
z: -0.0588156059384346
visibility: 0.9983395338058472
","x: 247.34109497070312
y: 309.7015075683594
z: -0.05503957346081734
visibility: 0.9986729621887207
","x: 242.77894592285156
y: 312.9815979003906
z: -0.013898471370339394
visibility: 0.9989472031593323
","x: 244.38583374023438
y: 313.4390563964844
z: -0.013035742565989494
visibility: 0.999171257019043
","x: 227.69195556640625
y: 326.44256591796875
z: -0.08912001550197601
visibility: 0.9969142079353333
","x: 240.79278564453125
y: 335.18310546875
z: -0.03895614668726921
visibility: 0.9994515180587769
","x: 212.60101318359375
y: 313.9963684082031
z: -0.06170405074954033
visibility: 0.5262420773506165
","x: 231.8845672607422
y: 355.696533203125
z: -0.06998251378536224
visibility: 0.8732541799545288
","x: 213.30718994140625
y: 282.7388916015625
z: -0.0212189219892025
visibility: 0.44099682569503784
","x: 223.10577392578125
y: 370.78436279296875
z: -0.1202850341796875
visibility: 0.8581743836402893
","x: 216.12078857421875
y: 279.4750671386719
z: -0.02785857580602169
visibility: 0.4083308279514313
","x: 219.1295928955078
y: 377.30999755859375
z: -0.12485218048095703
visibility: 0.8371031880378723
","x: 217.5983428955078
y: 271.54278564453125
z: -0.02833985909819603
visibility: 0.4135281443595886
","x: 221.05670166015625
y: 374.7362060546875
z: -0.12839718163013458
visibility: 0.8365687727928162
","x: 219.12200927734375
y: 283.48529052734375
z: -0.021219566464424133
visibility: 0.40546244382858276
","x: 217.7058563232422
y: 371.69268798828125
z: -0.12113697826862335
visibility: 0.8116008043289185
","x: 228.49151611328125
y: 409.12677001953125
z: -0.03337467089295387
visibility: 0.9992474913597107
","x: 231.73773193359375
y: 407.7862243652344
z: 0.033329106867313385
visibility: 0.9995490908622742
","x: 220.2572479248047
y: 459.89508056640625
z: 0.0025753523223102093
visibility: 0.9816446304321289
","x: 227.27825927734375
y: 462.1146240234375
z: 0.08520101010799408
visibility: 0.9414833188056946
","x: 225.04653930664062
y: 506.6914367675781
z: 0.05742586776614189
visibility: 0.9672278165817261
","x: 227.26260375976562
y: 506.72039794921875
z: 0.15871477127075195
visibility: 0.970172107219696
","x: 225.4738311767578
y: 514.22021484375
z: 0.062163740396499634
visibility: 0.9399400949478149
","x: 228.21881103515625
y: 514.09619140625
z: 0.1650639921426773
visibility: 0.9387552738189697
","x: 217.3162078857422
y: 519.8690185546875
z: 0.03153461590409279
visibility: 0.9480528235435486
","x: 218.41839599609375
y: 518.842529296875
z: 0.13696135580539703
visibility: 0.9523801207542419
",,,,,,,,,,,,,,,,,,,,,,,,,,,,,,,,,,,,,,,,,,
9,"x: 232.60166931152344
y: 299.7461853027344
z: -0.12739033997058868
visibility: 0.99956876039505
","x: 233.14031982421875
y: 296.3848571777344
z: -0.11776624619960785
visibility: 0.9991855621337891
","x: 233.63900756835938
y: 296.4830322265625
z: -0.11776785552501678
visibility: 0.9990620017051697
","x: 234.16378784179688
y: 296.5384521484375
z: -0.11780407279729843
visibility: 0.9989901185035706
","x: 231.33297729492188
y: 296.28399658203125
z: -0.12231375277042389
visibility: 0.9991042613983154
","x: 230.5870819091797
y: 296.3918762207031
z: -0.12233588844537735
visibility: 0.9990997910499573
","x: 229.81272888183594
y: 296.52001953125
z: -0.12233837693929672
visibility: 0.9991066455841064
","x: 234.0977325439453
y: 299.3444519042969
z: -0.05637999624013901
visibility: 0.9984511137008667
","x: 227.69085693359375
y: 299.99444580078125
z: -0.07794623076915741
visibility: 0.9986709356307983
","x: 232.8723602294922
y: 304.5177001953125
z: -0.10509423166513443
visibility: 0.9990230798721313
","x: 230.57395935058594
y: 304.695068359375
z: -0.11126384884119034
visibility: 0.9991958141326904
","x: 237.60516357421875
y: 329.64556884765625
z: -0.011993134394288063
visibility: 0.9972125291824341
","x: 219.18414306640625
y: 328.59466552734375
z: -0.05801107734441757
visibility: 0.9993953108787537
","x: 243.83181762695312
y: 347.28961181640625
z: 0.051110297441482544
visibility: 0.5728222131729126
","x: 209.40322875976562
y: 344.6522521972656
z: -0.16103337705135345
visibility: 0.8857080340385437
","x: 257.74700927734375
y: 347.3426818847656
z: 0.06622688472270966
visibility: 0.49645599722862244
","x: 208.03565979003906
y: 313.37225341796875
z: -0.32689201831817627
visibility: 0.8722596764564514
","x: 259.7774963378906
y: 326.7347412109375
z: 0.06882546842098236
visibility: 0.4659377634525299
","x: 209.0347137451172
y: 303.18096923828125
z: -0.3592701256275177
visibility: 0.8530431985855103
","x: 257.8516540527344
y: 277.6071472167969
z: 0.051957033574581146
visibility: 0.4708231985569
","x: 210.09783935546875
y: 301.5353698730469
z: -0.3588227331638336
visibility: 0.8525505661964417
","x: 256.7564392089844
y: 335.374755859375
z: 0.060474127531051636
visibility: 0.4632302224636078
","x: 210.20301818847656
y: 304.48358154296875
z: -0.33185604214668274
visibility: 0.8298722505569458
","x: 233.55224609375
y: 407.6736755371094
z: -0.002681463724002242
visibility: 0.999285876750946
","x: 220.26943969726562
y: 405.7115478515625
z: 0.002599826781079173
visibility: 0.9995414614677429
","x: 227.45693969726562
y: 461.61572265625
z: -0.00012274619075469673
visibility: 0.9826878905296326
","x: 218.198974609375
y: 460.9930114746094
z: 0.002083703875541687
visibility: 0.9453692436218262
","x: 225.8472442626953
y: 510.6001281738281
z: 0.10565825551748276
visibility: 0.9691635966300964
","x: 214.0998077392578
y: 510.7754821777344
z: 0.09952373057603836
visibility: 0.9715303182601929
","x: 223.8667755126953
y: 516.4451293945312
z: 0.1122765988111496
visibility: 0.9334469437599182
","x: 215.1238250732422
y: 517.7717895507812
z: 0.10545273125171661
visibility: 0.9274697303771973
","x: 225.36422729492188
y: 529.167724609375
z: 0.039459168910980225
visibility: 0.9517567753791809
","x: 211.8871612548828
y: 526.9368896484375
z: 0.02986743114888668
visibility: 0.9553897976875305
",,,,,,,,,,,,,,,,,,,,,,,,,,,,,,,,,,,,,,,,,,
10,"x: 222.1764373779297
y: 308.4205017089844
z: -0.18904009461402893
visibility: 0.99952232837677
","x: 221.9439239501953
y: 299.01531982421875
z: -0.17891398072242737
visibility: 0.9987543821334839
","x: 222.5902099609375
y: 297.5408630371094
z: -0.1789749711751938
visibility: 0.9986682534217834
","x: 223.28216552734375
y: 300.0873718261719
z: -0.17909401655197144
visibility: 0.9985631108283997
","x: 219.8767547607422
y: 305.3628234863281
z: -0.1791858971118927
visibility: 0.9987491369247437
","x: 219.06613159179688
y: 307.34027099609375
z: -0.17915697395801544
visibility: 0.9988245964050293
","x: 218.25755310058594
y: 308.7191162109375
z: -0.17912475764751434
visibility: 0.9987158179283142
","x: 224.2998504638672
y: 304.15655517578125
z: -0.11196409165859222
visibility: 0.9981191754341125
","x: 217.75242614746094
y: 311.96807861328125
z: -0.12787100672721863
visibility: 0.9978433847427368
","x: 224.35498046875
y: 307.94512939453125
z: -0.15452490746974945
visibility: 0.9989243745803833
","x: 221.8791961669922
y: 314.5639343261719
z: -0.15201738476753235
visibility: 0.9989280700683594
","x: 238.14476013183594
y: 333.65545654296875
z: -0.0623251274228096
visibility: 0.9974726438522339
","x: 212.58694458007812
y: 335.51287841796875
z: -0.09606658667325974
visibility: 0.9992685914039612
","x: 250.46722412109375
y: 348.9094543457031
z: -0.028433967381715775
visibility: 0.6148609519004822
","x: 210.10011291503906
y: 370.0549621582031
z: -0.21887823939323425
visibility: 0.893395185470581
","x: 268.622802734375
y: 352.75799560546875
z: -0.03750712424516678
visibility: 0.5463783740997314
","x: 207.80906677246094
y: 345.85205078125
z: -0.4021071493625641
visibility: 0.8833701014518738
","x: 273.89178466796875
y: 354.2816162109375
z: -0.04014069586992264
visibility: 0.5179952383041382
","x: 207.7313995361328
y: 343.8114013671875
z: -0.43936342000961304
visibility: 0.8645999431610107
","x: 273.937744140625
y: 348.5099792480469
z: -0.01793961599469185
visibility: 0.5226490497589111
","x: 208.68453979492188
y: 334.39404296875
z: -0.44389528036117554
visibility: 0.8642418384552002
","x: 271.9486389160156
y: 354.4631652832031
z: -0.035746969282627106
visibility: 0.515713095664978
","x: 208.87771606445312
y: 335.4832763671875
z: -0.4098413586616516
visibility: 0.842522919178009
","x: 232.542724609375
y: 410.68060302734375
z: 0.004661171697080135
visibility: 0.9992961883544922
","x: 218.6821746826172
y: 406.62542724609375
z: -0.004714956507086754
visibility: 0.9994854927062988
","x: 228.9179229736328
y: 464.92877197265625
z: 0.027191584929823875
visibility: 0.982550323009491
","x: 216.973876953125
y: 464.42138671875
z: 0.009892120026051998
visibility: 0.9482671022415161
","x: 223.88339233398438
y: 507.8289794921875
z: 0.18775583803653717
visibility: 0.9685053825378418
","x: 214.23263549804688
y: 512.0690307617188
z: 0.15555700659751892
visibility: 0.9718276262283325
","x: 221.71917724609375
y: 512.3773193359375
z: 0.20048663020133972
visibility: 0.9278943538665771
","x: 214.30014038085938
y: 518.6539306640625
z: 0.1669543832540512
visibility: 0.9184161424636841
","x: 224.75318908691406
y: 529.9425048828125
z: 0.13359516859054565
visibility: 0.9527769684791565
","x: 212.9073028564453
y: 529.0426025390625
z: 0.0930386334657669
visibility: 0.9563974738121033
",,,,,,,,,,,,,,,,,,,,,,,,,,,,,,,,,,,,,,,,,,
11,"x: 223.5187530517578
y: 320.1722412109375
z: -0.23734550178050995
visibility: 0.9995431303977966
","x: 222.15237426757812
y: 315.6311340332031
z: -0.23280565440654755
visibility: 0.9986163973808289
","x: 222.6505584716797
y: 314.505126953125
z: -0.23278510570526123
visibility: 0.9985576272010803
","x: 223.1031036376953
y: 314.40667724609375
z: -0.2328173667192459
visibility: 0.9984193444252014
","x: 220.06602478027344
y: 319.5311279296875
z: -0.23969122767448425
visibility: 0.9987542033195496
","x: 219.2772216796875
y: 320.3787841796875
z: -0.2397274523973465
visibility: 0.9988498091697693
","x: 218.17626953125
y: 320.8276672363281
z: -0.23977462947368622
visibility: 0.9987274408340454
","x: 224.65992736816406
y: 311.96026611328125
z: -0.16934239864349365
visibility: 0.9979081153869629
","x: 218.08200073242188
y: 323.8304138183594
z: -0.2022562325000763
visibility: 0.9979646801948547
","x: 225.78057861328125
y: 322.5824279785156
z: -0.20939509570598602
visibility: 0.9988963603973389
","x: 223.83282470703125
y: 325.9278564453125
z: -0.2184101641178131
visibility: 0.998939037322998
","x: 237.80735778808594
y: 330.9380798339844
z: -0.07922898232936859
visibility: 0.9977157115936279
","x: 217.9663848876953
y: 346.6730041503906
z: -0.1762617826461792
visibility: 0.9993225932121277
","x: 253.52197265625
y: 325.106689453125
z: -0.04597058519721031
visibility: 0.6519365310668945
","x: 214.45423889160156
y: 379.54595947265625
z: -0.20904536545276642
visibility: 0.9022901654243469
","x: 271.1949768066406
y: 322.28692626953125
z: -0.06025383621454239
visibility: 0.5910525321960449
","x: 217.3276824951172
y: 407.8531188964844
z: -0.28299301862716675
visibility: 0.8905414938926697
","x: 276.2245178222656
y: 325.95355224609375
z: -0.06718716025352478
visibility: 0.5639764666557312
","x: 216.82467651367188
y: 418.81939697265625
z: -0.3173958659172058
visibility: 0.8675495386123657
","x: 276.5457763671875
y: 327.3143005371094
z: -0.06271107494831085
visibility: 0.5686071515083313
","x: 218.758056640625
y: 417.95428466796875
z: -0.31220874190330505
visibility: 0.8673903346061707
","x: 274.7527160644531
y: 326.7735290527344
z: -0.061059705913066864
visibility: 0.56228107213974
","x: 219.11587524414062
y: 414.3362731933594
z: -0.2883443832397461
visibility: 0.8445278406143188
","x: 235.635986328125
y: 412.1749572753906
z: 0.01891915313899517
visibility: 0.999332845211029
","x: 223.18125915527344
y: 409.4525146484375
z: -0.018971232697367668
visibility: 0.9994773864746094
","x: 232.412841796875
y: 465.9577941894531
z: 0.01957273855805397
visibility: 0.9782230257987976
","x: 219.30117797851562
y: 463.43023681640625
z: 0.0002442447585053742
visibility: 0.9516425728797913
","x: 227.77597045898438
y: 510.939208984375
z: 0.1336946040391922
visibility: 0.9671928286552429
","x: 212.59182739257812
y: 509.57904052734375
z: 0.14292344450950623
visibility: 0.972525417804718
","x: 225.01675415039062
y: 516.5453491210938
z: 0.14200937747955322
visibility: 0.925532877445221
","x: 212.41941833496094
y: 515.7305297851562
z: 0.160481795668602
visibility: 0.9112346172332764
","x: 230.06884765625
y: 531.0513916015625
z: 0.07768437266349792
visibility: 0.9538626670837402
","x: 213.56468200683594
y: 528.5830078125
z: 0.075312539935112
visibility: 0.9577720165252686
",,,,,,,,,,,,,,,,,,,,,,,,,,,,,,,,,,,,,,,,,,
12,"x: 227.9337615966797
y: 325.7901306152344
z: -0.2789478898048401
visibility: 0.9995830655097961
","x: 227.5428466796875
y: 320.3451843261719
z: -0.27570658922195435
visibility: 0.99871826171875
","x: 228.16444396972656
y: 319.29449462890625
z: -0.27570879459381104
visibility: 0.9986676573753357
","x: 228.76222229003906
y: 318.44976806640625
z: -0.27576714754104614
visibility: 0.9985367059707642
","x: 225.16110229492188
y: 322.65667724609375
z: -0.27722594141960144
visibility: 0.9988594055175781
","x: 224.07855224609375
y: 322.93255615234375
z: -0.2772772014141083
visibility: 0.998945415019989
","x: 223.12294006347656
y: 323.201416015625
z: -0.2773212790489197
visibility: 0.9988284111022949
","x: 229.34104919433594
y: 314.83404541015625
z: -0.20467138290405273
visibility: 0.998051106929779
","x: 221.32481384277344
y: 324.36883544921875
z: -0.2099188268184662
visibility: 0.9981608390808105
","x: 229.74754333496094
y: 326.4337463378906
z: -0.24751949310302734
visibility: 0.9989927411079407
","x: 227.1435546875
y: 329.0093994140625
z: -0.24892520904541016
visibility: 0.9990368485450745
","x: 238.11146545410156
y: 329.50933837890625
z: -0.11059141159057617
visibility: 0.9979428052902222
","x: 219.8950653076172
y: 349.2062072753906
z: -0.15998448431491852
visibility: 0.9993876218795776
","x: 262.4517517089844
y: 318.8460693359375
z: -0.11557618528604507
visibility: 0.6860173344612122
","x: 217.47634887695312
y: 387.0999755859375
z: -0.11231420934200287
visibility: 0.9112405180931091
","x: 278.0976257324219
y: 298.15283203125
z: -0.1998251974582672
visibility: 0.6313991546630859
","x: 216.6144256591797
y: 424.45635986328125
z: -0.11558102071285248
visibility: 0.8984413743019104
","x: 283.1631774902344
y: 296.3767395019531
z: -0.22062429785728455
visibility: 0.6060165166854858
","x: 215.55747985839844
y: 435.5744934082031
z: -0.12073959410190582
visibility: 0.873626708984375
","x: 283.9208984375
y: 295.7338562011719
z: -0.24027705192565918
visibility: 0.6104280948638916
","x: 216.90261840820312
y: 436.27093505859375
z: -0.14509794116020203
visibility: 0.8741241097450256
","x: 281.7061767578125
y: 296.5169372558594
z: -0.21177098155021667
visibility: 0.6045408844947815
","x: 217.64950561523438
y: 433.173095703125
z: -0.12389874458312988
visibility: 0.8524658679962158
","x: 244.2812042236328
y: 413.12109375
z: 0.022032365202903748
visibility: 0.9993981122970581
","x: 227.06512451171875
y: 412.3858642578125
z: -0.022062452509999275
visibility: 0.9995240569114685
","x: 242.02053833007812
y: 469.5030517578125
z: -0.038674719631671906
visibility: 0.9793574810028076
","x: 227.46302795410156
y: 468.9075012207031
z: -0.015381701290607452
visibility: 0.9561403393745422
","x: 229.57638549804688
y: 519.23583984375
z: 0.10383281856775284
visibility: 0.9691686630249023
","x: 215.89573669433594
y: 503.31463623046875
z: 0.21536631882190704
visibility: 0.9709829688072205
","x: 227.99649047851562
y: 526.7017211914062
z: 0.11698591709136963
visibility: 0.9300083518028259
","x: 214.7992401123047
y: 499.7625427246094
z: 0.23800042271614075
visibility: 0.9050557613372803
","x: 239.10693359375
y: 535.2255859375
z: 0.05216924101114273
visibility: 0.9572650194168091
","x: 214.01788330078125
y: 526.4141235351562
z: 0.2036205530166626
visibility: 0.9568910598754883
",,,,,,,,,,,,,,,,,,,,,,,,,,,,,,,,,,,,,,,,,,
13,"x: 231.42507934570312
y: 315.8931579589844
z: -0.24762888252735138
visibility: 0.9996225237846375
","x: 231.28981018066406
y: 312.4004821777344
z: -0.24251186847686768
visibility: 0.998837411403656
","x: 231.74301147460938
y: 312.1310119628906
z: -0.2425081431865692
visibility: 0.9987942576408386
","x: 232.2140350341797
y: 311.84307861328125
z: -0.24255791306495667
visibility: 0.9986746311187744
","x: 229.7079620361328
y: 313.65576171875
z: -0.243631049990654
visibility: 0.9989674687385559
","x: 229.0098876953125
y: 314.131103515625
z: -0.24368973076343536
visibility: 0.9990463852882385
","x: 228.33233642578125
y: 314.65826416015625
z: -0.24374666810035706
visibility: 0.998939037322998
","x: 232.47337341308594
y: 312.65484619140625
z: -0.18062067031860352
visibility: 0.9982379078865051
","x: 226.74349975585938
y: 318.07318115234375
z: -0.1870356649160385
visibility: 0.9983437061309814
","x: 232.60716247558594
y: 319.896484375
z: -0.2217019498348236
visibility: 0.999090313911438
","x: 230.6359405517578
y: 321.3490295410156
z: -0.22284571826457977
visibility: 0.9991311430931091
","x: 247.79623413085938
y: 331.5135192871094
z: -0.1072932630777359
visibility: 0.9981465339660645
","x: 222.49740600585938
y: 349.0107727050781
z: -0.14590317010879517
visibility: 0.9994465112686157
","x: 272.40069580078125
y: 331.17962646484375
z: -0.14817336201667786
visibility: 0.7171844244003296
","x: 219.95338439941406
y: 381.8180847167969
z: -0.030083918944001198
visibility: 0.9144822359085083
","x: 281.3974609375
y: 297.03472900390625
z: -0.25286513566970825
visibility: 0.6674575209617615
","x: 219.0717010498047
y: 417.1744384765625
z: 0.030783310532569885
visibility: 0.8845674395561218
","x: 284.41522216796875
y: 288.3447570800781
z: -0.2739957571029663
visibility: 0.6425471901893616
","x: 217.33396911621094
y: 427.8962707519531
z: 0.041700199246406555
visibility: 0.8511936068534851
","x: 283.5978088378906
y: 286.7757568359375
z: -0.2794327139854431
visibility: 0.646615743637085
","x: 218.302734375
y: 429.03363037109375
z: 0.01873694732785225
visibility: 0.8522396683692932
","x: 282.3705139160156
y: 289.9205322265625
z: -0.25931909680366516
visibility: 0.6406313180923462
","x: 219.3360595703125
y: 425.168701171875
z: 0.02462616004049778
visibility: 0.8331267237663269
","x: 249.05099487304688
y: 413.6657409667969
z: 0.02197299338877201
visibility: 0.9994351863861084
","x: 234.7771453857422
y: 414.109619140625
z: -0.02208303101360798
visibility: 0.9995586276054382
","x: 247.34556579589844
y: 469.5372009277344
z: 0.01028585433959961
visibility: 0.9639925360679626
","x: 244.79241943359375
y: 470.4978942871094
z: -0.06172508746385574
visibility: 0.9583278298377991
","x: 232.18650817871094
y: 519.2725219726562
z: 0.1279580295085907
visibility: 0.9617817401885986
","x: 230.8329620361328
y: 512.89453125
z: 0.08947129547595978
visibility: 0.9673507213592529
","x: 229.890869140625
y: 526.9393310546875
z: 0.1366860568523407
visibility: 0.9250030517578125
","x: 225.5210723876953
y: 515.1671142578125
z: 0.10238361358642578
visibility: 0.8999677896499634
","x: 239.50770568847656
y: 535.5137329101562
z: 0.07209411263465881
visibility: 0.9538064002990723
","x: 234.629150390625
y: 529.45263671875
z: 0.04696331173181534
visibility: 0.9558042883872986
",,,,,,,,,,,,,,,,,,,,,,,,,,,,,,,,,,,,,,,,,,
14,"x: 238.14727783203125
y: 304.1822509765625
z: -0.2470310628414154
visibility: 0.9996539354324341
","x: 238.40896606445312
y: 298.1956787109375
z: -0.21647024154663086
visibility: 0.9989375472068787
","x: 239.10247802734375
y: 298.0674133300781
z: -0.21659958362579346
visibility: 0.9989025592803955
","x: 239.82350158691406
y: 297.9720458984375
z: -0.2167111188173294
visibility: 0.9987933039665222
","x: 236.36029052734375
y: 299.052001953125
z: -0.21869704127311707
visibility: 0.9990481734275818
","x: 235.53236389160156
y: 299.48138427734375
z: -0.21866342425346375
visibility: 0.9991148114204407
","x: 234.6383514404297
y: 300.01898193359375
z: -0.21869567036628723
visibility: 0.999006986618042
","x: 240.62994384765625
y: 300.5295715332031
z: -0.12266901880502701
visibility: 0.9983950257301331
","x: 234.00238037109375
y: 302.43389892578125
z: -0.1330150067806244
visibility: 0.9984917044639587
","x: 239.77175903320312
y: 309.0791931152344
z: -0.19211241602897644
visibility: 0.999176025390625
","x: 237.2637939453125
y: 310.4427795410156
z: -0.19458483159542084
visibility: 0.9992130398750305
","x: 256.8672790527344
y: 326.83575439453125
z: -0.05229758471250534
visibility: 0.99832683801651
","x: 225.43434143066406
y: 339.6114501953125
z: -0.07205416262149811
visibility: 0.9994873404502869
","x: 274.8674621582031
y: 334.8200988769531
z: -0.11868792772293091
visibility: 0.7438874840736389
","x: 229.03147888183594
y: 375.5814208984375
z: -0.0023312936536967754
visibility: 0.8838939070701599
","x: 287.1921691894531
y: 319.66021728515625
z: -0.27234572172164917
visibility: 0.6966703534126282
","x: 234.28189086914062
y: 404.74603271484375
z: -0.004918175283819437
visibility: 0.827806293964386
","x: 291.2874755859375
y: 312.91802978515625
z: -0.30208104848861694
visibility: 0.6690953969955444
","x: 235.6072540283203
y: 413.311767578125
z: -0.008659329265356064
visibility: 0.7955098748207092
","x: 290.4595947265625
y: 309.15966796875
z: -0.3132830560207367
visibility: 0.6729700565338135
","x: 236.59397888183594
y: 413.54071044921875
z: -0.030283233150839806
visibility: 0.7971915006637573
","x: 288.904541015625
y: 311.1650695800781
z: -0.2818503975868225
visibility: 0.6650598645210266
","x: 236.6358642578125
y: 409.5968017578125
z: -0.012269052676856518
visibility: 0.7778030037879944
","x: 255.62445068359375
y: 410.9936218261719
z: 0.018548648804426193
visibility: 0.9993871450424194
","x: 239.96502685546875
y: 411.5383605957031
z: -0.018518026918172836
visibility: 0.9995622634887695
","x: 252.668701171875
y: 469.7196044921875
z: 0.039252378046512604
visibility: 0.9531399607658386
","x: 252.08905029296875
y: 469.8395080566406
z: -0.04775134474039078
visibility: 0.9603182077407837
","x: 242.5186767578125
y: 523.7101440429688
z: 0.1618504524230957
visibility: 0.9577356576919556
","x: 254.3553009033203
y: 522.7817993164062
z: 0.03762458264827728
visibility: 0.969000518321991
","x: 238.55332946777344
y: 532.498046875
z: 0.16983817517757416
visibility: 0.9212298393249512
","x: 254.2632293701172
y: 529.7193603515625
z: 0.041022442281246185
visibility: 0.9010875225067139
","x: 244.16604614257812
y: 543.570556640625
z: 0.09320512413978577
visibility: 0.9506651163101196
","x: 263.2400207519531
y: 542.8590698242188
z: -0.051284659653902054
visibility: 0.9578205347061157
",,,,,,,,,,,,,,,,,,,,,,,,,,,,,,,,,,,,,,,,,,
15,"x: 251.97068786621094
y: 304.0462646484375
z: -0.2048184871673584
visibility: 0.9996860027313232
","x: 253.3152618408203
y: 298.578369140625
z: -0.1869686394929886
visibility: 0.9990367293357849
","x: 254.2845458984375
y: 298.62109375
z: -0.18703976273536682
visibility: 0.9990043044090271
","x: 255.20262145996094
y: 298.7106628417969
z: -0.18708160519599915
visibility: 0.9989057183265686
","x: 250.28170776367188
y: 298.43206787109375
z: -0.1886814534664154
visibility: 0.9991353750228882
","x: 249.1274871826172
y: 298.3914489746094
z: -0.1886690855026245
visibility: 0.999193012714386
","x: 247.94964599609375
y: 298.41900634765625
z: -0.1887066513299942
visibility: 0.9990958571434021
","x: 255.93927001953125
y: 301.09796142578125
z: -0.09903277456760406
visibility: 0.9985429048538208
","x: 245.59335327148438
y: 301.3260498046875
z: -0.10722949355840683
visibility: 0.998623251914978
","x: 253.26199340820312
y: 309.2251281738281
z: -0.1672387272119522
visibility: 0.9992570281028748
","x: 249.76309204101562
y: 309.74554443359375
z: -0.16965661942958832
visibility: 0.9992907643318176
","x: 266.0506591796875
y: 330.2674560546875
z: -0.044321998953819275
visibility: 0.998491644859314
","x: 234.50125122070312
y: 339.9151306152344
z: -0.04916819557547569
visibility: 0.99953693151474
","x: 273.38848876953125
y: 369.6256103515625
z: -0.035577066242694855
visibility: 0.7654922604560852
","x: 234.13043212890625
y: 379.22198486328125
z: -0.006537425331771374
visibility: 0.8934282064437866
","x: 283.3826599121094
y: 393.8072509765625
z: -0.23392228782176971
visibility: 0.7235854864120483
","x: 233.74960327148438
y: 416.0931396484375
z: -0.07619553804397583
visibility: 0.842631459236145
","x: 287.7490539550781
y: 395.50225830078125
z: -0.21100406348705292
visibility: 0.697187066078186
","x: 233.83396911621094
y: 426.2388916015625
z: -0.09656888991594315
visibility: 0.8122743368148804
","x: 287.70697021484375
y: 394.017578125
z: -0.2179168164730072
visibility: 0.7010436654090881
","x: 235.02980041503906
y: 426.9820861816406
z: -0.12094178050756454
visibility: 0.8142439723014832
","x: 285.9266052246094
y: 394.13739013671875
z: -0.21801872551441193
visibility: 0.6926814317703247
","x: 235.41867065429688
y: 423.464599609375
z: -0.08765394985675812
visibility: 0.7959499955177307
","x: 263.1700134277344
y: 414.95849609375
z: 0.014769576489925385
visibility: 0.999424159526825
","x: 245.72024536132812
y: 418.1591491699219
z: -0.014759449288249016
visibility: 0.9995965957641602
","x: 271.29803466796875
y: 474.1339111328125
z: 0.012875544838607311
visibility: 0.95677649974823
","x: 257.78497314453125
y: 480.3524169921875
z: -0.030069753527641296
visibility: 0.963739812374115
","x: 262.74896240234375
y: 507.2889709472656
z: 0.2568294405937195
visibility: 0.9488930702209473
","x: 265.025146484375
y: 531.3964233398438
z: 0.08941914141178131
visibility: 0.971159040927887
","x: 259.73358154296875
y: 508.37261962890625
z: 0.28112754225730896
visibility: 0.8940884470939636
","x: 266.6737060546875
y: 539.8253784179688
z: 0.09794541448354721
visibility: 0.8989596962928772
","x: 266.8917236328125
y: 532.4004516601562
z: 0.23059885203838348
visibility: 0.9432555437088013
","x: 267.33740234375
y: 551.409423828125
z: 0.017445556819438934
visibility: 0.9604820609092712
",,,,,,,,,,,,,,,,,,,,,,,,,,,,,,,,,,,,,,,,,,
16,"x: 256.3390808105469
y: 306.4324645996094
z: -0.25114065408706665
visibility: 0.9997164607048035
","x: 257.9800720214844
y: 301.33111572265625
z: -0.23969852924346924
visibility: 0.9991304278373718
","x: 259.1564636230469
y: 301.4937438964844
z: -0.2397058755159378
visibility: 0.9991012811660767
","x: 260.31329345703125
y: 301.59796142578125
z: -0.23971152305603027
visibility: 0.9990116953849792
","x: 254.48350524902344
y: 300.8053894042969
z: -0.2407418042421341
visibility: 0.9992187023162842
","x: 253.1348419189453
y: 300.74560546875
z: -0.24079355597496033
visibility: 0.9992712140083313
","x: 251.78956604003906
y: 300.7638244628906
z: -0.24082493782043457
visibility: 0.9991840124130249
","x: 261.7515869140625
y: 303.83209228515625
z: -0.14968633651733398
visibility: 0.9986841082572937
","x: 249.6751251220703
y: 303.1015625
z: -0.1549096554517746
visibility: 0.9987587928771973
","x: 258.1562805175781
y: 311.86767578125
z: -0.21654386818408966
visibility: 0.9993305206298828
","x: 253.98919677734375
y: 312.46148681640625
z: -0.21869683265686035
visibility: 0.9993610382080078
","x: 271.7632141113281
y: 331.34906005859375
z: -0.07126888632774353
visibility: 0.9986411929130554
","x: 238.1312255859375
y: 337.260009765625
z: -0.08238169550895691
visibility: 0.9995808005332947
","x: 278.7543029785156
y: 366.37347412109375
z: -0.03174513205885887
visibility: 0.7879630327224731
","x: 233.09368896484375
y: 371.3940124511719
z: -0.026827266439795494
visibility: 0.9034504890441895
","x: 279.2817077636719
y: 398.2374572753906
z: -0.09461823105812073
visibility: 0.7494359016418457
","x: 232.48800659179688
y: 400.35699462890625
z: -0.06306414306163788
visibility: 0.8575136661529541
","x: 280.980224609375
y: 408.54443359375
z: -0.10827679932117462
visibility: 0.7226686477661133
","x: 233.02464294433594
y: 407.3302001953125
z: -0.07764704525470734
visibility: 0.8288969397544861
","x: 280.19610595703125
y: 406.13714599609375
z: -0.13194715976715088
visibility: 0.7263405323028564
","x: 233.3726806640625
y: 406.6385192871094
z: -0.09764040261507034
visibility: 0.8307926654815674
","x: 278.9326171875
y: 402.4392395019531
z: -0.10282041132450104
visibility: 0.7173896431922913
","x: 233.92575073242188
y: 404.43365478515625
z: -0.07055025547742844
visibility: 0.8138538599014282
","x: 266.63214111328125
y: 414.216064453125
z: 0.004206579644232988
visibility: 0.999466061592102
","x: 248.52049255371094
y: 417.8773193359375
z: -0.004307296592742205
visibility: 0.9996194243431091
","x: 270.8045959472656
y: 474.6529846191406
z: 0.01259730476886034
visibility: 0.9603329300880432
","x: 258.7080078125
y: 479.4931335449219
z: -0.006471726112067699
visibility: 0.9660167694091797
","x: 271.1704406738281
y: 522.45068359375
z: 0.18586423993110657
visibility: 0.952933132648468
","x: 266.1746826171875
y: 529.146728515625
z: 0.14796331524848938
visibility: 0.9720735549926758
","x: 270.8970947265625
y: 527.97998046875
z: 0.20559068024158478
visibility: 0.8923975229263306
","x: 267.3501281738281
y: 535.4776611328125
z: 0.1594301164150238
visibility: 0.8926385641098022
","x: 274.1340026855469
y: 547.7427368164062
z: 0.09783671796321869
visibility: 0.9475612044334412
","x: 268.96148681640625
y: 549.8810424804688
z: 0.07457400858402252
visibility: 0.9624021649360657
",,,,,,,,,,,,,,,,,,,,,,,,,,,,,,,,,,,,,,,,,,
17,"x: 258.0938415527344
y: 305.4907531738281
z: -0.24176082015037537
visibility: 0.9997418522834778
","x: 259.8150329589844
y: 299.7066955566406
z: -0.23129233717918396
visibility: 0.9992104768753052
","x: 260.807861328125
y: 299.78131103515625
z: -0.23130109906196594
visibility: 0.9991839528083801
","x: 261.8076477050781
y: 299.9042663574219
z: -0.23132292926311493
visibility: 0.9991029500961304
","x: 256.8233337402344
y: 299.0918884277344
z: -0.23247408866882324
visibility: 0.9992890357971191
","x: 255.6813201904297
y: 298.994873046875
z: -0.23252448439598083
visibility: 0.999335765838623
","x: 254.4834442138672
y: 299.03228759765625
z: -0.23257073760032654
visibility: 0.9992592334747314
","x: 262.7304382324219
y: 301.59124755859375
z: -0.1471705436706543
visibility: 0.9988003373146057
","x: 252.56407165527344
y: 300.2958984375
z: -0.15129642188549042
visibility: 0.9988756775856018
","x: 259.28106689453125
y: 309.96307373046875
z: -0.20756188035011292
visibility: 0.9993950128555298
","x: 255.99851989746094
y: 310.2918395996094
z: -0.2097475230693817
visibility: 0.9994220733642578
","x: 271.923095703125
y: 331.74627685546875
z: -0.07520626485347748
visibility: 0.9987754225730896
","x: 241.09706115722656
y: 332.28863525390625
z: -0.07116560637950897
visibility: 0.9996193647384644
","x: 275.7809143066406
y: 369.031005859375
z: -0.03555961698293686
visibility: 0.8047446012496948
","x: 233.02084350585938
y: 367.05487060546875
z: -0.02450985088944435
visibility: 0.9118250608444214
","x: 279.96356201171875
y: 404.356689453125
z: -0.10988929122686386
visibility: 0.7666468024253845
","x: 237.8433380126953
y: 398.5150146484375
z: -0.08356227725744247
visibility: 0.8699497580528259
","x: 280.9542236328125
y: 414.31524658203125
z: -0.12762637436389923
visibility: 0.7386520504951477
","x: 240.07546997070312
y: 407.86968994140625
z: -0.10128958523273468
visibility: 0.8424689173698425
","x: 280.04742431640625
y: 413.9022521972656
z: -0.1519138514995575
visibility: 0.7426039576530457
","x: 241.94932556152344
y: 404.9206237792969
z: -0.12274690717458725
visibility: 0.8444542288780212
","x: 279.16650390625
y: 410.694091796875
z: -0.12056633085012436
visibility: 0.7325413823127747
","x: 241.85769653320312
y: 402.21087646484375
z: -0.09230200201272964
visibility: 0.8282768130302429
","x: 267.2055358886719
y: 412.90185546875
z: -0.012852171435952187
visibility: 0.9995085597038269
","x: 250.50782775878906
y: 417.04486083984375
z: 0.012838068418204784
visibility: 0.9996233582496643
","x: 265.84979248046875
y: 475.5802001953125
z: -0.06511154770851135
visibility: 0.962719738483429
","x: 254.47848510742188
y: 478.2662658691406
z: 0.02041587419807911
visibility: 0.9647372961044312
","x: 266.0256652832031
y: 540.1094970703125
z: 0.019663652405142784
visibility: 0.9566360116004944
","x: 269.9939880371094
y: 509.5531921386719
z: 0.20782223343849182
visibility: 0.9613661766052246
","x: 265.9868469238281
y: 547.52294921875
z: 0.02272052876651287
visibility: 0.8894779086112976
","x: 272.528564453125
y: 510.14886474609375
z: 0.22411516308784485
visibility: 0.8836545348167419
","x: 262.54937744140625
y: 560.5919799804688
z: -0.07399033010005951
visibility: 0.9511609673500061
","x: 272.79351806640625
y: 531.2465209960938
z: 0.16595788300037384
visibility: 0.956221878528595
","x: 278.8724365234375
y: 406.3276672363281
z: 0.0
","x: 277.26226806640625
y: 409.75946044921875
z: -0.0007523179519921541
","x: 277.17431640625
y: 414.6766662597656
z: -0.0005989966448396444
","x: 277.2696838378906
y: 418.5433654785156
z: -0.0003912205866072327
","x: 277.1212158203125
y: 421.4949035644531
z: 0.00015537577564828098
","x: 280.3591003417969
y: 418.17681884765625
z: 0.0009503938490524888
","x: 280.303466796875
y: 423.98089599609375
z: 0.0006653699674643576
","x: 279.0400695800781
y: 426.64324951171875
z: 0.0006473732646554708
","x: 277.793212890625
y: 427.81573486328125
z: 0.0008866486605256796
","x: 281.05316162109375
y: 418.32501220703125
z: 0.0010863551869988441
","x: 280.659912109375
y: 423.8500671386719
z: 0.0010042773792520165
","x: 279.2691650390625
y: 426.6566162109375
z: 0.0008122000144794583
","x: 277.95428466796875
y: 428.14288330078125
z: 0.0007516638142988086
","x: 281.23284912109375
y: 418.2139892578125
z: 0.0009932424873113632
","x: 280.7213134765625
y: 423.5052795410156
z: 0.0006436769617721438
","x: 279.4679870605469
y: 425.98419189453125
z: 0.00021426247258204967
","x: 278.23358154296875
y: 427.42547607421875
z: 4.932397496304475e-05
","x: 280.9481201171875
y: 417.9302673339844
z: 0.000763022864703089
","x: 280.72564697265625
y: 422.52569580078125
z: 0.0003177655744366348
","x: 279.9554748535156
y: 425.03125
z: 3.261344681959599e-05
","x: 279.02777099609375
y: 426.592041015625
z: 1.7584694433026016e-05
",,,,,,,,,,,,,,,,,,,,,
18,"x: 258.0938415527344
y: 305.4907531738281
z: -0.24176082015037537
visibility: 0.9997418522834778
","x: 259.8150329589844
y: 299.7066955566406
z: -0.23129233717918396
visibility: 0.9992104768753052
","x: 260.807861328125
y: 299.78131103515625
z: -0.23130109906196594
visibility: 0.9991839528083801
","x: 261.8076477050781
y: 299.9042663574219
z: -0.23132292926311493
visibility: 0.9991029500961304
","x: 256.8233337402344
y: 299.0918884277344
z: -0.23247408866882324
visibility: 0.9992890357971191
","x: 255.6813201904297
y: 298.994873046875
z: -0.23252448439598083
visibility: 0.999335765838623
","x: 254.4834442138672
y: 299.03228759765625
z: -0.23257073760032654
visibility: 0.9992592334747314
","x: 262.7304382324219
y: 301.59124755859375
z: -0.1471705436706543
visibility: 0.9988003373146057
","x: 252.56407165527344
y: 300.2958984375
z: -0.15129642188549042
visibility: 0.9988756775856018
","x: 259.28106689453125
y: 309.96307373046875
z: -0.20756188035011292
visibility: 0.9993950128555298
","x: 255.99851989746094
y: 310.2918395996094
z: -0.2097475230693817
visibility: 0.9994220733642578
","x: 271.923095703125
y: 331.74627685546875
z: -0.07520626485347748
visibility: 0.9987754225730896
","x: 241.09706115722656
y: 332.28863525390625
z: -0.07116560637950897
visibility: 0.9996193647384644
","x: 275.7809143066406
y: 369.031005859375
z: -0.03555961698293686
visibility: 0.8047446012496948
","x: 233.02084350585938
y: 367.05487060546875
z: -0.02450985088944435
visibility: 0.9118250608444214
","x: 279.96356201171875
y: 404.356689453125
z: -0.10988929122686386
visibility: 0.7666468024253845
","x: 237.8433380126953
y: 398.5150146484375
z: -0.08356227725744247
visibility: 0.8699497580528259
","x: 280.9542236328125
y: 414.31524658203125
z: -0.12762637436389923
visibility: 0.7386520504951477
","x: 240.07546997070312
y: 407.86968994140625
z: -0.10128958523273468
visibility: 0.8424689173698425
","x: 280.04742431640625
y: 413.9022521972656
z: -0.1519138514995575
visibility: 0.7426039576530457
","x: 241.94932556152344
y: 404.9206237792969
z: -0.12274690717458725
visibility: 0.8444542288780212
","x: 279.16650390625
y: 410.694091796875
z: -0.12056633085012436
visibility: 0.7325413823127747
","x: 241.85769653320312
y: 402.21087646484375
z: -0.09230200201272964
visibility: 0.8282768130302429
","x: 267.2055358886719
y: 412.90185546875
z: -0.012852171435952187
visibility: 0.9995085597038269
","x: 250.50782775878906
y: 417.04486083984375
z: 0.012838068418204784
visibility: 0.9996233582496643
","x: 265.84979248046875
y: 475.5802001953125
z: -0.06511154770851135
visibility: 0.962719738483429
","x: 254.47848510742188
y: 478.2662658691406
z: 0.02041587419807911
visibility: 0.9647372961044312
","x: 266.0256652832031
y: 540.1094970703125
z: 0.019663652405142784
visibility: 0.9566360116004944
","x: 269.9939880371094
y: 509.5531921386719
z: 0.20782223343849182
visibility: 0.9613661766052246
","x: 265.9868469238281
y: 547.52294921875
z: 0.02272052876651287
visibility: 0.8894779086112976
","x: 272.528564453125
y: 510.14886474609375
z: 0.22411516308784485
visibility: 0.8836545348167419
","x: 262.54937744140625
y: 560.5919799804688
z: -0.07399033010005951
visibility: 0.9511609673500061
","x: 272.79351806640625
y: 531.2465209960938
z: 0.16595788300037384
visibility: 0.956221878528595
","x: 278.8724365234375
y: 406.3276672363281
z: 0.0
","x: 277.26226806640625
y: 409.75946044921875
z: -0.0007523179519921541
","x: 277.17431640625
y: 414.6766662597656
z: -0.0005989966448396444
","x: 277.2696838378906
y: 418.5433654785156
z: -0.0003912205866072327
","x: 277.1212158203125
y: 421.4949035644531
z: 0.00015537577564828098
","x: 280.3591003417969
y: 418.17681884765625
z: 0.0009503938490524888
","x: 280.303466796875
y: 423.98089599609375
z: 0.0006653699674643576
","x: 279.0400695800781
y: 426.64324951171875
z: 0.0006473732646554708
","x: 277.793212890625
y: 427.81573486328125
z: 0.0008866486605256796
","x: 281.05316162109375
y: 418.32501220703125
z: 0.0010863551869988441
","x: 280.659912109375
y: 423.8500671386719
z: 0.0010042773792520165
","x: 279.2691650390625
y: 426.6566162109375
z: 0.0008122000144794583
","x: 277.95428466796875
y: 428.14288330078125
z: 0.0007516638142988086
","x: 281.23284912109375
y: 418.2139892578125
z: 0.0009932424873113632
","x: 280.7213134765625
y: 423.5052795410156
z: 0.0006436769617721438
","x: 279.4679870605469
y: 425.98419189453125
z: 0.00021426247258204967
","x: 278.23358154296875
y: 427.42547607421875
z: 4.932397496304475e-05
","x: 280.9481201171875
y: 417.9302673339844
z: 0.000763022864703089
","x: 280.72564697265625
y: 422.52569580078125
z: 0.0003177655744366348
","x: 279.9554748535156
y: 425.03125
z: 3.261344681959599e-05
","x: 279.02777099609375
y: 426.592041015625
z: 1.7584694433026016e-05
",,,,,,,,,,,,,,,,,,,,,
19,"x: 257.9286193847656
y: 306.3031311035156
z: -0.2336418628692627
visibility: 0.9997652173042297
","x: 259.69183349609375
y: 300.9331970214844
z: -0.2258632481098175
visibility: 0.9992828369140625
","x: 260.7240295410156
y: 301.0895690917969
z: -0.22582502663135529
visibility: 0.9992597103118896
","x: 261.7093811035156
y: 301.27484130859375
z: -0.22585897147655487
visibility: 0.9991874098777771
","x: 256.6692810058594
y: 300.5482177734375
z: -0.226934552192688
visibility: 0.9993495345115662
","x: 255.5880889892578
y: 300.51556396484375
z: -0.22690539062023163
visibility: 0.999388575553894
","x: 254.51473999023438
y: 300.55963134765625
z: -0.22685053944587708
visibility: 0.9993186593055725
","x: 262.93829345703125
y: 303.42962646484375
z: -0.13904330134391785
visibility: 0.9989104270935059
","x: 252.93992614746094
y: 302.6513977050781
z: -0.12828442454338074
visibility: 0.9989697933197021
","x: 259.5051574707031
y: 311.08056640625
z: -0.20443320274353027
visibility: 0.9994540810585022
","x: 256.09075927734375
y: 311.2242736816406
z: -0.2001425325870514
visibility: 0.9994766712188721
","x: 273.11138916015625
y: 332.7302551269531
z: -0.08571948111057281
visibility: 0.9988976716995239
","x: 241.8614959716797
y: 332.6995544433594
z: -0.04170537739992142
visibility: 0.9996506571769714
","x: 284.4484558105469
y: 365.4151611328125
z: -0.12627044320106506
visibility: 0.8232769966125488
","x: 234.78115844726562
y: 371.14764404296875
z: 0.0030275490134954453
visibility: 0.9163192510604858
","x: 284.113525390625
y: 384.1528625488281
z: -0.2821449935436249
visibility: 0.7891535758972168
","x: 228.39129638671875
y: 396.3243408203125
z: -0.09488343447446823
visibility: 0.8804374933242798
","x: 283.7799987792969
y: 391.0768127441406
z: -0.3156967759132385
visibility: 0.7633925080299377
","x: 224.41299438476562
y: 404.20758056640625
z: -0.11598936468362808
visibility: 0.8544737696647644
","x: 281.5618591308594
y: 388.9488525390625
z: -0.3341823220252991
visibility: 0.7670426368713379
","x: 224.75450134277344
y: 402.0838623046875
z: -0.1360647976398468
visibility: 0.8566511273384094
","x: 280.9819641113281
y: 386.9018249511719
z: -0.2916378676891327
visibility: 0.7572816610336304
","x: 226.13368225097656
y: 399.7940673828125
z: -0.10668554157018661
visibility: 0.8416032195091248
","x: 265.9169006347656
y: 416.89044189453125
z: -0.012174161151051521
visibility: 0.9995555281639099
","x: 248.64849853515625
y: 417.7645263671875
z: 0.012177830561995506
visibility: 0.9996533393859863
","x: 265.83233642578125
y: 484.7886657714844
z: -0.03598892316222191
visibility: 0.9654370546340942
","x: 250.40692138671875
y: 467.62432861328125
z: -0.06978629529476166
visibility: 0.9675135612487793
","x: 263.7764892578125
y: 544.7301635742188
z: 0.08301559090614319
visibility: 0.96014803647995
","x: 257.08868408203125
y: 494.302490234375
z: 0.17915655672550201
visibility: 0.9533655643463135
","x: 263.69830322265625
y: 552.817138671875
z: 0.09037642180919647
visibility: 0.8868935108184814
","x: 258.5697937011719
y: 495.49786376953125
z: 0.20212487876415253
visibility: 0.8633116483688354
","x: 261.54559326171875
y: 564.4902954101562
z: 0.006611926946789026
visibility: 0.9548308849334717
","x: 257.97979736328125
y: 519.505126953125
z: 0.16155612468719482
visibility: 0.9535977244377136
",,,,,,,,,,,,,,,,,,,,,,,,,,,,,,,,,,,,,,,,,,
20,"x: 253.337890625
y: 285.87017822265625
z: -0.15834443271160126
visibility: 0.9997596144676208
","x: 254.70111083984375
y: 280.80816650390625
z: -0.1568363904953003
visibility: 0.9992734789848328
","x: 255.78323364257812
y: 280.7400207519531
z: -0.15690875053405762
visibility: 0.9992833137512207
","x: 256.98291015625
y: 280.7061767578125
z: -0.15695878863334656
visibility: 0.9992048144340515
","x: 251.8832550048828
y: 280.9704895019531
z: -0.150626078248024
visibility: 0.999205470085144
","x: 250.98904418945312
y: 280.9949951171875
z: -0.15062598884105682
visibility: 0.9992437958717346
","x: 250.1608428955078
y: 281.0327453613281
z: -0.1506597101688385
visibility: 0.9990770220756531
","x: 256.9206848144531
y: 281.8787536621094
z: -0.10774145275354385
visibility: 0.9989600777626038
","x: 250.76254272460938
y: 282.7826843261719
z: -0.07777529209852219
visibility: 0.9989292621612549
","x: 254.4599609375
y: 290.70941162109375
z: -0.13780060410499573
visibility: 0.999488353729248
","x: 251.6750946044922
y: 290.65130615234375
z: -0.12889789044857025
visibility: 0.9994734525680542
","x: 269.0291442871094
y: 313.14385986328125
z: -0.054298222064971924
visibility: 0.9990044832229614
","x: 242.25900268554688
y: 317.3723449707031
z: -0.02103530615568161
visibility: 0.9996393322944641
","x: 285.5477600097656
y: 348.6297607421875
z: -0.13792939484119415
visibility: 0.8397758603096008
","x: 233.3672332763672
y: 356.7002868652344
z: 0.009911482222378254
visibility: 0.9148840308189392
","x: 291.02667236328125
y: 329.8638610839844
z: -0.30610913038253784
visibility: 0.8083398342132568
","x: 212.4497528076172
y: 367.5993347167969
z: -0.03592802956700325
visibility: 0.8838611841201782
","x: 294.5086669921875
y: 324.3298034667969
z: -0.3342861533164978
visibility: 0.7827284932136536
","x: 205.5659637451172
y: 369.1318359375
z: -0.04215914383530617
visibility: 0.8539528846740723
","x: 293.8673400878906
y: 321.0894470214844
z: -0.34018805623054504
visibility: 0.7863173484802246
","x: 204.12228393554688
y: 367.77154541015625
z: -0.07082650065422058
visibility: 0.8578882813453674
","x: 292.2254638671875
y: 323.1451416015625
z: -0.31303954124450684
visibility: 0.7770848274230957
","x: 206.91123962402344
y: 367.7452087402344
z: -0.04941776767373085
visibility: 0.8441638946533203
","x: 261.537109375
y: 405.8197021484375
z: -0.008092138916254044
visibility: 0.9994620680809021
","x: 246.50619506835938
y: 402.7862548828125
z: 0.00809116754680872
visibility: 0.99924236536026
","x: 261.50189208984375
y: 471.5692443847656
z: -0.031148944050073624
visibility: 0.9470300078392029
","x: 255.129150390625
y: 462.24114990234375
z: -0.02741379104554653
visibility: 0.9524012207984924
","x: 260.5917663574219
y: 537.3285522460938
z: 0.04048097878694534
visibility: 0.9527033567428589
","x: 257.8182373046875
y: 516.5073852539062
z: 0.07737323641777039
visibility: 0.9395525455474854
","x: 259.9908447265625
y: 545.1141967773438
z: 0.04188770800828934
visibility: 0.8665716648101807
","x: 258.071533203125
y: 522.731689453125
z: 0.08144544810056686
visibility: 0.8391215801239014
","x: 261.1618957519531
y: 559.4139404296875
z: -0.04877360537648201
visibility: 0.9444307684898376
","x: 259.7433166503906
y: 538.5759887695312
z: 0.0013561304658651352
visibility: 0.941574215888977
",,,,,,,,,,,,,,,,,,,,,,,,,,,,,,,,,,,,,,,,,,
21,"x: 248.5874786376953
y: 291.62908935546875
z: -0.11702318489551544
visibility: 0.9997787475585938
","x: 251.77976989746094
y: 285.77642822265625
z: -0.11062449216842651
visibility: 0.9993343949317932
","x: 253.6343231201172
y: 285.58258056640625
z: -0.1107008308172226
visibility: 0.9993485808372498
","x: 255.98101806640625
y: 285.45050048828125
z: -0.11072443425655365
visibility: 0.999274492263794
","x: 248.84010314941406
y: 286.15753173828125
z: -0.1040382981300354
visibility: 0.9992654919624329
","x: 248.41424560546875
y: 286.21624755859375
z: -0.10406974703073502
visibility: 0.9993036985397339
","x: 248.0751190185547
y: 286.2763671875
z: -0.1040920838713646
visibility: 0.9991471171379089
","x: 254.8550567626953
y: 287.7901306152344
z: -0.06207076832652092
visibility: 0.9990494251251221
","x: 248.21835327148438
y: 288.6085205078125
z: -0.03160262480378151
visibility: 0.9990274906158447
","x: 252.01930236816406
y: 297.1661071777344
z: -0.09881123155355453
visibility: 0.9995298385620117
","x: 248.61972045898438
y: 297.16851806640625
z: -0.08989960700273514
visibility: 0.9995114207267761
","x: 266.6330261230469
y: 319.86297607421875
z: -0.02337869070470333
visibility: 0.9990972876548767
","x: 239.90589904785156
y: 324.06939697265625
z: 0.012062355875968933
visibility: 0.9996556043624878
","x: 282.2567443847656
y: 338.157470703125
z: -0.12349966913461685
visibility: 0.8554942607879639
","x: 229.46072387695312
y: 356.78271484375
z: 0.12228268384933472
visibility: 0.9185019731521606
","x: 290.10491943359375
y: 298.8705139160156
z: -0.2748796343803406
visibility: 0.8271188735961914
","x: 210.36526489257812
y: 346.48193359375
z: 0.17678792774677277
visibility: 0.8942752480506897
","x: 294.6454772949219
y: 289.51617431640625
z: -0.29760608077049255
visibility: 0.8030723333358765
","x: 204.23703002929688
y: 341.29681396484375
z: 0.1874551922082901
visibility: 0.8662133812904358
","x: 294.30609130859375
y: 287.3663330078125
z: -0.3025626838207245
visibility: 0.8063899874687195
","x: 203.56173706054688
y: 338.31689453125
z: 0.17012444138526917
visibility: 0.8700061440467834
","x: 291.7320251464844
y: 290.8993835449219
z: -0.2817709445953369
visibility: 0.797885000705719
","x: 205.95028686523438
y: 339.99871826171875
z: 0.17113086581230164
visibility: 0.8573088049888611
","x: 260.06378173828125
y: 407.8258056640625
z: -0.0013902720529586077
visibility: 0.9994620680809021
","x: 245.04998779296875
y: 404.2724609375
z: 0.0014278709422796965
visibility: 0.9992709159851074
","x: 259.76422119140625
y: 471.8374328613281
z: -0.008791799657046795
visibility: 0.9283021688461304
","x: 253.36798095703125
y: 463.0329895019531
z: -0.06186240166425705
visibility: 0.9529018402099609
","x: 258.79241943359375
y: 536.8660278320312
z: 0.047009605914354324
visibility: 0.9471303224563599
","x: 259.3019714355469
y: 522.5609741210938
z: -0.008486338891088963
visibility: 0.9380682706832886
","x: 257.1984558105469
y: 548.2374877929688
z: 0.04787682741880417
visibility: 0.8609023690223694
","x: 259.1201477050781
y: 532.2347412109375
z: -0.007279376033693552
visibility: 0.8367624282836914
","x: 263.3627014160156
y: 552.4088134765625
z: -0.020787792280316353
visibility: 0.9401347041130066
","x: 265.794677734375
y: 533.6370239257812
z: -0.07397685199975967
visibility: 0.9410284757614136
","x: 291.1741638183594
y: 293.0844421386719
z: 0.0
","x: 290.6998291015625
y: 288.23101806640625
z: -0.0019968657288700342
","x: 291.2873229980469
y: 283.00457763671875
z: -0.003310218220576644
","x: 292.29150390625
y: 279.380859375
z: -0.004733797162771225
","x: 293.2681884765625
y: 276.976806640625
z: -0.0061063081957399845
","x: 296.1271667480469
y: 281.1997375488281
z: -0.0015309626469388604
","x: 298.4307861328125
y: 276.7955322265625
z: -0.0035036886110901833
","x: 299.84124755859375
y: 274.8336181640625
z: -0.004737732000648975
","x: 301.0873718261719
y: 273.3134765625
z: -0.005518189165741205
","x: 297.4427185058594
y: 283.4290771484375
z: -0.002235154854133725
","x: 300.51593017578125
y: 280.0919189453125
z: -0.0039375717751681805
","x: 302.361572265625
y: 278.7957458496094
z: -0.004919517319649458
","x: 303.8614196777344
y: 277.91339111328125
z: -0.005667977500706911
","x: 298.03594970703125
y: 286.019775390625
z: -0.00335329445078969
","x: 301.084228515625
y: 283.6560363769531
z: -0.005472702905535698
","x: 302.8542785644531
y: 282.5850830078125
z: -0.006601392291486263
","x: 304.2285461425781
y: 281.720458984375
z: -0.007267088163644075
","x: 298.02935791015625
y: 289.0902099609375
z: -0.004763385746628046
","x: 300.6423034667969
y: 288.46502685546875
z: -0.0066563342697918415
","x: 302.3121032714844
y: 288.2452697753906
z: -0.0075901406817138195
","x: 303.59783935546875
y: 288.029541015625
z: -0.008115293458104134
",,,,,,,,,,,,,,,,,,,,,
22,"x: 248.5874786376953
y: 291.62908935546875
z: -0.11702318489551544
visibility: 0.9997787475585938
","x: 251.77976989746094
y: 285.77642822265625
z: -0.11062449216842651
visibility: 0.9993343949317932
","x: 253.6343231201172
y: 285.58258056640625
z: -0.1107008308172226
visibility: 0.9993485808372498
","x: 255.98101806640625
y: 285.45050048828125
z: -0.11072443425655365
visibility: 0.999274492263794
","x: 248.84010314941406
y: 286.15753173828125
z: -0.1040382981300354
visibility: 0.9992654919624329
","x: 248.41424560546875
y: 286.21624755859375
z: -0.10406974703073502
visibility: 0.9993036985397339
","x: 248.0751190185547
y: 286.2763671875
z: -0.1040920838713646
visibility: 0.9991471171379089
","x: 254.8550567626953
y: 287.7901306152344
z: -0.06207076832652092
visibility: 0.9990494251251221
","x: 248.21835327148438
y: 288.6085205078125
z: -0.03160262480378151
visibility: 0.9990274906158447
","x: 252.01930236816406
y: 297.1661071777344
z: -0.09881123155355453
visibility: 0.9995298385620117
","x: 248.61972045898438
y: 297.16851806640625
z: -0.08989960700273514
visibility: 0.9995114207267761
","x: 266.6330261230469
y: 319.86297607421875
z: -0.02337869070470333
visibility: 0.9990972876548767
","x: 239.90589904785156
y: 324.06939697265625
z: 0.012062355875968933
visibility: 0.9996556043624878
","x: 282.2567443847656
y: 338.157470703125
z: -0.12349966913461685
visibility: 0.8554942607879639
","x: 229.46072387695312
y: 356.78271484375
z: 0.12228268384933472
visibility: 0.9185019731521606
","x: 290.10491943359375
y: 298.8705139160156
z: -0.2748796343803406
visibility: 0.8271188735961914
","x: 210.36526489257812
y: 346.48193359375
z: 0.17678792774677277
visibility: 0.8942752480506897
","x: 294.6454772949219
y: 289.51617431640625
z: -0.29760608077049255
visibility: 0.8030723333358765
","x: 204.23703002929688
y: 341.29681396484375
z: 0.1874551922082901
visibility: 0.8662133812904358
","x: 294.30609130859375
y: 287.3663330078125
z: -0.3025626838207245
visibility: 0.8063899874687195
","x: 203.56173706054688
y: 338.31689453125
z: 0.17012444138526917
visibility: 0.8700061440467834
","x: 291.7320251464844
y: 290.8993835449219
z: -0.2817709445953369
visibility: 0.797885000705719
","x: 205.95028686523438
y: 339.99871826171875
z: 0.17113086581230164
visibility: 0.8573088049888611
","x: 260.06378173828125
y: 407.8258056640625
z: -0.0013902720529586077
visibility: 0.9994620680809021
","x: 245.04998779296875
y: 404.2724609375
z: 0.0014278709422796965
visibility: 0.9992709159851074
","x: 259.76422119140625
y: 471.8374328613281
z: -0.008791799657046795
visibility: 0.9283021688461304
","x: 253.36798095703125
y: 463.0329895019531
z: -0.06186240166425705
visibility: 0.9529018402099609
","x: 258.79241943359375
y: 536.8660278320312
z: 0.047009605914354324
visibility: 0.9471303224563599
","x: 259.3019714355469
y: 522.5609741210938
z: -0.008486338891088963
visibility: 0.9380682706832886
","x: 257.1984558105469
y: 548.2374877929688
z: 0.04787682741880417
visibility: 0.8609023690223694
","x: 259.1201477050781
y: 532.2347412109375
z: -0.007279376033693552
visibility: 0.8367624282836914
","x: 263.3627014160156
y: 552.4088134765625
z: -0.020787792280316353
visibility: 0.9401347041130066
","x: 265.794677734375
y: 533.6370239257812
z: -0.07397685199975967
visibility: 0.9410284757614136
","x: 291.1741638183594
y: 293.0844421386719
z: 0.0
","x: 290.6998291015625
y: 288.23101806640625
z: -0.0019968657288700342
","x: 291.2873229980469
y: 283.00457763671875
z: -0.003310218220576644
","x: 292.29150390625
y: 279.380859375
z: -0.004733797162771225
","x: 293.2681884765625
y: 276.976806640625
z: -0.0061063081957399845
","x: 296.1271667480469
y: 281.1997375488281
z: -0.0015309626469388604
","x: 298.4307861328125
y: 276.7955322265625
z: -0.0035036886110901833
","x: 299.84124755859375
y: 274.8336181640625
z: -0.004737732000648975
","x: 301.0873718261719
y: 273.3134765625
z: -0.005518189165741205
","x: 297.4427185058594
y: 283.4290771484375
z: -0.002235154854133725
","x: 300.51593017578125
y: 280.0919189453125
z: -0.0039375717751681805
","x: 302.361572265625
y: 278.7957458496094
z: -0.004919517319649458
","x: 303.8614196777344
y: 277.91339111328125
z: -0.005667977500706911
","x: 298.03594970703125
y: 286.019775390625
z: -0.00335329445078969
","x: 301.084228515625
y: 283.6560363769531
z: -0.005472702905535698
","x: 302.8542785644531
y: 282.5850830078125
z: -0.006601392291486263
","x: 304.2285461425781
y: 281.720458984375
z: -0.007267088163644075
","x: 298.02935791015625
y: 289.0902099609375
z: -0.004763385746628046
","x: 300.6423034667969
y: 288.46502685546875
z: -0.0066563342697918415
","x: 302.3121032714844
y: 288.2452697753906
z: -0.0075901406817138195
","x: 303.59783935546875
y: 288.029541015625
z: -0.008115293458104134
",,,,,,,,,,,,,,,,,,,,,
23,"x: 248.48573303222656
y: 291.7410583496094
z: -0.12790754437446594
visibility: 0.9997966885566711
","x: 250.84259033203125
y: 287.1857604980469
z: -0.12100088596343994
visibility: 0.9993901252746582
","x: 252.21279907226562
y: 287.2134094238281
z: -0.12108377367258072
visibility: 0.9994060397148132
","x: 253.77159118652344
y: 287.317626953125
z: -0.12111933529376984
visibility: 0.999340295791626
","x: 248.23133850097656
y: 287.32958984375
z: -0.11435450613498688
visibility: 0.9993182420730591
","x: 247.74862670898438
y: 287.39569091796875
z: -0.11435415595769882
visibility: 0.9993468523025513
","x: 247.41737365722656
y: 287.4948425292969
z: -0.11436405032873154
visibility: 0.9991979598999023
","x: 254.18040466308594
y: 290.9754333496094
z: -0.07084808498620987
visibility: 0.9991304874420166
","x: 247.80055236816406
y: 291.03460693359375
z: -0.04151534289121628
visibility: 0.9991095662117004
","x: 251.1917724609375
y: 297.76837158203125
z: -0.10938040912151337
visibility: 0.9995724558830261
","x: 248.05490112304688
y: 297.47296142578125
z: -0.10096317529678345
visibility: 0.9995512366294861
","x: 265.0605163574219
y: 322.452880859375
z: -0.0473024882376194
visibility: 0.9991863369941711
","x: 238.06248474121094
y: 327.14349365234375
z: 0.014069445431232452
visibility: 0.9996697306632996
","x: 278.5933837890625
y: 342.21575927734375
z: -0.1673046201467514
visibility: 0.8696936964988708
","x: 228.29942321777344
y: 358.48736572265625
z: 0.11566565185785294
visibility: 0.9188132882118225
","x: 268.37408447265625
y: 310.1163330078125
z: -0.3322828710079193
visibility: 0.8442614674568176
","x: 208.1278839111328
y: 351.17108154296875
z: 0.12546037137508392
visibility: 0.8998972177505493
","x: 268.9280700683594
y: 296.77154541015625
z: -0.35979682207107544
visibility: 0.822346568107605
","x: 203.15480041503906
y: 344.3646240234375
z: 0.12654051184654236
visibility: 0.8720257878303528
","x: 268.0103454589844
y: 294.60247802734375
z: -0.35399308800697327
visibility: 0.8252955675125122
","x: 202.83663940429688
y: 341.445068359375
z: 0.10477767139673233
visibility: 0.8764169812202454
","x: 266.5208435058594
y: 300.2325134277344
z: -0.3334731161594391
visibility: 0.8173360228538513
","x: 204.6349334716797
y: 344.21630859375
z: 0.11584242433309555
visibility: 0.8648750185966492
","x: 255.41897583007812
y: 411.1773681640625
z: -0.002579829189926386
visibility: 0.9995138049125671
","x: 236.62173461914062
y: 406.9062805175781
z: 0.0026043662801384926
visibility: 0.9993367195129395
","x: 256.8277282714844
y: 479.8824768066406
z: -0.014080032706260681
visibility: 0.9341268539428711
","x: 250.83932495117188
y: 452.5947265625
z: -0.17018595337867737
visibility: 0.9572485089302063
","x: 257.51483154296875
y: 543.6571044921875
z: 0.07232244312763214
visibility: 0.9514159560203552
","x: 241.5389404296875
y: 484.29266357421875
z: 0.059613876044750214
visibility: 0.9277111291885376
","x: 255.9024200439453
y: 552.52001953125
z: 0.07678398489952087
visibility: 0.8644282817840576
","x: 239.119140625
y: 484.4876403808594
z: 0.07734964787960052
visibility: 0.8114930987358093
","x: 260.4446105957031
y: 560.5882568359375
z: 0.004441165830940008
visibility: 0.9447796940803528
","x: 246.55435180664062
y: 510.93853759765625
z: 0.02971145510673523
visibility: 0.936042308807373
","x: 264.3311462402344
y: 310.5047302246094
z: 0.0
","x: 261.4474792480469
y: 306.33221435546875
z: -0.0014657247811555862
","x: 260.07611083984375
y: 299.510009765625
z: -0.002206702483817935
","x: 260.1041564941406
y: 293.64068603515625
z: -0.0033825787249952555
","x: 259.8724365234375
y: 289.1981201171875
z: -0.004387077875435352
","x: 262.7951965332031
y: 290.6648254394531
z: 0.0016000092728063464
","x: 263.0680236816406
y: 284.1805725097656
z: 3.426972034503706e-05
","x: 263.2009582519531
y: 280.8712463378906
z: -0.000761220115236938
","x: 263.2303466796875
y: 278.43115234375
z: -0.0010583888506516814
","x: 264.8644104003906
y: 290.2037353515625
z: 0.0006294300546869636
","x: 265.86541748046875
y: 282.4093322753906
z: -0.00043624595855362713
","x: 266.3787536621094
y: 279.15545654296875
z: -0.0009276170749217272
","x: 266.667236328125
y: 276.90863037109375
z: -0.001108320546336472
","x: 266.4389953613281
y: 291.0252685546875
z: -0.0010477055329829454
","x: 267.84991455078125
y: 284.1951904296875
z: -0.002712331712245941
","x: 268.35235595703125
y: 281.16387939453125
z: -0.003403979353606701
","x: 268.68408203125
y: 278.9591064453125
z: -0.0035800649784505367
","x: 267.69879150390625
y: 293.1807556152344
z: -0.0031279572285711765
","x: 269.2814025878906
y: 288.57647705078125
z: -0.0044563161209225655
","x: 269.95941162109375
y: 286.2826843261719
z: -0.004970663692802191
","x: 270.3345031738281
y: 284.4938659667969
z: -0.005067081656306982
",,,,,,,,,,,,,,,,,,,,,
24,"x: 248.48573303222656
y: 291.7410583496094
z: -0.12790754437446594
visibility: 0.9997966885566711
","x: 250.84259033203125
y: 287.1857604980469
z: -0.12100088596343994
visibility: 0.9993901252746582
","x: 252.21279907226562
y: 287.2134094238281
z: -0.12108377367258072
visibility: 0.9994060397148132
","x: 253.77159118652344
y: 287.317626953125
z: -0.12111933529376984
visibility: 0.999340295791626
","x: 248.23133850097656
y: 287.32958984375
z: -0.11435450613498688
visibility: 0.9993182420730591
","x: 247.74862670898438
y: 287.39569091796875
z: -0.11435415595769882
visibility: 0.9993468523025513
","x: 247.41737365722656
y: 287.4948425292969
z: -0.11436405032873154
visibility: 0.9991979598999023
","x: 254.18040466308594
y: 290.9754333496094
z: -0.07084808498620987
visibility: 0.9991304874420166
","x: 247.80055236816406
y: 291.03460693359375
z: -0.04151534289121628
visibility: 0.9991095662117004
","x: 251.1917724609375
y: 297.76837158203125
z: -0.10938040912151337
visibility: 0.9995724558830261
","x: 248.05490112304688
y: 297.47296142578125
z: -0.10096317529678345
visibility: 0.9995512366294861
","x: 265.0605163574219
y: 322.452880859375
z: -0.0473024882376194
visibility: 0.9991863369941711
","x: 238.06248474121094
y: 327.14349365234375
z: 0.014069445431232452
visibility: 0.9996697306632996
","x: 278.5933837890625
y: 342.21575927734375
z: -0.1673046201467514
visibility: 0.8696936964988708
","x: 228.29942321777344
y: 358.48736572265625
z: 0.11566565185785294
visibility: 0.9188132882118225
","x: 268.37408447265625
y: 310.1163330078125
z: -0.3322828710079193
visibility: 0.8442614674568176
","x: 208.1278839111328
y: 351.17108154296875
z: 0.12546037137508392
visibility: 0.8998972177505493
","x: 268.9280700683594
y: 296.77154541015625
z: -0.35979682207107544
visibility: 0.822346568107605
","x: 203.15480041503906
y: 344.3646240234375
z: 0.12654051184654236
visibility: 0.8720257878303528
","x: 268.0103454589844
y: 294.60247802734375
z: -0.35399308800697327
visibility: 0.8252955675125122
","x: 202.83663940429688
y: 341.445068359375
z: 0.10477767139673233
visibility: 0.8764169812202454
","x: 266.5208435058594
y: 300.2325134277344
z: -0.3334731161594391
visibility: 0.8173360228538513
","x: 204.6349334716797
y: 344.21630859375
z: 0.11584242433309555
visibility: 0.8648750185966492
","x: 255.41897583007812
y: 411.1773681640625
z: -0.002579829189926386
visibility: 0.9995138049125671
","x: 236.62173461914062
y: 406.9062805175781
z: 0.0026043662801384926
visibility: 0.9993367195129395
","x: 256.8277282714844
y: 479.8824768066406
z: -0.014080032706260681
visibility: 0.9341268539428711
","x: 250.83932495117188
y: 452.5947265625
z: -0.17018595337867737
visibility: 0.9572485089302063
","x: 257.51483154296875
y: 543.6571044921875
z: 0.07232244312763214
visibility: 0.9514159560203552
","x: 241.5389404296875
y: 484.29266357421875
z: 0.059613876044750214
visibility: 0.9277111291885376
","x: 255.9024200439453
y: 552.52001953125
z: 0.07678398489952087
visibility: 0.8644282817840576
","x: 239.119140625
y: 484.4876403808594
z: 0.07734964787960052
visibility: 0.8114930987358093
","x: 260.4446105957031
y: 560.5882568359375
z: 0.004441165830940008
visibility: 0.9447796940803528
","x: 246.55435180664062
y: 510.93853759765625
z: 0.02971145510673523
visibility: 0.936042308807373
","x: 264.3311462402344
y: 310.5047302246094
z: 0.0
","x: 261.4474792480469
y: 306.33221435546875
z: -0.0014657247811555862
","x: 260.07611083984375
y: 299.510009765625
z: -0.002206702483817935
","x: 260.1041564941406
y: 293.64068603515625
z: -0.0033825787249952555
","x: 259.8724365234375
y: 289.1981201171875
z: -0.004387077875435352
","x: 262.7951965332031
y: 290.6648254394531
z: 0.0016000092728063464
","x: 263.0680236816406
y: 284.1805725097656
z: 3.426972034503706e-05
","x: 263.2009582519531
y: 280.8712463378906
z: -0.000761220115236938
","x: 263.2303466796875
y: 278.43115234375
z: -0.0010583888506516814
","x: 264.8644104003906
y: 290.2037353515625
z: 0.0006294300546869636
","x: 265.86541748046875
y: 282.4093322753906
z: -0.00043624595855362713
","x: 266.3787536621094
y: 279.15545654296875
z: -0.0009276170749217272
","x: 266.667236328125
y: 276.90863037109375
z: -0.001108320546336472
","x: 266.4389953613281
y: 291.0252685546875
z: -0.0010477055329829454
","x: 267.84991455078125
y: 284.1951904296875
z: -0.002712331712245941
","x: 268.35235595703125
y: 281.16387939453125
z: -0.003403979353606701
","x: 268.68408203125
y: 278.9591064453125
z: -0.0035800649784505367
","x: 267.69879150390625
y: 293.1807556152344
z: -0.0031279572285711765
","x: 269.2814025878906
y: 288.57647705078125
z: -0.0044563161209225655
","x: 269.95941162109375
y: 286.2826843261719
z: -0.004970663692802191
","x: 270.3345031738281
y: 284.4938659667969
z: -0.005067081656306982
",,,,,,,,,,,,,,,,,,,,,
25,"x: 244.94345092773438
y: 294.3349609375
z: -0.25449520349502563
visibility: 0.9998098611831665
","x: 247.14602661132812
y: 289.3757019042969
z: -0.253159761428833
visibility: 0.999435305595398
","x: 248.46633911132812
y: 289.3447265625
z: -0.25322338938713074
visibility: 0.9994525909423828
","x: 249.9643096923828
y: 289.3548889160156
z: -0.2532959580421448
visibility: 0.9993933439254761
","x: 244.23196411132812
y: 289.1772766113281
z: -0.24320411682128906
visibility: 0.9993571043014526
","x: 243.49188232421875
y: 288.94140625
z: -0.24322910606861115
visibility: 0.9993746280670166
","x: 242.77676391601562
y: 288.70281982421875
z: -0.24327456951141357
visibility: 0.9992384910583496
","x: 251.6215362548828
y: 290.8987731933594
z: -0.19202417135238647
visibility: 0.9991954565048218
","x: 242.47930908203125
y: 289.8023681640625
z: -0.14696714282035828
visibility: 0.9991611242294312
","x: 247.1595916748047
y: 299.2528381347656
z: -0.22784268856048584
visibility: 0.9996116757392883
","x: 243.88418579101562
y: 298.6861572265625
z: -0.21485140919685364
visibility: 0.9995844960212708
","x: 261.56317138671875
y: 321.93878173828125
z: -0.1385369747877121
visibility: 0.9992671012878418
","x: 232.27508544921875
y: 320.1492004394531
z: -0.04258311539888382
visibility: 0.9997001886367798
","x: 262.93951416015625
y: 359.920166015625
z: -0.1735953390598297
visibility: 0.8814136981964111
","x: 222.61106872558594
y: 358.3660888671875
z: 0.04081117361783981
visibility: 0.9237649440765381
","x: 245.57936096191406
y: 374.6895751953125
z: -0.2992170453071594
visibility: 0.8581075072288513
","x: 212.38861083984375
y: 387.6813049316406
z: 0.041840165853500366
visibility: 0.9068331718444824
","x: 240.69302368164062
y: 375.7064208984375
z: -0.32681089639663696
visibility: 0.8365418910980225
","x: 207.42678833007812
y: 395.2259521484375
z: 0.08631376922130585
visibility: 0.8795889019966125
","x: 239.47096252441406
y: 368.8799743652344
z: -0.3374083638191223
visibility: 0.8392313122749329
","x: 207.13650512695312
y: 396.2451171875
z: -0.0014367284020408988
visibility: 0.8838979005813599
","x: 240.735107421875
y: 368.79290771484375
z: -0.3040502965450287
visibility: 0.8298490047454834
","x: 209.2386016845703
y: 394.37738037109375
z: 0.06971688568592072
visibility: 0.8727798461914062
","x: 246.87014770507812
y: 410.009765625
z: -0.00793153140693903
visibility: 0.999560534954071
","x: 228.78079223632812
y: 405.1686096191406
z: 0.007895885035395622
visibility: 0.9993970394134521
","x: 244.4146728515625
y: 480.1298522949219
z: -0.024430857971310616
visibility: 0.9391834139823914
","x: 223.82740783691406
y: 462.25909423828125
z: -0.08945123106241226
visibility: 0.9606713056564331
","x: 237.85804748535156
y: 540.0343017578125
z: 0.07743494212627411
visibility: 0.9550735354423523
","x: 232.09703063964844
y: 469.833984375
z: 0.2267400026321411
visibility: 0.8744720816612244
","x: 235.28614807128906
y: 548.8524780273438
z: 0.09059323370456696
visibility: 0.871817409992218
","x: 233.10250854492188
y: 465.8555908203125
z: 0.2595067024230957
visibility: 0.7623499035835266
","x: 240.83143615722656
y: 559.4515380859375
z: 0.0333150178194046
visibility: 0.9485942125320435
","x: 233.37657165527344
y: 491.22821044921875
z: 0.259208619594574
visibility: 0.8944341540336609
",,,,,,,,,,,,,,,,,,,,,,,,,,,,,,,,,,,,,,,,,,
26,"x: 236.7198944091797
y: 294.71240234375
z: -0.1730455905199051
visibility: 0.9998281598091125
","x: 238.5386962890625
y: 289.90655517578125
z: -0.16493818163871765
visibility: 0.9994897842407227
","x: 239.6246337890625
y: 289.86529541015625
z: -0.1650257408618927
visibility: 0.9995059370994568
","x: 240.74258422851562
y: 289.852783203125
z: -0.16507109999656677
visibility: 0.999452531337738
","x: 235.75625610351562
y: 289.7470703125
z: -0.15671488642692566
visibility: 0.9994164705276489
","x: 234.91986083984375
y: 289.586669921875
z: -0.15669602155685425
visibility: 0.9994308352470398
","x: 234.1113739013672
y: 289.46893310546875
z: -0.15669555962085724
