uscmakers/ReverseChoreography/data/3_lite_spots_kaytranada.csv
,NOSE,LEFT_EYE_INNER,LEFT_EYE,LEFT_EYE_OUTER,RIGHT_EYE_INNER,RIGHT_EYE,RIGHT_EYE_OUTER,LEFT_EAR,RIGHT_EAR,MOUTH_LEFT,MOUTH_RIGHT,LEFT_SHOULDER,RIGHT_SHOULDER,LEFT_ELBOW,RIGHT_ELBOW,LEFT_WRIST,RIGHT_WRIST,LEFT_PINKY,RIGHT_PINKY,LEFT_INDEX,RIGHT_INDEX,LEFT_THUMB,RIGHT_THUMB,LEFT_HIP,RIGHT_HIP,LEFT_KNEE,RIGHT_KNEE,LEFT_ANKLE,RIGHT_ANKLE,LEFT_HEEL,RIGHT_HEEL,LEFT_FOOT_INDEX,RIGHT_FOOT_INDEX,WRIST,THUMB_CPC,THUMB_MCP,THUMB_IP,THUMB_TIP,INDEX_FINGER_MCP,INDEX_FINGER_PIP,INDEX_FINGER_DIP,INDEX_FINGER_TIP,MIDDLE_FINGER_MCP,MIDDLE_FINGER_PIP,MIDDLE_FINGER_DIP,MIDDLE_FINGER_TIP,RING_FINGER_PIP,RING_FINGER_DIP,RING_FINGER_TIP,RING_FINGER_MCP,PINKY_MCP,PINKY_PIP,PINKY_DIP,PINKY_TIP,WRIST2,THUMB_CPC2,THUMB_MCP2,THUMB_IP2,THUMB_TIP2,INDEX_FINGER_MCP2,INDEX_FINGER_PIP2,INDEX_FINGER_DIP2,INDEX_FINGER_TIP2,MIDDLE_FINGER_MCP2,MIDDLE_FINGER_PIP2,MIDDLE_FINGER_DIP2,MIDDLE_FINGER_TIP2,RING_FINGER_PIP2,RING_FINGER_DIP2,RING_FINGER_TIP2,RING_FINGER_MCP2,PINKY_MCP2,PINKY_PIP2,PINKY_DIP2,PINKY_TIP2
0,"x: 258.32537841796875
y: 290.64208984375
z: 0.021462224423885345
visibility: 0.993842363357544
","x: 257.86370849609375
y: 284.134521484375
z: -0.008113301359117031
visibility: 0.991182804107666
","x: 257.2389831542969
y: 283.9512939453125
z: -0.008122733794152737
visibility: 0.9915844202041626
","x: 256.6195373535156
y: 283.7640686035156
z: -0.008114969357848167
visibility: 0.9903305768966675
","x: 259.8392333984375
y: 284.2204895019531
z: -0.004947774577885866
visibility: 0.9923588633537292
","x: 260.5964660644531
y: 284.12567138671875
z: -0.004999351222068071
visibility: 0.9930955767631531
","x: 261.472900390625
y: 283.9971008300781
z: -0.005078109912574291
visibility: 0.9924544095993042
","x: 256.443115234375
y: 286.4661865234375
z: -0.09157691895961761
visibility: 0.9893284440040588
","x: 263.4808654785156
y: 286.7648620605469
z: -0.07873926311731339
visibility: 0.9925045967102051
","x: 257.6499328613281
y: 296.9476318359375
z: -0.002213517902418971
visibility: 0.9927645325660706
","x: 259.5835266113281
y: 297.26153564453125
z: 0.0016018999740481377
visibility: 0.993216335773468
","x: 242.50582885742188
y: 326.75518798828125
z: -0.11574481427669525
visibility: 0.996908962726593
","x: 276.4596252441406
y: 320.0308532714844
z: -0.0818973034620285
visibility: 0.9930197596549988
","x: 226.83302307128906
y: 358.34271240234375
z: -0.10299959033727646
visibility: 0.96546870470047
","x: 286.4189758300781
y: 346.4803771972656
z: -0.0443359799683094
visibility: 0.6712933778762817
","x: 218.6558074951172
y: 334.4072265625
z: -0.03579023480415344
visibility: 0.805790364742279
","x: 267.0246276855469
y: 327.30828857421875
z: 0.027187403291463852
visibility: 0.25562164187431335
","x: 215.70632934570312
y: 326.0346984863281
z: -0.037659961730241776
visibility: 0.6818256974220276
","x: 266.8030700683594
y: 317.485595703125
z: 0.038342613726854324
visibility: 0.22970600426197052
","x: 218.29660034179688
y: 323.14398193359375
z: -0.02803756669163704
visibility: 0.6773813962936401
","x: 263.8572082519531
y: 315.18695068359375
z: 0.03470085188746452
visibility: 0.22574912011623383
","x: 219.22975158691406
y: 326.771728515625
z: -0.029523437842726707
visibility: 0.6105268597602844
","x: 263.54937744140625
y: 318.8856201171875
z: 0.028181415051221848
visibility: 0.21813836693763733
","x: 248.7491455078125
y: 425.4718322753906
z: -0.0004401851329021156
visibility: 0.9951066970825195
","x: 262.617431640625
y: 426.3738708496094
z: 0.00040243699913844466
visibility: 0.9916461110115051
","x: 243.22903442382812
y: 494.07550048828125
z: 0.04753054305911064
visibility: 0.9018096327781677
","x: 253.69482421875
y: 495.1518249511719
z: 0.05529682710766792
visibility: 0.9171664714813232
","x: 239.2824249267578
y: 559.5345458984375
z: 0.05693858116865158
visibility: 0.9705284237861633
","x: 246.016357421875
y: 560.3577880859375
z: 0.07898808270692825
visibility: 0.942394495010376
","x: 236.944580078125
y: 568.8502197265625
z: 0.056219011545181274
visibility: 0.9584812521934509
","x: 242.44046020507812
y: 568.003173828125
z: 0.08036160469055176
visibility: 0.9132965803146362
","x: 238.24295043945312
y: 574.1068115234375
z: 0.022518854588270187
visibility: 0.9309813976287842
","x: 248.90667724609375
y: 575.7348022460938
z: 0.0498192198574543
visibility: 0.8619239926338196
",,,,,,,,,,,,,,,,,,,,,,,,,,,,,,,,,,,,,,,,,,
1,"x: 236.95664978027344
y: 318.92169189453125
z: -0.23504161834716797
visibility: 0.9944443702697754
","x: 238.70558166503906
y: 312.26763916015625
z: -0.22542759776115417
visibility: 0.9920240044593811
","x: 239.84634399414062
y: 312.3194580078125
z: -0.22547647356987
visibility: 0.9923871755599976
","x: 240.95303344726562
y: 312.3699645996094
z: -0.22551730275154114
visibility: 0.9912546277046204
","x: 235.41004943847656
y: 311.6591491699219
z: -0.22824645042419434
visibility: 0.9930712580680847
","x: 234.22360229492188
y: 311.31573486328125
z: -0.22824954986572266
visibility: 0.993720531463623
","x: 233.1177215576172
y: 311.02587890625
z: -0.22825951874256134
visibility: 0.9931191205978394
","x: 242.38877868652344
y: 313.6233215332031
z: -0.13705062866210938
visibility: 0.9903014898300171
","x: 232.38880920410156
y: 313.0008544921875
z: -0.1518385112285614
visibility: 0.9931573271751404
","x: 238.8280029296875
y: 324.7464599609375
z: -0.1995939463376999
visibility: 0.9934576749801636
","x: 235.05450439453125
y: 324.20965576171875
z: -0.20376332104206085
visibility: 0.9938639402389526
","x: 248.24598693847656
y: 351.2536926269531
z: -0.0731518343091011
visibility: 0.9972134828567505
","x: 218.3052978515625
y: 349.3338317871094
z: -0.09020350128412247
visibility: 0.993710458278656
","x: 250.85821533203125
y: 390.100830078125
z: -0.05998211354017258
visibility: 0.9614794254302979
","x: 207.20944213867188
y: 377.1297912597656
z: -0.05975532531738281
visibility: 0.7024990320205688
","x: 265.7802429199219
y: 411.653076171875
z: -0.18085354566574097
visibility: 0.8214167952537537
","x: 195.23287963867188
y: 393.2539367675781
z: -0.1113232746720314
visibility: 0.32653388381004333
","x: 271.24151611328125
y: 414.5638427734375
z: -0.20656713843345642
visibility: 0.7072597146034241
","x: 189.67608642578125
y: 399.1625671386719
z: -0.12573234736919403
visibility: 0.30001842975616455
","x: 272.7604675292969
y: 413.220947265625
z: -0.23513372242450714
visibility: 0.7043400406837463
","x: 190.22402954101562
y: 398.4454040527344
z: -0.15127041935920715
visibility: 0.29733601212501526
","x: 269.9038391113281
y: 412.04718017578125
z: -0.19660991430282593
visibility: 0.6434335112571716
","x: 192.11422729492188
y: 397.0758361816406
z: -0.12366755306720734
visibility: 0.2902528941631317
","x: 246.9949188232422
y: 436.2728271484375
z: 0.01657807268202305
visibility: 0.9955282807350159
","x: 230.57972717285156
y: 439.330810546875
z: -0.01648816652595997
visibility: 0.9924145936965942
","x: 251.85140991210938
y: 502.64410400390625
z: 0.0322333425283432
visibility: 0.9073687195777893
","x: 240.82296752929688
y: 504.6435852050781
z: 0.014969524927437305
visibility: 0.9240272641181946
","x: 249.0367431640625
y: 562.9931640625
z: 0.10716681182384491
visibility: 0.9704889059066772
","x: 234.78341674804688
y: 564.14501953125
z: 0.14137741923332214
visibility: 0.9457973837852478
","x: 245.70216369628906
y: 572.522705078125
z: 0.11064969003200531
visibility: 0.9563520550727844
","x: 234.72293090820312
y: 572.5313720703125
z: 0.1499997079372406
visibility: 0.9059782028198242
","x: 259.0296936035156
y: 578.9227905273438
z: 0.026466459035873413
visibility: 0.93467777967453
","x: 231.5983428955078
y: 578.904052734375
z: 0.06593749672174454
visibility: 0.8719180226325989
",,,,,,,,,,,,,,,,,,,,,,,,,,,,,,,,,,,,,,,,,,
2,"x: 228.82159423828125
y: 307.7450256347656
z: -0.19707690179347992
visibility: 0.9949935674667358
","x: 230.66970825195312
y: 301.49072265625
z: -0.19049140810966492
visibility: 0.9928022623062134
","x: 231.829833984375
y: 301.9400329589844
z: -0.1905800700187683
visibility: 0.993131697177887
","x: 233.01007080078125
y: 302.51708984375
z: -0.19064068794250488
visibility: 0.9921097755432129
","x: 227.50401306152344
y: 299.939208984375
z: -0.18647024035453796
visibility: 0.9937319755554199
","x: 226.3922119140625
y: 299.27978515625
z: -0.18646344542503357
visibility: 0.9943068623542786
","x: 225.2753448486328
y: 298.89031982421875
z: -0.18647810816764832
visibility: 0.9937547445297241
","x: 235.13882446289062
y: 301.9802551269531
z: -0.11781612783670425
visibility: 0.9912558794021606
","x: 224.5899200439453
y: 299.31414794921875
z: -0.13261885941028595
visibility: 0.9937669634819031
","x: 230.87051391601562
y: 311.69775390625
z: -0.1636279821395874
visibility: 0.9941050410270691
","x: 226.8292694091797
y: 311.270751953125
z: -0.15842702984809875
visibility: 0.994462788105011
","x: 247.01222229003906
y: 328.0050354003906
z: -0.04369495064020157
visibility: 0.9974892139434814
","x: 212.48226928710938
y: 338.4140319824219
z: -0.007119692862033844
visibility: 0.9943259358406067
","x: 255.83135986328125
y: 383.60882568359375
z: -0.05979255959391594
visibility: 0.9633657336235046
","x: 204.77195739746094
y: 366.0582275390625
z: -0.05184756964445114
visibility: 0.7264516353607178
","x: 272.9099426269531
y: 372.0010070800781
z: -0.2133621722459793
visibility: 0.83829265832901
","x: 191.09535217285156
y: 362.2922058105469
z: -0.24396488070487976
visibility: 0.39307546615600586
","x: 280.500244140625
y: 368.4180908203125
z: -0.24189431965351105
visibility: 0.7348092198371887
","x: 185.5712127685547
y: 358.3298034667969
z: -0.27714303135871887
visibility: 0.3686944246292114
","x: 281.3971252441406
y: 365.77532958984375
z: -0.26921403408050537
visibility: 0.7324346899986267
","x: 184.94833374023438
y: 355.7841491699219
z: -0.29715070128440857
visibility: 0.36641573905944824
","x: 278.66253662109375
y: 367.2166748046875
z: -0.22782988846302032
visibility: 0.6772200465202332
","x: 187.33387756347656
y: 357.5447082519531
z: -0.2582088112831116
visibility: 0.359707772731781
","x: 237.06805419921875
y: 421.8724365234375
z: -0.006530622951686382
visibility: 0.9959043264389038
","x: 216.52992248535156
y: 422.98773193359375
z: 0.0066029345616698265
visibility: 0.9930947422981262
","x: 240.35845947265625
y: 494.4497985839844
z: -0.03520241752266884
visibility: 0.9159916639328003
","x: 216.43492126464844
y: 497.2578430175781
z: 0.007335524074733257
visibility: 0.9311079382896423
","x: 245.70050048828125
y: 555.9769287109375
z: 0.0859612300992012
visibility: 0.9726349711418152
","x: 223.3146514892578
y: 555.6129760742188
z: 0.144841730594635
visibility: 0.9505024552345276
","x: 243.8564910888672
y: 564.0607299804688
z: 0.08930052816867828
visibility: 0.9518159627914429
","x: 227.801513671875
y: 561.86572265625
z: 0.15285125374794006
visibility: 0.9094771146774292
","x: 252.64794921875
y: 578.831787109375
z: -0.013588701374828815
visibility: 0.9399280548095703
","x: 217.09263610839844
y: 578.0413208007812
z: 0.061842598021030426
visibility: 0.883712112903595
","x: 189.66603088378906
y: 355.3579406738281
z: 0.0
","x: 189.13809204101562
y: 350.20947265625
z: -0.0008642710163258016
","x: 187.8173065185547
y: 345.19964599609375
z: -0.0023644608445465565
","x: 186.9266815185547
y: 341.9208068847656
z: -0.004433664493262768
","x: 186.33946228027344
y: 339.6566467285156
z: -0.006321833934634924
","x: 182.80841064453125
y: 344.9815673828125
z: -0.0013504676753655076
","x: 179.3144073486328
y: 341.13201904296875
z: -0.003923092968761921
","x: 177.2613067626953
y: 338.9258117675781
z: -0.005843291524797678
","x: 175.53346252441406
y: 337.280029296875
z: -0.007065820507705212
","x: 182.32125854492188
y: 348.2391662597656
z: -0.0027359304949641228
","x: 180.8526153564453
y: 345.3272705078125
z: -0.0056338380090892315
","x: 183.04364013671875
y: 345.6901550292969
z: -0.006057155318558216
","x: 184.95693969726562
y: 346.67138671875
z: -0.005613666959106922
","x: 182.45266723632812
y: 351.9015808105469
z: -0.004440602380782366
","x: 181.8143768310547
y: 349.5100402832031
z: -0.006870323792099953
","x: 183.96194458007812
y: 349.6269226074219
z: -0.006169986445456743
","x: 185.66558837890625
y: 350.2425537109375
z: -0.0051844120025634766
","x: 183.0293426513672
y: 355.63165283203125
z: -0.006521597504615784
","x: 182.57489013671875
y: 353.5810852050781
z: -0.007889018394052982
","x: 184.29994201660156
y: 353.0044250488281
z: -0.007307508960366249
","x: 185.74952697753906
y: 353.0740051269531
z: -0.006487134378403425
",,,,,,,,,,,,,,,,,,,,,
3,"x: 228.82159423828125
y: 307.7450256347656
z: -0.19707690179347992
visibility: 0.9949935674667358
","x: 230.66970825195312
y: 301.49072265625
z: -0.19049140810966492
visibility: 0.9928022623062134
","x: 231.829833984375
y: 301.9400329589844
z: -0.1905800700187683
visibility: 0.993131697177887
","x: 233.01007080078125
y: 302.51708984375
z: -0.19064068794250488
visibility: 0.9921097755432129
","x: 227.50401306152344
y: 299.939208984375
z: -0.18647024035453796
visibility: 0.9937319755554199
","x: 226.3922119140625
y: 299.27978515625
z: -0.18646344542503357
visibility: 0.9943068623542786
","x: 225.2753448486328
y: 298.89031982421875
z: -0.18647810816764832
visibility: 0.9937547445297241
","x: 235.13882446289062
y: 301.9802551269531
z: -0.11781612783670425
visibility: 0.9912558794021606
","x: 224.5899200439453
y: 299.31414794921875
z: -0.13261885941028595
visibility: 0.9937669634819031
","x: 230.87051391601562
y: 311.69775390625
z: -0.1636279821395874
visibility: 0.9941050410270691
","x: 226.8292694091797
y: 311.270751953125
z: -0.15842702984809875
visibility: 0.994462788105011
","x: 247.01222229003906
y: 328.0050354003906
z: -0.04369495064020157
visibility: 0.9974892139434814
","x: 212.48226928710938
y: 338.4140319824219
z: -0.007119692862033844
visibility: 0.9943259358406067
","x: 255.83135986328125
y: 383.60882568359375
z: -0.05979255959391594
visibility: 0.9633657336235046
","x: 204.77195739746094
y: 366.0582275390625
z: -0.05184756964445114
visibility: 0.7264516353607178
","x: 272.9099426269531
y: 372.0010070800781
z: -0.2133621722459793
visibility: 0.83829265832901
","x: 191.09535217285156
y: 362.2922058105469
z: -0.24396488070487976
visibility: 0.39307546615600586
","x: 280.500244140625
y: 368.4180908203125
z: -0.24189431965351105
visibility: 0.7348092198371887
","x: 185.5712127685547
y: 358.3298034667969
z: -0.27714303135871887
visibility: 0.3686944246292114
","x: 281.3971252441406
y: 365.77532958984375
z: -0.26921403408050537
visibility: 0.7324346899986267
","x: 184.94833374023438
y: 355.7841491699219
z: -0.29715070128440857
visibility: 0.36641573905944824
","x: 278.66253662109375
y: 367.2166748046875
z: -0.22782988846302032
visibility: 0.6772200465202332
","x: 187.33387756347656
y: 357.5447082519531
z: -0.2582088112831116
visibility: 0.359707772731781
","x: 237.06805419921875
y: 421.8724365234375
z: -0.006530622951686382
visibility: 0.9959043264389038
","x: 216.52992248535156
y: 422.98773193359375
z: 0.0066029345616698265
visibility: 0.9930947422981262
","x: 240.35845947265625
y: 494.4497985839844
z: -0.03520241752266884
visibility: 0.9159916639328003
","x: 216.43492126464844
y: 497.2578430175781
z: 0.007335524074733257
visibility: 0.9311079382896423
","x: 245.70050048828125
y: 555.9769287109375
z: 0.0859612300992012
visibility: 0.9726349711418152
","x: 223.3146514892578
y: 555.6129760742188
z: 0.144841730594635
visibility: 0.9505024552345276
","x: 243.8564910888672
y: 564.0607299804688
z: 0.08930052816867828
visibility: 0.9518159627914429
","x: 227.801513671875
y: 561.86572265625
z: 0.15285125374794006
visibility: 0.9094771146774292
","x: 252.64794921875
y: 578.831787109375
z: -0.013588701374828815
visibility: 0.9399280548095703
","x: 217.09263610839844
y: 578.0413208007812
z: 0.061842598021030426
visibility: 0.883712112903595
","x: 189.66603088378906
y: 355.3579406738281
z: 0.0
","x: 189.13809204101562
y: 350.20947265625
z: -0.0008642710163258016
","x: 187.8173065185547
y: 345.19964599609375
z: -0.0023644608445465565
","x: 186.9266815185547
y: 341.9208068847656
z: -0.004433664493262768
","x: 186.33946228027344
y: 339.6566467285156
z: -0.006321833934634924
","x: 182.80841064453125
y: 344.9815673828125
z: -0.0013504676753655076
","x: 179.3144073486328
y: 341.13201904296875
z: -0.003923092968761921
","x: 177.2613067626953
y: 338.9258117675781
z: -0.005843291524797678
","x: 175.53346252441406
y: 337.280029296875
z: -0.007065820507705212
","x: 182.32125854492188
y: 348.2391662597656
z: -0.0027359304949641228
","x: 180.8526153564453
y: 345.3272705078125
z: -0.0056338380090892315
","x: 183.04364013671875
y: 345.6901550292969
z: -0.006057155318558216
","x: 184.95693969726562
y: 346.67138671875
z: -0.005613666959106922
","x: 182.45266723632812
y: 351.9015808105469
z: -0.004440602380782366
","x: 181.8143768310547
y: 349.5100402832031
z: -0.006870323792099953
","x: 183.96194458007812
y: 349.6269226074219
z: -0.006169986445456743
","x: 185.66558837890625
y: 350.2425537109375
z: -0.0051844120025634766
","x: 183.0293426513672
y: 355.63165283203125
z: -0.006521597504615784
","x: 182.57489013671875
y: 353.5810852050781
z: -0.007889018394052982
","x: 184.29994201660156
y: 353.0044250488281
z: -0.007307508960366249
","x: 185.74952697753906
y: 353.0740051269531
z: -0.006487134378403425
",,,,,,,,,,,,,,,,,,,,,
4,"x: 221.87527465820312
y: 303.57000732421875
z: -0.25203245878219604
visibility: 0.995445966720581
","x: 224.13470458984375
y: 297.24627685546875
z: -0.24667251110076904
visibility: 0.9933504462242126
","x: 225.63597106933594
y: 297.48968505859375
z: -0.2467201203107834
visibility: 0.9936749935150146
","x: 227.11581420898438
y: 297.8566589355469
z: -0.24677737057209015
visibility: 0.9927101135253906
","x: 220.2590789794922
y: 296.5943298339844
z: -0.24137666821479797
visibility: 0.9941729307174683
","x: 219.15138244628906
y: 296.31854248046875
z: -0.24140429496765137
visibility: 0.9946919679641724
","x: 218.14910888671875
y: 296.18939208984375
z: -0.2414335310459137
visibility: 0.9941653609275818
","x: 230.06805419921875
y: 299.73883056640625
z: -0.16805943846702576
visibility: 0.9918721914291382
","x: 218.39144897460938
y: 298.23028564453125
z: -0.14409992098808289
visibility: 0.994157075881958
","x: 224.83197021484375
y: 309.1728820800781
z: -0.2193584144115448
visibility: 0.994624137878418
","x: 220.003173828125
y: 309.0595703125
z: -0.211806058883667
visibility: 0.9949210286140442
","x: 244.6737060546875
y: 325.06951904296875
z: -0.06445565819740295
visibility: 0.9977036118507385
","x: 207.2705535888672
y: 333.5029602050781
z: -0.02798079513013363
visibility: 0.9948610663414001
","x: 260.6796569824219
y: 352.909912109375
z: -0.19743603467941284
visibility: 0.966468870639801
","x: 193.09371948242188
y: 367.4364929199219
z: -0.08620838820934296
visibility: 0.7531815767288208
","x: 259.82965087890625
y: 338.85870361328125
z: -0.40413418412208557
visibility: 0.853316605091095
","x: 178.95968627929688
y: 353.2638244628906
z: -0.23115131258964539
visibility: 0.45354321599006653
","x: 259.5075378417969
y: 332.46533203125
z: -0.4413970112800598
visibility: 0.7581379413604736
","x: 173.89340209960938
y: 349.9957275390625
z: -0.25805798172950745
visibility: 0.4311794340610504
","x: 259.4195251464844
y: 326.62774658203125
z: -0.4448029100894928
visibility: 0.756099283695221
","x: 174.22105407714844
y: 355.2476806640625
z: -0.2729341387748718
visibility: 0.42916548252105713
","x: 258.2969055175781
y: 328.33795166015625
z: -0.41036152839660645
visibility: 0.7057459950447083
","x: 175.9822540283203
y: 354.9637451171875
z: -0.24053955078125
visibility: 0.4228372871875763
","x: 228.01559448242188
y: 422.0927734375
z: -0.00772127415984869
visibility: 0.9962252378463745
","x: 207.931640625
y: 418.31182861328125
z: 0.0077498359605669975
visibility: 0.9936832189559937
","x: 220.31002807617188
y: 494.54302978515625
z: -0.014979543164372444
visibility: 0.9222743511199951
","x: 201.71473693847656
y: 490.5496826171875
z: 0.005859212018549442
visibility: 0.9371055364608765
","x: 213.27883911132812
y: 556.0234375
z: 0.09851332008838654
visibility: 0.973185122013092
","x: 199.01214599609375
y: 551.315185546875
z: 0.12242913246154785
visibility: 0.9542825818061829
","x: 210.59523010253906
y: 564.6471557617188
z: 0.1045762151479721
visibility: 0.948893129825592
","x: 200.56324768066406
y: 560.8161010742188
z: 0.12827672064304352
visibility: 0.9064788222312927
","x: 219.6293182373047
y: 578.46728515625
z: -0.009127581492066383
visibility: 0.9432767629623413
","x: 193.81732177734375
y: 574.2846069335938
z: 0.032737307250499725
visibility: 0.8935397863388062
",,,,,,,,,,,,,,,,,,,,,,,,,,,,,,,,,,,,,,,,,,
5,"x: 216.85272216796875
y: 305.306640625
z: -0.2187136858701706
visibility: 0.9958996772766113
","x: 218.6212615966797
y: 298.7084655761719
z: -0.2117217481136322
visibility: 0.9940106868743896
","x: 219.91122436523438
y: 298.5440673828125
z: -0.21177510917186737
visibility: 0.9943031072616577
","x: 221.16893005371094
y: 298.3837890625
z: -0.21183133125305176
visibility: 0.9934335947036743
","x: 214.85060119628906
y: 298.3260803222656
z: -0.21080990135669708
visibility: 0.9947493076324463
","x: 213.56918334960938
y: 297.95660400390625
z: -0.21080896258354187
visibility: 0.9952154159545898
","x: 212.3907470703125
y: 297.7123718261719
z: -0.21080532670021057
visibility: 0.9947386980056763
","x: 223.49038696289062
y: 298.40106201171875
z: -0.1395895928144455
visibility: 0.9926787614822388
","x: 211.35012817382812
y: 297.9336242675781
z: -0.12451277673244476
visibility: 0.9947322010993958
","x: 219.28233337402344
y: 310.0377197265625
z: -0.18237361311912537
visibility: 0.9951593279838562
","x: 214.96231079101562
y: 309.5634765625
z: -0.1815362274646759
visibility: 0.9954260587692261
","x: 236.9713897705078
y: 325.4683837890625
z: -0.053762100636959076
visibility: 0.9979314208030701
","x: 199.7154541015625
y: 331.5946960449219
z: -0.03801807016134262
visibility: 0.9953678250312805
","x: 250.13812255859375
y: 361.2276916503906
z: -0.1519012451171875
visibility: 0.9694758653640747
","x: 189.46726989746094
y: 364.4073181152344
z: -0.11112818866968155
visibility: 0.776304304599762
","x: 257.4593811035156
y: 335.1233215332031
z: -0.3350882828235626
visibility: 0.867872416973114
","x: 181.59506225585938
y: 352.1192932128906
z: -0.31066322326660156
visibility: 0.5076939463615417
","x: 261.15142822265625
y: 325.3999328613281
z: -0.3722436726093292
visibility: 0.781945526599884
","x: 178.96719360351562
y: 346.58148193359375
z: -0.34262552857398987
visibility: 0.4870191216468811
","x: 261.099853515625
y: 321.2715148925781
z: -0.3780938684940338
visibility: 0.780127227306366
","x: 179.74124145507812
y: 345.2154846191406
z: -0.3555237948894501
visibility: 0.48526257276535034
","x: 259.09735107421875
y: 323.907470703125
z: -0.342508465051651
visibility: 0.7346451878547668
","x: 180.90496826171875
y: 347.08978271484375
z: -0.32084226608276367
visibility: 0.47918835282325745
","x: 226.85943603515625
y: 422.0469665527344
z: -0.006673537194728851
visibility: 0.9965351819992065
","x: 206.98611450195312
y: 419.5222473144531
z: 0.006712658796459436
visibility: 0.9942449927330017
","x: 221.99977111816406
y: 494.4539794921875
z: -0.008405182510614395
visibility: 0.9292389154434204
","x: 204.9239501953125
y: 491.24688720703125
z: 0.002857790794223547
visibility: 0.9425490498542786
","x: 215.16481018066406
y: 553.7843017578125
z: 0.0901617780327797
visibility: 0.9745256304740906
","x: 199.84478759765625
y: 552.0842895507812
z: 0.10423532873392105
visibility: 0.9576715230941772
","x: 212.27577209472656
y: 562.6393432617188
z: 0.09421513229608536
visibility: 0.9481221437454224
","x: 201.56756591796875
y: 561.5440673828125
z: 0.10861387103796005
visibility: 0.9053977131843567
","x: 218.02816772460938
y: 576.9754638671875
z: 0.0009586264495737851
visibility: 0.9474994540214539
","x: 194.16993713378906
y: 572.0863037109375
z: 0.011104648932814598
visibility: 0.9025071859359741
",,,,,,,,,,,,,,,,,,,,,,,,,,,,,,,,,,,,,,,,,,
6,"x: 212.18788146972656
y: 303.56085205078125
z: -0.1487169861793518
visibility: 0.9963083267211914
","x: 213.78125
y: 297.3787536621094
z: -0.14753621816635132
visibility: 0.9946064949035645
","x: 214.87681579589844
y: 297.31268310546875
z: -0.14763638377189636
visibility: 0.9948698878288269
","x: 216.01048278808594
y: 297.275146484375
z: -0.14769798517227173
visibility: 0.9940871000289917
","x: 210.6566162109375
y: 297.1347351074219
z: -0.1663876622915268
visibility: 0.9952682256698608
","x: 209.4757843017578
y: 296.89959716796875
z: -0.1661958396434784
visibility: 0.9956859946250916
","x: 208.24864196777344
y: 296.6933898925781
z: -0.16586333513259888
visibility: 0.9952551126480103
","x: 217.7256317138672
y: 298.88836669921875
z: -0.029683154076337814
visibility: 0.9934066534042358
","x: 206.4513702392578
y: 297.966064453125
z: -0.0416671484708786
visibility: 0.9952481985092163
","x: 213.92901611328125
y: 308.8039245605469
z: -0.11739377677440643
visibility: 0.9956409335136414
","x: 210.41212463378906
y: 308.55523681640625
z: -0.13541647791862488
visibility: 0.9958800673484802
","x: 229.03538513183594
y: 334.44580078125
z: 0.02664562501013279
visibility: 0.9981371164321899
","x: 194.08706665039062
y: 331.9490966796875
z: 0.026598865166306496
visibility: 0.9958230257034302
","x: 236.0282440185547
y: 382.1864013671875
z: -0.009853941388428211
visibility: 0.9708914160728455
","x: 183.9949951171875
y: 364.9942626953125
z: 5.096736003906699e-06
visibility: 0.7948741912841797
","x: 251.0850372314453
y: 362.70184326171875
z: -0.18488134443759918
visibility: 0.8807950615882874
","x: 173.82693481445312
y: 365.1036376953125
z: -0.17047633230686188
visibility: 0.5559011697769165
","x: 255.54022216796875
y: 354.5038146972656
z: -0.23650607466697693
visibility: 0.8031119704246521
","x: 168.6211395263672
y: 364.52593994140625
z: -0.18411515653133392
visibility: 0.536532461643219
","x: 256.0278625488281
y: 349.8989562988281
z: -0.3607969880104065
visibility: 0.8015556335449219
","x: 168.85543823242188
y: 362.653564453125
z: -0.2004859745502472
visibility: 0.5351799130439758
","x: 254.21725463867188
y: 351.8403625488281
z: -0.20607271790504456
visibility: 0.7604289054870605
","x: 171.08306884765625
y: 363.53497314453125
z: -0.17592987418174744
visibility: 0.5294901132583618
","x: 223.92242431640625
y: 422.35760498046875
z: -0.000544825685210526
visibility: 0.9968238472938538
","x: 205.703857421875
y: 421.17022705078125
z: 0.0006897503044456244
visibility: 0.9947561621665955
","x: 220.9566650390625
y: 494.3984680175781
z: -0.008643453009426594
visibility: 0.9353286623954773
","x: 206.73486328125
y: 493.3170166015625
z: -0.018528832122683525
visibility: 0.9470905661582947
","x: 215.97230529785156
y: 554.0245971679688
z: 0.11040395498275757
visibility: 0.9755787253379822
","x: 198.03245544433594
y: 552.4984130859375
z: 0.09807495027780533
visibility: 0.9604647159576416
","x: 213.38726806640625
y: 563.1923828125
z: 0.11698092520236969
visibility: 0.9447616338729858
","x: 198.90972900390625
y: 562.8069458007812
z: 0.1037837415933609
visibility: 0.8996310830116272
","x: 217.50575256347656
y: 575.9559326171875
z: 0.025570139288902283
visibility: 0.9507445693016052
","x: 194.7213592529297
y: 571.424560546875
z: 0.006157319992780685
visibility: 0.9101912975311279
",,,,,,,,,,,,,,,,,,,,,,,,,,,,,,,,,,,,,,,,,,
7,"x: 205.49472045898438
y: 317.17840576171875
z: -0.293681800365448
visibility: 0.9966573119163513
","x: 207.4984588623047
y: 311.0780029296875
z: -0.2871912121772766
visibility: 0.995074450969696
","x: 208.92640686035156
y: 311.29473876953125
z: -0.28722459077835083
visibility: 0.9953209161758423
","x: 210.38461303710938
y: 311.52288818359375
z: -0.2872608006000519
visibility: 0.9946179986000061
","x: 203.9937286376953
y: 310.6767578125
z: -0.282022088766098
visibility: 0.9956640005111694
","x: 202.89845275878906
y: 310.654052734375
z: -0.2820693850517273
visibility: 0.9960393309593201
","x: 201.75677490234375
y: 310.68133544921875
z: -0.2820758819580078
visibility: 0.9956398010253906
","x: 213.0512237548828
y: 314.9212646484375
z: -0.21517808735370636
visibility: 0.9939863681793213
","x: 201.3496856689453
y: 314.13177490234375
z: -0.18875135481357574
visibility: 0.9954977631568909
","x: 207.95101928710938
y: 324.4607238769531
z: -0.2654888927936554
visibility: 0.9960484504699707
","x: 203.90286254882812
y: 323.72607421875
z: -0.2582380473613739
visibility: 0.9962362051010132
","x: 226.8701171875
y: 348.0331115722656
z: -0.1628999412059784
visibility: 0.9983183741569519
","x: 190.4994354248047
y: 355.6518859863281
z: -0.09736964106559753
visibility: 0.9962152242660522
","x: 240.78237915039062
y: 379.0469970703125
z: -0.14895108342170715
visibility: 0.9736168384552002
","x: 179.16653442382812
y: 390.479248046875
z: -0.02908528968691826
visibility: 0.811816930770874
","x: 241.34141540527344
y: 409.01446533203125
z: -0.2332654893398285
visibility: 0.8914874792098999
","x: 165.9799346923828
y: 416.33355712890625
z: -0.1378709375858307
visibility: 0.5972535014152527
","x: 239.0170440673828
y: 419.4154052734375
z: -0.2606200575828552
visibility: 0.8189836144447327
","x: 159.25941467285156
y: 422.58721923828125
z: -0.17735497653484344
visibility: 0.576885461807251
","x: 236.3006134033203
y: 416.324951171875
z: -0.28596198558807373
visibility: 0.8178189396858215
","x: 159.09768676757812
y: 422.06488037109375
z: -0.17604336142539978
visibility: 0.576424241065979
","x: 236.26536560058594
y: 413.1707458496094
z: -0.2429061233997345
visibility: 0.7801810503005981
","x: 161.87680053710938
y: 420.7998352050781
z: -0.15862926840782166
visibility: 0.5707808136940002
","x: 216.3427276611328
y: 436.7413024902344
z: -0.015139724127948284
visibility: 0.9970707297325134
","x: 197.72080993652344
y: 435.5148620605469
z: 0.01514621265232563
visibility: 0.9951935410499573
","x: 210.5302276611328
y: 500.3414611816406
z: -0.0006393954390659928
visibility: 0.9399340152740479
","x: 197.7092742919922
y: 501.3980712890625
z: 0.030908674001693726
visibility: 0.9504438638687134
","x: 212.54209899902344
y: 554.08544921875
z: 0.1326090395450592
visibility: 0.9761306047439575
","x: 198.26255798339844
y: 552.647216796875
z: 0.17128781974315643
visibility: 0.9626427292823792
","x: 212.44093322753906
y: 563.598388671875
z: 0.14031951129436493
visibility: 0.9391656517982483
","x: 200.42767333984375
y: 563.1231689453125
z: 0.17977675795555115
visibility: 0.8993441462516785
","x: 215.059326171875
y: 575.9166870117188
z: 0.05255739763379097
visibility: 0.9527548551559448
","x: 191.4196014404297
y: 572.2008056640625
z: 0.09459444880485535
visibility: 0.9168234467506409
",,,,,,,,,,,,,,,,,,,,,,,,,,,,,,,,,,,,,,,,,,
8,"x: 201.1528778076172
y: 322.587158203125
z: -0.27742326259613037
visibility: 0.9969859719276428
","x: 203.24258422851562
y: 318.1549377441406
z: -0.26763758063316345
visibility: 0.9955406785011292
","x: 204.51553344726562
y: 318.4835510253906
z: -0.26763370633125305
visibility: 0.9957647323608398
","x: 205.86288452148438
y: 318.89111328125
z: -0.26763248443603516
visibility: 0.9951306581497192
","x: 199.80885314941406
y: 317.54095458984375
z: -0.2667366862297058
visibility: 0.9960770606994629
","x: 198.5792236328125
y: 317.522705078125
z: -0.2667818069458008
visibility: 0.9964165091514587
","x: 197.35130310058594
y: 317.5262756347656
z: -0.26678067445755005
visibility: 0.9960526823997498
","x: 208.02554321289062
y: 323.4566955566406
z: -0.1958022266626358
visibility: 0.994534969329834
","x: 196.40907287597656
y: 321.5419921875
z: -0.1923426389694214
visibility: 0.9958926439285278
","x: 203.1298828125
y: 330.37451171875
z: -0.2499561309814453
visibility: 0.996434211730957
","x: 199.3213348388672
y: 329.81207275390625
z: -0.24901321530342102
visibility: 0.9965999126434326
","x: 220.24351501464844
y: 359.57623291015625
z: -0.14592362940311432
visibility: 0.998482346534729
","x: 184.5826873779297
y: 366.7325439453125
z: -0.12286350876092911
visibility: 0.9965865612030029
","x: 235.68267822265625
y: 391.1310119628906
z: -0.1340804100036621
visibility: 0.9760581851005554
","x: 181.0936737060547
y: 407.34423828125
z: -0.06685902178287506
visibility: 0.826964795589447
","x: 234.87042236328125
y: 425.33978271484375
z: -0.1715100258588791
visibility: 0.9012410640716553
","x: 175.54736328125
y: 445.81109619140625
z: -0.137520432472229
visibility: 0.6321493983268738
","x: 235.54058837890625
y: 436.6317138671875
z: -0.18996286392211914
visibility: 0.8335123658180237
","x: 171.94544982910156
y: 456.1644287109375
z: -0.16391867399215698
visibility: 0.6095958352088928
","x: 232.11488342285156
y: 435.59283447265625
z: -0.21462956070899963
visibility: 0.8327102661132812
","x: 172.68301391601562
y: 456.12939453125
z: -0.16845495998859406
visibility: 0.6097402572631836
","x: 231.03164672851562
y: 432.62896728515625
z: -0.18068012595176697
visibility: 0.7983061671257019
","x: 174.3893280029297
y: 452.85894775390625
z: -0.14798274636268616
visibility: 0.603821337223053
","x: 212.71380615234375
y: 445.7953186035156
z: -0.013264551758766174
visibility: 0.9973127841949463
","x: 194.16371154785156
y: 445.9938049316406
z: 0.013458957895636559
visibility: 0.995633065700531
","x: 211.19033813476562
y: 506.9002990722656
z: 0.04080476984381676
visibility: 0.943327009677887
","x: 197.16847229003906
y: 505.3599853515625
z: 0.03189060091972351
visibility: 0.9528073668479919
","x: 213.0047149658203
y: 556.5008544921875
z: 0.16232338547706604
visibility: 0.9759729504585266
","x: 197.34715270996094
y: 553.3519287109375
z: 0.1714661419391632
visibility: 0.9635054469108582
","x: 211.68533325195312
y: 563.8922729492188
z: 0.16930100321769714
visibility: 0.9335851669311523
","x: 199.5552520751953
y: 562.888671875
z: 0.18055850267410278
visibility: 0.893089771270752
","x: 218.19454956054688
y: 575.8696899414062
z: 0.09070190787315369
visibility: 0.9539515376091003
","x: 191.63124084472656
y: 572.372802734375
z: 0.10153241455554962
visibility: 0.9215115904808044
","x: 175.49273681640625
y: 448.32489013671875
z: 0.0
","x: 172.64088439941406
y: 450.4837341308594
z: -0.00035877106711268425
","x: 170.399169921875
y: 454.3482971191406
z: -0.0011536930687725544
","x: 169.23123168945312
y: 457.85931396484375
z: -0.0024990574456751347
","x: 168.99954223632812
y: 460.9073486328125
z: -0.003663815790787339
","x: 171.1448974609375
y: 460.8365173339844
z: 0.00018721917876973748
","x: 170.35311889648438
y: 467.0423889160156
z: -0.0018526038620620966
","x: 169.98316955566406
y: 470.9573974609375
z: -0.0032100037205964327
","x: 169.8777313232422
y: 474.0409851074219
z: -0.004049556329846382
","x: 172.7404327392578
y: 461.29205322265625
z: -0.0013000728795304894
","x: 172.28443908691406
y: 467.11474609375
z: -0.003628417616710067
","x: 171.90676879882812
y: 467.03875732421875
z: -0.004170514643192291
","x: 171.88064575195312
y: 466.1243896484375
z: -0.004069991875439882
","x: 174.39743041992188
y: 460.88543701171875
z: -0.003170817391946912
","x: 173.7408447265625
y: 465.3934020996094
z: -0.005373002961277962
","x: 173.37396240234375
y: 462.64093017578125
z: -0.004554342478513718
","x: 173.50852966308594
y: 459.7389221191406
z: -0.0034844090696424246
","x: 176.16127014160156
y: 459.7921142578125
z: -0.005337163340300322
","x: 175.6167755126953
y: 463.4492492675781
z: -0.006888852454721928
","x: 175.3789825439453
y: 461.7532958984375
z: -0.0062700374983251095
","x: 175.56964111328125
y: 459.5225524902344
z: -0.005372183863073587
",,,,,,,,,,,,,,,,,,,,,
9,"x: 201.1528778076172
y: 322.587158203125
z: -0.27742326259613037
visibility: 0.9969859719276428
","x: 203.24258422851562
y: 318.1549377441406
z: -0.26763758063316345
visibility: 0.9955406785011292
","x: 204.51553344726562
y: 318.4835510253906
z: -0.26763370633125305
visibility: 0.9957647323608398
","x: 205.86288452148438
y: 318.89111328125
z: -0.26763248443603516
visibility: 0.9951306581497192
","x: 199.80885314941406
y: 317.54095458984375
z: -0.2667366862297058
visibility: 0.9960770606994629
","x: 198.5792236328125
y: 317.522705078125
z: -0.2667818069458008
visibility: 0.9964165091514587
","x: 197.35130310058594
y: 317.5262756347656
z: -0.26678067445755005
visibility: 0.9960526823997498
","x: 208.02554321289062
y: 323.4566955566406
z: -0.1958022266626358
visibility: 0.994534969329834
","x: 196.40907287597656
y: 321.5419921875
z: -0.1923426389694214
visibility: 0.9958926439285278
","x: 203.1298828125
y: 330.37451171875
z: -0.2499561309814453
visibility: 0.996434211730957
","x: 199.3213348388672
y: 329.81207275390625
z: -0.24901321530342102
visibility: 0.9965999126434326
","x: 220.24351501464844
y: 359.57623291015625
z: -0.14592362940311432
visibility: 0.998482346534729
","x: 184.5826873779297
y: 366.7325439453125
z: -0.12286350876092911
visibility: 0.9965865612030029
","x: 235.68267822265625
y: 391.1310119628906
z: -0.1340804100036621
visibility: 0.9760581851005554
","x: 181.0936737060547
y: 407.34423828125
z: -0.06685902178287506
visibility: 0.826964795589447
","x: 234.87042236328125
y: 425.33978271484375
z: -0.1715100258588791
visibility: 0.9012410640716553
","x: 175.54736328125
y: 445.81109619140625
z: -0.137520432472229
visibility: 0.6321493983268738
","x: 235.54058837890625
y: 436.6317138671875
z: -0.18996286392211914
visibility: 0.8335123658180237
","x: 171.94544982910156
y: 456.1644287109375
z: -0.16391867399215698
visibility: 0.6095958352088928
","x: 232.11488342285156
y: 435.59283447265625
z: -0.21462956070899963
visibility: 0.8327102661132812
","x: 172.68301391601562
y: 456.12939453125
z: -0.16845495998859406
visibility: 0.6097402572631836
","x: 231.03164672851562
y: 432.62896728515625
z: -0.18068012595176697
visibility: 0.7983061671257019
","x: 174.3893280029297
y: 452.85894775390625
z: -0.14798274636268616
visibility: 0.603821337223053
","x: 212.71380615234375
y: 445.7953186035156
z: -0.013264551758766174
visibility: 0.9973127841949463
","x: 194.16371154785156
y: 445.9938049316406
z: 0.013458957895636559
visibility: 0.995633065700531
","x: 211.19033813476562
y: 506.9002990722656
z: 0.04080476984381676
visibility: 0.943327009677887
","x: 197.16847229003906
y: 505.3599853515625
z: 0.03189060091972351
visibility: 0.9528073668479919
","x: 213.0047149658203
y: 556.5008544921875
z: 0.16232338547706604
visibility: 0.9759729504585266
","x: 197.34715270996094
y: 553.3519287109375
z: 0.1714661419391632
visibility: 0.9635054469108582
","x: 211.68533325195312
y: 563.8922729492188
z: 0.16930100321769714
visibility: 0.9335851669311523
","x: 199.5552520751953
y: 562.888671875
z: 0.18055850267410278
visibility: 0.893089771270752
","x: 218.19454956054688
y: 575.8696899414062
z: 0.09070190787315369
visibility: 0.9539515376091003
","x: 191.63124084472656
y: 572.372802734375
z: 0.10153241455554962
visibility: 0.9215115904808044
","x: 175.49273681640625
y: 448.32489013671875
z: 0.0
","x: 172.64088439941406
y: 450.4837341308594
z: -0.00035877106711268425
","x: 170.399169921875
y: 454.3482971191406
z: -0.0011536930687725544
","x: 169.23123168945312
y: 457.85931396484375
z: -0.0024990574456751347
","x: 168.99954223632812
y: 460.9073486328125
z: -0.003663815790787339
","x: 171.1448974609375
y: 460.8365173339844
z: 0.00018721917876973748
","x: 170.35311889648438
y: 467.0423889160156
z: -0.0018526038620620966
","x: 169.98316955566406
y: 470.9573974609375
z: -0.0032100037205964327
","x: 169.8777313232422
y: 474.0409851074219
z: -0.004049556329846382
","x: 172.7404327392578
y: 461.29205322265625
z: -0.0013000728795304894
","x: 172.28443908691406
y: 467.11474609375
z: -0.003628417616710067
","x: 171.90676879882812
y: 467.03875732421875
z: -0.004170514643192291
","x: 171.88064575195312
y: 466.1243896484375
z: -0.004069991875439882
","x: 174.39743041992188
y: 460.88543701171875
z: -0.003170817391946912
","x: 173.7408447265625
y: 465.3934020996094
z: -0.005373002961277962
","x: 173.37396240234375
y: 462.64093017578125
z: -0.004554342478513718
","x: 173.50852966308594
y: 459.7389221191406
z: -0.0034844090696424246
","x: 176.16127014160156
y: 459.7921142578125
z: -0.005337163340300322
","x: 175.6167755126953
y: 463.4492492675781
z: -0.006888852454721928
","x: 175.3789825439453
y: 461.7532958984375
z: -0.0062700374983251095
","x: 175.56964111328125
y: 459.5225524902344
z: -0.005372183863073587
",,,,,,,,,,,,,,,,,,,,,
10,"x: 199.259033203125
y: 317.6248474121094
z: -0.16843530535697937
visibility: 0.9972871541976929
","x: 201.55406188964844
y: 311.0351867675781
z: -0.14723829925060272
visibility: 0.9959860444068909
","x: 202.79339599609375
y: 310.8641662597656
z: -0.1473025232553482
visibility: 0.996187686920166
","x: 203.9744873046875
y: 310.8627014160156
z: -0.1473318189382553
visibility: 0.9956168532371521
","x: 197.95733642578125
y: 311.82257080078125
z: -0.15163755416870117
visibility: 0.9964684844017029
","x: 196.83120727539062
y: 312.1053466796875
z: -0.15161506831645966
visibility: 0.9967738389968872
","x: 195.66737365722656
y: 312.2409973144531
z: -0.1515728235244751
visibility: 0.9964457750320435
","x: 205.2832489013672
y: 314.2111511230469
z: -0.050250716507434845
visibility: 0.9950805902481079
","x: 193.78720092773438
y: 314.4441833496094
z: -0.06973737478256226
visibility: 0.9963018298149109
","x: 200.74569702148438
y: 323.00164794921875
z: -0.1280517727136612
visibility: 0.9967902898788452
","x: 196.7746124267578
y: 325.30712890625
z: -0.13541506230831146
visibility: 0.9969394207000732
","x: 213.38829040527344
y: 351.6875
z: -0.0030670699197798967
visibility: 0.9986330270767212
","x: 178.8048095703125
y: 354.70086669921875
z: -0.00736646493896842
visibility: 0.9969243407249451
","x: 219.74136352539062
y: 391.1021423339844
z: -0.04217933490872383
visibility: 0.9768672585487366
","x: 167.59275817871094
y: 389.4787902832031
z: -0.06355977803468704
visibility: 0.8399603962898254
","x: 235.76136779785156
y: 392.9778747558594
z: -0.1896304488182068
visibility: 0.9108089208602905
","x: 158.576171875
y: 420.4461975097656
z: -0.22876015305519104
visibility: 0.6675852537155151
","x: 238.6768341064453
y: 396.375
z: -0.22356781363487244
visibility: 0.8495716452598572
","x: 153.94212341308594
y: 422.43658447265625
z: -0.2579246163368225
visibility: 0.6464875340461731
","x: 240.15318298339844
y: 396.080810546875
z: -0.2439478188753128
visibility: 0.8489503860473633
","x: 155.21356201171875
y: 417.56884765625
z: -0.2764117121696472
visibility: 0.6468742489814758
","x: 235.2747802734375
y: 394.4046630859375
z: -0.20337867736816406
visibility: 0.817798912525177
","x: 157.20530700683594
y: 416.3360290527344
z: -0.24140658974647522
visibility: 0.6412543654441833
","x: 210.6173858642578
y: 436.4800720214844
z: -0.0009401405113749206
visibility: 0.9975446462631226
","x: 192.4536895751953
y: 443.9117126464844
z: 0.0011058369418606162
visibility: 0.9960339665412903
","x: 214.38800048828125
y: 502.43511962890625
z: 0.0022331480868160725
visibility: 0.9483903646469116
","x: 200.07186889648438
y: 504.3763427734375
z: -0.005432209465652704
visibility: 0.9566682577133179
","x: 213.80313110351562
y: 556.0077514648438
z: 0.1187252551317215
visibility: 0.977540135383606
","x: 199.73709106445312
y: 553.905517578125
z: 0.11359439790248871
visibility: 0.9663482904434204
","x: 212.1363067626953
y: 563.8074951171875
z: 0.12257324159145355
visibility: 0.9355059862136841
","x: 201.4685821533203
y: 563.0584106445312
z: 0.1186557188630104
visibility: 0.8959660530090332
","x: 217.55520629882812
y: 575.5510864257812
z: 0.027458500117063522
visibility: 0.9572176933288574
","x: 193.3535614013672
y: 571.9647827148438
z: 0.02809268794953823
visibility: 0.928061306476593
",,,,,,,,,,,,,,,,,,,,,,,,,,,,,,,,,,,,,,,,,,
11,"x: 191.66549682617188
y: 282.649169921875
z: -0.14859217405319214
visibility: 0.9975553750991821
","x: 193.91502380371094
y: 276.6883239746094
z: -0.1377912312746048
visibility: 0.9963805079460144
","x: 195.24642944335938
y: 277.0108337402344
z: -0.13783644139766693
visibility: 0.9965629577636719
","x: 196.6222381591797
y: 277.37255859375
z: -0.1378483921289444
visibility: 0.9960476756095886
","x: 190.93634033203125
y: 276.3578186035156
z: -0.13231171667575836
visibility: 0.9968095421791077
","x: 190.1599578857422
y: 276.30853271484375
z: -0.1322975605726242
visibility: 0.9970846176147461
","x: 189.41082763671875
y: 276.10540771484375
z: -0.13228057324886322
visibility: 0.9967896342277527
","x: 199.53656005859375
y: 282.11090087890625
z: -0.057532019913196564
visibility: 0.9955669641494751
","x: 189.1262664794922
y: 279.5350341796875
z: -0.0306745283305645
visibility: 0.9966522455215454
","x: 194.02239990234375
y: 289.8232727050781
z: -0.11591099202632904
visibility: 0.9971086978912354
","x: 190.16741943359375
y: 289.2669982910156
z: -0.10872422158718109
visibility: 0.9972413182258606
","x: 208.67527770996094
y: 314.8687438964844
z: -0.027696166187524796
visibility: 0.998767614364624
","x: 176.4923553466797
y: 317.0692138671875
z: 0.05875421687960625
visibility: 0.9972223043441772
","x: 215.43345642089844
y: 349.7541809082031
z: -0.1356002688407898
visibility: 0.9762674570083618
","x: 157.48167419433594
y: 345.4046630859375
z: 0.018289901316165924
visibility: 0.8548771739006042
","x: 223.81704711914062
y: 352.93255615234375
z: -0.36706024408340454
visibility: 0.9179955124855042
","x: 142.86766052246094
y: 332.04998779296875
z: -0.1765332818031311
visibility: 0.7006683349609375
","x: 227.42161560058594
y: 351.0660095214844
z: -0.41020306944847107
visibility: 0.8622174263000488
","x: 137.8577117919922
y: 324.7821044921875
z: -0.1932322382926941
visibility: 0.6814315915107727
","x: 227.5664825439453
y: 348.6407470703125
z: -0.42567968368530273
visibility: 0.8618776798248291
","x: 138.33724975585938
y: 320.82891845703125
z: -0.2113138735294342
visibility: 0.68182373046875
","x: 225.12762451171875
y: 349.72589111328125
z: -0.37899237871170044
visibility: 0.833082914352417
","x: 140.61585998535156
y: 323.6435241699219
z: -0.18627101182937622
visibility: 0.6766546964645386
","x: 198.32888793945312
y: 409.8623352050781
z: -0.02924998477101326
visibility: 0.9977676272392273
","x: 180.29168701171875
y: 409.810546875
z: 0.029274946078658104
visibility: 0.9963861703872681
","x: 193.02378845214844
y: 483.4033203125
z: -0.0581505112349987
visibility: 0.9526610970497131
","x: 176.82049560546875
y: 482.75439453125
z: 0.008849931880831718
visibility: 0.9594834446907043
","x: 196.68109130859375
y: 544.2003173828125
z: 0.06823430955410004
visibility: 0.9787156581878662
","x: 176.3914337158203
y: 543.5985107421875
z: 0.12956681847572327
visibility: 0.9682935476303101
","x: 197.26414489746094
y: 551.0834350585938
z: 0.07482469081878662
visibility: 0.921454668045044
","x: 178.76654052734375
y: 550.57861328125
z: 0.1354498565196991
visibility: 0.896842360496521
","x: 189.98182678222656
y: 570.509521484375
z: -0.030158555135130882
visibility: 0.9597093462944031
","x: 167.53433227539062
y: 565.365966796875
z: 0.037295129150152206
visibility: 0.9335464835166931
",,,,,,,,,,,,,,,,,,,,,,,,,,,,,,,,,,,,,,,,,,
12,"x: 187.3142852783203
y: 289.4409484863281
z: -0.1944497674703598
visibility: 0.9976995587348938
","x: 189.0319366455078
y: 283.11102294921875
z: -0.19059213995933533
visibility: 0.9964832067489624
","x: 190.1380615234375
y: 283.2687072753906
z: -0.19062091410160065
visibility: 0.9966230988502502
","x: 191.40304565429688
y: 283.5262451171875
z: -0.1906769722700119
visibility: 0.9961522221565247
","x: 186.6470947265625
y: 283.08941650390625
z: -0.18334424495697021
visibility: 0.9968516826629639
","x: 186.01956176757812
y: 283.155517578125
z: -0.18337999284267426
visibility: 0.9971264004707336
","x: 185.30520629882812
y: 283.1716003417969
z: -0.1834079921245575
visibility: 0.9969351887702942
","x: 194.13021850585938
y: 286.28173828125
z: -0.1252857744693756
visibility: 0.9957510828971863
","x: 185.72874450683594
y: 286.13232421875
z: -0.03988920524716377
visibility: 0.9966723322868347
","x: 189.99046325683594
y: 295.718994140625
z: -0.16737951338291168
visibility: 0.9972928762435913
","x: 186.88072204589844
y: 295.5340576171875
z: -0.15652766823768616
visibility: 0.9973686337471008
","x: 206.0081787109375
y: 316.8729248046875
z: -0.037654079496860504
visibility: 0.9988373517990112
","x: 173.84884643554688
y: 322.5619812011719
z: -0.0008622684399597347
visibility: 0.9974340200424194
","x: 222.60401916503906
y: 333.0318908691406
z: -0.11567988246679306
visibility: 0.9765735864639282
","x: 152.68002319335938
y: 346.4686279296875
z: -0.0191049687564373
visibility: 0.8690325021743774
","x: 219.38555908203125
y: 344.7634582519531
z: -0.21829810738563538
visibility: 0.9167377948760986
","x: 137.05859375
y: 328.14190673828125
z: -0.16360828280448914
visibility: 0.7303203344345093
","x: 218.03115844726562
y: 348.7098388671875
z: -0.2381604015827179
visibility: 0.8560217022895813
","x: 131.5687713623047
y: 321.2781066894531
z: -0.17839154601097107
visibility: 0.7123585343360901
","x: 215.5994415283203
y: 345.8276062011719
z: -0.2503434419631958
visibility: 0.8567846417427063
","x: 131.53070068359375
y: 317.7059326171875
z: -0.19657152891159058
visibility: 0.712795615196228
","x: 215.62588500976562
y: 344.9591064453125
z: -0.2247898280620575
visibility: 0.8300880789756775
","x: 133.86441040039062
y: 320.3118591308594
z: -0.17367003858089447
visibility: 0.7078464031219482
","x: 191.5230712890625
y: 413.3035583496094
z: -0.019975554198026657
visibility: 0.9978436231613159
","x: 173.70816040039062
y: 410.156005859375
z: 0.019986892119050026
visibility: 0.9965141415596008
","x: 180.59347534179688
y: 485.8879089355469
z: -0.04170618951320648
visibility: 0.9531752467155457
","x: 165.50782775878906
y: 481.07305908203125
z: -0.0029857412446290255
visibility: 0.9595492482185364
","x: 176.00704956054688
y: 546.2064819335938
z: 0.06045728921890259
visibility: 0.9770817160606384
","x: 159.21609497070312
y: 543.0193481445312
z: 0.09326164424419403
visibility: 0.9665601253509521
","x: 173.88221740722656
y: 554.4771728515625
z: 0.06523026525974274
visibility: 0.9046590328216553
","x: 160.2069091796875
y: 550.6690673828125
z: 0.09829752892255783
visibility: 0.8776832818984985
","x: 174.90614318847656
y: 569.9238891601562
z: -0.03630227595567703
visibility: 0.9582118391990662
","x: 157.91212463378906
y: 565.6728515625
z: 3.214556272723712e-05
visibility: 0.9340646862983704
",,,,,,,,,,,,,,,,,,,,,,,,,,,,,,,,,,,,,,,,,,
13,"x: 182.70359802246094
y: 291.0920104980469
z: -0.14549806714057922
visibility: 0.9979292154312134
","x: 184.77166748046875
y: 285.429443359375
z: -0.13030490279197693
visibility: 0.9968339204788208
","x: 185.95257568359375
y: 285.7080383300781
z: -0.13035275042057037
visibility: 0.996959924697876
","x: 187.12680053710938
y: 286.0205078125
z: -0.13039524853229523
visibility: 0.9965360760688782
","x: 181.20962524414062
y: 284.8833923339844
z: -0.12990602850914001
visibility: 0.9971646070480347
","x: 179.89984130859375
y: 284.82965087890625
z: -0.12989267706871033
visibility: 0.9974114894866943
","x: 178.6158447265625
y: 284.8268737792969
z: -0.1298801451921463
visibility: 0.9972388744354248
","x: 188.78634643554688
y: 289.4666748046875
z: -0.044579554349184036
visibility: 0.996174693107605
","x: 177.27809143066406
y: 288.0445251464844
z: -0.04193006455898285
visibility: 0.997002124786377
","x: 184.51620483398438
y: 297.791015625
z: -0.11351071298122406
visibility: 0.9975631237030029
","x: 180.12620544433594
y: 297.5986328125
z: -0.11338680982589722
visibility: 0.9976310729980469
","x: 197.80682373046875
y: 317.6663513183594
z: 0.0003873998357448727
visibility: 0.9989530444145203
","x: 164.13998413085938
y: 325.63812255859375
z: 0.02122487686574459
visibility: 0.9976844787597656
","x: 207.3832244873047
y: 358.90850830078125
z: -0.05589912086725235
visibility: 0.9784943461418152
","x: 146.15110778808594
y: 347.34674072265625
z: 0.02647346816956997
visibility: 0.880675196647644
","x: 221.90505981445312
y: 352.38543701171875
z: -0.21370622515678406
visibility: 0.9249352812767029
","x: 127.63922119140625
y: 341.36639404296875
z: -0.0832117572426796
visibility: 0.7566531896591187
","x: 224.90615844726562
y: 346.9380187988281
z: -0.23847231268882751
visibility: 0.870043933391571
","x: 120.9932632446289
y: 337.7778625488281
z: -0.10104845464229584
visibility: 0.7396549582481384
","x: 224.3133544921875
y: 342.1539001464844
z: -0.24998445808887482
visibility: 0.8707736134529114
","x: 121.11758422851562
y: 334.86138916015625
z: -0.12430015951395035
visibility: 0.7402806878089905
","x: 223.13743591308594
y: 344.0143127441406
z: -0.22047138214111328
visibility: 0.8466471433639526
","x: 123.61036682128906
y: 336.6009826660156
z: -0.09651240706443787
visibility: 0.7357326745986938
","x: 190.67330932617188
y: 416.9936828613281
z: -0.010761333629488945
visibility: 0.9980235695838928
","x: 172.27154541015625
y: 415.52935791015625
z: 0.010785055346786976
visibility: 0.996800422668457
","x: 183.2324676513672
y: 488.30010986328125
z: -0.022531943395733833
visibility: 0.9565078616142273
","x: 168.0251922607422
y: 485.31085205078125
z: -0.014255309477448463
visibility: 0.9607378840446472
","x: 177.59939575195312
y: 547.9625244140625
z: 0.12004704773426056
visibility: 0.9770097136497498
","x: 161.17555236816406
y: 544.41064453125
z: 0.11169473826885223
visibility: 0.9651545286178589
","x: 175.31446838378906
y: 555.7080688476562
z: 0.129638671875
visibility: 0.8936895132064819
","x: 162.01336669921875
y: 550.7228393554688
z: 0.12212453037500381
visibility: 0.8569755554199219
","x: 174.52880859375
y: 569.6666259765625
z: 0.0370236299932003
visibility: 0.9592079520225525
","x: 161.63272094726562
y: 566.4295654296875
z: 0.01406434178352356
visibility: 0.9355896711349487
","x: 127.2701187133789
y: 344.4087219238281
z: 0.0
","x: 125.53598022460938
y: 339.5050354003906
z: 7.357142021646723e-05
","x: 123.04521179199219
y: 335.71038818359375
z: -0.0007042797515168786
","x: 121.27019500732422
y: 332.98883056640625
z: -0.0023267786018550396
","x: 119.86322021484375
y: 331.2662353515625
z: -0.003747270442545414
","x: 118.76100158691406
y: 338.86871337890625
z: 0.0013630017638206482
","x: 115.54661560058594
y: 337.27001953125
z: -0.0007055580499581993
","x: 113.67185974121094
y: 336.4654235839844
z: -0.002034308621659875
","x: 111.96202087402344
y: 336.0826416015625
z: -0.002822901587933302
","x: 118.80941772460938
y: 341.6348571777344
z: -0.0006595415761694312
","x: 115.4652099609375
y: 339.50628662109375
z: -0.002848789794370532
","x: 113.52647399902344
y: 338.025390625
z: -0.003830044064670801
","x: 111.90472412109375
y: 337.2384948730469
z: -0.00423700176179409
","x: 119.3046646118164
y: 344.46966552734375
z: -0.0031392700038850307
","x: 117.4978256225586
y: 341.47772216796875
z: -0.005348946899175644
","x: 119.33494567871094
y: 339.86065673828125
z: -0.0044695534743368626
","x: 121.05442810058594
y: 339.2557373046875
z: -0.003276422154158354
","x: 120.23179626464844
y: 347.1625061035156
z: -0.005981696769595146
","x: 118.73030090332031
y: 344.19677734375
z: -0.007503104861825705
","x: 119.94627380371094
y: 342.42620849609375
z: -0.0067772893235087395
","x: 121.39454650878906
y: 341.66766357421875
z: -0.0057526747696101665
","x: 224.83702087402344
y: 350.2410888671875
z: 0.0
","x: 227.12965393066406
y: 345.5963439941406
z: -0.00034652094473131
","x: 228.62649536132812
y: 339.7574157714844
z: -0.0016969210701063275
","x: 229.4048614501953
y: 335.2515869140625
z: -0.003783472813665867
","x: 229.79396057128906
y: 331.520751953125
z: -0.005588908679783344
","x: 226.44032287597656
y: 334.105712890625
z: -0.000699278840329498
","x: 226.79710388183594
y: 330.6561584472656
z: -0.004319310188293457
","x: 227.67007446289062
y: 331.7568359375
z: -0.006144345737993717
","x: 228.15707397460938
y: 333.7405700683594
z: -0.006915650330483913
","x: 224.6499786376953
y: 335.1475524902344
z: -0.0027168579399585724
","x: 224.72796630859375
y: 331.34808349609375
z: -0.006913973484188318
","x: 225.84042358398438
y: 334.1354064941406
z: -0.007919332012534142
","x: 226.54119873046875
y: 337.0477294921875
z: -0.00786930974572897
","x: 222.93368530273438
y: 337.177978515625
z: -0.0052019692957401276
","x: 222.95462036132812
y: 334.20123291015625
z: -0.008890138007700443
","x: 224.36990356445312
y: 336.9891662597656
z: -0.008398277685046196
","x: 225.25289916992188
y: 339.9156494140625
z: -0.007318590767681599
","x: 221.3617401123047
y: 340.20867919921875
z: -0.007928326725959778
","x: 221.3893280029297
y: 337.7799072265625
z: -0.010501623153686523
","x: 222.74142456054688
y: 339.2152404785156
z: -0.010204840451478958
","x: 223.7655029296875
y: 341.0364990234375
z: -0.009348218329250813
"
14,"x: 182.70359802246094
y: 291.0920104980469
z: -0.14549806714057922
visibility: 0.9979292154312134
","x: 184.77166748046875
y: 285.429443359375
z: -0.13030490279197693
visibility: 0.9968339204788208
","x: 185.95257568359375
y: 285.7080383300781
z: -0.13035275042057037
visibility: 0.996959924697876
","x: 187.12680053710938
y: 286.0205078125
z: -0.13039524853229523
visibility: 0.9965360760688782
","x: 181.20962524414062
y: 284.8833923339844
z: -0.12990602850914001
visibility: 0.9971646070480347
","x: 179.89984130859375
y: 284.82965087890625
z: -0.12989267706871033
visibility: 0.9974114894866943
","x: 178.6158447265625
y: 284.8268737792969
z: -0.1298801451921463
visibility: 0.9972388744354248
","x: 188.78634643554688
y: 289.4666748046875
z: -0.044579554349184036
visibility: 0.996174693107605
","x: 177.27809143066406
y: 288.0445251464844
z: -0.04193006455898285
visibility: 0.997002124786377
","x: 184.51620483398438
y: 297.791015625
z: -0.11351071298122406
visibility: 0.9975631237030029
","x: 180.12620544433594
y: 297.5986328125
z: -0.11338680982589722
visibility: 0.9976310729980469
","x: 197.80682373046875
y: 317.6663513183594
z: 0.0003873998357448727
visibility: 0.9989530444145203
","x: 164.13998413085938
y: 325.63812255859375
z: 0.02122487686574459
visibility: 0.9976844787597656
","x: 207.3832244873047
y: 358.90850830078125
z: -0.05589912086725235
visibility: 0.9784943461418152
","x: 146.15110778808594
y: 347.34674072265625
z: 0.02647346816956997
visibility: 0.880675196647644
","x: 221.90505981445312
y: 352.38543701171875
z: -0.21370622515678406
visibility: 0.9249352812767029
","x: 127.63922119140625
y: 341.36639404296875
z: -0.0832117572426796
visibility: 0.7566531896591187
","x: 224.90615844726562
y: 346.9380187988281
z: -0.23847231268882751
visibility: 0.870043933391571
","x: 120.9932632446289
y: 337.7778625488281
z: -0.10104845464229584
visibility: 0.7396549582481384
","x: 224.3133544921875
y: 342.1539001464844
z: -0.24998445808887482
visibility: 0.8707736134529114
","x: 121.11758422851562
y: 334.86138916015625
z: -0.12430015951395035
visibility: 0.7402806878089905
","x: 223.13743591308594
y: 344.0143127441406
z: -0.22047138214111328
visibility: 0.8466471433639526
","x: 123.61036682128906
y: 336.6009826660156
z: -0.09651240706443787
visibility: 0.7357326745986938
","x: 190.67330932617188
y: 416.9936828613281
z: -0.010761333629488945
visibility: 0.9980235695838928
","x: 172.27154541015625
y: 415.52935791015625
z: 0.010785055346786976
visibility: 0.996800422668457
","x: 183.2324676513672
y: 488.30010986328125
z: -0.022531943395733833
visibility: 0.9565078616142273
","x: 168.0251922607422
y: 485.31085205078125
z: -0.014255309477448463
visibility: 0.9607378840446472
","x: 177.59939575195312
y: 547.9625244140625
z: 0.12004704773426056
visibility: 0.9770097136497498
","x: 161.17555236816406
y: 544.41064453125
z: 0.11169473826885223
visibility: 0.9651545286178589
","x: 175.31446838378906
y: 555.7080688476562
z: 0.129638671875
visibility: 0.8936895132064819
","x: 162.01336669921875
y: 550.7228393554688
z: 0.12212453037500381
visibility: 0.8569755554199219
","x: 174.52880859375
y: 569.6666259765625
z: 0.0370236299932003
visibility: 0.9592079520225525
","x: 161.63272094726562
y: 566.4295654296875
z: 0.01406434178352356
visibility: 0.9355896711349487
","x: 127.2701187133789
y: 344.4087219238281
z: 0.0
","x: 125.53598022460938
y: 339.5050354003906
z: 7.357142021646723e-05
","x: 123.04521179199219
y: 335.71038818359375
z: -0.0007042797515168786
","x: 121.27019500732422
y: 332.98883056640625
z: -0.0023267786018550396
","x: 119.86322021484375
y: 331.2662353515625
z: -0.003747270442545414
","x: 118.76100158691406
y: 338.86871337890625
z: 0.0013630017638206482
","x: 115.54661560058594
y: 337.27001953125
z: -0.0007055580499581993
","x: 113.67185974121094
y: 336.4654235839844
z: -0.002034308621659875
","x: 111.96202087402344
y: 336.0826416015625
z: -0.002822901587933302
","x: 118.80941772460938
y: 341.6348571777344
z: -0.0006595415761694312
","x: 115.4652099609375
y: 339.50628662109375
z: -0.002848789794370532
","x: 113.52647399902344
y: 338.025390625
z: -0.003830044064670801
","x: 111.90472412109375
y: 337.2384948730469
z: -0.00423700176179409
","x: 119.3046646118164
y: 344.46966552734375
z: -0.0031392700038850307
","x: 117.4978256225586
y: 341.47772216796875
z: -0.005348946899175644
","x: 119.33494567871094
y: 339.86065673828125
z: -0.0044695534743368626
","x: 121.05442810058594
y: 339.2557373046875
z: -0.003276422154158354
","x: 120.23179626464844
y: 347.1625061035156
z: -0.005981696769595146
","x: 118.73030090332031
y: 344.19677734375
z: -0.007503104861825705
","x: 119.94627380371094
y: 342.42620849609375
z: -0.0067772893235087395
","x: 121.39454650878906
y: 341.66766357421875
z: -0.0057526747696101665
","x: 224.83702087402344
y: 350.2410888671875
z: 0.0
","x: 227.12965393066406
y: 345.5963439941406
z: -0.00034652094473131
","x: 228.62649536132812
y: 339.7574157714844
z: -0.0016969210701063275
","x: 229.4048614501953
y: 335.2515869140625
z: -0.003783472813665867
","x: 229.79396057128906
y: 331.520751953125
z: -0.005588908679783344
","x: 226.44032287597656
y: 334.105712890625
z: -0.000699278840329498
","x: 226.79710388183594
y: 330.6561584472656
z: -0.004319310188293457
","x: 227.67007446289062
y: 331.7568359375
z: -0.006144345737993717
","x: 228.15707397460938
y: 333.7405700683594
z: -0.006915650330483913
","x: 224.6499786376953
y: 335.1475524902344
z: -0.0027168579399585724
","x: 224.72796630859375
y: 331.34808349609375
z: -0.006913973484188318
","x: 225.84042358398438
y: 334.1354064941406
z: -0.007919332012534142
","x: 226.54119873046875
y: 337.0477294921875
z: -0.00786930974572897
","x: 222.93368530273438
y: 337.177978515625
z: -0.0052019692957401276
","x: 222.95462036132812
y: 334.20123291015625
z: -0.008890138007700443
","x: 224.36990356445312
y: 336.9891662597656
z: -0.008398277685046196
","x: 225.25289916992188
y: 339.9156494140625
z: -0.007318590767681599
","x: 221.3617401123047
y: 340.20867919921875
z: -0.007928326725959778
","x: 221.3893280029297
y: 337.7799072265625
z: -0.010501623153686523
","x: 222.74142456054688
y: 339.2152404785156
z: -0.010204840451478958
","x: 223.7655029296875
y: 341.0364990234375
z: -0.009348218329250813
"
15,"x: 182.70359802246094
y: 291.0920104980469
z: -0.14549806714057922
visibility: 0.9979292154312134
","x: 184.77166748046875
y: 285.429443359375
z: -0.13030490279197693
visibility: 0.9968339204788208
","x: 185.95257568359375
y: 285.7080383300781
z: -0.13035275042057037
visibility: 0.996959924697876
","x: 187.12680053710938
y: 286.0205078125
z: -0.13039524853229523
visibility: 0.9965360760688782
","x: 181.20962524414062
y: 284.8833923339844
z: -0.12990602850914001
visibility: 0.9971646070480347
","x: 179.89984130859375
y: 284.82965087890625
z: -0.12989267706871033
visibility: 0.9974114894866943
","x: 178.6158447265625
y: 284.8268737792969
z: -0.1298801451921463
visibility: 0.9972388744354248
","x: 188.78634643554688
y: 289.4666748046875
z: -0.044579554349184036
visibility: 0.996174693107605
","x: 177.27809143066406
y: 288.0445251464844
z: -0.04193006455898285
visibility: 0.997002124786377
","x: 184.51620483398438
y: 297.791015625
z: -0.11351071298122406
visibility: 0.9975631237030029
","x: 180.12620544433594
y: 297.5986328125
z: -0.11338680982589722
visibility: 0.9976310729980469
","x: 197.80682373046875
y: 317.6663513183594
z: 0.0003873998357448727
visibility: 0.9989530444145203
","x: 164.13998413085938
y: 325.63812255859375
z: 0.02122487686574459
visibility: 0.9976844787597656
","x: 207.3832244873047
y: 358.90850830078125
z: -0.05589912086725235
visibility: 0.9784943461418152
","x: 146.15110778808594
y: 347.34674072265625
z: 0.02647346816956997
visibility: 0.880675196647644
","x: 221.90505981445312
y: 352.38543701171875
z: -0.21370622515678406
visibility: 0.9249352812767029
","x: 127.63922119140625
y: 341.36639404296875
z: -0.0832117572426796
visibility: 0.7566531896591187
","x: 224.90615844726562
y: 346.9380187988281
z: -0.23847231268882751
visibility: 0.870043933391571
","x: 120.9932632446289
y: 337.7778625488281
z: -0.10104845464229584
visibility: 0.7396549582481384
","x: 224.3133544921875
y: 342.1539001464844
z: -0.24998445808887482
visibility: 0.8707736134529114
","x: 121.11758422851562
y: 334.86138916015625
z: -0.12430015951395035
visibility: 0.7402806878089905
","x: 223.13743591308594
y: 344.0143127441406
z: -0.22047138214111328
visibility: 0.8466471433639526
","x: 123.61036682128906
y: 336.6009826660156
z: -0.09651240706443787
visibility: 0.7357326745986938
","x: 190.67330932617188
y: 416.9936828613281
z: -0.010761333629488945
visibility: 0.9980235695838928
","x: 172.27154541015625
y: 415.52935791015625
z: 0.010785055346786976
visibility: 0.996800422668457
","x: 183.2324676513672
y: 488.30010986328125
z: -0.022531943395733833
visibility: 0.9565078616142273
","x: 168.0251922607422
y: 485.31085205078125
z: -0.014255309477448463
visibility: 0.9607378840446472
","x: 177.59939575195312
y: 547.9625244140625
z: 0.12004704773426056
visibility: 0.9770097136497498
","x: 161.17555236816406
y: 544.41064453125
z: 0.11169473826885223
visibility: 0.9651545286178589
","x: 175.31446838378906
y: 555.7080688476562
z: 0.129638671875
visibility: 0.8936895132064819
","x: 162.01336669921875
y: 550.7228393554688
z: 0.12212453037500381
visibility: 0.8569755554199219
","x: 174.52880859375
y: 569.6666259765625
z: 0.0370236299932003
visibility: 0.9592079520225525
","x: 161.63272094726562
y: 566.4295654296875
z: 0.01406434178352356
visibility: 0.9355896711349487
","x: 127.2701187133789
y: 344.4087219238281
z: 0.0
","x: 125.53598022460938
y: 339.5050354003906
z: 7.357142021646723e-05
","x: 123.04521179199219
y: 335.71038818359375
z: -0.0007042797515168786
","x: 121.27019500732422
y: 332.98883056640625
z: -0.0023267786018550396
","x: 119.86322021484375
y: 331.2662353515625
z: -0.003747270442545414
","x: 118.76100158691406
y: 338.86871337890625
z: 0.0013630017638206482
","x: 115.54661560058594
y: 337.27001953125
z: -0.0007055580499581993
","x: 113.67185974121094
y: 336.4654235839844
z: -0.002034308621659875
","x: 111.96202087402344
y: 336.0826416015625
z: -0.002822901587933302
","x: 118.80941772460938
y: 341.6348571777344
z: -0.0006595415761694312
","x: 115.4652099609375
y: 339.50628662109375
z: -0.002848789794370532
","x: 113.52647399902344
y: 338.025390625
z: -0.003830044064670801
","x: 111.90472412109375
y: 337.2384948730469
z: -0.00423700176179409
","x: 119.3046646118164
y: 344.46966552734375
z: -0.0031392700038850307
","x: 117.4978256225586
y: 341.47772216796875
z: -0.005348946899175644
","x: 119.33494567871094
y: 339.86065673828125
z: -0.0044695534743368626
","x: 121.05442810058594
y: 339.2557373046875
z: -0.003276422154158354
","x: 120.23179626464844
y: 347.1625061035156
z: -0.005981696769595146
","x: 118.73030090332031
y: 344.19677734375
z: -0.007503104861825705
","x: 119.94627380371094
y: 342.42620849609375
z: -0.0067772893235087395
","x: 121.39454650878906
y: 341.66766357421875
z: -0.0057526747696101665
","x: 224.83702087402344
y: 350.2410888671875
z: 0.0
","x: 227.12965393066406
y: 345.5963439941406
z: -0.00034652094473131
","x: 228.62649536132812
y: 339.7574157714844
z: -0.0016969210701063275
","x: 229.4048614501953
y: 335.2515869140625
z: -0.003783472813665867
","x: 229.79396057128906
y: 331.520751953125
z: -0.005588908679783344
","x: 226.44032287597656
y: 334.105712890625
z: -0.000699278840329498
","x: 226.79710388183594
y: 330.6561584472656
z: -0.004319310188293457
","x: 227.67007446289062
y: 331.7568359375
z: -0.006144345737993717
","x: 228.15707397460938
y: 333.7405700683594
z: -0.006915650330483913
","x: 224.6499786376953
y: 335.1475524902344
z: -0.0027168579399585724
","x: 224.72796630859375
y: 331.34808349609375
z: -0.006913973484188318
","x: 225.84042358398438
y: 334.1354064941406
z: -0.007919332012534142
","x: 226.54119873046875
y: 337.0477294921875
z: -0.00786930974572897
","x: 222.93368530273438
y: 337.177978515625
z: -0.0052019692957401276
","x: 222.95462036132812
y: 334.20123291015625
z: -0.008890138007700443
","x: 224.36990356445312
y: 336.9891662597656
z: -0.008398277685046196
","x: 225.25289916992188
y: 339.9156494140625
z: -0.007318590767681599
","x: 221.3617401123047
y: 340.20867919921875
z: -0.007928326725959778
","x: 221.3893280029297
y: 337.7799072265625
z: -0.010501623153686523
","x: 222.74142456054688
y: 339.2152404785156
z: -0.010204840451478958
","x: 223.7655029296875
y: 341.0364990234375
z: -0.009348218329250813
"
16,"x: 181.18862915039062
y: 293.27984619140625
z: -0.27389097213745117
visibility: 0.9981346130371094
","x: 183.64556884765625
y: 287.83154296875
z: -0.2588021457195282
visibility: 0.9971439838409424
","x: 185.05242919921875
y: 288.0560302734375
z: -0.2587733864784241
visibility: 0.9972579479217529
","x: 186.3749542236328
y: 288.27593994140625
z: -0.2587526738643646
visibility: 0.9968752861022949
","x: 179.388916015625
y: 287.31121826171875
z: -0.2591409385204315
visibility: 0.9974414706230164
","x: 178.0675048828125
y: 287.2326354980469
z: -0.2591868042945862
visibility: 0.9976652264595032
","x: 176.9598846435547
y: 287.1915283203125
z: -0.2591822147369385
visibility: 0.9975096583366394
","x: 187.9523162841797
y: 289.63153076171875
z: -0.16431356966495514
visibility: 0.9965488910675049
","x: 175.52908325195312
y: 289.0448303222656
z: -0.16909359395503998
visibility: 0.9972934126853943
","x: 184.01580810546875
y: 300.18988037109375
z: -0.23919419944286346
visibility: 0.9978054165840149
","x: 178.25987243652344
y: 299.83941650390625
z: -0.24052782356739044
visibility: 0.997865617275238
","x: 198.23716735839844
y: 332.9261474609375
z: -0.10183849185705185
visibility: 0.9990558624267578
","x: 160.57676696777344
y: 327.2898864746094
z: -0.08151792734861374
visibility: 0.9979058504104614
","x: 215.75624084472656
y: 360.4862976074219
z: -0.05278382450342178
visibility: 0.9805435538291931
","x: 140.16372680664062
y: 346.47589111328125
z: 0.02352963574230671
visibility: 0.8920963406562805
","x: 210.2266845703125
y: 387.33740234375
z: -0.10137172788381577
visibility: 0.9319029450416565
","x: 126.78832244873047
y: 365.08502197265625
z: -0.0940001830458641
visibility: 0.7798560261726379
","x: 207.66513061523438
y: 398.098388671875
z: -0.11417178809642792
visibility: 0.8803669810295105
","x: 123.42211151123047
y: 375.76739501953125
z: -0.11073894798755646
visibility: 0.7624597549438477
","x: 204.3297119140625
y: 395.2359313964844
z: -0.13407106697559357
visibility: 0.8811590671539307
","x: 125.71585083007812
y: 378.1126403808594
z: -0.13557320833206177
visibility: 0.7632942199707031
","x: 204.29568481445312
y: 391.51287841796875
z: -0.10851459205150604
visibility: 0.8587396144866943
","x: 127.59217071533203
y: 375.3669738769531
z: -0.10563012212514877
visibility: 0.7588058114051819
","x: 188.05154418945312
y: 417.8124694824219
z: -0.01001361571252346
visibility: 0.9981629848480225
","x: 168.41651916503906
y: 416.1254577636719
z: 0.010071540251374245
visibility: 0.9970550537109375
","x: 178.9340057373047
y: 489.3160400390625
z: 0.021182240918278694
visibility: 0.959823727607727
","x: 165.20672607421875
y: 488.3459777832031
z: 0.021176336333155632
visibility: 0.9628662467002869
","x: 175.74392700195312
y: 548.952880859375
z: 0.1693004071712494
visibility: 0.9782260060310364
","x: 164.4689178466797
y: 545.95947265625
z: 0.17690293490886688
visibility: 0.9670855402946472
","x: 174.8749542236328
y: 556.7755737304688
z: 0.17743532359600067
visibility: 0.8892378211021423
","x: 165.94845581054688
y: 552.5567626953125
z: 0.18619610369205475
visibility: 0.8565073013305664
","x: 174.8031005859375
y: 569.8836059570312
z: 0.07916657626628876
visibility: 0.9619185924530029
","x: 161.70481872558594
y: 566.5906982421875
z: 0.09152941405773163
visibility: 0.9405834078788757
",,,,,,,,,,,,,,,,,,,,,,,,,,,,,,,,,,,,,,,,,,
17,"x: 177.03541564941406
y: 306.7327575683594
z: -0.2604162096977234
visibility: 0.9983162879943848
","x: 178.99951171875
y: 301.1258239746094
z: -0.25383856892585754
visibility: 0.9974163174629211
","x: 180.31358337402344
y: 300.9610900878906
z: -0.25387895107269287
visibility: 0.9975205659866333
","x: 181.71102905273438
y: 300.872314453125
z: -0.25390535593032837
visibility: 0.9971771836280823
","x: 176.0048370361328
y: 301.7203674316406
z: -0.24662241339683533
visibility: 0.9976850152015686
","x: 175.17153930664062
y: 301.9803466796875
z: -0.24666571617126465
visibility: 0.9978850483894348
","x: 174.35296630859375
y: 302.2491760253906
z: -0.24668565392494202
visibility: 0.9977452754974365
","x: 184.84176635742188
y: 303.3974609375
z: -0.18994835019111633
visibility: 0.996883749961853
","x: 174.5350799560547
y: 305.0964050292969
z: -0.1559767723083496
visibility: 0.9975364208221436
","x: 180.15206909179688
y: 313.2614440917969
z: -0.23490838706493378
visibility: 0.9980204105377197
","x: 175.75314331054688
y: 313.3129577636719
z: -0.22521284222602844
visibility: 0.9980708956718445
","x: 196.77487182617188
y: 342.3439025878906
z: -0.1558161973953247
visibility: 0.9991486668586731
","x: 165.31961059570312
y: 345.4625244140625
z: -0.0632447600364685
visibility: 0.9981072545051575
","x: 209.03208923339844
y: 377.62921142578125
z: -0.13538803160190582
visibility: 0.9824016690254211
","x: 155.88600158691406
y: 387.54937744140625
z: 0.005661788396537304
visibility: 0.8960986733436584
","x: 199.34060668945312
y: 420.9419250488281
z: -0.117745541036129
visibility: 0.9375959634780884
","x: 146.91275024414062
y: 429.05224609375
z: -0.06789527833461761
visibility: 0.7956238389015198
","x: 199.32225036621094
y: 431.72845458984375
z: -0.14605000615119934
visibility: 0.889066755771637
","x: 142.48077392578125
y: 442.7270202636719
z: -0.08219695091247559
visibility: 0.7747669816017151
","x: 196.384765625
y: 431.3055114746094
z: -0.14815133810043335
visibility: 0.8899202346801758
","x: 142.650634765625
y: 443.31158447265625
z: -0.11031583696603775
visibility: 0.7763074636459351
","x: 195.79434204101562
y: 427.7363586425781
z: -0.12757641077041626
visibility: 0.8689784407615662
","x: 145.24871826171875
y: 438.58892822265625
z: -0.08049234747886658
visibility: 0.7715156674385071
","x: 182.34669494628906
y: 424.17645263671875
z: -0.0381377674639225
visibility: 0.9982944130897522
","x: 165.3088836669922
y: 419.3648986816406
z: 0.03817339986562729
visibility: 0.9972763657569885
","x: 167.3161163330078
y: 487.0269775390625
z: -0.07654650509357452
visibility: 0.9578364491462708
","x: 161.00059509277344
y: 486.79937744140625
z: -0.011941996403038502
visibility: 0.9448962211608887
","x: 170.35525512695312
y: 548.235595703125
z: -0.01499949861317873
visibility: 0.9759910702705383
","x: 166.05685424804688
y: 546.4221801757812
z: 0.06500066816806793
visibility: 0.9549837112426758
","x: 172.89279174804688
y: 556.9884033203125
z: -0.013884292915463448
visibility: 0.883224368095398
","x: 168.76145935058594
y: 556.5422973632812
z: 0.06752945482730865
visibility: 0.8458189964294434
","x: 168.87049865722656
y: 567.0228271484375
z: -0.09425292909145355
visibility: 0.9587512612342834
","x: 158.67282104492188
y: 566.7611083984375
z: -0.011113873682916164
visibility: 0.931205689907074
",,,,,,,,,,,,,,,,,,,,,,,,,,,,,,,,,,,,,,,,,,
18,"x: 182.5421905517578
y: 309.82855224609375
z: -0.28772369027137756
visibility: 0.998478353023529
","x: 183.9854736328125
y: 304.144775390625
z: -0.2769392132759094
visibility: 0.9976521730422974
","x: 185.031494140625
y: 304.20172119140625
z: -0.27694419026374817
visibility: 0.9977476000785828
","x: 186.08267211914062
y: 304.33245849609375
z: -0.2769734859466553
visibility: 0.9974374175071716
","x: 180.67581176757812
y: 304.2708435058594
z: -0.2778780460357666
visibility: 0.9978972673416138
","x: 179.4980010986328
y: 304.4134216308594
z: -0.27792418003082275
visibility: 0.9980776309967041
","x: 178.31488037109375
y: 304.6597595214844
z: -0.2779523432254791
visibility: 0.9979509115219116
","x: 187.25381469726562
y: 307.60394287109375
z: -0.19797012209892273
visibility: 0.9971560835838318
","x: 175.71466064453125
y: 308.059814453125
z: -0.20194776356220245
visibility: 0.9977550506591797
","x: 184.45187377929688
y: 316.6968078613281
z: -0.25663912296295166
visibility: 0.9982092380523682
","x: 180.05918884277344
y: 316.63922119140625
z: -0.25796252489089966
visibility: 0.9982549548149109
","x: 198.20603942871094
y: 349.38604736328125
z: -0.1376645416021347
visibility: 0.9992203712463379
","x: 162.8240203857422
y: 348.84033203125
z: -0.13077791035175323
visibility: 0.9982859492301941
","x: 201.3442840576172
y: 391.59228515625
z: -0.09561655670404434
visibility: 0.9821892976760864
","x: 155.45285034179688
y: 387.3355407714844
z: -0.0862257331609726
visibility: 0.9039011001586914
","x: 201.72239685058594
y: 437.73736572265625
z: -0.12259651720523834
visibility: 0.9372853636741638
","x: 155.2405242919922
y: 427.6614990234375
z: -0.12382201850414276
visibility: 0.8105186223983765
","x: 202.77117919921875
y: 451.02838134765625
z: -0.13864298164844513
visibility: 0.888624370098114
","x: 156.1388702392578
y: 440.897216796875
z: -0.1383207142353058
visibility: 0.7868398427963257
","x: 201.413818359375
y: 451.0383605957031
z: -0.16153886914253235
visibility: 0.8899303674697876
","x: 159.6193084716797
y: 440.1238708496094
z: -0.1624162644147873
visibility: 0.7884603142738342
","x: 200.26290893554688
y: 446.7822570800781
z: -0.1326008439064026
visibility: 0.8699485063552856
","x: 160.53663635253906
y: 435.5607604980469
z: -0.13275554776191711
visibility: 0.7823188304901123
","x: 186.31764221191406
y: 430.78497314453125
z: -0.02337357960641384
visibility: 0.9983615279197693
","x: 167.2472686767578
y: 427.5733642578125
z: 0.02333495207130909
visibility: 0.9974596500396729
","x: 179.26251220703125
y: 492.6056213378906
z: -0.0070853037759661674
visibility: 0.960246205329895
","x: 163.71011352539062
y: 491.8025207519531
z: 0.01331773679703474
visibility: 0.9481530785560608
","x: 176.88099670410156
y: 550.1846923828125
z: 0.08585794270038605
visibility: 0.9766334891319275
","x: 165.8514404296875
y: 546.7401733398438
z: 0.11719217151403427
visibility: 0.9571175575256348
","x: 175.46875
y: 558.9163818359375
z: 0.08761406689882278
visibility: 0.8805266618728638
","x: 167.753173828125
y: 557.250732421875
z: 0.12179763615131378
visibility: 0.8479169607162476
","x: 176.1537322998047
y: 565.5855712890625
z: -0.006225955672562122
visibility: 0.9601187705993652
","x: 158.7503204345703
y: 566.431396484375
z: 0.03439762443304062
visibility: 0.9351958632469177
",,,,,,,,,,,,,,,,,,,,,,,,,,,,,,,,,,,,,,,,,,
19,"x: 187.64044189453125
y: 310.4336242675781
z: -0.1602667272090912
visibility: 0.9986249208450317
","x: 189.1653594970703
y: 304.9728088378906
z: -0.14522939920425415
visibility: 0.9978734254837036
","x: 190.05723571777344
y: 305.24951171875
z: -0.14528654515743256
visibility: 0.9979568719863892
","x: 190.88153076171875
y: 305.5214538574219
z: -0.14534851908683777
visibility: 0.9976772665977478
","x: 186.15304565429688
y: 304.0976867675781
z: -0.15455761551856995
visibility: 0.9980961680412292
","x: 185.0921630859375
y: 303.8448791503906
z: -0.15457646548748016
visibility: 0.9982571601867676
","x: 184.02590942382812
y: 303.72021484375
z: -0.15460510551929474
visibility: 0.9981387853622437
","x: 190.29229736328125
y: 307.87432861328125
z: -0.05797716975212097
visibility: 0.9974201321601868
","x: 181.17044067382812
y: 306.54730224609375
z: -0.10176469385623932
visibility: 0.997962474822998
","x: 188.77261352539062
y: 316.6197509765625
z: -0.1267654001712799
visibility: 0.9983790516853333
","x: 185.26730346679688
y: 316.16217041015625
z: -0.13964495062828064
visibility: 0.9984189867973328
","x: 199.22525024414062
y: 346.4322204589844
z: 0.0024863346479833126
visibility: 0.9992862939834595
","x: 167.13796997070312
y: 346.30560302734375
z: -0.0886598527431488
visibility: 0.9984387755393982
","x: 206.6144561767578
y: 386.3687438964844
z: 0.029941430315375328
visibility: 0.9797976613044739
","x: 161.15538024902344
y: 379.45050048828125
z: -0.15940627455711365
visibility: 0.9020228981971741
","x: 214.0257568359375
y: 419.332763671875
z: -0.0404861681163311
visibility: 0.9407191276550293
","x: 164.50489807128906
y: 403.77484130859375
z: -0.31986409425735474
visibility: 0.8214777112007141
","x: 224.37710571289062
y: 426.2718505859375
z: -0.055781614035367966
visibility: 0.8944045305252075
","x: 165.93597412109375
y: 410.2939147949219
z: -0.35482174158096313
visibility: 0.7984316945075989
","x: 225.03707885742188
y: 426.5130615234375
z: -0.0845532938838005
visibility: 0.8965281844139099
","x: 167.49673461914062
y: 411.1239929199219
z: -0.367615282535553
visibility: 0.8003615736961365
","x: 221.95045471191406
y: 424.413818359375
z: -0.05453754588961601
visibility: 0.8778272867202759
","x: 167.7783660888672
y: 408.8209533691406
z: -0.329363077878952
visibility: 0.7919052839279175
","x: 191.56533813476562
y: 430.3938293457031
z: 0.009573922492563725
visibility: 0.9984835982322693
","x: 172.4302215576172
y: 428.81414794921875
z: -0.009474282152950764
visibility: 0.9976862072944641
","x: 194.1204376220703
y: 495.32733154296875
z: 0.005414520390331745
visibility: 0.9636023044586182
","x: 166.27850341796875
y: 493.94775390625
z: -0.015289759263396263
visibility: 0.9527267217636108
","x: 202.31201171875
y: 557.603271484375
z: 0.0842619314789772
visibility: 0.9779402017593384
","x: 165.101318359375
y: 547.0745849609375
z: 0.07476735860109329
visibility: 0.960933268070221
","x: 200.16439819335938
y: 570.0970458984375
z: 0.08544321358203888
visibility: 0.8862937688827515
","x: 166.82192993164062
y: 557.9713134765625
z: 0.07709881663322449
visibility: 0.8554190993309021
","x: 214.45437622070312
y: 566.1594848632812
z: -0.0032745017670094967
visibility: 0.9623067378997803
","x: 156.41976928710938
y: 566.3917236328125
z: -0.015293434262275696
visibility: 0.940559446811676
",,,,,,,,,,,,,,,,,,,,,,,,,,,,,,,,,,,,,,,,,,
20,"x: 201.90658569335938
y: 310.8611755371094
z: -0.17610295116901398
visibility: 0.998762309551239
","x: 202.95860290527344
y: 304.80535888671875
z: -0.15923507511615753
visibility: 0.9980856776237488
","x: 203.6505126953125
y: 305.0339050292969
z: -0.1592414677143097
visibility: 0.9981606006622314
","x: 204.2406768798828
y: 305.2231140136719
z: -0.15926498174667358
visibility: 0.9979087710380554
","x: 200.18270874023438
y: 303.467529296875
z: -0.17050307989120483
visibility: 0.9982863068580627
","x: 199.0060272216797
y: 302.9046325683594
z: -0.17053957283496857
visibility: 0.9984312057495117
","x: 197.83543395996094
y: 302.5174255371094
z: -0.1705450564622879
visibility: 0.9983246326446533
","x: 201.64622497558594
y: 307.00762939453125
z: -0.0583573579788208
visibility: 0.9976763725280762
","x: 192.60020446777344
y: 305.2158203125
z: -0.11207322031259537
visibility: 0.998166024684906
","x: 201.39715576171875
y: 316.5075988769531
z: -0.13796404004096985
visibility: 0.9985406398773193
","x: 198.4512176513672
y: 315.7784118652344
z: -0.1534583866596222
visibility: 0.998576819896698
","x: 207.87986755371094
y: 345.1350402832031
z: 0.024873562157154083
visibility: 0.9993555545806885
","x: 175.4745635986328
y: 344.03363037109375
z: -0.08786420524120331
visibility: 0.9985931515693665
","x: 224.29104614257812
y: 376.2137451171875
z: 0.028080377727746964
visibility: 0.9812240600585938
","x: 162.11233520507812
y: 377.7454833984375
z: -0.20078475773334503
visibility: 0.9117256999015808
","x: 243.64157104492188
y: 346.3404541015625
z: -0.07351167500019073
visibility: 0.9464919567108154
","x: 172.64993286132812
y: 335.4366760253906
z: -0.3620729446411133
visibility: 0.8392738699913025
","x: 249.40713500976562
y: 338.7265625
z: -0.09129559248685837
visibility: 0.9043323993682861
","x: 173.96466064453125
y: 324.04302978515625
z: -0.39784547686576843
visibility: 0.8183450102806091
","x: 249.22079467773438
y: 334.8409729003906
z: -0.10308562219142914
visibility: 0.9063059091567993
","x: 174.9243927001953
y: 322.0589599609375
z: -0.39062467217445374
visibility: 0.820052981376648
","x: 246.77476501464844
y: 337.1008605957031
z: -0.08204080909490585
visibility: 0.8892751336097717
","x: 175.3172149658203
y: 325.9907531738281
z: -0.36259204149246216
visibility: 0.8121948838233948
","x: 207.416015625
y: 429.89617919921875
z: 0.0345105342566967
visibility: 0.9986241459846497
","x: 188.32054138183594
y: 431.4725036621094
z: -0.03457323834300041
visibility: 0.9979044795036316
","x: 222.9368896484375
y: 495.609375
z: 0.003220300655812025
visibility: 0.9670007824897766
","x: 179.3853759765625
y: 499.15484619140625
z: -0.057900797575712204
visibility: 0.9572312831878662
","x: 230.63885498046875
y: 556.6405029296875
z: 0.14993716776371002
visibility: 0.9797723889350891
","x: 165.19606018066406
y: 547.35546875
z: 0.0989251509308815
visibility: 0.9644683003425598
","x: 228.48338317871094
y: 567.752685546875
z: 0.16048577427864075
visibility: 0.8952100276947021
","x: 163.78521728515625
y: 553.2374267578125
z: 0.12014169991016388
visibility: 0.8612331748008728
","x: 241.9928741455078
y: 566.350341796875
z: 0.08485335856676102
visibility: 0.9653089642524719
","x: 160.49984741210938
y: 566.566162109375
z: 0.03562970086932182
visibility: 0.9454819560050964
",,,,,,,,,,,,,,,,,,,,,,"x: 246.95626831054688
y: 340.1741027832031
z: 0.0
","x: 246.88084411621094
y: 334.8161315917969
z: -0.001169574330560863
","x: 247.5167999267578
y: 329.5450439453125
z: -0.002184986835345626
","x: 248.38449096679688
y: 325.5296325683594
z: -0.0036768594291061163
","x: 248.697509765625
y: 322.3398132324219
z: -0.005099729169160128
","x: 250.9681396484375
y: 326.91162109375
z: -0.00023483543191105127
","x: 252.96575927734375
y: 321.427734375
z: -0.002140060532838106
","x: 254.41893005371094
y: 318.4244079589844
z: -0.003451275173574686
","x: 255.7960205078125
y: 316.2199401855469
z: -0.004328798968344927
","x: 252.33502197265625
y: 329.054443359375
z: -0.0013783328467980027
","x: 255.12445068359375
y: 324.9037170410156
z: -0.003230782924219966
","x: 256.72540283203125
y: 323.4775085449219
z: -0.004336771555244923
","x: 258.0318298339844
y: 322.69952392578125
z: -0.00497781066223979
","x: 253.11277770996094
y: 331.99322509765625
z: -0.0029174364171922207
","x: 255.3485870361328
y: 329.2384033203125
z: -0.005075187422335148
","x: 255.20616149902344
y: 329.55023193359375
z: -0.005402614828199148
","x: 254.87277221679688
y: 330.31903076171875
z: -0.0051874807104468346
","x: 253.48709106445312
y: 335.4693908691406
z: -0.004779140464961529
","x: 255.36929321289062
y: 333.5096740722656
z: -0.006489367224276066
","x: 255.3710479736328
y: 333.478515625
z: -0.0067008486948907375
","x: 254.99945068359375
y: 334.00531005859375
z: -0.006464076694101095
"
21,"x: 201.90658569335938
y: 310.8611755371094
z: -0.17610295116901398
visibility: 0.998762309551239
","x: 202.95860290527344
y: 304.80535888671875
z: -0.15923507511615753
visibility: 0.9980856776237488
","x: 203.6505126953125
y: 305.0339050292969
z: -0.1592414677143097
visibility: 0.9981606006622314
","x: 204.2406768798828
y: 305.2231140136719
z: -0.15926498174667358
visibility: 0.9979087710380554
","x: 200.18270874023438
y: 303.467529296875
z: -0.17050307989120483
visibility: 0.9982863068580627
","x: 199.0060272216797
y: 302.9046325683594
z: -0.17053957283496857
visibility: 0.9984312057495117
","x: 197.83543395996094
y: 302.5174255371094
z: -0.1705450564622879
visibility: 0.9983246326446533
","x: 201.64622497558594
y: 307.00762939453125
z: -0.0583573579788208
visibility: 0.9976763725280762
","x: 192.60020446777344
y: 305.2158203125
z: -0.11207322031259537
visibility: 0.998166024684906
","x: 201.39715576171875
y: 316.5075988769531
z: -0.13796404004096985
visibility: 0.9985406398773193
","x: 198.4512176513672
y: 315.7784118652344
z: -0.1534583866596222
visibility: 0.998576819896698
","x: 207.87986755371094
y: 345.1350402832031
z: 0.024873562157154083
visibility: 0.9993555545806885
","x: 175.4745635986328
y: 344.03363037109375
z: -0.08786420524120331
visibility: 0.9985931515693665
","x: 224.29104614257812
y: 376.2137451171875
z: 0.028080377727746964
visibility: 0.9812240600585938
","x: 162.11233520507812
y: 377.7454833984375
z: -0.20078475773334503
visibility: 0.9117256999015808
","x: 243.64157104492188
y: 346.3404541015625
z: -0.07351167500019073
visibility: 0.9464919567108154
","x: 172.64993286132812
y: 335.4366760253906
z: -0.3620729446411133
visibility: 0.8392738699913025
","x: 249.40713500976562
y: 338.7265625
z: -0.09129559248685837
visibility: 0.9043323993682861
","x: 173.96466064453125
y: 324.04302978515625
z: -0.39784547686576843
visibility: 0.8183450102806091
","x: 249.22079467773438
y: 334.8409729003906
z: -0.10308562219142914
visibility: 0.9063059091567993
","x: 174.9243927001953
y: 322.0589599609375
z: -0.39062467217445374
visibility: 0.820052981376648
","x: 246.77476501464844
y: 337.1008605957031
z: -0.08204080909490585
visibility: 0.8892751336097717
","x: 175.3172149658203
y: 325.9907531738281
z: -0.36259204149246216
visibility: 0.8121948838233948
","x: 207.416015625
y: 429.89617919921875
z: 0.0345105342566967
visibility: 0.9986241459846497
","x: 188.32054138183594
y: 431.4725036621094
z: -0.03457323834300041
visibility: 0.9979044795036316
","x: 222.9368896484375
y: 495.609375
z: 0.003220300655812025
visibility: 0.9670007824897766
","x: 179.3853759765625
y: 499.15484619140625
z: -0.057900797575712204
visibility: 0.9572312831878662
","x: 230.63885498046875
y: 556.6405029296875
z: 0.14993716776371002
visibility: 0.9797723889350891
","x: 165.19606018066406
y: 547.35546875
z: 0.0989251509308815
visibility: 0.9644683003425598
","x: 228.48338317871094
y: 567.752685546875
z: 0.16048577427864075
visibility: 0.8952100276947021
","x: 163.78521728515625
y: 553.2374267578125
z: 0.12014169991016388
visibility: 0.8612331748008728
","x: 241.9928741455078
y: 566.350341796875
z: 0.08485335856676102
visibility: 0.9653089642524719
","x: 160.49984741210938
y: 566.566162109375
z: 0.03562970086932182
visibility: 0.9454819560050964
",,,,,,,,,,,,,,,,,,,,,,"x: 246.95626831054688
y: 340.1741027832031
z: 0.0
","x: 246.88084411621094
y: 334.8161315917969
z: -0.001169574330560863
","x: 247.5167999267578
y: 329.5450439453125
z: -0.002184986835345626
","x: 248.38449096679688
y: 325.5296325683594
z: -0.0036768594291061163
","x: 248.697509765625
y: 322.3398132324219
z: -0.005099729169160128
","x: 250.9681396484375
y: 326.91162109375
z: -0.00023483543191105127
","x: 252.96575927734375
y: 321.427734375
z: -0.002140060532838106
","x: 254.41893005371094
y: 318.4244079589844
z: -0.003451275173574686
","x: 255.7960205078125
y: 316.2199401855469
z: -0.004328798968344927
","x: 252.33502197265625
y: 329.054443359375
z: -0.0013783328467980027
","x: 255.12445068359375
y: 324.9037170410156
z: -0.003230782924219966
","x: 256.72540283203125
y: 323.4775085449219
z: -0.004336771555244923
","x: 258.0318298339844
y: 322.69952392578125
z: -0.00497781066223979
","x: 253.11277770996094
y: 331.99322509765625
z: -0.0029174364171922207
","x: 255.3485870361328
y: 329.2384033203125
z: -0.005075187422335148
","x: 255.20616149902344
y: 329.55023193359375
z: -0.005402614828199148
","x: 254.87277221679688
y: 330.31903076171875
z: -0.0051874807104468346
","x: 253.48709106445312
y: 335.4693908691406
z: -0.004779140464961529
","x: 255.36929321289062
y: 333.5096740722656
z: -0.006489367224276066
","x: 255.3710479736328
y: 333.478515625
z: -0.0067008486948907375
","x: 254.99945068359375
y: 334.00531005859375
z: -0.006464076694101095
"
22,"x: 212.83023071289062
y: 309.73675537109375
z: -0.18094754219055176
visibility: 0.9988860487937927
","x: 214.275634765625
y: 304.5868835449219
z: -0.17662720382213593
visibility: 0.9982770681381226
","x: 215.2113800048828
y: 304.8967590332031
z: -0.17665304243564606
visibility: 0.9983444809913635
","x: 216.11819458007812
y: 305.1744689941406
z: -0.17668482661247253
visibility: 0.9981178045272827
","x: 211.08457946777344
y: 303.66552734375
z: -0.17763054370880127
visibility: 0.9984576106071472
","x: 209.8406982421875
y: 303.44976806640625
z: -0.17769601941108704
visibility: 0.9985880255699158
","x: 208.6121826171875
y: 303.34527587890625
z: -0.17782332003116608
visibility: 0.9984921216964722
","x: 216.58575439453125
y: 307.94390869140625
z: -0.08654551208019257
visibility: 0.9979086518287659
","x: 205.58660888671875
y: 306.9507141113281
z: -0.11635226011276245
visibility: 0.9983494281768799
","x: 214.44473266601562
y: 315.9449157714844
z: -0.1558394879102707
visibility: 0.9986865520477295
","x: 210.36509704589844
y: 315.22412109375
z: -0.1575021594762802
visibility: 0.9987190961837769
","x: 226.69578552246094
y: 345.3779296875
z: -0.026028186082839966
visibility: 0.9994184970855713
","x: 192.4147491455078
y: 343.1724853515625
z: -0.11114196479320526
visibility: 0.9987335205078125
","x: 242.0346221923828
y: 362.0648193359375
z: -0.22301311790943146
visibility: 0.9820964336395264
","x: 173.52252197265625
y: 357.89208984375
z: -0.2870706021785736
visibility: 0.9204809069633484
","x: 255.68109130859375
y: 353.7129211425781
z: -0.4706701636314392
visibility: 0.9511016011238098
","x: 175.56442260742188
y: 355.0814208984375
z: -0.47832226753234863
visibility: 0.8550655245780945
","x: 259.06011962890625
y: 355.744873046875
z: -0.5205225944519043
visibility: 0.9126893281936646
","x: 175.23008728027344
y: 354.5732421875
z: -0.5224834084510803
visibility: 0.835689127445221
","x: 257.6534729003906
y: 353.95159912109375
z: -0.5296600461006165
visibility: 0.914605438709259
","x: 179.06021118164062
y: 353.2284851074219
z: -0.521859347820282
visibility: 0.8372228741645813
","x: 255.84835815429688
y: 353.8121032714844
z: -0.4833768904209137
visibility: 0.8988767862319946
","x: 180.0462646484375
y: 353.9091491699219
z: -0.4840220808982849
visibility: 0.8297203779220581
","x: 224.01869201660156
y: 431.719482421875
z: 0.021394047886133194
visibility: 0.9987601041793823
","x: 202.9120635986328
y: 432.85723876953125
z: -0.02145826257765293
visibility: 0.9981123805046082
","x: 234.91549682617188
y: 496.86016845703125
z: -0.011505592614412308
visibility: 0.9701598882675171
","x: 188.63442993164062
y: 500.367919921875
z: -0.029616694897413254
visibility: 0.9614436626434326
","x: 233.3726348876953
y: 556.0847778320312
z: 0.1475297212600708
visibility: 0.9815654158592224
","x: 167.49209594726562
y: 550.2060546875
z: 0.12443758547306061
visibility: 0.9679306745529175
","x: 230.1676025390625
y: 566.6237182617188
z: 0.15690955519676208
visibility: 0.9032348394393921
","x: 168.4105987548828
y: 557.8338012695312
z: 0.13573136925697327
visibility: 0.8710224628448486
","x: 243.55250549316406
y: 567.4208374023438
z: 0.059828899800777435
visibility: 0.968270480632782
","x: 164.1432647705078
y: 566.9415893554688
z: 0.03638734668493271
visibility: 0.9506869316101074
",,,,,,,,,,,,,,,,,,,,,,,,,,,,,,,,,,,,,,,,,,
23,"x: 216.18939208984375
y: 308.98260498046875
z: -0.2025957554578781
visibility: 0.9989967942237854
","x: 217.67062377929688
y: 303.7786560058594
z: -0.19313782453536987
visibility: 0.9984483122825623
","x: 218.942138671875
y: 304.18707275390625
z: -0.1931978464126587
visibility: 0.9985089302062988
","x: 220.24078369140625
y: 304.6495361328125
z: -0.19326165318489075
visibility: 0.9983048439025879
","x: 214.21946716308594
y: 302.913330078125
z: -0.18067266047000885
visibility: 0.9986103177070618
","x: 213.03665161132812
y: 302.7621765136719
z: -0.1807253658771515
visibility: 0.9987271428108215
","x: 211.84715270996094
y: 302.723876953125
z: -0.18080838024616241
visibility: 0.9986401796340942
","x: 222.48524475097656
y: 307.6037292480469
z: -0.10709227621555328
visibility: 0.9981163740158081
","x: 210.74627685546875
y: 306.43475341796875
z: -0.09909547865390778
visibility: 0.9985123872756958
","x: 219.06887817382812
y: 315.6580505371094
z: -0.17411074042320251
visibility: 0.9988175630569458
","x: 214.53903198242188
y: 314.5837707519531
z: -0.16094188392162323
visibility: 0.9988464117050171
","x: 233.3966827392578
y: 345.0687255859375
z: -0.07083466649055481
visibility: 0.9994747042655945
","x: 200.26927185058594
y: 342.4367980957031
z: -0.03879627212882042
visibility: 0.9988512992858887
","x: 248.8043975830078
y: 364.0002746582031
z: -0.21590642631053925
visibility: 0.9835447072982788
","x: 184.6474151611328
y: 360.61328125
z: -0.0948169082403183
visibility: 0.9266185164451599
","x: 244.673828125
y: 351.679443359375
z: -0.42673343420028687
visibility: 0.955663800239563
","x: 174.41702270507812
y: 358.7119140625
z: -0.3325369954109192
visibility: 0.8684235215187073
","x: 243.73045349121094
y: 345.8288879394531
z: -0.466418981552124
visibility: 0.920637845993042
","x: 169.8856964111328
y: 356.4547424316406
z: -0.33483651280403137
visibility: 0.8498099446296692
","x: 242.38131713867188
y: 342.2135925292969
z: -0.46790361404418945
visibility: 0.9223384857177734
","x: 172.0127410888672
y: 354.662353515625
z: -0.3486585021018982
visibility: 0.8512786626815796
","x: 241.43800354003906
y: 344.40789794921875
z: -0.43170952796936035
visibility: 0.9076102375984192
","x: 173.61007690429688
y: 355.8523864746094
z: -0.32689207792282104
visibility: 0.84393310546875
","x: 223.79794311523438
y: 432.0170593261719
z: 0.0024496749974787235
visibility: 0.9988831281661987
","x: 204.1916961669922
y: 431.960693359375
z: -0.002518526278436184
visibility: 0.9982991218566895
","x: 231.87020874023438
y: 498.6042785644531
z: -0.04375496879220009
visibility: 0.9728838205337524
","x: 190.43222045898438
y: 495.55645751953125
z: -0.02536803111433983
visibility: 0.9652027487754822
","x: 234.517333984375
y: 555.72705078125
z: 0.12879294157028198
visibility: 0.9828542470932007
","x: 190.709716796875
y: 533.7175903320312
z: 0.23868712782859802
visibility: 0.9702094197273254
","x: 232.663330078125
y: 566.1810302734375
z: 0.1390693187713623
visibility: 0.9085214734077454
","x: 193.56494140625
y: 537.591796875
z: 0.2621593773365021
visibility: 0.8764835596084595
","x: 242.82858276367188
y: 568.1650390625
z: 0.049646373838186264
visibility: 0.9704091548919678
","x: 184.82691955566406
y: 556.6022338867188
z: 0.2018754929304123
visibility: 0.9539534449577332
","x: 173.41859436035156
y: 356.8505554199219
z: 0.0
","x: 172.52447509765625
y: 352.6584167480469
z: -0.0016864786157384515
","x: 170.38719177246094
y: 349.54522705078125
z: -0.002721908502280712
","x: 168.54074096679688
y: 349.0635986328125
z: -0.004085751716047525
","x: 167.07827758789062
y: 349.9470520019531
z: -0.005283063743263483
","x: 166.1090087890625
y: 351.14910888671875
z: -0.00013300386490300298
","x: 162.8309783935547
y: 349.2106628417969
z: -0.0019356723641976714
","x: 160.75608825683594
y: 348.2375793457031
z: -0.0031005304772406816
","x: 159.06253051757812
y: 347.5729064941406
z: -0.003816261189058423
","x: 165.69345092773438
y: 354.27264404296875
z: -0.0008847665158100426
","x: 162.07260131835938
y: 354.7264099121094
z: -0.002754105720669031
","x: 159.98828125
y: 354.87908935546875
z: -0.00369535805657506
","x: 158.46563720703125
y: 355.0691223144531
z: -0.004142712336033583
","x: 165.94552612304688
y: 357.2886657714844
z: -0.0021332341711968184
","x: 163.97010803222656
y: 356.83038330078125
z: -0.004302127752453089
","x: 165.19558715820312
y: 355.522705078125
z: -0.0040135555900633335
","x: 166.37112426757812
y: 354.8023986816406
z: -0.0032277670688927174
","x: 166.68272399902344
y: 360.0594787597656
z: -0.0038188754115253687
","x: 165.13674926757812
y: 359.37628173828125
z: -0.005564607214182615
","x: 165.87652587890625
y: 358.10296630859375
z: -0.005461345426738262
","x: 166.8254852294922
y: 357.26495361328125
z: -0.004875206854194403
