uscmakers/ReverseChoreography/data/3_power_little_mix.csv
,NOSE,LEFT_EYE_INNER,LEFT_EYE,LEFT_EYE_OUTER,RIGHT_EYE_INNER,RIGHT_EYE,RIGHT_EYE_OUTER,LEFT_EAR,RIGHT_EAR,MOUTH_LEFT,MOUTH_RIGHT,LEFT_SHOULDER,RIGHT_SHOULDER,LEFT_ELBOW,RIGHT_ELBOW,LEFT_WRIST,RIGHT_WRIST,LEFT_PINKY,RIGHT_PINKY,LEFT_INDEX,RIGHT_INDEX,LEFT_THUMB,RIGHT_THUMB,LEFT_HIP,RIGHT_HIP,LEFT_KNEE,RIGHT_KNEE,LEFT_ANKLE,RIGHT_ANKLE,LEFT_HEEL,RIGHT_HEEL,LEFT_FOOT_INDEX,RIGHT_FOOT_INDEX,WRIST2,THUMB_CPC2,THUMB_MCP2,THUMB_IP2,THUMB_TIP2,INDEX_FINGER_MCP2,INDEX_FINGER_PIP2,INDEX_FINGER_DIP2,INDEX_FINGER_TIP2,MIDDLE_FINGER_MCP2,MIDDLE_FINGER_PIP2,MIDDLE_FINGER_DIP2,MIDDLE_FINGER_TIP2,RING_FINGER_PIP2,RING_FINGER_DIP2,RING_FINGER_TIP2,RING_FINGER_MCP2,PINKY_MCP2,PINKY_PIP2,PINKY_DIP2,PINKY_TIP2,WRIST,THUMB_CPC,THUMB_MCP,THUMB_IP,THUMB_TIP,INDEX_FINGER_MCP,INDEX_FINGER_PIP,INDEX_FINGER_DIP,INDEX_FINGER_TIP,MIDDLE_FINGER_MCP,MIDDLE_FINGER_PIP,MIDDLE_FINGER_DIP,MIDDLE_FINGER_TIP,RING_FINGER_PIP,RING_FINGER_DIP,RING_FINGER_TIP,RING_FINGER_MCP,PINKY_MCP,PINKY_PIP,PINKY_DIP,PINKY_TIP
0,"x: 201.75119018554688
y: 320.4895324707031
z: -0.3454251289367676
visibility: 0.9999674558639526
","x: 202.4182586669922
y: 315.3402099609375
z: -0.3323613107204437
visibility: 0.9998834133148193
","x: 203.36520385742188
y: 315.23553466796875
z: -0.33232900500297546
visibility: 0.9998596906661987
","x: 204.248291015625
y: 315.09210205078125
z: -0.33237943053245544
visibility: 0.99988853931427
","x: 199.22451782226562
y: 315.5863342285156
z: -0.3388144373893738
visibility: 0.9999010562896729
","x: 197.94436645507812
y: 315.7784118652344
z: -0.3389018774032593
visibility: 0.9998999834060669
","x: 196.6270751953125
y: 316.08416748046875
z: -0.3388964533805847
visibility: 0.9998918771743774
","x: 204.0932159423828
y: 316.82989501953125
z: -0.23441192507743835
visibility: 0.9997392296791077
","x: 193.13121032714844
y: 320.06085205078125
z: -0.26775071024894714
visibility: 0.9997873902320862
","x: 203.53565979003906
y: 325.6098937988281
z: -0.3074319362640381
visibility: 0.9998619556427002
","x: 199.69285583496094
y: 326.443359375
z: -0.3167765140533447
visibility: 0.999832272529602
","x: 215.97705078125
y: 342.79644775390625
z: -0.15480874478816986
visibility: 0.999936580657959
","x: 183.8333740234375
y: 353.7396240234375
z: -0.19507868587970734
visibility: 0.9997000694274902
","x: 236.9334716796875
y: 352.0179443359375
z: -0.12490034103393555
visibility: 0.9970340728759766
","x: 167.99075317382812
y: 369.32366943359375
z: -0.2141806185245514
visibility: 0.9975444674491882
","x: 258.59405517578125
y: 353.86065673828125
z: -0.20376352965831757
visibility: 0.9972754120826721
","x: 150.08297729492188
y: 381.28546142578125
z: -0.3222568929195404
visibility: 0.9925812482833862
","x: 264.9826354980469
y: 355.3976135253906
z: -0.22085896134376526
visibility: 0.9908278584480286
","x: 144.23635864257812
y: 385.41363525390625
z: -0.3447672724723816
visibility: 0.9787785410881042
","x: 265.36126708984375
y: 355.1761169433594
z: -0.24857297539710999
visibility: 0.9929566383361816
","x: 144.46139526367188
y: 384.2378234863281
z: -0.3698778748512268
visibility: 0.982589840888977
","x: 263.78924560546875
y: 355.2003479003906
z: -0.21816369891166687
visibility: 0.992811381816864
","x: 146.74961853027344
y: 383.08648681640625
z: -0.33595210313796997
visibility: 0.9816708564758301
","x: 222.12918090820312
y: 421.91302490234375
z: 0.007468794472515583
visibility: 0.9994363188743591
","x: 205.5882568359375
y: 426.7486267089844
z: -0.007459430955350399
visibility: 0.9989498257637024
","x: 217.91934204101562
y: 485.2161865234375
z: -0.015016953460872173
visibility: 0.9786036610603333
","x: 205.45999145507812
y: 484.56689453125
z: 0.01651720702648163
visibility: 0.9864093065261841
","x: 204.81219482421875
y: 539.4414672851562
z: 0.09863978624343872
visibility: 0.9766588807106018
","x: 194.0305938720703
y: 534.7777099609375
z: 0.1724497377872467
visibility: 0.9663905501365662
","x: 200.833740234375
y: 547.3572998046875
z: 0.10564549267292023
visibility: 0.9326539039611816
","x: 193.01234436035156
y: 541.5204467773438
z: 0.18422818183898926
visibility: 0.8223487138748169
","x: 208.629638671875
y: 555.26220703125
z: 0.02726208046078682
visibility: 0.981779158115387
","x: 193.48182678222656
y: 551.1197509765625
z: 0.1177232414484024
visibility: 0.9714986085891724
",,,,,,,,,,,,,,,,,,,,,,,,,,,,,,,,,,,,,,,,,,
1,"x: 216.18695068359375
y: 363.6567687988281
z: -0.46838563680648804
visibility: 0.9999502301216125
","x: 217.0850372314453
y: 358.36590576171875
z: -0.4622565805912018
visibility: 0.9998406767845154
","x: 217.52685546875
y: 358.20819091796875
z: -0.46223464608192444
visibility: 0.9997979402542114
","x: 217.93569946289062
y: 357.9439697265625
z: -0.46237748861312866
visibility: 0.9998472929000854
","x: 215.58322143554688
y: 358.5045166015625
z: -0.46565088629722595
visibility: 0.9998502731323242
","x: 214.80357360839844
y: 358.3175354003906
z: -0.465785413980484
visibility: 0.9998283982276917
","x: 214.0504913330078
y: 358.00823974609375
z: -0.4657972753047943
visibility: 0.9998331665992737
","x: 216.71231079101562
y: 357.27056884765625
z: -0.3806047737598419
visibility: 0.9996820688247681
","x: 211.0077667236328
y: 356.5672607421875
z: -0.39545851945877075
visibility: 0.9996650815010071
","x: 215.66319274902344
y: 367.6249694824219
z: -0.4329257011413574
visibility: 0.9997352361679077
","x: 213.81536865234375
y: 367.4185791015625
z: -0.4371919631958008
visibility: 0.9996097683906555
","x: 225.1934356689453
y: 376.727294921875
z: -0.28667759895324707
visibility: 0.9998025894165039
","x: 193.64041137695312
y: 371.99114990234375
z: -0.28881576657295227
visibility: 0.9996722340583801
","x: 245.4032440185547
y: 384.6493835449219
z: -0.2810179591178894
visibility: 0.9964724779129028
","x: 173.1285400390625
y: 371.4630126953125
z: -0.26906198263168335
visibility: 0.9974254369735718
","x: 270.4207458496094
y: 384.8410339355469
z: -0.3514307141304016
visibility: 0.9913219213485718
","x: 151.93392944335938
y: 365.5855712890625
z: -0.30615782737731934
visibility: 0.9919717311859131
","x: 279.088623046875
y: 386.1864013671875
z: -0.36891084909439087
visibility: 0.9739933609962463
","x: 146.4202880859375
y: 365.53155517578125
z: -0.3185332417488098
visibility: 0.9755210280418396
","x: 279.3077392578125
y: 384.7020263671875
z: -0.393471360206604
visibility: 0.9800674319267273
","x: 146.09776306152344
y: 363.862548828125
z: -0.3434290587902069
visibility: 0.9796333312988281
","x: 276.7325134277344
y: 384.7596740722656
z: -0.3653793931007385
visibility: 0.9807047843933105
","x: 148.1484832763672
y: 364.3249206542969
z: -0.31856292486190796
visibility: 0.9790605902671814
","x: 220.16192626953125
y: 425.7591552734375
z: -0.005967583507299423
visibility: 0.9993873834609985
","x: 205.5319061279297
y: 428.25762939453125
z: 0.006077942438423634
visibility: 0.9990050196647644
","x: 231.24725341796875
y: 479.04766845703125
z: -0.11212383210659027
visibility: 0.9792198538780212
","x: 195.16937255859375
y: 482.8905944824219
z: -0.08738480508327484
visibility: 0.9873011112213135
","x: 237.43060302734375
y: 532.6007690429688
z: -0.04096774384379387
visibility: 0.9783554673194885
","x: 200.0907440185547
y: 535.492919921875
z: 0.030349817126989365
visibility: 0.9691689014434814
","x: 235.1080780029297
y: 543.07568359375
z: -0.0405912771821022
visibility: 0.9364194273948669
","x: 203.66127014160156
y: 544.0401611328125
z: 0.03659605234861374
visibility: 0.837337851524353
","x: 247.67225646972656
y: 549.43701171875
z: -0.13678088784217834
visibility: 0.9823625683784485
","x: 191.1393280029297
y: 551.595947265625
z: -0.04686736315488815
visibility: 0.9732062816619873
",,,,,,,,,,,,,,,,,,,,,,,,,,,,,,,,,,,,,,,,,,
2,"x: 224.0640106201172
y: 363.38800048828125
z: -0.4848689138889313
visibility: 0.9999513030052185
","x: 225.2900848388672
y: 357.4780578613281
z: -0.48138293623924255
visibility: 0.9998462796211243
","x: 226.481201171875
y: 357.2412414550781
z: -0.4813484251499176
visibility: 0.9998060464859009
","x: 227.720947265625
y: 357.1250915527344
z: -0.4814344346523285
visibility: 0.9998481273651123
","x: 222.13665771484375
y: 357.554443359375
z: -0.47913408279418945
visibility: 0.999856173992157
","x: 221.04507446289062
y: 357.2167663574219
z: -0.4792533814907074
visibility: 0.9998365640640259
","x: 219.9312744140625
y: 356.9479675292969
z: -0.4792777895927429
visibility: 0.9998419284820557
","x: 229.2091064453125
y: 357.653564453125
z: -0.4011154770851135
visibility: 0.999683678150177
","x: 217.3450469970703
y: 357.4772644042969
z: -0.3908175528049469
visibility: 0.9996883273124695
","x: 225.5298309326172
y: 367.69976806640625
z: -0.4495253562927246
visibility: 0.9997535943984985
","x: 222.19090270996094
y: 367.6783752441406
z: -0.44670701026916504
visibility: 0.9996432662010193
","x: 239.55056762695312
y: 380.9883117675781
z: -0.29503965377807617
visibility: 0.9998152852058411
","x: 207.55398559570312
y: 376.7432861328125
z: -0.26778700947761536
visibility: 0.9997043013572693
","x: 243.9312744140625
y: 416.18408203125
z: -0.2700663208961487
visibility: 0.9954401850700378
","x: 205.01907348632812
y: 418.76470947265625
z: -0.25209754705429077
visibility: 0.9969736337661743
","x: 243.4871826171875
y: 452.6856994628906
z: -0.3076445162296295
visibility: 0.9881207942962646
","x: 197.49984741210938
y: 457.9507751464844
z: -0.28058964014053345
visibility: 0.991765022277832
","x: 245.45620727539062
y: 462.8719787597656
z: -0.32945650815963745
visibility: 0.9687379598617554
","x: 193.5128173828125
y: 468.8403015136719
z: -0.29980698227882385
visibility: 0.9755789637565613
","x: 242.67071533203125
y: 462.4554138183594
z: -0.3484395146369934
visibility: 0.9748029708862305
","x: 193.93772888183594
y: 469.8979187011719
z: -0.32877248525619507
visibility: 0.9795984625816345
","x: 241.46615600585938
y: 459.7607727050781
z: -0.3161279559135437
visibility: 0.9733418226242065
","x: 195.77874755859375
y: 466.48626708984375
z: -0.29346269369125366
visibility: 0.9789488911628723
","x: 234.04440307617188
y: 425.3338928222656
z: -0.005779792554676533
visibility: 0.9994449019432068
","x: 215.96774291992188
y: 426.391357421875
z: 0.005807668901979923
visibility: 0.9991020560264587
","x: 244.03659057617188
y: 477.4061584472656
z: -0.07031718641519547
visibility: 0.9800575375556946
","x: 201.27108764648438
y: 478.5162353515625
z: -0.07550303637981415
visibility: 0.9868273735046387
","x: 259.4779052734375
y: 530.3558959960938
z: 0.022508487105369568
visibility: 0.979941725730896
","x: 200.55006408691406
y: 535.6314697265625
z: 0.029740283265709877
visibility: 0.9714657664299011
","x: 259.090576171875
y: 539.3627319335938
z: 0.0255659818649292
visibility: 0.9361310601234436
","x: 203.36863708496094
y: 545.08349609375
z: 0.034625597298145294
visibility: 0.8477843403816223
","x: 267.46002197265625
y: 547.2142944335938
z: -0.06914420425891876
visibility: 0.9827674627304077
","x: 190.35206604003906
y: 551.589111328125
z: -0.06446270644664764
visibility: 0.9744774103164673
","x: 242.79095458984375
y: 456.3150329589844
z: 0.0
","x: 239.97975158691406
y: 457.3379211425781
z: -0.006425527855753899
","x: 238.02908325195312
y: 461.136962890625
z: -0.010004895739257336
","x: 237.530029296875
y: 465.2286376953125
z: -0.012459835968911648
","x: 238.2706756591797
y: 468.0667724609375
z: -0.014177720062434673
","x: 242.64312744140625
y: 468.6040954589844
z: -0.009189672768115997
","x: 239.00790405273438
y: 473.139404296875
z: -0.011890482157468796
","x: 238.00228881835938
y: 469.88323974609375
z: -0.012592688202857971
","x: 238.68017578125
y: 467.1282653808594
z: -0.012841268442571163
","x: 244.0116729736328
y: 469.44549560546875
z: -0.007092019077390432
","x: 240.06765747070312
y: 473.32965087890625
z: -0.009686455130577087
","x: 239.02850341796875
y: 470.5651550292969
z: -0.009678023867309093
","x: 239.3867950439453
y: 468.7973327636719
z: -0.009650606662034988
","x: 244.44180297851562
y: 469.6385498046875
z: -0.005288033280521631
","x: 240.7801971435547
y: 473.57989501953125
z: -0.007495755795389414
","x: 239.82452392578125
y: 471.4687805175781
z: -0.007489736191928387
","x: 240.1109161376953
y: 469.9885559082031
z: -0.007499421946704388
","x: 244.65170288085938
y: 469.42254638671875
z: -0.003940942697227001
","x: 242.00421142578125
y: 473.0583190917969
z: -0.005470954347401857
","x: 240.97105407714844
y: 472.4598693847656
z: -0.005825500003993511
","x: 240.75930786132812
y: 472.0980224609375
z: -0.005983852315694094
",,,,,,,,,,,,,,,,,,,,,
3,"x: 224.0640106201172
y: 363.38800048828125
z: -0.4848689138889313
visibility: 0.9999513030052185
","x: 225.2900848388672
y: 357.4780578613281
z: -0.48138293623924255
visibility: 0.9998462796211243
","x: 226.481201171875
y: 357.2412414550781
z: -0.4813484251499176
visibility: 0.9998060464859009
","x: 227.720947265625
y: 357.1250915527344
z: -0.4814344346523285
visibility: 0.9998481273651123
","x: 222.13665771484375
y: 357.554443359375
z: -0.47913408279418945
visibility: 0.999856173992157
","x: 221.04507446289062
y: 357.2167663574219
z: -0.4792533814907074
visibility: 0.9998365640640259
","x: 219.9312744140625
y: 356.9479675292969
z: -0.4792777895927429
visibility: 0.9998419284820557
","x: 229.2091064453125
y: 357.653564453125
z: -0.4011154770851135
visibility: 0.999683678150177
","x: 217.3450469970703
y: 357.4772644042969
z: -0.3908175528049469
visibility: 0.9996883273124695
","x: 225.5298309326172
y: 367.69976806640625
z: -0.4495253562927246
visibility: 0.9997535943984985
","x: 222.19090270996094
y: 367.6783752441406
z: -0.44670701026916504
visibility: 0.9996432662010193
","x: 239.55056762695312
y: 380.9883117675781
z: -0.29503965377807617
visibility: 0.9998152852058411
","x: 207.55398559570312
y: 376.7432861328125
z: -0.26778700947761536
visibility: 0.9997043013572693
","x: 243.9312744140625
y: 416.18408203125
z: -0.2700663208961487
visibility: 0.9954401850700378
","x: 205.01907348632812
y: 418.76470947265625
z: -0.25209754705429077
visibility: 0.9969736337661743
","x: 243.4871826171875
y: 452.6856994628906
z: -0.3076445162296295
visibility: 0.9881207942962646
","x: 197.49984741210938
y: 457.9507751464844
z: -0.28058964014053345
visibility: 0.991765022277832
","x: 245.45620727539062
y: 462.8719787597656
z: -0.32945650815963745
visibility: 0.9687379598617554
","x: 193.5128173828125
y: 468.8403015136719
z: -0.29980698227882385
visibility: 0.9755789637565613
","x: 242.67071533203125
y: 462.4554138183594
z: -0.3484395146369934
visibility: 0.9748029708862305
","x: 193.93772888183594
y: 469.8979187011719
z: -0.32877248525619507
visibility: 0.9795984625816345
","x: 241.46615600585938
y: 459.7607727050781
z: -0.3161279559135437
visibility: 0.9733418226242065
","x: 195.77874755859375
y: 466.48626708984375
z: -0.29346269369125366
visibility: 0.9789488911628723
","x: 234.04440307617188
y: 425.3338928222656
z: -0.005779792554676533
visibility: 0.9994449019432068
","x: 215.96774291992188
y: 426.391357421875
z: 0.005807668901979923
visibility: 0.9991020560264587
","x: 244.03659057617188
y: 477.4061584472656
z: -0.07031718641519547
visibility: 0.9800575375556946
","x: 201.27108764648438
y: 478.5162353515625
z: -0.07550303637981415
visibility: 0.9868273735046387
","x: 259.4779052734375
y: 530.3558959960938
z: 0.022508487105369568
visibility: 0.979941725730896
","x: 200.55006408691406
y: 535.6314697265625
z: 0.029740283265709877
visibility: 0.9714657664299011
","x: 259.090576171875
y: 539.3627319335938
z: 0.0255659818649292
visibility: 0.9361310601234436
","x: 203.36863708496094
y: 545.08349609375
z: 0.034625597298145294
visibility: 0.8477843403816223
","x: 267.46002197265625
y: 547.2142944335938
z: -0.06914420425891876
visibility: 0.9827674627304077
","x: 190.35206604003906
y: 551.589111328125
z: -0.06446270644664764
visibility: 0.9744774103164673
","x: 242.79095458984375
y: 456.3150329589844
z: 0.0
","x: 239.97975158691406
y: 457.3379211425781
z: -0.006425527855753899
","x: 238.02908325195312
y: 461.136962890625
z: -0.010004895739257336
","x: 237.530029296875
y: 465.2286376953125
z: -0.012459835968911648
","x: 238.2706756591797
y: 468.0667724609375
z: -0.014177720062434673
","x: 242.64312744140625
y: 468.6040954589844
z: -0.009189672768115997
","x: 239.00790405273438
y: 473.139404296875
z: -0.011890482157468796
","x: 238.00228881835938
y: 469.88323974609375
z: -0.012592688202857971
","x: 238.68017578125
y: 467.1282653808594
z: -0.012841268442571163
","x: 244.0116729736328
y: 469.44549560546875
z: -0.007092019077390432
","x: 240.06765747070312
y: 473.32965087890625
z: -0.009686455130577087
","x: 239.02850341796875
y: 470.5651550292969
z: -0.009678023867309093
","x: 239.3867950439453
y: 468.7973327636719
z: -0.009650606662034988
","x: 244.44180297851562
y: 469.6385498046875
z: -0.005288033280521631
","x: 240.7801971435547
y: 473.57989501953125
z: -0.007495755795389414
","x: 239.82452392578125
y: 471.4687805175781
z: -0.007489736191928387
","x: 240.1109161376953
y: 469.9885559082031
z: -0.007499421946704388
","x: 244.65170288085938
y: 469.42254638671875
z: -0.003940942697227001
","x: 242.00421142578125
y: 473.0583190917969
z: -0.005470954347401857
","x: 240.97105407714844
y: 472.4598693847656
z: -0.005825500003993511
","x: 240.75930786132812
y: 472.0980224609375
z: -0.005983852315694094
",,,,,,,,,,,,,,,,,,,,,
4,"x: 237.90298461914062
y: 347.26544189453125
z: -0.1800776571035385
visibility: 0.9997813105583191
","x: 237.62374877929688
y: 346.702392578125
z: -0.16849499940872192
visibility: 0.9997603893280029
","x: 238.26385498046875
y: 346.995361328125
z: -0.16853606700897217
visibility: 0.9997076392173767
","x: 238.9490509033203
y: 347.0504455566406
z: -0.16862401366233826
visibility: 0.9997605681419373
","x: 235.62648010253906
y: 349.25604248046875
z: -0.1775083839893341
visibility: 0.9997068643569946
","x: 234.7819061279297
y: 352.49615478515625
z: -0.1775389164686203
visibility: 0.999660849571228
","x: 233.8454132080078
y: 356.1478271484375
z: -0.17759373784065247
visibility: 0.9996368885040283
","x: 239.01937866210938
y: 357.2993469238281
z: -0.08628512173891068
visibility: 0.9995626211166382
","x: 230.86582946777344
y: 346.935791015625
z: -0.1267712414264679
visibility: 0.9995161294937134
","x: 239.72305297851562
y: 354.67791748046875
z: -0.14683941006660461
visibility: 0.9995065927505493
","x: 236.63746643066406
y: 356.68865966796875
z: -0.15875953435897827
visibility: 0.9992623925209045
","x: 247.3172607421875
y: 370.405029296875
z: -0.014692445285618305
visibility: 0.9995492100715637
","x: 224.4993438720703
y: 372.3717041015625
z: -0.1092642992734909
visibility: 0.9988868832588196
","x: 251.8734130859375
y: 395.9414978027344
z: -0.07577460259199142
visibility: 0.9461546540260315
","x: 232.11471557617188
y: 400.4507751464844
z: -0.193150594830513
visibility: 0.9619329571723938
","x: 248.5848388671875
y: 369.3110656738281
z: -0.206719309091568
visibility: 0.9593530893325806
","x: 242.8008575439453
y: 386.0732421875
z: -0.2749970555305481
visibility: 0.9411373734474182
","x: 250.30047607421875
y: 358.126953125
z: -0.22960861027240753
visibility: 0.9359769821166992
","x: 242.7647247314453
y: 373.6102600097656
z: -0.2980700731277466
visibility: 0.9183362722396851
","x: 250.5485382080078
y: 354.9725341796875
z: -0.22930459678173065
visibility: 0.941731870174408
","x: 243.86630249023438
y: 374.557373046875
z: -0.29439178109169006
visibility: 0.9199234843254089
","x: 249.33709716796875
y: 359.2146301269531
z: -0.21042534708976746
visibility: 0.9338428974151611
","x: 243.26809692382812
y: 376.29144287109375
z: -0.2754215598106384
visibility: 0.9090986251831055
","x: 243.79946899414062
y: 428.17425537109375
z: 0.023436179384589195
visibility: 0.9994696974754333
","x: 227.22779846191406
y: 428.9845275878906
z: -0.023400429636240005
visibility: 0.9990928173065186
","x: 259.5621337890625
y: 477.4810485839844
z: -0.10355504602193832
visibility: 0.9811978936195374
","x: 210.4259033203125
y: 481.19488525390625
z: -0.06884278357028961
visibility: 0.9876933097839355
","x: 260.4724426269531
y: 530.547607421875
z: 0.0029426240362226963
visibility: 0.9810411334037781
","x: 199.2982635498047
y: 534.9790649414062
z: 0.01629370078444481
visibility: 0.9738976955413818
","x: 257.66778564453125
y: 539.759521484375
z: 0.009556896984577179
visibility: 0.9390724301338196
","x: 201.405029296875
y: 543.5826416015625
z: 0.020696543157100677
visibility: 0.8535737991333008
","x: 270.7008972167969
y: 545.8077392578125
z: -0.06522681564092636
visibility: 0.9822908043861389
","x: 190.72686767578125
y: 551.583251953125
z: -0.060173772275447845
visibility: 0.9753892421722412
",,,,,,,,,,,,,,,,,,,,,,,,,,,,,,,,,,,,,,,,,,
5,"x: 243.47683715820312
y: 331.89276123046875
z: -0.14270281791687012
visibility: 0.9998027682304382
","x: 243.47018432617188
y: 328.333251953125
z: -0.12610894441604614
visibility: 0.999783992767334
","x: 244.1105194091797
y: 328.3099670410156
z: -0.12612289190292358
visibility: 0.9997361898422241
","x: 244.77748107910156
y: 328.25189208984375
z: -0.1261598765850067
visibility: 0.9997838735580444
","x: 241.26608276367188
y: 329.75958251953125
z: -0.13525936007499695
visibility: 0.9997358322143555
","x: 240.21315002441406
y: 331.2902526855469
z: -0.13528409600257874
visibility: 0.9996944069862366
","x: 238.99319458007812
y: 333.2583312988281
z: -0.13529545068740845
visibility: 0.9996728301048279
","x: 245.55662536621094
y: 335.2275390625
z: -0.03762993961572647
visibility: 0.9996058344841003
","x: 235.9059600830078
y: 335.1181640625
z: -0.0785655528306961
visibility: 0.9995642900466919
","x: 245.03111267089844
y: 337.2032470703125
z: -0.10947773605585098
visibility: 0.9995554089546204
","x: 242.1617889404297
y: 339.33935546875
z: -0.12148646265268326
visibility: 0.999335527420044
","x: 254.66525268554688
y: 356.8840026855469
z: 0.01370781846344471
visibility: 0.999558687210083
","x: 229.2093963623047
y: 358.90380859375
z: -0.08998443931341171
visibility: 0.9989669919013977
","x: 272.67340087890625
y: 347.1641540527344
z: -0.0946802943944931
visibility: 0.9502408504486084
","x: 233.4496307373047
y: 383.5326843261719
z: -0.2390119582414627
visibility: 0.964988112449646
","x: 264.21453857421875
y: 309.0099792480469
z: -0.2216789424419403
visibility: 0.9616581201553345
","x: 228.27212524414062
y: 337.268798828125
z: -0.3714143931865692
visibility: 0.9464198350906372
","x: 260.4598693847656
y: 299.7876281738281
z: -0.2368110865354538
visibility: 0.9367712140083313
","x: 225.26565551757812
y: 330.6175231933594
z: -0.4035874009132385
visibility: 0.9250136017799377
","x: 258.4158630371094
y: 300.248046875
z: -0.23961767554283142
visibility: 0.941149115562439
","x: 225.57818603515625
y: 330.610595703125
z: -0.39660167694091797
visibility: 0.9262572526931763
","x: 259.4349365234375
y: 303.8019104003906
z: -0.22497999668121338
visibility: 0.9322933554649353
","x: 226.95152282714844
y: 332.70062255859375
z: -0.37297821044921875
visibility: 0.9153302907943726
","x: 250.23291015625
y: 431.8240051269531
z: 0.028590410947799683
visibility: 0.9995200037956238
","x: 232.65640258789062
y: 431.9677429199219
z: -0.028630364686250687
visibility: 0.9991769790649414
","x: 265.56353759765625
y: 478.39276123046875
z: -0.09361483156681061
visibility: 0.9829434752464294
","x: 214.1461944580078
y: 484.15911865234375
z: -0.05572330951690674
visibility: 0.9888315200805664
","x: 260.9047546386719
y: 530.0692138671875
z: 0.03092697262763977
visibility: 0.9824835062026978
","x: 198.98109436035156
y: 533.76904296875
z: 0.0492570623755455
visibility: 0.976375937461853
","x: 257.6188049316406
y: 539.0711669921875
z: 0.03909354656934738
visibility: 0.9438580274581909
","x: 200.00576782226562
y: 540.9952392578125
z: 0.05584784224629402
visibility: 0.8637789487838745
","x: 272.0885009765625
y: 545.0777587890625
z: -0.045596811920404434
visibility: 0.9832193851470947
","x: 190.5807647705078
y: 551.3917236328125
z: -0.023015284910798073
visibility: 0.9772714972496033
",,,,,,,,,,,,,,,,,,,,,,,,,,,,,,,,,,,,,,,,,,
6,"x: 250.68411254882812
y: 320.1427001953125
z: -0.11335431039333344
visibility: 0.999822199344635
","x: 251.10037231445312
y: 316.8252258300781
z: -0.09537610411643982
visibility: 0.9998051524162292
","x: 251.84986877441406
y: 317.20526123046875
z: -0.09532830119132996
visibility: 0.9997617602348328
","x: 252.65676879882812
y: 317.6059265136719
z: -0.09531722962856293
visibility: 0.999804675579071
","x: 248.64910888671875
y: 316.68792724609375
z: -0.10073256492614746
visibility: 0.9997620582580566
","x: 247.59616088867188
y: 317.2401123046875
z: -0.10077252238988876
visibility: 0.9997247457504272
","x: 246.40744018554688
y: 318.1036376953125
z: -0.10078482329845428
visibility: 0.99970543384552
","x: 253.05401611328125
y: 322.7102355957031
z: -0.012065906077623367
visibility: 0.9996432065963745
","x: 243.5713348388672
y: 323.56866455078125
z: -0.03748726099729538
visibility: 0.9996077418327332
","x: 252.197021484375
y: 326.3564453125
z: -0.0837136059999466
visibility: 0.9995983242988586
","x: 248.91860961914062
y: 326.65325927734375
z: -0.0912424772977829
visibility: 0.9994015693664551
","x: 261.3504943847656
y: 350.62884521484375
z: 0.033813636749982834
visibility: 0.9995627999305725
","x: 234.8339385986328
y: 354.1375732421875
z: -0.03747282922267914
visibility: 0.999068021774292
","x: 270.85601806640625
y: 344.975830078125
z: 0.012152423150837421
visibility: 0.9458158612251282
","x: 217.96116638183594
y: 365.08734130859375
z: -0.13996414840221405
visibility: 0.9684188365936279
","x: 269.220703125
y: 326.0070495605469
z: -0.008584791794419289
visibility: 0.9537063837051392
","x: 230.90960693359375
y: 335.13592529296875
z: -0.19433362782001495
visibility: 0.95118647813797
","x: 268.2154541015625
y: 321.5466003417969
z: -0.014545951969921589
visibility: 0.9148931503295898
","x: 235.13548278808594
y: 332.1380310058594
z: -0.21091696619987488
visibility: 0.9291319847106934
","x: 266.2167663574219
y: 320.83404541015625
z: -0.007487689610570669
visibility: 0.9160395264625549
","x: 237.015380859375
y: 332.3379211425781
z: -0.19377416372299194
visibility: 0.9295194149017334
","x: 266.11895751953125
y: 323.141357421875
z: -0.007084809243679047
visibility: 0.9067975878715515
","x: 235.73143005371094
y: 334.2111511230469
z: -0.18804097175598145
visibility: 0.9177411198616028
","x: 258.7884826660156
y: 432.68182373046875
z: 0.02917545661330223
visibility: 0.9995633363723755
","x: 242.5289764404297
y: 431.8278503417969
z: -0.029279246926307678
visibility: 0.9992579221725464
","x: 270.4907531738281
y: 481.697265625
z: 0.030335525050759315
visibility: 0.983794629573822
","x: 227.82115173339844
y: 486.3187255859375
z: -0.07610256224870682
visibility: 0.9898658394813538
","x: 261.6135559082031
y: 529.54248046875
z: 0.20560193061828613
visibility: 0.9832469820976257
","x: 204.97113037109375
y: 529.1700439453125
z: -0.010360236279666424
visibility: 0.9786432385444641
","x: 257.93865966796875
y: 538.0250854492188
z: 0.21979184448719025
visibility: 0.9454069137573242
","x: 202.47418212890625
y: 532.3876953125
z: -0.006660160608589649
visibility: 0.8740088939666748
","x: 271.8500671386719
y: 544.9125366210938
z: 0.1672949641942978
visibility: 0.9832103848457336
","x: 195.9257354736328
y: 551.3076171875
z: -0.08653964102268219
visibility: 0.9792534708976746
",,,,,,,,,,,,,,,,,,,,,,,,,,,,,,,,,,,,,,,,,,
7,"x: 256.62249755859375
y: 321.01361083984375
z: -0.13554666936397552
visibility: 0.999839186668396
","x: 255.6704559326172
y: 315.89031982421875
z: -0.1196819394826889
visibility: 0.999822199344635
","x: 255.8743896484375
y: 315.97509765625
z: -0.11968936026096344
visibility: 0.9997811913490295
","x: 256.1273193359375
y: 316.12384033203125
z: -0.11972665786743164
visibility: 0.9998199939727783
","x: 254.3589630126953
y: 315.9205322265625
z: -0.13118943572044373
visibility: 0.9997849464416504
","x: 253.51942443847656
y: 316.1120910644531
z: -0.13122761249542236
visibility: 0.9997513890266418
","x: 252.57591247558594
y: 316.4439697265625
z: -0.13125428557395935
visibility: 0.9997339844703674
","x: 254.58306884765625
y: 319.1881408691406
z: -0.027977805584669113
visibility: 0.9996715784072876
","x: 249.32513427734375
y: 319.5673522949219
z: -0.08181964606046677
visibility: 0.9996461272239685
","x: 256.4627685546875
y: 326.4898681640625
z: -0.10050302743911743
visibility: 0.9996328949928284
","x: 255.09649658203125
y: 326.7476806640625
z: -0.1162598580121994
visibility: 0.9994591474533081
","x: 261.3272705078125
y: 341.97711181640625
z: 0.048870980739593506
visibility: 0.99958735704422
","x: 240.60296630859375
y: 349.53021240234375
z: -0.07703208923339844
visibility: 0.9991458654403687
","x: 276.9572448730469
y: 335.6502990722656
z: 0.11705495417118073
visibility: 0.9251390695571899
","x: 228.58258056640625
y: 364.82867431640625
z: -0.1728634536266327
visibility: 0.9679630994796753
","x: 281.3941650390625
y: 334.33404541015625
z: 0.13541774451732635
visibility: 0.9457422494888306
","x: 226.7344207763672
y: 357.9980163574219
z: -0.24905750155448914
visibility: 0.9474805593490601
","x: 282.2554931640625
y: 335.75531005859375
z: 0.13709011673927307
visibility: 0.9031956791877747
","x: 225.0951385498047
y: 358.2983093261719
z: -0.28543534874916077
visibility: 0.9244185090065002
","x: 280.2808532714844
y: 335.8460693359375
z: 0.12635371088981628
visibility: 0.9055323004722595
","x: 227.5970916748047
y: 357.56756591796875
z: -0.26191264390945435
visibility: 0.9252731800079346
","x: 278.572509765625
y: 336.11187744140625
z: 0.13082298636436462
visibility: 0.8969303369522095
","x: 228.12489318847656
y: 357.89404296875
z: -0.23527434468269348
visibility: 0.9119187593460083
","x: 266.14215087890625
y: 432.5592041015625
z: 0.05249258875846863
visibility: 0.9995739459991455
","x: 252.61099243164062
y: 431.7558288574219
z: -0.052603017538785934
visibility: 0.9992809295654297
","x: 271.68475341796875
y: 482.28082275390625
z: 0.019978221505880356
visibility: 0.9782153964042664
","x: 262.78973388671875
y: 486.2911682128906
z: -0.10976745933294296
visibility: 0.989790141582489
","x: 260.93707275390625
y: 530.4041137695312
z: 0.1443636119365692
visibility: 0.9802361130714417
","x: 239.57064819335938
y: 527.3695068359375
z: -0.010552870109677315
visibility: 0.9800669550895691
","x: 257.4261474609375
y: 538.8635864257812
z: 0.1533779501914978
visibility: 0.9430853128433228
","x: 231.99676513671875
y: 530.7264404296875
z: -0.002577038947492838
visibility: 0.8806548118591309
","x: 271.31976318359375
y: 545.2333374023438
z: 0.1068272739648819
visibility: 0.9814834594726562
","x: 238.17984008789062
y: 553.754150390625
z: -0.0616375133395195
visibility: 0.9803004860877991
",,,,,,,,,,,,,,,,,,,,,,,,,,,,,,,,,,,,,,,,,,
8,"x: 255.9281463623047
y: 322.49713134765625
z: -0.08445774763822556
visibility: 0.9998542666435242
","x: 255.26419067382812
y: 317.6322326660156
z: -0.07132063806056976
visibility: 0.9998366236686707
","x: 255.39227294921875
y: 317.64434814453125
z: -0.071327805519104
visibility: 0.9997977614402771
","x: 255.55091857910156
y: 317.6925048828125
z: -0.07132880389690399
visibility: 0.9998335242271423
","x: 254.02810668945312
y: 317.5619201660156
z: -0.08487316966056824
visibility: 0.9998052716255188
","x: 253.2368927001953
y: 317.5995178222656
z: -0.08489491045475006
visibility: 0.9997749328613281
","x: 252.43028259277344
y: 317.7420654296875
z: -0.08491776883602142
visibility: 0.999759316444397
","x: 253.82821655273438
y: 320.25128173828125
z: -0.004430911969393492
visibility: 0.9996970891952515
","x: 249.5298614501953
y: 320.6907958984375
z: -0.0660763680934906
visibility: 0.9996805787086487
","x: 255.33795166015625
y: 327.3252868652344
z: -0.058705806732177734
visibility: 0.999660849571228
","x: 254.05429077148438
y: 327.3367004394531
z: -0.07645536959171295
visibility: 0.9995098114013672
","x: 260.7109069824219
y: 343.501708984375
z: 0.046074528247117996
visibility: 0.9996106624603271
","x: 241.9497833251953
y: 350.9207458496094
z: -0.07296621054410934
visibility: 0.9992202520370483
","x: 275.840576171875
y: 324.23577880859375
z: 0.07778491079807281
visibility: 0.9228683710098267
","x: 222.80899047851562
y: 361.9671936035156
z: -0.11394164711236954
visibility: 0.9708069562911987
","x: 290.78570556640625
y: 300.8167419433594
z: 0.05155764892697334
visibility: 0.9463273882865906
","x: 207.55813598632812
y: 350.2341003417969
z: -0.14902928471565247
visibility: 0.9511024355888367
","x: 296.1666564941406
y: 296.96002197265625
z: 0.04692768305540085
visibility: 0.9039877653121948
","x: 204.13624572753906
y: 349.0988464355469
z: -0.1604984700679779
visibility: 0.9278892874717712
","x: 296.0583801269531
y: 295.6710510253906
z: 0.033292051404714584
visibility: 0.9068993330001831
","x: 205.23028564453125
y: 345.87847900390625
z: -0.17439860105514526
visibility: 0.9290322661399841
","x: 294.1282958984375
y: 296.8255615234375
z: 0.042404163628816605
visibility: 0.9000397324562073
","x: 206.25746154785156
y: 346.7802734375
z: -0.1560349464416504
visibility: 0.9168260097503662
","x: 267.7747802734375
y: 431.1410827636719
z: 0.046598322689533234
visibility: 0.9995995163917542
","x: 262.8873596191406
y: 432.53765869140625
z: -0.04673277959227562
visibility: 0.9993208050727844
","x: 276.4871826171875
y: 482.2782897949219
z: 0.03428921103477478
visibility: 0.9575986266136169
","x: 283.7060546875
y: 473.9774169921875
z: -0.07361932098865509
visibility: 0.9882024526596069
","x: 265.0326232910156
y: 530.5873413085938
z: 0.07796330749988556
visibility: 0.9658592939376831
","x: 266.3465576171875
y: 525.400634765625
z: 0.03377918526530266
visibility: 0.9762126803398132
","x: 259.61773681640625
y: 539.0211791992188
z: 0.07657677680253983
visibility: 0.9319908618927002
","x: 260.0784912109375
y: 532.2587890625
z: 0.04234367981553078
visibility: 0.882871150970459
","x: 269.934326171875
y: 545.4857788085938
z: 0.06209351494908333
visibility: 0.9711553454399109
","x: 268.45062255859375
y: 545.578125
z: 0.01966671831905842
visibility: 0.9762230515480042
","x: 291.7470397949219
y: 298.4310302734375
z: 0.0
","x: 294.6714172363281
y: 300.3404541015625
z: 0.0006247790879569948
","x: 297.4017639160156
y: 299.8349609375
z: -0.0007264992455020547
","x: 298.633544921875
y: 297.5320739746094
z: -0.002629335969686508
","x: 298.8246154785156
y: 295.0431823730469
z: -0.004415793344378471
","x: 299.9978942871094
y: 297.05633544921875
z: -0.001907231635414064
","x: 303.5773620605469
y: 296.29833984375
z: -0.004090078175067902
","x: 305.9774475097656
y: 295.4706115722656
z: -0.005458652041852474
","x: 307.4833679199219
y: 294.9076843261719
z: -0.006296097766608
","x: 299.5
y: 293.94781494140625
z: -0.003470394294708967
","x: 299.5743103027344
y: 293.313720703125
z: -0.005006089340895414
","x: 298.0553894042969
y: 294.7764587402344
z: -0.004242887254804373
","x: 296.87969970703125
y: 295.9293212890625
z: -0.003591926535591483
","x: 298.28228759765625
y: 291.3448486328125
z: -0.0051012723706662655
","x: 297.9807434082031
y: 291.3537292480469
z: -0.0060896482318639755
","x: 296.60723876953125
y: 292.9778747558594
z: -0.004703392740339041
","x: 295.48931884765625
y: 294.0804443359375
z: -0.003880829084664583
","x: 296.7445373535156
y: 289.24578857421875
z: -0.006917296443134546
","x: 296.499267578125
y: 289.4538269042969
z: -0.007165125105530024
","x: 295.4483642578125
y: 291.1632995605469
z: -0.0060861255042254925
","x: 294.5803527832031
y: 292.25048828125
z: -0.005348025355488062
",,,,,,,,,,,,,,,,,,,,,
9,"x: 255.9281463623047
y: 322.49713134765625
z: -0.08445774763822556
visibility: 0.9998542666435242
","x: 255.26419067382812
y: 317.6322326660156
z: -0.07132063806056976
visibility: 0.9998366236686707
","x: 255.39227294921875
y: 317.64434814453125
z: -0.071327805519104
visibility: 0.9997977614402771
","x: 255.55091857910156
y: 317.6925048828125
z: -0.07132880389690399
visibility: 0.9998335242271423
","x: 254.02810668945312
y: 317.5619201660156
z: -0.08487316966056824
visibility: 0.9998052716255188
","x: 253.2368927001953
y: 317.5995178222656
z: -0.08489491045475006
visibility: 0.9997749328613281
","x: 252.43028259277344
y: 317.7420654296875
z: -0.08491776883602142
visibility: 0.999759316444397
","x: 253.82821655273438
y: 320.25128173828125
z: -0.004430911969393492
visibility: 0.9996970891952515
","x: 249.5298614501953
y: 320.6907958984375
z: -0.0660763680934906
visibility: 0.9996805787086487
","x: 255.33795166015625
y: 327.3252868652344
z: -0.058705806732177734
visibility: 0.999660849571228
","x: 254.05429077148438
y: 327.3367004394531
z: -0.07645536959171295
visibility: 0.9995098114013672
","x: 260.7109069824219
y: 343.501708984375
z: 0.046074528247117996
visibility: 0.9996106624603271
","x: 241.9497833251953
y: 350.9207458496094
z: -0.07296621054410934
visibility: 0.9992202520370483
","x: 275.840576171875
y: 324.23577880859375
z: 0.07778491079807281
visibility: 0.9228683710098267
","x: 222.80899047851562
y: 361.9671936035156
z: -0.11394164711236954
visibility: 0.9708069562911987
","x: 290.78570556640625
y: 300.8167419433594
z: 0.05155764892697334
visibility: 0.9463273882865906
","x: 207.55813598632812
y: 350.2341003417969
z: -0.14902928471565247
visibility: 0.9511024355888367
","x: 296.1666564941406
y: 296.96002197265625
z: 0.04692768305540085
visibility: 0.9039877653121948
","x: 204.13624572753906
y: 349.0988464355469
z: -0.1604984700679779
visibility: 0.9278892874717712
","x: 296.0583801269531
y: 295.6710510253906
z: 0.033292051404714584
visibility: 0.9068993330001831
","x: 205.23028564453125
y: 345.87847900390625
z: -0.17439860105514526
visibility: 0.9290322661399841
","x: 294.1282958984375
y: 296.8255615234375
z: 0.042404163628816605
visibility: 0.9000397324562073
","x: 206.25746154785156
y: 346.7802734375
z: -0.1560349464416504
visibility: 0.9168260097503662
","x: 267.7747802734375
y: 431.1410827636719
z: 0.046598322689533234
visibility: 0.9995995163917542
","x: 262.8873596191406
y: 432.53765869140625
z: -0.04673277959227562
visibility: 0.9993208050727844
","x: 276.4871826171875
y: 482.2782897949219
z: 0.03428921103477478
visibility: 0.9575986266136169
","x: 283.7060546875
y: 473.9774169921875
z: -0.07361932098865509
visibility: 0.9882024526596069
","x: 265.0326232910156
y: 530.5873413085938
z: 0.07796330749988556
visibility: 0.9658592939376831
","x: 266.3465576171875
y: 525.400634765625
z: 0.03377918526530266
visibility: 0.9762126803398132
","x: 259.61773681640625
y: 539.0211791992188
z: 0.07657677680253983
visibility: 0.9319908618927002
","x: 260.0784912109375
y: 532.2587890625
z: 0.04234367981553078
visibility: 0.882871150970459
","x: 269.934326171875
y: 545.4857788085938
z: 0.06209351494908333
visibility: 0.9711553454399109
","x: 268.45062255859375
y: 545.578125
z: 0.01966671831905842
visibility: 0.9762230515480042
","x: 291.7470397949219
y: 298.4310302734375
z: 0.0
","x: 294.6714172363281
y: 300.3404541015625
z: 0.0006247790879569948
","x: 297.4017639160156
y: 299.8349609375
z: -0.0007264992455020547
","x: 298.633544921875
y: 297.5320739746094
z: -0.002629335969686508
","x: 298.8246154785156
y: 295.0431823730469
z: -0.004415793344378471
","x: 299.9978942871094
y: 297.05633544921875
z: -0.001907231635414064
","x: 303.5773620605469
y: 296.29833984375
z: -0.004090078175067902
","x: 305.9774475097656
y: 295.4706115722656
z: -0.005458652041852474
","x: 307.4833679199219
y: 294.9076843261719
z: -0.006296097766608
","x: 299.5
y: 293.94781494140625
z: -0.003470394294708967
","x: 299.5743103027344
y: 293.313720703125
z: -0.005006089340895414
","x: 298.0553894042969
y: 294.7764587402344
z: -0.004242887254804373
","x: 296.87969970703125
y: 295.9293212890625
z: -0.003591926535591483
","x: 298.28228759765625
y: 291.3448486328125
z: -0.0051012723706662655
","x: 297.9807434082031
y: 291.3537292480469
z: -0.0060896482318639755
","x: 296.60723876953125
y: 292.9778747558594
z: -0.004703392740339041
","x: 295.48931884765625
y: 294.0804443359375
z: -0.003880829084664583
","x: 296.7445373535156
y: 289.24578857421875
z: -0.006917296443134546
","x: 296.499267578125
y: 289.4538269042969
z: -0.007165125105530024
","x: 295.4483642578125
y: 291.1632995605469
z: -0.0060861255042254925
","x: 294.5803527832031
y: 292.25048828125
z: -0.005348025355488062
",,,,,,,,,,,,,,,,,,,,,
10,"x: 250.94839477539062
y: 323.8882751464844
z: -0.11252578347921371
visibility: 0.9998674988746643
","x: 249.94053649902344
y: 318.9911804199219
z: -0.09930212050676346
visibility: 0.9998466372489929
","x: 250.36402893066406
y: 318.9661560058594
z: -0.09932173043489456
visibility: 0.9998103380203247
","x: 250.82679748535156
y: 318.9107971191406
z: -0.0993255153298378
visibility: 0.9998420476913452
","x: 248.05975341796875
y: 318.4808349609375
z: -0.11025512218475342
visibility: 0.9998219609260559
","x: 247.19378662109375
y: 317.937255859375
z: -0.11030042171478271
visibility: 0.9997944831848145
","x: 246.28489685058594
y: 318.2835998535156
z: -0.11032193899154663
visibility: 0.999780535697937
","x: 249.90011596679688
y: 321.1969299316406
z: -0.023849699646234512
visibility: 0.9997113347053528
","x: 243.47982788085938
y: 322.15924072265625
z: -0.07362771779298782
visibility: 0.9997103214263916
","x: 252.20083618164062
y: 328.6585998535156
z: -0.08290017396211624
visibility: 0.9996893405914307
","x: 249.82736206054688
y: 328.96014404296875
z: -0.09719006717205048
visibility: 0.9995565414428711
","x: 261.4935302734375
y: 338.45587158203125
z: 0.03248467296361923
visibility: 0.9996375441551208
","x: 238.4186553955078
y: 353.19219970703125
z: -0.06983239203691483
visibility: 0.9992960691452026
","x: 273.9197082519531
y: 310.8990173339844
z: 0.04129957780241966
visibility: 0.9296396970748901
","x: 216.3395233154297
y: 363.6054992675781
z: -0.09135933220386505
visibility: 0.9735702276229858
","x: 284.87060546875
y: 276.2029113769531
z: -0.01012035459280014
visibility: 0.9504591822624207
","x: 198.1501922607422
y: 356.87744140625
z: -0.1405056267976761
visibility: 0.9551661610603333
","x: 288.72479248046875
y: 269.4275817871094
z: -0.022238757461309433
visibility: 0.9100571274757385
","x: 191.0277862548828
y: 357.1197814941406
z: -0.15812012553215027
visibility: 0.9324649572372437
","x: 288.8228454589844
y: 268.15679931640625
z: -0.036640338599681854
visibility: 0.9130463600158691
","x: 189.67532348632812
y: 355.3739929199219
z: -0.17768283188343048
visibility: 0.9338917136192322
","x: 287.47265625
y: 270.8223571777344
z: -0.02096656709909439
visibility: 0.9072726964950562
","x: 191.9540557861328
y: 355.789794921875
z: -0.1516718566417694
visibility: 0.9228643178939819
","x: 275.5115966796875
y: 428.1506652832031
z: 0.04952766373753548
visibility: 0.9996095895767212
","x: 264.424072265625
y: 432.04425048828125
z: -0.04957791790366173
visibility: 0.9993853569030762
","x: 276.625
y: 481.9958801269531
z: 0.08620475232601166
visibility: 0.9559793472290039
","x: 289.14923095703125
y: 468.7138366699219
z: -0.17139722406864166
visibility: 0.9890343546867371
","x: 261.6620178222656
y: 530.6860961914062
z: 0.2213599681854248
visibility: 0.9672515988349915
","x: 303.3267517089844
y: 522.1599731445312
z: -0.13728860020637512
visibility: 0.9784553050994873
","x: 257.14630126953125
y: 539.4524536132812
z: 0.232007697224617
visibility: 0.9369663596153259
","x: 302.2447814941406
y: 528.672607421875
z: -0.13724160194396973
visibility: 0.8940796256065369
","x: 272.2590026855469
y: 545.4957275390625
z: 0.18111416697502136
visibility: 0.9716590642929077
","x: 312.4270935058594
y: 544.1774291992188
z: -0.22181575000286102
visibility: 0.9783170819282532
",,,,,,,,,,,,,,,,,,,,,,,,,,,,,,,,,,,,,,,,,,
11,"x: 246.0431365966797
y: 324.61175537109375
z: -0.10236434638500214
visibility: 0.9998737573623657
","x: 244.62648010253906
y: 319.5918884277344
z: -0.09114150702953339
visibility: 0.9998257756233215
","x: 244.9711456298828
y: 319.3118591308594
z: -0.091157928109169
visibility: 0.999791145324707
","x: 245.33872985839844
y: 319.059814453125
z: -0.09116397798061371
visibility: 0.9998168349266052
","x: 243.03941345214844
y: 320.797607421875
z: -0.10090655088424683
visibility: 0.9998244047164917
","x: 242.27174377441406
y: 321.4151611328125
z: -0.10094946622848511
visibility: 0.9997998476028442
","x: 241.44253540039062
y: 322.6128845214844
z: -0.10098955780267715
visibility: 0.9997869729995728
","x: 244.8671112060547
y: 323.19024658203125
z: -0.03190915659070015
visibility: 0.9996596574783325
","x: 239.69772338867188
y: 328.35546875
z: -0.07631096243858337
visibility: 0.9997261166572571
","x: 247.4708709716797
y: 329.4430847167969
z: -0.07935620844364166
visibility: 0.9996933341026306
","x: 245.9296417236328
y: 329.02935791015625
z: -0.09203462302684784
visibility: 0.9995872974395752
","x: 258.88507080078125
y: 338.9078369140625
z: 0.007491452153772116
visibility: 0.9995906949043274
","x: 237.24444580078125
y: 360.3740234375
z: -0.07543404400348663
visibility: 0.9993562698364258
","x: 271.29656982421875
y: 311.04290771484375
z: -0.0007821155595593154
visibility: 0.935084879398346
","x: 215.6011199951172
y: 365.38397216796875
z: -0.09638650715351105
visibility: 0.975947916507721
","x: 282.66412353515625
y: 270.7582702636719
z: -0.05766471102833748
visibility: 0.9533203840255737
","x: 194.593994140625
y: 362.2013854980469
z: -0.1350710541009903
visibility: 0.958475649356842
","x: 286.41534423828125
y: 265.62884521484375
z: -0.07130406051874161
visibility: 0.9133037328720093
","x: 188.10902404785156
y: 364.3649597167969
z: -0.15030917525291443
visibility: 0.9354116320610046
","x: 286.4712219238281
y: 264.260009765625
z: -0.08475901931524277
visibility: 0.9166100025177002
","x: 186.62060546875
y: 363.58636474609375
z: -0.16401706635951996
visibility: 0.937049925327301
","x: 284.9543151855469
y: 266.2796630859375
z: -0.06835659593343735
visibility: 0.9122518301010132
","x: 188.89649963378906
y: 363.2400817871094
z: -0.14395037293434143
visibility: 0.9270964860916138
","x: 276.0386657714844
y: 427.9781494140625
z: 0.040236134082078934
visibility: 0.9994833469390869
","x: 268.7950439453125
y: 431.7840881347656
z: -0.04027988761663437
visibility: 0.9994254112243652
","x: 275.7764587402344
y: 481.99755859375
z: 0.08399959653615952
visibility: 0.951748788356781
","x: 287.2524108886719
y: 472.321044921875
z: -0.10903344303369522
visibility: 0.988813579082489
","x: 260.4761962890625
y: 531.7907104492188
z: 0.19921351969242096
visibility: 0.9675902128219604
","x: 306.63433837890625
y: 524.1328125
z: -0.06655806303024292
visibility: 0.9799519777297974
","x: 256.4743347167969
y: 539.7254028320312
z: 0.20789794623851776
visibility: 0.9399935007095337
","x: 306.162353515625
y: 530.6146850585938
z: -0.06651736795902252
visibility: 0.9027349948883057
","x: 272.6825256347656
y: 545.5208740234375
z: 0.15319816768169403
visibility: 0.9719536900520325
","x: 317.59344482421875
y: 545.284912109375
z: -0.15036524832248688
visibility: 0.9795837998390198
",,,,,,,,,,,,,,,,,,,,,,,,,,,,,,,,,,,,,,,,,,
12,"x: 243.4608154296875
y: 329.810302734375
z: -0.05657342076301575
visibility: 0.9974725246429443
","x: 242.04476928710938
y: 330.95965576171875
z: -0.07352224737405777
visibility: 0.9950265288352966
","x: 240.5867919921875
y: 331.78533935546875
z: -0.07353370636701584
visibility: 0.9953653216362
","x: 239.49266052246094
y: 332.60845947265625
z: -0.07351984083652496
visibility: 0.9953681230545044
","x: 239.73243713378906
y: 330.01934814453125
z: -0.07985381782054901
visibility: 0.996713399887085
","x: 239.08970642089844
y: 330.2418518066406
z: -0.0799097940325737
visibility: 0.9969714283943176
","x: 238.84890747070312
y: 330.5685729980469
z: -0.08000344038009644
visibility: 0.9968862533569336
","x: 240.91265869140625
y: 338.53436279296875
z: -0.09091117233037949
visibility: 0.99350905418396
","x: 239.388916015625
y: 335.70208740234375
z: -0.08011554926633835
visibility: 0.9950883984565735
","x: 244.1270751953125
y: 335.1608581542969
z: -0.065407894551754
visibility: 0.9945432543754578
","x: 243.67636108398438
y: 335.53997802734375
z: -0.073896124958992
visibility: 0.9948337078094482
","x: 240.51040649414062
y: 362.03741455078125
z: -0.08163502812385559
visibility: 0.9994264841079712
","x: 257.0257263183594
y: 342.82720947265625
z: -0.16076818108558655
visibility: 0.9993207454681396
","x: 228.82177734375
y: 389.78594970703125
z: -0.03293442726135254
visibility: 0.9391922354698181
","x: 272.4057922363281
y: 317.4914245605469
z: -0.1336624175310135
visibility: 0.9782073497772217
","x: 208.64097595214844
y: 406.1960144042969
z: -0.016079267486929893
visibility: 0.952241063117981
","x: 281.0610046386719
y: 280.680908203125
z: -0.09718287736177444
visibility: 0.9606159925460815
","x: 204.8468017578125
y: 408.8850402832031
z: -0.015261647291481495
visibility: 0.9114251732826233
","x: 283.46905517578125
y: 277.60845947265625
z: -0.10649789869785309
visibility: 0.9369212985038757
","x: 204.40243530273438
y: 407.5341796875
z: -0.023006457835435867
visibility: 0.9143919348716736
","x: 282.88262939453125
y: 274.7859802246094
z: -0.09932781755924225
visibility: 0.9382227659225464
","x: 205.8463897705078
y: 406.7865295410156
z: -0.016944918781518936
visibility: 0.9027204513549805
","x: 281.1307373046875
y: 278.0416564941406
z: -0.09294559806585312
visibility: 0.9260154366493225
","x: 267.1604309082031
y: 429.054931640625
z: 0.04139405116438866
visibility: 0.9993090033531189
","x: 272.9805603027344
y: 429.3050842285156
z: -0.0417112335562706
visibility: 0.9993586540222168
","x: 274.7539367675781
y: 481.5555114746094
z: 0.11159976571798325
visibility: 0.9217181205749512
","x: 280.33184814453125
y: 473.3592224121094
z: -0.0675572007894516
visibility: 0.9863342642784119
","x: 263.8907775878906
y: 532.094482421875
z: 0.17366185784339905
visibility: 0.9618557691574097
","x: 278.3838806152344
y: 525.2052001953125
z: -0.0435902364552021
visibility: 0.9805026650428772
","x: 261.332275390625
y: 539.7954711914062
z: 0.17902375757694244
visibility: 0.936221718788147
","x: 277.64404296875
y: 531.3945922851562
z: -0.04227251559495926
visibility: 0.9097217321395874
","x: 273.3607482910156
y: 546.679443359375
z: 0.1402176320552826
visibility: 0.9654698967933655
","x: 281.4921569824219
y: 545.7559814453125
z: -0.09838047623634338
visibility: 0.9791502952575684
",,,,,,,,,,,,,,,,,,,,,,,,,,,,,,,,,,,,,,,,,,
13,"x: 250.22723388671875
y: 343.87615966796875
z: -0.33571773767471313
visibility: 0.9977043867111206
","x: 250.23019409179688
y: 338.66839599609375
z: -0.32893067598342896
visibility: 0.9954668283462524
","x: 250.56707763671875
y: 337.9034423828125
z: -0.32896095514297485
visibility: 0.9957804083824158
","x: 250.95468139648438
y: 337.17608642578125
z: -0.3290763795375824
visibility: 0.995785117149353
","x: 248.32864379882812
y: 339.767822265625
z: -0.33076757192611694
visibility: 0.9969707131385803
","x: 247.60145568847656
y: 339.7601318359375
z: -0.3308061361312866
visibility: 0.9972058534622192
","x: 246.8992156982422
y: 339.49896240234375
z: -0.33084386587142944
visibility: 0.9971181154251099
","x: 251.1847381591797
y: 336.4884948730469
z: -0.23918600380420685
visibility: 0.994098961353302
","x: 245.29962158203125
y: 338.6341552734375
z: -0.24622151255607605
visibility: 0.995546817779541
","x: 251.91954040527344
y: 345.3349609375
z: -0.2974606156349182
visibility: 0.9950701594352722
","x: 249.47511291503906
y: 347.1224670410156
z: -0.29994475841522217
visibility: 0.9953311085700989
","x: 262.43829345703125
y: 356.74566650390625
z: -0.16064974665641785
visibility: 0.9994786381721497
","x: 242.32687377929688
y: 359.47564697265625
z: -0.17154094576835632
visibility: 0.9993754625320435
","x: 273.0295715332031
y: 371.3497619628906
z: -0.25362011790275574
visibility: 0.9415165781974792
","x: 243.83302307128906
y: 392.85687255859375
z: -0.16403977572917938
visibility: 0.9699777364730835
","x: 273.03399658203125
y: 370.58660888671875
z: -0.43692833185195923
visibility: 0.951100766658783
","x: 253.00535583496094
y: 408.0665588378906
z: -0.22975274920463562
visibility: 0.9279106259346008
","x: 271.4657287597656
y: 402.538818359375
z: -0.47702497243881226
visibility: 0.9107338190078735
","x: 254.41514587402344
y: 414.7998046875
z: -0.24674411118030548
visibility: 0.8988926410675049
","x: 270.1158142089844
y: 383.87109375
z: -0.48117074370384216
visibility: 0.913594126701355
","x: 254.67825317382812
y: 414.1045837402344
z: -0.26366978883743286
visibility: 0.901354968547821
","x: 270.28668212890625
y: 398.3853454589844
z: -0.44483765959739685
visibility: 0.8993111848831177
","x: 253.4035186767578
y: 407.84857177734375
z: -0.23711219429969788
visibility: 0.8860734105110168
","x: 269.4544982910156
y: 428.7805480957031
z: 0.003854217706248164
visibility: 0.9993468523025513
","x: 261.4244689941406
y: 428.8381652832031
z: -0.0037142238579690456
visibility: 0.999358594417572
","x: 271.4678649902344
y: 481.89959716796875
z: -0.029198458418250084
visibility: 0.9272583723068237
","x: 265.8891906738281
y: 473.0006103515625
z: -0.05503352731466293
visibility: 0.9869160652160645
","x: 261.8963623046875
y: 531.9568481445312
z: 0.14251568913459778
visibility: 0.9635693430900574
","x: 245.5543670654297
y: 510.27783203125
z: 0.11866988241672516
visibility: 0.9806589484214783
","x: 258.21240234375
y: 539.398193359375
z: 0.16210144758224487
visibility: 0.9371242523193359
","x: 244.04010009765625
y: 514.2247314453125
z: 0.13392885029315948
visibility: 0.9132982492446899
","x: 268.0245361328125
y: 545.1014404296875
z: 0.07416566461324692
visibility: 0.9662783145904541
","x: 240.5546112060547
y: 535.108154296875
z: 0.06655838340520859
visibility: 0.9792702198028564
",,,,,,,,,,,,,,,,,,,,,,,,,,,,,,,,,,,,,,,,,,
14,"x: 257.6819763183594
y: 349.0421142578125
z: -0.4857063889503479
visibility: 0.9979243874549866
","x: 259.7245178222656
y: 344.0339660644531
z: -0.47130146622657776
visibility: 0.9959060549736023
","x: 260.9336242675781
y: 344.1328125
z: -0.4712618887424469
visibility: 0.9961838126182556
","x: 262.0617370605469
y: 344.4403381347656
z: -0.47129982709884644
visibility: 0.9961838722229004
","x: 255.9175567626953
y: 343.7538146972656
z: -0.4794263243675232
visibility: 0.9972622990608215
","x: 254.61553955078125
y: 343.58935546875
z: -0.47953397035598755
visibility: 0.9974768161773682
","x: 253.40521240234375
y: 343.3802490234375
z: -0.4795876145362854
visibility: 0.9973978996276855
","x: 263.37396240234375
y: 346.7464599609375
z: -0.3585100769996643
visibility: 0.9946043491363525
","x: 251.85528564453125
y: 346.0351867675781
z: -0.39813777804374695
visibility: 0.995984673500061
","x: 259.272216796875
y: 355.3360290527344
z: -0.44023555517196655
visibility: 0.9955306649208069
","x: 255.40342712402344
y: 354.30718994140625
z: -0.4519115090370178
visibility: 0.9957861304283142
","x: 269.6933288574219
y: 371.95733642578125
z: -0.23892629146575928
visibility: 0.99946528673172
","x: 245.0245819091797
y: 374.0910339355469
z: -0.34576237201690674
visibility: 0.9994329214096069
","x: 274.7926330566406
y: 406.0078125
z: -0.2579520642757416
visibility: 0.9012936949729919
","x: 258.7202453613281
y: 406.619140625
z: -0.3740798532962799
visibility: 0.9707424640655518
","x: 276.8973083496094
y: 432.2110595703125
z: -0.368117094039917
visibility: 0.9042590260505676
","x: 278.0493469238281
y: 412.57562255859375
z: -0.41693049669265747
visibility: 0.9258999824523926
","x: 278.74072265625
y: 439.79638671875
z: -0.39549025893211365
visibility: 0.8695737719535828
","x: 281.0654602050781
y: 411.631591796875
z: -0.45176276564598083
visibility: 0.8959726095199585
","x: 278.3955993652344
y: 440.13238525390625
z: -0.41740503907203674
visibility: 0.8705769181251526
","x: 281.52197265625
y: 410.23980712890625
z: -0.4524935781955719
visibility: 0.8974530696868896
","x: 277.34100341796875
y: 437.4160461425781
z: -0.38037237524986267
visibility: 0.8528631925582886
","x: 281.3907775878906
y: 411.0106201171875
z: -0.41723865270614624
visibility: 0.8725610971450806
","x: 265.9151916503906
y: 431.0985107421875
z: 0.006223454140126705
visibility: 0.9994080662727356
","x: 254.7338104248047
y: 429.7645263671875
z: -0.0065422519110143185
visibility: 0.9994210004806519
","x: 269.6390075683594
y: 483.7489318847656
z: -0.012406950816512108
visibility: 0.9318188428878784
","x: 228.33645629882812
y: 481.0566711425781
z: -0.10292781889438629
visibility: 0.9881055355072021
","x: 261.6461486816406
y: 532.01220703125
z: 0.2530110478401184
visibility: 0.9635198712348938
","x: 203.97409057617188
y: 523.3153686523438
z: -0.005490323528647423
visibility: 0.9824541807174683
","x: 258.00579833984375
y: 539.6140747070312
z: 0.27227309346199036
visibility: 0.9353305101394653
","x: 199.8359375
y: 530.0516967773438
z: 0.0004762621538247913
visibility: 0.9195283651351929
","x: 271.4432678222656
y: 545.1014404296875
z: 0.19341634213924408
visibility: 0.9646198153495789
","x: 200.21029663085938
y: 547.4130859375
z: -0.11072955280542374
visibility: 0.9810494184494019
",,,,,,,,,,,,,,,,,,,,,,,,,,,,,,,,,,,,,,,,,,
15,"x: 263.8570556640625
y: 379.06756591796875
z: -0.38637569546699524
visibility: 0.9981295466423035
","x: 266.1023254394531
y: 373.52374267578125
z: -0.37961703538894653
visibility: 0.9963125586509705
","x: 266.81964111328125
y: 373.27459716796875
z: -0.37954995036125183
visibility: 0.9965596199035645
","x: 267.4999084472656
y: 372.8796081542969
z: -0.37954992055892944
visibility: 0.9965599775314331
","x: 264.5423889160156
y: 373.531982421875
z: -0.393442302942276
visibility: 0.9975348114967346
","x: 265.1054992675781
y: 376.1307067871094
z: -0.3935997784137726
visibility: 0.9977279901504517
","x: 263.9533996582031
y: 376.443115234375
z: -0.393684446811676
visibility: 0.9976573586463928
","x: 267.1349182128906
y: 367.81103515625
z: -0.30307841300964355
visibility: 0.995132565498352
","x: 260.0641784667969
y: 367.1333312988281
z: -0.36668890714645386
visibility: 0.9963856339454651
","x: 263.402587890625
y: 379.45513916015625
z: -0.3516722321510315
visibility: 0.9959662556648254
","x: 260.73187255859375
y: 378.173095703125
z: -0.3704589605331421
visibility: 0.9962009787559509
","x: 260.81817626953125
y: 370.1553039550781
z: -0.1601245403289795
visibility: 0.9994862675666809
","x: 248.54318237304688
y: 391.26641845703125
z: -0.33461418747901917
visibility: 0.9994877576828003
","x: 262.93878173828125
y: 409.24542236328125
z: -0.034759484231472015
visibility: 0.813310444355011
","x: 261.235107421875
y: 432.0108642578125
z: -0.34643253684043884
visibility: 0.9734413027763367
","x: 262.89471435546875
y: 441.9412536621094
z: 0.009194212034344673
visibility: 0.8208829164505005
","x: 275.91949462890625
y: 461.353271484375
z: -0.36926528811454773
visibility: 0.9322527050971985
","x: 263.0121765136719
y: 451.33917236328125
z: 0.022957388311624527
visibility: 0.7936103343963623
","x: 279.8562316894531
y: 468.5935974121094
z: -0.3988334834575653
visibility: 0.904433012008667
","x: 266.4744567871094
y: 449.8333435058594
z: -0.0047300104051828384
visibility: 0.7953486442565918
","x: 280.45654296875
y: 467.78448486328125
z: -0.3965548276901245
visibility: 0.9058952331542969
","x: 265.8851318359375
y: 446.3106689453125
z: 0.000308010057779029
visibility: 0.7800878882408142
","x: 278.9259948730469
y: 466.2479248046875
z: -0.3677310049533844
visibility: 0.8820891976356506
","x: 259.262451171875
y: 427.5347900390625
z: 0.04973877966403961
visibility: 0.9994661211967468
","x: 249.40066528320312
y: 430.4439697265625
z: -0.04977510869503021
visibility: 0.9994780421257019
","x: 268.2033996582031
y: 479.6127014160156
z: -0.0019436969887465239
visibility: 0.9288995862007141
","x: 221.39268493652344
y: 480.6177978515625
z: -0.09768842905759811
visibility: 0.9886009097099304
","x: 260.7294921875
y: 531.879638671875
z: 0.14438779652118683
visibility: 0.9603428244590759
","x: 201.15478515625
y: 524.7202758789062
z: -0.05086353421211243
visibility: 0.9839088916778564
","x: 257.4451904296875
y: 539.7361450195312
z: 0.1557588279247284
visibility: 0.9315729141235352
","x: 197.73486328125
y: 531.4446411132812
z: -0.047650497406721115
visibility: 0.9255725741386414
","x: 270.48712158203125
y: 545.302734375
z: 0.08732891827821732
visibility: 0.9615967869758606
","x: 197.61981201171875
y: 551.7698974609375
z: -0.11908453702926636
visibility: 0.9825067520141602
",,,,,,,,,,,,,,,,,,,,,,,,,,,,,,,,,,,,,,,,,,
16,"x: 266.56536865234375
y: 366.03582763671875
z: -0.38327184319496155
visibility: 0.998314619064331
","x: 268.1553649902344
y: 361.25067138671875
z: -0.3723990321159363
visibility: 0.9966780543327332
","x: 268.8675231933594
y: 361.245849609375
z: -0.37233108282089233
visibility: 0.9968990087509155
","x: 269.5616149902344
y: 361.17608642578125
z: -0.37236228585243225
visibility: 0.9968987703323364
","x: 265.4026184082031
y: 360.5362243652344
z: -0.38265109062194824
visibility: 0.9977790117263794
","x: 264.2445983886719
y: 360.6003112792969
z: -0.382770836353302
visibility: 0.9979534149169922
","x: 262.9300231933594
y: 360.26568603515625
z: -0.3827809691429138
visibility: 0.9978901147842407
","x: 268.5435485839844
y: 360.951171875
z: -0.28179436922073364
visibility: 0.995606005191803
","x: 259.329833984375
y: 359.2026062011719
z: -0.3316970467567444
visibility: 0.9967458248138428
","x: 266.06890869140625
y: 370.33203125
z: -0.3462105691432953
visibility: 0.9963631629943848
","x: 262.792724609375
y: 368.84466552734375
z: -0.36075690388679504
visibility: 0.9965785145759583
","x: 269.8284606933594
y: 377.52850341796875
z: -0.1747155487537384
visibility: 0.9995178580284119
","x: 244.9143829345703
y: 386.8562316894531
z: -0.2599906623363495
visibility: 0.99953693151474
","x: 275.6944580078125
y: 409.2053527832031
z: -0.09361578524112701
visibility: 0.8205285668373108
","x: 253.3267822265625
y: 424.1259460449219
z: -0.2585180103778839
visibility: 0.9759147763252258
","x: 273.2200012207031
y: 443.7144470214844
z: -0.1161416620016098
visibility: 0.8271276950836182
","x: 252.79615783691406
y: 457.7635498046875
z: -0.2995493710041046
visibility: 0.9383921027183533
","x: 272.2471008300781
y: 450.15948486328125
z: -0.12595337629318237
visibility: 0.7968844175338745
","x: 254.07315063476562
y: 467.049560546875
z: -0.32331618666648865
visibility: 0.9124230742454529
","x: 271.2073059082031
y: 449.6299743652344
z: -0.16580811142921448
visibility: 0.7993795275688171
","x: 255.6149139404297
y: 465.7734375
z: -0.33016693592071533
visibility: 0.9138279557228088
","x: 270.83319091796875
y: 447.6944274902344
z: -0.13161487877368927
visibility: 0.7835343480110168
","x: 255.37448120117188
y: 462.56732177734375
z: -0.3021206259727478
visibility: 0.8914386034011841
","x: 260.4403991699219
y: 432.63018798828125
z: 0.026191020384430885
visibility: 0.9995129108428955
","x: 245.27114868164062
y: 432.3079833984375
z: -0.02615085244178772
visibility: 0.9995257258415222
","x: 268.3529968261719
y: 482.7276916503906
z: -0.07010433822870255
visibility: 0.9353437423706055
","x: 221.81805419921875
y: 481.70843505859375
z: -0.09482768177986145
visibility: 0.9895804524421692
","x: 261.0567321777344
y: 531.9130249023438
z: 0.045278433710336685
visibility: 0.9632706642150879
","x: 201.66270446777344
y: 525.107666015625
z: -0.04381706938147545
visibility: 0.98532634973526
","x: 257.5284118652344
y: 539.811279296875
z: 0.052824847400188446
visibility: 0.9346760511398315
","x: 199.35986328125
y: 531.861328125
z: -0.04294327646493912
visibility: 0.9295608997344971
","x: 271.4296569824219
y: 544.868408203125
z: -0.01735347881913185
visibility: 0.9636096358299255
","x: 197.82247924804688
y: 551.0004272460938
z: -0.1262032687664032
visibility: 0.9837061166763306
",,,,,,,,,,,,,,,,,,,,,,,,,,,,,,,,,,,,,,,,,,
17,"x: 269.5052795410156
y: 360.4732971191406
z: -0.21552403271198273
visibility: 0.9984802007675171
","x: 271.7086181640625
y: 355.5570983886719
z: -0.21103891730308533
visibility: 0.9970060586929321
","x: 272.4828186035156
y: 355.31597900390625
z: -0.21095409989356995
visibility: 0.9972025752067566
","x: 273.2579650878906
y: 355.0723876953125
z: -0.21095187962055206
visibility: 0.9972014427185059
","x: 269.0559997558594
y: 354.9534912109375
z: -0.22274431586265564
visibility: 0.9979988932609558
","x: 267.98919677734375
y: 354.5063781738281
z: -0.2228274792432785
visibility: 0.9981561899185181
","x: 266.8484802246094
y: 353.9566650390625
z: -0.22285392880439758
visibility: 0.9980994462966919
","x: 272.0641784667969
y: 353.94342041015625
z: -0.14120833575725555
visibility: 0.9960394501686096
","x: 263.2706298828125
y: 353.30804443359375
z: -0.19880449771881104
visibility: 0.9970700144767761
","x: 268.79498291015625
y: 363.3180236816406
z: -0.18463626503944397
visibility: 0.9967186450958252
","x: 266.1832275390625
y: 362.4007568359375
z: -0.20165738463401794
visibility: 0.9969173073768616
","x: 272.53143310546875
y: 371.8824768066406
z: -0.06333248317241669
visibility: 0.9995489120483398
","x: 244.4917449951172
y: 363.1991271972656
z: -0.1551130712032318
visibility: 0.9995821714401245
","x: 274.5531005859375
y: 388.5213623046875
z: 0.05234288424253464
visibility: 0.779788076877594
","x: 233.34378051757812
y: 376.71405029296875
z: -0.2418028563261032
visibility: 0.9778300523757935
","x: 275.5941162109375
y: 391.47052001953125
z: 0.11734936386346817
visibility: 0.799820065498352
","x: 238.72860717773438
y: 381.42999267578125
z: -0.3381447196006775
visibility: 0.9428891539573669
","x: 275.3216247558594
y: 390.7645263671875
z: 0.13562877476215363
visibility: 0.7635803818702698
","x: 238.51991271972656
y: 383.136962890625
z: -0.35691437125205994
visibility: 0.9165531992912292
","x: 275.7033996582031
y: 390.77105712890625
z: 0.12327901273965836
visibility: 0.7674281001091003
","x: 242.72735595703125
y: 383.41510009765625
z: -0.3472211956977844
visibility: 0.9179422855377197
","x: 274.1888122558594
y: 393.371826171875
z: 0.11582712084054947
visibility: 0.7522227168083191
","x: 243.80780029296875
y: 383.2408142089844
z: -0.33532243967056274
visibility: 0.8951693177223206
","x: 263.6929931640625
y: 433.5818176269531
z: 0.024619733914732933
visibility: 0.9995577335357666
","x: 245.395263671875
y: 432.14093017578125
z: -0.024651624262332916
visibility: 0.9995715022087097
","x: 271.029541015625
y: 483.7454833984375
z: 0.04061170667409897
visibility: 0.9413677453994751
","x: 224.3927459716797
y: 481.5523681640625
z: -0.07345730066299438
visibility: 0.9904285073280334
","x: 261.3557434082031
y: 531.7069702148438
z: 0.19546079635620117
visibility: 0.9660660624504089
","x: 215.4249267578125
y: 513.9593505859375
z: 0.0017412228044122458
visibility: 0.9864314794540405
","x: 257.8841857910156
y: 539.5263061523438
z: 0.20857134461402893
visibility: 0.9374632239341736
","x: 212.34375
y: 513.9755859375
z: 0.008567766286432743
visibility: 0.9320403933525085
","x: 272.0895080566406
y: 545.0159912109375
z: 0.1678646057844162
visibility: 0.9662701487541199
","x: 209.29164123535156
y: 537.5536499023438
z: -0.042763642966747284
visibility: 0.9849249720573425
",,,,,,,,,,,,,,,,,,,,,,,,,,,,,,,,,,,,,,,,,,
18,"x: 264.3091735839844
y: 341.29803466796875
z: -0.09440687298774719
visibility: 0.9986114501953125
","x: 264.91143798828125
y: 336.76361083984375
z: -0.08579769730567932
visibility: 0.9972642660140991
","x: 265.1739807128906
y: 336.62530517578125
z: -0.0858176201581955
visibility: 0.9974284172058105
","x: 265.4862365722656
y: 336.41082763671875
z: -0.08581028133630753
visibility: 0.9974267482757568
","x: 263.837646484375
y: 336.1419982910156
z: -0.0999971479177475
visibility: 0.9981634616851807
","x: 263.2638854980469
y: 335.61419677734375
z: -0.10002459585666656
visibility: 0.9983025193214417
","x: 262.6549072265625
y: 335.12384033203125
z: -0.1000409722328186
visibility: 0.99824458360672
","x: 264.45501708984375
y: 336.1119384765625
z: -0.02255634032189846
visibility: 0.9963699579238892
","x: 259.8688049316406
y: 335.6164245605469
z: -0.08710143715143204
visibility: 0.9973164200782776
","x: 263.63916015625
y: 344.72003173828125
z: -0.06761281937360764
visibility: 0.9969478845596313
","x: 262.18243408203125
y: 344.44451904296875
z: -0.08641616255044937
visibility: 0.9971464276313782
","x: 266.45196533203125
y: 356.2100524902344
z: 0.058676134794950485
visibility: 0.9995760917663574
","x: 253.80886840820312
y: 351.4622802734375
z: -0.09185972809791565
visibility: 0.9996117353439331
","x: 252.23619079589844
y: 377.5903015136719
z: 0.1566149890422821
visibility: 0.7336317896842957
","x: 249.02520751953125
y: 366.9718933105469
z: -0.11866976320743561
visibility: 0.978473961353302
","x: 250.85675048828125
y: 385.2537841796875
z: 0.20282261073589325
visibility: 0.7769768834114075
","x: 245.18450927734375
y: 377.08172607421875
z: -0.12863433361053467
visibility: 0.944446325302124
","x: 250.18701171875
y: 390.4275207519531
z: 0.21109957993030548
visibility: 0.7445257306098938
","x: 243.37457275390625
y: 381.0313720703125
z: -0.14002707600593567
visibility: 0.9190648198127747
","x: 250.67446899414062
y: 386.85784912109375
z: 0.19644545018672943
visibility: 0.7502626180648804
","x: 244.6240997314453
y: 379.9737548828125
z: -0.1458442658185959
visibility: 0.9208108186721802
","x: 250.97906494140625
y: 386.3470458984375
z: 0.1980493664741516
visibility: 0.7316462397575378
","x: 245.46713256835938
y: 379.7169494628906
z: -0.13036927580833435
visibility: 0.8988209962844849
","x: 265.448974609375
y: 432.7261962890625
z: 0.054959386587142944
visibility: 0.9995470643043518
","x: 258.2578430175781
y: 432.21875
z: -0.055010706186294556
visibility: 0.9995333552360535
","x: 276.6993103027344
y: 479.46063232421875
z: 0.02496369741857052
visibility: 0.937110424041748
","x: 275.4192199707031
y: 474.59722900390625
z: -0.10584384202957153
visibility: 0.990259051322937
","x: 267.51287841796875
y: 529.9268798828125
z: 0.0893898531794548
visibility: 0.9649465680122375
","x: 269.6095886230469
y: 519.606201171875
z: -0.033410511910915375
visibility: 0.9870582222938538
","x: 261.242919921875
y: 539.5996704101562
z: 0.09306593239307404
visibility: 0.9368311166763306
","x: 262.0086669921875
y: 530.433837890625
z: -0.026764988899230957
visibility: 0.935929536819458
","x: 278.6914367675781
y: 547.3756103515625
z: 0.06240054965019226
visibility: 0.9667026400566101
","x: 278.92828369140625
y: 542.4365844726562
z: -0.05348794534802437
visibility: 0.9857324957847595
",,,,,,,,,,,,,,,,,,,,,,,,,,,,,,,,,,,,,,,,,,
19,"x: 257.7560729980469
y: 324.43408203125
z: -0.11069653928279877
visibility: 0.9987490773200989
","x: 256.82373046875
y: 320.1584167480469
z: -0.09951853007078171
visibility: 0.997532844543457
","x: 256.90447998046875
y: 320.112548828125
z: -0.09955273568630219
visibility: 0.997680127620697
","x: 257.0174255371094
y: 320.0534362792969
z: -0.09956815838813782
visibility: 0.9976794123649597
","x: 256.5364990234375
y: 320.4736328125
z: -0.11021963506937027
visibility: 0.998344361782074
","x: 256.26861572265625
y: 320.768310546875
z: -0.11025045812129974
visibility: 0.9984694719314575
","x: 256.16033935546875
y: 321.23968505859375
z: -0.11027481406927109
visibility: 0.9984174966812134
","x: 257.0054626464844
y: 322.6110534667969
z: -0.03398194909095764
visibility: 0.9967201948165894
","x: 255.9057159423828
y: 325.2085876464844
z: -0.0812731683254242
visibility: 0.9975809454917908
","x: 258.83428955078125
y: 329.1529846191406
z: -0.08479715883731842
visibility: 0.9972513914108276
","x: 258.4932556152344
y: 329.6871643066406
z: -0.09830404072999954
visibility: 0.9974308013916016
","x: 265.17620849609375
y: 348.23968505859375
z: 0.035731006413698196
visibility: 0.9996170401573181
","x: 248.9297332763672
y: 356.09857177734375
z: -0.0766301229596138
visibility: 0.999650239944458
","x: 276.8076171875
y: 375.7400817871094
z: 0.07226687669754028
visibility: 0.7542091012001038
","x: 237.29129028320312
y: 386.741943359375
z: -0.08033693581819534
visibility: 0.9799031615257263
","x: 293.44097900390625
y: 394.2120361328125
z: 0.013455119915306568
visibility: 0.792747974395752
","x: 231.34170532226562
y: 428.7182312011719
z: -0.11624964326620102
visibility: 0.9475374221801758
","x: 298.583984375
y: 401.8970947265625
z: 0.006981663405895233
visibility: 0.758950412273407
","x: 229.9823760986328
y: 439.55023193359375
z: -0.13120295107364655
visibility: 0.9222136735916138
","x: 298.2183532714844
y: 402.0611572265625
z: -0.010529113933444023
visibility: 0.7658787369728088
","x: 231.6691131591797
y: 439.5883483886719
z: -0.14996761083602905
visibility: 0.9240626096725464
","x: 296.5733642578125
y: 400.40020751953125
z: 0.004058706574141979
visibility: 0.7480444312095642
","x: 232.46078491210938
y: 437.1835632324219
z: -0.12408675998449326
visibility: 0.9034575819969177
","x: 268.2044677734375
y: 426.8832702636719
z: 0.05017572641372681
visibility: 0.9995508790016174
","x: 261.39764404296875
y: 429.59710693359375
z: -0.050172388553619385
visibility: 0.9995726943016052
","x: 277.61468505859375
y: 479.6669006347656
z: 0.03521747514605522
visibility: 0.9287835359573364
","x: 281.60546875
y: 470.19635009765625
z: -0.15150043368339539
visibility: 0.9904932379722595
","x: 265.2257385253906
y: 531.263916015625
z: 0.09944318979978561
visibility: 0.9630170464515686
","x: 290.39959716796875
y: 527.7135620117188
z: -0.12981896102428436
visibility: 0.9880075454711914
","x: 260.8128662109375
y: 540.656005859375
z: 0.10302059352397919
visibility: 0.935910701751709
","x: 287.97021484375
y: 537.4276123046875
z: -0.13113543391227722
visibility: 0.9406617283821106
","x: 274.75579833984375
y: 547.30712890625
z: 0.05733637884259224
visibility: 0.9654027223587036
","x: 301.5847473144531
y: 547.47216796875
z: -0.2008175551891327
visibility: 0.9866670370101929
",,,,,,,,,,,,,,,,,,,,,,,,,,,,,,,,,,,,,,,,,,
20,"x: 257.8756103515625
y: 320.1605529785156
z: -0.14823174476623535
visibility: 0.9988632202148438
","x: 257.4674072265625
y: 314.0560302734375
z: -0.1372067928314209
visibility: 0.9977441430091858
","x: 257.78131103515625
y: 314.17181396484375
z: -0.13725438714027405
visibility: 0.9978737831115723
","x: 258.11260986328125
y: 314.29736328125
z: -0.1372731626033783
visibility: 0.9978683590888977
","x: 256.4147644042969
y: 314.0899963378906
z: -0.14785388112068176
visibility: 0.9984899163246155
","x: 255.92056274414062
y: 314.3514709472656
z: -0.14786051213741302
visibility: 0.9986051917076111
","x: 255.4469451904297
y: 314.7394104003906
z: -0.1478814333677292
visibility: 0.9985576868057251
","x: 258.3821716308594
y: 317.44427490234375
z: -0.06914139539003372
visibility: 0.9969886541366577
","x: 254.45257568359375
y: 319.0172119140625
z: -0.11673770844936371
visibility: 0.9978147149085999
","x: 258.8153076171875
y: 326.336181640625
z: -0.12145509570837021
visibility: 0.997514009475708
","x: 257.6778564453125
y: 326.9102478027344
z: -0.13505412638187408
visibility: 0.9976834654808044
","x: 269.32232666015625
y: 346.7069091796875
z: -0.0025417886208742857
visibility: 0.9996433258056641
","x: 247.74127197265625
y: 354.2771911621094
z: -0.11784061044454575
visibility: 0.9996815323829651
","x: 282.04058837890625
y: 363.4127502441406
z: -0.05430568382143974
visibility: 0.7507729530334473
","x: 244.1824188232422
y: 389.2103271484375
z: -0.15321294963359833
visibility: 0.9800651669502258
","x: 289.3082275390625
y: 373.3908386230469
z: -0.21807727217674255
visibility: 0.7848087549209595
","x: 259.25341796875
y: 422.05609130859375
z: -0.2090516835451126
visibility: 0.9395679235458374
","x: 291.74267578125
y: 374.8762512207031
z: -0.24832499027252197
visibility: 0.7563291192054749
","x: 262.73699951171875
y: 431.5161437988281
z: -0.2425093948841095
visibility: 0.9128421545028687
","x: 289.1104431152344
y: 372.9447021484375
z: -0.25583550333976746
visibility: 0.7628746032714844
","x: 264.05023193359375
y: 428.1314392089844
z: -0.24403202533721924
visibility: 0.9142075181007385
","x: 288.00128173828125
y: 373.1962890625
z: -0.22607287764549255
visibility: 0.7426995038986206
","x: 263.0318908691406
y: 424.79266357421875
z: -0.2071652114391327
visibility: 0.8906416296958923
","x: 266.3797302246094
y: 427.1345520019531
z: 0.048428744077682495
visibility: 0.9995598793029785
","x: 258.87744140625
y: 429.2767333984375
z: -0.04849059134721756
visibility: 0.9995765686035156
","x: 268.5518798828125
y: 479.81866455078125
z: 0.07424168288707733
visibility: 0.8797075152397156
","x: 273.64971923828125
y: 469.623779296875
z: -0.07254961878061295
visibility: 0.9898269772529602
","x: 258.2852783203125
y: 527.8426513671875
z: 0.1557433307170868
visibility: 0.9441626667976379
","x: 264.31903076171875
y: 520.0914916992188
z: 0.01135590486228466
visibility: 0.9868565201759338
","x: 254.08460998535156
y: 536.068359375
z: 0.1602136194705963
visibility: 0.9217167496681213
","x: 259.0406494140625
y: 527.2877197265625
z: 0.018399598076939583
visibility: 0.9403385519981384
","x: 266.10003662109375
y: 539.8193969726562
z: 0.12237387895584106
visibility: 0.9504895806312561
","x: 269.06695556640625
y: 540.5900268554688
z: -0.017345912754535675
visibility: 0.9846692681312561
",,,,,,,,,,,,,,,,,,,,,,,,,,,,,,,,,,,,,,,,,,
21,"x: 261.8409729003906
y: 310.9939270019531
z: -0.11685556173324585
visibility: 0.9987895488739014
","x: 262.1305236816406
y: 307.6583251953125
z: -0.1000102311372757
visibility: 0.9977408647537231
","x: 262.8096008300781
y: 308.0295104980469
z: -0.10006526857614517
visibility: 0.9978424310684204
","x: 263.5001525878906
y: 308.457275390625
z: -0.10008914768695831
visibility: 0.9978903532028198
","x: 259.8902893066406
y: 307.9990539550781
z: -0.10612817108631134
visibility: 0.9983466863632202
","x: 258.9516906738281
y: 308.608154296875
z: -0.10614141076803207
visibility: 0.9984443187713623
","x: 258.0107727050781
y: 309.3162841796875
z: -0.1061934381723404
visibility: 0.9983652234077454
","x: 264.07037353515625
y: 313.8609619140625
z: -0.015543450601398945
visibility: 0.9967484474182129
","x: 256.52081298828125
y: 314.73089599609375
z: -0.04223908483982086
visibility: 0.997614860534668
","x: 263.26470947265625
y: 317.58074951171875
z: -0.0861244723200798
visibility: 0.9976589679718018
","x: 260.4775695800781
y: 317.97967529296875
z: -0.09399466216564178
visibility: 0.997761607170105
","x: 273.418212890625
y: 346.6275634765625
z: 0.03397313132882118
visibility: 0.9996106028556824
","x: 248.39486694335938
y: 347.7950439453125
z: -0.05596136301755905
visibility: 0.9995673894882202
","x: 284.69476318359375
y: 373.40875244140625
z: -0.052338551729917526
visibility: 0.7587380409240723
","x: 252.78903198242188
y: 386.6851501464844
z: -0.1190476045012474
visibility: 0.972831130027771
","x: 280.8678894042969
y: 374.66473388671875
z: -0.16026082634925842
visibility: 0.784087061882019
","x: 270.31768798828125
y: 389.3360595703125
z: -0.1977023035287857
visibility: 0.922390341758728
","x: 281.56109619140625
y: 378.4068298339844
z: -0.18779443204402924
visibility: 0.7534471750259399
","x: 273.91552734375
y: 391.33721923828125
z: -0.2253992259502411
visibility: 0.8926218748092651
","x: 280.71673583984375
y: 377.2574157714844
z: -0.19146302342414856
visibility: 0.7604629993438721
","x: 273.9444885253906
y: 387.1584777832031
z: -0.22727033495903015
visibility: 0.8930211067199707
","x: 279.458251953125
y: 376.9891662597656
z: -0.16512857377529144
visibility: 0.7386937141418457
","x: 271.78778076171875
y: 386.3783264160156
z: -0.19919845461845398
visibility: 0.8641284108161926
","x: 265.8245544433594
y: 426.8973388671875
z: 0.04622866213321686
visibility: 0.99959397315979
","x: 253.8544464111328
y: 425.3189697265625
z: -0.04628391191363335
visibility: 0.9995821118354797
","x: 268.94915771484375
y: 479.9219970703125
z: -0.0063240104354918
visibility: 0.8836869597434998
","x: 262.4980163574219
y: 470.70672607421875
z: -0.07763286679983139
visibility: 0.9900549650192261
","x: 259.6272277832031
y: 528.697021484375
z: 0.14097975194454193
visibility: 0.944506824016571
","x: 249.19247436523438
y: 510.32452392578125
z: 0.11542440950870514
visibility: 0.9822863936424255
","x: 256.48248291015625
y: 537.5264892578125
z: 0.1591322124004364
visibility: 0.9173722267150879
","x: 247.1219482421875
y: 511.9038391113281
z: 0.13438382744789124
visibility: 0.9145681858062744
","x: 270.5924072265625
y: 540.343994140625
z: 0.1104164719581604
visibility: 0.950455904006958
","x: 257.5524597167969
y: 535.4683837890625
z: 0.09072539210319519
visibility: 0.9803297519683838
",,,,,,,,,,,,,,,,,,,,,,,,,,,,,,,,,,,,,,,,,,
22,"x: 261.89508056640625
y: 312.1561584472656
z: -0.18727286159992218
visibility: 0.9988988637924194
","x: 262.8909912109375
y: 306.94287109375
z: -0.16727980971336365
visibility: 0.9979473948478699
","x: 263.67523193359375
y: 307.3953857421875
z: -0.16734270751476288
visibility: 0.9980350136756897
","x: 264.4676513671875
y: 307.78240966796875
z: -0.16739946603775024
visibility: 0.9980744123458862
","x: 260.38134765625
y: 306.2515563964844
z: -0.16722209751605988
visibility: 0.9984946846961975
","x: 259.3025207519531
y: 306.41143798828125
z: -0.16715213656425476
visibility: 0.998583197593689
","x: 258.1938781738281
y: 306.7075500488281
z: -0.16721102595329285
visibility: 0.998512864112854
","x: 264.9993591308594
y: 312.2354431152344
z: -0.06656660884618759
visibility: 0.9970058798789978
","x: 255.851318359375
y: 311.32177734375
z: -0.12073834985494614
visibility: 0.9978419542312622
","x: 263.19281005859375
y: 318.9947814941406
z: -0.14963938295841217
visibility: 0.9978837370872498
","x: 259.7845153808594
y: 318.8494567871094
z: -0.15099303424358368
visibility: 0.9979822039604187
","x: 272.260498046875
y: 345.426025390625
z: 0.006509363651275635
visibility: 0.9995933175086975
","x: 247.30787658691406
y: 341.4062805175781
z: -0.10399150848388672
visibility: 0.9996036887168884
","x: 280.75482177734375
y: 376.4718017578125
z: -0.10703600943088531
visibility: 0.7742646932601929
","x: 233.8947296142578
y: 377.86077880859375
z: -0.15537932515144348
visibility: 0.9750583171844482
","x: 278.79046630859375
y: 367.0641784667969
z: -0.2873740792274475
visibility: 0.7958099246025085
","x: 252.60543823242188
y: 377.77752685546875
z: -0.2958641052246094
visibility: 0.9279760718345642
","x: 278.7640380859375
y: 363.09283447265625
z: -0.32460111379623413
visibility: 0.7622740268707275
","x: 268.1100769042969
y: 377.0238952636719
z: -0.3277074992656708
visibility: 0.8980891108512878
","x: 277.8310241699219
y: 358.76348876953125
z: -0.32506924867630005
visibility: 0.7687729597091675
","x: 265.68231201171875
y: 372.5858154296875
z: -0.32619667053222656
visibility: 0.8979668021202087
","x: 276.9438171386719
y: 360.26104736328125
z: -0.2928469479084015
visibility: 0.7443636655807495
","x: 268.5809020996094
y: 372.7699279785156
z: -0.29674744606018066
visibility: 0.8685726523399353
","x: 264.89776611328125
y: 422.2686462402344
z: 0.03644490987062454
visibility: 0.9995930194854736
","x: 248.03701782226562
y: 421.0983581542969
z: -0.0365377776324749
visibility: 0.9995872378349304
","x: 268.9536437988281
y: 475.4201965332031
z: 0.030861545354127884
visibility: 0.8914926052093506
","x: 251.2203826904297
y: 472.7285461425781
z: -0.0232233889400959
visibility: 0.9902929663658142
","x: 260.7022399902344
y: 520.348876953125
z: 0.2049272507429123
visibility: 0.947230875492096
","x: 248.20895385742188
y: 517.5245361328125
z: 0.12974262237548828
visibility: 0.9829350709915161
","x: 256.91796875
y: 526.33935546875
z: 0.21828262507915497
visibility: 0.917104959487915
","x: 245.95887756347656
y: 523.1944580078125
z: 0.14065493643283844
visibility: 0.9084166884422302
","x: 270.44146728515625
y: 538.6185302734375
z: 0.14995983242988586
visibility: 0.9525712728500366
","x: 252.46026611328125
y: 537.799560546875
z: 0.054178398102521896
visibility: 0.9804837107658386
","x: 278.513427734375
y: 364.86785888671875
z: 0.0
","x: 276.47650146484375
y: 361.7639465332031
z: -0.0006760293617844582
","x: 275.1561584472656
y: 357.40863037109375
z: -0.001692923833616078
","x: 275.1169128417969
y: 354.0658874511719
z: -0.0032617857214063406
","x: 275.8572692871094
y: 351.85845947265625
z: -0.004393253941088915
","x: 276.013916015625
y: 351.960205078125
z: 0.00022268689644988626
","x: 275.7100524902344
y: 347.9815673828125
z: -0.0021389455068856478
","x: 275.42724609375
y: 350.434326171875
z: -0.0031309067271649837
","x: 275.48388671875
y: 352.70379638671875
z: -0.003463877597823739
","x: 277.4105224609375
y: 352.2235412597656
z: -0.0009759496315382421
","x: 277.3114929199219
y: 348.22021484375
z: -0.00362001801840961
","x: 276.8427734375
y: 351.10791015625
z: -0.004146974999457598
","x: 276.74932861328125
y: 353.4369201660156
z: -0.003880193457007408
","x: 278.8402404785156
y: 353.2403869628906
z: -0.002623807406052947
","x: 278.5981140136719
y: 349.98211669921875
z: -0.004762906115502119
","x: 277.9799499511719
y: 352.60125732421875
z: -0.0042636035941541195
","x: 277.7979431152344
y: 354.6734313964844
z: -0.003404392395168543
","x: 280.2442321777344
y: 354.909423828125
z: -0.004548389930278063
","x: 279.7782897949219
y: 352.38226318359375
z: -0.005491071846336126
","x: 279.0564270019531
y: 354.0595703125
z: -0.004988241009414196
","x: 278.7548522949219
y: 355.7719421386719
z: -0.004283865448087454
",,,,,,,,,,,,,,,,,,,,,
23,"x: 261.89508056640625
y: 312.1561584472656
z: -0.18727286159992218
visibility: 0.9988988637924194
","x: 262.8909912109375
y: 306.94287109375
z: -0.16727980971336365
visibility: 0.9979473948478699
","x: 263.67523193359375
y: 307.3953857421875
z: -0.16734270751476288
visibility: 0.9980350136756897
","x: 264.4676513671875
y: 307.78240966796875
z: -0.16739946603775024
visibility: 0.9980744123458862
","x: 260.38134765625
y: 306.2515563964844
z: -0.16722209751605988
visibility: 0.9984946846961975
","x: 259.3025207519531
y: 306.41143798828125
z: -0.16715213656425476
visibility: 0.998583197593689
","x: 258.1938781738281
y: 306.7075500488281
z: -0.16721102595329285
visibility: 0.998512864112854
","x: 264.9993591308594
y: 312.2354431152344
z: -0.06656660884618759
visibility: 0.9970058798789978
","x: 255.851318359375
y: 311.32177734375
z: -0.12073834985494614
visibility: 0.9978419542312622
","x: 263.19281005859375
y: 318.9947814941406
z: -0.14963938295841217
visibility: 0.9978837370872498
","x: 259.7845153808594
y: 318.8494567871094
z: -0.15099303424358368
visibility: 0.9979822039604187
","x: 272.260498046875
y: 345.426025390625
z: 0.006509363651275635
visibility: 0.9995933175086975
","x: 247.30787658691406
y: 341.4062805175781
z: -0.10399150848388672
visibility: 0.9996036887168884
","x: 280.75482177734375
y: 376.4718017578125
z: -0.10703600943088531
visibility: 0.7742646932601929
","x: 233.8947296142578
y: 377.86077880859375
z: -0.15537932515144348
visibility: 0.9750583171844482
","x: 278.79046630859375
y: 367.0641784667969
z: -0.2873740792274475
visibility: 0.7958099246025085
","x: 252.60543823242188
y: 377.77752685546875
z: -0.2958641052246094
visibility: 0.9279760718345642
","x: 278.7640380859375
y: 363.09283447265625
z: -0.32460111379623413
visibility: 0.7622740268707275
","x: 268.1100769042969
y: 377.0238952636719
z: -0.3277074992656708
visibility: 0.8980891108512878
","x: 277.8310241699219
y: 358.76348876953125
z: -0.32506924867630005
visibility: 0.7687729597091675
","x: 265.68231201171875
y: 372.5858154296875
z: -0.32619667053222656
visibility: 0.8979668021202087
","x: 276.9438171386719
y: 360.26104736328125
z: -0.2928469479084015
visibility: 0.7443636655807495
","x: 268.5809020996094
y: 372.7699279785156
z: -0.29674744606018066
visibility: 0.8685726523399353
","x: 264.89776611328125
y: 422.2686462402344
z: 0.03644490987062454
visibility: 0.9995930194854736
","x: 248.03701782226562
y: 421.0983581542969
z: -0.0365377776324749
visibility: 0.9995872378349304
","x: 268.9536437988281
y: 475.4201965332031
z: 0.030861545354127884
visibility: 0.8914926052093506
","x: 251.2203826904297
y: 472.7285461425781
z: -0.0232233889400959
visibility: 0.9902929663658142
","x: 260.7022399902344
y: 520.348876953125
z: 0.2049272507429123
visibility: 0.947230875492096
","x: 248.20895385742188
y: 517.5245361328125
z: 0.12974262237548828
visibility: 0.9829350709915161
","x: 256.91796875
y: 526.33935546875
z: 0.21828262507915497
visibility: 0.917104959487915
","x: 245.95887756347656
y: 523.1944580078125
z: 0.14065493643283844
visibility: 0.9084166884422302
","x: 270.44146728515625
y: 538.6185302734375
z: 0.14995983242988586
visibility: 0.9525712728500366
","x: 252.46026611328125
y: 537.799560546875
z: 0.054178398102521896
visibility: 0.9804837107658386
","x: 278.513427734375
y: 364.86785888671875
z: 0.0
","x: 276.47650146484375
y: 361.7639465332031
z: -0.0006760293617844582
","x: 275.1561584472656
y: 357.40863037109375
z: -0.001692923833616078
","x: 275.1169128417969
y: 354.0658874511719
z: -0.0032617857214063406
","x: 275.8572692871094
y: 351.85845947265625
z: -0.004393253941088915
","x: 276.013916015625
y: 351.960205078125
z: 0.00022268689644988626
","x: 275.7100524902344
y: 347.9815673828125
z: -0.0021389455068856478
","x: 275.42724609375
y: 350.434326171875
z: -0.0031309067271649837
","x: 275.48388671875
y: 352.70379638671875
z: -0.003463877597823739
","x: 277.4105224609375
y: 352.2235412597656
z: -0.0009759496315382421
","x: 277.3114929199219
y: 348.22021484375
z: -0.00362001801840961
","x: 276.8427734375
y: 351.10791015625
z: -0.004146974999457598
","x: 276.74932861328125
y: 353.4369201660156
z: -0.003880193457007408
","x: 278.8402404785156
y: 353.2403869628906
z: -0.002623807406052947
","x: 278.5981140136719
y: 349.98211669921875
z: -0.004762906115502119
","x: 277.9799499511719
y: 352.60125732421875
z: -0.0042636035941541195
","x: 277.7979431152344
y: 354.6734313964844
z: -0.003404392395168543
","x: 280.2442321777344
y: 354.909423828125
z: -0.004548389930278063
","x: 279.7782897949219
y: 352.38226318359375
z: -0.005491071846336126
","x: 279.0564270019531
y: 354.0595703125
z: -0.004988241009414196
","x: 278.7548522949219
y: 355.7719421386719
z: -0.004283865448087454
",,,,,,,,,,,,,,,,,,,,,
24,"x: 255.30316162109375
y: 294.8795166015625
z: -0.1889004111289978
visibility: 0.9990018010139465
","x: 256.3708190917969
y: 289.6065673828125
z: -0.17429807782173157
visibility: 0.9981234073638916
","x: 257.35406494140625
y: 289.66912841796875
z: -0.17432396113872528
visibility: 0.9981964826583862
","x: 258.38250732421875
y: 289.76080322265625
z: -0.17435649037361145
visibility: 0.9982221722602844
","x: 253.61680603027344
y: 289.89862060546875
z: -0.1781943291425705
visibility: 0.9986241459846497
","x: 252.5910186767578
y: 290.21527099609375
z: -0.17820289731025696
visibility: 0.9987066388130188
","x: 251.52711486816406
y: 290.5824890136719
z: -0.17825709283351898
visibility: 0.9986438751220703
","x: 259.77886962890625
y: 292.21722412109375
z: -0.08991260826587677
visibility: 0.9972698092460632
","x: 250.17025756835938
y: 293.50506591796875
z: -0.1124056950211525
visibility: 0.998025119304657
","x: 257.450927734375
y: 299.71197509765625
z: -0.1550370752811432
visibility: 0.9980857968330383
","x: 253.69223022460938
y: 300.97412109375
z: -0.16008636355400085
visibility: 0.9981764554977417
","x: 270.02044677734375
y: 318.3086853027344
z: -0.017228977754712105
visibility: 0.9996235370635986
","x: 242.62530517578125
y: 325.7905578613281
z: -0.08144503086805344
visibility: 0.9996291995048523
","x: 277.4207763671875
y: 347.294189453125
z: 0.0301748625934124
visibility: 0.7940528988838196
","x: 232.65647888183594
y: 360.8115234375
z: -0.15685680508613586
visibility: 0.9771742820739746
","x: 286.2088317871094
y: 369.0820617675781
z: -0.007978690788149834
visibility: 0.8139540553092957
","x: 252.050048828125
y: 350.58935546875
z: -0.3273553252220154
visibility: 0.9348524212837219
","x: 290.1434326171875
y: 370.9940185546875
z: -0.015422130934894085
visibility: 0.7813782095909119
","x: 258.3532409667969
y: 346.87603759765625
z: -0.3599744439125061
visibility: 0.9074118137359619
","x: 289.9736328125
y: 368.0439758300781
z: -0.036301691085100174
visibility: 0.7875990271568298
","x: 258.1385192871094
y: 342.2821044921875
z: -0.3573687970638275
visibility: 0.9072532057762146
","x: 288.18853759765625
y: 368.76019287109375
z: -0.016365477815270424
visibility: 0.7650178670883179
","x: 259.683349609375
y: 343.29150390625
z: -0.32860809564590454
visibility: 0.8800567388534546
","x: 264.8012390136719
y: 404.0441589355469
z: 0.006881258450448513
visibility: 0.9996111989021301
","x: 247.16390991210938
y: 405.14483642578125
z: -0.006887639872729778
visibility: 0.9996087551116943
","x: 263.00555419921875
y: 453.61273193359375
z: -0.056306589394807816
visibility: 0.9015232920646667
","x: 246.06431579589844
y: 467.357421875
z: -0.010107829235494137
visibility: 0.9891471862792969
","x: 260.65374755859375
y: 486.4940185546875
z: 0.18705934286117554
visibility: 0.9450124502182007
","x: 247.964599609375
y: 517.8697509765625
z: 0.13504081964492798
visibility: 0.9829948544502258
","x: 258.2373352050781
y: 490.0140380859375
z: 0.20858009159564972
visibility: 0.9012646079063416
","x: 246.38436889648438
y: 522.6929931640625
z: 0.14623424410820007
visibility: 0.9009566307067871
","x: 264.28228759765625
y: 511.3223571777344
z: 0.15294048190116882
visibility: 0.9512683153152466
","x: 249.46051025390625
y: 538.0692138671875
z: 0.05913260579109192
visibility: 0.9798455834388733
",,,,,,,,,,,,,,,,,,,,,,,,,,,,,,,,,,,,,,,,,,
25,"x: 241.77171325683594
y: 305.5300598144531
z: -0.12644225358963013
visibility: 0.9989691376686096
","x: 243.25152587890625
y: 300.199951171875
z: -0.12363100051879883
visibility: 0.9979438781738281
","x: 244.40676879882812
y: 299.8807067871094
z: -0.12367929518222809
visibility: 0.9980485439300537
","x: 245.55035400390625
y: 299.5757141113281
z: -0.12374608218669891
visibility: 0.998012125492096
","x: 240.81544494628906
y: 300.9144287109375
z: -0.11929170787334442
visibility: 0.9982913732528687
","x: 240.30149841308594
y: 301.15252685546875
z: -0.11929982900619507
visibility: 0.9984431862831116
","x: 239.8381805419922
y: 301.3878173828125
z: -0.11938901245594025
visibility: 0.9982656836509705
","x: 249.15301513671875
y: 300.8125915527344
z: -0.07325915992259979
visibility: 0.9973903298377991
","x: 242.64862060546875
y: 303.43450927734375
z: -0.05249311774969101
visibility: 0.9971992373466492
","x: 245.96543884277344
y: 309.9816589355469
z: -0.10444808006286621
visibility: 0.99820476770401
","x: 242.55918884277344
y: 311.09747314453125
z: -0.09843401610851288
visibility: 0.9981253147125244
","x: 268.3096618652344
y: 323.24114990234375
z: -0.018208622932434082
visibility: 0.9996367692947388
","x: 240.2863006591797
y: 332.199951171875
z: -0.039045531302690506
visibility: 0.9994794130325317
","x: 276.0655517578125
y: 351.2623291015625
z: 0.015436808578670025
visibility: 0.810117244720459
","x: 240.24781799316406
y: 358.47149658203125
z: -0.1543683260679245
visibility: 0.9729740619659424
","x: 286.59832763671875
y: 372.3597412109375
z: 0.0009520092280581594
visibility: 0.826773464679718
","x: 257.5528869628906
y: 351.07354736328125
z: -0.32602834701538086
visibility: 0.9376291632652283
","x: 291.2535095214844
y: 373.5092468261719
z: -0.003282632678747177
visibility: 0.7931376695632935
","x: 261.5281066894531
y: 347.2308044433594
z: -0.3597570061683655
visibility: 0.9105324149131775
","x: 291.7234802246094
y: 371.37017822265625
z: -0.023274032399058342
visibility: 0.7996642589569092
","x: 261.4421691894531
y: 343.3811950683594
z: -0.355489581823349
visibility: 0.9100596308708191
","x: 289.6174011230469
y: 370.63433837890625
z: -0.00611373595893383
visibility: 0.778083860874176
","x: 260.47869873046875
y: 344.75689697265625
z: -0.3287682831287384
visibility: 0.8820137977600098
","x: 263.8518371582031
y: 409.99609375
z: -0.004749493207782507
visibility: 0.9995818138122559
","x: 246.01605224609375
y: 409.8382263183594
z: 0.004720552358776331
visibility: 0.9995784759521484
","x: 258.51416015625
y: 464.1584777832031
z: -0.0629364475607872
visibility: 0.9088602066040039
","x: 245.50186157226562
y: 468.9741516113281
z: -0.0060509610921144485
visibility: 0.9835909008979797
","x: 258.20269775390625
y: 497.424072265625
z: 0.19069288671016693
visibility: 0.9194556474685669
","x: 246.95709228515625
y: 523.435302734375
z: 0.12247686088085175
visibility: 0.9792366027832031
","x: 257.5894775390625
y: 498.516357421875
z: 0.2143404483795166
visibility: 0.8504575490951538
","x: 245.96737670898438
y: 529.7551879882812
z: 0.13283681869506836
visibility: 0.8799848556518555
","x: 254.05987548828125
y: 521.6747436523438
z: 0.16973648965358734
visibility: 0.922741711139679
","x: 245.5144805908203
y: 540.5170288085938
z: 0.05794268101453781
visibility: 0.9738648533821106
",,,,,,,,,,,,,,,,,,,,,,,,,,,,,,,,,,,,,,,,,,
26,"x: 246.67906188964844
y: 302.632568359375
z: -0.15191279351711273
visibility: 0.9990192651748657
","x: 247.75350952148438
y: 298.0568542480469
z: -0.14146310091018677
visibility: 0.9979764223098755
","x: 248.65594482421875
y: 298.0755310058594
z: -0.14148953557014465
visibility: 0.9980789422988892
","x: 249.57546997070312
y: 298.1604309082031
z: -0.14152933657169342
visibility: 0.997996985912323
","x: 245.3749237060547
y: 298.0788879394531
z: -0.13975703716278076
visibility: 0.9982865452766418
","x: 244.57635498046875
y: 298.1624755859375
z: -0.1398002803325653
visibility: 0.998441755771637
","x: 243.71900939941406
y: 298.3595886230469
z: -0.13982722163200378
visibility: 0.9982777237892151
","x: 251.64462280273438
y: 300.8309020996094
z: -0.07271380722522736
visibility: 0.9974687695503235
","x: 243.1790008544922
y: 302.6543884277344
z: -0.06234366446733475
visibility: 0.9968913197517395
","x: 248.93128967285156
y: 307.6221008300781
z: -0.1257644146680832
visibility: 0.998315155506134
","x: 245.94308471679688
y: 308.4624938964844
z: -0.12363076210021973
visibility: 0.9982160329818726
","x: 267.8789978027344
y: 327.7101135253906
z: -0.03094293735921383
visibility: 0.9996148347854614
","x: 237.06605529785156
y: 335.4654541015625
z: -0.02030012011528015
visibility: 0.9994553327560425
","x: 275.5754089355469
y: 355.0729064941406
z: -0.0782758891582489
visibility: 0.8257505893707275
","x: 225.87893676757812
y: 365.1499938964844
z: -0.11006764322519302
visibility: 0.9753594398498535
","x: 283.5209045410156
y: 371.2969665527344
z: -0.2109653651714325
visibility: 0.8398981690406799
","x: 229.04246520996094
y: 341.1603088378906
z: -0.2938331067562103
visibility: 0.9436789751052856
","x: 287.201171875
y: 371.68939208984375
z: -0.23920896649360657
visibility: 0.8067988753318787
","x: 228.21841430664062
y: 330.1400451660156
z: -0.31722038984298706
visibility: 0.9189271330833435
","x: 287.1703186035156
y: 370.4941101074219
z: -0.2528828978538513
visibility: 0.8135046362876892
","x: 229.1307830810547
y: 326.333984375
z: -0.3229333758354187
visibility: 0.9184977412223816
","x: 285.3683776855469
y: 370.69158935546875
z: -0.2197810709476471
visibility: 0.7932594418525696
","x: 230.3568878173828
y: 331.158203125
z: -0.29597386717796326
visibility: 0.8929003477096558
","x: 265.41497802734375
y: 409.9230651855469
z: -0.009089319035410881
visibility: 0.9995197057723999
","x: 247.3094024658203
y: 413.22198486328125
z: 0.009126020595431328
visibility: 0.9995054006576538
","x: 261.3752136230469
y: 446.5843200683594
z: -0.2263529747724533
visibility: 0.9170973300933838
","x: 247.74224853515625
y: 470.4302673339844
z: -0.02185230515897274
visibility: 0.980245053768158
","x: 261.3599853515625
y: 493.1752014160156
z: -0.029401058331131935
visibility: 0.9224969744682312
","x: 246.81100463867188
y: 525.59375
z: 0.12038339674472809
visibility: 0.9780033826828003
","x: 261.12835693359375
y: 496.515380859375
z: -0.011571971699595451
visibility: 0.8498885035514832
","x: 246.8526611328125
y: 532.6019897460938
z: 0.1149522215127945
visibility: 0.8735777735710144
","x: 259.283447265625
y: 514.84765625
z: -0.07472119480371475
visibility: 0.9264691472053528
","x: 245.06692504882812
y: 540.5730590820312
z: -0.0054710498079657555
visibility: 0.9709981083869934
",,,,,,,,,,,,,,,,,,,,,,"x: 227.1113739013672
y: 336.5260314941406
z: 0.0
","x: 230.44171142578125
y: 333.3622741699219
z: -0.003327141050249338
","x: 233.1685333251953
y: 328.2197265625
z: -0.0062032523564994335
","x: 233.57498168945312
y: 324.4352722167969
z: -0.009480261243879795
","x: 232.06094360351562
y: 322.22991943359375
z: -0.012049169279634953
","x: 231.0489959716797
y: 315.9268798828125
z: -0.002870159689337015
","x: 230.60897827148438
