uscmakers/ReverseChoreography/data/3_skeletons_keshi.csv
,NOSE,LEFT_EYE_INNER,LEFT_EYE,LEFT_EYE_OUTER,RIGHT_EYE_INNER,RIGHT_EYE,RIGHT_EYE_OUTER,LEFT_EAR,RIGHT_EAR,MOUTH_LEFT,MOUTH_RIGHT,LEFT_SHOULDER,RIGHT_SHOULDER,LEFT_ELBOW,RIGHT_ELBOW,LEFT_WRIST,RIGHT_WRIST,LEFT_PINKY,RIGHT_PINKY,LEFT_INDEX,RIGHT_INDEX,LEFT_THUMB,RIGHT_THUMB,LEFT_HIP,RIGHT_HIP,LEFT_KNEE,RIGHT_KNEE,LEFT_ANKLE,RIGHT_ANKLE,LEFT_HEEL,RIGHT_HEEL,LEFT_FOOT_INDEX,RIGHT_FOOT_INDEX,WRIST,THUMB_CPC,THUMB_MCP,THUMB_IP,THUMB_TIP,INDEX_FINGER_MCP,INDEX_FINGER_PIP,INDEX_FINGER_DIP,INDEX_FINGER_TIP,MIDDLE_FINGER_MCP,MIDDLE_FINGER_PIP,MIDDLE_FINGER_DIP,MIDDLE_FINGER_TIP,RING_FINGER_PIP,RING_FINGER_DIP,RING_FINGER_TIP,RING_FINGER_MCP,PINKY_MCP,PINKY_PIP,PINKY_DIP,PINKY_TIP,WRIST2,THUMB_CPC2,THUMB_MCP2,THUMB_IP2,THUMB_TIP2,INDEX_FINGER_MCP2,INDEX_FINGER_PIP2,INDEX_FINGER_DIP2,INDEX_FINGER_TIP2,MIDDLE_FINGER_MCP2,MIDDLE_FINGER_PIP2,MIDDLE_FINGER_DIP2,MIDDLE_FINGER_TIP2,RING_FINGER_PIP2,RING_FINGER_DIP2,RING_FINGER_TIP2,RING_FINGER_MCP2,PINKY_MCP2,PINKY_PIP2,PINKY_DIP2,PINKY_TIP2
0,"x: 246.27809143066406
y: 317.78790283203125
z: -0.09509658813476562
visibility: 0.9998109936714172
","x: 247.687255859375
y: 313.00360107421875
z: -0.08616610616445541
visibility: 0.9997009038925171
","x: 248.69129943847656
y: 312.92864990234375
z: -0.08616496622562408
visibility: 0.9996832609176636
","x: 249.74850463867188
y: 312.9468078613281
z: -0.0861787497997284
visibility: 0.9996992349624634
","x: 245.0731658935547
y: 313.1617431640625
z: -0.08177225291728973
visibility: 0.9996520280838013
","x: 244.25433349609375
y: 313.2025146484375
z: -0.08178427815437317
visibility: 0.9995391368865967
","x: 243.4644775390625
y: 313.2855224609375
z: -0.08182483166456223
visibility: 0.9996215105056763
","x: 251.74337768554688
y: 315.3848571777344
z: -0.018028805032372475
visibility: 0.9995412826538086
","x: 243.5790252685547
y: 316.57000732421875
z: 0.0007247955654747784
visibility: 0.9992437362670898
","x: 248.945068359375
y: 322.52130126953125
z: -0.06818460673093796
visibility: 0.9994969367980957
","x: 245.46315002441406
y: 322.76763916015625
z: -0.06309259682893753
visibility: 0.999472439289093
","x: 261.5944519042969
y: 342.5057373046875
z: -0.010637568309903145
visibility: 0.999804675579071
","x: 239.35922241210938
y: 347.181396484375
z: 0.0673399567604065
visibility: 0.9994851350784302
","x: 259.5936279296875
y: 379.08270263671875
z: -0.10358981788158417
visibility: 0.9665051102638245
","x: 234.60186767578125
y: 384.3301086425781
z: -0.024237725883722305
visibility: 0.8441067337989807
","x: 256.1211853027344
y: 349.10467529296875
z: -0.21640530228614807
visibility: 0.9696564078330994
","x: 243.9427490234375
y: 365.8687744140625
z: -0.1858213096857071
visibility: 0.8977951407432556
","x: 255.44961547851562
y: 335.30816650390625
z: -0.2446431815624237
visibility: 0.9525511264801025
","x: 247.93292236328125
y: 357.7987976074219
z: -0.21106083691120148
visibility: 0.815809428691864
","x: 256.1443786621094
y: 333.6943054199219
z: -0.23877760767936707
visibility: 0.9508340358734131
","x: 248.40591430664062
y: 352.13458251953125
z: -0.2058078795671463
visibility: 0.7997897267341614
","x: 256.1488342285156
y: 337.1322021484375
z: -0.21649077534675598
visibility: 0.9262538552284241
","x: 247.65390014648438
y: 356.4067077636719
z: -0.18733277916908264
visibility: 0.7658050656318665
","x: 263.43414306640625
y: 419.4139099121094
z: -0.044331517070531845
visibility: 0.9997953772544861
","x: 249.48878479003906
y: 423.3114013671875
z: 0.04443729296326637
visibility: 0.9995895028114319
","x: 257.2253723144531
y: 474.349609375
z: -0.14808079600334167
visibility: 0.994925856590271
","x: 240.72149658203125
y: 483.7874755859375
z: 0.028891807422041893
visibility: 0.9251747131347656
","x: 270.0731201171875
y: 534.6424560546875
z: -0.1182413250207901
visibility: 0.9941563606262207
","x: 253.25091552734375
y: 536.1197509765625
z: 0.12100585550069809
visibility: 0.951138973236084
","x: 271.9257507324219
y: 539.309326171875
z: -0.11837320029735565
visibility: 0.9403056502342224
","x: 259.4200439453125
y: 544.059814453125
z: 0.12608548998832703
visibility: 0.8948160409927368
","x: 267.7259826660156
y: 561.871826171875
z: -0.1988067477941513
visibility: 0.9919151067733765
","x: 239.74688720703125
y: 551.5473022460938
z: 0.06596127897500992
visibility: 0.9439718723297119
",,,,,,,,,,,,,,,,,,,,,,,,,,,,,,,,,,,,,,,,,,
1,"x: 244.93923950195312
y: 322.2396545410156
z: -0.0340416356921196
visibility: 0.9997701048851013
","x: 245.63088989257812
y: 317.24188232421875
z: -0.0412786528468132
visibility: 0.9996610283851624
","x: 246.23617553710938
y: 316.99945068359375
z: -0.04130448028445244
visibility: 0.9996456503868103
","x: 246.69525146484375
y: 316.050048828125
z: -0.04133171960711479
visibility: 0.9996708035469055
","x: 244.4254913330078
y: 317.4571533203125
z: -0.02434520609676838
visibility: 0.9995970129966736
","x: 244.0263671875
y: 317.4326171875
z: -0.024361534044146538
visibility: 0.9994601011276245
","x: 243.4585418701172
y: 317.3644714355469
z: -0.024424344301223755
visibility: 0.9995744824409485
","x: 249.4530487060547
y: 315.86968994140625
z: -0.03670214116573334
visibility: 0.9995087385177612
","x: 244.63502502441406
y: 317.554443359375
z: 0.03493114933371544
visibility: 0.9991550445556641
","x: 247.45484924316406
y: 324.6424560546875
z: -0.03238462656736374
visibility: 0.9992716312408447
","x: 245.43142700195312
y: 325.5198974609375
z: -0.010092195123434067
visibility: 0.9990968108177185
","x: 262.0539855957031
y: 336.576904296875
z: -0.06243522837758064
visibility: 0.9996892213821411
","x: 245.62620544433594
y: 341.85833740234375
z: 0.08140477538108826
visibility: 0.9993718862533569
","x: 248.50564575195312
y: 358.4322509765625
z: -0.11745132505893707
visibility: 0.9655295014381409
","x: 240.79547119140625
y: 364.6169738769531
z: 0.0581011064350605
visibility: 0.8226707577705383
","x: 249.56668090820312
y: 324.30535888671875
z: -0.0908876359462738
visibility: 0.9562287926673889
","x: 244.7391357421875
y: 324.3448181152344
z: -0.013045686297118664
visibility: 0.8819040060043335
","x: 247.2801055908203
y: 315.9647216796875
z: -0.09654175490140915
visibility: 0.9364521503448486
","x: 246.1489715576172
y: 316.3951416015625
z: -0.02696438692510128
visibility: 0.7995265126228333
","x: 248.4423370361328
y: 314.6793212890625
z: -0.09579648077487946
visibility: 0.9336615800857544
","x: 246.25001525878906
y: 315.1634826660156
z: -0.02136203460395336
visibility: 0.7841944098472595
","x: 249.43650817871094
y: 316.8994445800781
z: -0.08921784907579422
visibility: 0.9072250127792358
","x: 246.68858337402344
y: 318.2356872558594
z: -0.015133406035602093
visibility: 0.7517600655555725
","x: 265.04913330078125
y: 423.4152526855469
z: -0.057269491255283356
visibility: 0.9997665882110596
","x: 252.5507049560547
y: 424.0499267578125
z: 0.05723176524043083
visibility: 0.9995933771133423
","x: 253.21717834472656
y: 479.5512390136719
z: -0.10833718627691269
visibility: 0.9945371150970459
","x: 242.0230255126953
y: 483.6385803222656
z: 0.01382424496114254
visibility: 0.9231284856796265
","x: 269.9181823730469
y: 536.2296142578125
z: -0.10344962030649185
visibility: 0.9940128922462463
","x: 253.72824096679688
y: 537.7892456054688
z: 0.02814647927880287
visibility: 0.9513455033302307
","x: 274.6604309082031
y: 540.8508911132812
z: -0.10422497987747192
visibility: 0.9414917230606079
","x: 258.8990173339844
y: 546.345458984375
z: 0.02651120163500309
visibility: 0.895047664642334
","x: 267.0818176269531
y: 564.18017578125
z: -0.15358763933181763
visibility: 0.9919207096099854
","x: 239.68479919433594
y: 551.5830688476562
z: -0.01508666854351759
visibility: 0.9456700086593628
",,,,,,,,,,,,,,,,,,,,,,,,,,,,,,,,,,,,,,,,,,
2,"x: 244.95391845703125
y: 322.7564697265625
z: -0.02277328073978424
visibility: 0.9997351169586182
","x: 245.75808715820312
y: 319.0706787109375
z: -0.023615198209881783
visibility: 0.9996242523193359
","x: 246.456787109375
y: 318.82379150390625
z: -0.023647049441933632
visibility: 0.9996097683906555
","x: 247.08905029296875
y: 318.163818359375
z: -0.023675333708524704
visibility: 0.999648928642273
","x: 244.50364685058594
y: 319.6448059082031
z: -0.010550713166594505
visibility: 0.9995559453964233
","x: 244.2006378173828
y: 319.892578125
z: -0.010568271391093731
visibility: 0.9994019269943237
","x: 243.76968383789062
y: 319.9900207519531
z: -0.010633200407028198
visibility: 0.9995337128639221
","x: 249.99288940429688
y: 317.55511474609375
z: -0.008702081628143787
visibility: 0.9994783997535706
","x: 245.57241821289062
y: 320.2228088378906
z: 0.055601567029953
visibility: 0.9990637302398682
","x: 247.5222625732422
y: 325.3062744140625
z: -0.014473952353000641
visibility: 0.9990664720535278
","x: 245.5076141357422
y: 326.3900451660156
z: 0.003136920277029276
visibility: 0.9985749125480652
","x: 264.8611755371094
y: 337.0863342285156
z: -0.04051345959305763
visibility: 0.9996379613876343
","x: 246.3902587890625
y: 342.5683898925781
z: 0.09050489962100983
visibility: 0.9990580677986145
","x: 258.229736328125
y: 344.3579406738281
z: -0.11668179929256439
visibility: 0.9669957756996155
","x: 244.22186279296875
y: 366.5990905761719
z: 0.03425341099500656
visibility: 0.8205299377441406
","x: 249.67088317871094
y: 315.29644775390625
z: -0.12940570712089539
visibility: 0.9541059136390686
","x: 245.92225646972656
y: 320.93896484375
z: -0.06313726305961609
visibility: 0.8830854892730713
","x: 246.42117309570312
y: 313.0231018066406
z: -0.1426021307706833
visibility: 0.9325624704360962
","x: 245.10366821289062
y: 314.5837097167969
z: -0.0831928700208664
visibility: 0.8016065955162048
","x: 246.72689819335938
y: 312.210693359375
z: -0.1367683857679367
visibility: 0.9289972186088562
","x: 245.18057250976562
y: 313.35260009765625
z: -0.07483083754777908
visibility: 0.7863394618034363
","x: 248.27090454101562
y: 314.1343078613281
z: -0.1269557625055313
visibility: 0.9016786217689514
","x: 246.22650146484375
y: 316.3198547363281
z: -0.064791738986969
visibility: 0.7547705769538879
","x: 267.3641052246094
y: 424.0045166015625
z: -0.055545173585414886
visibility: 0.9997673034667969
","x: 253.4329071044922
y: 424.5071716308594
z: 0.05550151318311691
visibility: 0.9996015429496765
","x: 257.828369140625
y: 485.3039245605469
z: -0.10903649032115936
visibility: 0.9944278001785278
","x: 243.65579223632812
y: 483.6283874511719
z: 0.013796648010611534
visibility: 0.9221644997596741
","x: 275.0516357421875
y: 542.892822265625
z: -0.11276735365390778
visibility: 0.9939249157905579
","x: 253.71522521972656
y: 538.0299072265625
z: 0.04683610051870346
visibility: 0.9500423073768616
","x: 281.46624755859375
y: 550.4383544921875
z: -0.11752305924892426
visibility: 0.940470814704895
","x: 257.47467041015625
y: 546.5701904296875
z: 0.04727786406874657
visibility: 0.8911316394805908
","x: 266.92724609375
y: 565.64990234375
z: -0.16830405592918396
visibility: 0.9917387962341309
","x: 239.03558349609375
y: 551.2836303710938
z: 0.0016510409768670797
visibility: 0.9457518458366394
",,,,,,,,,,,,,,,,,,,,,,,,,,,,,,,,,,,,,,,,,,
3,"x: 246.8813934326172
y: 322.5572204589844
z: -0.14741241931915283
visibility: 0.9997317790985107
","x: 246.4847412109375
y: 318.7415771484375
z: -0.14261676371097565
visibility: 0.9996157884597778
","x: 246.9215850830078
y: 318.64312744140625
z: -0.1426338106393814
visibility: 0.9996002316474915
","x: 247.3021240234375
y: 317.65203857421875
z: -0.14266732335090637
visibility: 0.9996449947357178
","x: 245.65390014648438
y: 318.7875671386719
z: -0.1336817890405655
visibility: 0.9995437860488892
","x: 245.42807006835938
y: 318.969970703125
z: -0.13368651270866394
visibility: 0.999389111995697
","x: 245.19320678710938
y: 319.081787109375
z: -0.1337258666753769
visibility: 0.9995207190513611
","x: 250.09339904785156
y: 316.2527160644531
z: -0.09805052727460861
visibility: 0.9995023012161255
","x: 246.23760986328125
y: 320.1271057128906
z: -0.052869923412799835
visibility: 0.9991095662117004
","x: 249.75843811035156
y: 324.7167663574219
z: -0.12960058450698853
visibility: 0.9991331696510315
","x: 248.61573791503906
y: 326.3296203613281
z: -0.11652646958827972
visibility: 0.9986169338226318
","x: 267.08123779296875
y: 334.3275451660156
z: -0.10510843992233276
visibility: 0.9996653199195862
","x: 245.79270935058594
y: 343.4111328125
z: -0.02250734344124794
visibility: 0.9988620281219482
","x: 277.7939147949219
y: 300.54345703125
z: -0.2566370368003845
visibility: 0.9700394868850708
","x: 241.87957763671875
y: 368.36346435546875
z: -0.14811643958091736
visibility: 0.8358017802238464
","x: 253.365234375
y: 306.10150146484375
z: -0.3007499575614929
visibility: 0.9539749026298523
","x: 249.55404663085938
y: 327.9440612792969
z: -0.27396360039711
visibility: 0.8902042508125305
","x: 248.4368133544922
y: 307.41229248046875
z: -0.3259449005126953
visibility: 0.9235008955001831
","x: 247.9574737548828
y: 315.58428955078125
z: -0.30708467960357666
visibility: 0.8101241588592529
","x: 248.99208068847656
y: 309.9765625
z: -0.3085187077522278
visibility: 0.9183998703956604
","x: 248.52084350585938
y: 316.9327087402344
z: -0.29016220569610596
visibility: 0.7947065234184265
","x: 249.0991668701172
y: 311.91448974609375
z: -0.2966037094593048
visibility: 0.8901380896568298
","x: 249.80604553222656
y: 321.72711181640625
z: -0.2734888195991516
visibility: 0.7633675336837769
","x: 271.3240051269531
y: 426.00262451171875
z: -0.04715508595108986
visibility: 0.9997864961624146
","x: 255.82135009765625
y: 425.86083984375
z: 0.047046348452568054
visibility: 0.999625563621521
","x: 266.2429504394531
y: 491.1911315917969
z: -0.07441355288028717
visibility: 0.9946864247322083
","x: 243.55694580078125
y: 484.1323547363281
z: 0.058038972318172455
visibility: 0.9279552102088928
","x: 277.11871337890625
y: 549.256103515625
z: -0.01643766090273857
visibility: 0.9941303730010986
","x: 251.3280792236328
y: 532.2617797851562
z: 0.21707749366760254
visibility: 0.9489768147468567
","x: 281.3486022949219
y: 558.6383666992188
z: -0.014825919643044472
visibility: 0.9404619336128235
","x: 255.5521240234375
y: 538.6522216796875
z: 0.2306440770626068
visibility: 0.8857845664024353
","x: 266.16070556640625
y: 566.5882568359375
z: -0.09992735832929611
visibility: 0.9917314648628235
","x: 239.7168731689453
y: 550.8058471679688
z: 0.19029930233955383
visibility: 0.9448903203010559
",,,,,,,,,,,,,,,,,,,,,,,,,,,,,,,,,,,,,,,,,,
4,"x: 249.99742126464844
y: 326.3133239746094
z: -0.1957797408103943
visibility: 0.9996053576469421
","x: 250.65631103515625
y: 321.2837219238281
z: -0.18734215199947357
visibility: 0.9993988275527954
","x: 251.38143920898438
y: 321.0200500488281
z: -0.18732452392578125
visibility: 0.9993179440498352
","x: 252.1693115234375
y: 320.4539489746094
z: -0.18736474215984344
visibility: 0.9993945360183716
","x: 248.99293518066406
y: 322.1591796875
z: -0.1808764487504959
visibility: 0.9993532299995422
","x: 248.45852661132812
y: 322.57977294921875
z: -0.18091657757759094
visibility: 0.999179482460022
","x: 247.96588134765625
y: 323.0121154785156
z: -0.18095582723617554
visibility: 0.9993977546691895
","x: 254.3125762939453
y: 320.1734924316406
z: -0.12398120015859604
visibility: 0.9993228316307068
","x: 247.83413696289062
y: 324.69195556640625
z: -0.09147743880748749
visibility: 0.9990713000297546
","x: 252.66465759277344
y: 330.2154235839844
z: -0.17069026827812195
visibility: 0.9990764856338501
","x: 250.6381378173828
y: 331.808837890625
z: -0.16150599718093872
visibility: 0.998592734336853
","x: 270.4010925292969
y: 334.05340576171875
z: -0.10953550040721893
visibility: 0.9996577501296997
","x: 245.02000427246094
y: 347.52435302734375
z: -0.049187563359737396
visibility: 0.998846709728241
","x: 287.313232421875
y: 310.8128662109375
z: -0.26487842202186584
visibility: 0.9729028344154358
","x: 229.09410095214844
y: 366.72650146484375
z: -0.1794344037771225
visibility: 0.8517098426818848
","x: 266.10699462890625
y: 301.1998291015625
z: -0.3334653079509735
visibility: 0.9549461007118225
","x: 247.560791015625
y: 336.6870422363281
z: -0.3059382736682892
visibility: 0.8971431255340576
","x: 258.4664001464844
y: 301.1944885253906
z: -0.3598502278327942
visibility: 0.914911687374115
","x: 248.73086547851562
y: 326.291015625
z: -0.3368808329105377
visibility: 0.8136892914772034
","x: 257.92083740234375
y: 304.71380615234375
z: -0.3334025740623474
visibility: 0.9073635339736938
","x: 249.93922424316406
y: 325.3163146972656
z: -0.3134435713291168
visibility: 0.7968518733978271
","x: 260.47625732421875
y: 306.63946533203125
z: -0.3261985182762146
visibility: 0.8780146837234497
","x: 249.98284912109375
y: 329.52679443359375
z: -0.30152836441993713
visibility: 0.7659199833869934
","x: 272.3120422363281
y: 428.034912109375
z: -0.033224307000637054
visibility: 0.999729335308075
","x: 257.23040771484375
y: 428.3807678222656
z: 0.0330892875790596
visibility: 0.9994468688964844
","x: 268.0618591308594
y: 492.2264099121094
z: -0.06920497864484787
visibility: 0.9924706816673279
","x: 243.23593139648438
y: 491.2530822753906
z: -0.0013828242663294077
visibility: 0.9177913069725037
","x: 278.01202392578125
y: 550.7398681640625
z: 0.05011192709207535
visibility: 0.9861149191856384
","x: 241.47164916992188
y: 532.775634765625
z: 0.16808180510997772
visibility: 0.9223966002464294
","x: 281.6127624511719
y: 560.02978515625
z: 0.058750659227371216
visibility: 0.8992049098014832
","x: 244.57943725585938
y: 538.9954223632812
z: 0.21318471431732178
visibility: 0.8401696085929871
","x: 266.1786804199219
y: 566.9774169921875
z: -0.019324006512761116
visibility: 0.9766371250152588
","x: 240.34326171875
y: 566.778076171875
z: 0.07479487359523773
visibility: 0.9132933020591736
","x: 244.8084716796875
y: 340.773193359375
z: 0.0
","x: 248.8018798828125
y: 338.9331359863281
z: 0.00038996609509922564
","x: 251.62782287597656
y: 335.02203369140625
z: -0.0005027276929467916
","x: 253.0184326171875
y: 331.23931884765625
z: -0.0021119671873748302
","x: 252.95022583007812
y: 328.48712158203125
z: -0.003273711306974292
","x: 250.05670166015625
y: 326.6877746582031
z: 0.00017386773834004998
","x: 252.25579833984375
y: 320.967529296875
z: -0.001895800931379199
","x: 254.02084350585938
y: 320.1240539550781
z: -0.0028173038735985756
","x: 255.08193969726562
y: 320.3076477050781
z: -0.0032235535327345133
","x: 248.62521362304688
y: 326.57879638671875
z: -0.0017195791006088257
","x: 251.8865509033203
y: 323.0331115722656
z: -0.003570501459762454
","x: 253.61056518554688
y: 325.2354431152344
z: -0.0035059978254139423
","x: 254.17791748046875
y: 327.4300842285156
z: -0.003155425889417529
","x: 247.4652099609375
y: 327.6820373535156
z: -0.0038788982201367617
","x: 250.92701721191406
y: 326.52838134765625
z: -0.0057860566303133965
","x: 251.94253540039062
y: 329.3814392089844
z: -0.00481809675693512
","x: 251.91407775878906
y: 331.80511474609375
z: -0.003763374639675021
","x: 246.6538848876953
y: 329.846923828125
z: -0.006239008158445358
","x: 249.77645874023438
y: 329.3049621582031
z: -0.007582979276776314
","x: 250.86141967773438
y: 331.2510986328125
z: -0.006809729151427746
","x: 250.99285888671875
y: 333.07855224609375
z: -0.005849904380738735
",,,,,,,,,,,,,,,,,,,,,
5,"x: 249.99742126464844
y: 326.3133239746094
z: -0.1957797408103943
visibility: 0.9996053576469421
","x: 250.65631103515625
y: 321.2837219238281
z: -0.18734215199947357
visibility: 0.9993988275527954
","x: 251.38143920898438
y: 321.0200500488281
z: -0.18732452392578125
visibility: 0.9993179440498352
","x: 252.1693115234375
y: 320.4539489746094
z: -0.18736474215984344
visibility: 0.9993945360183716
","x: 248.99293518066406
y: 322.1591796875
z: -0.1808764487504959
visibility: 0.9993532299995422
","x: 248.45852661132812
y: 322.57977294921875
z: -0.18091657757759094
visibility: 0.999179482460022
","x: 247.96588134765625
y: 323.0121154785156
z: -0.18095582723617554
visibility: 0.9993977546691895
","x: 254.3125762939453
y: 320.1734924316406
z: -0.12398120015859604
visibility: 0.9993228316307068
","x: 247.83413696289062
y: 324.69195556640625
z: -0.09147743880748749
visibility: 0.9990713000297546
","x: 252.66465759277344
y: 330.2154235839844
z: -0.17069026827812195
visibility: 0.9990764856338501
","x: 250.6381378173828
y: 331.808837890625
z: -0.16150599718093872
visibility: 0.998592734336853
","x: 270.4010925292969
y: 334.05340576171875
z: -0.10953550040721893
visibility: 0.9996577501296997
","x: 245.02000427246094
y: 347.52435302734375
z: -0.049187563359737396
visibility: 0.998846709728241
","x: 287.313232421875
y: 310.8128662109375
z: -0.26487842202186584
visibility: 0.9729028344154358
","x: 229.09410095214844
y: 366.72650146484375
z: -0.1794344037771225
visibility: 0.8517098426818848
","x: 266.10699462890625
y: 301.1998291015625
z: -0.3334653079509735
visibility: 0.9549461007118225
","x: 247.560791015625
y: 336.6870422363281
z: -0.3059382736682892
visibility: 0.8971431255340576
","x: 258.4664001464844
y: 301.1944885253906
z: -0.3598502278327942
visibility: 0.914911687374115
","x: 248.73086547851562
y: 326.291015625
z: -0.3368808329105377
visibility: 0.8136892914772034
","x: 257.92083740234375
y: 304.71380615234375
z: -0.3334025740623474
visibility: 0.9073635339736938
","x: 249.93922424316406
y: 325.3163146972656
z: -0.3134435713291168
visibility: 0.7968518733978271
","x: 260.47625732421875
y: 306.63946533203125
z: -0.3261985182762146
visibility: 0.8780146837234497
","x: 249.98284912109375
y: 329.52679443359375
z: -0.30152836441993713
visibility: 0.7659199833869934
","x: 272.3120422363281
y: 428.034912109375
z: -0.033224307000637054
visibility: 0.999729335308075
","x: 257.23040771484375
y: 428.3807678222656
z: 0.0330892875790596
visibility: 0.9994468688964844
","x: 268.0618591308594
y: 492.2264099121094
z: -0.06920497864484787
visibility: 0.9924706816673279
","x: 243.23593139648438
y: 491.2530822753906
z: -0.0013828242663294077
visibility: 0.9177913069725037
","x: 278.01202392578125
y: 550.7398681640625
z: 0.05011192709207535
visibility: 0.9861149191856384
","x: 241.47164916992188
y: 532.775634765625
z: 0.16808180510997772
visibility: 0.9223966002464294
","x: 281.6127624511719
y: 560.02978515625
z: 0.058750659227371216
visibility: 0.8992049098014832
","x: 244.57943725585938
y: 538.9954223632812
z: 0.21318471431732178
visibility: 0.8401696085929871
","x: 266.1786804199219
y: 566.9774169921875
z: -0.019324006512761116
visibility: 0.9766371250152588
","x: 240.34326171875
y: 566.778076171875
z: 0.07479487359523773
visibility: 0.9132933020591736
","x: 244.8084716796875
y: 340.773193359375
z: 0.0
","x: 248.8018798828125
y: 338.9331359863281
z: 0.00038996609509922564
","x: 251.62782287597656
y: 335.02203369140625
z: -0.0005027276929467916
","x: 253.0184326171875
y: 331.23931884765625
z: -0.0021119671873748302
","x: 252.95022583007812
y: 328.48712158203125
z: -0.003273711306974292
","x: 250.05670166015625
y: 326.6877746582031
z: 0.00017386773834004998
","x: 252.25579833984375
y: 320.967529296875
z: -0.001895800931379199
","x: 254.02084350585938
y: 320.1240539550781
z: -0.0028173038735985756
","x: 255.08193969726562
y: 320.3076477050781
z: -0.0032235535327345133
","x: 248.62521362304688
y: 326.57879638671875
z: -0.0017195791006088257
","x: 251.8865509033203
y: 323.0331115722656
z: -0.003570501459762454
","x: 253.61056518554688
y: 325.2354431152344
z: -0.0035059978254139423
","x: 254.17791748046875
y: 327.4300842285156
z: -0.003155425889417529
","x: 247.4652099609375
y: 327.6820373535156
z: -0.0038788982201367617
","x: 250.92701721191406
y: 326.52838134765625
z: -0.0057860566303133965
","x: 251.94253540039062
y: 329.3814392089844
z: -0.00481809675693512
","x: 251.91407775878906
y: 331.80511474609375
z: -0.003763374639675021
","x: 246.6538848876953
y: 329.846923828125
z: -0.006239008158445358
","x: 249.77645874023438
y: 329.3049621582031
z: -0.007582979276776314
","x: 250.86141967773438
y: 331.2510986328125
z: -0.006809729151427746
","x: 250.99285888671875
y: 333.07855224609375
z: -0.005849904380738735
",,,,,,,,,,,,,,,,,,,,,
6,"x: 258.24853515625
y: 325.306640625
z: -0.22556321322917938
visibility: 0.9996209144592285
","x: 257.99822998046875
y: 320.4813232421875
z: -0.21610088646411896
visibility: 0.9994141459465027
","x: 258.5535583496094
y: 320.2320861816406
z: -0.21605518460273743
visibility: 0.9993283748626709
","x: 259.1258239746094
y: 319.7791748046875
z: -0.216090127825737
visibility: 0.9994019269943237
","x: 255.78179931640625
y: 321.22039794921875
z: -0.2150919884443283
visibility: 0.9993817210197449
","x: 254.7274627685547
y: 321.5563659667969
z: -0.21513934433460236
visibility: 0.9992231726646423
","x: 253.61000061035156
y: 321.9095458984375
z: -0.21515938639640808
visibility: 0.9994320273399353
","x: 258.85198974609375
y: 319.74835205078125
z: -0.14398624002933502
visibility: 0.999312698841095
","x: 250.28994750976562
y: 323.8485107421875
z: -0.1388229876756668
visibility: 0.9991402626037598
","x: 259.6453552246094
y: 329.25067138671875
z: -0.1964758336544037
visibility: 0.9991452097892761
","x: 256.7740478515625
y: 330.5021667480469
z: -0.19512775540351868
visibility: 0.9987137913703918
","x: 272.1680603027344
y: 334.7790222167969
z: -0.11770546436309814
visibility: 0.9996782541275024
","x: 244.55697631835938
y: 348.19329833984375
z: -0.08843182027339935
visibility: 0.9989250898361206
","x: 290.1608581542969
y: 321.5660400390625
z: -0.2616308927536011
visibility: 0.975427508354187
","x: 223.3513641357422
y: 366.29022216796875
z: -0.21689936518669128
visibility: 0.8663346171379089
","x: 275.9015808105469
y: 306.883056640625
z: -0.381818026304245
visibility: 0.9582072496414185
","x: 236.04327392578125
y: 339.67822265625
z: -0.35903388261795044
visibility: 0.9064613580703735
","x: 270.6940612792969
y: 304.6253356933594
z: -0.41158780455589294
visibility: 0.9184765815734863
","x: 241.1034698486328
y: 331.1640625
z: -0.3882977366447449
visibility: 0.8281539678573608
","x: 269.3343505859375
y: 306.8304748535156
z: -0.38886740803718567
visibility: 0.9107825756072998
","x: 242.98223876953125
y: 334.0208435058594
z: -0.36967912316322327
visibility: 0.8123012781143188
","x: 270.5315246582031
y: 309.1330261230469
z: -0.3762299120426178
visibility: 0.8822775483131409
","x: 242.42654418945312
y: 336.765869140625
z: -0.35522571206092834
visibility: 0.7831134796142578
","x: 273.6372985839844
y: 428.6427001953125
z: -0.02217605896294117
visibility: 0.9997144341468811
","x: 256.69476318359375
y: 429.4664306640625
z: 0.02201964519917965
visibility: 0.9993779063224792
","x: 269.28619384765625
y: 491.8811340332031
z: -0.05947699397802353
visibility: 0.9909297227859497
","x: 242.99180603027344
y: 491.2739562988281
z: 0.00942589808255434
visibility: 0.9132182002067566
","x: 278.7242431640625
y: 549.9881591796875
z: 0.06712192296981812
visibility: 0.9824341535568237
","x: 240.81478881835938
y: 532.8980712890625
z: 0.18243291974067688
visibility: 0.9069123268127441
","x: 282.3397216796875
y: 558.8475952148438
z: 0.07592292129993439
visibility: 0.8599671721458435
","x: 243.1600341796875
y: 539.1625366210938
z: 0.19799081981182098
visibility: 0.8003115653991699
","x: 266.7183837890625
y: 566.721923828125
z: -0.005615240894258022
visibility: 0.9699980616569519
","x: 240.49778747558594
y: 563.10009765625
z: 0.1285373866558075
visibility: 0.8959481120109558
",,,,,,,,,,,,,,,,,,,,,,,,,,,,,,,,,,,,,,,,,,
7,"x: 261.8992004394531
y: 326.0555725097656
z: -0.19770215451717377
visibility: 0.9996389746665955
","x: 262.342529296875
y: 321.5365295410156
z: -0.18643994629383087
visibility: 0.9994314908981323
","x: 262.9436340332031
y: 321.33135986328125
z: -0.18640540540218353
visibility: 0.9993382692337036
","x: 263.58880615234375
y: 320.9863586425781
z: -0.1864379346370697
visibility: 0.9994088411331177
","x: 260.1831359863281
y: 321.73223876953125
z: -0.1881275624036789
visibility: 0.9994125962257385
","x: 259.21514892578125
y: 321.75213623046875
z: -0.18817773461341858
visibility: 0.9992679953575134
","x: 258.223388671875
y: 321.8052978515625
z: -0.18820831179618835
visibility: 0.9994683861732483
","x: 263.4966125488281
y: 320.312744140625
z: -0.10882478952407837
visibility: 0.9992952346801758
","x: 254.75526428222656
y: 323.2510070800781
z: -0.11575855314731598
visibility: 0.9992068409919739
","x: 262.80908203125
y: 329.6890869140625
z: -0.16654199361801147
visibility: 0.9992063641548157
","x: 260.0378723144531
y: 330.2080078125
z: -0.1689215898513794
visibility: 0.9988254308700562
","x: 273.350341796875
y: 335.2091979980469
z: -0.08598728477954865
visibility: 0.9996902346611023
","x: 244.5340118408203
y: 348.1100158691406
z: -0.06263380497694016
visibility: 0.9989940524101257
","x: 291.1658020019531
y: 328.60284423828125
z: -0.21118231117725372
visibility: 0.9776122570037842
","x: 224.58705139160156
y: 367.9002380371094
z: -0.16617780923843384
visibility: 0.8794952630996704
","x: 278.7624206542969
y: 310.3083190917969
z: -0.31268343329429626
visibility: 0.9603521823883057
","x: 237.307861328125
y: 341.7379150390625
z: -0.28905582427978516
visibility: 0.9146926403045654
","x: 274.1884460449219
y: 307.6983947753906
z: -0.3412541151046753
visibility: 0.918788492679596
","x: 241.75904846191406
y: 332.8904724121094
z: -0.31636348366737366
visibility: 0.8402413129806519
","x: 272.6389465332031
y: 309.0304870605469
z: -0.3218088448047638
visibility: 0.9107280373573303
","x: 243.5254669189453
y: 334.12518310546875
z: -0.3002225160598755
visibility: 0.8251417875289917
","x: 273.5190124511719
y: 310.9125671386719
z: -0.30849218368530273
visibility: 0.8824363946914673
","x: 242.7848663330078
y: 337.18133544921875
z: -0.28563112020492554
visibility: 0.7969072461128235
","x: 273.1999816894531
y: 429.31024169921875
z: -0.02005833014845848
visibility: 0.999683141708374
","x: 256.0963134765625
y: 430.1665954589844
z: 0.019986417144536972
visibility: 0.9992855191230774
","x: 268.36444091796875
y: 491.1156005859375
z: -0.07961270213127136
visibility: 0.9885306358337402
","x: 242.71041870117188
y: 490.35498046875
z: -0.004258693661540747
visibility: 0.9087992906570435
","x: 278.65643310546875
y: 549.5253295898438
z: 0.030766814947128296
visibility: 0.9775320291519165
","x: 240.77256774902344
y: 531.3790283203125
z: 0.15979018807411194
visibility: 0.8900604248046875
","x: 281.960205078125
y: 558.484619140625
z: 0.0384572371840477
visibility: 0.8298640847206116
","x: 243.1234893798828
y: 538.0645141601562
z: 0.17321838438510895
visibility: 0.7697251439094543
","x: 266.898681640625
y: 566.5040283203125
z: -0.04275837913155556
visibility: 0.9625597596168518
","x: 240.6979522705078
y: 560.537353515625
z: 0.10840640217065811
visibility: 0.8758783936500549
","x: 239.02032470703125
y: 347.3138427734375
z: 0.0
","x: 242.8934326171875
y: 346.2425537109375
z: 0.0005824260879307985
","x: 245.98623657226562
y: 342.8587341308594
z: -0.0001655069791013375
","x: 248.2089385986328
y: 340.188720703125
z: -0.0018224677769467235
","x: 249.81484985351562
y: 338.09613037109375
z: -0.003112675389274955
","x: 245.6298065185547
y: 334.7953796386719
z: 0.000930170645006001
","x: 248.58547973632812
y: 331.3453369140625
z: -0.0017491785110905766
","x: 250.03695678710938
y: 333.5409851074219
z: -0.0031727361492812634
","x: 250.59141540527344
y: 336.0905456542969
z: -0.0037712252233177423
","x: 244.396728515625
y: 334.0154724121094
z: -0.0013047733809798956
","x: 248.16885375976562
y: 331.2313232421875
z: -0.004113213624805212
","x: 249.69189453125
y: 334.9797058105469
z: -0.004972261376678944
","x: 249.84178161621094
y: 338.2962646484375
z: -0.005039660260081291
","x: 243.1234130859375
y: 333.9101867675781
z: -0.0038936850614845753
","x: 246.7714080810547
y: 332.8447265625
z: -0.006231838837265968
","x: 247.51756286621094
y: 336.5290832519531
z: -0.005545449908822775
","x: 247.0378875732422
y: 339.2709045410156
z: -0.004633184056729078
","x: 241.8220977783203
y: 334.78985595703125
z: -0.0067108324728906155
","x: 244.87452697753906
y: 334.4089050292969
z: -0.008090430870652199
","x: 245.51519775390625
y: 337.01104736328125
z: -0.007264201529324055
","x: 245.01126098632812
y: 339.1097412109375
z: -0.006286254618316889
",,,,,,,,,,,,,,,,,,,,,
8,"x: 261.8992004394531
y: 326.0555725097656
z: -0.19770215451717377
visibility: 0.9996389746665955
","x: 262.342529296875
y: 321.5365295410156
z: -0.18643994629383087
visibility: 0.9994314908981323
","x: 262.9436340332031
y: 321.33135986328125
z: -0.18640540540218353
visibility: 0.9993382692337036
","x: 263.58880615234375
y: 320.9863586425781
z: -0.1864379346370697
visibility: 0.9994088411331177
","x: 260.1831359863281
y: 321.73223876953125
z: -0.1881275624036789
visibility: 0.9994125962257385
","x: 259.21514892578125
y: 321.75213623046875
z: -0.18817773461341858
visibility: 0.9992679953575134
","x: 258.223388671875
y: 321.8052978515625
z: -0.18820831179618835
visibility: 0.9994683861732483
","x: 263.4966125488281
y: 320.312744140625
z: -0.10882478952407837
visibility: 0.9992952346801758
","x: 254.75526428222656
y: 323.2510070800781
z: -0.11575855314731598
visibility: 0.9992068409919739
","x: 262.80908203125
y: 329.6890869140625
z: -0.16654199361801147
visibility: 0.9992063641548157
","x: 260.0378723144531
y: 330.2080078125
z: -0.1689215898513794
visibility: 0.9988254308700562
","x: 273.350341796875
y: 335.2091979980469
z: -0.08598728477954865
visibility: 0.9996902346611023
","x: 244.5340118408203
y: 348.1100158691406
z: -0.06263380497694016
visibility: 0.9989940524101257
","x: 291.1658020019531
y: 328.60284423828125
z: -0.21118231117725372
visibility: 0.9776122570037842
","x: 224.58705139160156
y: 367.9002380371094
z: -0.16617780923843384
visibility: 0.8794952630996704
","x: 278.7624206542969
y: 310.3083190917969
z: -0.31268343329429626
visibility: 0.9603521823883057
","x: 237.307861328125
y: 341.7379150390625
z: -0.28905582427978516
visibility: 0.9146926403045654
","x: 274.1884460449219
y: 307.6983947753906
z: -0.3412541151046753
visibility: 0.918788492679596
","x: 241.75904846191406
y: 332.8904724121094
z: -0.31636348366737366
visibility: 0.8402413129806519
","x: 272.6389465332031
y: 309.0304870605469
z: -0.3218088448047638
visibility: 0.9107280373573303
","x: 243.5254669189453
y: 334.12518310546875
z: -0.3002225160598755
visibility: 0.8251417875289917
","x: 273.5190124511719
y: 310.9125671386719
z: -0.30849218368530273
visibility: 0.8824363946914673
","x: 242.7848663330078
y: 337.18133544921875
z: -0.28563112020492554
visibility: 0.7969072461128235
","x: 273.1999816894531
y: 429.31024169921875
z: -0.02005833014845848
visibility: 0.999683141708374
","x: 256.0963134765625
y: 430.1665954589844
z: 0.019986417144536972
visibility: 0.9992855191230774
","x: 268.36444091796875
y: 491.1156005859375
z: -0.07961270213127136
visibility: 0.9885306358337402
","x: 242.71041870117188
y: 490.35498046875
z: -0.004258693661540747
visibility: 0.9087992906570435
","x: 278.65643310546875
y: 549.5253295898438
z: 0.030766814947128296
visibility: 0.9775320291519165
","x: 240.77256774902344
y: 531.3790283203125
z: 0.15979018807411194
visibility: 0.8900604248046875
","x: 281.960205078125
y: 558.484619140625
z: 0.0384572371840477
visibility: 0.8298640847206116
","x: 243.1234893798828
y: 538.0645141601562
z: 0.17321838438510895
visibility: 0.7697251439094543
","x: 266.898681640625
y: 566.5040283203125
z: -0.04275837913155556
visibility: 0.9625597596168518
","x: 240.6979522705078
y: 560.537353515625
z: 0.10840640217065811
visibility: 0.8758783936500549
","x: 239.02032470703125
y: 347.3138427734375
z: 0.0
","x: 242.8934326171875
y: 346.2425537109375
z: 0.0005824260879307985
","x: 245.98623657226562
y: 342.8587341308594
z: -0.0001655069791013375
","x: 248.2089385986328
y: 340.188720703125
z: -0.0018224677769467235
","x: 249.81484985351562
y: 338.09613037109375
z: -0.003112675389274955
","x: 245.6298065185547
y: 334.7953796386719
z: 0.000930170645006001
","x: 248.58547973632812
y: 331.3453369140625
z: -0.0017491785110905766
","x: 250.03695678710938
y: 333.5409851074219
z: -0.0031727361492812634
","x: 250.59141540527344
y: 336.0905456542969
z: -0.0037712252233177423
","x: 244.396728515625
y: 334.0154724121094
z: -0.0013047733809798956
","x: 248.16885375976562
y: 331.2313232421875
z: -0.004113213624805212
","x: 249.69189453125
y: 334.9797058105469
z: -0.004972261376678944
","x: 249.84178161621094
y: 338.2962646484375
z: -0.005039660260081291
","x: 243.1234130859375
y: 333.9101867675781
z: -0.0038936850614845753
","x: 246.7714080810547
y: 332.8447265625
z: -0.006231838837265968
","x: 247.51756286621094
y: 336.5290832519531
z: -0.005545449908822775
","x: 247.0378875732422
y: 339.2709045410156
z: -0.004633184056729078
","x: 241.8220977783203
y: 334.78985595703125
z: -0.0067108324728906155
","x: 244.87452697753906
y: 334.4089050292969
z: -0.008090430870652199
","x: 245.51519775390625
y: 337.01104736328125
z: -0.007264201529324055
","x: 245.01126098632812
y: 339.1097412109375
z: -0.006286254618316889
",,,,,,,,,,,,,,,,,,,,,
9,"x: 258.6246337890625
y: 331.5257568359375
z: -0.24743230640888214
visibility: 0.9996719360351562
","x: 259.62255859375
y: 325.8533935546875
z: -0.23795302212238312
visibility: 0.9994834661483765
","x: 260.39068603515625
y: 325.42633056640625
z: -0.23793289065361023
visibility: 0.9993979334831238
","x: 261.2182312011719
y: 324.8718566894531
z: -0.2379821240901947
visibility: 0.9994615912437439
","x: 257.2958679199219
y: 325.9466552734375
z: -0.2390187680721283
visibility: 0.9994668960571289
","x: 256.44525146484375
y: 325.6483154296875
z: -0.23906493186950684
visibility: 0.9993361830711365
","x: 255.51927185058594
y: 325.38226318359375
z: -0.23910729587078094
visibility: 0.9995178580284119
","x: 261.76104736328125
y: 323.7694091796875
z: -0.1559777408838272
visibility: 0.9993564486503601
","x: 253.25234985351562
y: 325.9183349609375
z: -0.16014280915260315
visibility: 0.9992838501930237
","x: 259.83013916015625
y: 334.509521484375
z: -0.21352703869342804
visibility: 0.9992827773094177
","x: 256.88214111328125
y: 335.19488525390625
z: -0.21493780612945557
visibility: 0.9989403486251831
","x: 272.6251220703125
y: 336.825927734375
z: -0.10756419599056244
visibility: 0.9997124075889587
","x: 244.34405517578125
y: 348.69580078125
z: -0.119937002658844
visibility: 0.9990836977958679
","x: 290.3230285644531
y: 332.9054260253906
z: -0.23284824192523956
visibility: 0.9792953729629517
","x: 225.46961975097656
y: 367.0547790527344
z: -0.2654568552970886
visibility: 0.8913829922676086
","x: 289.5380859375
y: 306.7782287597656
z: -0.3821120262145996
visibility: 0.9626203775405884
","x: 238.62948608398438
y: 339.7646484375
z: -0.4263973832130432
visibility: 0.922551155090332
","x: 290.6839904785156
y: 298.2308349609375
z: -0.41541385650634766
visibility: 0.9224344491958618
","x: 242.7808837890625
y: 331.72967529296875
z: -0.46142181754112244
visibility: 0.8533198833465576
","x: 289.32305908203125
y: 298.6422424316406
z: -0.4075407385826111
visibility: 0.9149978756904602
","x: 243.90086364746094
y: 332.25750732421875
z: -0.44762516021728516
visibility: 0.8392415046691895
","x: 288.4627380371094
y: 302.63751220703125
z: -0.3843514621257782
visibility: 0.888200581073761
","x: 243.54168701171875
y: 335.0890808105469
z: -0.4250674247741699
visibility: 0.8126510381698608
","x: 272.8265075683594
y: 430.0152282714844
z: -0.014799602329730988
visibility: 0.9996917843818665
","x: 255.91578674316406
y: 430.73773193359375
z: 0.014779443852603436
visibility: 0.9993001222610474
","x: 268.2401123046875
y: 490.5929870605469
z: -0.06167479231953621
visibility: 0.9881252646446228
","x: 242.59983825683594
y: 490.0018005371094
z: 0.01909727044403553
visibility: 0.9114787578582764
","x: 278.5728759765625
y: 549.5952758789062
z: 0.051298875361680984
visibility: 0.9764553904533386
","x: 240.9029998779297
y: 530.0520629882812
z: 0.20911860466003418
visibility: 0.8808607459068298
","x: 281.9188232421875
y: 558.6705322265625
z: 0.05832105875015259
visibility: 0.8125381469726562
","x: 242.93096923828125
y: 536.4137573242188
z: 0.2245853692293167
visibility: 0.7419070601463318
","x: 267.2189636230469
y: 566.1448364257812
z: -0.03046213649213314
visibility: 0.9604482054710388
","x: 240.96885681152344
y: 556.862060546875
z: 0.15560270845890045
visibility: 0.8656448125839233
",,,,,,,,,,,,,,,,,,,,,,,,,,,,,,,,,,,,,,,,,,
10,"x: 257.78717041015625
y: 331.7344970703125
z: -0.23680169880390167
visibility: 0.999697208404541
","x: 259.1076965332031
y: 326.1620788574219
z: -0.22785882651805878
visibility: 0.9995232820510864
","x: 260.0011901855469
y: 325.6875305175781
z: -0.22786037623882294
visibility: 0.9994444847106934
","x: 260.9267578125
y: 325.131591796875
z: -0.2279285490512848
visibility: 0.9995020627975464
","x: 256.3549499511719
y: 326.4480895996094
z: -0.2273050844669342
visibility: 0.9995072484016418
","x: 255.36363220214844
y: 326.22259521484375
z: -0.22733661532402039
visibility: 0.9993870258331299
","x: 254.3631591796875
y: 325.9831237792969
z: -0.22736689448356628
visibility: 0.9995529055595398
","x: 261.6969299316406
y: 324.25738525390625
z: -0.14783355593681335
visibility: 0.9994053244590759
","x: 252.50914001464844
y: 326.029296875
z: -0.14550545811653137
visibility: 0.999347448348999
","x: 259.39788818359375
y: 334.61529541015625
z: -0.20370957255363464
visibility: 0.9993463754653931
","x: 255.93069458007812
y: 335.6109924316406
z: -0.20325884222984314
visibility: 0.9990383982658386
","x: 272.58575439453125
y: 337.6111145019531
z: -0.10619852691888809
visibility: 0.999728798866272
","x: 244.2764892578125
y: 348.2718505859375
z: -0.09503527730703354
visibility: 0.9991387724876404
","x: 290.6145935058594
y: 334.0537109375
z: -0.22665712237358093
visibility: 0.9805490374565125
","x: 226.1020965576172
y: 366.16937255859375
z: -0.2202417403459549
visibility: 0.9012489318847656
","x: 291.3250732421875
y: 308.2666320800781
z: -0.3681790828704834
visibility: 0.9638671875
","x: 238.71331787109375
y: 341.07196044921875
z: -0.38150063157081604
visibility: 0.926092803478241
","x: 293.3343811035156
y: 298.7718505859375
z: -0.4007820188999176
visibility: 0.9242103695869446
","x: 241.88807678222656
y: 334.123779296875
z: -0.41423511505126953
visibility: 0.8556120991706848
","x: 292.4085693359375
y: 298.4347839355469
z: -0.39583903551101685
visibility: 0.9174568057060242
","x: 244.11300659179688
y: 332.3120422363281
z: -0.40397197008132935
visibility: 0.8418797850608826
","x: 291.31390380859375
y: 302.7652282714844
z: -0.371201753616333
visibility: 0.891902506351471
","x: 243.29547119140625
y: 336.15155029296875
z: -0.38210856914520264
visibility: 0.8159827589988708
","x: 272.6393737792969
y: 430.4370422363281
z: -0.016071651130914688
visibility: 0.9996688961982727
","x: 255.8549346923828
y: 431.0078430175781
z: 0.0160713829100132
visibility: 0.9992564916610718
","x: 267.8255615234375
y: 490.790283203125
z: -0.0588410384953022
visibility: 0.9857713580131531
","x: 242.5233154296875
y: 490.035888671875
z: -0.005053053144365549
visibility: 0.909288763999939
","x: 278.6038818359375
y: 549.9384765625
z: 0.064752496778965
visibility: 0.9718770384788513
","x: 240.9487762451172
y: 529.47314453125
z: 0.1716340035200119
visibility: 0.8683494925498962
","x: 281.95703125
y: 559.3385009765625
z: 0.07316823303699493
visibility: 0.7865530252456665
","x: 243.03712463378906
y: 535.983642578125
z: 0.18096956610679626
visibility: 0.7140614986419678
","x: 267.4884338378906
y: 566.0296020507812
z: -0.010780690237879753
visibility: 0.9532015919685364
","x: 241.04681396484375
y: 556.4278564453125
z: 0.1512278914451599
visibility: 0.8494748473167419
",,,,,,,,,,,,,,,,,,,,,,,,,,,,,,,,,,,,,,,,,,
11,"x: 258.6429443359375
y: 332.8575134277344
z: -0.2719863951206207
visibility: 0.9997254610061646
","x: 259.92071533203125
y: 327.1174621582031
z: -0.26232004165649414
visibility: 0.999567985534668
","x: 260.8140563964844
y: 326.58905029296875
z: -0.26230162382125854
visibility: 0.9994964003562927
","x: 261.7414245605469
y: 325.99237060546875
z: -0.26237350702285767
visibility: 0.9995482563972473
","x: 257.00006103515625
y: 327.3691101074219
z: -0.2642495036125183
visibility: 0.9995535016059875
","x: 255.8664093017578
y: 327.0843505859375
z: -0.26428988575935364
visibility: 0.9994447827339172
","x: 254.74476623535156
y: 326.7910461425781
z: -0.2643105685710907
visibility: 0.9995944499969482
","x: 262.4794921875
y: 324.57025146484375
z: -0.17435042560100555
visibility: 0.9994603991508484
","x: 252.3896942138672
y: 326.27679443359375
z: -0.18327859044075012
visibility: 0.9994109272956848
","x: 260.17266845703125
y: 335.55712890625
z: -0.2352772206068039
visibility: 0.9994094967842102
","x: 256.6343078613281
y: 336.44134521484375
z: -0.2381037473678589
visibility: 0.9991322159767151
","x: 272.7860107421875
y: 338.08782958984375
z: -0.12012670189142227
visibility: 0.9997490644454956
","x: 244.22650146484375
y: 347.80743408203125
z: -0.13185259699821472
visibility: 0.9992019534111023
","x: 290.9122619628906
y: 334.22906494140625
z: -0.23127701878547668
visibility: 0.9818378686904907
","x: 225.8935089111328
y: 365.5002136230469
z: -0.27024152874946594
visibility: 0.9105221033096313
","x: 292.44049072265625
y: 305.86865234375
z: -0.36680203676223755
visibility: 0.9649555087089539
","x: 239.02828979492188
y: 341.04638671875
z: -0.43177470564842224
visibility: 0.9291480183601379
","x: 294.5701904296875
y: 296.629150390625
z: -0.3973492383956909
visibility: 0.9249973297119141
","x: 242.42190551757812
y: 333.77301025390625
z: -0.46454960107803345
visibility: 0.8560154438018799
","x: 293.9096374511719
y: 295.6655578613281
z: -0.3917917013168335
visibility: 0.9189304709434509
","x: 244.37396240234375
y: 332.4293518066406
z: -0.4536312222480774
visibility: 0.8421196341514587
","x: 292.73773193359375
y: 299.78131103515625
z: -0.36963286995887756
visibility: 0.8944190144538879
","x: 243.64122009277344
y: 335.3172607421875
z: -0.431943416595459
visibility: 0.8162859678268433
","x: 272.7164306640625
y: 430.5420227050781
z: -0.014042283408343792
visibility: 0.999679684638977
","x: 255.79454040527344
y: 430.9533386230469
z: 0.014043033123016357
visibility: 0.9992643594741821
","x: 267.8683166503906
y: 490.74365234375
z: -0.06060938164591789
visibility: 0.9856014251708984
","x: 242.46649169921875
y: 489.7955017089844
z: 0.015998773276805878
visibility: 0.9119077324867249
","x: 278.5965576171875
y: 550.1339111328125
z: 0.05771194025874138
visibility: 0.9715732336044312
","x: 240.9595947265625
y: 528.1665649414062
z: 0.2174108475446701
visibility: 0.8615255355834961
","x: 281.9637756347656
y: 559.5784301757812
z: 0.06530661880970001
visibility: 0.7778971791267395
","x: 242.84402465820312
y: 534.430908203125
z: 0.23383131623268127
visibility: 0.6938970685005188
","x: 267.59375
y: 565.9403076171875
z: -0.023199412971735
visibility: 0.95238196849823
","x: 241.02178955078125
y: 551.2618408203125
z: 0.16932961344718933
visibility: 0.8413668274879456
",,,,,,,,,,,,,,,,,,,,,,,,,,,,,,,,,,,,,,,,,,
12,"x: 258.20953369140625
y: 334.07952880859375
z: -0.2830870747566223
visibility: 0.9997515678405762
","x: 259.7421875
y: 328.6549377441406
z: -0.27557116746902466
visibility: 0.9996092915534973
","x: 260.7307434082031
y: 328.15771484375
z: -0.27554088830947876
visibility: 0.999544084072113
","x: 261.7100830078125
y: 327.61456298828125
z: -0.2756088972091675
visibility: 0.9995909333229065
","x: 256.4461364746094
y: 328.7134094238281
z: -0.2759940028190613
visibility: 0.9995964765548706
","x: 255.22247314453125
y: 328.3359375
z: -0.2760416269302368
visibility: 0.999498188495636
","x: 254.06979370117188
y: 327.9653625488281
z: -0.27606290578842163
visibility: 0.9996333718299866
","x: 262.63958740234375
y: 325.87713623046875
z: -0.19286306202411652
visibility: 0.9995105862617493
","x: 251.92556762695312
y: 326.89447021484375
z: -0.19459402561187744
visibility: 0.9994688034057617
","x: 259.98529052734375
y: 336.4515380859375
z: -0.2478415071964264
visibility: 0.9994671940803528
","x: 256.1683349609375
y: 337.11639404296875
z: -0.24855192005634308
visibility: 0.9992178082466125
","x: 272.92218017578125
y: 338.5586853027344
z: -0.13357634842395782
visibility: 0.9997692704200745
","x: 244.15460205078125
y: 347.8793029785156
z: -0.1404513269662857
visibility: 0.999274730682373
","x: 290.820068359375
y: 334.1483154296875
z: -0.2461560070514679
visibility: 0.9831847548484802
","x: 225.28985595703125
y: 365.96331787109375
z: -0.2794570326805115
visibility: 0.9193205237388611
","x: 291.8286437988281
y: 304.613525390625
z: -0.38235795497894287
visibility: 0.966882050037384
","x: 239.1595916748047
y: 339.76556396484375
z: -0.4415004849433899
visibility: 0.9353682398796082
","x: 294.3013000488281
y: 295.5152587890625
z: -0.41290783882141113
visibility: 0.9280470609664917
","x: 242.65512084960938
y: 332.63018798828125
z: -0.47437039017677307
visibility: 0.866400957107544
","x: 293.5200500488281
y: 294.8644714355469
z: -0.40471750497817993
visibility: 0.9224448800086975
","x: 244.50059509277344
y: 331.46319580078125
z: -0.45988520979881287
visibility: 0.8532007932662964
","x: 292.2139587402344
y: 298.8350524902344
z: -0.3838767409324646
visibility: 0.8989284038543701
","x: 243.86273193359375
y: 334.4835205078125
z: -0.4396565854549408
visibility: 0.8285695314407349
","x: 272.6688537597656
y: 430.75244140625
z: -0.014953684993088245
visibility: 0.999698281288147
","x: 255.78884887695312
y: 431.26708984375
z: 0.014947432093322277
visibility: 0.9992924928665161
","x: 267.8973388671875
y: 490.5250244140625
z: -0.07043337821960449
visibility: 0.9855054020881653
","x: 242.4554443359375
y: 489.7125549316406
z: 0.03606920689344406
visibility: 0.9122976660728455
","x: 278.5119323730469
y: 550.2969970703125
z: 0.04123450070619583
visibility: 0.971257209777832
","x: 240.84365844726562
y: 526.842529296875
z: 0.2533048689365387
visibility: 0.8451652526855469
","x: 281.8629455566406
y: 559.6558837890625
z: 0.048582691699266434
visibility: 0.7659483551979065
","x: 242.7101287841797
y: 533.0588989257812
z: 0.2725140154361725
visibility: 0.6685352325439453
","x: 267.7809143066406
y: 565.871337890625
z: -0.038441985845565796
visibility: 0.951300859451294
","x: 241.14231872558594
y: 549.0589599609375
z: 0.21233625710010529
visibility: 0.8263382315635681
",,,,,,,,,,,,,,,,,,,,,,,,,,,,,,,,,,,,,,,,,,
13,"x: 257.74212646484375
y: 333.4527893066406
z: -0.26999491453170776
visibility: 0.9997740387916565
","x: 259.2358703613281
y: 328.02679443359375
z: -0.26090651750564575
visibility: 0.9996451735496521
","x: 260.2317810058594
y: 327.5950927734375
z: -0.2608899474143982
visibility: 0.999585747718811
","x: 261.2054138183594
y: 327.13116455078125
z: -0.2609618306159973
visibility: 0.9996280670166016
","x: 256.01593017578125
y: 328.20697021484375
z: -0.2609851360321045
visibility: 0.9996334314346313
","x: 254.84030151367188
y: 327.96673583984375
z: -0.26102370023727417
visibility: 0.9995442032814026
","x: 253.73114013671875
y: 327.73040771484375
z: -0.2610399127006531
visibility: 0.9996664524078369
","x: 262.2968444824219
y: 325.988037109375
z: -0.17674130201339722
visibility: 0.9995549917221069
","x: 251.75442504882812
y: 327.1685485839844
z: -0.17695549130439758
visibility: 0.9995198249816895
","x: 259.6950378417969
y: 336.0993957519531
z: -0.23492488265037537
visibility: 0.9995179176330566
","x: 255.92507934570312
y: 336.8576354980469
z: -0.2352330982685089
visibility: 0.9992932677268982
","x: 272.827880859375
y: 338.94097900390625
z: -0.12721535563468933
visibility: 0.9997849464416504
","x: 244.11404418945312
y: 348.85150146484375
z: -0.1286630928516388
visibility: 0.999322772026062
","x: 290.6465148925781
y: 333.4621887207031
z: -0.24601268768310547
visibility: 0.9842379093170166
","x: 225.48129272460938
y: 364.8702392578125
z: -0.27041706442832947
visibility: 0.9267352223396301
","x: 292.24798583984375
y: 300.8742980957031
z: -0.37920111417770386
visibility: 0.9678519368171692
","x: 239.06192016601562
y: 340.3353576660156
z: -0.43762558698654175
visibility: 0.9377740621566772
","x: 295.7940673828125
y: 292.94879150390625
z: -0.41093888878822327
visibility: 0.9291479587554932
","x: 242.72506713867188
y: 333.10662841796875
z: -0.4717603325843811
visibility: 0.8670303225517273
","x: 295.212890625
y: 292.3516540527344
z: -0.40481773018836975
visibility: 0.9240788221359253
","x: 244.48236083984375
y: 331.797119140625
z: -0.4602173864841461
visibility: 0.8537233471870422
","x: 293.55462646484375
y: 295.803466796875
z: -0.3817984163761139
visibility: 0.9014707803726196
","x: 243.84439086914062
y: 334.9180908203125
z: -0.437832772731781
visibility: 0.8293554782867432
","x: 272.7092590332031
y: 430.873046875
z: -0.014874367043375969
visibility: 0.9997069239616394
","x: 255.82322692871094
y: 431.35638427734375
z: 0.01487122755497694
visibility: 0.9993007779121399
","x: 267.721923828125
y: 490.4244384765625
z: -0.06649088859558105
visibility: 0.9851726293563843
","x: 242.3454132080078
y: 489.8905944824219
z: 0.018522143363952637
visibility: 0.9145230054855347
","x: 278.4197082519531
y: 550.3326416015625
z: 0.05575251579284668
visibility: 0.9705410599708557
","x: 240.7212677001953
y: 527.1751098632812
z: 0.21306529641151428
visibility: 0.837563693523407
","x: 281.73541259765625
y: 559.6106567382812
z: 0.06393211334943771
visibility: 0.7556325793266296
","x: 242.79173278808594
y: 533.6116943359375
z: 0.22957830131053925
visibility: 0.6483784914016724
","x: 268.0569763183594
y: 565.83056640625
z: -0.023574525490403175
visibility: 0.9498999118804932
","x: 241.176025390625
y: 549.8890380859375
z: 0.16546426713466644
visibility: 0.8170339465141296
",,,,,,,,,,,,,,,,,,,,,,,,,,,,,,,,,,,,,,,,,,
14,"x: 257.51776123046875
y: 333.5616760253906
z: -0.26107099652290344
visibility: 0.9997953176498413
","x: 258.6944274902344
y: 328.1123046875
z: -0.2510158121585846
visibility: 0.9996787905693054
","x: 259.6231994628906
y: 327.7034912109375
z: -0.25099655985832214
visibility: 0.9996249079704285
","x: 260.5747985839844
y: 327.2698974609375
z: -0.25106629729270935
visibility: 0.9996631145477295
","x: 255.84234619140625
y: 328.311279296875
z: -0.25130495429039
visibility: 0.9996680021286011
","x: 254.72059631347656
y: 328.1129150390625
z: -0.2513400912284851
visibility: 0.9995872974395752
","x: 253.6551513671875
y: 327.9080505371094
z: -0.2513481676578522
visibility: 0.9996974468231201
","x: 261.7110290527344
y: 326.3853454589844
z: -0.16581350564956665
visibility: 0.9995971322059631
","x: 251.53237915039062
y: 327.68817138671875
z: -0.16683341562747955
visibility: 0.9995664358139038
","x: 259.2994079589844
y: 336.4425354003906
z: -0.22594527900218964
visibility: 0.9995645880699158
","x: 255.76953125
y: 337.0791320800781
z: -0.22650381922721863
visibility: 0.9993616342544556
","x: 272.6657409667969
y: 339.7576599121094
z: -0.11770538985729218
visibility: 0.9998012781143188
","x: 244.0654296875
y: 349.647216796875
z: -0.12326072156429291
visibility: 0.9993565678596497
","x: 290.74365234375
y: 333.995361328125
z: -0.23069028556346893
visibility: 0.9853628277778625
","x: 225.79483032226562
y: 365.26348876953125
z: -0.27288106083869934
visibility: 0.9332274198532104
","x: 295.92950439453125
y: 298.63629150390625
z: -0.353682279586792
visibility: 0.9697543978691101
","x: 238.27938842773438
y: 340.2236633300781
z: -0.44306421279907227
visibility: 0.9404293298721313
","x: 299.7141418457031
y: 293.0054626464844
z: -0.38482972979545593
visibility: 0.9323251247406006
","x: 241.8595733642578
y: 331.9564208984375
z: -0.47773805260658264
visibility: 0.8692500591278076
","x: 298.2752685546875
y: 292.3667297363281
z: -0.3744332194328308
visibility: 0.9277860522270203
","x: 243.8531951904297
y: 330.210693359375
z: -0.4661412835121155
visibility: 0.8557063937187195
","x: 296.6829528808594
y: 294.73968505859375
z: -0.35398441553115845
visibility: 0.9066148996353149
","x: 243.1578826904297
y: 333.8860778808594
z: -0.4437705874443054
visibility: 0.8316397666931152
","x: 272.8753967285156
y: 431.5078430175781
z: -0.014629049226641655
visibility: 0.999727725982666
","x: 255.83920288085938
y: 431.94415283203125
z: 0.014609696343541145
visibility: 0.9993438720703125
","x: 269.49749755859375
y: 490.610107421875
z: -0.07039720565080643
visibility: 0.9853072166442871
","x: 240.93092346191406
y: 489.8017883300781
z: -0.011503832414746284
visibility: 0.9198581576347351
","x: 278.3172607421875
y: 550.165771484375
z: 0.05893920734524727
visibility: 0.9702093005180359
","x: 240.69894409179688
y: 526.8905029296875
z: 0.20662455260753632
visibility: 0.830207109451294
","x: 281.5963439941406
y: 559.0582275390625
z: 0.06899888068437576
visibility: 0.7524201273918152
","x: 243.24388122558594
y: 530.7850341796875
z: 0.22617335617542267
visibility: 0.6320568919181824
","x: 268.6531066894531
y: 565.75634765625
z: -0.012323955073952675
visibility: 0.949739933013916
","x: 241.1638641357422
y: 549.8394165039062
z: 0.17389485239982605
visibility: 0.8085511922836304
",,,,,,,,,,,,,,,,,,,,,,,,,,,,,,,,,,,,,,,,,,
15,"x: 257.1275634765625
y: 333.5289001464844
z: -0.2419629991054535
visibility: 0.9998040199279785
","x: 258.3792419433594
y: 328.23858642578125
z: -0.22471368312835693
visibility: 0.9996764063835144
","x: 259.3175354003906
y: 327.83306884765625
z: -0.22468411922454834
visibility: 0.999618649482727
","x: 260.2682189941406
y: 327.41229248046875
z: -0.2247093915939331
visibility: 0.9996519684791565
","x: 255.57437133789062
y: 328.5682373046875
z: -0.22479689121246338
visibility: 0.9996724128723145
","x: 254.51980590820312
y: 328.4587097167969
z: -0.2248343527317047
visibility: 0.9996023774147034
","x: 253.53018188476562
y: 328.34344482421875
z: -0.22486010193824768
visibility: 0.9997076392173767
","x: 261.46734619140625
y: 327.12457275390625
z: -0.13294890522956848
visibility: 0.9995893239974976
","x: 251.46852111816406
y: 328.8696594238281
z: -0.12841367721557617
visibility: 0.99959397315979
","x: 259.0107421875
y: 336.49774169921875
z: -0.20241251587867737
visibility: 0.9995806217193604
","x: 255.52499389648438
y: 337.3342590332031
z: -0.20164282619953156
visibility: 0.9994009137153625
","x: 272.8125915527344
y: 342.6981201171875
z: -0.07260351628065109
visibility: 0.9998016357421875
","x: 244.04542541503906
y: 352.6907653808594
z: -0.08581024408340454
visibility: 0.9993495345115662
","x: 291.3837890625
y: 335.24169921875
z: -0.12376078218221664
visibility: 0.9865240454673767
","x: 227.7501983642578
y: 371.86895751953125
z: -0.20458157360553741
visibility: 0.9395949840545654
","x: 300.2777404785156
y: 301.84906005859375
z: -0.2097092866897583
visibility: 0.9721624255180359
","x: 239.21359252929688
y: 340.1600341796875
z: -0.36573079228401184
visibility: 0.945892333984375
","x: 303.2154541015625
y: 295.406982421875
z: -0.23246829211711884
visibility: 0.9367499947547913
","x: 241.9417724609375
y: 331.653564453125
z: -0.40515607595443726
visibility: 0.8801635503768921
","x: 301.8345642089844
y: 294.5893249511719
z: -0.23460300266742706
visibility: 0.9326745867729187
","x: 243.9763946533203
y: 330.31683349609375
z: -0.3969026505947113
visibility: 0.8676197528839111
","x: 300.6737060546875
y: 297.1072692871094
z: -0.21480879187583923
visibility: 0.9130178689956665
","x: 243.27984619140625
y: 333.80364990234375
z: -0.367197185754776
visibility: 0.8449325561523438
","x: 273.8169250488281
y: 433.646728515625
z: -0.015993589535355568
visibility: 0.9997168183326721
","x: 255.99403381347656
y: 434.02825927734375
z: 0.015931006520986557
visibility: 0.9993606805801392
","x: 274.45758056640625
y: 491.1493225097656
z: -0.10605897009372711
visibility: 0.986048698425293
","x: 235.35682678222656
y: 483.9634704589844
z: -0.08447911590337753
visibility: 0.9272618293762207
","x: 278.3352355957031
y: 550.064453125
z: 0.0452837273478508
visibility: 0.9718097448348999
","x: 240.940673828125
y: 527.0629272460938
z: 0.06418724358081818
visibility: 0.8452419638633728
","x: 281.06195068359375
y: 558.7119750976562
z: 0.05156335234642029
visibility: 0.7610571384429932
","x: 243.59498596191406
y: 531.5189208984375
z: 0.07573173195123672
visibility: 0.6615558862686157
","x: 269.6792907714844
y: 565.8130493164062
z: -0.03982783108949661
visibility: 0.9523739814758301
","x: 240.51303100585938
y: 553.498046875
z: 0.0037984296213835478
visibility: 0.8246766328811646
",,,,,,,,,,,,,,,,,,,,,,,,,,,,,,,,,,,,,,,,,,
16,"x: 257.0002136230469
y: 350.8878173828125
z: -0.2775595784187317
visibility: 0.999821126461029
","x: 258.14129638671875
y: 343.6874694824219
z: -0.2665616273880005
visibility: 0.9997051358222961
","x: 259.07904052734375
y: 343.19696044921875
z: -0.26652786135673523
visibility: 0.9996521472930908
","x: 260.03460693359375
y: 342.7685241699219
z: -0.2666175663471222
visibility: 0.9996825456619263
","x: 255.27734375
y: 343.8815002441406
z: -0.2640918791294098
visibility: 0.9997003078460693
","x: 254.0581512451172
y: 343.6059265136719
z: -0.2641479969024658
visibility: 0.9996370673179626
","x: 252.94778442382812
y: 343.4296875
z: -0.26416248083114624
visibility: 0.9997328519821167
","x: 261.2757568359375
y: 342.5025634765625
z: -0.18348057568073273
visibility: 0.999626874923706
","x: 251.3801727294922
y: 343.8099670410156
z: -0.1700707972049713
visibility: 0.9996317625045776
","x: 258.786865234375
y: 354.7569274902344
z: -0.24398374557495117
visibility: 0.9996193647384644
","x: 255.4669189453125
y: 355.5182189941406
z: -0.24024300277233124
visibility: 0.9994555115699768
","x: 274.02899169921875
y: 364.2608947753906
z: -0.11919085681438446
visibility: 0.9998039603233337
","x: 244.00621032714844
y: 367.5917053222656
z: -0.13149316608905792
visibility: 0.9993783831596375
","x: 295.0595397949219
y: 369.3101501464844
z: -0.20036666095256805
visibility: 0.9874778389930725
","x: 234.03536987304688
y: 394.8050537109375
z: -0.2608126401901245
visibility: 0.9451227188110352
","x: 300.35943603515625
y: 328.9822998046875
z: -0.30395567417144775
visibility: 0.9736422896385193
","x: 240.69883728027344
y: 353.15850830078125
z: -0.41108155250549316
visibility: 0.9503511786460876
","x: 302.76287841796875
y: 317.5870361328125
z: -0.3271890878677368
visibility: 0.9380252957344055
","x: 242.15025329589844
y: 342.87103271484375
z: -0.4449862837791443
visibility: 0.8886746764183044
","x: 301.3340759277344
y: 315.4419860839844
z: -0.319589763879776
visibility: 0.9341087341308594
","x: 244.08139038085938
y: 340.84710693359375
z: -0.43251776695251465
visibility: 0.8767125010490417
","x: 300.3067321777344
y: 319.40234375
z: -0.3056316375732422
visibility: 0.9149118065834045
","x: 243.41119384765625
y: 344.24554443359375
z: -0.41119450330734253
visibility: 0.8546198010444641
","x: 273.9471130371094
y: 448.5707092285156
z: -0.012986068613827229
visibility: 0.9997104406356812
","x: 255.96090698242188
y: 448.9314270019531
z: 0.012992416508495808
visibility: 0.9993811845779419
","x: 280.20550537109375
y: 494.0726318359375
z: -0.22259266674518585
visibility: 0.9863160848617554
","x: 227.86575317382812
y: 478.0144958496094
z: -0.16910099983215332
visibility: 0.934142529964447
","x: 278.2372131347656
y: 552.235107421875
z: -0.06756473332643509
visibility: 0.9729724526405334
","x: 241.04830932617188
y: 527.0381469726562
z: -0.015579518862068653
visibility: 0.8587464094161987
","x: 276.6382141113281
y: 561.2427978515625
z: -0.05643191188573837
visibility: 0.7777935266494751
","x: 246.44374084472656
y: 529.628662109375
z: -0.0033004824072122574
visibility: 0.6891619563102722
","x: 276.7550964355469
y: 566.8125
z: -0.15013054013252258
visibility: 0.954555332660675
","x: 240.51658630371094
y: 554.1044921875
z: -0.07236550003290176
visibility: 0.8388115167617798
",,,,,,,,,,,,,,,,,,,,,,,,,,,,,,,,,,,,,,,,,,
17,"x: 257.74688720703125
y: 365.3936767578125
z: -0.29899948835372925
visibility: 0.9998384714126587
","x: 259.04486083984375
y: 359.6197814941406
z: -0.2851692736148834
visibility: 0.9997339248657227
","x: 259.96990966796875
y: 359.4386291503906
z: -0.2851267457008362
visibility: 0.9996863007545471
","x: 260.8940734863281
y: 359.33221435546875
z: -0.28522634506225586
visibility: 0.999713659286499
","x: 255.99134826660156
y: 359.8446044921875
z: -0.28735190629959106
visibility: 0.999728798866272
","x: 254.76251220703125
y: 359.87188720703125
z: -0.2874215245246887
visibility: 0.999671995639801
","x: 253.57798767089844
y: 360.03887939453125
z: -0.2874147891998291
visibility: 0.9997580051422119
","x: 261.9348449707031
y: 361.14263916015625
z: -0.197096586227417
visibility: 0.999663770198822
","x: 251.3983154296875
y: 363.144287109375
z: -0.2058373987674713
visibility: 0.9996673464775085
","x: 259.6273498535156
y: 370.151123046875
z: -0.2649300694465637
visibility: 0.9996570944786072
","x: 255.80203247070312
y: 370.58062744140625
z: -0.26760026812553406
visibility: 0.9995089173316956
","x: 273.8173522949219
y: 390.15325927734375
z: -0.1493494212627411
visibility: 0.9998213052749634
","x: 243.9808807373047
y: 390.30706787109375
z: -0.1575063318014145
visibility: 0.9994044303894043
","x: 293.3416442871094
y: 414.3063049316406
z: -0.2846393287181854
visibility: 0.9885168075561523
","x: 240.06748962402344
y: 423.24237060546875
z: -0.30209794640541077
visibility: 0.9498110413551331
","x: 297.55303955078125
y: 373.7606506347656
z: -0.4404945969581604
visibility: 0.975853681564331
","x: 243.89894104003906
y: 378.3878173828125
z: -0.4643920361995697
visibility: 0.9542271494865417
","x: 300.4254455566406
y: 363.2516174316406
z: -0.4744318425655365
visibility: 0.9425879716873169
","x: 243.8687286376953
y: 367.9040832519531
z: -0.4966677129268646
visibility: 0.8967598080635071
","x: 300.04083251953125
y: 360.37835693359375
z: -0.45563215017318726
visibility: 0.9388863444328308
","x: 245.13803100585938
y: 366.35614013671875
z: -0.4844275414943695
visibility: 0.8853160738945007
","x: 299.6898498535156
y: 364.90765380859375
z: -0.43754681944847107
visibility: 0.9202702045440674
","x: 245.4234619140625
y: 369.5909423828125
z: -0.4641256332397461
visibility: 0.8629438877105713
","x: 273.9150695800781
y: 463.4704895019531
z: -0.014415936544537544
visibility: 0.9997289180755615
","x: 255.92791748046875
y: 463.6068420410156
z: 0.014432703144848347
visibility: 0.9994195699691772
","x: 276.55902099609375
y: 493.67303466796875
z: -0.3197805881500244
visibility: 0.9872757792472839
","x: 228.3881072998047
y: 479.8324279785156
z: -0.19527676701545715
visibility: 0.939879834651947
","x: 276.7104187011719
y: 552.0130615234375
z: -0.12448984384536743
visibility: 0.974645733833313
","x: 241.2005157470703
y: 527.0900268554688
z: -0.0016178280347958207
visibility: 0.8710230588912964
","x: 275.77099609375
y: 558.4510498046875
z: -0.10873883962631226
visibility: 0.7938135862350464
","x: 247.38818359375
y: 530.0106201171875
z: 0.013992561027407646
visibility: 0.7145050764083862
","x: 275.0901184082031
y: 566.8882446289062
z: -0.2002069503068924
visibility: 0.957396388053894
","x: 240.5143280029297
y: 554.0935668945312
z: -0.06302282959222794
visibility: 0.8519884943962097
","x: 244.53634643554688
y: 381.01519775390625
z: 0.0
","x: 247.51876831054688
y: 378.283203125
z: -0.0007346690399572253
","x: 249.10386657714844
y: 372.8777770996094
z: -0.000773098727222532
","x: 249.66696166992188
y: 368.44061279296875
z: -0.0012079158332198858
","x: 249.47796630859375
y: 365.07037353515625
z: -0.0013586337445303798
","x: 245.62591552734375
y: 366.12017822265625
z: 0.0033356205094605684
","x: 247.27915954589844
y: 361.7860107421875
z: 0.002474279375746846
","x: 248.86903381347656
y: 360.4709167480469
z: 0.001965035917237401
","x: 249.73483276367188
y: 359.8251953125
z: 0.001934908563271165
","x: 244.75198364257812
y: 364.9178771972656
z: 0.002479525050148368
","x: 245.05677795410156
y: 358.33935546875
z: 0.0023629870265722275
","x: 245.78695678710938
y: 354.0167541503906
z: 0.0023090506438165903
","x: 246.19039916992188
y: 350.6622619628906
z: 0.0022399320732802153
","x: 244.0138397216797
y: 364.6319274902344
z: 0.0009036496630869806
","x: 244.17359924316406
y: 358.4036560058594
z: 0.00035737210419029
","x: 244.6451873779297
y: 354.00250244140625
z: 0.0005736442399211228
","x: 245.00021362304688
y: 350.4332275390625
z: 0.0007874664734117687
","x: 243.5854034423828
y: 365.09320068359375
z: -0.0010955146281048656
","x: 243.70713806152344
y: 359.84698486328125
z: -0.0016685512382537127
","x: 243.98165893554688
y: 356.3502502441406
z: -0.0014937807573005557
","x: 244.2840118408203
y: 353.4499816894531
z: -0.0012741775717586279
",,,,,,,,,,,,,,,,,,,,,
18,"x: 257.74688720703125
y: 365.3936767578125
z: -0.29899948835372925
visibility: 0.9998384714126587
","x: 259.04486083984375
y: 359.6197814941406
z: -0.2851692736148834
visibility: 0.9997339248657227
","x: 259.96990966796875
y: 359.4386291503906
z: -0.2851267457008362
visibility: 0.9996863007545471
","x: 260.8940734863281
y: 359.33221435546875
z: -0.28522634506225586
visibility: 0.999713659286499
","x: 255.99134826660156
y: 359.8446044921875
z: -0.28735190629959106
visibility: 0.999728798866272
","x: 254.76251220703125
y: 359.87188720703125
z: -0.2874215245246887
visibility: 0.999671995639801
","x: 253.57798767089844
y: 360.03887939453125
z: -0.2874147891998291
visibility: 0.9997580051422119
","x: 261.9348449707031
y: 361.14263916015625
z: -0.197096586227417
visibility: 0.999663770198822
","x: 251.3983154296875
y: 363.144287109375
z: -0.2058373987674713
visibility: 0.9996673464775085
","x: 259.6273498535156
y: 370.151123046875
z: -0.2649300694465637
visibility: 0.9996570944786072
","x: 255.80203247070312
y: 370.58062744140625
z: -0.26760026812553406
visibility: 0.9995089173316956
","x: 273.8173522949219
y: 390.15325927734375
z: -0.1493494212627411
visibility: 0.9998213052749634
","x: 243.9808807373047
y: 390.30706787109375
z: -0.1575063318014145
visibility: 0.9994044303894043
","x: 293.3416442871094
y: 414.3063049316406
z: -0.2846393287181854
visibility: 0.9885168075561523
","x: 240.06748962402344
y: 423.24237060546875
z: -0.30209794640541077
visibility: 0.9498110413551331
","x: 297.55303955078125
y: 373.7606506347656
z: -0.4404945969581604
visibility: 0.975853681564331
","x: 243.89894104003906
y: 378.3878173828125
z: -0.4643920361995697
visibility: 0.9542271494865417
","x: 300.4254455566406
y: 363.2516174316406
z: -0.4744318425655365
visibility: 0.9425879716873169
","x: 243.8687286376953
y: 367.9040832519531
z: -0.4966677129268646
visibility: 0.8967598080635071
","x: 300.04083251953125
y: 360.37835693359375
z: -0.45563215017318726
visibility: 0.9388863444328308
","x: 245.13803100585938
y: 366.35614013671875
z: -0.4844275414943695
visibility: 0.8853160738945007
","x: 299.6898498535156
y: 364.90765380859375
z: -0.43754681944847107
visibility: 0.9202702045440674
","x: 245.4234619140625
y: 369.5909423828125
z: -0.4641256332397461
visibility: 0.8629438877105713
","x: 273.9150695800781
y: 463.4704895019531
z: -0.014415936544537544
visibility: 0.9997289180755615
","x: 255.92791748046875
y: 463.6068420410156
z: 0.014432703144848347
visibility: 0.9994195699691772
","x: 276.55902099609375
y: 493.67303466796875
z: -0.3197805881500244
visibility: 0.9872757792472839
","x: 228.3881072998047
y: 479.8324279785156
z: -0.19527676701545715
visibility: 0.939879834651947
","x: 276.7104187011719
y: 552.0130615234375
z: -0.12448984384536743
visibility: 0.974645733833313
","x: 241.2005157470703
y: 527.0900268554688
z: -0.0016178280347958207
visibility: 0.8710230588912964
","x: 275.77099609375
y: 558.4510498046875
z: -0.10873883962631226
visibility: 0.7938135862350464
","x: 247.38818359375
y: 530.0106201171875
z: 0.013992561027407646
visibility: 0.7145050764083862
","x: 275.0901184082031
y: 566.8882446289062
z: -0.2002069503068924
visibility: 0.957396388053894
","x: 240.5143280029297
y: 554.0935668945312
z: -0.06302282959222794
visibility: 0.8519884943962097
","x: 244.53634643554688
y: 381.01519775390625
z: 0.0
","x: 247.51876831054688
y: 378.283203125
z: -0.0007346690399572253
","x: 249.10386657714844
y: 372.8777770996094
z: -0.000773098727222532
","x: 249.66696166992188
y: 368.44061279296875
z: -0.0012079158332198858
","x: 249.47796630859375
y: 365.07037353515625
z: -0.0013586337445303798
","x: 245.62591552734375
y: 366.12017822265625
z: 0.0033356205094605684
","x: 247.27915954589844
y: 361.7860107421875
z: 0.002474279375746846
","x: 248.86903381347656
y: 360.4709167480469
z: 0.001965035917237401
","x: 249.73483276367188
y: 359.8251953125
z: 0.001934908563271165
","x: 244.75198364257812
y: 364.9178771972656
z: 0.002479525050148368
","x: 245.05677795410156
y: 358.33935546875
z: 0.0023629870265722275
","x: 245.78695678710938
y: 354.0167541503906
z: 0.0023090506438165903
","x: 246.19039916992188
y: 350.6622619628906
z: 0.0022399320732802153
","x: 244.0138397216797
y: 364.6319274902344
z: 0.0009036496630869806
","x: 244.17359924316406
y: 358.4036560058594
z: 0.00035737210419029
","x: 244.6451873779297
y: 354.00250244140625
z: 0.0005736442399211228
","x: 245.00021362304688
y: 350.4332275390625
z: 0.0007874664734117687
","x: 243.5854034423828
y: 365.09320068359375
z: -0.0010955146281048656
","x: 243.70713806152344
y: 359.84698486328125
z: -0.0016685512382537127
","x: 243.98165893554688
y: 356.3502502441406
z: -0.0014937807573005557
","x: 244.2840118408203
y: 353.4499816894531
z: -0.0012741775717586279
",,,,,,,,,,,,,,,,,,,,,
19,"x: 255.68743896484375
y: 379.21026611328125
z: -0.27026039361953735
visibility: 0.9998528957366943
","x: 257.9117431640625
y: 373.1865234375
z: -0.25889402627944946
visibility: 0.9997579455375671
","x: 259.09539794921875
y: 373.06329345703125
z: -0.25886398553848267
visibility: 0.9997155666351318
","x: 260.2111511230469
y: 373.0833740234375
z: -0.25893980264663696
visibility: 0.9997398853302002
","x: 254.6512451171875
y: 373.83056640625
z: -0.25893333554267883
visibility: 0.9997502565383911
","x: 253.58851623535156
y: 374.01959228515625
z: -0.25898537039756775
visibility: 0.9997000694274902
","x: 252.53713989257812
y: 374.35662841796875
z: -0.25899621844291687
visibility: 0.9997763633728027
","x: 261.8359375
y: 375.267333984375
z: -0.17611536383628845
visibility: 0.9996954202651978
","x: 251.05767822265625
y: 377.6239318847656
z: -0.175655335187912
visibility: 0.9996960163116455
","x: 258.03033447265625
y: 384.7533874511719
z: -0.23753571510314941
visibility: 0.9996902942657471
","x: 254.1203155517578
y: 385.3039245605469
z: -0.23776903748512268
visibility: 0.9995549917221069
","x: 273.7182312011719
y: 402.81640625
z: -0.12950490415096283
visibility: 0.9998336434364319
","x: 243.96429443359375
y: 403.86767578125
z: -0.1285245716571808
visibility: 0.9994251132011414
","x: 286.67578125
y: 437.2819519042969
z: -0.25109541416168213
visibility: 0.9887010455131531
","x: 239.73829650878906
y: 435.799072265625
z: -0.2635549008846283
visibility: 0.9534967541694641
","x: 286.698486328125
y: 399.54949951171875
z: -0.40339869260787964
visibility: 0.9770805835723877
","x: 244.5859375
y: 393.6519775390625
z: -0.42555922269821167
visibility: 0.9569180011749268
","x: 289.6888732910156
y: 388.1741027832031
z: -0.4348715841770172
visibility: 0.9451747536659241
","x: 244.72265625
y: 383.54815673828125
z: -0.4569830894470215
visibility: 0.902153730392456
","x: 289.9203796386719
y: 385.76092529296875
z: -0.4210022985935211
visibility: 0.941543459892273
","x: 245.34962463378906
y: 382.2804260253906
z: -0.4441731870174408
visibility: 0.8906888961791992
","x: 288.4674987792969
y: 389.2730407714844
z: -0.40207815170288086
visibility: 0.9220694899559021
","x: 245.79368591308594
y: 385.3231506347656
z: -0.4248806834220886
visibility: 0.8664719462394714
","x: 273.8676452636719
y: 472.2943420410156
z: -0.014580884948372841
visibility: 0.9997456073760986
","x: 255.89816284179688
y: 473.10845947265625
z: 0.014627082273364067
visibility: 0.9994556903839111
","x: 272.4667053222656
y: 493.26422119140625
z: -0.32477283477783203
visibility: 0.9877285361289978
","x: 230.8576202392578
y: 483.88690185546875
z: -0.20818111300468445
visibility: 0.9441412687301636
","x: 275.7790832519531
y: 551.8388061523438
z: -0.15038782358169556
visibility: 0.975223183631897
","x: 242.21975708007812
y: 527.87646484375
z: -0.023176295682787895
visibility: 0.8804635405540466
","x: 275.3436279296875
y: 557.0563354492188
z: -0.13679054379463196
visibility: 0.8054643273353577
","x: 247.93218994140625
y: 530.4413452148438
z: -0.008304562419652939
visibility: 0.7355818152427673
","x: 274.2078552246094
y: 566.8644409179688
z: -0.22885234653949738
visibility: 0.9587551355361938
","x: 240.29293823242188
y: 552.833984375
z: -0.08709598332643509
visibility: 0.8622481822967529
","x: 245.6248321533203
y: 392.79351806640625
z: 0.0
","x: 248.03457641601562
y: 389.16845703125
z: 0.001306992839090526
","x: 248.8037109375
y: 384.67218017578125
z: 0.0011559330159798265
","x: 249.31011962890625
y: 381.2799072265625
z: -6.620123895118013e-05
","x: 249.77288818359375
y: 378.7286682128906
z: -0.001052520121447742
","x: 245.33203125
y: 377.5107421875
z: 0.0033530534710735083
","x: 244.91331481933594
y: 371.7648010253906
z: 0.00197609537281096
","x: 245.05743408203125
y: 367.74237060546875
z: 0.0003785750304814428
","x: 245.2115020751953
y: 364.6423034667969
z: -0.000752489548176527
","x: 245.00201416015625
y: 377.91156005859375
z: 0.0011799351777881384
","x: 246.7841796875
y: 373.8751525878906
z: -0.0005897818482480943
","x: 248.74168395996094
y: 375.0460510253906
z: -0.001697138068266213
","x: 249.74349975585938
y: 376.64898681640625
z: -0.002113817725330591
","x: 244.925048828125
y: 378.7095642089844
z: -0.0012663847301155329
","x: 246.89085388183594
y: 375.02508544921875
z: -0.003045272082090378
","x: 249.0021209716797
y: 376.55120849609375
z: -0.0030636920128017664
","x: 250.11566162109375
y: 378.88372802734375
z: -0.0027310303412377834
","x: 245.13064575195312
y: 380.05987548828125
z: -0.0038984513375908136
","x: 246.64434814453125
y: 376.4306640625
z: -0.005086265970021486
","x: 248.439208984375
y: 376.7264099121094
z: -0.004897040780633688
","x: 249.73342895507812
y: 378.2919921875
z: -0.00447529461234808
",,,,,,,,,,,,,,,,,,,,,
20,"x: 255.68743896484375
y: 379.21026611328125
z: -0.27026039361953735
visibility: 0.9998528957366943
","x: 257.9117431640625
y: 373.1865234375
z: -0.25889402627944946
visibility: 0.9997579455375671
","x: 259.09539794921875
y: 373.06329345703125
z: -0.25886398553848267
visibility: 0.9997155666351318
","x: 260.2111511230469
y: 373.0833740234375
z: -0.25893980264663696
visibility: 0.9997398853302002
","x: 254.6512451171875
y: 373.83056640625
z: -0.25893333554267883
visibility: 0.9997502565383911
","x: 253.58851623535156
y: 374.01959228515625
z: -0.25898537039756775
visibility: 0.9997000694274902
","x: 252.53713989257812
y: 374.35662841796875
z: -0.25899621844291687
visibility: 0.9997763633728027
","x: 261.8359375
y: 375.267333984375
z: -0.17611536383628845
visibility: 0.9996954202651978
","x: 251.05767822265625
y: 377.6239318847656
z: -0.175655335187912
visibility: 0.9996960163116455
","x: 258.03033447265625
y: 384.7533874511719
z: -0.23753571510314941
visibility: 0.9996902942657471
","x: 254.1203155517578
y: 385.3039245605469
z: -0.23776903748512268
visibility: 0.9995549917221069
","x: 273.7182312011719
y: 402.81640625
z: -0.12950490415096283
visibility: 0.9998336434364319
","x: 243.96429443359375
y: 403.86767578125
z: -0.1285245716571808
visibility: 0.9994251132011414
","x: 286.67578125
y: 437.2819519042969
z: -0.25109541416168213
visibility: 0.9887010455131531
","x: 239.73829650878906
y: 435.799072265625
z: -0.2635549008846283
visibility: 0.9534967541694641
","x: 286.698486328125
y: 399.54949951171875
z: -0.40339869260787964
visibility: 0.9770805835723877
","x: 244.5859375
y: 393.6519775390625
z: -0.42555922269821167
visibility: 0.9569180011749268
","x: 289.6888732910156
y: 388.1741027832031
z: -0.4348715841770172
visibility: 0.9451747536659241
","x: 244.72265625
y: 383.54815673828125
z: -0.4569830894470215
visibility: 0.902153730392456
","x: 289.9203796386719
y: 385.76092529296875
z: -0.4210022985935211
visibility: 0.941543459892273
","x: 245.34962463378906
y: 382.2804260253906
z: -0.4441731870174408
visibility: 0.8906888961791992
","x: 288.4674987792969
y: 389.2730407714844
z: -0.40207815170288086
visibility: 0.9220694899559021
","x: 245.79368591308594
y: 385.3231506347656
z: -0.4248806834220886
visibility: 0.8664719462394714
","x: 273.8676452636719
y: 472.2943420410156
z: -0.014580884948372841
visibility: 0.9997456073760986
","x: 255.89816284179688
y: 473.10845947265625
z: 0.014627082273364067
visibility: 0.9994556903839111
","x: 272.4667053222656
y: 493.26422119140625
z: -0.32477283477783203
visibility: 0.9877285361289978
","x: 230.8576202392578
y: 483.88690185546875
z: -0.20818111300468445
visibility: 0.9441412687301636
","x: 275.7790832519531
y: 551.8388061523438
z: -0.15038782358169556
visibility: 0.975223183631897
","x: 242.21975708007812
y: 527.87646484375
z: -0.023176295682787895
visibility: 0.8804635405540466
","x: 275.3436279296875
y: 557.0563354492188
z: -0.13679054379463196
visibility: 0.8054643273353577
","x: 247.93218994140625
y: 530.4413452148438
z: -0.008304562419652939
visibility: 0.7355818152427673
","x: 274.2078552246094
y: 566.8644409179688
z: -0.22885234653949738
visibility: 0.9587551355361938
","x: 240.29293823242188
y: 552.833984375
z: -0.08709598332643509
visibility: 0.8622481822967529
","x: 245.6248321533203
y: 392.79351806640625
z: 0.0
","x: 248.03457641601562
y: 389.16845703125
z: 0.001306992839090526
","x: 248.8037109375
y: 384.67218017578125
z: 0.0011559330159798265
","x: 249.31011962890625
y: 381.2799072265625
z: -6.620123895118013e-05
","x: 249.77288818359375
y: 378.7286682128906
z: -0.001052520121447742
","x: 245.33203125
y: 377.5107421875
z: 0.0033530534710735083
","x: 244.91331481933594
y: 371.7648010253906
z: 0.00197609537281096
","x: 245.05743408203125
y: 367.74237060546875
z: 0.0003785750304814428
","x: 245.2115020751953
y: 364.6423034667969
z: -0.000752489548176527
","x: 245.00201416015625
y: 377.91156005859375
z: 0.0011799351777881384
","x: 246.7841796875
y: 373.8751525878906
z: -0.0005897818482480943
","x: 248.74168395996094
y: 375.0460510253906
z: -0.001697138068266213
","x: 249.74349975585938
y: 376.64898681640625
z: -0.002113817725330591
","x: 244.925048828125
y: 378.7095642089844
z: -0.0012663847301155329
","x: 246.89085388183594
y: 375.02508544921875
z: -0.003045272082090378
","x: 249.0021209716797
y: 376.55120849609375
z: -0.0030636920128017664
","x: 250.11566162109375
y: 378.88372802734375
z: -0.0027310303412377834
","x: 245.13064575195312
y: 380.05987548828125
z: -0.0038984513375908136
","x: 246.64434814453125
y: 376.4306640625
z: -0.005086265970021486
","x: 248.439208984375
y: 376.7264099121094
z: -0.004897040780633688
","x: 249.73342895507812
y: 378.2919921875
z: -0.00447529461234808
",,,,,,,,,,,,,,,,,,,,,
21,"x: 255.70169067382812
y: 401.7320556640625
z: -0.2922922670841217
visibility: 0.9997987151145935
","x: 257.80169677734375
y: 396.466552734375
z: -0.2825872600078583
visibility: 0.9997102618217468
","x: 258.84814453125
y: 396.4337158203125
z: -0.2825923264026642
visibility: 0.9996756911277771
","x: 259.8130187988281
y: 396.431640625
z: -0.28264403343200684
visibility: 0.9996442198753357
","x: 254.61416625976562
y: 396.2164306640625
z: -0.282648503780365
visibility: 0.9996299147605896
","x: 253.5499267578125
y: 396.1416320800781
z: -0.28271788358688354
visibility: 0.9995788931846619
","x: 252.51185607910156
y: 396.22686767578125
z: -0.28274887800216675
visibility: 0.9995719194412231
","x: 261.12493896484375
y: 398.1689147949219
z: -0.1981266289949417
visibility: 0.9995232820510864
","x: 250.53697204589844
y: 398.4703369140625
z: -0.19945545494556427
visibility: 0.9993404150009155
","x: 257.6988525390625
y: 406.0816650390625
z: -0.2588934302330017
visibility: 0.9996811747550964
","x: 254.00167846679688
y: 406.7219543457031
z: -0.25942930579185486
visibility: 0.9994896054267883
","x: 270.60736083984375
y: 423.447021484375
z: -0.1472378969192505
visibility: 0.9998338222503662
","x: 242.1411590576172
y: 419.9042053222656
z: -0.14438994228839874
visibility: 0.9993705749511719
","x: 268.9908447265625
y: 467.542236328125
z: -0.26104190945625305
visibility: 0.9777995944023132
","x: 239.2514190673828
y: 456.9853210449219
z: -0.2852877676486969
visibility: 0.9576014876365662
","x: 272.4084777832031
y: 439.2020263671875
z: -0.41776925325393677
visibility: 0.9743660688400269
","x: 244.32366943359375
y: 418.4964294433594
z: -0.4577162265777588
visibility: 0.9607583284378052
","x: 274.372314453125
y: 432.669189453125
z: -0.44974908232688904
visibility: 0.9425694942474365
","x: 244.8043975830078
y: 408.7686767578125
z: -0.48804450035095215
visibility: 0.9105969667434692
","x: 275.7781677246094
y: 428.5794372558594
z: -0.4445039629936218
visibility: 0.9391378164291382
","x: 245.2224578857422
y: 405.8760070800781
z: -0.4717715382575989
visibility: 0.9000646471977234
","x: 274.5052490234375
y: 431.17572021484375
z: -0.4189961850643158
visibility: 0.9163534045219421
","x: 245.65875244140625
y: 408.8503723144531
z: -0.45380252599716187
visibility: 0.8767759799957275
","x: 269.04241943359375
y: 482.83685302734375
z: -0.011168086901307106
visibility: 0.9997639060020447
","x: 253.4337921142578
y: 485.150390625
z: 0.011289075948297977
visibility: 0.9993757009506226
","x: 271.067138671875
y: 497.61181640625
z: -0.2887738049030304
visibility: 0.9875940084457397
","x: 242.449462890625
y: 518.3836669921875
z: 0.08105318248271942
visibility: 0.9316989183425903
","x: 274.9381408691406
y: 551.6160888671875
z: -0.2229570597410202
visibility: 0.9746894240379333
","x: 242.7069549560547
y: 527.9113159179688
z: 0.3759942054748535
visibility: 0.8300620913505554
","x: 275.1453552246094
y: 558.0806274414062
z: -0.21980753540992737
visibility: 0.8026739358901978
","x: 242.47695922851562
y: 527.964111328125
z: 0.4040273129940033
visibility: 0.698467493057251
","x: 273.71600341796875
y: 566.9194946289062
z: -0.321358859539032
visibility: 0.9584013223648071
","x: 240.5119171142578
y: 545.6873168945312
z: 0.35843896865844727
visibility: 0.8178707361221313
","x: 244.3448028564453
y: 417.2581481933594
z: 0.0
","x: 246.6890411376953
y: 411.9607238769531
z: 0.0024166207294911146
","x: 246.91758728027344
y: 406.53741455078125
z: 0.0027927726041525602
","x: 246.9398651123047
y: 402.401611328125
z: 0.0019322901498526335
","x: 247.01052856445312
y: 399.33074951171875
z: 0.0012661723885685205
","x: 243.07591247558594
y: 401.5934753417969
z: 0.0038976073265075684
","x: 242.6959686279297
y: 395.4042053222656
z: 0.0027741326484829187
","x: 242.67001342773438
y: 391.204345703125
z: 0.0016817341092973948
","x: 242.5468292236328
y: 387.75103759765625
z: 0.0009442053269594908
","x: 242.5128631591797
y: 401.89385986328125
z: 0.0012339921668171883
","x: 243.92337036132812
y: 395.71673583984375
z: -5.6371201935689896e-05
","x: 245.35910034179688
y: 394.96514892578125
z: -0.000600568950176239
","x: 246.08331298828125
y: 395.180419921875
z: -0.0006567355594597757
","x: 242.364013671875
y: 402.39520263671875
z: -0.0016135108890011907
","x: 244.61497497558594
y: 397.022705078125
z: -0.0029367876704782248
","x: 246.734130859375
y: 398.54302978515625
z: -0.002171187661588192
","x: 247.82916259765625
y: 401.2265319824219
z: -0.0012917567510157824
","x: 242.59669494628906
y: 403.544921875
z: -0.004586140159517527
","x: 244.58006286621094
y: 399.0316162109375
z: -0.005248352885246277
","x: 246.2625274658203
y: 399.6823425292969
z: -0.004344745073467493
","x: 247.32167053222656
y: 401.92034912109375
z: -0.0034023269545286894
","x: 272.2929992675781
y: 438.5281677246094
z: 0.0
","x: 273.49481201171875
y: 432.35479736328125
z: 0.0011230295058339834
","x: 275.85406494140625
y: 427.6298522949219
z: 0.0013506336836144328
","x: 278.0480041503906
y: 424.7356872558594
z: 0.000666582549456507
","x: 279.9624328613281
y: 423.01446533203125
z: 0.00021284216200001538
","x: 279.4705505371094
y: 428.798828125
z: 0.004058707505464554
","x: 281.6429138183594
y: 425.72406005859375
z: 0.002511390717700124
","x: 281.8294677734375
y: 422.769287109375
z: 0.0013896384043619037
","x: 281.4722595214844
y: 420.5328369140625
z: 0.0009175444138236344
","x: 280.1820373535156
y: 430.4249572753906
z: 0.0020049153827130795
","x: 282.55462646484375
y: 427.2337646484375
z: 0.00023379323829431087
","x: 282.34393310546875
y: 424.171875
z: -0.0009503457695245743
","x: 281.6559143066406
y: 421.806640625
z: -0.0014305311487987638
","x: 280.5468444824219
y: 432.4336242675781
z: -0.0005182545864954591
","x: 282.7782897949219
y: 429.42816162109375
z: -0.0020030580926686525
","x: 281.9216003417969
y: 426.8515625
z: -0.0019399580778554082
","x: 280.6110534667969
y: 425.1745910644531
z: -0.0015591876581311226
","x: 280.55889892578125
y: 434.82763671875
z: -0.003278428688645363
","x: 282.7955017089844
y: 432.45758056640625
z: -0.0040579489432275295
","x: 282.85601806640625
y: 430.0079345703125
z: -0.003833489492535591
","x: 282.257080078125
y: 428.2041015625
z: -0.003417887259274721
"
22,"x: 255.70169067382812
y: 401.7320556640625
z: -0.2922922670841217
visibility: 0.9997987151145935
","x: 257.80169677734375
y: 396.466552734375
z: -0.2825872600078583
visibility: 0.9997102618217468
","x: 258.84814453125
y: 396.4337158203125
z: -0.2825923264026642
visibility: 0.9996756911277771
","x: 259.8130187988281
y: 396.431640625
z: -0.28264403343200684
visibility: 0.9996442198753357
","x: 254.61416625976562
y: 396.2164306640625
z: -0.282648503780365
visibility: 0.9996299147605896
","x: 253.5499267578125
y: 396.1416320800781
z: -0.28271788358688354
visibility: 0.9995788931846619
","x: 252.51185607910156
y: 396.22686767578125
z: -0.28274887800216675
visibility: 0.9995719194412231
","x: 261.12493896484375
y: 398.1689147949219
z: -0.1981266289949417
visibility: 0.9995232820510864
","x: 250.53697204589844
y: 398.4703369140625
z: -0.19945545494556427
visibility: 0.9993404150009155
","x: 257.6988525390625
y: 406.0816650390625
z: -0.2588934302330017
visibility: 0.9996811747550964
","x: 254.00167846679688
y: 406.7219543457031
z: -0.25942930579185486
visibility: 0.9994896054267883
","x: 270.60736083984375
y: 423.447021484375
z: -0.1472378969192505
visibility: 0.9998338222503662
","x: 242.1411590576172
y: 419.9042053222656
z: -0.14438994228839874
visibility: 0.9993705749511719
","x: 268.9908447265625
y: 467.542236328125
z: -0.26104190945625305
visibility: 0.9777995944023132
","x: 239.2514190673828
y: 456.9853210449219
z: -0.2852877676486969
visibility: 0.9576014876365662
","x: 272.4084777832031
y: 439.2020263671875
z: -0.41776925325393677
visibility: 0.9743660688400269
","x: 244.32366943359375
y: 418.4964294433594
z: -0.4577162265777588
visibility: 0.9607583284378052
","x: 274.372314453125
y: 432.669189453125
z: -0.44974908232688904
visibility: 0.9425694942474365
","x: 244.8043975830078
y: 408.7686767578125
z: -0.48804450035095215
visibility: 0.9105969667434692
","x: 275.7781677246094
y: 428.5794372558594
z: -0.4445039629936218
visibility: 0.9391378164291382
","x: 245.2224578857422
y: 405.8760070800781
z: -0.4717715382575989
visibility: 0.9000646471977234
","x: 274.5052490234375
y: 431.17572021484375
z: -0.4189961850643158
visibility: 0.9163534045219421
","x: 245.65875244140625
y: 408.8503723144531
z: -0.45380252599716187
visibility: 0.8767759799957275
","x: 269.04241943359375
y: 482.83685302734375
z: -0.011168086901307106
visibility: 0.9997639060020447
","x: 253.4337921142578
y: 485.150390625
z: 0.011289075948297977
visibility: 0.9993757009506226
","x: 271.067138671875
y: 497.61181640625
z: -0.2887738049030304
visibility: 0.9875940084457397
","x: 242.449462890625
y: 518.3836669921875
z: 0.08105318248271942
visibility: 0.9316989183425903
","x: 274.9381408691406
y: 551.6160888671875
z: -0.2229570597410202
visibility: 0.9746894240379333
","x: 242.7069549560547
y: 527.9113159179688
z: 0.3759942054748535
visibility: 0.8300620913505554
","x: 275.1453552246094
y: 558.0806274414062
z: -0.21980753540992737
visibility: 0.8026739358901978
","x: 242.47695922851562
y: 527.964111328125
z: 0.4040273129940033
visibility: 0.698467493057251
","x: 273.71600341796875
y: 566.9194946289062
z: -0.321358859539032
visibility: 0.9584013223648071
","x: 240.5119171142578
y: 545.6873168945312
z: 0.35843896865844727
visibility: 0.8178707361221313
","x: 244.3448028564453
y: 417.2581481933594
z: 0.0
","x: 246.6890411376953
y: 411.9607238769531
z: 0.0024166207294911146
","x: 246.91758728027344
y: 406.53741455078125
z: 0.0027927726041525602
","x: 246.9398651123047
y: 402.401611328125
z: 0.0019322901498526335
","x: 247.01052856445312
y: 399.33074951171875
z: 0.0012661723885685205
","x: 243.07591247558594
y: 401.5934753417969
z: 0.0038976073265075684
","x: 242.6959686279297
y: 395.4042053222656
z: 0.0027741326484829187
","x: 242.67001342773438
y: 391.204345703125
z: 0.0016817341092973948
","x: 242.5468292236328
y: 387.75103759765625
z: 0.0009442053269594908
","x: 242.5128631591797
y: 401.89385986328125
z: 0.0012339921668171883
","x: 243.92337036132812
y: 395.71673583984375
z: -5.6371201935689896e-05
","x: 245.35910034179688
y: 394.96514892578125
z: -0.000600568950176239
","x: 246.08331298828125
y: 395.180419921875
z: -0.0006567355594597757
","x: 242.364013671875
y: 402.39520263671875
z: -0.0016135108890011907
","x: 244.61497497558594
y: 397.022705078125
z: -0.0029367876704782248
","x: 246.734130859375
y: 398.54302978515625
z: -0.002171187661588192
","x: 247.82916259765625
y: 401.2265319824219
z: -0.0012917567510157824
","x: 242.59669494628906
y: 403.544921875
z: -0.004586140159517527
","x: 244.58006286621094
y: 399.0316162109375
z: -0.005248352885246277
","x: 246.2625274658203
y: 399.6823425292969
z: -0.004344745073467493
","x: 247.32167053222656
y: 401.92034912109375
z: -0.0034023269545286894
","x: 272.2929992675781
y: 438.5281677246094
z: 0.0
","x: 273.49481201171875
y: 432.35479736328125
z: 0.0011230295058339834
","x: 275.85406494140625
y: 427.6298522949219
z: 0.0013506336836144328
","x: 278.0480041503906
y: 424.7356872558594
z: 0.000666582549456507
","x: 279.9624328613281
y: 423.01446533203125
z: 0.00021284216200001538
","x: 279.4705505371094
y: 428.798828125
z: 0.004058707505464554
","x: 281.6429138183594
y: 425.72406005859375
z: 0.002511390717700124
","x: 281.8294677734375
y: 422.769287109375
z: 0.0013896384043619037
","x: 281.4722595214844
y: 420.5328369140625
z: 0.0009175444138236344
","x: 280.1820373535156
y: 430.4249572753906
z: 0.0020049153827130795
","x: 282.55462646484375
y: 427.2337646484375
z: 0.00023379323829431087
","x: 282.34393310546875
y: 424.171875
z: -0.0009503457695245743
","x: 281.6559143066406
y: 421.806640625
z: -0.0014305311487987638
","x: 280.5468444824219
y: 432.4336242675781
z: -0.0005182545864954591
","x: 282.7782897949219
y: 429.42816162109375
z: -0.0020030580926686525
","x: 281.9216003417969
y: 426.8515625
z: -0.0019399580778554082
","x: 280.6110534667969
y: 425.1745910644531
z: -0.0015591876581311226
","x: 280.55889892578125
y: 434.82763671875
z: -0.003278428688645363
","x: 282.7955017089844
y: 432.45758056640625
z: -0.0040579489432275295
","x: 282.85601806640625
y: 430.0079345703125
z: -0.003833489492535591
","x: 282.257080078125
y: 428.2041015625
z: -0.003417887259274721
"
23,"x: 255.70169067382812
y: 401.7320556640625
z: -0.2922922670841217
visibility: 0.9997987151145935
","x: 257.80169677734375
y: 396.466552734375
z: -0.2825872600078583
visibility: 0.9997102618217468
","x: 258.84814453125
y: 396.4337158203125
z: -0.2825923264026642
visibility: 0.9996756911277771
","x: 259.8130187988281
y: 396.431640625
z: -0.28264403343200684
visibility: 0.9996442198753357
","x: 254.61416625976562
y: 396.2164306640625
z: -0.282648503780365
visibility: 0.9996299147605896
","x: 253.5499267578125
y: 396.1416320800781
z: -0.28271788358688354
visibility: 0.9995788931846619
","x: 252.51185607910156
y: 396.22686767578125
z: -0.28274887800216675
visibility: 0.9995719194412231
","x: 261.12493896484375
y: 398.1689147949219
z: -0.1981266289949417
visibility: 0.9995232820510864
","x: 250.53697204589844
y: 398.4703369140625
z: -0.19945545494556427
visibility: 0.9993404150009155
","x: 257.6988525390625
y: 406.0816650390625
z: -0.2588934302330017
visibility: 0.9996811747550964
","x: 254.00167846679688
y: 406.7219543457031
z: -0.25942930579185486
visibility: 0.9994896054267883
","x: 270.60736083984375
y: 423.447021484375
z: -0.1472378969192505
visibility: 0.9998338222503662
","x: 242.1411590576172
y: 419.9042053222656
z: -0.14438994228839874
visibility: 0.9993705749511719
","x: 268.9908447265625
y: 467.542236328125
z: -0.26104190945625305
visibility: 0.9777995944023132
","x: 239.2514190673828
y: 456.9853210449219
z: -0.2852877676486969
visibility: 0.9576014876365662
","x: 272.4084777832031
y: 439.2020263671875
z: -0.41776925325393677
visibility: 0.9743660688400269
","x: 244.32366943359375
y: 418.4964294433594
z: -0.4577162265777588
visibility: 0.9607583284378052
","x: 274.372314453125
y: 432.669189453125
z: -0.44974908232688904
visibility: 0.9425694942474365
","x: 244.8043975830078
y: 408.7686767578125
z: -0.48804450035095215
visibility: 0.9105969667434692
","x: 275.7781677246094
y: 428.5794372558594
z: -0.4445039629936218
visibility: 0.9391378164291382
","x: 245.2224578857422
y: 405.8760070800781
z: -0.4717715382575989
visibility: 0.9000646471977234
","x: 274.5052490234375
y: 431.17572021484375
z: -0.4189961850643158
visibility: 0.9163534045219421
","x: 245.65875244140625
y: 408.8503723144531
z: -0.45380252599716187
visibility: 0.8767759799957275
","x: 269.04241943359375
y: 482.83685302734375
z: -0.011168086901307106
visibility: 0.9997639060020447
","x: 253.4337921142578
y: 485.150390625
z: 0.011289075948297977
visibility: 0.9993757009506226
","x: 271.067138671875
y: 497.61181640625
z: -0.2887738049030304
visibility: 0.9875940084457397
","x: 242.449462890625
y: 518.3836669921875
z: 0.08105318248271942
visibility: 0.9316989183425903
","x: 274.9381408691406
y: 551.6160888671875
z: -0.2229570597410202
visibility: 0.9746894240379333
","x: 242.7069549560547
y: 527.9113159179688
z: 0.3759942054748535
visibility: 0.8300620913505554
","x: 275.1453552246094
y: 558.0806274414062
z: -0.21980753540992737
visibility: 0.8026739358901978
","x: 242.47695922851562
y: 527.964111328125
z: 0.4040273129940033
visibility: 0.698467493057251
","x: 273.71600341796875
y: 566.9194946289062
z: -0.321358859539032
visibility: 0.9584013223648071
","x: 240.5119171142578
y: 545.6873168945312
z: 0.35843896865844727
visibility: 0.8178707361221313
","x: 244.3448028564453
y: 417.2581481933594
z: 0.0
","x: 246.6890411376953
y: 411.9607238769531
z: 0.0024166207294911146
","x: 246.91758728027344
y: 406.53741455078125
z: 0.0027927726041525602
","x: 246.9398651123047
y: 402.401611328125
z: 0.0019322901498526335
","x: 247.01052856445312
y: 399.33074951171875
z: 0.0012661723885685205
","x: 243.07591247558594
y: 401.5934753417969
z: 0.0038976073265075684
","x: 242.6959686279297
y: 395.4042053222656
z: 0.0027741326484829187
","x: 242.67001342773438
y: 391.204345703125
z: 0.0016817341092973948
","x: 242.5468292236328
y: 387.75103759765625
z: 0.0009442053269594908
","x: 242.5128631591797
y: 401.89385986328125
z: 0.0012339921668171883
","x: 243.92337036132812
y: 395.71673583984375
z: -5.6371201935689896e-05
","x: 245.35910034179688
y: 394.96514892578125
z: -0.000600568950176239
","x: 246.08331298828125
y: 395.180419921875
z: -0.0006567355594597757
","x: 242.364013671875
y: 402.39520263671875
z: -0.0016135108890011907
","x: 244.61497497558594
y: 397.022705078125
z: -0.0029367876704782248
","x: 246.734130859375
y: 398.54302978515625
z: -0.002171187661588192
","x: 247.82916259765625
y: 401.2265319824219
z: -0.0012917567510157824
","x: 242.59669494628906
y: 403.544921875
z: -0.004586140159517527
","x: 244.58006286621094
y: 399.0316162109375
z: -0.005248352885246277
","x: 246.2625274658203
y: 399.6823425292969
z: -0.004344745073467493
","x: 247.32167053222656
y: 401.92034912109375
z: -0.0034023269545286894
","x: 272.2929992675781
y: 438.5281677246094
z: 0.0
","x: 273.49481201171875
y: 432.35479736328125
z: 0.0011230295058339834
","x: 275.85406494140625
y: 427.6298522949219
z: 0.0013506336836144328
","x: 278.0480041503906
y: 424.7356872558594
z: 0.000666582549456507
","x: 279.9624328613281
y: 423.01446533203125
z: 0.00021284216200001538
