uscmakers/ReverseChoreography/data/3_slow_dancing_in_the_dark_joji.csv
,NOSE,LEFT_EYE_INNER,LEFT_EYE,LEFT_EYE_OUTER,RIGHT_EYE_INNER,RIGHT_EYE,RIGHT_EYE_OUTER,LEFT_EAR,RIGHT_EAR,MOUTH_LEFT,MOUTH_RIGHT,LEFT_SHOULDER,RIGHT_SHOULDER,LEFT_ELBOW,RIGHT_ELBOW,LEFT_WRIST,RIGHT_WRIST,LEFT_PINKY,RIGHT_PINKY,LEFT_INDEX,RIGHT_INDEX,LEFT_THUMB,RIGHT_THUMB,LEFT_HIP,RIGHT_HIP,LEFT_KNEE,RIGHT_KNEE,LEFT_ANKLE,RIGHT_ANKLE,LEFT_HEEL,RIGHT_HEEL,LEFT_FOOT_INDEX,RIGHT_FOOT_INDEX,WRIST2,THUMB_CPC2,THUMB_MCP2,THUMB_IP2,THUMB_TIP2,INDEX_FINGER_MCP2,INDEX_FINGER_PIP2,INDEX_FINGER_DIP2,INDEX_FINGER_TIP2,MIDDLE_FINGER_MCP2,MIDDLE_FINGER_PIP2,MIDDLE_FINGER_DIP2,MIDDLE_FINGER_TIP2,RING_FINGER_PIP2,RING_FINGER_DIP2,RING_FINGER_TIP2,RING_FINGER_MCP2,PINKY_MCP2,PINKY_PIP2,PINKY_DIP2,PINKY_TIP2,WRIST,THUMB_CPC,THUMB_MCP,THUMB_IP,THUMB_TIP,INDEX_FINGER_MCP,INDEX_FINGER_PIP,INDEX_FINGER_DIP,INDEX_FINGER_TIP,MIDDLE_FINGER_MCP,MIDDLE_FINGER_PIP,MIDDLE_FINGER_DIP,MIDDLE_FINGER_TIP,RING_FINGER_PIP,RING_FINGER_DIP,RING_FINGER_TIP,RING_FINGER_MCP,PINKY_MCP,PINKY_PIP,PINKY_DIP,PINKY_TIP
0,"x: 276.5066833496094
y: 288.718994140625
z: -0.16935689747333527
visibility: 0.9997939467430115
","x: 276.8421325683594
y: 284.21820068359375
z: -0.15274678170681
visibility: 0.999798595905304
","x: 277.92596435546875
y: 283.9830322265625
z: -0.1527659147977829
visibility: 0.9997325539588928
","x: 279.1177978515625
y: 283.69158935546875
z: -0.15279874205589294
visibility: 0.9997723698616028
","x: 273.9250793457031
y: 285.66363525390625
z: -0.15018154680728912
visibility: 0.9997175335884094
","x: 272.8859558105469
y: 286.6330261230469
z: -0.15019220113754272
visibility: 0.9996663331985474
","x: 271.7326965332031
y: 287.5952453613281
z: -0.15019474923610687
visibility: 0.9997162222862244
","x: 281.8735656738281
y: 286.66107177734375
z: -0.06057431548833847
visibility: 0.9997598528862
","x: 269.65716552734375
y: 292.580322265625
z: -0.04636160284280777
visibility: 0.9996449947357178
","x: 279.36749267578125
y: 293.9660949707031
z: -0.1353044956922531
visibility: 0.9998258948326111
","x: 275.4142150878906
y: 297.343505859375
z: -0.13131429255008698
visibility: 0.9996609687805176
","x: 298.0011901855469
y: 318.1872863769531
z: -0.040419064462184906
visibility: 0.9987119436264038
","x: 264.28399658203125
y: 326.6874694824219
z: -0.05071146413683891
visibility: 0.9978207349777222
","x: 315.29180908203125
y: 307.0987243652344
z: -0.25093477964401245
visibility: 0.9914815425872803
","x: 260.8412780761719
y: 330.36328125
z: -0.2508612871170044
visibility: 0.9789404273033142
","x: 305.5598449707031
y: 265.014892578125
z: -0.41296881437301636
visibility: 0.971504271030426
","x: 262.8135681152344
y: 280.8258361816406
z: -0.43485528230667114
visibility: 0.9702268838882446
","x: 301.0128173828125
y: 254.18182373046875
z: -0.45382028818130493
visibility: 0.9145499467849731
","x: 263.4322204589844
y: 272.4512939453125
z: -0.4824046194553375
visibility: 0.9307618737220764
","x: 299.3379211425781
y: 253.0389404296875
z: -0.4351133704185486
visibility: 0.905857264995575
","x: 264.815673828125
y: 270.959228515625
z: -0.4669775068759918
visibility: 0.9217907190322876
","x: 300.09588623046875
y: 257.36767578125
z: -0.41195908188819885
visibility: 0.893458902835846
","x: 265.3017578125
y: 274.31378173828125
z: -0.4364481568336487
visibility: 0.9025090932846069
","x: 283.0662536621094
y: 424.1602783203125
z: 0.00354174105450511
visibility: 0.9994451403617859
","x: 267.1900329589844
y: 418.3565673828125
z: -0.0035891432780772448
visibility: 0.999152421951294
","x: 283.49737548828125
y: 499.3369140625
z: -0.03669511526823044
visibility: 0.9686399698257446
","x: 250.9518585205078
y: 488.2559509277344
z: -0.047433506697416306
visibility: 0.9843775033950806
","x: 285.2842102050781
y: 564.8138427734375
z: 0.10720400512218475
visibility: 0.9313375949859619
","x: 235.57012939453125
y: 554.6770629882812
z: 0.07366614788770676
visibility: 0.9591827988624573
","x: 283.6453857421875
y: 574.179443359375
z: 0.11602531373500824
visibility: 0.6714673638343811
","x: 234.2471923828125
y: 562.9614868164062
z: 0.08037857711315155
visibility: 0.6060990691184998
","x: 288.3233947753906
y: 582.0826416015625
z: 0.010159897617995739
visibility: 0.87274569272995
","x: 234.8304443359375
y: 580.9749755859375
z: -0.03437819704413414
visibility: 0.9017022252082825
",,,,,,,,,,,,,,,,,,,,,,,,,,,,,,,,,,,,,,,,,,
1,"x: 263.9487609863281
y: 293.97393798828125
z: -0.1171654686331749
visibility: 0.9996552467346191
","x: 266.1737060546875
y: 288.3482666015625
z: -0.1024317517876625
visibility: 0.9996951818466187
","x: 267.3026428222656
y: 288.17059326171875
z: -0.10254035890102386
visibility: 0.999622642993927
","x: 268.3778991699219
y: 287.94091796875
z: -0.10261145979166031
visibility: 0.999678909778595
","x: 262.2952575683594
y: 288.532470703125
z: -0.10115736722946167
visibility: 0.9995015859603882
","x: 260.8162536621094
y: 288.6282958984375
z: -0.10112539678812027
visibility: 0.9993149042129517
","x: 259.3575134277344
y: 288.77606201171875
z: -0.10114432871341705
visibility: 0.99930340051651
","x: 269.5484313964844
y: 290.5966796875
z: -0.023850036785006523
visibility: 0.9996328949928284
","x: 257.77203369140625
y: 292.57928466796875
z: -0.01686684973537922
visibility: 0.9990978837013245
","x: 265.9227600097656
y: 298.1821594238281
z: -0.08765460550785065
visibility: 0.999574601650238
","x: 261.6525573730469
y: 299.30230712890625
z: -0.08602430671453476
visibility: 0.9991016387939453
","x: 278.1527404785156
y: 323.670166015625
z: -0.034075625240802765
visibility: 0.9982877969741821
","x: 248.24807739257812
y: 325.5927734375
z: -0.02459343895316124
visibility: 0.9967211484909058
","x: 268.662353515625
y: 324.27960205078125
z: -0.20034587383270264
visibility: 0.9824180006980896
","x: 256.60162353515625
y: 329.8445129394531
z: -0.19021861255168915
visibility: 0.9531236886978149
","x: 265.51617431640625
y: 274.4552307128906
z: -0.31686681509017944
visibility: 0.9672994613647461
","x: 261.7499694824219
y: 279.9944763183594
z: -0.3343561291694641
visibility: 0.9580789804458618
","x: 265.90850830078125
y: 261.0567932128906
z: -0.35198649764060974
visibility: 0.9122565388679504
","x: 263.095703125
y: 267.2088317871094
z: -0.3742612898349762
visibility: 0.9174529910087585
","x: 266.6222839355469
y: 259.73583984375
z: -0.3449886441230774
visibility: 0.9040637612342834
","x: 263.4125061035156
y: 265.8916931152344
z: -0.3642180860042572
visibility: 0.9080221652984619
","x: 266.2635803222656
y: 266.1627502441406
z: -0.31923574209213257
visibility: 0.8917719125747681
","x: 262.8830871582031
y: 272.22113037109375
z: -0.33774518966674805
visibility: 0.8884962201118469
","x: 264.09710693359375
y: 425.4476623535156
z: 0.0035528845619410276
visibility: 0.9994505047798157
","x: 250.22898864746094
y: 421.8885803222656
z: -0.003603024408221245
visibility: 0.999164879322052
","x: 272.5284423828125
y: 501.8471984863281
z: 0.0019815205596387386
visibility: 0.9669829607009888
","x: 244.4419708251953
y: 498.1929931640625
z: -0.0048971157521009445
visibility: 0.9828346967697144
","x: 283.38177490234375
y: 566.7515258789062
z: 0.10710474103689194
visibility: 0.9336230158805847
","x: 235.54049682617188
y: 562.2901611328125
z: 0.09827537089586258
visibility: 0.9585468173027039
","x: 281.26995849609375
y: 576.8609619140625
z: 0.11416921764612198
visibility: 0.6880781650543213
","x: 235.52352905273438
y: 571.6284790039062
z: 0.10412769019603729
visibility: 0.6154706478118896
","x: 288.229248046875
y: 584.0277709960938
z: 0.01793483830988407
visibility: 0.8769654631614685
","x: 245.90780639648438
y: 587.0226440429688
z: 0.01393647026270628
visibility: 0.9008748531341553
",,,,,,,,,,,,,,,,,,,,,,,,,,,,,,,,,,,,,,,,,,
2,"x: 252.9623260498047
y: 295.59930419921875
z: -0.13792437314987183
visibility: 0.9996808767318726
","x: 254.8771514892578
y: 291.0926208496094
z: -0.12240787595510483
visibility: 0.9997151494026184
","x: 256.0487976074219
y: 290.9261779785156
z: -0.12247262895107269
visibility: 0.9996474385261536
","x: 257.164794921875
y: 290.7085876464844
z: -0.12252386659383774
visibility: 0.9997002482414246
","x: 250.8286590576172
y: 291.07366943359375
z: -0.1209571585059166
visibility: 0.9995350241661072
","x: 249.2574462890625
y: 290.9848327636719
z: -0.1209472045302391
visibility: 0.9993601441383362
","x: 247.73077392578125
y: 290.8226623535156
z: -0.12095608562231064
visibility: 0.9993546009063721
","x: 258.94342041015625
y: 292.3515625
z: -0.03711531311273575
visibility: 0.9996585249900818
","x: 245.83154296875
y: 293.16741943359375
z: -0.02585749886929989
visibility: 0.9991716146469116
","x: 254.957763671875
y: 298.847900390625
z: -0.10576002299785614
visibility: 0.9996078014373779
","x: 250.93417358398438
y: 300.1458435058594
z: -0.10373087972402573
visibility: 0.9991784691810608
","x: 266.1512451171875
y: 323.3684997558594
z: -0.034545160830020905
visibility: 0.9983741641044617
","x: 238.27069091796875
y: 321.0118103027344
z: -0.03338111937046051
visibility: 0.996964156627655
","x: 271.7431945800781
y: 322.7701416015625
z: -0.21383412182331085
visibility: 0.9820471405982971
","x: 233.2579803466797
y: 328.12744140625
z: -0.20087215304374695
visibility: 0.9561666250228882
","x: 259.04180908203125
y: 281.4608154296875
z: -0.35418611764907837
visibility: 0.9671661257743835
","x: 244.0193328857422
y: 283.1790771484375
z: -0.3784826397895813
visibility: 0.9605107307434082
","x: 256.0862121582031
y: 269.56396484375
z: -0.38604655861854553
visibility: 0.9138618111610413
","x: 246.8927459716797
y: 268.65460205078125
z: -0.42214107513427734
visibility: 0.921861469745636
","x: 255.20164489746094
y: 268.11944580078125
z: -0.3722797930240631
visibility: 0.9055615067481995
","x: 247.3160400390625
y: 267.29730224609375
z: -0.40798625349998474
visibility: 0.91289222240448
","x: 255.83319091796875
y: 273.6752624511719
z: -0.3540802597999573
visibility: 0.8936065435409546
","x: 246.99110412597656
y: 274.3263854980469
z: -0.37978315353393555
visibility: 0.8945328593254089
","x: 253.00489807128906
y: 426.15924072265625
z: 0.003617652924731374
visibility: 0.9994560480117798
","x: 240.1297149658203
y: 424.1653747558594
z: -0.003658633679151535
visibility: 0.9991983771324158
","x: 248.7696990966797
y: 500.9462890625
z: -0.002811200451105833
visibility: 0.9635556936264038
","x: 253.0429229736328
y: 500.40704345703125
z: -0.007694185711443424
visibility: 0.9818501472473145
","x: 238.6064910888672
y: 566.67431640625
z: 0.0979161411523819
visibility: 0.9362014532089233
","x: 281.7817687988281
y: 562.92333984375
z: 0.09180939197540283
visibility: 0.9593164324760437
","x: 239.2475128173828
y: 576.119873046875
z: 0.10306639969348907
visibility: 0.7079216241836548
","x: 284.0052795410156
y: 572.3665771484375
z: 0.09396877884864807
visibility: 0.6416498422622681
","x: 235.59274291992188
y: 582.775390625
z: 0.015593206509947777
visibility: 0.881803035736084
","x: 284.5003967285156
y: 587.747314453125
z: -0.001377092208713293
visibility: 0.9036000967025757
",,,,,,,,,,,,,,,,,,,,,,,,,,,,,,,,,,,,,,,,,,
3,"x: 248.996337890625
y: 295.11492919921875
z: -0.1384241282939911
visibility: 0.9996730089187622
","x: 250.46319580078125
y: 292.27789306640625
z: -0.12485667318105698
visibility: 0.9996922612190247
","x: 251.33428955078125
y: 292.3034973144531
z: -0.12490657716989517
visibility: 0.9996215105056763
","x: 252.23336791992188
y: 292.29656982421875
z: -0.12494399398565292
visibility: 0.9996757507324219
","x: 247.58157348632812
y: 291.9103698730469
z: -0.122502401471138
visibility: 0.9995081424713135
","x: 246.5197296142578
y: 291.85015869140625
z: -0.12249846756458282
visibility: 0.9993250370025635
","x: 245.29766845703125
y: 291.6356506347656
z: -0.12251496315002441
visibility: 0.99934321641922
","x: 253.7796630859375
y: 294.5150451660156
z: -0.04198640584945679
visibility: 0.9996354579925537
","x: 243.431396484375
y: 294.3011474609375
z: -0.02997543476521969
visibility: 0.9991671442985535
","x: 250.2189178466797
y: 298.6684875488281
z: -0.10679252445697784
visibility: 0.9995917677879333
","x: 247.41720581054688
y: 300.0363464355469
z: -0.10334205627441406
visibility: 0.9991909265518188
","x: 262.76300048828125
y: 322.7784729003906
z: -0.03930627927184105
visibility: 0.9983736872673035
","x: 235.55499267578125
y: 320.17938232421875
z: -0.028063923120498657
visibility: 0.9971238970756531
","x: 265.9062194824219
y: 319.85919189453125
z: -0.22312088310718536
visibility: 0.9810536503791809
","x: 229.73770141601562
y: 325.16424560546875
z: -0.20352140069007874
visibility: 0.9568158984184265
","x: 251.94985961914062
y: 281.1061706542969
z: -0.35837340354919434
visibility: 0.965082049369812
","x: 241.33428955078125
y: 283.09979248046875
z: -0.3498673141002655
visibility: 0.9614548087120056
","x: 248.56292724609375
y: 268.49371337890625
z: -0.39617061614990234
visibility: 0.9119214415550232
","x: 244.1452178955078
y: 268.61297607421875
z: -0.39288273453712463
visibility: 0.9237096905708313
","x: 248.51271057128906
y: 267.33038330078125
z: -0.3811841607093811
visibility: 0.9030062556266785
","x: 244.5909423828125
y: 267.37646484375
z: -0.3754844069480896
visibility: 0.9148198366165161
","x: 249.178955078125
y: 272.8174133300781
z: -0.3574793040752411
visibility: 0.8906261324882507
","x: 244.30157470703125
y: 274.20037841796875
z: -0.3491630256175995
visibility: 0.8967038989067078
","x: 250.45205688476562
y: 426.097900390625
z: -0.001703321235254407
visibility: 0.9994511604309082
","x: 237.41439819335938
y: 424.3807373046875
z: 0.0016262322897091508
visibility: 0.9992273449897766
","x: 238.78433227539062
y: 502.7197570800781
z: -0.008268969133496284
visibility: 0.9627918004989624
","x: 255.017333984375
y: 501.30078125
z: -0.0030870484188199043
visibility: 0.9811928272247314
","x: 234.61273193359375
y: 565.7957763671875
z: 0.09934951364994049
visibility: 0.9399368166923523
","x: 282.5284729003906
y: 561.8682861328125
z: 0.08997337520122528
visibility: 0.9609705209732056
","x: 235.88475036621094
y: 573.89794921875
z: 0.10527682304382324
visibility: 0.7308864593505859
","x: 286.1417236328125
y: 571.1889038085938
z: 0.0951668843626976
visibility: 0.6700882315635681
","x: 232.83648681640625
y: 582.7716674804688
z: 0.02362571842968464
visibility: 0.8868426084518433
","x: 283.3771057128906
y: 591.2183837890625
z: 0.012508861720561981
visibility: 0.906629741191864
",,,,,,,,,,,,,,,,,,,,,,,,,,,,,,,,,,,,,,,,,,
4,"x: 243.58102416992188
y: 295.01849365234375
z: -0.021958069875836372
visibility: 0.9996978640556335
","x: 242.52325439453125
y: 291.73809814453125
z: -0.02416328713297844
visibility: 0.9997130632400513
","x: 242.13534545898438
y: 291.69171142578125
z: -0.02420409582555294
visibility: 0.999646782875061
","x: 241.7471923828125
y: 291.58074951171875
z: -0.024267252534627914
visibility: 0.9996959567070007
","x: 243.17868041992188
y: 291.55078125
z: -0.02894897386431694
visibility: 0.9995434284210205
","x: 243.48191833496094
y: 291.58697509765625
z: -0.028925061225891113
visibility: 0.9993762969970703
","x: 243.7063751220703
y: 291.4906921386719
z: -0.02889202907681465
visibility: 0.9993943572044373
","x: 241.1057586669922
y: 293.6703796386719
z: -0.012150219641625881
visibility: 0.999663233757019
","x: 241.84805297851562
y: 294.34088134765625
z: -0.03077436424791813
visibility: 0.9992349743843079
","x: 243.35423278808594
y: 298.7784118652344
z: -0.013408725149929523
visibility: 0.9996209740638733
","x: 244.660400390625
y: 299.9328918457031
z: -0.019938204437494278
visibility: 0.9992548227310181
","x: 240.94570922851562
y: 323.2772216796875
z: -0.03152213245630264
visibility: 0.9984782338142395
","x: 244.38246154785156
y: 320.8128356933594
z: -0.03288457542657852
visibility: 0.9973083734512329
","x: 263.28460693359375
y: 306.7898254394531
z: -0.1882116198539734
visibility: 0.980961799621582
","x: 237.14764404296875
y: 315.7193603515625
z: -0.17916949093341827
visibility: 0.9513536691665649
","x: 243.72198486328125
y: 279.6267395019531
z: -0.31808894872665405
visibility: 0.9627040028572083
","x: 237.99740600585938
y: 281.0623474121094
z: -0.296760618686676
visibility: 0.9566048383712769
","x: 238.73023986816406
y: 266.2381896972656
z: -0.35070377588272095
visibility: 0.909157395362854
","x: 237.68222045898438
y: 267.2642822265625
z: -0.32780665159225464
visibility: 0.9198369979858398
","x: 238.63278198242188
y: 265.6078796386719
z: -0.3277529180049896
visibility: 0.9000042080879211
","x: 237.73162841796875
y: 267.03118896484375
z: -0.3211483657360077
visibility: 0.9109614491462708
","x: 239.80421447753906
y: 270.9591369628906
z: -0.3138335347175598
visibility: 0.8867523074150085
","x: 238.24485778808594
y: 273.60888671875
z: -0.29889482259750366
visibility: 0.8917360305786133
","x: 230.06591796875
y: 428.2940979003906
z: -0.0020231958478689194
visibility: 0.9994994401931763
","x: 243.81336975097656
y: 425.9632568359375
z: 0.0018268910935148597
visibility: 0.9992876648902893
","x: 233.0276641845703
y: 503.9805603027344
z: 0.020190853625535965
visibility: 0.9646565318107605
","x: 255.01596069335938
y: 500.8494567871094
z: 0.056808747351169586
visibility: 0.9801385998725891
","x: 234.4318084716797
y: 565.5946044921875
z: 0.025395486503839493
visibility: 0.9450317621231079
","x: 280.0389709472656
y: 557.111083984375
z: 0.05965462327003479
visibility: 0.9636693000793457
","x: 235.2045440673828
y: 573.8507690429688
z: 0.0231107659637928
visibility: 0.7565342783927917
","x: 283.3022766113281
y: 562.2501831054688
z: 0.05743452161550522
visibility: 0.7008618712425232
","x: 232.70184326171875
y: 582.5386352539062
z: -0.031181935220956802
visibility: 0.8946409821510315
","x: 284.3432922363281
y: 590.0546875
z: 0.004400667734444141
visibility: 0.9113336205482483
",,,,,,,,,,,,,,,,,,,,,,,,,,,,,,,,,,,,,,,,,,
5,"x: 240.4212646484375
y: 296.4989318847656
z: 0.10925066471099854
visibility: 0.9997262358665466
","x: 238.45619201660156
y: 293.0832824707031
z: 0.09038440883159637
visibility: 0.9997398853302002
","x: 237.6746368408203
y: 293.08758544921875
z: 0.09035319834947586
visibility: 0.9996798038482666
","x: 236.82345581054688
y: 292.9983215332031
z: 0.09029723703861237
visibility: 0.9997240304946899
","x: 240.80821228027344
y: 292.6907043457031
z: 0.08955442905426025
visibility: 0.9995861053466797
","x: 241.78564453125
y: 292.6140441894531
z: 0.08961421996355057
visibility: 0.9994354248046875
","x: 242.78758239746094
y: 292.4999694824219
z: 0.08967842161655426
visibility: 0.9994516968727112
","x: 235.7518310546875
y: 294.4681396484375
z: 0.033722229301929474
visibility: 0.9996958374977112
","x: 244.28598022460938
y: 295.18939208984375
z: 0.028613349422812462
visibility: 0.9993091225624084
","x: 239.54763793945312
y: 300.429931640625
z: 0.09473206102848053
visibility: 0.9996569156646729
","x: 242.59100341796875
y: 300.6915588378906
z: 0.09319048374891281
visibility: 0.9993261694908142
","x: 228.5498046875
y: 322.1917419433594
z: -0.014295607805252075
visibility: 0.9986220002174377
","x: 247.84799194335938
y: 321.21868896484375
z: 0.0006224366370588541
visibility: 0.9975584149360657
","x: 244.68858337402344
y: 305.1513671875
z: -0.14072933793067932
visibility: 0.9817686080932617
","x: 264.8385009765625
y: 296.6700439453125
z: -0.10969921201467514
visibility: 0.94808429479599
","x: 239.50657653808594
y: 278.7974853515625
z: -0.2569032311439514
visibility: 0.962827205657959
","x: 244.37745666503906
y: 271.2466735839844
z: -0.20931455492973328
visibility: 0.9515513777732849
","x: 236.97947692871094
y: 265.2721862792969
z: -0.2842899262905121
visibility: 0.9114325642585754
","x: 240.41876220703125
y: 262.1422119140625
z: -0.23561036586761475
visibility: 0.915205180644989
","x: 237.66200256347656
y: 264.435546875
z: -0.2688226103782654
visibility: 0.9030981063842773
","x: 239.57391357421875
y: 263.2886962890625
z: -0.2334568202495575
visibility: 0.9068300127983093
","x: 238.66717529296875
y: 269.58636474609375
z: -0.2542254328727722
visibility: 0.8892658948898315
","x: 240.82489013671875
y: 269.2537841796875
z: -0.21283622086048126
visibility: 0.8868857026100159
","x: 226.9066619873047
y: 428.2551574707031
z: -0.008638481609523296
visibility: 0.9995473027229309
","x: 245.4583740234375
y: 425.3640441894531
z: 0.008281593210995197
visibility: 0.9993556141853333
","x: 231.06716918945312
y: 503.6773986816406
z: 0.028120551258325577
visibility: 0.9661587476730347
","x: 254.89846801757812
y: 499.6781005859375
z: 0.04637139290571213
visibility: 0.9787383079528809
","x: 233.10076904296875
y: 564.9579467773438
z: -0.03589626029133797
visibility: 0.9487918019294739
","x: 279.1394348144531
y: 557.107177734375
z: -0.04951375350356102
visibility: 0.9659265875816345
","x: 234.55731201171875
y: 573.2279052734375
z: -0.04349381476640701
visibility: 0.7793886661529541
","x: 282.5123291015625
y: 561.8169555664062
z: -0.06041628122329712
visibility: 0.7290931940078735
","x: 232.2626953125
y: 582.2099609375
z: -0.08572952449321747
visibility: 0.8987373113632202
","x: 282.1268615722656
y: 590.9278564453125
z: -0.10410533100366592
visibility: 0.9141876697540283
","x: 234.4515380859375
y: 268.61602783203125
z: 0.0
","x: 233.0724334716797
y: 263.9479064941406
z: -0.0008409058791585267
","x: 232.60336303710938
y: 259.4462890625
z: -0.00291075580753386
","x: 233.07614135742188
y: 256.5305480957031
z: -0.005581723991781473
","x: 233.9147491455078
y: 254.43798828125
z: -0.008041742257773876
","x: 235.23587036132812
y: 250.9054718017578
z: -0.002047968562692404
","x: 235.68792724609375
y: 243.4495849609375
z: -0.005151586141437292
","x: 235.95059204101562
y: 238.56301879882812
z: -0.007355083711445332
","x: 236.17674255371094
y: 234.91351318359375
z: -0.008814522996544838
","x: 236.76109313964844
y: 252.34945678710938
z: -0.003881280543282628
","x: 237.54669189453125
y: 248.36807250976562
z: -0.007449964992702007
","x: 236.35665893554688
y: 251.00628662109375
z: -0.008028053678572178
","x: 235.41600036621094
y: 254.05355834960938
z: -0.007790557574480772
","x: 237.85733032226562
y: 255.26205444335938
z: -0.0060098301619291306
","x: 238.25994873046875
y: 253.65074157714844
z: -0.009241025894880295
","x: 236.5565185546875
y: 257.0685119628906
z: -0.008438538759946823
","x: 235.43630981445312
y: 260.0337219238281
z: -0.00728813698515296
","x: 238.5120849609375
y: 259.17877197265625
z: -0.008527618832886219
","x: 238.6173095703125
y: 258.2370300292969
z: -0.010665402747690678
","x: 237.2506561279297
y: 260.3561096191406
z: -0.010148189030587673
","x: 236.19789123535156
y: 262.4578857421875
z: -0.00929844006896019
",,,,,,,,,,,,,,,,,,,,,
6,"x: 240.4212646484375
y: 296.4989318847656
z: 0.10925066471099854
visibility: 0.9997262358665466
","x: 238.45619201660156
y: 293.0832824707031
z: 0.09038440883159637
visibility: 0.9997398853302002
","x: 237.6746368408203
y: 293.08758544921875
z: 0.09035319834947586
visibility: 0.9996798038482666
","x: 236.82345581054688
y: 292.9983215332031
z: 0.09029723703861237
visibility: 0.9997240304946899
","x: 240.80821228027344
y: 292.6907043457031
z: 0.08955442905426025
visibility: 0.9995861053466797
","x: 241.78564453125
y: 292.6140441894531
z: 0.08961421996355057
visibility: 0.9994354248046875
","x: 242.78758239746094
y: 292.4999694824219
z: 0.08967842161655426
visibility: 0.9994516968727112
","x: 235.7518310546875
y: 294.4681396484375
z: 0.033722229301929474
visibility: 0.9996958374977112
","x: 244.28598022460938
y: 295.18939208984375
z: 0.028613349422812462
visibility: 0.9993091225624084
","x: 239.54763793945312
y: 300.429931640625
z: 0.09473206102848053
visibility: 0.9996569156646729
","x: 242.59100341796875
y: 300.6915588378906
z: 0.09319048374891281
visibility: 0.9993261694908142
","x: 228.5498046875
y: 322.1917419433594
z: -0.014295607805252075
visibility: 0.9986220002174377
","x: 247.84799194335938
y: 321.21868896484375
z: 0.0006224366370588541
visibility: 0.9975584149360657
","x: 244.68858337402344
y: 305.1513671875
z: -0.14072933793067932
visibility: 0.9817686080932617
","x: 264.8385009765625
y: 296.6700439453125
z: -0.10969921201467514
visibility: 0.94808429479599
","x: 239.50657653808594
y: 278.7974853515625
z: -0.2569032311439514
visibility: 0.962827205657959
","x: 244.37745666503906
y: 271.2466735839844
z: -0.20931455492973328
visibility: 0.9515513777732849
","x: 236.97947692871094
y: 265.2721862792969
z: -0.2842899262905121
visibility: 0.9114325642585754
","x: 240.41876220703125
y: 262.1422119140625
z: -0.23561036586761475
visibility: 0.915205180644989
","x: 237.66200256347656
y: 264.435546875
z: -0.2688226103782654
visibility: 0.9030981063842773
","x: 239.57391357421875
y: 263.2886962890625
z: -0.2334568202495575
visibility: 0.9068300127983093
","x: 238.66717529296875
y: 269.58636474609375
z: -0.2542254328727722
visibility: 0.8892658948898315
","x: 240.82489013671875
y: 269.2537841796875
z: -0.21283622086048126
visibility: 0.8868857026100159
","x: 226.9066619873047
y: 428.2551574707031
z: -0.008638481609523296
visibility: 0.9995473027229309
","x: 245.4583740234375
y: 425.3640441894531
z: 0.008281593210995197
visibility: 0.9993556141853333
","x: 231.06716918945312
y: 503.6773986816406
z: 0.028120551258325577
visibility: 0.9661587476730347
","x: 254.89846801757812
y: 499.6781005859375
z: 0.04637139290571213
visibility: 0.9787383079528809
","x: 233.10076904296875
y: 564.9579467773438
z: -0.03589626029133797
visibility: 0.9487918019294739
","x: 279.1394348144531
y: 557.107177734375
z: -0.04951375350356102
visibility: 0.9659265875816345
","x: 234.55731201171875
y: 573.2279052734375
z: -0.04349381476640701
visibility: 0.7793886661529541
","x: 282.5123291015625
y: 561.8169555664062
z: -0.06041628122329712
visibility: 0.7290931940078735
","x: 232.2626953125
y: 582.2099609375
z: -0.08572952449321747
visibility: 0.8987373113632202
","x: 282.1268615722656
y: 590.9278564453125
z: -0.10410533100366592
visibility: 0.9141876697540283
","x: 234.4515380859375
y: 268.61602783203125
z: 0.0
","x: 233.0724334716797
y: 263.9479064941406
z: -0.0008409058791585267
","x: 232.60336303710938
y: 259.4462890625
z: -0.00291075580753386
","x: 233.07614135742188
y: 256.5305480957031
z: -0.005581723991781473
","x: 233.9147491455078
y: 254.43798828125
z: -0.008041742257773876
","x: 235.23587036132812
y: 250.9054718017578
z: -0.002047968562692404
","x: 235.68792724609375
y: 243.4495849609375
z: -0.005151586141437292
","x: 235.95059204101562
y: 238.56301879882812
z: -0.007355083711445332
","x: 236.17674255371094
y: 234.91351318359375
z: -0.008814522996544838
","x: 236.76109313964844
y: 252.34945678710938
z: -0.003881280543282628
","x: 237.54669189453125
y: 248.36807250976562
z: -0.007449964992702007
","x: 236.35665893554688
y: 251.00628662109375
z: -0.008028053678572178
","x: 235.41600036621094
y: 254.05355834960938
z: -0.007790557574480772
","x: 237.85733032226562
y: 255.26205444335938
z: -0.0060098301619291306
","x: 238.25994873046875
y: 253.65074157714844
z: -0.009241025894880295
","x: 236.5565185546875
y: 257.0685119628906
z: -0.008438538759946823
","x: 235.43630981445312
y: 260.0337219238281
z: -0.00728813698515296
","x: 238.5120849609375
y: 259.17877197265625
z: -0.008527618832886219
","x: 238.6173095703125
y: 258.2370300292969
z: -0.010665402747690678
","x: 237.2506561279297
y: 260.3561096191406
z: -0.010148189030587673
","x: 236.19789123535156
y: 262.4578857421875
z: -0.00929844006896019
",,,,,,,,,,,,,,,,,,,,,
7,"x: 238.94573974609375
y: 297.2644348144531
z: 0.15157155692577362
visibility: 0.9997480511665344
","x: 236.58920288085938
y: 293.8538513183594
z: 0.13140533864498138
visibility: 0.9997603297233582
","x: 235.6363983154297
y: 293.8935546875
z: 0.13137373328208923
visibility: 0.99970543384552
","x: 234.64256286621094
y: 293.8367004394531
z: 0.1313420981168747
visibility: 0.999744713306427
","x: 239.3916778564453
y: 293.5942687988281
z: 0.13115546107292175
visibility: 0.9996190667152405
","x: 240.60797119140625
y: 293.6429748535156
z: 0.13118848204612732
visibility: 0.9994831681251526
","x: 241.8070831298828
y: 293.6109619140625
z: 0.1312074214220047
visibility: 0.9994986653327942
","x: 233.22161865234375
y: 296.25164794921875
z: 0.06468246132135391
visibility: 0.9997210502624512
","x: 243.84893798828125
y: 296.6507873535156
z: 0.06403084099292755
visibility: 0.9993721842765808
","x: 237.70767211914062
y: 301.381103515625
z: 0.13363659381866455
visibility: 0.9996839165687561
","x: 241.32228088378906
y: 301.37335205078125
z: 0.13310137391090393
visibility: 0.9993841648101807
","x: 224.61593627929688
y: 322.2061767578125
z: 0.024927465245127678
visibility: 0.9987269639968872
","x: 250.33847045898438
y: 321.49072265625
z: 0.018629539757966995
visibility: 0.9977861642837524
","x: 233.21136474609375
y: 299.73773193359375
z: -0.08025248348712921
visibility: 0.9736392498016357
","x: 262.78924560546875
y: 292.9241638183594
z: -0.07757025212049484
visibility: 0.9357367753982544
","x: 236.94332885742188
y: 271.44622802734375
z: -0.19700714945793152
visibility: 0.9565455317497253
","x: 246.81015014648438
y: 258.6597900390625
z: -0.16423116624355316
visibility: 0.9481266736984253
","x: 237.8133087158203
y: 258.99639892578125
z: -0.22129635512828827
visibility: 0.9094846844673157
","x: 244.14498901367188
y: 252.83023071289062
z: -0.19107824563980103
visibility: 0.9142135977745056
","x: 238.60125732421875
y: 260.8529052734375
z: -0.21762271225452423
visibility: 0.902057945728302
","x: 242.86798095703125
y: 254.69956970214844
z: -0.18680225312709808
visibility: 0.9062827825546265
","x: 238.97422790527344
y: 264.6706848144531
z: -0.19926151633262634
visibility: 0.8878040909767151
","x: 243.4232940673828
y: 258.7515563964844
z: -0.166375532746315
visibility: 0.8863964676856995
","x: 226.51625061035156
y: 428.2193298339844
z: -0.004363517742604017
visibility: 0.9995911121368408
","x: 246.35800170898438
y: 426.25775146484375
z: 0.003641767892986536
visibility: 0.9994184374809265
","x: 230.5565643310547
y: 503.4193420410156
z: 0.06549935787916183
visibility: 0.9682282209396362
","x: 254.39486694335938
y: 498.93792724609375
z: 0.04521888867020607
visibility: 0.9795036911964417
","x: 233.3445281982422
y: 564.8466796875
z: -0.05791208893060684
visibility: 0.953260064125061
","x: 279.1011962890625
y: 556.7705078125
z: -0.10262612253427505
visibility: 0.9688870906829834
","x: 234.7967529296875
y: 573.2490234375
z: -0.0723712369799614
visibility: 0.8009547591209412
","x: 282.3600769042969
y: 561.2667236328125
z: -0.11892124265432358
visibility: 0.7556316256523132
","x: 231.8382110595703
y: 582.2047729492188
z: -0.1300971955060959
visibility: 0.9049656987190247
","x: 282.8441162109375
y: 591.0889892578125
z: -0.17477253079414368
visibility: 0.9201140999794006
",,,,,,,,,,,,,,,,,,,,,,,,,,,,,,,,,,,,,,,,,,
8,"x: 239.11236572265625
y: 296.9531555175781
z: -0.07837111502885818
visibility: 0.9997648596763611
","x: 238.4177703857422
y: 293.3533935546875
z: -0.06676796078681946
visibility: 0.9997765421867371
","x: 238.62159729003906
y: 293.3507995605469
z: -0.06680340319871902
visibility: 0.9997263550758362
","x: 238.8735809326172
y: 293.21966552734375
z: -0.06681999564170837
visibility: 0.9997609257698059
","x: 237.71405029296875
y: 293.169189453125
z: -0.06633360683917999
visibility: 0.9996474981307983
","x: 237.50103759765625
y: 293.27679443359375
z: -0.06635309010744095
visibility: 0.9995243549346924
","x: 237.2032928466797
y: 293.34765625
z: -0.06636352092027664
visibility: 0.999539852142334
","x: 238.98985290527344
y: 295.5755920410156
z: 0.004645428154617548
visibility: 0.9997406601905823
","x: 234.89230346679688
y: 296.51373291015625
z: 0.005717399995774031
visibility: 0.9994267225265503
","x: 239.73069763183594
y: 301.0500793457031
z: -0.05010777711868286
visibility: 0.9996983408927917
","x: 239.2127227783203
y: 301.5966796875
z: -0.049939997494220734
visibility: 0.9994274377822876
","x: 244.3331298828125
y: 322.0880432128906
z: 0.023793596774339676
visibility: 0.9986400604248047
","x: 235.42843627929688
y: 321.9564514160156
z: -0.0021939738653600216
visibility: 0.9979498386383057
","x: 251.25242614746094
y: 294.15625
z: -0.11042717844247818
visibility: 0.9696550965309143
","x: 229.0984344482422
y: 309.0597839355469
z: -0.18306510150432587
visibility: 0.9273332357406616
","x: 247.86927795410156
y: 252.40032958984375
z: -0.2857140898704529
visibility: 0.9543609619140625
","x: 236.392333984375
y: 264.6618347167969
z: -0.3546120226383209
visibility: 0.9473937153816223
","x: 244.25108337402344
y: 243.69924926757812
z: -0.31872838735580444
visibility: 0.9093860387802124
","x: 237.29095458984375
y: 256.5414733886719
z: -0.39373356103897095
visibility: 0.9147458672523499
","x: 243.59727478027344
y: 244.8520050048828
z: -0.3059563636779785
visibility: 0.9016579985618591
","x: 237.62966918945312
y: 256.28094482421875
z: -0.3746858239173889
visibility: 0.9066397547721863
","x: 244.43350219726562
y: 248.4279022216797
z: -0.2858999967575073
visibility: 0.8871260285377502
","x: 237.97314453125
y: 260.203369140625
z: -0.3528346121311188
visibility: 0.8862658143043518
","x: 229.2674560546875
y: 427.7752990722656
z: -0.003648462239652872
visibility: 0.9996168613433838
","x: 242.81155395507812
y: 425.85345458984375
z: 0.003061323892325163
visibility: 0.999466061592102
","x: 231.37696838378906
y: 503.3824462890625
z: 0.03702712059020996
visibility: 0.970789909362793
","x: 254.58062744140625
y: 498.4774169921875
z: 0.029738184064626694
visibility: 0.980993390083313
","x: 232.7838897705078
y: 563.9855346679688
z: -0.004709847737103701
visibility: 0.9572632312774658
","x: 280.84344482421875
y: 556.7103271484375
z: -0.014780906960368156
visibility: 0.9714086651802063
","x: 234.222412109375
y: 572.935302734375
z: -0.02036052942276001
visibility: 0.8198519349098206
","x: 284.41448974609375
y: 561.1681518554688
z: -0.018526725471019745
visibility: 0.7786405682563782
","x: 232.23184204101562
y: 581.9227905273438
z: -0.04826664552092552
visibility: 0.9086636304855347
","x: 283.68084716796875
y: 590.971435546875
z: -0.09732337296009064
visibility: 0.9237025380134583
",,,,,,,,,,,,,,,,,,,,,,,,,,,,,,,,,,,,,,,,,,
9,"x: 238.146240234375
y: 295.6220703125
z: -0.0713438168168068
visibility: 0.9997836351394653
","x: 237.96607971191406
y: 291.8560485839844
z: -0.05478118732571602
visibility: 0.9997948408126831
","x: 238.3594970703125
y: 291.68023681640625
z: -0.05480030179023743
visibility: 0.9997488260269165
","x: 238.81515502929688
y: 291.1796875
z: -0.054798372089862823
visibility: 0.9997798800468445
","x: 236.72695922851562
y: 291.4657897949219
z: -0.0528448112308979
visibility: 0.9996776580810547
","x: 236.3701934814453
y: 291.3402099609375
z: -0.052871208637952805
visibility: 0.9995660185813904
","x: 235.95849609375
y: 291.050537109375
z: -0.05289379507303238
visibility: 0.9995812773704529
","x: 239.2035675048828
y: 293.3236083984375
z: 0.00639477139338851
visibility: 0.9997614026069641
","x: 234.66900634765625
y: 293.2425231933594
z: 0.013323618099093437
visibility: 0.9994792938232422
","x: 238.98699951171875
y: 299.152587890625
z: -0.04030085727572441
visibility: 0.9997153282165527
","x: 237.947265625
y: 300.1101379394531
z: -0.03848562017083168
visibility: 0.9994720220565796
","x: 245.77345275878906
y: 318.2485046386719
z: 0.004474095534533262
visibility: 0.9985982775688171
","x: 234.42681884765625
y: 320.9947204589844
z: 0.0053402637131512165
visibility: 0.9981142282485962
","x: 252.2948760986328
y: 291.35906982421875
z: -0.1565120816230774
visibility: 0.9668698310852051
","x: 226.92141723632812
y: 316.6947326660156
z: -0.1798938512802124
visibility: 0.920450747013092
","x: 247.57521057128906
y: 248.5039520263672
z: -0.27901312708854675
visibility: 0.9544095993041992
","x: 235.33982849121094
y: 267.4010009765625
z: -0.3443439304828644
visibility: 0.9483430981636047
","x: 242.83509826660156
y: 241.42677307128906
z: -0.3068607747554779
visibility: 0.9118708968162537
","x: 236.45252990722656
y: 257.8522033691406
z: -0.38307109475135803
visibility: 0.917115330696106
","x: 242.36166381835938
y: 241.64315795898438
z: -0.2913427948951721
visibility: 0.9041091799736023
","x: 236.80796813964844
y: 256.7220458984375
z: -0.37171730399131775
visibility: 0.9090651273727417
","x: 243.4224395751953
y: 244.6846160888672
z: -0.27649426460266113
visibility: 0.8898108601570129
","x: 237.01747131347656
y: 260.7953186035156
z: -0.34515395760536194
visibility: 0.8887534141540527
","x: 231.33673095703125
y: 426.26507568359375
z: -0.003346423152834177
visibility: 0.9996426105499268
","x: 243.4334259033203
y: 425.4854736328125
z: 0.0028283661231398582
visibility: 0.9995132684707642
","x: 231.6693572998047
y: 503.27777099609375
z: 0.04498378559947014
visibility: 0.9725311398506165
","x: 255.50778198242188
y: 498.2235107421875
z: 0.010120294988155365
visibility: 0.9815646409988403
","x: 232.78802490234375
y: 563.8419799804688
z: 0.04915488511323929
visibility: 0.9600393176078796
","x: 281.10906982421875
y: 557.4542236328125
z: -0.01871739700436592
visibility: 0.9728701710700989
","x: 234.1878204345703
y: 572.9484252929688
z: 0.045097652822732925
visibility: 0.8358385562896729
","x: 284.93585205078125
y: 561.95947265625
z: -0.021714428439736366
visibility: 0.7975395917892456
","x: 232.2727508544922
y: 581.8120727539062
z: -0.0009011133806779981
visibility: 0.907082736492157
","x: 282.635986328125
y: 592.7916870117188
z: -0.0918036699295044
visibility: 0.9225253462791443
",,,,,,,,,,,,,,,,,,,,,,,,,,,,,,,,,,,,,,,,,,
10,"x: 239.54449462890625
y: 296.16900634765625
z: -0.16502225399017334
visibility: 0.9997968673706055
","x: 240.20550537109375
y: 292.2413024902344
z: -0.1530722826719284
visibility: 0.9998064041137695
","x: 240.96917724609375
y: 291.9154968261719
z: -0.15310847759246826
visibility: 0.9997642040252686
","x: 241.76519775390625
y: 291.3043518066406
z: -0.1531280130147934
visibility: 0.9997918009757996
","x: 237.83465576171875
y: 292.3192443847656
z: -0.1477346122264862
visibility: 0.999698281288147
","x: 236.97056579589844
y: 292.2341613769531
z: -0.14775808155536652
visibility: 0.9995962977409363
","x: 236.2295379638672
y: 291.9595031738281
z: -0.1477820724248886
visibility: 0.9996119141578674
","x: 244.31900024414062
y: 293.2910461425781
z: -0.07666225731372833
visibility: 0.9997782111167908
","x: 234.69772338867188
y: 293.6095275878906
z: -0.04999276250600815
visibility: 0.9995220303535461
","x: 241.2843475341797
y: 299.392578125
z: -0.13381557166576385
visibility: 0.9997285604476929
","x: 238.91720581054688
y: 301.0201416015625
z: -0.12665680050849915
visibility: 0.9995066523551941
","x: 250.36798095703125
y: 316.8478698730469
z: -0.07782219350337982
visibility: 0.9985288977622986
","x: 231.15335083007812
y: 321.1826171875
z: -0.03720579668879509
visibility: 0.998225212097168
","x: 255.5709686279297
y: 290.99072265625
z: -0.27344316244125366
visibility: 0.9670867919921875
","x: 224.63294982910156
y: 325.7529296875
z: -0.2344190776348114
visibility: 0.9225068688392639
","x: 247.6558074951172
y: 248.8008270263672
z: -0.40639153122901917
visibility: 0.9533193707466125
","x: 235.02444458007812
y: 268.96258544921875
z: -0.41450363397598267
visibility: 0.95017409324646
","x: 242.2771453857422
y: 241.33740234375
z: -0.44837865233421326
visibility: 0.9112460613250732
","x: 236.22650146484375
y: 258.9407653808594
z: -0.4602867662906647
visibility: 0.9196622967720032
","x: 241.63438415527344
y: 242.13026428222656
z: -0.43235141038894653
visibility: 0.9030081033706665
","x: 236.59622192382812
y: 257.6937255859375
z: -0.4455212652683258
visibility: 0.9115750193595886
","x: 243.00473022460938
y: 245.6092529296875
z: -0.40557169914245605
visibility: 0.8885862231254578
","x: 237.08670043945312
y: 261.56890869140625
z: -0.41567668318748474
visibility: 0.891837477684021
","x: 235.3213348388672
y: 425.6199645996094
z: -0.012003612704575062
visibility: 0.9996421933174133
","x: 238.3087158203125
y: 424.9197692871094
z: 0.011775407008826733
visibility: 0.999527633190155
","x: 234.2652130126953
y: 503.1838684082031
z: -0.017911802977323532
visibility: 0.9738110303878784
","x: 255.0729522705078
y: 498.529541015625
z: 0.020069634541869164
visibility: 0.9821770191192627
","x: 233.0130615234375
y: 563.7811279296875
z: 0.07146055996417999
visibility: 0.9620009660720825
","x: 280.2724609375
y: 557.4737548828125
z: 0.1034790426492691
visibility: 0.9732264280319214
","x: 234.59591674804688
y: 572.9368286132812
z: 0.07658553123474121
visibility: 0.8477736711502075
","x: 283.09112548828125
y: 562.0242919921875
z: 0.10959205776453018
visibility: 0.8117177486419678
","x: 232.01034545898438
y: 581.9065551757812
z: -0.00484976964071393
visibility: 0.9060632586479187
","x: 280.3746032714844
y: 592.2138061523438
z: 0.028119776397943497
visibility: 0.9196717739105225
","x: 248.94277954101562
y: 240.17010498046875
z: 0.0
","x: 244.5092010498047
y: 242.07725524902344
z: 0.002892709570005536
","x: 241.24681091308594
y: 242.45184326171875
z: 0.0031034231651574373
","x: 238.76956176757812
y: 243.16769409179688
z: 0.0017508281162008643
","x: 236.89332580566406
y: 243.4658660888672
z: 0.0009866083273664117
","x: 238.92698669433594
y: 236.11370849609375
z: 0.005246389657258987
","x: 235.21142578125
y: 237.81198120117188
z: 0.0034441931638866663
","x: 236.5618438720703
y: 241.27554321289062
z: 0.0027870021294802427
","x: 238.63192749023438
y: 243.14651489257812
z: 0.0028492112178355455
","x: 239.22787475585938
y: 235.35360717773438
z: 0.0022745386231690645
","x: 235.17080688476562
y: 238.1311798095703
z: 0.00038571187178604305
","x: 237.07154846191406
y: 241.47607421875
z: -1.2158288882346824e-05
","x: 239.41294860839844
y: 242.6476287841797
z: 0.0003875697439070791
","x: 239.64341735839844
y: 234.51541137695312
z: -0.0010870122350752354
","x: 235.9332275390625
y: 237.47332763671875
z: -0.0024717585183680058
","x: 237.7855224609375
y: 240.55126953125
z: -0.0015511559322476387
","x: 239.9051055908203
y: 241.2674102783203
z: -0.0004614651552401483
","x: 240.17234802246094
y: 233.5790252685547
z: -0.004484771750867367
","x: 236.8758544921875
y: 235.24781799316406
z: -0.004416663199663162
","x: 237.4429473876953
y: 237.76663208007812
z: -0.0031667889561504126
","x: 238.71417236328125
y: 238.91366577148438
z: -0.002058179583400488
",,,,,,,,,,,,,,,,,,,,,
11,"x: 239.54449462890625
y: 296.16900634765625
z: -0.16502225399017334
visibility: 0.9997968673706055
","x: 240.20550537109375
y: 292.2413024902344
z: -0.1530722826719284
visibility: 0.9998064041137695
","x: 240.96917724609375
y: 291.9154968261719
z: -0.15310847759246826
visibility: 0.9997642040252686
","x: 241.76519775390625
y: 291.3043518066406
z: -0.1531280130147934
visibility: 0.9997918009757996
","x: 237.83465576171875
y: 292.3192443847656
z: -0.1477346122264862
visibility: 0.999698281288147
","x: 236.97056579589844
y: 292.2341613769531
z: -0.14775808155536652
visibility: 0.9995962977409363
","x: 236.2295379638672
y: 291.9595031738281
z: -0.1477820724248886
visibility: 0.9996119141578674
","x: 244.31900024414062
y: 293.2910461425781
z: -0.07666225731372833
visibility: 0.9997782111167908
","x: 234.69772338867188
y: 293.6095275878906
z: -0.04999276250600815
visibility: 0.9995220303535461
","x: 241.2843475341797
y: 299.392578125
z: -0.13381557166576385
visibility: 0.9997285604476929
","x: 238.91720581054688
y: 301.0201416015625
z: -0.12665680050849915
visibility: 0.9995066523551941
","x: 250.36798095703125
y: 316.8478698730469
z: -0.07782219350337982
visibility: 0.9985288977622986
","x: 231.15335083007812
y: 321.1826171875
z: -0.03720579668879509
visibility: 0.998225212097168
","x: 255.5709686279297
y: 290.99072265625
z: -0.27344316244125366
visibility: 0.9670867919921875
","x: 224.63294982910156
y: 325.7529296875
z: -0.2344190776348114
visibility: 0.9225068688392639
","x: 247.6558074951172
y: 248.8008270263672
z: -0.40639153122901917
visibility: 0.9533193707466125
","x: 235.02444458007812
y: 268.96258544921875
z: -0.41450363397598267
visibility: 0.95017409324646
","x: 242.2771453857422
y: 241.33740234375
z: -0.44837865233421326
visibility: 0.9112460613250732
","x: 236.22650146484375
y: 258.9407653808594
z: -0.4602867662906647
visibility: 0.9196622967720032
","x: 241.63438415527344
y: 242.13026428222656
z: -0.43235141038894653
visibility: 0.9030081033706665
","x: 236.59622192382812
y: 257.6937255859375
z: -0.4455212652683258
visibility: 0.9115750193595886
","x: 243.00473022460938
y: 245.6092529296875
z: -0.40557169914245605
visibility: 0.8885862231254578
","x: 237.08670043945312
y: 261.56890869140625
z: -0.41567668318748474
visibility: 0.891837477684021
","x: 235.3213348388672
y: 425.6199645996094
z: -0.012003612704575062
visibility: 0.9996421933174133
","x: 238.3087158203125
y: 424.9197692871094
z: 0.011775407008826733
visibility: 0.999527633190155
","x: 234.2652130126953
y: 503.1838684082031
z: -0.017911802977323532
visibility: 0.9738110303878784
","x: 255.0729522705078
y: 498.529541015625
z: 0.020069634541869164
visibility: 0.9821770191192627
","x: 233.0130615234375
y: 563.7811279296875
z: 0.07146055996417999
visibility: 0.9620009660720825
","x: 280.2724609375
y: 557.4737548828125
z: 0.1034790426492691
visibility: 0.9732264280319214
","x: 234.59591674804688
y: 572.9368286132812
z: 0.07658553123474121
visibility: 0.8477736711502075
","x: 283.09112548828125
y: 562.0242919921875
z: 0.10959205776453018
visibility: 0.8117177486419678
","x: 232.01034545898438
y: 581.9065551757812
z: -0.00484976964071393
visibility: 0.9060632586479187
","x: 280.3746032714844
y: 592.2138061523438
z: 0.028119776397943497
visibility: 0.9196717739105225
","x: 248.94277954101562
y: 240.17010498046875
z: 0.0
","x: 244.5092010498047
y: 242.07725524902344
z: 0.002892709570005536
","x: 241.24681091308594
y: 242.45184326171875
z: 0.0031034231651574373
","x: 238.76956176757812
y: 243.16769409179688
z: 0.0017508281162008643
","x: 236.89332580566406
y: 243.4658660888672
z: 0.0009866083273664117
","x: 238.92698669433594
y: 236.11370849609375
z: 0.005246389657258987
","x: 235.21142578125
y: 237.81198120117188
z: 0.0034441931638866663
","x: 236.5618438720703
y: 241.27554321289062
z: 0.0027870021294802427
","x: 238.63192749023438
y: 243.14651489257812
z: 0.0028492112178355455
","x: 239.22787475585938
y: 235.35360717773438
z: 0.0022745386231690645
","x: 235.17080688476562
y: 238.1311798095703
z: 0.00038571187178604305
","x: 237.07154846191406
y: 241.47607421875
z: -1.2158288882346824e-05
","x: 239.41294860839844
y: 242.6476287841797
z: 0.0003875697439070791
","x: 239.64341735839844
y: 234.51541137695312
z: -0.0010870122350752354
","x: 235.9332275390625
y: 237.47332763671875
z: -0.0024717585183680058
","x: 237.7855224609375
y: 240.55126953125
z: -0.0015511559322476387
","x: 239.9051055908203
y: 241.2674102783203
z: -0.0004614651552401483
","x: 240.17234802246094
y: 233.5790252685547
z: -0.004484771750867367
","x: 236.8758544921875
y: 235.24781799316406
z: -0.004416663199663162
","x: 237.4429473876953
y: 237.76663208007812
z: -0.0031667889561504126
","x: 238.71417236328125
y: 238.91366577148438
z: -0.002058179583400488
",,,,,,,,,,,,,,,,,,,,,
12,"x: 242.3819122314453
y: 292.8353271484375
z: -0.021232757717370987
visibility: 0.999807596206665
","x: 242.41693115234375
y: 287.7886657714844
z: -0.020622264593839645
visibility: 0.9998152852058411
","x: 243.43728637695312
y: 287.14556884765625
z: -0.020656060427427292
visibility: 0.999775767326355
","x: 244.26821899414062
y: 286.3143005371094
z: -0.02066057175397873
visibility: 0.9998000860214233
","x: 239.77450561523438
y: 288.16082763671875
z: -0.024505499750375748
visibility: 0.9997169971466064
","x: 240.42886352539062
y: 287.8476257324219
z: -0.02451799251139164
visibility: 0.9996253252029419
","x: 240.8095245361328
y: 287.3189697265625
z: -0.024555865675210953
visibility: 0.9996404647827148
","x: 246.11817932128906
y: 292.78802490234375
z: 0.00048360886285081506
visibility: 0.9997904300689697
","x: 235.85504150390625
y: 291.9019775390625
z: -0.0219139214605093
visibility: 0.9995608925819397
","x: 244.1771240234375
y: 295.9848327636719
z: -0.009803609922528267
visibility: 0.999733567237854
","x: 241.733642578125
y: 296.6427001953125
z: -0.015559534542262554
visibility: 0.999530017375946
","x: 247.66539001464844
y: 317.01531982421875
z: -0.00920496229082346
visibility: 0.9983633756637573
","x: 239.75741577148438
y: 320.9642028808594
z: -0.03275281935930252
visibility: 0.9983171224594116
","x: 253.8219451904297
y: 282.9464416503906
z: -0.15735900402069092
visibility: 0.9587515592575073
","x: 232.61618041992188
y: 317.03143310546875
z: -0.22196471691131592
visibility: 0.9058213829994202
","x: 242.80059814453125
y: 249.57232666015625
z: -0.27706342935562134
visibility: 0.9495962858200073
","x: 238.26290893554688
y: 270.3843994140625
z: -0.3802728056907654
visibility: 0.9471889138221741
","x: 237.0658721923828
y: 243.4091033935547
z: -0.3069900870323181
visibility: 0.9083660244941711
","x: 238.71197509765625
y: 262.2164611816406
z: -0.40380793809890747
visibility: 0.918541431427002
","x: 236.32493591308594
y: 244.03271484375
z: -0.2928607165813446
visibility: 0.8998486399650574
","x: 237.43655395507812
y: 260.2489013671875
z: -0.40331920981407166
visibility: 0.9105857014656067
","x: 238.263427734375
y: 247.3678741455078
z: -0.2758576571941376
visibility: 0.8850038647651672
","x: 238.30284118652344
y: 263.4595642089844
z: -0.38256269693374634
visibility: 0.8902197480201721
","x: 237.20843505859375
y: 424.8147888183594
z: 0.013357427902519703
visibility: 0.9996646046638489
","x: 247.59841918945312
y: 424.7822570800781
z: -0.013744224794209003
visibility: 0.9995619654655457
","x: 234.35931396484375
y: 503.3160095214844
z: 0.013808013871312141
visibility: 0.9749393463134766
","x: 266.7018737792969
y: 498.3659362792969
z: 0.01870039291679859
visibility: 0.9829134941101074
","x: 234.59230041503906
y: 564.8517456054688
z: 0.038187962025403976
visibility: 0.9635692238807678
","x: 278.2270202636719
y: 559.652587890625
z: 0.032298456877470016
visibility: 0.9744788408279419
","x: 236.0829620361328
y: 574.4103393554688
z: 0.03627461567521095
visibility: 0.8610106110572815
","x: 279.10418701171875
y: 568.0186767578125
z: 0.03282169997692108
visibility: 0.827785074710846
","x: 231.6078643798828
y: 581.886474609375
z: -0.0245866309851408
visibility: 0.8980045318603516
","x: 279.81298828125
y: 587.6956787109375
z: 0.009781764820218086
visibility: 0.9164740443229675
",,,,,,,,,,,,,,,,,,,,,,,,,,,,,,,,,,,,,,,,,,
13,"x: 245.85577392578125
y: 292.3464050292969
z: -0.14366741478443146
visibility: 0.9998102784156799
","x: 248.14891052246094
y: 287.5519104003906
z: -0.12468793243169785
visibility: 0.9998160600662231
","x: 249.74896240234375
y: 286.9995422363281
z: -0.12473881244659424
visibility: 0.9997748136520386
","x: 251.19366455078125
y: 286.3056335449219
z: -0.1247536763548851
visibility: 0.9997981786727905
","x: 242.24830627441406
y: 287.8701477050781
z: -0.1225261241197586
visibility: 0.9997212886810303
","x: 240.79202270507812
y: 287.6798095703125
z: -0.12255235016345978
visibility: 0.9996325969696045
","x: 242.00071716308594
y: 287.31060791015625
z: -0.12257041782140732
visibility: 0.9996481537818909
","x: 252.35569763183594
y: 291.18231201171875
z: -0.04007783159613609
visibility: 0.9997970461845398
","x: 238.17176818847656
y: 291.72418212890625
z: -0.03049025870859623
visibility: 0.9995707273483276
","x: 249.15707397460938
y: 296.08428955078125
z: -0.11339513957500458
visibility: 0.9997377991676331
","x: 242.94903564453125
y: 296.70367431640625
z: -0.10978838056325912
visibility: 0.9995339512825012
","x: 261.2223205566406
y: 317.81494140625
z: -0.0696055144071579
visibility: 0.9983389377593994
","x: 237.55844116210938
y: 323.31793212890625
z: -0.03646225109696388
visibility: 0.9982320070266724
","x: 259.70782470703125
y: 286.486083984375
z: -0.2688662111759186
visibility: 0.961470365524292
","x: 235.33706665039062
y: 325.9342956542969
z: -0.234879732131958
visibility: 0.912164032459259
","x: 247.77459716796875
y: 256.1395568847656
z: -0.3724007308483124
visibility: 0.9521098136901855
","x: 239.43453979492188
y: 274.1384582519531
z: -0.3989681601524353
visibility: 0.9509332776069641
","x: 242.1241912841797
y: 250.8264923095703
z: -0.41236740350723267
visibility: 0.9109588265419006
","x: 240.00732421875
y: 264.6063232421875
z: -0.44062480330467224
visibility: 0.9235973954200745
","x: 241.24208068847656
y: 251.5463104248047
z: -0.39177900552749634
visibility: 0.9022687077522278
","x: 239.22027587890625
y: 263.9746398925781
z: -0.42906394600868225
visibility: 0.9159653782844543
","x: 242.9326629638672
y: 254.8582763671875
z: -0.36978596448898315
visibility: 0.88799649477005
","x: 239.75115966796875
y: 267.7554016113281
z: -0.40151911973953247
visibility: 0.8968385457992554
","x: 257.178955078125
y: 426.6905212402344
z: -0.006783933844417334
visibility: 0.9996725916862488
","x: 246.17654418945312
y: 427.7974853515625
z: 0.006679305341094732
visibility: 0.9995772242546082
","x: 276.2023620605469
y: 497.376220703125
z: -0.08284764736890793
visibility: 0.9746896624565125
","x: 235.5595703125
y: 498.3008117675781
z: -0.035486336797475815
visibility: 0.9824586510658264
","x: 276.5482482910156
y: 559.4384155273438
z: 0.0664672702550888
visibility: 0.9611995816230774
","x: 241.22056579589844
y: 562.1217041015625
z: 0.09374767541885376
visibility: 0.9733709096908569
","x: 270.407958984375
y: 568.1803588867188
z: 0.07765105366706848
visibility: 0.8577792644500732
","x: 248.89349365234375
y: 571.623291015625
z: 0.10356584936380386
visibility: 0.830623984336853
","x: 277.3143615722656
y: 582.035400390625
z: -0.010214149951934814
visibility: 0.8995065689086914
","x: 237.37948608398438
y: 586.8118896484375
z: 0.018068991601467133
visibility: 0.9182571172714233
",,,,,,,,,,,,,,,,,,,,,,,,,,,,,,,,,,,,,,,,,,
14,"x: 252.83274841308594
y: 292.255126953125
z: -0.1594395786523819
visibility: 0.9998087286949158
","x: 254.34140014648438
y: 287.42041015625
z: -0.14165082573890686
visibility: 0.9998137354850769
","x: 255.57760620117188
y: 286.8734130859375
z: -0.1416778415441513
visibility: 0.9997678995132446
","x: 256.7427673339844
y: 286.1957092285156
z: -0.1416923701763153
visibility: 0.9997926950454712
","x: 250.0028839111328
y: 287.8836364746094
z: -0.14100663363933563
visibility: 0.9997227787971497
","x: 248.3963623046875
y: 287.80731201171875
z: -0.14102089405059814
visibility: 0.9996340274810791
","x: 247.64756774902344
y: 287.49456787109375
z: -0.1410323828458786
visibility: 0.9996500611305237
","x: 257.78399658203125
y: 289.1827697753906
z: -0.054177425801754
visibility: 0.9997972846031189
","x: 244.544189453125
y: 291.8187561035156
z: -0.04802415147423744
visibility: 0.9995759129524231
","x: 254.96835327148438
y: 295.97784423828125
z: -0.12789538502693176
visibility: 0.9997401833534241
","x: 250.93603515625
y: 296.8509521484375
z: -0.12615804374217987
visibility: 0.9995364546775818
","x: 269.165771484375
y: 317.1814270019531
z: -0.07289783656597137
visibility: 0.9983517527580261
","x: 239.2444305419922
y: 323.274658203125
z: -0.06092981621623039
visibility: 0.9981680512428284
","x: 270.8544616699219
y: 286.37493896484375
z: -0.27605751156806946
visibility: 0.9640653133392334
","x: 235.85348510742188
y: 325.48431396484375
z: -0.2718357741832733
visibility: 0.9190962910652161
","x: 251.06114196777344
y: 263.85784912109375
z: -0.3960690498352051
visibility: 0.9547523856163025
","x: 245.91673278808594
y: 276.0638122558594
z: -0.435711532831192
visibility: 0.9537478685379028
","x: 245.12704467773438
y: 259.45654296875
z: -0.4371621608734131
visibility: 0.9137755036354065
","x: 244.90847778320312
y: 266.75946044921875
z: -0.4805118143558502
visibility: 0.9268300533294678
","x: 244.75057983398438
y: 260.851806640625
z: -0.4199099540710449
visibility: 0.9050835967063904
","x: 244.3797607421875
y: 266.98388671875
z: -0.4667094647884369
visibility: 0.9192855358123779
","x: 246.59552001953125
y: 263.8501281738281
z: -0.3952009379863739
visibility: 0.8915290236473083
","x: 245.21856689453125
y: 271.09381103515625
z: -0.43776044249534607
visibility: 0.9009948372840881
","x: 266.59564208984375
y: 426.684814453125
z: -0.0021504717878997326
visibility: 0.9996813535690308
","x: 247.26182556152344
y: 427.80230712890625
z: 0.0021137665025889874
visibility: 0.9995946884155273
","x: 280.74664306640625
y: 497.6573486328125
z: -0.0608133003115654
visibility: 0.9762426614761353
","x: 233.44520568847656
y: 498.27838134765625
z: -0.041174501180648804
visibility: 0.9837403893470764
","x: 277.7366638183594
y: 559.2724609375
z: 0.1144644170999527
visibility: 0.961295485496521
","x: 234.37550354003906
y: 562.19287109375
z: 0.10057004541158676
visibility: 0.9745384454727173
","x: 273.87567138671875
y: 568.5320434570312
z: 0.12740767002105713
visibility: 0.8556831479072571
","x: 238.73016357421875
y: 571.340087890625
z: 0.1098208874464035
visibility: 0.8295686841011047
","x: 282.3902587890625
y: 582.036376953125
z: 0.03692552074790001
visibility: 0.9030440449714661
","x: 231.7107696533203
y: 586.3326416015625
z: 0.011823170818388462
visibility: 0.9225901961326599
",,,,,,,,,,,,,,,,,,,,,,,,,,,,,,,,,,,,,,,,,,
15,"x: 259.7768859863281
y: 291.94775390625
z: -0.14795802533626556
visibility: 0.9997504353523254
","x: 260.8928527832031
y: 287.16583251953125
z: -0.13065581023693085
visibility: 0.999747097492218
","x: 261.77294921875
y: 286.6595764160156
z: -0.13067598640918732
visibility: 0.9996584057807922
","x: 262.50701904296875
y: 286.0037536621094
z: -0.13067562878131866
visibility: 0.9997007250785828
","x: 257.9907531738281
y: 287.71624755859375
z: -0.13472189009189606
visibility: 0.9996474385261536
","x: 256.91717529296875
y: 287.71990966796875
z: -0.13474586606025696
visibility: 0.9995497465133667
","x: 255.8975067138672
y: 287.5146789550781
z: -0.13477696478366852
visibility: 0.999584972858429
","x: 262.75042724609375
y: 288.4172668457031
z: -0.04396633058786392
visibility: 0.9996781945228577
","x: 253.38278198242188
y: 291.506591796875
z: -0.05682986229658127
visibility: 0.9994880557060242
","x: 260.8475646972656
y: 295.60321044921875
z: -0.1145290732383728
visibility: 0.9996806383132935
","x: 258.47955322265625
y: 296.75390625
z: -0.11929355561733246
visibility: 0.9994436502456665
","x: 272.5291748046875
y: 317.216064453125
z: -0.043117705732584
visibility: 0.9982244968414307
","x: 245.79705810546875
y: 323.206298828125
z: -0.08102309703826904
visibility: 0.9980087280273438
","x: 278.2165222167969
y: 288.201171875
z: -0.23004548251628876
visibility: 0.9650724530220032
","x: 247.0037841796875
y: 324.2659912109375
z: -0.2838364839553833
visibility: 0.9248904585838318
","x: 258.6848449707031
y: 265.6412353515625
z: -0.3614446818828583
visibility: 0.9553946852684021
","x: 253.4420928955078
y: 276.04364013671875
z: -0.42710113525390625
visibility: 0.9557845592498779
","x: 254.51470947265625
y: 259.4439697265625
z: -0.4110780358314514
visibility: 0.9123470187187195
","x: 251.85362243652344
y: 266.6100769042969
z: -0.47158893942832947
visibility: 0.9289268255233765
","x: 254.21826171875
y: 260.5587158203125
z: -0.38853317499160767
visibility: 0.9036266803741455
","x: 251.24581909179688
y: 266.75372314453125
z: -0.45979028940200806
visibility: 0.9215564727783203
","x: 255.49160766601562
y: 264.1739501953125
z: -0.36199331283569336
visibility: 0.8902401924133301
","x: 252.16844177246094
y: 270.8720703125
z: -0.4288841784000397
visibility: 0.9034528732299805
","x: 269.617431640625
y: 424.72412109375
z: 0.018221717327833176
visibility: 0.9996756911277771
","x: 254.61236572265625
y: 426.3253173828125
z: -0.018365615978837013
visibility: 0.9995831847190857
","x: 275.43292236328125
y: 497.5281066894531
z: -0.04009700566530228
visibility: 0.971622884273529
","x: 237.6031951904297
y: 495.9488525390625
z: -0.04623166471719742
visibility: 0.9815809726715088
","x: 275.416015625
y: 561.89892578125
z: 0.132329523563385
visibility: 0.9532448649406433
","x: 231.12940979003906
y: 561.93896484375
z: 0.08657307177782059
visibility: 0.971722424030304
","x: 271.45989990234375
y: 571.3541259765625
z: 0.14354415237903595
visibility: 0.8445313572883606
","x: 237.99234008789062
y: 570.6677856445312
z: 0.09493592381477356
visibility: 0.8139733672142029
","x: 280.3662414550781
y: 581.8966064453125
z: 0.05415433645248413
visibility: 0.8995288610458374
","x: 238.61444091796875
y: 587.9758911132812
z: -0.004661789163947105
visibility: 0.921686053276062
",,,,,,,,,,,,,,,,,,,,,,,,,,,,,,,,,,,,,,,,,,
16,"x: 270.1091003417969
y: 301.6969909667969
z: -0.08488814532756805
visibility: 0.9996947646141052
","x: 271.4999084472656
y: 296.4188232421875
z: -0.06737719476222992
visibility: 0.999707043170929
","x: 272.38037109375
y: 295.884765625
z: -0.0673898309469223
visibility: 0.9995859861373901
","x: 273.16796875
y: 295.21881103515625
z: -0.06736866384744644
visibility: 0.9996333122253418
","x: 267.4918212890625
y: 296.71136474609375
z: -0.07774810492992401
visibility: 0.9996144771575928
","x: 265.5936279296875
y: 296.50897216796875
z: -0.0777755007147789
visibility: 0.9995208382606506
","x: 263.8416442871094
y: 296.29425048828125
z: -0.07786576449871063
visibility: 0.9995730519294739
","x: 272.5483093261719
y: 293.7342224121094
z: 0.02949623204767704
visibility: 0.999476432800293
","x: 259.7509765625
y: 296.45025634765625
z: -0.011711426079273224
visibility: 0.9995007514953613
","x: 271.06182861328125
y: 305.7593994140625
z: -0.045644648373126984
visibility: 0.9995905160903931
","x: 267.0513610839844
y: 306.5991516113281
z: -0.05846632272005081
visibility: 0.99940425157547
","x: 278.5708923339844
y: 317.2851867675781
z: 0.06497509777545929
visibility: 0.9981275796890259
","x: 250.123779296875
y: 322.6019592285156
z: -0.0591970756649971
visibility: 0.9981617331504822
","x: 284.3990173339844
y: 304.5394592285156
z: -0.1107374057173729
visibility: 0.9549474716186523
","x: 252.32522583007812
y: 326.4043884277344
z: -0.21164464950561523
visibility: 0.9315248727798462
","x: 275.5373840332031
y: 274.38836669921875
z: -0.2837957441806793
visibility: 0.947096049785614
","x: 259.5511474609375
y: 275.9555969238281
z: -0.2878466844558716
visibility: 0.9593154788017273
","x: 271.2743225097656
y: 264.84796142578125
z: -0.32078155875205994
visibility: 0.8988559246063232
","x: 260.390380859375
y: 265.5236511230469
z: -0.3206782937049866
visibility: 0.9335409998893738
","x: 270.2469177246094
y: 265.0286865234375
z: -0.3020566701889038
visibility: 0.8892428278923035
","x: 260.2280578613281
y: 264.83831787109375
z: -0.3080729842185974
visibility: 0.926546037197113
","x: 270.9718933105469
y: 269.01739501953125
z: -0.28376609086990356
visibility: 0.8767295479774475
","x: 260.3386535644531
y: 269.87384033203125
z: -0.2855203151702881
visibility: 0.9089362025260925
","x: 275.2596435546875
y: 423.2711486816406
z: 0.03513828665018082
visibility: 0.9996856451034546
","x: 256.0246276855469
y: 422.9420166015625
z: -0.03527010232210159
visibility: 0.999598503112793
","x: 274.8534240722656
y: 497.77532958984375
z: 0.011282742023468018
visibility: 0.9681478142738342
","x: 240.305908203125
y: 494.08892822265625
z: -0.06647074967622757
visibility: 0.982033908367157
","x: 274.71990966796875
y: 562.5520629882812
z: 0.12092705816030502
visibility: 0.9533523321151733
","x: 229.12857055664062
y: 559.7722778320312
z: 0.03195556625723839
visibility: 0.9720456600189209
","x: 271.3061828613281
y: 572.1339721679688
z: 0.12757757306098938
visibility: 0.8478612303733826
","x: 227.1195831298828
y: 568.766845703125
z: 0.037964172661304474
visibility: 0.8073054552078247
","x: 284.1054992675781
y: 581.9089965820312
z: 0.04598204419016838
visibility: 0.9033845067024231
","x: 235.39590454101562
y: 585.9932861328125
z: -0.0666184201836586
visibility: 0.9244463443756104
",,,,,,,,,,,,,,,,,,,,,,,,,,,,,,,,,,,,,,,,,,
17,"x: 275.3126525878906
y: 303.03106689453125
z: -0.07362121343612671
visibility: 0.9997091889381409
","x: 276.32696533203125
y: 298.6833801269531
z: -0.05695876479148865
visibility: 0.9997238516807556
","x: 277.1882019042969
y: 298.3731994628906
z: -0.05697646737098694
visibility: 0.9996076226234436
","x: 277.978759765625
y: 297.9974060058594
z: -0.05696769803762436
visibility: 0.9996522665023804
","x: 272.5747375488281
y: 298.20166015625
z: -0.06650582700967789
visibility: 0.9996381402015686
","x: 270.89654541015625
y: 298.240234375
z: -0.0665074959397316
visibility: 0.9995510578155518
","x: 269.1943054199219
y: 298.17779541015625
z: -0.06656290590763092
visibility: 0.9996016025543213
","x: 277.4483947753906
y: 296.3228759765625
z: 0.03857855126261711
visibility: 0.9994832277297974
","x: 265.08551025390625
y: 297.8660888671875
z: -0.00269759027287364
visibility: 0.9995396733283997
","x: 276.136474609375
y: 306.8863525390625
z: -0.03597727790474892
visibility: 0.9995982050895691
","x: 272.2275085449219
y: 307.6568298339844
z: -0.04828595742583275
visibility: 0.9994350075721741
","x: 282.94720458984375
y: 318.5619812011719
z: 0.07273625582456589
visibility: 0.9981268048286438
","x: 255.10865783691406
y: 321.9466552734375
z: -0.05231942981481552
visibility: 0.9983051419258118
","x: 287.75341796875
y: 325.26971435546875
z: -0.1108749732375145
visibility: 0.9406577348709106
","x: 258.8300476074219
y: 326.2026672363281
z: -0.21149691939353943
visibility: 0.9367989897727966
","x: 281.7547302246094
y: 281.84375
z: -0.29838502407073975
visibility: 0.9402295351028442
","x: 264.6982421875
y: 275.88250732421875
z: -0.2996135652065277
visibility: 0.9615004062652588
","x: 280.3498229980469
y: 272.01043701171875
z: -0.33499422669410706
visibility: 0.8904135227203369
","x: 265.99462890625
y: 265.1940002441406
z: -0.33077311515808105
visibility: 0.9357989430427551
","x: 278.9158020019531
y: 270.841796875
z: -0.3182764947414398
visibility: 0.8806992173194885
","x: 265.5782470703125
y: 264.36700439453125
z: -0.3198026418685913
visibility: 0.9289703369140625
","x: 278.748779296875
y: 275.79510498046875
z: -0.2990240156650543
visibility: 0.8682863712310791
","x: 265.2771911621094
y: 269.8369140625
z: -0.29848191142082214
visibility: 0.9113580584526062
","x: 275.72222900390625
y: 423.8165588378906
z: 0.03937017172574997
visibility: 0.9996976852416992
","x: 259.2785339355469
y: 422.9195861816406
z: -0.0395195297896862
visibility: 0.9996191263198853
","x: 273.5664367675781
y: 498.19415283203125
z: 0.033484529703855515
visibility: 0.961603581905365
","x: 251.24391174316406
y: 495.8018798828125
z: -0.06204185634851456
visibility: 0.9820550680160522
","x: 274.95703125
y: 563.2724609375
z: 0.12916243076324463
visibility: 0.9517214894294739
","x: 231.71859741210938
y: 559.9019775390625
z: 0.028724124655127525
visibility: 0.9719527363777161
","x: 271.98846435546875
y: 572.4706420898438
z: 0.1349322348833084
visibility: 0.8507188558578491
","x: 228.44520568847656
y: 568.6478271484375
z: 0.0340266115963459
visibility: 0.801425039768219
","x: 283.3144226074219
y: 582.1929931640625
z: 0.06122048571705818
visibility: 0.90544193983078
","x: 236.7882843017578
y: 591.432861328125
z: -0.06256715208292007
visibility: 0.9262909293174744
",,,,,,,,,,,,,,,,,,,,,,,,,,,,,,,,,,,,,,,,,,
18,"x: 278.742919921875
y: 294.2911071777344
z: 0.09546223282814026
visibility: 0.9993591904640198
","x: 276.0615234375
y: 288.56890869140625
z: 0.07930300384759903
visibility: 0.9993689060211182
","x: 275.1595764160156
y: 288.2125549316406
z: 0.07928891479969025
visibility: 0.9993248581886292
","x: 274.3668212890625
y: 287.9464416503906
z: 0.07926992326974869
visibility: 0.9993383884429932
","x: 278.4127197265625
y: 289.68365478515625
z: 0.06930392235517502
visibility: 0.9992890954017639
","x: 279.03265380859375
y: 290.15032958984375
z: 0.06932644546031952
visibility: 0.9992548823356628
","x: 279.6251220703125
y: 290.6521911621094
z: 0.06928277015686035
visibility: 0.9992560148239136
","x: 272.2718505859375
y: 290.50421142578125
z: 0.036046747118234634
visibility: 0.9993365406990051
","x: 277.8558349609375
y: 293.0025634765625
z: -0.008130205795168877
visibility: 0.999280571937561
","x: 277.3154602050781
y: 298.6448059082031
z: 0.08433499187231064
visibility: 0.9992805123329163
","x: 279.721923828125
y: 299.7272033691406
z: 0.07051778584718704
visibility: 0.9990575313568115
","x: 266.4202575683594
y: 318.83233642578125
z: 0.04887402802705765
visibility: 0.9976969361305237
","x: 284.03826904296875
y: 323.61126708984375
z: -0.06504136323928833
visibility: 0.9975442290306091
","x: 272.0291748046875
y: 327.0263366699219
z: 0.06068727374076843
visibility: 0.8523948788642883
","x: 279.18707275390625
y: 325.30572509765625
z: -0.1629827320575714
visibility: 0.8781313896179199
","x: 275.6889343261719
y: 285.80487060546875
z: 0.05086177587509155
visibility: 0.8606871366500854
","x: 272.267578125
y: 277.7457275390625
z: -0.23067507147789001
visibility: 0.9121665358543396
","x: 273.34405517578125
y: 280.0531921386719
z: 0.0465191975235939
visibility: 0.8243327736854553
","x: 278.2566223144531
y: 263.93017578125
z: -0.25298184156417847
visibility: 0.8992202877998352
","x: 275.0951232910156
y: 279.4954528808594
z: 0.041631512343883514
visibility: 0.815747082233429
","x: 274.7660217285156
y: 262.7724609375
z: -0.251331627368927
visibility: 0.893718421459198
","x: 275.59368896484375
y: 283.4703369140625
z: 0.048376671969890594
visibility: 0.8040091395378113
","x: 273.68609619140625
y: 267.9418640136719
z: -0.23198232054710388
visibility: 0.8721218705177307
","x: 270.548828125
y: 423.7900390625
z: 0.05012805014848709
visibility: 0.9997106790542603
","x: 274.16278076171875
y: 425.8451843261719
z: -0.050258614122867584
visibility: 0.999623715877533
","x: 256.4551696777344
y: 496.7305908203125
z: 0.04095391929149628
visibility: 0.9631596803665161
","x: 272.34405517578125
y: 498.36383056640625
z: -0.020351286977529526
visibility: 0.981232225894928
","x: 235.0087432861328
y: 559.6986083984375
z: 0.06763315945863724
visibility: 0.9543678760528564
","x: 271.8565673828125
y: 563.4849853515625
z: 0.03463095426559448
visibility: 0.9729969501495361
","x: 230.776611328125
y: 567.7674560546875
z: 0.06728927046060562
visibility: 0.8639376759529114
","x: 268.30633544921875
y: 572.6707763671875
z: 0.039438068866729736
visibility: 0.8190170526504517
","x: 236.23309326171875
y: 582.4114990234375
z: 0.01903194561600685
visibility: 0.8929877877235413
","x: 278.9377136230469
y: 582.9789428710938
z: -0.018706509843468666
visibility: 0.9200200438499451
",,,,,,,,,,,,,,,,,,,,,,,,,,,,,,,,,,,,,,,,,,
19,"x: 276.91229248046875
y: 294.30279541015625
z: -0.0921640545129776
visibility: 0.9992499351501465
","x: 277.65673828125
y: 288.7939147949219
z: -0.07747294008731842
visibility: 0.9991729259490967
","x: 278.4464416503906
y: 288.7001953125
z: -0.07751882821321487
visibility: 0.9991122484207153
","x: 279.2607421875
y: 288.7164001464844
z: -0.07750573009252548
visibility: 0.9991244673728943
","x: 274.8508605957031
y: 289.732421875
z: -0.07906142622232437
visibility: 0.9989789724349976
","x: 273.7726135253906
y: 290.0877685546875
z: -0.0790722668170929
visibility: 0.9989327788352966
","x: 272.7855529785156
y: 290.393310546875
z: -0.0791638195514679
visibility: 0.9989144802093506
","x: 280.2509460449219
y: 291.9219665527344
z: 0.013097396120429039
visibility: 0.9986491203308105
","x: 270.7528381347656
y: 292.7129821777344
z: -0.011333524249494076
visibility: 0.9987245202064514
","x: 278.3711853027344
y: 299.31182861328125
z: -0.05817536264657974
visibility: 0.9988669753074646
","x: 274.9498596191406
y: 300.11273193359375
z: -0.06047023460268974
visibility: 0.9985189437866211
","x: 289.0459899902344
y: 322.1435241699219
z: 0.025274917483329773
visibility: 0.9974794983863831
","x: 267.2836608886719
y: 321.3330383300781
z: -0.03896140679717064
visibility: 0.9976303577423096
","x: 282.828125
y: 356.9918518066406
z: 0.004708140157163143
visibility: 0.8522040843963623
","x: 264.8563537597656
y: 328.51385498046875
z: -0.1882559359073639
visibility: 0.8857958316802979
","x: 276.17364501953125
y: 311.88848876953125
z: -0.2344876229763031
visibility: 0.86539226770401
","x: 267.8363342285156
y: 278.14404296875
z: -0.29074203968048096
visibility: 0.9166285991668701
","x: 274.0521545410156
y: 303.3670959472656
z: -0.26842325925827026
visibility: 0.826551079750061
","x: 269.9175720214844
y: 266.6441955566406
z: -0.3160603940486908
visibility: 0.901195764541626
","x: 275.79425048828125
y: 297.7108154296875
z: -0.25568822026252747
visibility: 0.818402111530304
","x: 268.8349304199219
y: 264.69049072265625
z: -0.32343047857284546
visibility: 0.8953332304954529
","x: 275.9960632324219
y: 301.4140625
z: -0.23354101181030273
visibility: 0.8047515749931335
","x: 268.52557373046875
y: 269.9013977050781
z: -0.2980725169181824
visibility: 0.8734949827194214
","x: 277.2131042480469
y: 425.12744140625
z: 0.04586849361658096
visibility: 0.9997071623802185
","x: 269.39581298828125
y: 424.0572509765625
z: -0.045889727771282196
visibility: 0.999643862247467
","x: 272.9557800292969
y: 497.58245849609375
z: 0.053197987377643585
visibility: 0.9648736119270325
","x: 263.6558837890625
y: 497.1800537109375
z: -0.03272819519042969
visibility: 0.9825264811515808
","x: 270.0826110839844
y: 561.48291015625
z: 0.16071011126041412
visibility: 0.9578697085380554
","x: 235.7479705810547
y: 558.6664428710938
z: 0.05370079353451729
visibility: 0.9745307564735413
","x: 266.9918518066406
y: 569.9909057617188
z: 0.16724364459514618
visibility: 0.8708252906799316
","x: 231.55715942382812
y: 566.365478515625
z: 0.05896565318107605
visibility: 0.8156995177268982
","x: 278.44488525390625
y: 582.4185791015625
z: 0.08033572137355804
visibility: 0.901943027973175
","x: 239.38845825195312
y: 583.380859375
z: -0.03028065897524357
visibility: 0.9257410168647766
",,,,,,,,,,,,,,,,,,,,,,"x: 267.1891174316406
y: 274.9296875
z: 0.0
","x: 269.7789306640625
y: 269.9081115722656
z: 0.0024050013162195683
","x: 270.90069580078125
y: 264.59918212890625
z: 0.003010569140315056
","x: 271.7850341796875
y: 260.7912902832031
z: 0.0026402228977531195
","x: 272.7934875488281
y: 257.66815185546875
z: 0.002372045535594225
","x: 269.1739196777344
y: 259.1824645996094
z: 0.004246041178703308
","x: 269.2315979003906
y: 252.91317749023438
z: 0.003432033583521843
","x: 269.4863586425781
y: 248.84271240234375
z: 0.0026918938383460045
","x: 269.7957458496094
y: 245.379638671875
z: 0.0022908165119588375
","x: 268.5772705078125
y: 259.10595703125
z: 0.0017741279443725944
","x: 268.6853332519531
y: 252.40914916992188
z: 0.001090596430003643
","x: 269.1022644042969
y: 248.03240966796875
z: 0.0006257894565351307
","x: 269.57000732421875
y: 244.15855407714844
z: 0.00032415331224910915
","x: 268.130859375
y: 259.34124755859375
z: -0.0009702759562060237
","x: 268.3067626953125
y: 252.84906005859375
z: -0.0017239117296412587
","x: 268.66632080078125
y: 248.62388610839844
z: -0.0017719172174111009
","x: 269.0560302734375
y: 245.0584259033203
z: -0.0018445253372192383
","x: 267.870361328125
y: 260.038818359375
z: -0.003763660555705428
","x: 268.02685546875
y: 254.63165283203125
z: -0.004261701367795467
","x: 268.2607116699219
y: 250.95431518554688
z: -0.004173416178673506
","x: 268.5713195800781
y: 247.83392333984375
z: -0.004158820025622845
"
20,"x: 276.91229248046875
y: 294.30279541015625
z: -0.0921640545129776
visibility: 0.9992499351501465
","x: 277.65673828125
y: 288.7939147949219
z: -0.07747294008731842
visibility: 0.9991729259490967
","x: 278.4464416503906
y: 288.7001953125
z: -0.07751882821321487
visibility: 0.9991122484207153
","x: 279.2607421875
y: 288.7164001464844
z: -0.07750573009252548
visibility: 0.9991244673728943
","x: 274.8508605957031
y: 289.732421875
z: -0.07906142622232437
visibility: 0.9989789724349976
","x: 273.7726135253906
y: 290.0877685546875
z: -0.0790722668170929
visibility: 0.9989327788352966
","x: 272.7855529785156
y: 290.393310546875
z: -0.0791638195514679
visibility: 0.9989144802093506
","x: 280.2509460449219
y: 291.9219665527344
z: 0.013097396120429039
visibility: 0.9986491203308105
","x: 270.7528381347656
y: 292.7129821777344
z: -0.011333524249494076
visibility: 0.9987245202064514
","x: 278.3711853027344
y: 299.31182861328125
z: -0.05817536264657974
visibility: 0.9988669753074646
","x: 274.9498596191406
y: 300.11273193359375
z: -0.06047023460268974
visibility: 0.9985189437866211
","x: 289.0459899902344
y: 322.1435241699219
z: 0.025274917483329773
visibility: 0.9974794983863831
","x: 267.2836608886719
y: 321.3330383300781
z: -0.03896140679717064
visibility: 0.9976303577423096
","x: 282.828125
y: 356.9918518066406
z: 0.004708140157163143
visibility: 0.8522040843963623
","x: 264.8563537597656
y: 328.51385498046875
z: -0.1882559359073639
visibility: 0.8857958316802979
","x: 276.17364501953125
y: 311.88848876953125
z: -0.2344876229763031
visibility: 0.86539226770401
","x: 267.8363342285156
y: 278.14404296875
z: -0.29074203968048096
visibility: 0.9166285991668701
","x: 274.0521545410156
y: 303.3670959472656
z: -0.26842325925827026
visibility: 0.826551079750061
","x: 269.9175720214844
y: 266.6441955566406
z: -0.3160603940486908
visibility: 0.901195764541626
","x: 275.79425048828125
y: 297.7108154296875
z: -0.25568822026252747
visibility: 0.818402111530304
","x: 268.8349304199219
y: 264.69049072265625
z: -0.32343047857284546
visibility: 0.8953332304954529
","x: 275.9960632324219
y: 301.4140625
z: -0.23354101181030273
visibility: 0.8047515749931335
","x: 268.52557373046875
y: 269.9013977050781
z: -0.2980725169181824
visibility: 0.8734949827194214
","x: 277.2131042480469
y: 425.12744140625
z: 0.04586849361658096
visibility: 0.9997071623802185
","x: 269.39581298828125
y: 424.0572509765625
z: -0.045889727771282196
visibility: 0.999643862247467
","x: 272.9557800292969
y: 497.58245849609375
z: 0.053197987377643585
visibility: 0.9648736119270325
","x: 263.6558837890625
y: 497.1800537109375
z: -0.03272819519042969
visibility: 0.9825264811515808
","x: 270.0826110839844
y: 561.48291015625
z: 0.16071011126041412
visibility: 0.9578697085380554
","x: 235.7479705810547
y: 558.6664428710938
z: 0.05370079353451729
visibility: 0.9745307564735413
","x: 266.9918518066406
y: 569.9909057617188
z: 0.16724364459514618
visibility: 0.8708252906799316
","x: 231.55715942382812
y: 566.365478515625
z: 0.05896565318107605
visibility: 0.8156995177268982
","x: 278.44488525390625
y: 582.4185791015625
z: 0.08033572137355804
visibility: 0.901943027973175
","x: 239.38845825195312
y: 583.380859375
z: -0.03028065897524357
visibility: 0.9257410168647766
",,,,,,,,,,,,,,,,,,,,,,"x: 267.1891174316406
y: 274.9296875
z: 0.0
","x: 269.7789306640625
y: 269.9081115722656
z: 0.0024050013162195683
","x: 270.90069580078125
y: 264.59918212890625
z: 0.003010569140315056
","x: 271.7850341796875
y: 260.7912902832031
z: 0.0026402228977531195
","x: 272.7934875488281
y: 257.66815185546875
z: 0.002372045535594225
","x: 269.1739196777344
y: 259.1824645996094
z: 0.004246041178703308
","x: 269.2315979003906
y: 252.91317749023438
z: 0.003432033583521843
","x: 269.4863586425781
y: 248.84271240234375
z: 0.0026918938383460045
","x: 269.7957458496094
y: 245.379638671875
z: 0.0022908165119588375
","x: 268.5772705078125
y: 259.10595703125
z: 0.0017741279443725944
","x: 268.6853332519531
y: 252.40914916992188
z: 0.001090596430003643
","x: 269.1022644042969
y: 248.03240966796875
z: 0.0006257894565351307
","x: 269.57000732421875
y: 244.15855407714844
z: 0.00032415331224910915
","x: 268.130859375
y: 259.34124755859375
z: -0.0009702759562060237
","x: 268.3067626953125
y: 252.84906005859375
z: -0.0017239117296412587
","x: 268.66632080078125
y: 248.62388610839844
z: -0.0017719172174111009
","x: 269.0560302734375
y: 245.0584259033203
z: -0.0018445253372192383
","x: 267.870361328125
y: 260.038818359375
z: -0.003763660555705428
","x: 268.02685546875
y: 254.63165283203125
z: -0.004261701367795467
","x: 268.2607116699219
y: 250.95431518554688
z: -0.004173416178673506
","x: 268.5713195800781
y: 247.83392333984375
z: -0.004158820025622845
"
21,"x: 271.7243347167969
y: 301.48809814453125
z: -0.0861794576048851
visibility: 0.9990217685699463
","x: 272.9456787109375
y: 295.8462829589844
z: -0.07903213798999786
visibility: 0.9985688328742981
","x: 274.04058837890625
y: 295.2695007324219
z: -0.07906673848628998
visibility: 0.9985359907150269
","x: 275.201416015625
y: 294.9154357910156
z: -0.07908431440591812
visibility: 0.9984931945800781
","x: 270.0537109375
y: 296.5892333984375
z: -0.07484570145606995
visibility: 0.9978048205375671
","x: 269.1148986816406
y: 296.483154296875
z: -0.07485972344875336
visibility: 0.9976387619972229
","x: 268.2156677246094
y: 296.17376708984375
z: -0.07492978870868683
visibility: 0.9975797533988953
","x: 278.2118835449219
y: 294.908203125
z: -0.014129847288131714
visibility: 0.9976981282234192
","x: 266.594482421875
y: 294.53778076171875
z: 0.00752668222412467
visibility: 0.9964835047721863
","x: 273.7569885253906
y: 304.9640197753906
z: -0.05909081548452377
visibility: 0.9984397888183594
","x: 270.3009338378906
y: 305.9508361816406
z: -0.05834979563951492
visibility: 0.9974268078804016
","x: 290.7029113769531
y: 322.2953796386719
z: 0.012415563687682152
visibility: 0.9976629614830017
","x: 261.9769592285156
y: 316.17510986328125
z: 0.022306950762867928
visibility: 0.9977810382843018
","x: 283.6606140136719
y: 363.41998291015625
z: -0.09268169105052948
visibility: 0.8636515140533447
","x: 260.6129455566406
y: 327.7657470703125
z: -0.09379957616329193
visibility: 0.8909974694252014
","x: 271.8681335449219
y: 323.3974914550781
z: -0.1959940493106842
visibility: 0.8728964328765869
","x: 266.2212829589844
y: 278.1073303222656
z: -0.21304461359977722
visibility: 0.9185787439346313
","x: 267.31011962890625
y: 318.4261474609375
z: -0.22202198207378387
visibility: 0.8295565247535706
","x: 268.1009521484375
y: 266.58154296875
z: -0.2425084114074707
visibility: 0.8977476954460144
","x: 271.15179443359375
y: 312.7535705566406
z: -0.20647978782653809
visibility: 0.8215399980545044
","x: 267.84918212890625
y: 264.7208557128906
z: -0.2325463593006134
visibility: 0.8906061053276062
","x: 275.16912841796875
y: 312.56134033203125
z: -0.1916317194700241
visibility: 0.8044843673706055
","x: 267.58245849609375
y: 269.8497314453125
z: -0.2142612636089325
visibility: 0.867535412311554
","x: 277.7127990722656
y: 423.89410400390625
z: 0.008242791518568993
visibility: 0.9996808767318726
","x: 267.87384033203125
y: 419.052734375
z: -0.008296940475702286
visibility: 0.999629557132721
","x: 273.753173828125
y: 497.6264953613281
z: -0.015274785459041595
visibility: 0.9672988057136536
","x: 251.884521484375
y: 494.7125244140625
z: -0.025342080742120743
visibility: 0.9832068085670471
","x: 274.0505676269531
y: 561.7783203125
z: 0.1260552704334259
visibility: 0.9609760046005249
","x: 232.1762237548828
y: 555.6908569335938
z: 0.11081086099147797
visibility: 0.9755682945251465
","x: 272.08807373046875
y: 570.6659545898438
z: 0.1330474615097046
visibility: 0.8740084171295166
","x: 229.91905212402344
y: 563.7328491210938
z: 0.11950411647558212
visibility: 0.8116054534912109
","x: 281.2887268066406
y: 582.411376953125
z: 0.06862331181764603
visibility: 0.9095417261123657
","x: 234.00546264648438
y: 583.3720703125
z: 0.016235675662755966
visibility: 0.9298319816589355
",,,,,,,,,,,,,,,,,,,,,,"x: 266.26715087890625
y: 274.18902587890625
z: 0.0
","x: 269.0146484375
y: 270.527099609375
z: 0.0013447683304548264
","x: 269.9779968261719
y: 264.9842529296875
z: 0.0015861038118600845
","x: 270.79071044921875
y: 261.22918701171875
z: 0.0010304030729457736
","x: 271.74468994140625
y: 258.1584777832031
z: 0.0006066454225219786
","x: 267.8227844238281
y: 258.8734130859375
z: 0.003609075676649809
","x: 268.1656799316406
y: 252.77804565429688
z: 0.0024555260315537453
","x: 269.05389404296875
y: 249.05322265625
z: 0.0013756557600572705
","x: 270.04052734375
y: 246.2020263671875
z: 0.0007719703717157245
","x: 267.2651672363281
y: 258.7412109375
z: 0.0015838475665077567
","x: 267.6419677734375
y: 252.37603759765625
z: 0.0007392572006210685
","x: 268.5773010253906
y: 248.23419189453125
z: -0.00010461845522513613
","x: 269.6298828125
y: 244.73260498046875
z: -0.0006922464817762375
","x: 266.8149719238281
y: 258.88934326171875
z: -0.0008139913552440703
","x: 267.2217102050781
y: 252.59063720703125
z: -0.0017588832415640354
","x: 268.0293273925781
y: 248.51776123046875
z: -0.0021333617623895407
","x: 268.9097595214844
y: 245.1718292236328
z: -0.0023912754841148853
","x: 266.5938415527344
y: 259.7575988769531
z: -0.003356125671416521
","x: 266.90435791015625
y: 254.36700439453125
z: -0.0040165153332054615
","x: 267.48846435546875
y: 250.79769897460938
z: -0.004101135767996311
","x: 268.23712158203125
y: 247.82717895507812
z: -0.004186360631138086
"
22,"x: 271.7243347167969
y: 301.48809814453125
z: -0.0861794576048851
visibility: 0.9990217685699463
","x: 272.9456787109375
y: 295.8462829589844
z: -0.07903213798999786
visibility: 0.9985688328742981
","x: 274.04058837890625
y: 295.2695007324219
z: -0.07906673848628998
visibility: 0.9985359907150269
","x: 275.201416015625
y: 294.9154357910156
z: -0.07908431440591812
visibility: 0.9984931945800781
","x: 270.0537109375
y: 296.5892333984375
z: -0.07484570145606995
visibility: 0.9978048205375671
","x: 269.1148986816406
y: 296.483154296875
z: -0.07485972344875336
visibility: 0.9976387619972229
","x: 268.2156677246094
y: 296.17376708984375
z: -0.07492978870868683
visibility: 0.9975797533988953
","x: 278.2118835449219
y: 294.908203125
z: -0.014129847288131714
visibility: 0.9976981282234192
","x: 266.594482421875
y: 294.53778076171875
z: 0.00752668222412467
visibility: 0.9964835047721863
","x: 273.7569885253906
y: 304.9640197753906
z: -0.05909081548452377
visibility: 0.9984397888183594
","x: 270.3009338378906
y: 305.9508361816406
z: -0.05834979563951492
visibility: 0.9974268078804016
","x: 290.7029113769531
y: 322.2953796386719
z: 0.012415563687682152
visibility: 0.9976629614830017
","x: 261.9769592285156
y: 316.17510986328125
z: 0.022306950762867928
visibility: 0.9977810382843018
","x: 283.6606140136719
y: 363.41998291015625
z: -0.09268169105052948
visibility: 0.8636515140533447
","x: 260.6129455566406
y: 327.7657470703125
z: -0.09379957616329193
visibility: 0.8909974694252014
","x: 271.8681335449219
y: 323.3974914550781
z: -0.1959940493106842
visibility: 0.8728964328765869
","x: 266.2212829589844
y: 278.1073303222656
z: -0.21304461359977722
visibility: 0.9185787439346313
","x: 267.31011962890625
y: 318.4261474609375
z: -0.22202198207378387
visibility: 0.8295565247535706
","x: 268.1009521484375
y: 266.58154296875
z: -0.2425084114074707
visibility: 0.8977476954460144
","x: 271.15179443359375
y: 312.7535705566406
z: -0.20647978782653809
visibility: 0.8215399980545044
","x: 267.84918212890625
y: 264.7208557128906
z: -0.2325463593006134
visibility: 0.8906061053276062
","x: 275.16912841796875
y: 312.56134033203125
z: -0.1916317194700241
visibility: 0.8044843673706055
","x: 267.58245849609375
y: 269.8497314453125
z: -0.2142612636089325
visibility: 0.867535412311554
","x: 277.7127990722656
y: 423.89410400390625
z: 0.008242791518568993
visibility: 0.9996808767318726
","x: 267.87384033203125
y: 419.052734375
z: -0.008296940475702286
visibility: 0.999629557132721
","x: 273.753173828125
y: 497.6264953613281
z: -0.015274785459041595
visibility: 0.9672988057136536
","x: 251.884521484375
y: 494.7125244140625
z: -0.025342080742120743
visibility: 0.9832068085670471
","x: 274.0505676269531
y: 561.7783203125
z: 0.1260552704334259
visibility: 0.9609760046005249
","x: 232.1762237548828
y: 555.6908569335938
z: 0.11081086099147797
visibility: 0.9755682945251465
","x: 272.08807373046875
y: 570.6659545898438
z: 0.1330474615097046
visibility: 0.8740084171295166
","x: 229.91905212402344
y: 563.7328491210938
z: 0.11950411647558212
visibility: 0.8116054534912109
","x: 281.2887268066406
y: 582.411376953125
z: 0.06862331181764603
visibility: 0.9095417261123657
","x: 234.00546264648438
y: 583.3720703125
z: 0.016235675662755966
visibility: 0.9298319816589355
",,,,,,,,,,,,,,,,,,,,,,"x: 266.26715087890625
y: 274.18902587890625
z: 0.0
","x: 269.0146484375
y: 270.527099609375
z: 0.0013447683304548264
","x: 269.9779968261719
y: 264.9842529296875
z: 0.0015861038118600845
","x: 270.79071044921875
y: 261.22918701171875
z: 0.0010304030729457736
","x: 271.74468994140625
y: 258.1584777832031
z: 0.0006066454225219786
","x: 267.8227844238281
y: 258.8734130859375
z: 0.003609075676649809
","x: 268.1656799316406
y: 252.77804565429688
z: 0.0024555260315537453
","x: 269.05389404296875
y: 249.05322265625
z: 0.0013756557600572705
","x: 270.04052734375
y: 246.2020263671875
z: 0.0007719703717157245
","x: 267.2651672363281
y: 258.7412109375
z: 0.0015838475665077567
","x: 267.6419677734375
y: 252.37603759765625
z: 0.0007392572006210685
","x: 268.5773010253906
y: 248.23419189453125
z: -0.00010461845522513613
","x: 269.6298828125
y: 244.73260498046875
z: -0.0006922464817762375
","x: 266.8149719238281
y: 258.88934326171875
z: -0.0008139913552440703
","x: 267.2217102050781
y: 252.59063720703125
z: -0.0017588832415640354
","x: 268.0293273925781
y: 248.51776123046875
z: -0.0021333617623895407
","x: 268.9097595214844
y: 245.1718292236328
z: -0.0023912754841148853
","x: 266.5938415527344
y: 259.7575988769531
z: -0.003356125671416521
","x: 266.90435791015625
y: 254.36700439453125
z: -0.0040165153332054615
","x: 267.48846435546875
y: 250.79769897460938
z: -0.004101135767996311
","x: 268.23712158203125
y: 247.82717895507812
z: -0.004186360631138086
"
23,"x: 271.67144775390625
y: 299.23779296875
z: -0.08697937428951263
visibility: 0.9990043640136719
","x: 272.7223815917969
y: 294.6704406738281
z: -0.074106864631176
visibility: 0.9985483288764954
","x: 273.7420349121094
y: 294.5196838378906
z: -0.07414454966783524
visibility: 0.998497486114502
","x: 274.7994689941406
y: 294.5361022949219
z: -0.07416635006666183
visibility: 0.9984879493713379
","x: 269.58056640625
y: 294.7313537597656
z: -0.07319972664117813
visibility: 0.9977299571037292
","x: 268.39422607421875
y: 294.63861083984375
z: -0.07320563495159149
visibility: 0.9975404739379883
","x: 267.1859436035156
y: 294.4351806640625
z: -0.07325506210327148
visibility: 0.9974865317344666
","x: 276.4720458984375
y: 294.65777587890625
z: 0.006699325982481241
visibility: 0.9976591467857361
","x: 264.8800964355469
y: 294.3914489746094
z: 0.009970187209546566
visibility: 0.9961870312690735
","x: 273.6498718261719
y: 304.3292236328125
z: -0.0569065622985363
visibility: 0.9984224438667297
","x: 269.53594970703125
y: 305.5429382324219
z: -0.057290904223918915
visibility: 0.9971969127655029
","x: 287.37286376953125
y: 324.4090576171875
z: 0.014614714309573174
visibility: 0.9978016018867493
","x: 260.0242004394531
y: 321.57720947265625
z: -0.0006850206991657615
visibility: 0.9977012872695923
","x: 292.6455993652344
y: 352.3959045410156
z: -0.09601852297782898
visibility: 0.8745023012161255
","x: 264.08380126953125
y: 326.458984375
z: -0.15109564363956451
visibility: 0.8972635269165039
","x: 273.64862060546875
y: 323.0514221191406
z: -0.20972120761871338
visibility: 0.8818321228027344
","x: 269.4539794921875
y: 273.0350646972656
z: -0.2711751163005829
visibility: 0.9237727522850037
","x: 267.7124938964844
y: 316.57940673828125
z: -0.22345232963562012
visibility: 0.8361926674842834
","x: 270.4217834472656
y: 258.7073059082031
z: -0.3048991858959198
visibility: 0.9024250507354736
","x: 269.45806884765625
y: 311.2276611328125
z: -0.2342856228351593
visibility: 0.8281993269920349
","x: 269.9726257324219
y: 256.9444580078125
z: -0.2959614098072052
visibility: 0.8953456878662109
","x: 271.51812744140625
y: 313.1962890625
z: -0.21722638607025146
visibility: 0.8108436465263367
","x: 269.5213623046875
y: 263.58404541015625
z: -0.2729046940803528
visibility: 0.8729748725891113
","x: 277.18377685546875
y: 424.1824645996094
z: 0.007713192608207464
visibility: 0.9996822476387024
","x: 265.2230529785156
y: 419.6096496582031
z: -0.007818232290446758
visibility: 0.9996351599693298
","x: 274.8822326660156
y: 499.54266357421875
z: -0.007162366062402725
visibility: 0.9690459370613098
","x: 246.21780395507812
y: 494.61724853515625
z: -0.016106706112623215
visibility: 0.9837617874145508
","x: 274.4093322753906
y: 562.2969970703125
z: 0.1250385344028473
visibility: 0.9626817107200623
","x: 230.6175994873047
y: 553.8836059570312
z: 0.10458718240261078
visibility: 0.9757359027862549
","x: 272.48638916015625
y: 570.9517822265625
z: 0.13375619053840637
visibility: 0.8721575140953064
","x: 228.9545440673828
y: 560.8519287109375
z: 0.11163567006587982
visibility: 0.7960770726203918
","x: 282.2226257324219
y: 582.7973022460938
z: 0.04913674294948578
visibility: 0.9149793386459351
","x: 232.2395782470703
y: 582.8135375976562
z: 0.012017800472676754
visibility: 0.9319978356361389
",,,,,,,,,,,,,,,,,,,,,,,,,,,,,,,,,,,,,,,,,,
24,"x: 275.1724853515625
y: 297.2415771484375
z: -0.02520653046667576
visibility: 0.9984616041183472
","x: 273.64935302734375
y: 291.4795227050781
z: -0.018960820510983467
visibility: 0.9978348016738892
","x: 273.4819030761719
y: 291.329833984375
z: -0.019009118899703026
visibility: 0.9975684285163879
","x: 273.5307922363281
y: 291.20257568359375
z: -0.019050393253564835
visibility: 0.9978435039520264
","x: 274.134765625
y: 291.78076171875
z: -0.04075603559613228
visibility: 0.9969889521598816
","x: 274.1444396972656
y: 291.88531494140625
z: -0.04077553004026413
visibility: 0.9966737031936646
","x: 274.2120666503906
y: 291.9122619628906
z: -0.04084647074341774
visibility: 0.9967690110206604
","x: 275.07464599609375
y: 292.94061279296875
z: 0.024348340928554535
visibility: 0.9962397813796997
","x: 272.3923034667969
y: 293.46435546875
z: -0.06612186133861542
visibility: 0.9944201111793518
","x: 274.37335205078125
y: 303.288330078125
z: -0.006869889795780182
visibility: 0.997499406337738
","x: 274.7759094238281
y: 304.0943298339844
z: -0.03563501313328743
visibility: 0.9959654211997986
","x: 272.1187744140625
y: 327.5765380859375
z: 0.06264899671077728
visibility: 0.9972614049911499
","x: 265.4202575683594
y: 324.48260498046875
z: -0.10842522233724594
visibility: 0.9968763589859009
","x: 286.64056396484375
y: 341.882568359375
z: 0.0487784817814827
visibility: 0.7988618612289429
","x: 277.2742004394531
y: 326.2122802734375
z: -0.18555372953414917
visibility: 0.8721669316291809
","x: 278.84136962890625
y: 312.624755859375
z: 0.0003234178002458066
visibility: 0.8102619051933289
","x: 274.17852783203125
y: 281.61962890625
z: -0.20092396438121796
visibility: 0.8953331112861633
","x: 277.8461608886719
y: 306.22882080078125
z: -0.009333578869700432
visibility: 0.7705524563789368
","x: 274.4134826660156
y: 266.17681884765625
z: -0.2206186056137085
visibility: 0.8766152858734131
","x: 277.0519714355469
y: 304.3819580078125
z: -0.009640006348490715
visibility: 0.7640183568000793
","x: 272.7693786621094
y: 265.21319580078125
z: -0.22316288948059082
visibility: 0.868698239326477
","x: 277.6412658691406
y: 307.15252685546875
z: -0.0031213590409606695
visibility: 0.74858558177948
","x: 272.7909240722656
y: 266.4900817871094
z: -0.2026863396167755
visibility: 0.8426040410995483
","x: 269.58355712890625
y: 428.7810974121094
z: 0.05885602906346321
visibility: 0.9996595978736877
","x: 265.32318115234375
y: 426.13116455078125
z: -0.05898721143603325
visibility: 0.9995643496513367
","x: 263.7159729003906
y: 498.956298828125
z: 0.03751542791724205
visibility: 0.9244421720504761
","x: 258.0926208496094
y: 496.00726318359375
z: -0.05117093771696091
visibility: 0.9718728065490723
","x: 257.6414794921875
y: 562.2421875
z: 0.11167936027050018
visibility: 0.9459859728813171
","x: 248.43008422851562
y: 558.295654296875
z: 0.03164796903729439
visibility: 0.9715301394462585
","x: 253.39926147460938
y: 571.0036010742188
z: 0.1135208010673523
visibility: 0.8607509136199951
","x: 243.75186157226562
y: 565.66943359375
z: 0.03668573871254921
visibility: 0.7968126535415649
","x: 267.60845947265625
y: 582.458984375
z: 0.04530812054872513
visibility: 0.9034973978996277
","x: 255.4336395263672
y: 583.4647827148438
z: -0.031507425010204315
visibility: 0.928031325340271
",,,,,,,,,,,,,,,,,,,,,,"x: 277.98760986328125
y: 274.35845947265625
z: 0.0
","x: 275.1646728515625
y: 270.32977294921875
z: -7.137050852179527e-05
","x: 272.7038269042969
y: 264.8680419921875
z: -0.001215873984619975
","x: 271.5097961425781
y: 260.878662109375
z: -0.003459236351773143
","x: 270.74188232421875
y: 258.4640808105469
z: -0.005547794979065657
","x: 272.47100830078125
y: 255.64193725585938
z: 0.0007489677518606186
","x: 271.6701965332031
y: 246.8356475830078
z: -0.0018106839852407575
","x: 271.38543701171875
y: 243.10935974121094
z: -0.003080003662034869
","x: 271.2928771972656
y: 240.86038208007812
z: -0.003673700848594308
","x: 274.6162109375
y: 255.0467529296875
z: -0.001429021474905312
","x: 274.338134765625
y: 245.69058227539062
z: -0.004589485935866833
","x: 274.16583251953125
y: 248.63714599609375
z: -0.004809318110346794
","x: 274.2454833984375
y: 252.55197143554688
z: -0.003853149013593793
","x: 277.0030212402344
y: 255.77017211914062
z: -0.004064046312123537
","x: 277.0516357421875
y: 248.34051513671875
z: -0.006728381849825382
","x: 276.6923828125
y: 252.1200408935547
z: -0.005587298888713121
","x: 276.6942138671875
y: 255.71817016601562
z: -0.003940315451472998
","x: 279.6012878417969
y: 257.6548767089844
z: -0.007034432142972946
","x: 279.6237487792969
y: 252.25343322753906
z: -0.008151424117386341
","x: 279.2167053222656
y: 255.11337280273438
z: -0.007131095044314861
","x: 279.1334228515625
y: 258.21209716796875
z: -0.0058356295339763165
"
25,"x: 275.1724853515625
y: 297.2415771484375
z: -0.02520653046667576
visibility: 0.9984616041183472
","x: 273.64935302734375
y: 291.4795227050781
z: -0.018960820510983467
visibility: 0.9978348016738892
","x: 273.4819030761719
y: 291.329833984375
z: -0.019009118899703026
visibility: 0.9975684285163879
","x: 273.5307922363281
y: 291.20257568359375
z: -0.019050393253564835
visibility: 0.9978435039520264
","x: 274.134765625
y: 291.78076171875
z: -0.04075603559613228
visibility: 0.9969889521598816
","x: 274.1444396972656
y: 291.88531494140625
z: -0.04077553004026413
visibility: 0.9966737031936646
","x: 274.2120666503906
y: 291.9122619628906
z: -0.04084647074341774
visibility: 0.9967690110206604
","x: 275.07464599609375
y: 292.94061279296875
z: 0.024348340928554535
visibility: 0.9962397813796997
","x: 272.3923034667969
y: 293.46435546875
z: -0.06612186133861542
visibility: 0.9944201111793518
","x: 274.37335205078125
y: 303.288330078125
z: -0.006869889795780182
visibility: 0.997499406337738
","x: 274.7759094238281
y: 304.0943298339844
z: -0.03563501313328743
visibility: 0.9959654211997986
","x: 272.1187744140625
y: 327.5765380859375
z: 0.06264899671077728
visibility: 0.9972614049911499
","x: 265.4202575683594
y: 324.48260498046875
z: -0.10842522233724594
visibility: 0.9968763589859009
","x: 286.64056396484375
y: 341.882568359375
z: 0.0487784817814827
visibility: 0.7988618612289429
","x: 277.2742004394531
y: 326.2122802734375
z: -0.18555372953414917
visibility: 0.8721669316291809
","x: 278.84136962890625
y: 312.624755859375
z: 0.0003234178002458066
visibility: 0.8102619051933289
","x: 274.17852783203125
y: 281.61962890625
z: -0.20092396438121796
visibility: 0.8953331112861633
","x: 277.8461608886719
y: 306.22882080078125
z: -0.009333578869700432
visibility: 0.7705524563789368
","x: 274.4134826660156
y: 266.17681884765625
z: -0.2206186056137085
visibility: 0.8766152858734131
","x: 277.0519714355469
y: 304.3819580078125
z: -0.009640006348490715
visibility: 0.7640183568000793
","x: 272.7693786621094
y: 265.21319580078125
z: -0.22316288948059082
visibility: 0.868698239326477
","x: 277.6412658691406
y: 307.15252685546875
z: -0.0031213590409606695
visibility: 0.74858558177948
","x: 272.7909240722656
y: 266.4900817871094
z: -0.2026863396167755
visibility: 0.8426040410995483
","x: 269.58355712890625
y: 428.7810974121094
z: 0.05885602906346321
visibility: 0.9996595978736877
","x: 265.32318115234375
y: 426.13116455078125
z: -0.05898721143603325
visibility: 0.9995643496513367
","x: 263.7159729003906
y: 498.956298828125
z: 0.03751542791724205
visibility: 0.9244421720504761
","x: 258.0926208496094
y: 496.00726318359375
z: -0.05117093771696091
visibility: 0.9718728065490723
","x: 257.6414794921875
