uscmakers/ReverseChoreography/data/3_throwin_elbows_excision.csv
,NOSE,LEFT_EYE_INNER,LEFT_EYE,LEFT_EYE_OUTER,RIGHT_EYE_INNER,RIGHT_EYE,RIGHT_EYE_OUTER,LEFT_EAR,RIGHT_EAR,MOUTH_LEFT,MOUTH_RIGHT,LEFT_SHOULDER,RIGHT_SHOULDER,LEFT_ELBOW,RIGHT_ELBOW,LEFT_WRIST,RIGHT_WRIST,LEFT_PINKY,RIGHT_PINKY,LEFT_INDEX,RIGHT_INDEX,LEFT_THUMB,RIGHT_THUMB,LEFT_HIP,RIGHT_HIP,LEFT_KNEE,RIGHT_KNEE,LEFT_ANKLE,RIGHT_ANKLE,LEFT_HEEL,RIGHT_HEEL,LEFT_FOOT_INDEX,RIGHT_FOOT_INDEX,WRIST2,THUMB_CPC2,THUMB_MCP2,THUMB_IP2,THUMB_TIP2,INDEX_FINGER_MCP2,INDEX_FINGER_PIP2,INDEX_FINGER_DIP2,INDEX_FINGER_TIP2,MIDDLE_FINGER_MCP2,MIDDLE_FINGER_PIP2,MIDDLE_FINGER_DIP2,MIDDLE_FINGER_TIP2,RING_FINGER_PIP2,RING_FINGER_DIP2,RING_FINGER_TIP2,RING_FINGER_MCP2,PINKY_MCP2,PINKY_PIP2,PINKY_DIP2,PINKY_TIP2,WRIST,THUMB_CPC,THUMB_MCP,THUMB_IP,THUMB_TIP,INDEX_FINGER_MCP,INDEX_FINGER_PIP,INDEX_FINGER_DIP,INDEX_FINGER_TIP,MIDDLE_FINGER_MCP,MIDDLE_FINGER_PIP,MIDDLE_FINGER_DIP,MIDDLE_FINGER_TIP,RING_FINGER_PIP,RING_FINGER_DIP,RING_FINGER_TIP,RING_FINGER_MCP,PINKY_MCP,PINKY_PIP,PINKY_DIP,PINKY_TIP
0,"x: 272.806640625
y: 382.5718688964844
z: -0.4844551682472229
visibility: 0.9999709129333496
","x: 273.7641296386719
y: 377.29058837890625
z: -0.47944292426109314
visibility: 0.9999353885650635
","x: 274.4969177246094
y: 376.5574951171875
z: -0.47943001985549927
visibility: 0.999915599822998
","x: 275.23828125
y: 375.7667541503906
z: -0.47950491309165955
visibility: 0.9999144077301025
","x: 271.2064514160156
y: 378.35260009765625
z: -0.4852415919303894
visibility: 0.9999465942382812
","x: 270.0386047363281
y: 378.3297424316406
z: -0.48535576462745667
visibility: 0.9999459981918335
","x: 268.7771301269531
y: 378.1336669921875
z: -0.48539766669273376
visibility: 0.9999494552612305
","x: 275.5626525878906
y: 372.59197998046875
z: -0.3951670825481415
visibility: 0.9998106360435486
","x: 264.7546691894531
y: 374.8404235839844
z: -0.42300453782081604
visibility: 0.9999352693557739
","x: 273.87841796875
y: 384.2367858886719
z: -0.44730186462402344
visibility: 0.9999457597732544
","x: 270.5675048828125
y: 386.0684814453125
z: -0.4555242657661438
visibility: 0.9999520778656006
","x: 283.0151672363281
y: 386.1480407714844
z: -0.27601155638694763
visibility: 0.9999574422836304
","x: 253.00106811523438
y: 394.5706787109375
z: -0.334386944770813
visibility: 0.9999520778656006
","x: 286.68890380859375
y: 430.9619445800781
z: -0.24473802745342255
visibility: 0.9854093194007874
","x: 251.40689086914062
y: 438.65283203125
z: -0.33895424008369446
visibility: 0.9946303367614746
","x: 287.31414794921875
y: 473.44293212890625
z: -0.28986090421676636
visibility: 0.9751313924789429
","x: 255.83438110351562
y: 479.7483825683594
z: -0.375245064496994
visibility: 0.9825908541679382
","x: 288.41424560546875
y: 484.38348388671875
z: -0.3092007339000702
visibility: 0.9406459331512451
","x: 255.3239288330078
y: 491.7866516113281
z: -0.4013395309448242
visibility: 0.9556483030319214
","x: 286.2917175292969
y: 484.7721862792969
z: -0.33201122283935547
visibility: 0.9470055103302002
","x: 257.89373779296875
y: 491.9718933105469
z: -0.4177236557006836
visibility: 0.9576363563537598
","x: 285.0294189453125
y: 480.8923034667969
z: -0.3001813590526581
visibility: 0.9423947334289551
","x: 258.6551818847656
y: 488.80615234375
z: -0.3823201060295105
visibility: 0.9416704177856445
","x: 268.325927734375
y: 428.0823059082031
z: 0.014174668118357658
visibility: 0.9999731779098511
","x: 250.50155639648438
y: 424.5532531738281
z: -0.014148877933621407
visibility: 0.9999297857284546
","x: 270.95947265625
y: 477.455322265625
z: -0.10438971221446991
visibility: 0.951515793800354
","x: 236.76063537597656
y: 477.2362060546875
z: -0.08385865390300751
visibility: 0.9673575162887573
","x: 268.9464416503906
y: 535.7294311523438
z: 9.40719291975256e-06
visibility: 0.9662277698516846
","x: 224.9690704345703
y: 530.640380859375
z: 0.00126114790327847
visibility: 0.985519289970398
","x: 266.5892028808594
y: 545.198486328125
z: 0.0054513560608029366
visibility: 0.923438310623169
","x: 225.89730834960938
y: 537.2783203125
z: 0.004071845673024654
visibility: 0.7850234508514404
","x: 275.49053955078125
y: 550.4591674804688
z: -0.0865994244813919
visibility: 0.9649450778961182
","x: 218.4217987060547
y: 550.560791015625
z: -0.10273480415344238
visibility: 0.9677034616470337
",,,,,,,,,,,,,,,,,,,,,,,,,,,,,,,,,,,,,,,,,,
1,"x: 274.53692626953125
y: 362.4320983886719
z: -0.455005019903183
visibility: 0.9999729990959167
","x: 275.8342590332031
y: 356.0653381347656
z: -0.447732150554657
visibility: 0.9999397397041321
","x: 276.7059020996094
y: 355.5802917480469
z: -0.44774550199508667
visibility: 0.9999210238456726
","x: 277.5555419921875
y: 355.1336975097656
z: -0.4478378891944885
visibility: 0.9999198913574219
","x: 272.9061279296875
y: 356.127685546875
z: -0.45194047689437866
visibility: 0.9999505877494812
","x: 271.6632385253906
y: 355.722412109375
z: -0.45203834772109985
visibility: 0.999950110912323
","x: 270.3707580566406
y: 355.3057556152344
z: -0.4520801603794098
visibility: 0.9999533891677856
","x: 278.65380859375
y: 353.5089416503906
z: -0.3603663444519043
visibility: 0.999817967414856
","x: 267.3374328613281
y: 354.1125183105469
z: -0.38001373410224915
visibility: 0.9999406933784485
","x: 275.6133728027344
y: 366.076171875
z: -0.4178350567817688
visibility: 0.9999498128890991
","x: 272.2717590332031
y: 366.2631530761719
z: -0.4236532747745514
visibility: 0.9999562501907349
","x: 285.74005126953125
y: 373.54937744140625
z: -0.2315765917301178
visibility: 0.9999601244926453
","x: 255.4533233642578
y: 376.9264221191406
z: -0.30793923139572144
visibility: 0.9999566078186035
","x: 289.43243408203125
y: 417.7830505371094
z: -0.19205518066883087
visibility: 0.9854769110679626
","x: 254.6981658935547
y: 423.564208984375
z: -0.30356061458587646
visibility: 0.9945477843284607
","x: 289.511474609375
y: 459.98919677734375
z: -0.2437717616558075
visibility: 0.9738713502883911
","x: 262.2830505371094
y: 464.2401123046875
z: -0.347128689289093
visibility: 0.9828904271125793
","x: 289.81207275390625
y: 471.0041809082031
z: -0.2627524435520172
visibility: 0.9391458034515381
","x: 262.9490051269531
y: 476.9049072265625
z: -0.376223623752594
visibility: 0.9567068219184875
","x: 287.58917236328125
y: 470.7677001953125
z: -0.2873418927192688
visibility: 0.9452295303344727
","x: 265.7110900878906
y: 476.1581115722656
z: -0.3900458812713623
visibility: 0.958346962928772
","x: 286.6082458496094
y: 466.9850158691406
z: -0.2545408606529236
visibility: 0.9400200843811035
","x: 265.976318359375
y: 472.2843017578125
z: -0.35260212421417236
visibility: 0.941863477230072
","x: 268.9673767089844
y: 424.3279724121094
z: 0.026696765795350075
visibility: 0.9999691843986511
","x: 251.9899139404297
y: 418.40399169921875
z: -0.026733577251434326
visibility: 0.9999341368675232
","x: 270.8944091796875
y: 479.10833740234375
z: 0.031996577978134155
visibility: 0.95042484998703
","x: 239.01931762695312
y: 471.56500244140625
z: -0.11512819677591324
visibility: 0.9702180027961731
","x: 268.82611083984375
y: 536.5316162109375
z: 0.13349378108978271
visibility: 0.967985212802887
","x: 222.85067749023438
y: 524.689453125
z: -0.0701567754149437
visibility: 0.9867511987686157
","x: 266.1801452636719
y: 545.4854736328125
z: 0.13841412961483002
visibility: 0.9252215027809143
","x: 220.84286499023438
y: 531.3092041015625
z: -0.07005054503679276
visibility: 0.8002380728721619
","x: 276.06256103515625
y: 550.629638671875
z: 0.06186993047595024
visibility: 0.9653491377830505
","x: 218.3026580810547
y: 551.8248901367188
z: -0.17278531193733215
visibility: 0.9702411890029907
","x: 289.8536376953125
y: 460.22760009765625
z: 0.0
","x: 288.01666259765625
y: 463.5461730957031
z: -0.00021822044800501317
","x: 287.0544738769531
y: 468.47021484375
z: -0.0007085357792675495
","x: 286.6467590332031
y: 472.1143798828125
z: -0.0017802112270146608
","x: 286.4558410644531
y: 474.8900146484375
z: -0.00260069384239614
","x: 288.69354248046875
y: 474.2529296875
z: 0.0014366075629368424
","x: 288.6997985839844
y: 479.0655212402344
z: -0.00020319671602919698
","x: 287.8319396972656
y: 479.95306396484375
z: -0.0012492070673033595
","x: 286.99835205078125
y: 479.91363525390625
z: -0.0016812290996313095
","x: 289.8423156738281
y: 474.1236877441406
z: 0.0002071353083010763
","x: 289.8282470703125
y: 478.9544982910156
z: -0.0013415850698947906
","x: 288.8353271484375
y: 479.889404296875
z: -0.0021458554547280073
","x: 287.8880920410156
y: 479.6719970703125
z: -0.0024277563206851482
","x: 291.0594482421875
y: 473.2931213378906
z: -0.0014414126053452492
","x: 290.95501708984375
y: 477.86358642578125
z: -0.0028854927513748407
","x: 289.8003234863281
y: 478.8802490234375
z: -0.0030380776152014732
","x: 288.7322998046875
y: 478.84271240234375
z: -0.002917378442361951
","x: 292.2234191894531
y: 471.67645263671875
z: -0.0033359054941684008
","x: 292.1797180175781
y: 475.53558349609375
z: -0.004309488460421562
","x: 291.2339172363281
y: 476.5771484375
z: -0.004292985890060663
","x: 290.2353820800781
y: 476.66455078125
z: -0.004080232698470354
",,,,,,,,,,,,,,,,,,,,,
2,"x: 274.53692626953125
y: 362.4320983886719
z: -0.455005019903183
visibility: 0.9999729990959167
","x: 275.8342590332031
y: 356.0653381347656
z: -0.447732150554657
visibility: 0.9999397397041321
","x: 276.7059020996094
y: 355.5802917480469
z: -0.44774550199508667
visibility: 0.9999210238456726
","x: 277.5555419921875
y: 355.1336975097656
z: -0.4478378891944885
visibility: 0.9999198913574219
","x: 272.9061279296875
y: 356.127685546875
z: -0.45194047689437866
visibility: 0.9999505877494812
","x: 271.6632385253906
y: 355.722412109375
z: -0.45203834772109985
visibility: 0.999950110912323
","x: 270.3707580566406
y: 355.3057556152344
z: -0.4520801603794098
visibility: 0.9999533891677856
","x: 278.65380859375
y: 353.5089416503906
z: -0.3603663444519043
visibility: 0.999817967414856
","x: 267.3374328613281
y: 354.1125183105469
z: -0.38001373410224915
visibility: 0.9999406933784485
","x: 275.6133728027344
y: 366.076171875
z: -0.4178350567817688
visibility: 0.9999498128890991
","x: 272.2717590332031
y: 366.2631530761719
z: -0.4236532747745514
visibility: 0.9999562501907349
","x: 285.74005126953125
y: 373.54937744140625
z: -0.2315765917301178
visibility: 0.9999601244926453
","x: 255.4533233642578
y: 376.9264221191406
z: -0.30793923139572144
visibility: 0.9999566078186035
","x: 289.43243408203125
y: 417.7830505371094
z: -0.19205518066883087
visibility: 0.9854769110679626
","x: 254.6981658935547
y: 423.564208984375
z: -0.30356061458587646
visibility: 0.9945477843284607
","x: 289.511474609375
y: 459.98919677734375
z: -0.2437717616558075
visibility: 0.9738713502883911
","x: 262.2830505371094
y: 464.2401123046875
z: -0.347128689289093
visibility: 0.9828904271125793
","x: 289.81207275390625
y: 471.0041809082031
z: -0.2627524435520172
visibility: 0.9391458034515381
","x: 262.9490051269531
y: 476.9049072265625
z: -0.376223623752594
visibility: 0.9567068219184875
","x: 287.58917236328125
y: 470.7677001953125
z: -0.2873418927192688
visibility: 0.9452295303344727
","x: 265.7110900878906
y: 476.1581115722656
z: -0.3900458812713623
visibility: 0.958346962928772
","x: 286.6082458496094
y: 466.9850158691406
z: -0.2545408606529236
visibility: 0.9400200843811035
","x: 265.976318359375
y: 472.2843017578125
z: -0.35260212421417236
visibility: 0.941863477230072
","x: 268.9673767089844
y: 424.3279724121094
z: 0.026696765795350075
visibility: 0.9999691843986511
","x: 251.9899139404297
y: 418.40399169921875
z: -0.026733577251434326
visibility: 0.9999341368675232
","x: 270.8944091796875
y: 479.10833740234375
z: 0.031996577978134155
visibility: 0.95042484998703
","x: 239.01931762695312
y: 471.56500244140625
z: -0.11512819677591324
visibility: 0.9702180027961731
","x: 268.82611083984375
y: 536.5316162109375
z: 0.13349378108978271
visibility: 0.967985212802887
","x: 222.85067749023438
y: 524.689453125
z: -0.0701567754149437
visibility: 0.9867511987686157
","x: 266.1801452636719
y: 545.4854736328125
z: 0.13841412961483002
visibility: 0.9252215027809143
","x: 220.84286499023438
y: 531.3092041015625
z: -0.07005054503679276
visibility: 0.8002380728721619
","x: 276.06256103515625
y: 550.629638671875
z: 0.06186993047595024
visibility: 0.9653491377830505
","x: 218.3026580810547
y: 551.8248901367188
z: -0.17278531193733215
visibility: 0.9702411890029907
","x: 289.8536376953125
y: 460.22760009765625
z: 0.0
","x: 288.01666259765625
y: 463.5461730957031
z: -0.00021822044800501317
","x: 287.0544738769531
y: 468.47021484375
z: -0.0007085357792675495
","x: 286.6467590332031
y: 472.1143798828125
z: -0.0017802112270146608
","x: 286.4558410644531
y: 474.8900146484375
z: -0.00260069384239614
","x: 288.69354248046875
y: 474.2529296875
z: 0.0014366075629368424
","x: 288.6997985839844
y: 479.0655212402344
z: -0.00020319671602919698
","x: 287.8319396972656
y: 479.95306396484375
z: -0.0012492070673033595
","x: 286.99835205078125
y: 479.91363525390625
z: -0.0016812290996313095
","x: 289.8423156738281
y: 474.1236877441406
z: 0.0002071353083010763
","x: 289.8282470703125
y: 478.9544982910156
z: -0.0013415850698947906
","x: 288.8353271484375
y: 479.889404296875
z: -0.0021458554547280073
","x: 287.8880920410156
y: 479.6719970703125
z: -0.0024277563206851482
","x: 291.0594482421875
y: 473.2931213378906
z: -0.0014414126053452492
","x: 290.95501708984375
y: 477.86358642578125
z: -0.0028854927513748407
","x: 289.8003234863281
y: 478.8802490234375
z: -0.0030380776152014732
","x: 288.7322998046875
y: 478.84271240234375
z: -0.002917378442361951
","x: 292.2234191894531
y: 471.67645263671875
z: -0.0033359054941684008
","x: 292.1797180175781
y: 475.53558349609375
z: -0.004309488460421562
","x: 291.2339172363281
y: 476.5771484375
z: -0.004292985890060663
","x: 290.2353820800781
y: 476.66455078125
z: -0.004080232698470354
",,,,,,,,,,,,,,,,,,,,,
3,"x: 274.4530029296875
y: 367.105712890625
z: -0.4576140344142914
visibility: 0.9999756217002869
","x: 275.6885681152344
y: 361.18389892578125
z: -0.44944778084754944
visibility: 0.9999455213546753
","x: 276.474853515625
y: 360.6669616699219
z: -0.4494504928588867
visibility: 0.9999285936355591
","x: 277.2743225097656
y: 360.1753234863281
z: -0.44953250885009766
visibility: 0.9999275803565979
","x: 273.0100402832031
y: 361.5834045410156
z: -0.45603594183921814
visibility: 0.9999553561210632
","x: 271.76141357421875
y: 361.3243408203125
z: -0.4561343193054199
visibility: 0.999954879283905
","x: 270.43682861328125
y: 361.02435302734375
z: -0.4561624526977539
visibility: 0.9999578595161438
","x: 278.41351318359375
y: 358.5626525878906
z: -0.3585594594478607
visibility: 0.9998353123664856
","x: 267.0352478027344
y: 359.2224426269531
z: -0.38911721110343933
visibility: 0.9999464750289917
","x: 275.5182800292969
y: 370.2979736328125
z: -0.4191228449344635
visibility: 0.9999546408653259
","x: 272.11724853515625
y: 370.8841247558594
z: -0.42804154753685
visibility: 0.9999604821205139
","x: 284.8208312988281
y: 376.71856689453125
z: -0.23413541913032532
visibility: 0.9999635815620422
","x: 255.35162353515625
y: 378.95770263671875
z: -0.31553196907043457
visibility: 0.9999604821205139
","x: 289.0303039550781
y: 421.28704833984375
z: -0.19570380449295044
visibility: 0.9863796234130859
","x: 254.37818908691406
y: 424.6939697265625
z: -0.3172227442264557
visibility: 0.9947060942649841
","x: 288.6502685546875
y: 463.58282470703125
z: -0.25116902589797974
visibility: 0.9754899740219116
","x: 261.4000549316406
y: 466.98162841796875
z: -0.36205193400382996
visibility: 0.9837577939033508
","x: 289.089111328125
y: 474.4943542480469
z: -0.2710797190666199
visibility: 0.9427732825279236
","x: 261.33905029296875
y: 479.35693359375
z: -0.39746710658073425
visibility: 0.9589174389839172
","x: 287.1112365722656
y: 474.6325378417969
z: -0.29701370000839233
visibility: 0.948486864566803
","x: 263.67291259765625
y: 479.1235046386719
z: -0.40903106331825256
visibility: 0.9603543281555176
","x: 286.23968505859375
y: 470.6150817871094
z: -0.2628474831581116
visibility: 0.9433473944664001
","x: 264.24609375
y: 475.3040771484375
z: -0.3664664924144745
visibility: 0.9440868496894836
","x: 268.307861328125
y: 424.5965881347656
z: 0.025016989558935165
visibility: 0.9999693036079407
","x: 251.69638061523438
y: 419.3575744628906
z: -0.025043359026312828
visibility: 0.9999390244483948
","x: 270.48748779296875
y: 481.65789794921875
z: -0.007610728498548269
visibility: 0.9536555409431458
","x: 237.48646545410156
y: 472.3208312988281
z: -0.11931760609149933
visibility: 0.9729654788970947
","x: 268.70526123046875
y: 537.143310546875
z: 0.10381187498569489
visibility: 0.9705702066421509
","x: 220.0713348388672
y: 525.4613037109375
z: -0.05259644240140915
visibility: 0.9879442453384399
","x: 266.18572998046875
y: 546.0068969726562
z: 0.10985253751277924
visibility: 0.9297435879707336
","x: 217.22708129882812
y: 532.361572265625
z: -0.050613630563020706
visibility: 0.8154677152633667
","x: 276.1309814453125
y: 551.34130859375
z: 0.026254232972860336
visibility: 0.9676496982574463
","x: 218.2408905029297
y: 552.807373046875
z: -0.15587863326072693
visibility: 0.972730278968811
","x: 286.8861999511719
y: 469.28955078125
z: 0.0
","x: 284.8697204589844
y: 472.9176330566406
z: -0.0002806404372677207
","x: 284.03936767578125
y: 477.75079345703125
z: -0.0004292051016818732
","x: 283.7052917480469
y: 481.4747314453125
z: -0.0009174959850497544
","x: 283.54071044921875
y: 484.2840576171875
z: -0.0012650620192289352
","x: 286.1197814941406
y: 481.80743408203125
z: 0.0011036854702979326
","x: 285.6918029785156
y: 486.536376953125
z: 6.832065264461562e-05
","x: 284.9814453125
y: 488.4955139160156
z: -0.0006668866844847798
","x: 284.30499267578125
y: 489.48388671875
z: -0.0009935437701642513
","x: 287.2907409667969
y: 481.84033203125
z: 0.00028486052178777754
","x: 286.78662109375
y: 486.5869140625
z: -0.0007053526933304965
","x: 285.7919616699219
y: 488.70098876953125
z: -0.0014368921983987093
","x: 284.7775573730469
y: 489.7479248046875
z: -0.0018493406241759658
","x: 288.329345703125
y: 481.271484375
z: -0.0008323446963913739
","x: 287.80950927734375
y: 485.90740966796875
z: -0.0019520062487572432
","x: 286.78253173828125
y: 487.9186706542969
z: -0.0024525653570890427
","x: 285.78033447265625
y: 488.916748046875
z: -0.002667863154783845
","x: 289.2208557128906
y: 480.087158203125
z: -0.002116937655955553
","x: 288.9635009765625
y: 484.1065673828125
z: -0.0030784644186496735
","x: 288.14886474609375
y: 485.88189697265625
z: -0.003383868606761098
","x: 287.22015380859375
y: 486.810302734375
z: -0.003466447116807103
",,,,,,,,,,,,,,,,,,,,,
4,"x: 274.4530029296875
y: 367.105712890625
z: -0.4576140344142914
visibility: 0.9999756217002869
","x: 275.6885681152344
y: 361.18389892578125
z: -0.44944778084754944
visibility: 0.9999455213546753
","x: 276.474853515625
y: 360.6669616699219
z: -0.4494504928588867
visibility: 0.9999285936355591
","x: 277.2743225097656
y: 360.1753234863281
z: -0.44953250885009766
visibility: 0.9999275803565979
","x: 273.0100402832031
y: 361.5834045410156
z: -0.45603594183921814
visibility: 0.9999553561210632
","x: 271.76141357421875
y: 361.3243408203125
z: -0.4561343193054199
visibility: 0.999954879283905
","x: 270.43682861328125
y: 361.02435302734375
z: -0.4561624526977539
visibility: 0.9999578595161438
","x: 278.41351318359375
y: 358.5626525878906
z: -0.3585594594478607
visibility: 0.9998353123664856
","x: 267.0352478027344
y: 359.2224426269531
z: -0.38911721110343933
visibility: 0.9999464750289917
","x: 275.5182800292969
y: 370.2979736328125
z: -0.4191228449344635
visibility: 0.9999546408653259
","x: 272.11724853515625
y: 370.8841247558594
z: -0.42804154753685
visibility: 0.9999604821205139
","x: 284.8208312988281
y: 376.71856689453125
z: -0.23413541913032532
visibility: 0.9999635815620422
","x: 255.35162353515625
y: 378.95770263671875
z: -0.31553196907043457
visibility: 0.9999604821205139
","x: 289.0303039550781
y: 421.28704833984375
z: -0.19570380449295044
visibility: 0.9863796234130859
","x: 254.37818908691406
y: 424.6939697265625
z: -0.3172227442264557
visibility: 0.9947060942649841
","x: 288.6502685546875
y: 463.58282470703125
z: -0.25116902589797974
visibility: 0.9754899740219116
","x: 261.4000549316406
y: 466.98162841796875
z: -0.36205193400382996
visibility: 0.9837577939033508
","x: 289.089111328125
y: 474.4943542480469
z: -0.2710797190666199
visibility: 0.9427732825279236
","x: 261.33905029296875
y: 479.35693359375
z: -0.39746710658073425
visibility: 0.9589174389839172
","x: 287.1112365722656
y: 474.6325378417969
z: -0.29701370000839233
visibility: 0.948486864566803
","x: 263.67291259765625
y: 479.1235046386719
z: -0.40903106331825256
visibility: 0.9603543281555176
","x: 286.23968505859375
y: 470.6150817871094
z: -0.2628474831581116
visibility: 0.9433473944664001
","x: 264.24609375
y: 475.3040771484375
z: -0.3664664924144745
visibility: 0.9440868496894836
","x: 268.307861328125
y: 424.5965881347656
z: 0.025016989558935165
visibility: 0.9999693036079407
","x: 251.69638061523438
y: 419.3575744628906
z: -0.025043359026312828
visibility: 0.9999390244483948
","x: 270.48748779296875
y: 481.65789794921875
z: -0.007610728498548269
visibility: 0.9536555409431458
","x: 237.48646545410156
y: 472.3208312988281
z: -0.11931760609149933
visibility: 0.9729654788970947
","x: 268.70526123046875
y: 537.143310546875
z: 0.10381187498569489
visibility: 0.9705702066421509
","x: 220.0713348388672
y: 525.4613037109375
z: -0.05259644240140915
visibility: 0.9879442453384399
","x: 266.18572998046875
y: 546.0068969726562
z: 0.10985253751277924
visibility: 0.9297435879707336
","x: 217.22708129882812
y: 532.361572265625
z: -0.050613630563020706
visibility: 0.8154677152633667
","x: 276.1309814453125
y: 551.34130859375
z: 0.026254232972860336
visibility: 0.9676496982574463
","x: 218.2408905029297
y: 552.807373046875
z: -0.15587863326072693
visibility: 0.972730278968811
","x: 286.8861999511719
y: 469.28955078125
z: 0.0
","x: 284.8697204589844
y: 472.9176330566406
z: -0.0002806404372677207
","x: 284.03936767578125
y: 477.75079345703125
z: -0.0004292051016818732
","x: 283.7052917480469
y: 481.4747314453125
z: -0.0009174959850497544
","x: 283.54071044921875
y: 484.2840576171875
z: -0.0012650620192289352
","x: 286.1197814941406
y: 481.80743408203125
z: 0.0011036854702979326
","x: 285.6918029785156
y: 486.536376953125
z: 6.832065264461562e-05
","x: 284.9814453125
y: 488.4955139160156
z: -0.0006668866844847798
","x: 284.30499267578125
y: 489.48388671875
z: -0.0009935437701642513
","x: 287.2907409667969
y: 481.84033203125
z: 0.00028486052178777754
","x: 286.78662109375
y: 486.5869140625
z: -0.0007053526933304965
","x: 285.7919616699219
y: 488.70098876953125
z: -0.0014368921983987093
","x: 284.7775573730469
y: 489.7479248046875
z: -0.0018493406241759658
","x: 288.329345703125
y: 481.271484375
z: -0.0008323446963913739
","x: 287.80950927734375
y: 485.90740966796875
z: -0.0019520062487572432
","x: 286.78253173828125
y: 487.9186706542969
z: -0.0024525653570890427
","x: 285.78033447265625
y: 488.916748046875
z: -0.002667863154783845
","x: 289.2208557128906
y: 480.087158203125
z: -0.002116937655955553
","x: 288.9635009765625
y: 484.1065673828125
z: -0.0030784644186496735
","x: 288.14886474609375
y: 485.88189697265625
z: -0.003383868606761098
","x: 287.22015380859375
y: 486.810302734375
z: -0.003466447116807103
",,,,,,,,,,,,,,,,,,,,,
5,"x: 272.2528381347656
y: 373.70721435546875
z: -0.45553088188171387
visibility: 0.9999779462814331
","x: 273.6827087402344
y: 368.8663024902344
z: -0.4488042891025543
visibility: 0.9999507069587708
","x: 274.6070861816406
y: 368.1315612792969
z: -0.4488081932067871
visibility: 0.9999353885650635
","x: 275.5310974121094
y: 367.3861999511719
z: -0.4488917291164398
visibility: 0.9999344944953918
","x: 270.6988830566406
y: 369.50799560546875
z: -0.45544204115867615
visibility: 0.9999596476554871
","x: 269.44610595703125
y: 369.1807556152344
z: -0.455538272857666
visibility: 0.9999591708183289
","x: 268.2095031738281
y: 368.9331359863281
z: -0.4555570185184479
visibility: 0.9999618530273438
","x: 276.5292663574219
y: 363.93548583984375
z: -0.36127427220344543
visibility: 0.9998509883880615
","x: 264.8118896484375
y: 364.6046142578125
z: -0.39135605096817017
visibility: 0.9999516606330872
","x: 273.5774841308594
y: 376.15618896484375
z: -0.4175029695034027
visibility: 0.9999589920043945
","x: 269.8134765625
y: 376.11279296875
z: -0.42646926641464233
visibility: 0.9999642968177795
","x: 282.0431213378906
y: 378.2584228515625
z: -0.23423174023628235
visibility: 0.9999667406082153
","x: 252.7910919189453
y: 381.3449401855469
z: -0.31363818049430847
visibility: 0.9999641180038452
","x: 286.30352783203125
y: 421.6720275878906
z: -0.1941462606191635
visibility: 0.9869431853294373
","x: 251.0301055908203
y: 427.54827880859375
z: -0.3165229856967926
visibility: 0.9948567152023315
","x: 285.4439697265625
y: 465.9376525878906
z: -0.25059011578559875
visibility: 0.9766831398010254
","x: 255.6029052734375
y: 468.64825439453125
z: -0.36369651556015015
visibility: 0.9845677018165588
","x: 286.4021911621094
y: 478.9501647949219
z: -0.2695292830467224
visibility: 0.9455273151397705
","x: 255.17454528808594
y: 481.1701965332031
z: -0.3967260718345642
visibility: 0.9609866738319397
","x: 284.0523376464844
y: 479.1870422363281
z: -0.2956860065460205
visibility: 0.950960099697113
","x: 257.951904296875
y: 480.9864807128906
z: -0.4095458388328552
visibility: 0.9622679352760315
","x: 282.9068908691406
y: 475.85986328125
z: -0.2624252140522003
visibility: 0.9458721280097961
","x: 258.5930480957031
y: 477.727294921875
z: -0.3694424033164978
visibility: 0.9464828968048096
","x: 266.4893798828125
y: 424.83782958984375
z: 0.024250339716672897
visibility: 0.9999703764915466
","x: 249.31068420410156
y: 421.2014465332031
z: -0.024255935102701187
visibility: 0.999944269657135
","x: 269.6015625
y: 481.4667053222656
z: -0.012778486125171185
visibility: 0.9565191268920898
","x: 235.07275390625
y: 472.7577209472656
z: -0.13998620212078094
visibility: 0.975464403629303
","x: 268.68505859375
y: 537.6453857421875
z: 0.08156745880842209
visibility: 0.9729334712028503
","x: 219.04263305664062
y: 530.037353515625
z: -0.08931025862693787
visibility: 0.9890220761299133
","x: 266.1907653808594
y: 546.18408203125
z: 0.08589554578065872
visibility: 0.9338517189025879
","x: 215.29075622558594
y: 541.1839599609375
z: -0.08912117779254913
visibility: 0.8300226926803589
","x: 276.19635009765625
y: 551.5282592773438
z: 0.0006504780612885952
visibility: 0.9698657393455505
","x: 219.5207061767578
y: 556.8854370117188
z: -0.19605733454227448
visibility: 0.9750609397888184
",,,,,,,,,,,,,,,,,,,,,,"x: 254.58346557617188
y: 475.4510192871094
z: 0.0
","x: 256.8631286621094
y: 480.5477600097656
z: 0.0005171523080207407
","x: 258.0531921386719
y: 485.99365234375
z: 0.0005345217068679631
","x: 258.1558532714844
y: 490.68505859375
z: -0.00022407890355680138
","x: 257.72784423828125
y: 493.9621276855469
z: -0.0006170563865453005
","x: 257.1985778808594
y: 490.7153015136719
z: 0.0032489399891346693
","x: 257.4891052246094
y: 496.69476318359375
z: 0.0018248754786327481
","x: 258.0694580078125
y: 497.30584716796875
z: 0.0010164414998143911
","x: 258.5006408691406
y: 496.3761901855469
z: 0.0007615984068252146
","x: 255.90225219726562
y: 491.03173828125
z: 0.0016837636940181255
","x: 256.0692443847656
y: 497.3714599609375
z: -9.331919136457145e-05
","x: 256.7166748046875
y: 497.46710205078125
z: -0.0011301826452836394
","x: 257.21844482421875
y: 495.9580993652344
z: -0.0012702906969934702
","x: 254.52618408203125
y: 490.57684326171875
z: -0.0003211140283383429
","x: 254.5938720703125
y: 496.22552490234375
z: -0.0017152725486084819
","x: 255.4867401123047
y: 496.47796630859375
z: -0.001917014131322503
","x: 256.23779296875
y: 495.3468017578125
z: -0.0016143753891810775
","x: 253.05238342285156
y: 489.479736328125
z: -0.002569671953096986
","x: 253.03073120117188
y: 494.01617431640625
z: -0.0032478116918355227
","x: 254.01463317871094
y: 495.4562072753906
z: -0.003286784514784813
","x: 255.0086669921875
y: 495.59765625
z: -0.0030248218681663275
"
6,"x: 272.2528381347656
y: 373.70721435546875
z: -0.45553088188171387
visibility: 0.9999779462814331
","x: 273.6827087402344
y: 368.8663024902344
z: -0.4488042891025543
visibility: 0.9999507069587708
","x: 274.6070861816406
y: 368.1315612792969
z: -0.4488081932067871
visibility: 0.9999353885650635
","x: 275.5310974121094
y: 367.3861999511719
z: -0.4488917291164398
visibility: 0.9999344944953918
","x: 270.6988830566406
y: 369.50799560546875
z: -0.45544204115867615
visibility: 0.9999596476554871
","x: 269.44610595703125
y: 369.1807556152344
z: -0.455538272857666
visibility: 0.9999591708183289
","x: 268.2095031738281
y: 368.9331359863281
z: -0.4555570185184479
visibility: 0.9999618530273438
","x: 276.5292663574219
y: 363.93548583984375
z: -0.36127427220344543
visibility: 0.9998509883880615
","x: 264.8118896484375
y: 364.6046142578125
z: -0.39135605096817017
visibility: 0.9999516606330872
","x: 273.5774841308594
y: 376.15618896484375
z: -0.4175029695034027
visibility: 0.9999589920043945
","x: 269.8134765625
y: 376.11279296875
z: -0.42646926641464233
visibility: 0.9999642968177795
","x: 282.0431213378906
y: 378.2584228515625
z: -0.23423174023628235
visibility: 0.9999667406082153
","x: 252.7910919189453
y: 381.3449401855469
z: -0.31363818049430847
visibility: 0.9999641180038452
","x: 286.30352783203125
y: 421.6720275878906
z: -0.1941462606191635
visibility: 0.9869431853294373
","x: 251.0301055908203
y: 427.54827880859375
z: -0.3165229856967926
visibility: 0.9948567152023315
","x: 285.4439697265625
y: 465.9376525878906
z: -0.25059011578559875
visibility: 0.9766831398010254
","x: 255.6029052734375
y: 468.64825439453125
z: -0.36369651556015015
visibility: 0.9845677018165588
","x: 286.4021911621094
y: 478.9501647949219
z: -0.2695292830467224
visibility: 0.9455273151397705
","x: 255.17454528808594
y: 481.1701965332031
z: -0.3967260718345642
visibility: 0.9609866738319397
","x: 284.0523376464844
y: 479.1870422363281
z: -0.2956860065460205
visibility: 0.950960099697113
","x: 257.951904296875
y: 480.9864807128906
z: -0.4095458388328552
visibility: 0.9622679352760315
","x: 282.9068908691406
y: 475.85986328125
z: -0.2624252140522003
visibility: 0.9458721280097961
","x: 258.5930480957031
y: 477.727294921875
z: -0.3694424033164978
visibility: 0.9464828968048096
","x: 266.4893798828125
y: 424.83782958984375
z: 0.024250339716672897
visibility: 0.9999703764915466
","x: 249.31068420410156
y: 421.2014465332031
z: -0.024255935102701187
visibility: 0.999944269657135
","x: 269.6015625
y: 481.4667053222656
z: -0.012778486125171185
visibility: 0.9565191268920898
","x: 235.07275390625
y: 472.7577209472656
z: -0.13998620212078094
visibility: 0.975464403629303
","x: 268.68505859375
y: 537.6453857421875
z: 0.08156745880842209
visibility: 0.9729334712028503
","x: 219.04263305664062
y: 530.037353515625
z: -0.08931025862693787
visibility: 0.9890220761299133
","x: 266.1907653808594
y: 546.18408203125
z: 0.08589554578065872
visibility: 0.9338517189025879
","x: 215.29075622558594
y: 541.1839599609375
z: -0.08912117779254913
visibility: 0.8300226926803589
","x: 276.19635009765625
y: 551.5282592773438
z: 0.0006504780612885952
visibility: 0.9698657393455505
","x: 219.5207061767578
y: 556.8854370117188
z: -0.19605733454227448
visibility: 0.9750609397888184
",,,,,,,,,,,,,,,,,,,,,,"x: 254.58346557617188
y: 475.4510192871094
z: 0.0
","x: 256.8631286621094
y: 480.5477600097656
z: 0.0005171523080207407
","x: 258.0531921386719
y: 485.99365234375
z: 0.0005345217068679631
","x: 258.1558532714844
y: 490.68505859375
z: -0.00022407890355680138
","x: 257.72784423828125
y: 493.9621276855469
z: -0.0006170563865453005
","x: 257.1985778808594
y: 490.7153015136719
z: 0.0032489399891346693
","x: 257.4891052246094
y: 496.69476318359375
z: 0.0018248754786327481
","x: 258.0694580078125
y: 497.30584716796875
z: 0.0010164414998143911
","x: 258.5006408691406
y: 496.3761901855469
z: 0.0007615984068252146
","x: 255.90225219726562
y: 491.03173828125
z: 0.0016837636940181255
","x: 256.0692443847656
y: 497.3714599609375
z: -9.331919136457145e-05
","x: 256.7166748046875
y: 497.46710205078125
z: -0.0011301826452836394
","x: 257.21844482421875
y: 495.9580993652344
z: -0.0012702906969934702
","x: 254.52618408203125
y: 490.57684326171875
z: -0.0003211140283383429
","x: 254.5938720703125
y: 496.22552490234375
z: -0.0017152725486084819
","x: 255.4867401123047
y: 496.47796630859375
z: -0.001917014131322503
","x: 256.23779296875
y: 495.3468017578125
z: -0.0016143753891810775
","x: 253.05238342285156
y: 489.479736328125
z: -0.002569671953096986
","x: 253.03073120117188
y: 494.01617431640625
z: -0.0032478116918355227
","x: 254.01463317871094
y: 495.4562072753906
z: -0.003286784514784813
","x: 255.0086669921875
y: 495.59765625
z: -0.0030248218681663275
"
7,"x: 265.7623291015625
y: 393.06646728515625
z: -0.4878782331943512
visibility: 0.9999797344207764
","x: 267.0560607910156
y: 387.9345397949219
z: -0.48095449805259705
visibility: 0.9999546408653259
","x: 267.89678955078125
y: 387.3240661621094
z: -0.4809252619743347
visibility: 0.9999406337738037
","x: 268.7204895019531
y: 386.7164611816406
z: -0.4810184836387634
visibility: 0.9999399185180664
","x: 264.14599609375
y: 388.49969482421875
z: -0.487254798412323
visibility: 0.9999629259109497
","x: 262.8392639160156
y: 388.18133544921875
z: -0.4873351454734802
visibility: 0.9999623894691467
","x: 261.4896545410156
y: 387.89349365234375
z: -0.4873327612876892
visibility: 0.9999647736549377
","x: 269.1591796875
y: 383.1662292480469
z: -0.39529523253440857
visibility: 0.9998636841773987
","x: 257.6974182128906
y: 385.59881591796875
z: -0.42349082231521606
visibility: 0.9999554753303528
","x: 266.6393737792969
y: 394.8388977050781
z: -0.45072633028030396
visibility: 0.9999620914459229
","x: 263.1479797363281
y: 394.8404541015625
z: -0.4590865969657898
visibility: 0.9999669790267944
","x: 275.2840270996094
y: 396.6566162109375
z: -0.27844157814979553
visibility: 0.9999677538871765
","x: 245.40383911132812
y: 399.0232849121094
z: -0.33828121423721313
visibility: 0.9999646544456482
","x: 277.7496337890625
y: 444.51763916015625
z: -0.2615513801574707
visibility: 0.987041175365448
","x: 244.19808959960938
y: 444.4498291015625
z: -0.3544524908065796
visibility: 0.9945183992385864
","x: 276.54302978515625
y: 485.10028076171875
z: -0.31125473976135254
visibility: 0.9768922328948975
","x: 246.48719787597656
y: 483.20635986328125
z: -0.39226004481315613
visibility: 0.9844878911972046
","x: 277.88433837890625
y: 497.6693420410156
z: -0.33222514390945435
visibility: 0.9459578394889832
","x: 245.94622802734375
y: 496.6604919433594
z: -0.4214293956756592
visibility: 0.961455225944519
","x: 275.81787109375
y: 497.2569274902344
z: -0.35196083784103394
visibility: 0.9513670206069946
","x: 249.00950622558594
y: 496.6943359375
z: -0.4341071546077728
visibility: 0.9625265002250671
","x: 274.8575134277344
y: 493.5084533691406
z: -0.3210771977901459
visibility: 0.9466426372528076
","x: 249.8743896484375
y: 492.85382080078125
z: -0.3985576927661896
visibility: 0.9470977783203125
","x: 264.0424499511719
y: 425.5693359375
z: 0.017082568258047104
visibility: 0.9999716877937317
","x: 245.7332000732422
y: 423.427734375
z: -0.01712791435420513
visibility: 0.9999480843544006
","x: 268.0083312988281
y: 480.49853515625
z: -0.10136020183563232
visibility: 0.9585763812065125
","x: 233.11839294433594
y: 475.0567932128906
z: -0.12795889377593994
visibility: 0.9764769077301025
","x: 268.0970764160156
y: 537.634521484375
z: -0.020439358428120613
visibility: 0.9744463562965393
","x: 219.77816772460938
y: 534.3326416015625
z: -0.02941533923149109
visibility: 0.9895644783973694
","x: 265.8010559082031
y: 546.1535034179688
z: -0.016504637897014618
visibility: 0.9364705085754395
","x: 217.67547607421875
y: 543.83935546875
z: -0.025115832686424255
visibility: 0.8383833765983582
","x: 276.3401794433594
y: 551.5208740234375
z: -0.10768356174230576
visibility: 0.9716939926147461
","x: 217.70379638671875
y: 554.5172729492188
z: -0.12194789946079254
visibility: 0.9761637449264526
","x: 275.1737060546875
y: 490.499755859375
z: 0.0
","x: 272.7492370605469
y: 494.6129150390625
z: -0.0004376939032226801
","x: 271.9243469238281
y: 500.5250244140625
z: -0.0009447694174014032
","x: 272.17230224609375
y: 505.41119384765625
z: -0.0018351635662838817
","x: 272.4178466796875
y: 508.9940185546875
z: -0.0024030576460063457
","x: 273.08416748046875
y: 504.2715148925781
z: -1.8302998796571046e-05
","x: 273.070556640625
y: 509.75634765625
z: -0.0014006162527948618
","x: 272.76580810546875
y: 509.9763488769531
z: -0.0017468974692746997
","x: 272.48260498046875
y: 509.53826904296875
z: -0.0017385064857080579
","x: 274.758056640625
y: 503.8670654296875
z: -0.000896781450137496
","x: 274.612060546875
y: 509.1312255859375
z: -0.0024802698753774166
","x: 274.037109375
y: 507.4444885253906
z: -0.002317768754437566
","x: 273.70404052734375
y: 505.2073669433594
z: -0.0016721448628231883
","x: 276.32855224609375
y: 502.9439697265625
z: -0.00205172598361969
","x: 276.1601867675781
y: 507.658447265625
z: -0.003354802029207349
","x: 275.5722351074219
y: 505.9698486328125
z: -0.002378562232479453
","x: 275.2419128417969
y: 503.958251953125
z: -0.0013366735074669123
","x: 277.80419921875
y: 501.4976501464844
z: -0.003440171480178833
","x: 277.62225341796875
y: 505.6387939453125
z: -0.0041283005848526955
","x: 276.9803161621094
y: 504.83685302734375
z: -0.0034593467134982347
","x: 276.57000732421875
y: 503.4778137207031
z: -0.0026386487297713757
",,,,,,,,,,,,,,,,,,,,,
8,"x: 265.7623291015625
y: 393.06646728515625
z: -0.4878782331943512
visibility: 0.9999797344207764
","x: 267.0560607910156
y: 387.9345397949219
z: -0.48095449805259705
visibility: 0.9999546408653259
","x: 267.89678955078125
y: 387.3240661621094
z: -0.4809252619743347
visibility: 0.9999406337738037
","x: 268.7204895019531
y: 386.7164611816406
z: -0.4810184836387634
visibility: 0.9999399185180664
","x: 264.14599609375
y: 388.49969482421875
z: -0.487254798412323
visibility: 0.9999629259109497
","x: 262.8392639160156
y: 388.18133544921875
z: -0.4873351454734802
visibility: 0.9999623894691467
","x: 261.4896545410156
y: 387.89349365234375
z: -0.4873327612876892
visibility: 0.9999647736549377
","x: 269.1591796875
y: 383.1662292480469
z: -0.39529523253440857
visibility: 0.9998636841773987
","x: 257.6974182128906
y: 385.59881591796875
z: -0.42349082231521606
visibility: 0.9999554753303528
","x: 266.6393737792969
y: 394.8388977050781
z: -0.45072633028030396
visibility: 0.9999620914459229
","x: 263.1479797363281
y: 394.8404541015625
z: -0.4590865969657898
visibility: 0.9999669790267944
","x: 275.2840270996094
y: 396.6566162109375
z: -0.27844157814979553
visibility: 0.9999677538871765
","x: 245.40383911132812
y: 399.0232849121094
z: -0.33828121423721313
visibility: 0.9999646544456482
","x: 277.7496337890625
y: 444.51763916015625
z: -0.2615513801574707
visibility: 0.987041175365448
","x: 244.19808959960938
y: 444.4498291015625
z: -0.3544524908065796
visibility: 0.9945183992385864
","x: 276.54302978515625
y: 485.10028076171875
z: -0.31125473976135254
visibility: 0.9768922328948975
","x: 246.48719787597656
y: 483.20635986328125
z: -0.39226004481315613
visibility: 0.9844878911972046
","x: 277.88433837890625
y: 497.6693420410156
z: -0.33222514390945435
visibility: 0.9459578394889832
","x: 245.94622802734375
y: 496.6604919433594
z: -0.4214293956756592
visibility: 0.961455225944519
","x: 275.81787109375
y: 497.2569274902344
z: -0.35196083784103394
visibility: 0.9513670206069946
","x: 249.00950622558594
y: 496.6943359375
z: -0.4341071546077728
visibility: 0.9625265002250671
","x: 274.8575134277344
y: 493.5084533691406
z: -0.3210771977901459
visibility: 0.9466426372528076
","x: 249.8743896484375
y: 492.85382080078125
z: -0.3985576927661896
visibility: 0.9470977783203125
","x: 264.0424499511719
y: 425.5693359375
z: 0.017082568258047104
visibility: 0.9999716877937317
","x: 245.7332000732422
y: 423.427734375
z: -0.01712791435420513
visibility: 0.9999480843544006
","x: 268.0083312988281
y: 480.49853515625
z: -0.10136020183563232
visibility: 0.9585763812065125
","x: 233.11839294433594
y: 475.0567932128906
z: -0.12795889377593994
visibility: 0.9764769077301025
","x: 268.0970764160156
y: 537.634521484375
z: -0.020439358428120613
visibility: 0.9744463562965393
","x: 219.77816772460938
y: 534.3326416015625
z: -0.02941533923149109
visibility: 0.9895644783973694
","x: 265.8010559082031
y: 546.1535034179688
z: -0.016504637897014618
visibility: 0.9364705085754395
","x: 217.67547607421875
y: 543.83935546875
z: -0.025115832686424255
visibility: 0.8383833765983582
","x: 276.3401794433594
y: 551.5208740234375
z: -0.10768356174230576
visibility: 0.9716939926147461
","x: 217.70379638671875
y: 554.5172729492188
z: -0.12194789946079254
visibility: 0.9761637449264526
","x: 275.1737060546875
y: 490.499755859375
z: 0.0
","x: 272.7492370605469
y: 494.6129150390625
z: -0.0004376939032226801
","x: 271.9243469238281
y: 500.5250244140625
z: -0.0009447694174014032
","x: 272.17230224609375
y: 505.41119384765625
z: -0.0018351635662838817
","x: 272.4178466796875
y: 508.9940185546875
z: -0.0024030576460063457
","x: 273.08416748046875
y: 504.2715148925781
z: -1.8302998796571046e-05
","x: 273.070556640625
y: 509.75634765625
z: -0.0014006162527948618
","x: 272.76580810546875
y: 509.9763488769531
z: -0.0017468974692746997
","x: 272.48260498046875
y: 509.53826904296875
z: -0.0017385064857080579
","x: 274.758056640625
y: 503.8670654296875
z: -0.000896781450137496
","x: 274.612060546875
y: 509.1312255859375
z: -0.0024802698753774166
","x: 274.037109375
y: 507.4444885253906
z: -0.002317768754437566
","x: 273.70404052734375
y: 505.2073669433594
z: -0.0016721448628231883
","x: 276.32855224609375
y: 502.9439697265625
z: -0.00205172598361969
","x: 276.1601867675781
y: 507.658447265625
z: -0.003354802029207349
","x: 275.5722351074219
y: 505.9698486328125
z: -0.002378562232479453
","x: 275.2419128417969
y: 503.958251953125
z: -0.0013366735074669123
","x: 277.80419921875
y: 501.4976501464844
z: -0.003440171480178833
","x: 277.62225341796875
y: 505.6387939453125
z: -0.0041283005848526955
","x: 276.9803161621094
y: 504.83685302734375
z: -0.0034593467134982347
","x: 276.57000732421875
y: 503.4778137207031
z: -0.0026386487297713757
",,,,,,,,,,,,,,,,,,,,,
9,"x: 255.13540649414062
y: 411.890625
z: -0.46006959676742554
visibility: 0.9999813437461853
","x: 256.6436767578125
y: 406.8471984863281
z: -0.45783287286758423
visibility: 0.9999582171440125
","x: 257.71783447265625
y: 406.3480224609375
z: -0.4578031003475189
visibility: 0.9999454021453857
","x: 258.732666015625
y: 405.86505126953125
z: -0.45790934562683105
visibility: 0.9999446868896484
","x: 253.31846618652344
y: 407.15325927734375
z: -0.4605344235897064
visibility: 0.9999657869338989
","x: 252.10223388671875
y: 406.76409912109375
z: -0.4606001377105713
visibility: 0.9999650120735168
","x: 250.89219665527344
y: 406.2359313964844
z: -0.46059513092041016
visibility: 0.999967098236084
","x: 259.3937072753906
y: 402.5755615234375
z: -0.38710254430770874
visibility: 0.9998754858970642
","x: 248.1072540283203
y: 401.9537353515625
z: -0.3959439694881439
visibility: 0.9999589323997498
","x: 256.7994689941406
y: 412.42181396484375
z: -0.42626938223838806
visibility: 0.9999648332595825
","x: 252.40460205078125
y: 413.15869140625
z: -0.42957621812820435
visibility: 0.9999693036079407
","x: 265.307373046875
y: 414.4259338378906
z: -0.27213048934936523
visibility: 0.9999649524688721
","x: 235.68763732910156
y: 413.4576110839844
z: -0.30798017978668213
visibility: 0.9999644756317139
","x: 266.3377380371094
y: 461.4313049316406
z: -0.2639077305793762
visibility: 0.9844861626625061
","x: 233.5289306640625
y: 457.6744079589844
z: -0.3179487884044647
visibility: 0.9938769936561584
","x: 266.70977783203125
y: 502.2841796875
z: -0.32060152292251587
visibility: 0.9719097018241882
","x: 236.7481689453125
y: 496.5699768066406
z: -0.35448700189590454
visibility: 0.9834672212600708
","x: 267.85882568359375
y: 515.2127685546875
z: -0.34327447414398193
visibility: 0.9370571374893188
","x: 236.18572998046875
y: 509.4532470703125
z: -0.37819668650627136
visibility: 0.9597645998001099
","x: 266.1443176269531
y: 515.281005859375
z: -0.36038440465927124
visibility: 0.9437081813812256
","x: 238.7798309326172
y: 510.24371337890625
z: -0.39109665155410767
visibility: 0.9610230326652527
","x: 264.94195556640625
y: 511.9189758300781
z: -0.3300120532512665
visibility: 0.939418613910675
","x: 239.15916442871094
y: 506.5413818359375
z: -0.3604148030281067
visibility: 0.9462842345237732
","x: 257.0307312011719
y: 439.4857177734375
z: 0.004801398608833551
visibility: 0.9999722242355347
","x: 238.3289794921875
y: 435.849853515625
z: -0.004804798401892185
visibility: 0.9999516606330872
","x: 266.3058166503906
y: 482.4940185546875
z: -0.14017830789089203
visibility: 0.9605395197868347
","x: 225.89138793945312
y: 482.11474609375
z: -0.11911524832248688
visibility: 0.9772118926048279
","x: 267.8870849609375
y: 537.49755859375
z: -0.03410542756319046
visibility: 0.9756285548210144
","x: 220.18589782714844
y: 538.4869995117188
z: 0.01559530757367611
visibility: 0.9894848465919495
","x: 265.61627197265625
y: 546.0158081054688
z: -0.027720993384718895
visibility: 0.9386128783226013
","x: 218.90545654296875
y: 547.2687377929688
z: 0.023925868794322014
visibility: 0.8465003371238708
","x: 276.516357421875
y: 552.0617065429688
z: -0.11505423486232758
visibility: 0.9727978706359863
","x: 212.23526000976562
y: 554.3046875
z: -0.06295235455036163
visibility: 0.9759054780006409
",,,,,,,,,,,,,,,,,,,,,,,,,,,,,,,,,,,,,,,,,,
10,"x: 244.0269775390625
y: 420.87445068359375
z: -0.4565599858760834
visibility: 0.9999815225601196
","x: 245.2539520263672
y: 414.8695068359375
z: -0.4557516574859619
visibility: 0.9999586343765259
","x: 246.17124938964844
y: 413.91961669921875
z: -0.4557367265224457
visibility: 0.9999471306800842
","x: 246.99034118652344
y: 412.98748779296875
z: -0.4558345377445221
visibility: 0.9999465942382812
","x: 241.8051300048828
y: 415.7959289550781
z: -0.45856600999832153
visibility: 0.9999653697013855
","x: 240.30516052246094
y: 415.3049011230469
z: -0.45861998200416565
visibility: 0.9999634027481079
","x: 238.8495635986328
y: 414.7676086425781
z: -0.45860424637794495
visibility: 0.9999643564224243
","x: 247.38909912109375
y: 408.61669921875
z: -0.3863212466239929
visibility: 0.9998838901519775
","x: 236.37535095214844
y: 409.61505126953125
z: -0.3971847891807556
visibility: 0.999958336353302
","x: 245.5427703857422
y: 419.72186279296875
z: -0.42319244146347046
visibility: 0.999966025352478
","x: 241.3035430908203
y: 420.9646911621094
z: -0.42669838666915894
visibility: 0.9999696016311646
","x: 254.84884643554688
y: 415.18963623046875
z: -0.27185243368148804
visibility: 0.9999656081199646
","x: 225.7884521484375
y: 419.64776611328125
z: -0.29737168550491333
visibility: 0.9999618530273438
","x: 255.79713439941406
y: 463.2464904785156
z: -0.252785325050354
visibility: 0.9843361377716064
","x: 225.57479858398438
y: 460.3563232421875
z: -0.2901424765586853
visibility: 0.9933185577392578
","x: 253.33517456054688
y: 502.5116271972656
z: -0.3202519714832306
visibility: 0.9728827476501465
","x: 227.128173828125
y: 500.3427734375
z: -0.32128268480300903
visibility: 0.9834387898445129
","x: 253.2578125
y: 516.0901489257812
z: -0.3373338580131531
visibility: 0.9392737150192261
","x: 226.6325225830078
y: 512.0997314453125
z: -0.34479469060897827
visibility: 0.9601536989212036
","x: 251.28787231445312
y: 517.0896606445312
z: -0.3352653384208679
visibility: 0.9454975724220276
","x: 229.5335693359375
y: 512.4149169921875
z: -0.35981929302215576
visibility: 0.9612993597984314
","x: 250.6977081298828
y: 513.1199340820312
z: -0.3126972019672394
visibility: 0.9414200186729431
","x: 229.94122314453125
y: 509.71624755859375
z: -0.3281780779361725
visibility: 0.947439432144165
","x: 249.7353515625
y: 431.2808532714844
z: 0.0039696479216217995
visibility: 0.9999740123748779
","x: 230.81321716308594
y: 432.6025085449219
z: -0.003932264167815447
visibility: 0.9999554753303528
","x: 263.4720458984375
y: 480.0305480957031
z: -0.11898918449878693
visibility: 0.9613979458808899
","x: 223.00320434570312
y: 481.1473388671875
z: -0.13448700308799744
visibility: 0.9753305315971375
","x: 267.8902893066406
y: 537.8770751953125
z: -0.040096480399370193
visibility: 0.9761866331100464
","x: 220.40463256835938
y: 537.3233642578125
z: -0.04333727806806564
visibility: 0.9888181090354919
","x: 265.4504699707031
y: 546.2657470703125
z: -0.03700381517410278
visibility: 0.9363162517547607
","x: 219.7664337158203
y: 546.22119140625
z: -0.038171540945768356
visibility: 0.8508273959159851
","x: 276.51312255859375
y: 552.1976318359375
z: -0.12806448340415955
visibility: 0.9729453921318054
","x: 212.32667541503906
y: 554.221435546875
z: -0.1275327503681183
visibility: 0.9755232930183411
",,,,,,,,,,,,,,,,,,,,,,,,,,,,,,,,,,,,,,,,,,
11,"x: 234.16354370117188
y: 415.04522705078125
z: -0.4517618715763092
visibility: 0.99997478723526
","x: 235.27304077148438
y: 410.0191650390625
z: -0.4502926766872406
visibility: 0.9999427199363708
","x: 236.1614990234375
y: 409.27484130859375
z: -0.45031529664993286
visibility: 0.9999316930770874
","x: 236.95401000976562
y: 408.4674072265625
z: -0.450434148311615
visibility: 0.999932050704956
","x: 232.1232147216797
y: 410.5015869140625
z: -0.45317941904067993
visibility: 0.9999489784240723
","x: 230.85845947265625
y: 410.22686767578125
z: -0.4532283842563629
visibility: 0.999938428401947
","x: 229.61549377441406
y: 409.9879455566406
z: -0.45323166251182556
visibility: 0.9999346137046814
","x: 237.55706787109375
y: 404.41766357421875
z: -0.3820211887359619
visibility: 0.9998735189437866
","x: 227.00180053710938
y: 406.2569580078125
z: -0.39180657267570496
visibility: 0.9999308586120605
","x: 235.79798889160156
y: 414.7784118652344
z: -0.4186095595359802
visibility: 0.999957799911499
","x: 231.79367065429688
y: 415.8253173828125
z: -0.42209354043006897
visibility: 0.9999591708183289
","x: 246.2635498046875
y: 412.06658935546875
z: -0.2726597189903259
visibility: 0.9999598264694214
","x: 216.31947326660156
y: 419.7213134765625
z: -0.29337722063064575
visibility: 0.9999394416809082
","x: 247.49221801757812
y: 458.9171142578125
z: -0.2582595944404602
visibility: 0.9822912216186523
","x: 216.74160766601562
y: 463.7536315917969
z: -0.29147595167160034
visibility: 0.9889979362487793
","x: 241.70556640625
y: 498.7918701171875
z: -0.3026218116283417
visibility: 0.9697033166885376
","x: 218.93283081054688
y: 497.0708923339844
z: -0.32320138812065125
visibility: 0.9761760830879211
","x: 240.8767852783203
y: 512.1402587890625
z: -0.3219047486782074
visibility: 0.9339223504066467
","x: 217.8942108154297
y: 509.58184814453125
z: -0.3459153175354004
visibility: 0.9490086436271667
","x: 238.41616821289062
y: 513.3311767578125
z: -0.33462101221084595
visibility: 0.9401884078979492
","x: 220.51406860351562
y: 507.8655700683594
z: -0.36161643266677856
visibility: 0.9505237340927124
","x: 238.36402893066406
y: 509.0313720703125
z: -0.30645835399627686
visibility: 0.9362058043479919
","x: 221.54808044433594
y: 504.6893615722656
z: -0.33045369386672974
visibility: 0.9371471405029297
","x: 242.02365112304688
y: 431.111083984375
z: 0.0031038946472108364
visibility: 0.9999719262123108
","x: 223.14076232910156
y: 435.7818298339844
z: -0.0030556656420230865
visibility: 0.9999552965164185
","x: 259.9958801269531
y: 480.7768249511719
z: -0.11921298503875732
visibility: 0.962038516998291
","x: 219.57066345214844
y: 485.7940979003906
z: -0.13221080601215363
visibility: 0.9731517434120178
","x: 267.5250244140625
y: 538.6342163085938
z: -0.02719687484204769
visibility: 0.976290762424469
","x: 220.5286865234375
y: 537.8513793945312
z: -0.03661539405584335
visibility: 0.9877234697341919
","x: 265.3227233886719
y: 546.9957885742188
z: -0.02265987917780876
visibility: 0.9347980618476868
","x: 221.6964569091797
y: 546.9754638671875
z: -0.031735703349113464
visibility: 0.8538069725036621
","x: 276.8304443359375
y: 553.0029907226562
z: -0.1088341698050499
visibility: 0.971659243106842
","x: 212.64305114746094
y: 554.1324462890625
z: -0.12310059368610382
visibility: 0.9736728668212891
","x: 239.43809509277344
y: 502.54901123046875
z: 0.0
","x: 236.8738250732422
y: 506.7784423828125
z: -0.0003766567097045481
","x: 235.60061645507812
y: 512.1334228515625
z: -0.0012129487004131079
","x: 235.2859344482422
y: 516.727294921875
z: -0.002734152367338538
","x: 235.30484008789062
y: 520.2054443359375
z: -0.0038315539713948965
","x: 236.744384765625
y: 519.8170166015625
z: 0.0014793194131925702
","x: 236.19068908691406
y: 526.0372314453125
z: -0.0006758945528417826
","x: 234.9946746826172
y: 526.2424926757812
z: -0.0019130578730255365
","x: 234.09356689453125
y: 524.9295654296875
z: -0.002380518475547433
","x: 238.05987548828125
y: 519.7052001953125
z: -4.287605042918585e-05
","x: 237.27467346191406
y: 525.942626953125
z: -0.0019420559983700514
","x: 235.91607666015625
y: 525.986572265625
z: -0.0027501184958964586
","x: 235.02120971679688
y: 524.4698486328125
z: -0.002935670781880617
","x: 239.39707946777344
y: 518.8886108398438
z: -0.0020956748630851507
","x: 238.56427001953125
y: 524.2243041992188
z: -0.003862278303131461
","x: 237.191162109375
y: 524.4637451171875
z: -0.003873585257679224
","x: 236.2855224609375
y: 523.2933349609375
z: -0.0035471301525831223
","x: 240.71734619140625
y: 517.2030029296875
z: -0.004462547600269318
","x: 240.0771026611328
y: 521.37353515625
z: -0.005689837038516998
","x: 239.0138397216797
y: 522.0758666992188
z: -0.005504284985363483
","x: 238.1948699951172
y: 521.4793701171875
z: -0.005052405875176191
",,,,,,,,,,,,,,,,,,,,,
12,"x: 234.16354370117188
y: 415.04522705078125
z: -0.4517618715763092
visibility: 0.99997478723526
","x: 235.27304077148438
y: 410.0191650390625
z: -0.4502926766872406
visibility: 0.9999427199363708
","x: 236.1614990234375
y: 409.27484130859375
z: -0.45031529664993286
visibility: 0.9999316930770874
","x: 236.95401000976562
y: 408.4674072265625
z: -0.450434148311615
visibility: 0.999932050704956
","x: 232.1232147216797
y: 410.5015869140625
z: -0.45317941904067993
visibility: 0.9999489784240723
","x: 230.85845947265625
y: 410.22686767578125
z: -0.4532283842563629
visibility: 0.999938428401947
","x: 229.61549377441406
y: 409.9879455566406
z: -0.45323166251182556
visibility: 0.9999346137046814
","x: 237.55706787109375
y: 404.41766357421875
z: -0.3820211887359619
visibility: 0.9998735189437866
","x: 227.00180053710938
y: 406.2569580078125
z: -0.39180657267570496
visibility: 0.9999308586120605
","x: 235.79798889160156
y: 414.7784118652344
z: -0.4186095595359802
visibility: 0.999957799911499
","x: 231.79367065429688
y: 415.8253173828125
z: -0.42209354043006897
visibility: 0.9999591708183289
","x: 246.2635498046875
y: 412.06658935546875
z: -0.2726597189903259
visibility: 0.9999598264694214
","x: 216.31947326660156
y: 419.7213134765625
z: -0.29337722063064575
visibility: 0.9999394416809082
","x: 247.49221801757812
y: 458.9171142578125
z: -0.2582595944404602
visibility: 0.9822912216186523
","x: 216.74160766601562
y: 463.7536315917969
z: -0.29147595167160034
visibility: 0.9889979362487793
","x: 241.70556640625
y: 498.7918701171875
z: -0.3026218116283417
visibility: 0.9697033166885376
","x: 218.93283081054688
y: 497.0708923339844
z: -0.32320138812065125
visibility: 0.9761760830879211
","x: 240.8767852783203
y: 512.1402587890625
z: -0.3219047486782074
visibility: 0.9339223504066467
","x: 217.8942108154297
y: 509.58184814453125
z: -0.3459153175354004
visibility: 0.9490086436271667
","x: 238.41616821289062
y: 513.3311767578125
z: -0.33462101221084595
visibility: 0.9401884078979492
","x: 220.51406860351562
y: 507.8655700683594
z: -0.36161643266677856
visibility: 0.9505237340927124
","x: 238.36402893066406
y: 509.0313720703125
z: -0.30645835399627686
visibility: 0.9362058043479919
","x: 221.54808044433594
y: 504.6893615722656
z: -0.33045369386672974
visibility: 0.9371471405029297
","x: 242.02365112304688
y: 431.111083984375
z: 0.0031038946472108364
visibility: 0.9999719262123108
","x: 223.14076232910156
y: 435.7818298339844
z: -0.0030556656420230865
visibility: 0.9999552965164185
","x: 259.9958801269531
y: 480.7768249511719
z: -0.11921298503875732
visibility: 0.962038516998291
","x: 219.57066345214844
y: 485.7940979003906
z: -0.13221080601215363
visibility: 0.9731517434120178
","x: 267.5250244140625
y: 538.6342163085938
z: -0.02719687484204769
visibility: 0.976290762424469
","x: 220.5286865234375
y: 537.8513793945312
z: -0.03661539405584335
visibility: 0.9877234697341919
","x: 265.3227233886719
y: 546.9957885742188
z: -0.02265987917780876
visibility: 0.9347980618476868
","x: 221.6964569091797
y: 546.9754638671875
z: -0.031735703349113464
visibility: 0.8538069725036621
","x: 276.8304443359375
y: 553.0029907226562
z: -0.1088341698050499
visibility: 0.971659243106842
","x: 212.64305114746094
y: 554.1324462890625
z: -0.12310059368610382
visibility: 0.9736728668212891
","x: 239.43809509277344
y: 502.54901123046875
z: 0.0
","x: 236.8738250732422
y: 506.7784423828125
z: -0.0003766567097045481
","x: 235.60061645507812
y: 512.1334228515625
z: -0.0012129487004131079
","x: 235.2859344482422
y: 516.727294921875
z: -0.002734152367338538
","x: 235.30484008789062
y: 520.2054443359375
z: -0.0038315539713948965
","x: 236.744384765625
y: 519.8170166015625
z: 0.0014793194131925702
","x: 236.19068908691406
y: 526.0372314453125
z: -0.0006758945528417826
","x: 234.9946746826172
y: 526.2424926757812
z: -0.0019130578730255365
","x: 234.09356689453125
y: 524.9295654296875
z: -0.002380518475547433
","x: 238.05987548828125
y: 519.7052001953125
z: -4.287605042918585e-05
","x: 237.27467346191406
y: 525.942626953125
z: -0.0019420559983700514
","x: 235.91607666015625
y: 525.986572265625
z: -0.0027501184958964586
","x: 235.02120971679688
y: 524.4698486328125
z: -0.002935670781880617
","x: 239.39707946777344
y: 518.8886108398438
z: -0.0020956748630851507
","x: 238.56427001953125
y: 524.2243041992188
z: -0.003862278303131461
","x: 237.191162109375
y: 524.4637451171875
z: -0.003873585257679224
","x: 236.2855224609375
y: 523.2933349609375
z: -0.0035471301525831223
","x: 240.71734619140625
y: 517.2030029296875
z: -0.004462547600269318
","x: 240.0771026611328
y: 521.37353515625
z: -0.005689837038516998
","x: 239.0138397216797
y: 522.0758666992188
z: -0.005504284985363483
","x: 238.1948699951172
y: 521.4793701171875
z: -0.005052405875176191
",,,,,,,,,,,,,,,,,,,,,
13,"x: 225.07102966308594
y: 407.03619384765625
z: -0.4569800794124603
visibility: 0.9999763369560242
","x: 226.43252563476562
y: 401.7259521484375
z: -0.453701913356781
visibility: 0.9999459385871887
","x: 227.45175170898438
y: 401.0699768066406
z: -0.45370835065841675
visibility: 0.9999362826347351
","x: 228.45008850097656
y: 400.43646240234375
z: -0.45380496978759766
visibility: 0.9999363422393799
","x: 223.27871704101562
y: 402.16986083984375
z: -0.45651474595069885
visibility: 0.9999511241912842
","x: 222.09471130371094
y: 401.830078125
z: -0.45656704902648926
visibility: 0.9999402761459351
","x: 220.94989013671875
y: 401.50103759765625
z: -0.45656314492225647
visibility: 0.9999356865882874
","x: 230.4012908935547
y: 397.072265625
z: -0.3879427909851074
visibility: 0.9998835325241089
","x: 219.27940368652344
y: 397.999267578125
z: -0.3827701807022095
visibility: 0.9999322891235352
","x: 226.91085815429688
y: 407.666259765625
z: -0.4220966696739197
visibility: 0.9999606609344482
","x: 223.39169311523438
y: 408.53521728515625
z: -0.4246393144130707
visibility: 0.9999614953994751
","x: 241.65615844726562
y: 409.71734619140625
z: -0.28563350439071655
visibility: 0.9999628663063049
","x: 209.93788146972656
y: 412.61041259765625
z: -0.2743254601955414
visibility: 0.9999441504478455
","x: 240.1398468017578
y: 455.7227783203125
z: -0.2757877707481384
visibility: 0.9835309386253357
","x: 208.68360900878906
y: 458.41064453125
z: -0.2538596987724304
visibility: 0.9889538288116455
","x: 233.7578887939453
y: 495.238525390625
z: -0.307392954826355
visibility: 0.9717357158660889
","x: 209.9530792236328
y: 493.20867919921875
z: -0.289731502532959
visibility: 0.976650059223175
","x: 232.80174255371094
y: 507.68048095703125
z: -0.33021172881126404
visibility: 0.9380796551704407
","x: 208.73629760742188
y: 505.8839416503906
z: -0.3097327947616577
visibility: 0.9492953419685364
","x: 230.0954132080078
y: 508.2364501953125
z: -0.34385162591934204
visibility: 0.9439650177955627
","x: 211.72877502441406
y: 504.6800231933594
z: -0.32870399951934814
visibility: 0.9510078430175781
","x: 229.762451171875
y: 503.90325927734375
z: -0.3131592869758606
visibility: 0.9394286870956421
","x: 212.9188232421875
y: 501.37689208984375
z: -0.2980145514011383
visibility: 0.9381572604179382
","x: 238.82052612304688
y: 432.00311279296875
z: -0.0016894845757633448
visibility: 0.9999714493751526
","x: 219.6793670654297
y: 435.6229248046875
z: 0.001767273643054068
visibility: 0.999957263469696
","x: 257.710693359375
y: 481.032958984375
z: -0.11527542769908905
visibility: 0.9637248516082764
","x: 215.13934326171875
y: 484.5540771484375
z: -0.13097785413265228
visibility: 0.9725745320320129
","x: 267.52880859375
y: 538.5746459960938
z: -0.028992677107453346
visibility: 0.9773389101028442
","x: 219.8539581298828
y: 537.2197265625
z: -0.021292351186275482
visibility: 0.9868284463882446
","x: 265.34295654296875
y: 546.8031005859375
z: -0.025491034612059593
visibility: 0.9357928037643433
","x: 221.8223876953125
y: 547.246826171875
z: -0.014008671045303345
visibility: 0.860536515712738
","x: 276.77392578125
y: 553.0559692382812
z: -0.11479344218969345
visibility: 0.9721196293830872
","x: 210.7631378173828
y: 553.4174194335938
z: -0.10418657213449478
visibility: 0.9730706214904785
",,,,,,,,,,,,,,,,,,,,,,,,,,,,,,,,,,,,,,,,,,
14,"x: 221.7843475341797
y: 402.772705078125
z: -0.4585748612880707
visibility: 0.9999766945838928
","x: 223.3705596923828
y: 398.18707275390625
z: -0.4561913013458252
visibility: 0.9999465346336365
","x: 224.51686096191406
y: 397.85345458984375
z: -0.45620042085647583
visibility: 0.9999380707740784
","x: 225.59129333496094
y: 397.4258117675781
z: -0.45632535219192505
visibility: 0.9999381303787231
","x: 219.73580932617188
y: 397.7828369140625
z: -0.45878905057907104
visibility: 0.9999498128890991
","x: 218.32015991210938
y: 397.1641540527344
z: -0.45884785056114197
visibility: 0.9999361038208008
","x: 216.92181396484375
y: 396.4880065917969
z: -0.45885100960731506
visibility: 0.9999294281005859
","x: 227.24594116210938
y: 393.6566467285156
z: -0.3903543949127197
visibility: 0.9998902678489685
","x: 214.74440002441406
y: 392.72509765625
z: -0.3830304443836212
visibility: 0.999923586845398
","x: 223.6328887939453
y: 405.8764343261719
z: -0.42431291937828064
visibility: 0.9999622702598572
","x: 219.76681518554688
y: 405.4549560546875
z: -0.4270278811454773
visibility: 0.9999623894691467
","x: 237.31124877929688
y: 409.357421875
z: -0.2971494793891907
visibility: 0.9999653100967407
","x: 204.46897888183594
y: 407.4154052734375
z: -0.26885467767715454
visibility: 0.9999468922615051
","x: 235.51739501953125
y: 452.73486328125
z: -0.28790169954299927
visibility: 0.9842270612716675
","x: 201.6263885498047
y: 452.96142578125
z: -0.2418520450592041
visibility: 0.9882692098617554
","x: 227.539794921875
y: 493.2229919433594
z: -0.3148270547389984
visibility: 0.9728124141693115
","x: 201.19789123535156
y: 492.0594787597656
z: -0.2724516987800598
visibility: 0.9757573008537292
","x: 227.46762084960938
y: 505.134521484375
z: -0.33824560046195984
visibility: 0.9403648972511292
","x: 200.3882598876953
y: 504.83203125
z: -0.28988736867904663
visibility: 0.9466614723205566
","x: 225.09776306152344
y: 505.58575439453125
z: -0.3507070243358612
visibility: 0.9459268450737
","x: 202.45431518554688
y: 504.0666198730469
z: -0.3089417815208435
visibility: 0.9486216902732849
","x: 224.4656524658203
y: 501.38055419921875
z: -0.3196480870246887
visibility: 0.9397536516189575
","x: 203.12545776367188
y: 500.3722839355469
z: -0.2804945707321167
visibility: 0.9356321692466736
","x: 236.22515869140625
y: 432.7386779785156
z: -0.003503835992887616
visibility: 0.9999675750732422
","x: 216.9578857421875
y: 438.29266357421875
z: 0.0035490249283611774
visibility: 0.9999549388885498
","x: 256.7166748046875
y: 480.9762878417969
z: -0.1359855979681015
visibility: 0.9652289748191833
","x: 211.76036071777344
y: 487.4407958984375
z: -0.12976250052452087
visibility: 0.9712785482406616
","x: 267.538330078125
y: 537.62060546875
z: -0.03599671646952629
visibility: 0.9782746434211731
","x: 219.64752197265625
y: 537.0256958007812
z: -0.00034861156018450856
visibility: 0.9859104752540588
","x: 265.4665832519531
y: 546.25390625
z: -0.03129657357931137
visibility: 0.9363393783569336
","x: 222.1712188720703
y: 547.4210815429688
z: 0.00835904199630022
visibility: 0.8667111992835999
","x: 276.0840148925781
y: 553.0301513671875
z: -0.12248513847589493
visibility: 0.9724369049072266
","x: 209.89041137695312
y: 553.3203125
z: -0.079474076628685
visibility: 0.9720243811607361
",,,,,,,,,,,,,,,,,,,,,,,,,,,,,,,,,,,,,,,,,,
15,"x: 217.7658233642578
y: 388.29974365234375
z: -0.4752388000488281
visibility: 0.9999765753746033
","x: 219.19288635253906
y: 383.66204833984375
z: -0.47405868768692017
visibility: 0.9999456405639648
","x: 220.30618286132812
y: 383.3541259765625
z: -0.4740447998046875
visibility: 0.9999378323554993
","x: 221.39561462402344
y: 382.9580993652344
z: -0.47414731979370117
visibility: 0.9999382495880127
","x: 215.8519287109375
y: 383.232421875
z: -0.47116485238075256
visibility: 0.999947190284729
","x: 214.57630920410156
y: 382.69873046875
z: -0.47123199701309204
visibility: 0.9999306797981262
","x: 213.3015899658203
y: 382.10211181640625
z: -0.4712623953819275
visibility: 0.9999232292175293
","x: 222.78915405273438
y: 380.91741943359375
z: -0.40584588050842285
visibility: 0.99989253282547
","x: 210.77572631835938
y: 380.1723937988281
z: -0.38715294003486633
visibility: 0.9999063611030579
","x: 219.34674072265625
y: 390.794189453125
z: -0.4433916509151459
visibility: 0.999963641166687
","x: 215.677734375
y: 390.550537109375
z: -0.4393866956233978
visibility: 0.9999629855155945
","x: 232.2386474609375
y: 400.1502990722656
z: -0.31958553194999695
visibility: 0.9999681115150452
","x: 200.9231414794922
y: 397.720703125
z: -0.27279573678970337
visibility: 0.9999507069587708
","x: 231.37049865722656
y: 451.19158935546875
z: -0.3108750879764557
visibility: 0.9850156903266907
","x: 197.35208129882812
y: 439.3269348144531
z: -0.240457683801651
visibility: 0.9879286289215088
","x: 225.6760711669922
y: 489.0011901855469
z: -0.3417050838470459
visibility: 0.9739718437194824
","x: 195.84986877441406
y: 480.9414978027344
z: -0.2739108204841614
visibility: 0.9758039116859436
","x: 225.80413818359375
y: 499.7873229980469
z: -0.36780720949172974
visibility: 0.9427064657211304
","x: 194.48814392089844
y: 494.0716552734375
z: -0.2911834418773651
visibility: 0.9461953639984131
","x: 223.5132293701172
y: 499.33050537109375
z: -0.381316214799881
visibility: 0.9479589462280273
","x: 196.85020446777344
y: 494.5267028808594
z: -0.31393587589263916
visibility: 0.9484891295433044
","x: 222.8675994873047
y: 496.3519287109375
z: -0.34688031673431396
visibility: 0.9400855898857117
","x: 198.12396240234375
y: 489.9173278808594
z: -0.2836049199104309
visibility: 0.9359815716743469
","x: 233.2613525390625
y: 430.15185546875
z: -0.010228336788713932
visibility: 0.9999640583992004
","x: 214.10552978515625
y: 436.87060546875
z: 0.01023889146745205
visibility: 0.9999502301216125
","x: 252.26980590820312
y: 477.9834289550781
z: -0.11875752359628677
visibility: 0.967142641544342
","x: 210.51168823242188
y: 487.3074645996094
z: -0.05274781584739685
visibility: 0.9675405025482178
","x: 267.3031921386719
y: 531.8550415039062
z: -0.022741470485925674
visibility: 0.979770839214325
","x: 219.4482421875
y: 537.0344848632812
z: 0.08416343480348587
visibility: 0.984449028968811
","x: 265.47637939453125
y: 538.5602416992188
z: -0.018595580011606216
visibility: 0.9358611702919006
","x: 222.1964569091797
y: 546.8138427734375
z: 0.09291470795869827
visibility: 0.8694765567779541
","x: 274.9959411621094
y: 551.6954956054688
z: -0.11497829854488373
visibility: 0.9735838174819946
","x: 210.09027099609375
y: 552.8388671875
z: 0.0038105170242488384
visibility: 0.9696720838546753
",,,,,,,,,,,,,,,,,,,,,,,,,,,,,,,,,,,,,,,,,,
16,"x: 215.29727172851562
y: 380.65570068359375
z: -0.506908118724823
visibility: 0.9999765157699585
","x: 216.78738403320312
y: 375.32757568359375
z: -0.506407618522644
visibility: 0.9999450445175171
","x: 217.83815002441406
y: 374.8853759765625
z: -0.5063884854316711
visibility: 0.9999373555183411
","x: 218.84567260742188
y: 374.40777587890625
z: -0.5064864158630371
visibility: 0.9999381899833679
","x: 213.76101684570312
y: 374.94439697265625
z: -0.502446174621582
visibility: 0.9999439120292664
","x: 212.66770935058594
y: 374.2300720214844
z: -0.5025290846824646
visibility: 0.9999243021011353
","x: 211.52879333496094
y: 373.52301025390625
z: -0.5025681257247925
visibility: 0.9999170899391174
","x: 220.34434509277344
y: 372.3004150390625
z: -0.43430042266845703
visibility: 0.9998948574066162
","x: 209.22451782226562
y: 371.0887145996094
z: -0.4136815071105957
visibility: 0.9998849630355835
","x: 216.82266235351562
y: 382.8094177246094
z: -0.473243772983551
visibility: 0.9999657869338989
","x: 213.7103271484375
y: 382.71990966796875
z: -0.4678775370121002
visibility: 0.9999642968177795
","x: 230.04275512695312
y: 388.1424560546875
z: -0.3533693552017212
visibility: 0.9999710917472839
","x: 200.47879028320312
y: 386.90771484375
z: -0.2795553505420685
visibility: 0.9999547004699707
","x: 230.17669677734375
y: 441.0101318359375
z: -0.35110366344451904
visibility: 0.9860740303993225
","x: 195.77197265625
y: 428.2017517089844
z: -0.23857316374778748
visibility: 0.9880484938621521
","x: 225.39662170410156
y: 481.63555908203125
z: -0.4009072184562683
visibility: 0.9753071665763855
","x: 194.46536254882812
y: 470.5896301269531
z: -0.2835925221443176
visibility: 0.975598156452179
","x: 226.76939392089844
y: 493.0342102050781
z: -0.4351022243499756
visibility: 0.9456799030303955
","x: 192.76657104492188
y: 484.4256591796875
z: -0.30105453729629517
visibility: 0.9454137682914734
","x: 223.9873046875
y: 492.65447998046875
z: -0.4489800035953522
visibility: 0.9506095051765442
","x: 195.11734008789062
y: 484.1441345214844
z: -0.32808998227119446
visibility: 0.9480513334274292
","x: 223.09567260742188
y: 488.89080810546875
z: -0.40684884786605835
visibility: 0.9410773515701294
","x: 196.5436248779297
y: 479.9087829589844
z: -0.2947814166545868
visibility: 0.9361011385917664
","x: 233.84857177734375
y: 429.283203125
z: -0.024663886055350304
visibility: 0.9999558925628662
","x: 216.2515411376953
y: 436.5911560058594
z: 0.024733683094382286
visibility: 0.9999194145202637
","x: 249.2483367919922
y: 477.831787109375
z: -0.09973398596048355
visibility: 0.9696813225746155
","x: 211.90182495117188
y: 486.90289306640625
z: 0.0531684048473835
visibility: 0.9605233073234558
","x: 266.3324279785156
y: 529.063232421875
z: 0.005706307478249073
visibility: 0.9815614819526672
","x: 219.5422821044922
y: 536.901123046875
z: 0.22591283917427063
visibility: 0.9813228249549866
","x: 265.4945983886719
y: 534.631103515625
z: 0.00935573223978281
visibility: 0.9354321360588074
","x: 222.41539001464844
y: 546.455322265625
z: 0.23845505714416504
visibility: 0.8704562783241272
","x: 272.9166259765625
y: 550.9964599609375
z: -0.10234185308218002
visibility: 0.9754530787467957
","x: 209.68296813964844
y: 551.1777954101562
z: 0.15397416055202484
visibility: 0.9663309454917908
",,,,,,,,,,,,,,,,,,,,,,,,,,,,,,,,,,,,,,,,,,
17,"x: 213.74305725097656
y: 373.33087158203125
z: -0.5068883895874023
visibility: 0.9999738931655884
","x: 215.059814453125
y: 367.2525634765625
z: -0.5043389201164246
visibility: 0.9999372959136963
","x: 216.13148498535156
y: 366.8121032714844
z: -0.5043179392814636
visibility: 0.9999297857284546
","x: 217.20248413085938
y: 366.3191223144531
z: -0.504411518573761
visibility: 0.9999303817749023
","x: 211.81764221191406
y: 366.8257141113281
z: -0.5003392100334167
visibility: 0.9999322891235352
","x: 210.57635498046875
y: 366.2889404296875
z: -0.5004174113273621
visibility: 0.9999092817306519
","x: 209.31996154785156
y: 365.7419128417969
z: -0.5004551410675049
visibility: 0.9999004602432251
","x: 218.6125030517578
y: 364.3681640625
z: -0.4297434687614441
visibility: 0.999883234500885
","x: 206.3439178466797
y: 364.490478515625
z: -0.41053757071495056
visibility: 0.999830424785614
","x: 215.45372009277344
y: 376.6296691894531
z: -0.4733297824859619
visibility: 0.9999656677246094
","x: 212.03341674804688
y: 376.115234375
z: -0.4679737687110901
visibility: 0.9999626278877258
","x: 228.75149536132812
y: 382.9523010253906
z: -0.35286369919776917
visibility: 0.9999735951423645
","x: 198.06259155273438
y: 384.18292236328125
z: -0.2730334401130676
visibility: 0.9999576210975647
","x: 229.95950317382812
y: 433.2058410644531
z: -0.34947770833969116
visibility: 0.9869564771652222
","x: 194.5013427734375
y: 425.3697204589844
z: -0.22278332710266113
visibility: 0.9880222082138062
","x: 225.87200927734375
y: 474.2490234375
z: -0.3993871808052063
visibility: 0.9764834642410278
","x: 194.4061279296875
y: 466.05816650390625
z: -0.2675776481628418
visibility: 0.9760469198226929
","x: 226.90621948242188
y: 486.900390625
z: -0.4324890971183777
visibility: 0.9484899640083313
","x: 193.4156036376953
y: 478.43157958984375
z: -0.28320956230163574
visibility: 0.9463472366333008
","x: 224.4230194091797
y: 486.6407470703125
z: -0.4465204179286957
visibility: 0.9530613422393799
","x: 195.66043090820312
y: 478.0250549316406
z: -0.31226646900177
visibility: 0.9492051005363464
","x: 223.5784454345703
y: 483.4472351074219
z: -0.4051123559474945
visibility: 0.9420366883277893
","x: 196.76333618164062
y: 474.08673095703125
z: -0.2794002890586853
visibility: 0.9377787709236145
","x: 233.25540161132812
y: 425.2939453125
z: -0.028415169566869736
visibility: 0.9999504089355469
","x: 216.62350463867188
y: 432.5968017578125
z: 0.028456926345825195
visibility: 0.9998883008956909
","x: 248.5110626220703
y: 476.6860656738281
z: -0.08246176689863205
visibility: 0.9723744988441467
","x: 213.5279541015625
y: 486.4840087890625
z: 0.09416815638542175
visibility: 0.9577745795249939
","x: 266.14007568359375
y: 526.9633178710938
z: 0.021541710942983627
visibility: 0.9833046197891235
","x: 219.53781127929688
y: 536.7649536132812
z: 0.274221271276474
visibility: 0.9806845784187317
","x: 266.3716735839844
y: 532.73388671875
z: 0.024841424077749252
visibility: 0.93478924036026
","x: 222.56344604492188
y: 546.4107666015625
z: 0.28725436329841614
visibility: 0.8742047548294067
","x: 271.37109375
y: 550.3949584960938
z: -0.08789884299039841
visibility: 0.9775150418281555
","x: 210.23251342773438
y: 550.9497680664062
z: 0.20430055260658264
visibility: 0.966279149055481
","x: 224.8916473388672
y: 473.1783447265625
z: 0.0
","x: 222.0768585205078
y: 478.0943603515625
z: 0.0003755439247470349
","x: 220.91575622558594
y: 483.7637634277344
z: 0.0003983245405834168
","x: 221.0645751953125
y: 488.32470703125
z: -0.0002695246075745672
","x: 221.6314239501953
y: 491.3648681640625
z: -0.0005350251449272037
","x: 222.2439727783203
y: 488.5784912109375
z: 0.002460483694449067
","x: 222.31297302246094
y: 494.85467529296875
z: 0.0010517874034121633
","x: 222.0652313232422
y: 494.15521240234375
z: 0.0004404393839649856
","x: 222.1459503173828
y: 491.9092102050781
z: 0.0004145628190599382
","x: 223.82452392578125
y: 488.8363037109375
z: 0.0011169881327077746
","x: 224.07516479492188
y: 495.23541259765625
z: -0.00034222682006657124
","x: 223.69479370117188
y: 494.74273681640625
z: -0.0008583704475313425
","x: 223.49856567382812
y: 492.3831481933594
z: -0.0006920406594872475
","x: 225.35040283203125
y: 488.33819580078125
z: -0.0006302296533249319
","x: 225.60386657714844
y: 494.0713806152344
z: -0.001710626995190978
","x: 225.13812255859375
y: 494.0992431640625
z: -0.0014993208460509777
","x: 224.8213348388672
y: 492.3869323730469
z: -0.0009975855937227607
","x: 226.84886169433594
y: 487.0765686035156
z: -0.0026183652225881815
","x: 227.0032958984375
y: 491.567626953125
z: -0.0031950348056852818
","x: 226.54644775390625
y: 492.19171142578125
z: -0.002898831618949771
","x: 226.16485595703125
y: 491.3011474609375
z: -0.002377768512815237
","x: 193.74818420410156
y: 465.99127197265625
z: 0.0
","x: 195.7020263671875
y: 470.32476806640625
z: 0.0013747329358011484
","x: 196.72523498535156
y: 475.8833312988281
z: 0.0015673242742195725
","x: 197.3895263671875
y: 479.83868408203125
z: 0.0008870330639183521
","x: 197.91644287109375
y: 482.7493896484375
z: 0.0004303117748349905
","x: 194.7637481689453
y: 481.06951904296875
z: 0.0038198481779545546
","x: 195.32569885253906
y: 486.2186279296875
z: 0.0027287660632282495
","x: 196.53738403320312
y: 488.0357666015625
z: 0.0019394855480641127
","x: 197.6731414794922
y: 488.56390380859375
z: 0.001636924222111702
","x: 193.8763885498047
y: 481.3544921875
z: 0.0018725742120295763
","x: 194.54257202148438
y: 486.81524658203125
z: 0.0009696363122202456
","x: 195.84176635742188
y: 488.2312316894531
z: 0.00027548897196538746
","x: 197.02340698242188
y: 488.4869384765625
z: -1.7813426893553697e-05
","x: 193.0178680419922
y: 481.0311584472656
z: -0.00042766158003360033
","x: 193.90985107421875
y: 486.15753173828125
z: -0.0012448056368157268
","x: 195.23333740234375
y: 487.79974365234375
z: -0.001241558464244008
","x: 196.43634033203125
y: 488.4205627441406
z: -0.0011206859489902854
","x: 192.2066192626953
y: 479.98779296875
z: -0.0028755925595760345
","x: 192.91867065429688
y: 484.3410949707031
z: -0.0032305859494954348
","x: 194.03598022460938
y: 486.0686950683594
z: -0.002954937983304262
","x: 195.177978515625
y: 486.8037414550781
z: -0.0026690070517361164
"
18,"x: 213.74305725097656
y: 373.33087158203125
z: -0.5068883895874023
visibility: 0.9999738931655884
","x: 215.059814453125
y: 367.2525634765625
z: -0.5043389201164246
visibility: 0.9999372959136963
","x: 216.13148498535156
y: 366.8121032714844
z: -0.5043179392814636
visibility: 0.9999297857284546
","x: 217.20248413085938
y: 366.3191223144531
z: -0.504411518573761
visibility: 0.9999303817749023
","x: 211.81764221191406
y: 366.8257141113281
z: -0.5003392100334167
visibility: 0.9999322891235352
","x: 210.57635498046875
y: 366.2889404296875
z: -0.5004174113273621
visibility: 0.9999092817306519
","x: 209.31996154785156
y: 365.7419128417969
z: -0.5004551410675049
visibility: 0.9999004602432251
","x: 218.6125030517578
y: 364.3681640625
z: -0.4297434687614441
visibility: 0.999883234500885
","x: 206.3439178466797
y: 364.490478515625
z: -0.41053757071495056
visibility: 0.999830424785614
","x: 215.45372009277344
y: 376.6296691894531
z: -0.4733297824859619
visibility: 0.9999656677246094
","x: 212.03341674804688
y: 376.115234375
z: -0.4679737687110901
visibility: 0.9999626278877258
","x: 228.75149536132812
y: 382.9523010253906
z: -0.35286369919776917
visibility: 0.9999735951423645
","x: 198.06259155273438
y: 384.18292236328125
z: -0.2730334401130676
visibility: 0.9999576210975647
","x: 229.95950317382812
y: 433.2058410644531
z: -0.34947770833969116
visibility: 0.9869564771652222
","x: 194.5013427734375
y: 425.3697204589844
z: -0.22278332710266113
visibility: 0.9880222082138062
","x: 225.87200927734375
y: 474.2490234375
z: -0.3993871808052063
visibility: 0.9764834642410278
","x: 194.4061279296875
y: 466.05816650390625
z: -0.2675776481628418
visibility: 0.9760469198226929
","x: 226.90621948242188
y: 486.900390625
z: -0.4324890971183777
visibility: 0.9484899640083313
","x: 193.4156036376953
y: 478.43157958984375
z: -0.28320956230163574
visibility: 0.9463472366333008
","x: 224.4230194091797
y: 486.6407470703125
z: -0.4465204179286957
visibility: 0.9530613422393799
","x: 195.66043090820312
y: 478.0250549316406
z: -0.31226646900177
visibility: 0.9492051005363464
","x: 223.5784454345703
y: 483.4472351074219
z: -0.4051123559474945
visibility: 0.9420366883277893
","x: 196.76333618164062
y: 474.08673095703125
z: -0.2794002890586853
visibility: 0.9377787709236145
","x: 233.25540161132812
y: 425.2939453125
z: -0.028415169566869736
visibility: 0.9999504089355469
","x: 216.62350463867188
y: 432.5968017578125
z: 0.028456926345825195
visibility: 0.9998883008956909
","x: 248.5110626220703
y: 476.6860656738281
z: -0.08246176689863205
visibility: 0.9723744988441467
","x: 213.5279541015625
y: 486.4840087890625
z: 0.09416815638542175
visibility: 0.9577745795249939
","x: 266.14007568359375
y: 526.9633178710938
z: 0.021541710942983627
visibility: 0.9833046197891235
","x: 219.53781127929688
y: 536.7649536132812
z: 0.274221271276474
visibility: 0.9806845784187317
","x: 266.3716735839844
y: 532.73388671875
z: 0.024841424077749252
visibility: 0.93478924036026
","x: 222.56344604492188
y: 546.4107666015625
z: 0.28725436329841614
visibility: 0.8742047548294067
","x: 271.37109375
y: 550.3949584960938
z: -0.08789884299039841
visibility: 0.9775150418281555
","x: 210.23251342773438
y: 550.9497680664062
z: 0.20430055260658264
visibility: 0.966279149055481
","x: 224.8916473388672
y: 473.1783447265625
z: 0.0
","x: 222.0768585205078
y: 478.0943603515625
z: 0.0003755439247470349
","x: 220.91575622558594
y: 483.7637634277344
z: 0.0003983245405834168
","x: 221.0645751953125
y: 488.32470703125
z: -0.0002695246075745672
","x: 221.6314239501953
y: 491.3648681640625
z: -0.0005350251449272037
","x: 222.2439727783203
y: 488.5784912109375
z: 0.002460483694449067
","x: 222.31297302246094
y: 494.85467529296875
z: 0.0010517874034121633
","x: 222.0652313232422
y: 494.15521240234375
z: 0.0004404393839649856
","x: 222.1459503173828
y: 491.9092102050781
z: 0.0004145628190599382
","x: 223.82452392578125
y: 488.8363037109375
z: 0.0011169881327077746
","x: 224.07516479492188
y: 495.23541259765625
z: -0.00034222682006657124
","x: 223.69479370117188
y: 494.74273681640625
z: -0.0008583704475313425
","x: 223.49856567382812
y: 492.3831481933594
z: -0.0006920406594872475
","x: 225.35040283203125
y: 488.33819580078125
z: -0.0006302296533249319
","x: 225.60386657714844
y: 494.0713806152344
z: -0.001710626995190978
","x: 225.13812255859375
y: 494.0992431640625
z: -0.0014993208460509777
","x: 224.8213348388672
y: 492.3869323730469
z: -0.0009975855937227607
","x: 226.84886169433594
y: 487.0765686035156
z: -0.0026183652225881815
","x: 227.0032958984375
y: 491.567626953125
z: -0.0031950348056852818
","x: 226.54644775390625
y: 492.19171142578125
z: -0.002898831618949771
","x: 226.16485595703125
y: 491.3011474609375
z: -0.002377768512815237
","x: 193.74818420410156
y: 465.99127197265625
z: 0.0
","x: 195.7020263671875
y: 470.32476806640625
z: 0.0013747329358011484
","x: 196.72523498535156
y: 475.8833312988281
z: 0.0015673242742195725
","x: 197.3895263671875
y: 479.83868408203125
z: 0.0008870330639183521
","x: 197.91644287109375
y: 482.7493896484375
z: 0.0004303117748349905
","x: 194.7637481689453
y: 481.06951904296875
z: 0.0038198481779545546
","x: 195.32569885253906
y: 486.2186279296875
z: 0.0027287660632282495
","x: 196.53738403320312
y: 488.0357666015625
z: 0.0019394855480641127
","x: 197.6731414794922
y: 488.56390380859375
z: 0.001636924222111702
","x: 193.8763885498047
y: 481.3544921875
z: 0.0018725742120295763
","x: 194.54257202148438
y: 486.81524658203125
z: 0.0009696363122202456
","x: 195.84176635742188
y: 488.2312316894531
z: 0.00027548897196538746
","x: 197.02340698242188
y: 488.4869384765625
z: -1.7813426893553697e-05
","x: 193.0178680419922
y: 481.0311584472656
z: -0.00042766158003360033
","x: 193.90985107421875
y: 486.15753173828125
z: -0.0012448056368157268
","x: 195.23333740234375
y: 487.79974365234375
z: -0.001241558464244008
","x: 196.43634033203125
y: 488.4205627441406
z: -0.0011206859489902854
","x: 192.2066192626953
y: 479.98779296875
z: -0.0028755925595760345
","x: 192.91867065429688
y: 484.3410949707031
z: -0.0032305859494954348
","x: 194.03598022460938
y: 486.0686950683594
z: -0.002954937983304262
","x: 195.177978515625
y: 486.8037414550781
z: -0.0026690070517361164
"
19,"x: 213.74305725097656
y: 373.33087158203125
z: -0.5068883895874023
visibility: 0.9999738931655884
","x: 215.059814453125
y: 367.2525634765625
z: -0.5043389201164246
visibility: 0.9999372959136963
","x: 216.13148498535156
y: 366.8121032714844
z: -0.5043179392814636
visibility: 0.9999297857284546
","x: 217.20248413085938
y: 366.3191223144531
z: -0.504411518573761
visibility: 0.9999303817749023
","x: 211.81764221191406
y: 366.8257141113281
z: -0.5003392100334167
visibility: 0.9999322891235352
","x: 210.57635498046875
y: 366.2889404296875
z: -0.5004174113273621
visibility: 0.9999092817306519
","x: 209.31996154785156
y: 365.7419128417969
z: -0.5004551410675049
visibility: 0.9999004602432251
","x: 218.6125030517578
y: 364.3681640625
z: -0.4297434687614441
visibility: 0.999883234500885
","x: 206.3439178466797
y: 364.490478515625
z: -0.41053757071495056
visibility: 0.999830424785614
","x: 215.45372009277344
y: 376.6296691894531
z: -0.4733297824859619
visibility: 0.9999656677246094
","x: 212.03341674804688
y: 376.115234375
z: -0.4679737687110901
visibility: 0.9999626278877258
","x: 228.75149536132812
y: 382.9523010253906
z: -0.35286369919776917
visibility: 0.9999735951423645
","x: 198.06259155273438
y: 384.18292236328125
z: -0.2730334401130676
visibility: 0.9999576210975647
","x: 229.95950317382812
y: 433.2058410644531
z: -0.34947770833969116
visibility: 0.9869564771652222
","x: 194.5013427734375
y: 425.3697204589844
z: -0.22278332710266113
visibility: 0.9880222082138062
","x: 225.87200927734375
y: 474.2490234375
z: -0.3993871808052063
visibility: 0.9764834642410278
","x: 194.4061279296875
y: 466.05816650390625
z: -0.2675776481628418
visibility: 0.9760469198226929
","x: 226.90621948242188
y: 486.900390625
z: -0.4324890971183777
visibility: 0.9484899640083313
","x: 193.4156036376953
y: 478.43157958984375
z: -0.28320956230163574
visibility: 0.9463472366333008
","x: 224.4230194091797
y: 486.6407470703125
z: -0.4465204179286957
visibility: 0.9530613422393799
","x: 195.66043090820312
y: 478.0250549316406
z: -0.31226646900177
visibility: 0.9492051005363464
","x: 223.5784454345703
y: 483.4472351074219
z: -0.4051123559474945
visibility: 0.9420366883277893
","x: 196.76333618164062
y: 474.08673095703125
z: -0.2794002890586853
visibility: 0.9377787709236145
","x: 233.25540161132812
y: 425.2939453125
z: -0.028415169566869736
visibility: 0.9999504089355469
","x: 216.62350463867188
y: 432.5968017578125
z: 0.028456926345825195
visibility: 0.9998883008956909
","x: 248.5110626220703
y: 476.6860656738281
z: -0.08246176689863205
visibility: 0.9723744988441467
","x: 213.5279541015625
y: 486.4840087890625
z: 0.09416815638542175
visibility: 0.9577745795249939
","x: 266.14007568359375
y: 526.9633178710938
z: 0.021541710942983627
visibility: 0.9833046197891235
","x: 219.53781127929688
y: 536.7649536132812
z: 0.274221271276474
visibility: 0.9806845784187317
","x: 266.3716735839844
y: 532.73388671875
z: 0.024841424077749252
visibility: 0.93478924036026
","x: 222.56344604492188
y: 546.4107666015625
z: 0.28725436329841614
visibility: 0.8742047548294067
","x: 271.37109375
y: 550.3949584960938
z: -0.08789884299039841
visibility: 0.9775150418281555
","x: 210.23251342773438
y: 550.9497680664062
z: 0.20430055260658264
visibility: 0.966279149055481
","x: 224.8916473388672
y: 473.1783447265625
z: 0.0
","x: 222.0768585205078
y: 478.0943603515625
z: 0.0003755439247470349
","x: 220.91575622558594
y: 483.7637634277344
z: 0.0003983245405834168
","x: 221.0645751953125
y: 488.32470703125
z: -0.0002695246075745672
","x: 221.6314239501953
y: 491.3648681640625
z: -0.0005350251449272037
","x: 222.2439727783203
y: 488.5784912109375
z: 0.002460483694449067
","x: 222.31297302246094
y: 494.85467529296875
z: 0.0010517874034121633
","x: 222.0652313232422
y: 494.15521240234375
z: 0.0004404393839649856
","x: 222.1459503173828
y: 491.9092102050781
z: 0.0004145628190599382
","x: 223.82452392578125
y: 488.8363037109375
z: 0.0011169881327077746
","x: 224.07516479492188
y: 495.23541259765625
z: -0.00034222682006657124
","x: 223.69479370117188
y: 494.74273681640625
z: -0.0008583704475313425
","x: 223.49856567382812
y: 492.3831481933594
z: -0.0006920406594872475
","x: 225.35040283203125
y: 488.33819580078125
z: -0.0006302296533249319
","x: 225.60386657714844
y: 494.0713806152344
z: -0.001710626995190978
","x: 225.13812255859375
y: 494.0992431640625
z: -0.0014993208460509777
","x: 224.8213348388672
y: 492.3869323730469
z: -0.0009975855937227607
","x: 226.84886169433594
y: 487.0765686035156
z: -0.0026183652225881815
","x: 227.0032958984375
y: 491.567626953125
z: -0.0031950348056852818
","x: 226.54644775390625
y: 492.19171142578125
z: -0.002898831618949771
","x: 226.16485595703125
y: 491.3011474609375
z: -0.002377768512815237
","x: 193.74818420410156
y: 465.99127197265625
z: 0.0
","x: 195.7020263671875
y: 470.32476806640625
z: 0.0013747329358011484
","x: 196.72523498535156
y: 475.8833312988281
z: 0.0015673242742195725
","x: 197.3895263671875
y: 479.83868408203125
z: 0.0008870330639183521
","x: 197.91644287109375
y: 482.7493896484375
z: 0.0004303117748349905
","x: 194.7637481689453
y: 481.06951904296875
z: 0.0038198481779545546
","x: 195.32569885253906
y: 486.2186279296875
z: 0.0027287660632282495
","x: 196.53738403320312
y: 488.0357666015625
z: 0.0019394855480641127
","x: 197.6731414794922
y: 488.56390380859375
z: 0.001636924222111702
","x: 193.8763885498047
y: 481.3544921875
z: 0.0018725742120295763
","x: 194.54257202148438
y: 486.81524658203125
z: 0.0009696363122202456
","x: 195.84176635742188
y: 488.2312316894531
z: 0.00027548897196538746
","x: 197.02340698242188
y: 488.4869384765625
z: -1.7813426893553697e-05
","x: 193.0178680419922
y: 481.0311584472656
z: -0.00042766158003360033
","x: 193.90985107421875
y: 486.15753173828125
z: -0.0012448056368157268
","x: 195.23333740234375
y: 487.79974365234375
z: -0.001241558464244008
","x: 196.43634033203125
y: 488.4205627441406
z: -0.0011206859489902854
","x: 192.2066192626953
y: 479.98779296875
z: -0.0028755925595760345
","x: 192.91867065429688
y: 484.3410949707031
z: -0.0032305859494954348
","x: 194.03598022460938
y: 486.0686950683594
z: -0.002954937983304262
","x: 195.177978515625
y: 486.8037414550781
z: -0.0026690070517361164
"
20,"x: 213.47767639160156
y: 364.03021240234375
z: -0.47897034883499146
visibility: 0.9999591708183289
","x: 215.00550842285156
y: 358.7226867675781
z: -0.47601598501205444
visibility: 0.9998931884765625
","x: 215.92808532714844
y: 358.580810546875
z: -0.47598886489868164
visibility: 0.9998828768730164
","x: 216.8378448486328
y: 358.29876708984375
z: -0.4760597348213196
visibility: 0.9998794794082642
","x: 212.10736083984375
y: 358.4403991699219
z: -0.4693458080291748
visibility: 0.999881386756897
","x: 210.9883575439453
y: 358.00927734375
z: -0.4694368243217468
visibility: 0.999847948551178
","x: 209.89796447753906
y: 357.524169921875
z: -0.469498872756958
visibility: 0.9998361468315125
","x: 217.8790283203125
y: 357.48431396484375
z: -0.4094063341617584
visibility: 0.999792754650116
","x: 207.1693115234375
y: 356.4599609375
z: -0.3806319832801819
visibility: 0.9996426701545715
","x: 214.83657836914062
y: 367.6224365234375
z: -0.4498944878578186
visibility: 0.99995356798172
","x: 211.498291015625
y: 367.7003173828125
z: -0.4401034712791443
visibility: 0.9999462962150574
","x: 227.29257202148438
y: 377.771484375
z: -0.32848575711250305
visibility: 0.9999749660491943
","x: 197.87388610839844
y: 378.6573791503906
z: -0.24678805470466614
visibility: 0.9999591708183289
","x: 229.16001892089844
y: 423.50396728515625
z: -0.3170316815376282
visibility: 0.9874695539474487
","x: 195.16773986816406
y: 419.8360900878906
z: -0.18507184088230133
visibility: 0.9877722859382629
","x: 225.95150756835938
y: 466.4993591308594
z: -0.3611900210380554
visibility: 0.9769197702407837
","x: 195.12863159179688
y: 460.7324523925781
z: -0.22076472640037537
visibility: 0.9766957759857178
","x: 227.54940795898438
y: 480.6548767089844
z: -0.3897632658481598
visibility: 0.9500394463539124
","x: 194.08987426757812
y: 473.3257751464844
z: -0.23184862732887268
visibility: 0.9478476047515869
","x: 225.07611083984375
y: 480.5465087890625
z: -0.4050346314907074
visibility: 0.9543296694755554
","x: 196.17138671875
y: 472.8435974121094
z: -0.2621060013771057
visibility: 0.9508565068244934
","x: 224.04141235351562
y: 477.48516845703125
z: -0.36712196469306946
visibility: 0.9414382576942444
","x: 197.32040405273438
y: 468.86083984375
z: -0.23244163393974304
visibility: 0.9402058124542236
","x: 232.8006591796875
y: 422.76190185546875
z: -0.029336705803871155
visibility: 0.9999436736106873
","x: 216.50286865234375
y: 430.08233642578125
z: 0.02935301698744297
visibility: 0.9998582005500793
","x: 247.7949676513672
y: 473.2978515625
z: -0.08873601257801056
visibility: 0.974800705909729
","x: 214.65679931640625
y: 485.9939270019531
z: 0.09474624693393707
visibility: 0.9537048935890198
","x: 265.7525329589844
y: 524.7264404296875
z: -0.013925222679972649
visibility: 0.9848638772964478
","x: 219.50360107421875
y: 536.724365234375
z: 0.25452253222465515
visibility: 0.9795840978622437
","x: 266.691650390625
y: 529.71875
z: -0.014400792308151722
visibility: 0.9348230957984924
","x: 222.57327270507812
y: 546.3798217773438
z: 0.2655128836631775
visibility: 0.8762605786323547
","x: 270.8043212890625
y: 549.7496337890625
z: -0.12186937034130096
visibility: 0.9793382883071899
","x: 210.08802795410156
y: 550.2872314453125
z: 0.19014307856559753
visibility: 0.965372622013092
",,,,,,,,,,,,,,,,,,,,,,,,,,,,,,,,,,,,,,,,,,
21,"x: 213.2774658203125
y: 352.77581787109375
z: -0.4462807774543762
visibility: 0.9999396800994873
","x: 214.75259399414062
y: 347.5355529785156
z: -0.4425168037414551
visibility: 0.9998366832733154
","x: 215.8688507080078
y: 347.4642333984375
z: -0.4424896240234375
visibility: 0.9998160004615784
","x: 216.93544006347656
y: 347.4512023925781
z: -0.44255512952804565
visibility: 0.999808669090271
","x: 211.38812255859375
y: 347.28924560546875
z: -0.4385205805301666
visibility: 0.999825656414032
","x: 210.2231903076172
y: 346.9208984375
z: -0.43861809372901917
visibility: 0.999788224697113
","x: 209.07810974121094
y: 346.54296875
z: -0.4386715292930603
visibility: 0.9997877478599548
","x: 218.16087341308594
y: 348.23968505859375
z: -0.3732897639274597
visibility: 0.9996687769889832
","x: 207.06385803222656
y: 346.14984130859375
z: -0.3564632833003998
visibility: 0.999527633190155
","x: 214.95401000976562
y: 357.33587646484375
z: -0.416083425283432
visibility: 0.9999300837516785
","x: 211.27963256835938
y: 357.0533447265625
z: -0.411240816116333
visibility: 0.999930739402771
","x: 227.36878967285156
y: 374.9415588378906
z: -0.3243394196033478
visibility: 0.9999722838401794
","x: 198.3214569091797
y: 370.3443908691406
z: -0.2261004000902176
visibility: 0.9999605417251587
","x: 228.26443481445312
y: 418.8692932128906
z: -0.2899925708770752
visibility: 0.9878396987915039
","x: 195.9222412109375
y: 411.3792419433594
z: -0.16244842112064362
visibility: 0.9873160123825073
","x: 224.9158172607422
y: 459.9354553222656
z: -0.31497734785079956
visibility: 0.9765622019767761
","x: 196.87332153320312
y: 455.077392578125
z: -0.20076683163642883
visibility: 0.9771718382835388
","x: 226.02342224121094
y: 474.1969299316406
z: -0.3389056622982025
visibility: 0.9503176212310791
","x: 196.13214111328125
y: 468.88348388671875
z: -0.2124011069536209
visibility: 0.949051022529602
","x: 223.20892333984375
y: 473.8790588378906
z: -0.3533719778060913
visibility: 0.9542136192321777
","x: 198.51885986328125
y: 468.49310302734375
z: -0.2414551079273224
visibility: 0.9521229267120361
","x: 222.16818237304688
y: 469.3218994140625
z: -0.31956157088279724
visibility: 0.9397516250610352
","x: 199.4093780517578
y: 463.89239501953125
z: -0.2119818925857544
visibility: 0.9424068331718445
","x: 231.89434814453125
y: 416.7983703613281
z: -0.028259137645363808
visibility: 0.9999346137046814
","x: 216.0377197265625
y: 424.0916748046875
z: 0.028222152963280678
visibility: 0.9998416304588318
","x: 246.38214111328125
y: 470.83258056640625
z: -0.09137441217899323
visibility: 0.9760496020317078
","x: 215.1633758544922
y: 480.5288391113281
z: 0.011198082007467747
visibility: 0.9407046437263489
","x: 265.2149963378906
y: 522.2913208007812
z: -0.0432974174618721
visibility: 0.9858455657958984
","x: 219.43626403808594
y: 536.479248046875
z: 0.13442078232765198
visibility: 0.975972056388855
","x: 266.739501953125
y: 527.211181640625
z: -0.04451525956392288
visibility: 0.9300026893615723
","x: 222.58364868164062
y: 546.3390502929688
z: 0.14475402235984802
visibility: 0.8735196590423584
","x: 269.1779479980469
y: 549.6416015625
z: -0.13891874253749847
visibility: 0.9798818230628967
","x: 209.45712280273438
y: 550.1552734375
z: 0.05516780540347099
visibility: 0.9616624712944031
","x: 224.16763305664062
y: 461.9839782714844
z: 0.0
","x: 221.62803649902344
y: 466.57672119140625
z: -0.00032110963365994394
","x: 220.4662628173828
y: 471.8809814453125
z: -0.0009699862566776574
","x: 220.61399841308594
y: 476.54278564453125
z: -0.0022982179652899504
","x: 221.1419219970703
y: 479.7615966796875
z: -0.003130687167868018
","x: 221.5341033935547
y: 479.5332336425781
z: 0.0017735291039571166
","x: 221.42010498046875
y: 486.0509948730469
z: 0.00014985279995016754
","x: 221.04367065429688
y: 485.728515625
z: -0.0005432114703580737
","x: 220.91419982910156
y: 484.1146240234375
z: -0.0006554772844538093
","x: 223.07960510253906
y: 479.538330078125
z: 0.0004760742303915322
","x: 223.0218048095703
y: 485.83013916015625
z: -0.000607334659434855
","x: 222.50411987304688
y: 485.19561767578125
z: -0.0008079104591161013
","x: 222.22653198242188
y: 483.44708251953125
z: -0.0006227702833712101
","x: 224.7364501953125
y: 478.78887939453125
z: -0.0013544987887144089
","x: 224.49375915527344
y: 483.97686767578125
z: -0.002440023934468627
","x: 223.8067169189453
y: 483.5225830078125
z: -0.0021732039749622345
","x: 223.36184692382812
y: 481.970947265625
z: -0.001725165406242013
","x: 226.45562744140625
y: 477.15838623046875
z: -0.003504501422867179
","x: 226.18756103515625
y: 481.1824951171875
z: -0.004092046990990639
","x: 225.57542419433594
y: 480.9136962890625
z: -0.0036507458426058292
","x: 225.1180877685547
y: 479.46112060546875
z: -0.0030597534496337175
",,,,,,,,,,,,,,,,,,,,,
22,"x: 213.2774658203125
y: 352.77581787109375
z: -0.4462807774543762
visibility: 0.9999396800994873
","x: 214.75259399414062
y: 347.5355529785156
z: -0.4425168037414551
visibility: 0.9998366832733154
","x: 215.8688507080078
y: 347.4642333984375
z: -0.4424896240234375
visibility: 0.9998160004615784
","x: 216.93544006347656
y: 347.4512023925781
z: -0.44255512952804565
visibility: 0.999808669090271
","x: 211.38812255859375
y: 347.28924560546875
z: -0.4385205805301666
visibility: 0.999825656414032
","x: 210.2231903076172
y: 346.9208984375
z: -0.43861809372901917
visibility: 0.999788224697113
","x: 209.07810974121094
y: 346.54296875
z: -0.4386715292930603
visibility: 0.9997877478599548
","x: 218.16087341308594
y: 348.23968505859375
z: -0.3732897639274597
visibility: 0.9996687769889832
","x: 207.06385803222656
y: 346.14984130859375
z: -0.3564632833003998
visibility: 0.999527633190155
","x: 214.95401000976562
y: 357.33587646484375
z: -0.416083425283432
visibility: 0.9999300837516785
","x: 211.27963256835938
y: 357.0533447265625
z: -0.411240816116333
visibility: 0.999930739402771
","x: 227.36878967285156
y: 374.9415588378906
z: -0.3243394196033478
visibility: 0.9999722838401794
