uscmakers/ReverseChoreography/data/3_thats_what_i_like_bruno_mars.csv
,NOSE,LEFT_EYE_INNER,LEFT_EYE,LEFT_EYE_OUTER,RIGHT_EYE_INNER,RIGHT_EYE,RIGHT_EYE_OUTER,LEFT_EAR,RIGHT_EAR,MOUTH_LEFT,MOUTH_RIGHT,LEFT_SHOULDER,RIGHT_SHOULDER,LEFT_ELBOW,RIGHT_ELBOW,LEFT_WRIST,RIGHT_WRIST,LEFT_PINKY,RIGHT_PINKY,LEFT_INDEX,RIGHT_INDEX,LEFT_THUMB,RIGHT_THUMB,LEFT_HIP,RIGHT_HIP,LEFT_KNEE,RIGHT_KNEE,LEFT_ANKLE,RIGHT_ANKLE,LEFT_HEEL,RIGHT_HEEL,LEFT_FOOT_INDEX,RIGHT_FOOT_INDEX,WRIST2,THUMB_CPC2,THUMB_MCP2,THUMB_IP2,THUMB_TIP2,INDEX_FINGER_MCP2,INDEX_FINGER_PIP2,INDEX_FINGER_DIP2,INDEX_FINGER_TIP2,MIDDLE_FINGER_MCP2,MIDDLE_FINGER_PIP2,MIDDLE_FINGER_DIP2,MIDDLE_FINGER_TIP2,RING_FINGER_PIP2,RING_FINGER_DIP2,RING_FINGER_TIP2,RING_FINGER_MCP2,PINKY_MCP2,PINKY_PIP2,PINKY_DIP2,PINKY_TIP2,WRIST,THUMB_CPC,THUMB_MCP,THUMB_IP,THUMB_TIP,INDEX_FINGER_MCP,INDEX_FINGER_PIP,INDEX_FINGER_DIP,INDEX_FINGER_TIP,MIDDLE_FINGER_MCP,MIDDLE_FINGER_PIP,MIDDLE_FINGER_DIP,MIDDLE_FINGER_TIP,RING_FINGER_PIP,RING_FINGER_DIP,RING_FINGER_TIP,RING_FINGER_MCP,PINKY_MCP,PINKY_PIP,PINKY_DIP,PINKY_TIP
0,"x: 246.8066864013672
y: 302.49468994140625
z: -0.18852722644805908
visibility: 0.9999628067016602
","x: 246.2415771484375
y: 297.43731689453125
z: -0.16953927278518677
visibility: 0.9998301267623901
","x: 246.88917541503906
y: 297.6195983886719
z: -0.16951417922973633
visibility: 0.9998239874839783
","x: 247.58851623535156
y: 297.66162109375
z: -0.1694880574941635
visibility: 0.9997337460517883
","x: 243.72940063476562
y: 297.35736083984375
z: -0.17622767388820648
visibility: 0.9999022483825684
","x: 242.63763427734375
y: 297.6815185546875
z: -0.17624416947364807
visibility: 0.9999172687530518
","x: 241.57278442382812
y: 298.03607177734375
z: -0.17627039551734924
visibility: 0.9999024868011475
","x: 246.89981079101562
y: 301.37738037109375
z: -0.07086551934480667
visibility: 0.9996250867843628
","x: 238.37782287597656
y: 302.6446838378906
z: -0.10196999460458755
visibility: 0.9999449253082275
","x: 248.06134033203125
y: 309.18109130859375
z: -0.15199850499629974
visibility: 0.999871015548706
","x: 244.85043334960938
y: 309.82708740234375
z: -0.16102369129657745
visibility: 0.9999412298202515
","x: 257.26373291015625
y: 333.367919921875
z: -0.04040438309311867
visibility: 0.9997462630271912
","x: 224.03750610351562
y: 344.3246765136719
z: -0.05597944185137749
visibility: 0.9999088048934937
","x: 273.25628662109375
y: 310.2781982421875
z: -0.16012150049209595
visibility: 0.9963086247444153
","x: 208.14637756347656
y: 373.31256103515625
z: -0.06031991168856621
visibility: 0.9954203963279724
","x: 264.7532958984375
y: 268.3974304199219
z: -0.32249414920806885
visibility: 0.9928489923477173
","x: 211.52076721191406
y: 415.51275634765625
z: -0.10075900703668594
visibility: 0.9803044199943542
","x: 261.9894714355469
y: 256.2326354980469
z: -0.36200645565986633
visibility: 0.9694876074790955
","x: 213.64537048339844
y: 428.55096435546875
z: -0.11526328325271606
visibility: 0.9476832747459412
","x: 259.6307373046875
y: 256.1150817871094
z: -0.34948596358299255
visibility: 0.96503084897995
","x: 216.0132598876953
y: 426.83935546875
z: -0.12671761214733124
visibility: 0.9461405277252197
","x: 259.99029541015625
y: 260.7853088378906
z: -0.3241174519062042
visibility: 0.9596196413040161
","x: 216.09378051757812
y: 422.72930908203125
z: -0.1051756739616394
visibility: 0.9255380034446716
","x: 250.15737915039062
y: 438.2725830078125
z: 0.006137868855148554
visibility: 0.9999479055404663
","x: 228.9242706298828
y: 437.48919677734375
z: -0.006295503582805395
visibility: 0.9999403953552246
","x: 267.4715881347656
y: 502.5472717285156
z: -0.11054760217666626
visibility: 0.9978637099266052
","x: 206.67677307128906
y: 498.7052001953125
z: -0.04158245027065277
visibility: 0.9988566637039185
","x: 262.3064270019531
y: 560.7857666015625
z: 0.08151133358478546
visibility: 0.9945247173309326
","x: 199.41201782226562
y: 555.231689453125
z: 0.15044839680194855
visibility: 0.9980880618095398
","x: 257.6276550292969
y: 571.32568359375
z: 0.09622646868228912
visibility: 0.9797332286834717
","x: 201.5785675048828
y: 564.3738403320312
z: 0.16428923606872559
visibility: 0.9649181962013245
","x: 274.8810729980469
y: 579.0650634765625
z: 0.008215210400521755
visibility: 0.9909564852714539
","x: 190.9505157470703
y: 574.963623046875
z: 0.06996174901723862
visibility: 0.9936988353729248
",,,,,,,,,,,,,,,,,,,,,,,,,,,,,,,,,,,,,,,,,,
1,"x: 204.0879364013672
y: 338.3252258300781
z: -0.2200550138950348
visibility: 0.9999345541000366
","x: 204.78111267089844
y: 332.18963623046875
z: -0.20632943511009216
visibility: 0.9996795654296875
","x: 205.46783447265625
y: 332.2575378417969
z: -0.2063436061143875
visibility: 0.9997032880783081
","x: 206.18927001953125
y: 332.43658447265625
z: -0.206427663564682
visibility: 0.999629020690918
","x: 202.670166015625
y: 332.32867431640625
z: -0.2052430808544159
visibility: 0.9997760057449341
","x: 201.76028442382812
y: 332.5696105957031
z: -0.20523853600025177
visibility: 0.9997832179069519
","x: 200.7627410888672
y: 333.00439453125
z: -0.20522205531597137
visibility: 0.9997472763061523
","x: 207.49575805664062
y: 335.64215087890625
z: -0.12053550779819489
visibility: 0.9994953870773315
","x: 199.64736938476562
y: 337.1336364746094
z: -0.11016196012496948
visibility: 0.9996898770332336
","x: 205.52801513671875
y: 344.6159362792969
z: -0.18648172914981842
visibility: 0.9997959136962891
","x: 203.0816650390625
y: 345.294189453125
z: -0.1838245987892151
visibility: 0.999802827835083
","x: 220.90956115722656
y: 365.164306640625
z: -0.07070697098970413
visibility: 0.9997638463973999
","x: 192.41770935058594
y: 372.82733154296875
z: -0.043172650039196014
visibility: 0.9998497366905212
","x: 242.48365783691406
y: 389.11676025390625
z: -0.05783841013908386
visibility: 0.9958101511001587
","x: 189.05247497558594
y: 412.79522705078125
z: -0.009332307614386082
visibility: 0.9807360768318176
","x: 266.67913818359375
y: 404.0702819824219
z: -0.12694451212882996
visibility: 0.9897787570953369
","x: 199.8925323486328
y: 442.778076171875
z: -0.04631306603550911
visibility: 0.9593476057052612
","x: 273.6182556152344
y: 408.1006164550781
z: -0.1462486982345581
visibility: 0.9641785621643066
","x: 202.44784545898438
y: 452.1702880859375
z: -0.06010880321264267
visibility: 0.9166162610054016
","x: 274.005615234375
y: 408.6883239746094
z: -0.16835662722587585
visibility: 0.961381196975708
","x: 204.635009765625
y: 450.4888610839844
z: -0.07887043058872223
visibility: 0.9156553149223328
","x: 271.414306640625
y: 407.8818359375
z: -0.13879147171974182
visibility: 0.9548196792602539
","x: 204.4462890625
y: 446.67462158203125
z: -0.054890453815460205
visibility: 0.8941876292228699
","x: 227.7285919189453
y: 451.0782470703125
z: -0.03124730847775936
visibility: 0.9997419118881226
","x: 213.087890625
y: 458.448486328125
z: 0.0312594510614872
visibility: 0.9997820258140564
","x: 259.84588623046875
y: 499.7764587402344
z: -0.18365877866744995
visibility: 0.9979552030563354
","x: 191.70184326171875
y: 497.80035400390625
z: -0.10276941955089569
visibility: 0.9986225366592407
","x: 277.59576416015625
y: 556.4783935546875
z: -0.08695021271705627
visibility: 0.9948840737342834
","x: 199.68002319335938
y: 558.9190673828125
z: 0.04739190638065338
visibility: 0.9976913332939148
","x: 279.8454284667969
y: 563.8142700195312
z: -0.0835108608007431
visibility: 0.9756408929824829
","x: 203.8250274658203
y: 567.9125366210938
z: 0.05741409584879875
visibility: 0.9664857387542725
","x: 277.12579345703125
y: 579.5123901367188
z: -0.20961017906665802
visibility: 0.9910963177680969
","x: 186.9542236328125
y: 575.2637329101562
z: -0.02544495090842247
visibility: 0.9927939176559448
",,,,,,,,,,,,,,,,,,,,,,,,,,,,,,,,,,,,,,,,,,
2,"x: 204.93653869628906
y: 327.3531799316406
z: -0.20914337038993835
visibility: 0.9999401569366455
","x: 206.38522338867188
y: 321.6907958984375
z: -0.1935146600008011
visibility: 0.999705970287323
","x: 207.38424682617188
y: 321.748779296875
z: -0.1935180425643921
visibility: 0.9997271299362183
","x: 208.38885498046875
y: 321.7817687988281
z: -0.19354534149169922
visibility: 0.9996606707572937
","x: 203.3324432373047
y: 321.48553466796875
z: -0.19546504318714142
visibility: 0.9997944235801697
","x: 202.1562957763672
y: 321.496337890625
z: -0.19547073543071747
visibility: 0.9998006820678711
","x: 200.80551147460938
y: 321.5933837890625
z: -0.19547568261623383
visibility: 0.9997683763504028
","x: 209.1484832763672
y: 324.069091796875
z: -0.10491075366735458
visibility: 0.9995349645614624
","x: 198.06385803222656
y: 325.0580139160156
z: -0.10474250465631485
visibility: 0.9997121691703796
","x: 206.41946411132812
y: 333.21649169921875
z: -0.17476452887058258
visibility: 0.9998129606246948
","x: 202.9090576171875
y: 333.42388916015625
z: -0.1773250252008438
visibility: 0.9998192191123962
","x: 220.94247436523438
y: 354.1882629394531
z: -0.07113933563232422
visibility: 0.999786913394928
","x: 188.49200439453125
y: 364.94525146484375
z: -0.014285227283835411
visibility: 0.9998610019683838
","x: 239.302978515625
y: 379.34320068359375
z: -0.04900239408016205
visibility: 0.9960583448410034
","x: 187.93592834472656
y: 409.4811706542969
z: 0.01448417641222477
visibility: 0.9768763184547424
","x: 265.49066162109375
y: 399.8193359375
z: -0.13714437186717987
visibility: 0.9903367757797241
","x: 196.1150665283203
y: 448.6798400878906
z: -0.06795786321163177
visibility: 0.959282398223877
","x: 272.08917236328125
y: 404.4718017578125
z: -0.16417858004570007
visibility: 0.9665536284446716
","x: 197.79144287109375
y: 458.64215087890625
z: -0.08322428166866302
visibility: 0.9168757796287537
","x: 272.4490051269531
y: 404.3099365234375
z: -0.19145739078521729
visibility: 0.964214563369751
","x: 199.9200439453125
y: 455.963623046875
z: -0.11133836209774017
visibility: 0.9166628122329712
","x: 270.1206359863281
y: 403.5826110839844
z: -0.15135429799556732
visibility: 0.9578725099563599
","x: 200.15464782714844
y: 452.2824401855469
z: -0.07531245797872543
visibility: 0.8969548344612122
","x: 231.4451141357422
y: 450.58648681640625
z: -0.04579911381006241
visibility: 0.9997498989105225
","x: 213.6294708251953
y: 452.3611145019531
z: 0.04575544595718384
visibility: 0.9997889995574951
","x: 256.88116455078125
y: 499.9305725097656
z: -0.11955098807811737
visibility: 0.9980894327163696
","x: 190.21737670898438
y: 497.08538818359375
z: -0.07685531675815582
visibility: 0.9983407258987427
","x: 282.70013427734375
y: 554.1328125
z: -0.03750714287161827
visibility: 0.9953075647354126
","x: 199.77706909179688
y: 558.5789794921875
z: 0.0507490448653698
visibility: 0.9974862337112427
","x: 286.8839111328125
y: 558.2196044921875
z: -0.03634508699178696
visibility: 0.971747100353241
","x: 204.72042846679688
y: 568.6878662109375
z: 0.05748094245791435
visibility: 0.9680259823799133
","x: 280.07391357421875
y: 579.65478515625
z: -0.15008831024169922
visibility: 0.991614818572998
","x: 184.70904541015625
y: 576.06005859375
z: -0.02098061516880989
visibility: 0.9926437139511108
",,,,,,,,,,,,,,,,,,,,,,,,,,,,,,,,,,,,,,,,,,
3,"x: 207.6878662109375
y: 322.3275451660156
z: -0.1861926019191742
visibility: 0.9999446868896484
","x: 208.07798767089844
y: 316.5780334472656
z: -0.1759507805109024
visibility: 0.9997288584709167
","x: 208.6875457763672
y: 316.5711669921875
z: -0.17598655819892883
visibility: 0.9997472167015076
","x: 209.29840087890625
y: 316.517578125
z: -0.17604586482048035
visibility: 0.9996880292892456
","x: 205.9302215576172
y: 316.36407470703125
z: -0.17638598382472992
visibility: 0.999809980392456
","x: 205.0062255859375
y: 316.3500671386719
z: -0.17639465630054474
visibility: 0.9998154640197754
","x: 204.025390625
y: 316.4131774902344
z: -0.17640824615955353
visibility: 0.9997865557670593
","x: 208.740234375
y: 319.0319519042969
z: -0.10282260179519653
visibility: 0.999570906162262
","x: 201.13690185546875
y: 320.2334289550781
z: -0.0951998308300972
visibility: 0.9997334480285645
","x: 208.5725555419922
y: 328.0213928222656
z: -0.15276017785072327
visibility: 0.9998282790184021
","x: 206.1004638671875
y: 328.25396728515625
z: -0.1542489379644394
visibility: 0.9998336434364319
","x: 220.16860961914062
y: 351.1534118652344
z: -0.05698908120393753
visibility: 0.9998074769973755
","x: 188.41595458984375
y: 361.1681823730469
z: 0.0032165306620299816
visibility: 0.999870777130127
","x: 240.54039001464844
y: 367.35064697265625
z: 0.0025101718492805958
visibility: 0.9961115121841431
","x: 183.86346435546875
y: 399.151123046875
z: 0.0580902099609375
visibility: 0.9763560891151428
","x: 265.3643798828125
y: 380.37213134765625
z: -0.07257247716188431
visibility: 0.9907703399658203
","x: 188.07138061523438
y: 438.6542053222656
z: -0.0020975349470973015
visibility: 0.9606642127037048
","x: 272.8255615234375
y: 382.4154357910156
z: -0.09231697022914886
visibility: 0.968541145324707
","x: 190.3660125732422
y: 450.2087707519531
z: -0.01240268349647522
visibility: 0.9189876317977905
","x: 273.3802185058594
y: 381.22760009765625
z: -0.1222662702202797
visibility: 0.9666325449943542
","x: 192.9436798095703
y: 448.2856750488281
z: -0.041734885424375534
visibility: 0.9194014072418213
","x: 270.4202880859375
y: 381.2402038574219
z: -0.08692513406276703
visibility: 0.9605224132537842
","x: 193.42445373535156
y: 444.5689392089844
z: -0.014519445598125458
visibility: 0.9013059735298157
","x: 231.58058166503906
y: 437.5614929199219
z: -0.037047602236270905
visibility: 0.9997434616088867
","x: 217.17311096191406
y: 445.8349609375
z: 0.03706350177526474
visibility: 0.9997783303260803
","x: 252.2589111328125
y: 497.9989929199219
z: -0.09266968816518784
visibility: 0.9980630278587341
","x: 191.54876708984375
y: 496.9090270996094
z: -0.06312365084886551
visibility: 0.9977028369903564
","x: 272.705322265625
y: 554.373291015625
z: -0.01767275109887123
visibility: 0.9953338503837585
","x: 199.80270385742188
y: 558.3775634765625
z: 0.08314619213342667
visibility: 0.9967008829116821
","x: 281.2622985839844
y: 560.5919799804688
z: -0.013520630076527596
visibility: 0.9674473404884338
","x: 205.16217041015625
y: 569.1785888671875
z: 0.09253992885351181
visibility: 0.9674052000045776
","x: 271.02099609375
y: 579.6502685546875
z: -0.11747834831476212
visibility: 0.9911028742790222
","x: 183.70387268066406
y: 575.4698486328125
z: 0.014352807775139809
visibility: 0.9914423823356628
","x: 266.88946533203125
y: 381.7181396484375
z: 0.0
","x: 270.963623046875
y: 384.908203125
z: 0.0015702219679951668
","x: 274.6252746582031
y: 384.8811340332031
z: 0.001442649750970304
","x: 277.24005126953125
y: 385.4535217285156
z: 0.00024341365497093648
","x: 279.01080322265625
y: 386.50628662109375
z: -0.0007544314721599221
","x: 276.8100280761719
y: 376.874755859375
z: 0.002433421090245247
","x: 280.6637878417969
y: 375.9400634765625
z: 0.0005339014460332692
","x: 283.2026062011719
y: 375.6932067871094
z: -0.0012597552267834544
","x: 285.2794189453125
y: 375.5625915527344
z: -0.002541684778407216
","x: 276.03631591796875
y: 376.3595886230469
z: -0.00013406906509771943
","x: 279.710693359375
y: 381.07183837890625
z: -0.0032251887023448944
","x: 279.4030456542969
y: 385.9719543457031
z: -0.004848101641982794
","x: 278.47039794921875
y: 388.86212158203125
z: -0.005378367844969034
","x: 275.05181884765625
y: 376.7572021484375
z: -0.002842656569555402
","x: 278.39984130859375
y: 380.9596252441406
z: -0.0055924770422279835
","x: 278.040771484375
y: 385.50341796875
z: -0.005896092392504215
","x: 277.0247802734375
y: 388.22119140625
z: -0.0055744461715221405
","x: 273.9269104003906
y: 378.06884765625
z: -0.005629084073007107
","x: 276.7610168457031
y: 380.2474670410156
z: -0.007312497589737177
","x: 277.0426940917969
y: 382.96881103515625
z: -0.007335791364312172
","x: 276.56353759765625
y: 384.893798828125
z: -0.007010487373918295
",,,,,,,,,,,,,,,,,,,,,
4,"x: 207.6878662109375
y: 322.3275451660156
z: -0.1861926019191742
visibility: 0.9999446868896484
","x: 208.07798767089844
y: 316.5780334472656
z: -0.1759507805109024
visibility: 0.9997288584709167
","x: 208.6875457763672
y: 316.5711669921875
z: -0.17598655819892883
visibility: 0.9997472167015076
","x: 209.29840087890625
y: 316.517578125
z: -0.17604586482048035
visibility: 0.9996880292892456
","x: 205.9302215576172
y: 316.36407470703125
z: -0.17638598382472992
visibility: 0.999809980392456
","x: 205.0062255859375
y: 316.3500671386719
z: -0.17639465630054474
visibility: 0.9998154640197754
","x: 204.025390625
y: 316.4131774902344
z: -0.17640824615955353
visibility: 0.9997865557670593
","x: 208.740234375
y: 319.0319519042969
z: -0.10282260179519653
visibility: 0.999570906162262
","x: 201.13690185546875
y: 320.2334289550781
z: -0.0951998308300972
visibility: 0.9997334480285645
","x: 208.5725555419922
y: 328.0213928222656
z: -0.15276017785072327
visibility: 0.9998282790184021
","x: 206.1004638671875
y: 328.25396728515625
z: -0.1542489379644394
visibility: 0.9998336434364319
","x: 220.16860961914062
y: 351.1534118652344
z: -0.05698908120393753
visibility: 0.9998074769973755
","x: 188.41595458984375
y: 361.1681823730469
z: 0.0032165306620299816
visibility: 0.999870777130127
","x: 240.54039001464844
y: 367.35064697265625
z: 0.0025101718492805958
visibility: 0.9961115121841431
","x: 183.86346435546875
y: 399.151123046875
z: 0.0580902099609375
visibility: 0.9763560891151428
","x: 265.3643798828125
y: 380.37213134765625
z: -0.07257247716188431
visibility: 0.9907703399658203
","x: 188.07138061523438
y: 438.6542053222656
z: -0.0020975349470973015
visibility: 0.9606642127037048
","x: 272.8255615234375
y: 382.4154357910156
z: -0.09231697022914886
visibility: 0.968541145324707
","x: 190.3660125732422
y: 450.2087707519531
z: -0.01240268349647522
visibility: 0.9189876317977905
","x: 273.3802185058594
y: 381.22760009765625
z: -0.1222662702202797
visibility: 0.9666325449943542
","x: 192.9436798095703
y: 448.2856750488281
z: -0.041734885424375534
visibility: 0.9194014072418213
","x: 270.4202880859375
y: 381.2402038574219
z: -0.08692513406276703
visibility: 0.9605224132537842
","x: 193.42445373535156
y: 444.5689392089844
z: -0.014519445598125458
visibility: 0.9013059735298157
","x: 231.58058166503906
y: 437.5614929199219
z: -0.037047602236270905
visibility: 0.9997434616088867
","x: 217.17311096191406
y: 445.8349609375
z: 0.03706350177526474
visibility: 0.9997783303260803
","x: 252.2589111328125
y: 497.9989929199219
z: -0.09266968816518784
visibility: 0.9980630278587341
","x: 191.54876708984375
y: 496.9090270996094
z: -0.06312365084886551
visibility: 0.9977028369903564
","x: 272.705322265625
y: 554.373291015625
z: -0.01767275109887123
visibility: 0.9953338503837585
","x: 199.80270385742188
y: 558.3775634765625
z: 0.08314619213342667
visibility: 0.9967008829116821
","x: 281.2622985839844
y: 560.5919799804688
z: -0.013520630076527596
visibility: 0.9674473404884338
","x: 205.16217041015625
y: 569.1785888671875
z: 0.09253992885351181
visibility: 0.9674052000045776
","x: 271.02099609375
y: 579.6502685546875
z: -0.11747834831476212
visibility: 0.9911028742790222
","x: 183.70387268066406
y: 575.4698486328125
z: 0.014352807775139809
visibility: 0.9914423823356628
","x: 266.88946533203125
y: 381.7181396484375
z: 0.0
","x: 270.963623046875
y: 384.908203125
z: 0.0015702219679951668
","x: 274.6252746582031
y: 384.8811340332031
z: 0.001442649750970304
","x: 277.24005126953125
y: 385.4535217285156
z: 0.00024341365497093648
","x: 279.01080322265625
y: 386.50628662109375
z: -0.0007544314721599221
","x: 276.8100280761719
y: 376.874755859375
z: 0.002433421090245247
","x: 280.6637878417969
y: 375.9400634765625
z: 0.0005339014460332692
","x: 283.2026062011719
y: 375.6932067871094
z: -0.0012597552267834544
","x: 285.2794189453125
y: 375.5625915527344
z: -0.002541684778407216
","x: 276.03631591796875
y: 376.3595886230469
z: -0.00013406906509771943
","x: 279.710693359375
y: 381.07183837890625
z: -0.0032251887023448944
","x: 279.4030456542969
y: 385.9719543457031
z: -0.004848101641982794
","x: 278.47039794921875
y: 388.86212158203125
z: -0.005378367844969034
","x: 275.05181884765625
y: 376.7572021484375
z: -0.002842656569555402
","x: 278.39984130859375
y: 380.9596252441406
z: -0.0055924770422279835
","x: 278.040771484375
y: 385.50341796875
z: -0.005896092392504215
","x: 277.0247802734375
y: 388.22119140625
z: -0.0055744461715221405
","x: 273.9269104003906
y: 378.06884765625
z: -0.005629084073007107
","x: 276.7610168457031
y: 380.2474670410156
z: -0.007312497589737177
","x: 277.0426940917969
y: 382.96881103515625
z: -0.007335791364312172
","x: 276.56353759765625
y: 384.893798828125
z: -0.007010487373918295
",,,,,,,,,,,,,,,,,,,,,
5,"x: 204.16896057128906
y: 323.5928649902344
z: -0.1874670684337616
visibility: 0.9999496936798096
","x: 206.21685791015625
y: 318.15911865234375
z: -0.17264491319656372
visibility: 0.9997537732124329
","x: 207.4079132080078
y: 318.16143798828125
z: -0.1726522594690323
visibility: 0.9997696280479431
","x: 208.5911407470703
y: 318.1453857421875
z: -0.17268890142440796
visibility: 0.9997162222862244
","x: 202.81979370117188
y: 317.9101867675781
z: -0.17591449618339539
visibility: 0.9998276233673096
","x: 201.5752716064453
y: 317.79339599609375
z: -0.17594105005264282
visibility: 0.9998326301574707
","x: 200.24571228027344
y: 317.688232421875
z: -0.175943061709404
visibility: 0.9998066425323486
","x: 209.7815704345703
y: 320.3251953125
z: -0.07404009997844696
visibility: 0.9996092915534973
","x: 197.93064880371094
y: 320.9864807128906
z: -0.09340890496969223
visibility: 0.9997586607933044
","x: 206.48333740234375
y: 329.5534973144531
z: -0.15114375948905945
visibility: 0.9998434782028198
","x: 201.89529418945312
y: 329.565185546875
z: -0.1561388373374939
visibility: 0.9998489618301392
","x: 220.9537353515625
y: 352.34130859375
z: -0.020732203498482704
visibility: 0.9998227953910828
","x: 188.20556640625
y: 363.7672424316406
z: -0.013220414519309998
visibility: 0.9998778700828552
","x: 243.0533447265625
y: 365.13861083984375
z: 0.04138045758008957
visibility: 0.9959232211112976
","x: 175.2052459716797
y: 396.27984619140625
z: -0.031881384551525116
visibility: 0.9777402281761169
","x: 266.169677734375
y: 368.52978515625
z: -0.023416953161358833
visibility: 0.9910517930984497
","x: 176.94252014160156
y: 421.11016845703125
z: -0.1875801533460617
visibility: 0.9636523723602295
","x: 275.5068359375
y: 369.022705078125
z: -0.0394003763794899
visibility: 0.970065176486969
","x: 177.02943420410156
y: 427.408935546875
z: -0.2175760716199875
visibility: 0.9244001507759094
","x: 275.98138427734375
y: 368.2426452636719
z: -0.06973378360271454
visibility: 0.9686136841773987
","x: 179.86904907226562
y: 424.4340515136719
z: -0.23648039996623993
visibility: 0.9250766038894653
","x: 272.97662353515625
y: 368.69683837890625
z: -0.03818673640489578
visibility: 0.962859570980072
","x: 180.6432342529297
y: 422.42364501953125
z: -0.19927045702934265
visibility: 0.9086690545082092
","x: 233.24945068359375
y: 440.2808837890625
z: -0.027903372421860695
visibility: 0.9997286796569824
","x: 214.76344299316406
y: 449.2765808105469
z: 0.027892377227544785
visibility: 0.999783456325531
","x: 253.83087158203125
y: 499.6705627441406
z: -0.044707585126161575
visibility: 0.998144268989563
","x: 188.59689331054688
y: 496.7348937988281
z: -0.12167346477508545
visibility: 0.9977633953094482
","x: 271.1954345703125
y: 552.14794921875
z: 0.13225547969341278
visibility: 0.995472252368927
","x: 199.78472900390625
y: 558.7481689453125
z: 0.027702514082193375
visibility: 0.9966760277748108
","x: 273.90087890625
y: 557.4765625
z: 0.1437956988811493
visibility: 0.9629977941513062
","x: 205.25814819335938
y: 569.1550903320312
z: 0.0379967987537384
visibility: 0.9691889882087708
","x: 270.57086181640625
y: 579.5784301757812
z: 0.04585642367601395
visibility: 0.9908292889595032
","x: 183.48355102539062
y: 576.5364379882812
z: -0.04076320305466652
visibility: 0.9915902018547058
",,,,,,,,,,,,,,,,,,,,,,,,,,,,,,,,,,,,,,,,,,
6,"x: 201.1750946044922
y: 323.2701110839844
z: -0.18724951148033142
visibility: 0.9999529719352722
","x: 203.09909057617188
y: 317.7743835449219
z: -0.16979466378688812
visibility: 0.9997720718383789
","x: 204.19276428222656
y: 317.9285583496094
z: -0.1697855293750763
visibility: 0.9997848272323608
","x: 205.30795288085938
y: 318.05035400390625
z: -0.1698182374238968
visibility: 0.9997364282608032
","x: 199.7454376220703
y: 317.2606201171875
z: -0.17255423963069916
visibility: 0.9998408555984497
","x: 198.47341918945312
y: 317.17730712890625
z: -0.17259445786476135
visibility: 0.9998457431793213
","x: 197.08987426757812
y: 317.1826477050781
z: -0.17257259786128998
visibility: 0.9998223185539246
","x: 206.6644744873047
y: 320.7717590332031
z: -0.06645379960536957
visibility: 0.9996370673179626
","x: 194.56996154785156
y: 321.29046630859375
z: -0.08144533634185791
visibility: 0.9997779130935669
","x: 203.40782165527344
y: 329.460205078125
z: -0.1496427208185196
visibility: 0.9998511672019958
","x: 198.9720916748047
y: 329.7342529296875
z: -0.15421856939792633
visibility: 0.9998587965965271
","x: 218.32119750976562
y: 352.047119140625
z: -0.02472410723567009
visibility: 0.9998376369476318
","x: 186.2821502685547
y: 363.9130859375
z: 0.005537801422178745
visibility: 0.9998655915260315
","x: 239.23275756835938
y: 363.9761962890625
z: 0.014726748690009117
visibility: 0.9960254430770874
","x: 171.9718475341797
y: 397.1144104003906
z: -0.08804042637348175
visibility: 0.9784830808639526
","x: 264.9186706542969
y: 365.5595703125
z: -0.026369178667664528
visibility: 0.9914615154266357
","x: 176.18133544921875
y: 384.46942138671875
z: -0.2889028787612915
visibility: 0.9659315943717957
","x: 273.62933349609375
y: 366.236572265625
z: -0.038615066558122635
visibility: 0.9717829823493958
","x: 178.45021057128906
y: 377.765625
z: -0.32404348254203796
visibility: 0.927990734577179
","x: 273.900390625
y: 366.0118408203125
z: -0.06250017136335373
visibility: 0.9706594944000244
","x: 181.11285400390625
y: 374.0843200683594
z: -0.3263273537158966
visibility: 0.92868971824646
","x: 271.2214660644531
y: 366.60565185546875
z: -0.03721967712044716
visibility: 0.9651203155517578
","x: 181.4677276611328
y: 377.4534606933594
z: -0.2950093448162079
visibility: 0.9134343266487122
","x: 231.6664581298828
y: 439.6469421386719
z: -0.042298976331949234
visibility: 0.9997382760047913
","x: 215.1689453125
y: 448.07818603515625
z: 0.042258135974407196
visibility: 0.9997869729995728
","x: 251.26272583007812
y: 501.6636657714844
z: -0.07132504135370255
visibility: 0.9982552528381348
","x: 188.7278594970703
y: 495.9579772949219
z: -0.10310856997966766
visibility: 0.9970271587371826
","x: 279.4597473144531
y: 551.2982788085938
z: -0.02170434407889843
visibility: 0.9958134889602661
","x: 199.77597045898438
y: 559.148681640625
z: 0.0025179923977702856
visibility: 0.9961619973182678
","x: 285.4080505371094
y: 555.23779296875
z: -0.020407332107424736
visibility: 0.9624689221382141
","x: 205.4146728515625
y: 569.3580932617188
z: 0.00926007516682148
visibility: 0.9698498249053955
","x: 274.31121826171875
y: 580.1343383789062
z: -0.1222354993224144
visibility: 0.9912981986999512
","x: 183.63754272460938
y: 576.66357421875
z: -0.06507430225610733
visibility: 0.9910890460014343
",,,,,,,,,,,,,,,,,,,,,,"x: 175.54766845703125
y: 381.0458679199219
z: 0.0
","x: 179.65689086914062
y: 378.49468994140625
z: 0.00021968035434838384
","x: 182.40451049804688
y: 373.07745361328125
z: -0.0005964452284388244
","x: 183.37673950195312
y: 368.0487060546875
z: -0.0021542254835367203
","x: 182.8607940673828
y: 364.4788818359375
z: -0.003150857286527753
","x: 181.48529052734375
y: 365.7353515625
z: 0.0005418091895990074
","x: 185.51699829101562
y: 364.2768859863281
z: -0.0019026915542781353
","x: 185.52369689941406
y: 367.9530334472656
z: -0.0029238287825137377
","x: 184.3748321533203
y: 370.10760498046875
z: -0.0033265200909227133
","x: 180.19424438476562
y: 364.93280029296875
z: -0.0013146596029400826
","x: 184.47195434570312
y: 363.5414123535156
z: -0.0038627968169748783
","x: 184.61927795410156
y: 367.0962829589844
z: -0.004302957560867071
","x: 183.62307739257812
y: 369.23931884765625
z: -0.004278361797332764
","x: 178.9170379638672
y: 365.0413818359375
z: -0.0035021190997213125
","x: 182.78736877441406
y: 364.7976989746094
z: -0.0055334619246423244
","x: 182.5605010986328
y: 368.604248046875
z: -0.004675507545471191
","x: 181.36883544921875
y: 370.7095642089844
z: -0.0038676769472658634
","x: 177.70655822753906
y: 366.1842041015625
z: -0.005924232769757509
","x: 181.05328369140625
y: 366.3397521972656
z: -0.006927741225808859
","x: 180.9700927734375
y: 369.36041259765625
z: -0.0060249436646699905
","x: 179.86038208007812
y: 371.1148376464844
z: -0.005157179199159145
"
7,"x: 201.1750946044922
y: 323.2701110839844
z: -0.18724951148033142
visibility: 0.9999529719352722
","x: 203.09909057617188
y: 317.7743835449219
z: -0.16979466378688812
visibility: 0.9997720718383789
","x: 204.19276428222656
y: 317.9285583496094
z: -0.1697855293750763
visibility: 0.9997848272323608
","x: 205.30795288085938
y: 318.05035400390625
z: -0.1698182374238968
visibility: 0.9997364282608032
","x: 199.7454376220703
y: 317.2606201171875
z: -0.17255423963069916
visibility: 0.9998408555984497
","x: 198.47341918945312
y: 317.17730712890625
z: -0.17259445786476135
visibility: 0.9998457431793213
","x: 197.08987426757812
y: 317.1826477050781
z: -0.17257259786128998
visibility: 0.9998223185539246
","x: 206.6644744873047
y: 320.7717590332031
z: -0.06645379960536957
visibility: 0.9996370673179626
","x: 194.56996154785156
y: 321.29046630859375
z: -0.08144533634185791
visibility: 0.9997779130935669
","x: 203.40782165527344
y: 329.460205078125
z: -0.1496427208185196
visibility: 0.9998511672019958
","x: 198.9720916748047
y: 329.7342529296875
z: -0.15421856939792633
visibility: 0.9998587965965271
","x: 218.32119750976562
y: 352.047119140625
z: -0.02472410723567009
visibility: 0.9998376369476318
","x: 186.2821502685547
y: 363.9130859375
z: 0.005537801422178745
visibility: 0.9998655915260315
","x: 239.23275756835938
y: 363.9761962890625
z: 0.014726748690009117
visibility: 0.9960254430770874
","x: 171.9718475341797
y: 397.1144104003906
z: -0.08804042637348175
visibility: 0.9784830808639526
","x: 264.9186706542969
y: 365.5595703125
z: -0.026369178667664528
visibility: 0.9914615154266357
","x: 176.18133544921875
y: 384.46942138671875
z: -0.2889028787612915
visibility: 0.9659315943717957
","x: 273.62933349609375
y: 366.236572265625
z: -0.038615066558122635
visibility: 0.9717829823493958
","x: 178.45021057128906
y: 377.765625
z: -0.32404348254203796
visibility: 0.927990734577179
","x: 273.900390625
y: 366.0118408203125
z: -0.06250017136335373
visibility: 0.9706594944000244
","x: 181.11285400390625
y: 374.0843200683594
z: -0.3263273537158966
visibility: 0.92868971824646
","x: 271.2214660644531
y: 366.60565185546875
z: -0.03721967712044716
visibility: 0.9651203155517578
","x: 181.4677276611328
y: 377.4534606933594
z: -0.2950093448162079
visibility: 0.9134343266487122
","x: 231.6664581298828
y: 439.6469421386719
z: -0.042298976331949234
visibility: 0.9997382760047913
","x: 215.1689453125
y: 448.07818603515625
z: 0.042258135974407196
visibility: 0.9997869729995728
","x: 251.26272583007812
y: 501.6636657714844
z: -0.07132504135370255
visibility: 0.9982552528381348
","x: 188.7278594970703
y: 495.9579772949219
z: -0.10310856997966766
visibility: 0.9970271587371826
","x: 279.4597473144531
y: 551.2982788085938
z: -0.02170434407889843
visibility: 0.9958134889602661
","x: 199.77597045898438
y: 559.148681640625
z: 0.0025179923977702856
visibility: 0.9961619973182678
","x: 285.4080505371094
y: 555.23779296875
z: -0.020407332107424736
visibility: 0.9624689221382141
","x: 205.4146728515625
y: 569.3580932617188
z: 0.00926007516682148
visibility: 0.9698498249053955
","x: 274.31121826171875
y: 580.1343383789062
z: -0.1222354993224144
visibility: 0.9912981986999512
","x: 183.63754272460938
y: 576.66357421875
z: -0.06507430225610733
visibility: 0.9910890460014343
",,,,,,,,,,,,,,,,,,,,,,"x: 175.54766845703125
y: 381.0458679199219
z: 0.0
","x: 179.65689086914062
y: 378.49468994140625
z: 0.00021968035434838384
","x: 182.40451049804688
y: 373.07745361328125
z: -0.0005964452284388244
","x: 183.37673950195312
y: 368.0487060546875
z: -0.0021542254835367203
","x: 182.8607940673828
y: 364.4788818359375
z: -0.003150857286527753
","x: 181.48529052734375
y: 365.7353515625
z: 0.0005418091895990074
","x: 185.51699829101562
y: 364.2768859863281
z: -0.0019026915542781353
","x: 185.52369689941406
y: 367.9530334472656
z: -0.0029238287825137377
","x: 184.3748321533203
y: 370.10760498046875
z: -0.0033265200909227133
","x: 180.19424438476562
y: 364.93280029296875
z: -0.0013146596029400826
","x: 184.47195434570312
y: 363.5414123535156
z: -0.0038627968169748783
","x: 184.61927795410156
y: 367.0962829589844
z: -0.004302957560867071
","x: 183.62307739257812
y: 369.23931884765625
z: -0.004278361797332764
","x: 178.9170379638672
y: 365.0413818359375
z: -0.0035021190997213125
","x: 182.78736877441406
y: 364.7976989746094
z: -0.0055334619246423244
","x: 182.5605010986328
y: 368.604248046875
z: -0.004675507545471191
","x: 181.36883544921875
y: 370.7095642089844
z: -0.0038676769472658634
","x: 177.70655822753906
y: 366.1842041015625
z: -0.005924232769757509
","x: 181.05328369140625
y: 366.3397521972656
z: -0.006927741225808859
","x: 180.9700927734375
y: 369.36041259765625
z: -0.0060249436646699905
","x: 179.86038208007812
y: 371.1148376464844
z: -0.005157179199159145
"
8,"x: 202.37762451171875
y: 315.68792724609375
z: -0.1627637892961502
visibility: 0.9999568462371826
","x: 204.27691650390625
y: 311.3699035644531
z: -0.14307308197021484
visibility: 0.9997923970222473
","x: 205.5215606689453
y: 311.6881103515625
z: -0.14303389191627502
visibility: 0.9998030662536621
","x: 206.6182403564453
y: 312.03924560546875
z: -0.1430189311504364
visibility: 0.9997596144676208
","x: 200.344970703125
y: 310.89581298828125
z: -0.14800988137722015
visibility: 0.9998549222946167
","x: 198.90281677246094
y: 311.0039978027344
z: -0.14805534482002258
visibility: 0.9998595118522644
","x: 197.51742553710938
y: 311.1786193847656
z: -0.1480485498905182
visibility: 0.9998384714126587
","x: 207.7113800048828
y: 316.5893249511719
z: -0.03854874521493912
visibility: 0.9996688961982727
","x: 195.5203857421875
y: 315.7821044921875
z: -0.06252099573612213
visibility: 0.9997985363006592
","x: 204.57298278808594
y: 323.0845642089844
z: -0.12403984367847443
visibility: 0.9998629689216614
","x: 199.80694580078125
y: 322.0150146484375
z: -0.13127782940864563
visibility: 0.9998708963394165
","x: 218.92051696777344
y: 348.38323974609375
z: 0.0024714882019907236
visibility: 0.9998509287834167
","x: 188.1721649169922
y: 360.02618408203125
z: -0.008699742145836353
visibility: 0.9998700022697449
","x: 240.5711669921875
y: 363.772705078125
z: 0.015519206412136555
visibility: 0.9959606528282166
","x: 177.52394104003906
y: 387.34429931640625
z: -0.1501617431640625
visibility: 0.9799771308898926
","x: 264.98883056640625
y: 372.75927734375
z: -0.05310766026377678
visibility: 0.9917153716087341
","x: 177.874755859375
y: 353.4888916015625
z: -0.3285270631313324
visibility: 0.9685803651809692
","x: 273.6835632324219
y: 372.6736755371094
z: -0.06753986328840256
visibility: 0.9731208086013794
","x: 191.3556671142578
y: 344.5001220703125
z: -0.36597657203674316
visibility: 0.9324188232421875
","x: 274.1909484863281
y: 370.95831298828125
z: -0.08961138129234314
visibility: 0.9723003506660461
","x: 189.87774658203125
y: 342.729736328125
z: -0.35567885637283325
visibility: 0.9328967928886414
","x: 271.6300964355469
y: 371.6238098144531
z: -0.06417379528284073
visibility: 0.9669955968856812
","x: 184.5478973388672
y: 345.9068603515625
z: -0.3287683129310608
visibility: 0.9184373617172241
","x: 232.2185516357422
y: 435.6776428222656
z: -0.03340453654527664
visibility: 0.9997531175613403
","x: 214.79713439941406
y: 446.1313171386719
z: 0.033359069377183914
visibility: 0.9997998476028442
","x: 250.35693359375
y: 497.87158203125
z: -0.07329307496547699
visibility: 0.9983382225036621
","x: 190.85813903808594
y: 495.4493713378906
z: -0.11876016855239868
visibility: 0.9968158602714539
","x: 277.32720947265625
y: 545.395263671875
z: 0.0029957289807498455
visibility: 0.996071994304657
","x: 199.74110412597656
y: 559.365478515625
z: -0.0156623013317585
visibility: 0.9959506392478943
","x: 280.947509765625
y: 549.1569213867188
z: 0.01651664264500141
visibility: 0.9600725769996643
","x: 205.21961975097656
y: 569.47900390625
z: -0.00848289392888546
visibility: 0.970301628112793
","x: 276.09295654296875
y: 578.823974609375
z: -0.1054033488035202
visibility: 0.991531252861023
","x: 183.8024444580078
y: 576.1295776367188
z: -0.08690373599529266
visibility: 0.990913987159729
",,,,,,,,,,,,,,,,,,,,,,,,,,,,,,,,,,,,,,,,,,
9,"x: 205.26806640625
y: 315.7481689453125
z: -0.1379195600748062
visibility: 0.9999569058418274
","x: 206.92906188964844
y: 311.4373474121094
z: -0.1210346668958664
visibility: 0.9998030066490173
","x: 207.89410400390625
y: 311.726318359375
z: -0.12099709361791611
visibility: 0.9998094439506531
","x: 208.81752014160156
y: 311.9952087402344
z: -0.12098906189203262
visibility: 0.99977046251297
","x: 203.8509979248047
y: 310.8618469238281
z: -0.12658870220184326
visibility: 0.9998610615730286
","x: 202.64195251464844
y: 310.94635009765625
z: -0.1266247034072876
visibility: 0.9998654127120972
","x: 201.33831787109375
y: 311.1133117675781
z: -0.1266551911830902
visibility: 0.9998462200164795
","x: 209.36477661132812
y: 316.10015869140625
z: -0.023818369954824448
visibility: 0.9996864199638367
","x: 198.93994140625
y: 315.7568359375
z: -0.0517406165599823
visibility: 0.9998114109039307
","x: 206.73202514648438
y: 323.0220947265625
z: -0.10059024393558502
visibility: 0.9998664855957031
","x: 202.99362182617188
y: 322.0005798339844
z: -0.10891281068325043
visibility: 0.9998766779899597
","x: 219.7698516845703
y: 347.9538269042969
z: 0.01491102296859026
visibility: 0.9998616576194763
","x: 189.8216094970703
y: 353.34893798828125
z: -0.013334497809410095
visibility: 0.9998730421066284
","x: 240.97091674804688
y: 367.8814392089844
z: 0.01577829197049141
visibility: 0.9954593181610107
","x: 181.69386291503906
y: 380.45892333984375
z: -0.16120801866054535
visibility: 0.9805351495742798
","x: 265.98150634765625
y: 380.84228515625
z: -0.06208230182528496
visibility: 0.9919260144233704
","x: 200.78289794921875
y: 356.00994873046875
z: -0.33097007870674133
visibility: 0.97035151720047
","x: 274.4272766113281
y: 380.61053466796875
z: -0.07842773199081421
visibility: 0.9744424819946289
","x: 208.713134765625
y: 349.9706726074219
z: -0.36713048815727234
visibility: 0.9351984262466431
","x: 275.2528991699219
y: 378.91864013671875
z: -0.10149814188480377
visibility: 0.9738814234733582
","x: 208.87478637695312
y: 346.185546875
z: -0.35972365736961365
visibility: 0.9355878233909607
","x: 272.7625732421875
y: 379.6410827636719
z: -0.07350758463144302
visibility: 0.968802273273468
","x: 206.087158203125
y: 348.5077209472656
z: -0.33185556530952454
visibility: 0.921636164188385
","x: 232.42955017089844
y: 434.9388122558594
z: -0.02831963822245598
visibility: 0.9997667074203491
","x: 214.77296447753906
y: 445.4942626953125
z: 0.028401518240571022
visibility: 0.9998148083686829
","x: 250.49252319335938
y: 498.0184326171875
z: -0.03861726447939873
visibility: 0.9983287453651428
","x: 191.12132263183594
y: 495.4080810546875
z: -0.13361841440200806
visibility: 0.9966069459915161
","x: 270.86566162109375
y: 547.3074951171875
z: 0.11406358331441879
visibility: 0.995955228805542
","x: 199.74783325195312
y: 559.3765869140625
z: -0.03682192787528038
visibility: 0.9955080151557922
","x: 274.78326416015625
y: 552.1791381835938
z: 0.12560971081256866
visibility: 0.9543043375015259
","x: 205.1923828125
y: 569.3482666015625
z: -0.030225764960050583
visibility: 0.9696187973022461
","x: 270.65496826171875
y: 577.7086181640625
z: 0.045406777411699295
visibility: 0.9905701279640198
","x: 183.982177734375
y: 576.1041870117188
z: -0.10570933669805527
visibility: 0.9902923107147217
",,,,,,,,,,,,,,,,,,,,,,"x: 203.59988403320312
y: 354.6885986328125
z: 0.0
","x: 208.49656677246094
y: 353.39288330078125
z: 0.0014607920311391354
","x: 212.42413330078125
y: 349.81658935546875
z: 0.0009653130546212196
","x: 214.99276733398438
y: 347.5622253417969
z: -0.0006985850632190704
","x: 216.5511016845703
y: 345.79345703125
z: -0.0021589547395706177
","x: 212.20237731933594
y: 339.74578857421875
z: 0.0025710014160722494
","x: 215.6396484375
y: 336.6226806640625
z: 0.00018952424579765648
","x: 218.45323181152344
y: 336.1144714355469
z: -0.0017260968452319503
","x: 220.73538208007812
y: 336.241455078125
z: -0.0029106680303812027
","x: 210.9138641357422
y: 338.4736328125
z: -0.00044588505988940597
","x: 214.9681854248047
y: 335.2061462402344
z: -0.002381484257057309
","x: 218.12461853027344
y: 335.62066650390625
z: -0.0038444867823272943
","x: 220.62710571289062
y: 336.69647216796875
z: -0.004959549754858017
","x: 209.525146484375
y: 338.2881164550781
z: -0.003858984215185046
","x: 213.76597595214844
y: 337.75823974609375
z: -0.005808018147945404
","x: 215.52439880371094
y: 339.9017028808594
z: -0.006325557362288237
","x: 216.50958251953125
y: 341.7820739746094
z: -0.006647264584898949
","x: 207.947265625
y: 339.6798400878906
z: -0.007443869486451149
","x: 211.46780395507812
y: 341.022216796875
z: -0.008534087799489498
","x: 211.8655548095703
y: 343.80462646484375
z: -0.00814722292125225
","x: 211.41477966308594
y: 346.07220458984375
z: -0.007893843576312065
"
10,"x: 205.26806640625
y: 315.7481689453125
z: -0.1379195600748062
visibility: 0.9999569058418274
","x: 206.92906188964844
y: 311.4373474121094
z: -0.1210346668958664
visibility: 0.9998030066490173
","x: 207.89410400390625
y: 311.726318359375
z: -0.12099709361791611
visibility: 0.9998094439506531
","x: 208.81752014160156
y: 311.9952087402344
z: -0.12098906189203262
visibility: 0.99977046251297
","x: 203.8509979248047
y: 310.8618469238281
z: -0.12658870220184326
visibility: 0.9998610615730286
","x: 202.64195251464844
y: 310.94635009765625
z: -0.1266247034072876
visibility: 0.9998654127120972
","x: 201.33831787109375
y: 311.1133117675781
z: -0.1266551911830902
visibility: 0.9998462200164795
","x: 209.36477661132812
y: 316.10015869140625
z: -0.023818369954824448
visibility: 0.9996864199638367
","x: 198.93994140625
y: 315.7568359375
z: -0.0517406165599823
visibility: 0.9998114109039307
","x: 206.73202514648438
y: 323.0220947265625
z: -0.10059024393558502
visibility: 0.9998664855957031
","x: 202.99362182617188
y: 322.0005798339844
z: -0.10891281068325043
visibility: 0.9998766779899597
","x: 219.7698516845703
y: 347.9538269042969
z: 0.01491102296859026
visibility: 0.9998616576194763
","x: 189.8216094970703
y: 353.34893798828125
z: -0.013334497809410095
visibility: 0.9998730421066284
","x: 240.97091674804688
y: 367.8814392089844
z: 0.01577829197049141
visibility: 0.9954593181610107
","x: 181.69386291503906
y: 380.45892333984375
z: -0.16120801866054535
visibility: 0.9805351495742798
","x: 265.98150634765625
y: 380.84228515625
z: -0.06208230182528496
visibility: 0.9919260144233704
","x: 200.78289794921875
y: 356.00994873046875
z: -0.33097007870674133
visibility: 0.97035151720047
","x: 274.4272766113281
y: 380.61053466796875
z: -0.07842773199081421
visibility: 0.9744424819946289
","x: 208.713134765625
y: 349.9706726074219
z: -0.36713048815727234
visibility: 0.9351984262466431
","x: 275.2528991699219
y: 378.91864013671875
z: -0.10149814188480377
visibility: 0.9738814234733582
","x: 208.87478637695312
y: 346.185546875
z: -0.35972365736961365
visibility: 0.9355878233909607
","x: 272.7625732421875
y: 379.6410827636719
z: -0.07350758463144302
visibility: 0.968802273273468
","x: 206.087158203125
y: 348.5077209472656
z: -0.33185556530952454
visibility: 0.921636164188385
","x: 232.42955017089844
y: 434.9388122558594
z: -0.02831963822245598
visibility: 0.9997667074203491
","x: 214.77296447753906
y: 445.4942626953125
z: 0.028401518240571022
visibility: 0.9998148083686829
","x: 250.49252319335938
y: 498.0184326171875
z: -0.03861726447939873
visibility: 0.9983287453651428
","x: 191.12132263183594
y: 495.4080810546875
z: -0.13361841440200806
visibility: 0.9966069459915161
","x: 270.86566162109375
y: 547.3074951171875
z: 0.11406358331441879
visibility: 0.995955228805542
","x: 199.74783325195312
y: 559.3765869140625
z: -0.03682192787528038
visibility: 0.9955080151557922
","x: 274.78326416015625
y: 552.1791381835938
z: 0.12560971081256866
visibility: 0.9543043375015259
","x: 205.1923828125
y: 569.3482666015625
z: -0.030225764960050583
visibility: 0.9696187973022461
","x: 270.65496826171875
y: 577.7086181640625
z: 0.045406777411699295
visibility: 0.9905701279640198
","x: 183.982177734375
y: 576.1041870117188
z: -0.10570933669805527
visibility: 0.9902923107147217
",,,,,,,,,,,,,,,,,,,,,,"x: 203.59988403320312
y: 354.6885986328125
z: 0.0
","x: 208.49656677246094
y: 353.39288330078125
z: 0.0014607920311391354
","x: 212.42413330078125
y: 349.81658935546875
z: 0.0009653130546212196
","x: 214.99276733398438
y: 347.5622253417969
z: -0.0006985850632190704
","x: 216.5511016845703
y: 345.79345703125
z: -0.0021589547395706177
","x: 212.20237731933594
y: 339.74578857421875
z: 0.0025710014160722494
","x: 215.6396484375
y: 336.6226806640625
z: 0.00018952424579765648
","x: 218.45323181152344
y: 336.1144714355469
z: -0.0017260968452319503
","x: 220.73538208007812
y: 336.241455078125
z: -0.0029106680303812027
","x: 210.9138641357422
y: 338.4736328125
z: -0.00044588505988940597
","x: 214.9681854248047
y: 335.2061462402344
z: -0.002381484257057309
","x: 218.12461853027344
y: 335.62066650390625
z: -0.0038444867823272943
","x: 220.62710571289062
y: 336.69647216796875
z: -0.004959549754858017
","x: 209.525146484375
y: 338.2881164550781
z: -0.003858984215185046
","x: 213.76597595214844
y: 337.75823974609375
z: -0.005808018147945404
","x: 215.52439880371094
y: 339.9017028808594
z: -0.006325557362288237
","x: 216.50958251953125
y: 341.7820739746094
z: -0.006647264584898949
","x: 207.947265625
y: 339.6798400878906
z: -0.007443869486451149
","x: 211.46780395507812
y: 341.022216796875
z: -0.008534087799489498
","x: 211.8655548095703
y: 343.80462646484375
z: -0.00814722292125225
","x: 211.41477966308594
y: 346.07220458984375
z: -0.007893843576312065
"
11,"x: 229.947998046875
y: 326.5329284667969
z: -0.21571972966194153
visibility: 0.9999560117721558
","x: 231.57913208007812
y: 322.5321044921875
z: -0.21003203094005585
visibility: 0.9998059868812561
","x: 232.14794921875
y: 322.6028137207031
z: -0.21000507473945618
visibility: 0.9998114109039307
","x: 232.57887268066406
y: 322.686767578125
z: -0.21000678837299347
visibility: 0.9997671842575073
","x: 230.52096557617188
y: 320.3349304199219
z: -0.22080862522125244
visibility: 0.9998611211776733
","x: 229.9305419921875
y: 319.44500732421875
z: -0.2209126055240631
visibility: 0.9998673796653748
","x: 229.20864868164062
y: 318.3877258300781
z: -0.2209751307964325
visibility: 0.9998448491096497
","x: 230.786865234375
y: 322.42822265625
z: -0.13344517350196838
visibility: 0.999691903591156
","x: 223.71734619140625
y: 318.4451904296875
z: -0.18796469271183014
visibility: 0.9998204708099365
","x: 227.28851318359375
y: 332.53790283203125
z: -0.18320448696613312
visibility: 0.9998683333396912
","x: 225.17710876464844
y: 328.8037414550781
z: -0.19939401745796204
visibility: 0.999880850315094
","x: 233.88694763183594
y: 350.3796081542969
z: -0.078423872590065
visibility: 0.9998683333396912
","x: 196.32257080078125
y: 347.1127014160156
z: -0.11974304914474487
visibility: 0.9998841881752014
","x: 248.99351501464844
y: 389.26214599609375
z: -0.070994071662426
visibility: 0.9893079400062561
","x: 182.67381286621094
y: 376.220458984375
z: -0.20098504424095154
visibility: 0.9806684255599976
","x: 269.91461181640625
y: 387.86505126953125
z: -0.19238312542438507
visibility: 0.9903568625450134
","x: 182.87310791015625
y: 374.880126953125
z: -0.3817001283168793
visibility: 0.9722636342048645
","x: 277.8780517578125
y: 384.3423156738281
z: -0.21866974234580994
visibility: 0.9730602502822876
","x: 177.9344482421875
y: 358.3062438964844
z: -0.41569018363952637
visibility: 0.9396349191665649
","x: 278.5022277832031
y: 382.0834655761719
z: -0.24317701160907745
visibility: 0.973267674446106
","x: 179.8897247314453
y: 361.8058776855469
z: -0.43229803442955017
visibility: 0.9403173923492432
","x: 276.2002258300781
y: 383.201171875
z: -0.2071685791015625
visibility: 0.9680538177490234
","x: 182.8162384033203
y: 352.79791259765625
z: -0.3936106562614441
visibility: 0.9273350238800049
","x: 233.6670684814453
y: 435.5852966308594
z: -0.005794766824692488
visibility: 0.9997760653495789
","x: 215.685546875
y: 443.0967712402344
z: 0.005902918986976147
visibility: 0.9998286366462708
","x: 252.24684143066406
y: 502.168212890625
z: -0.017257530242204666
visibility: 0.9981070756912231
","x: 191.36090087890625
y: 490.34063720703125
z: -0.1184396967291832
visibility: 0.9966233372688293
","x: 258.8093566894531
y: 556.53759765625
z: 0.1593310683965683
visibility: 0.9955316185951233
","x: 195.35240173339844
y: 555.0560302734375
z: 0.013941818848252296
visibility: 0.9953848719596863
","x: 256.62396240234375
y: 564.9518432617188
z: 0.1726573407649994
visibility: 0.9550212025642395
","x: 199.69154357910156
y: 564.298828125
z: 0.021405454725027084
visibility: 0.9700989127159119
","x: 269.0170593261719
y: 576.90087890625
z: 0.10096565634012222
visibility: 0.9898488521575928
","x: 183.9847412109375
y: 575.7579345703125
z: -0.08136630058288574
visibility: 0.9903299808502197
",,,,,,,,,,,,,,,,,,,,,,,,,,,,,,,,,,,,,,,,,,
12,"x: 253.7545166015625
y: 331.16937255859375
z: -0.20414528250694275
visibility: 0.9999145269393921
","x: 255.61048889160156
y: 325.5198669433594
z: -0.19641172885894775
visibility: 0.9997598528862
","x: 255.71136474609375
y: 325.6741943359375
z: -0.19641275703907013
visibility: 0.9997583627700806
","x: 255.78489685058594
y: 325.91455078125
z: -0.1964031606912613
visibility: 0.9996876120567322
","x: 254.50807189941406
y: 325.5664367675781
z: -0.2137414664030075
visibility: 0.9997990131378174
","x: 253.69625854492188
y: 324.1708068847656
z: -0.21381983160972595
visibility: 0.9998123645782471
","x: 252.88038635253906
y: 322.7498779296875
z: -0.21388061344623566
visibility: 0.9997720718383789
","x: 251.3540802001953
y: 326.09661865234375
z: -0.12614741921424866
visibility: 0.9995032548904419
","x: 245.84927368164062
y: 319.7708740234375
z: -0.21730084717273712
visibility: 0.9997895956039429
","x: 249.74684143066406
y: 333.2818298339844
z: -0.1737465113401413
visibility: 0.9998297691345215
","x: 248.73338317871094
y: 330.7907409667969
z: -0.19873687624931335
visibility: 0.9998629689216614
","x: 247.2435302734375
y: 351.4761047363281
z: -0.06905372440814972
visibility: 0.999868631362915
","x: 214.13909912109375
y: 348.28387451171875
z: -0.1586311310529709
visibility: 0.9998923540115356
","x: 254.88418579101562
y: 399.8018798828125
z: -0.06644512712955475
visibility: 0.9363818168640137
","x: 194.3019561767578
y: 376.039794921875
z: -0.15052573382854462
visibility: 0.9819454550743103
","x: 272.0776672363281
y: 384.85833740234375
z: -0.23427264392375946
visibility: 0.98191899061203
","x: 182.47021484375
y: 388.230712890625
z: -0.23329894244670868
visibility: 0.9744710922241211
","x: 278.1584777832031
y: 380.1802062988281
z: -0.2673764228820801
visibility: 0.965512216091156
","x: 176.70985412597656
y: 391.24102783203125
z: -0.2562180757522583
visibility: 0.9444077014923096
","x: 279.1524353027344
y: 377.4720764160156
z: -0.29493603110313416
visibility: 0.9674516916275024
","x: 177.79693603515625
y: 397.154541015625
z: -0.28770095109939575
visibility: 0.945252537727356
","x: 276.8477478027344
y: 379.269287109375
z: -0.25180554389953613
visibility: 0.9623415470123291
","x: 180.20077514648438
y: 393.3359069824219
z: -0.2458232343196869
visibility: 0.9331517815589905
","x: 238.97488403320312
y: 437.5230712890625
z: 0.02822888456285
visibility: 0.9997870922088623
","x: 219.73574829101562
y: 441.42138671875
z: -0.02806752361357212
visibility: 0.9998334050178528
","x: 253.85140991210938
y: 502.1313781738281
z: 0.04966755956411362
visibility: 0.9958972930908203
","x: 193.43124389648438
y: 490.6689147949219
z: -0.0619654543697834
visibility: 0.9964838624000549
","x: 256.9353332519531
y: 558.2385864257812
z: 0.23936299979686737
visibility: 0.9940596222877502
","x: 178.4792938232422
y: 548.2337646484375
z: 0.04882443696260452
visibility: 0.9949299097061157
","x: 253.8546142578125
y: 567.5830078125
z: 0.2546091079711914
visibility: 0.9548762440681458
","x: 177.19142150878906
y: 554.7896728515625
z: 0.05618996173143387
visibility: 0.9639952778816223
","x: 269.0179443359375
y: 576.75732421875
z: 0.1962582767009735
visibility: 0.9877168536186218
","x: 174.47511291503906
y: 573.3763427734375
z: -0.018637610599398613
visibility: 0.9898891448974609
",,,,,,,,,,,,,,,,,,,,,,,,,,,,,,,,,,,,,,,,,,
13,"x: 261.648193359375
y: 326.25189208984375
z: -0.20133645832538605
visibility: 0.9999222159385681
","x: 264.0738525390625
y: 323.33697509765625
z: -0.1874808371067047
visibility: 0.9997828006744385
","x: 264.6468505859375
y: 322.8009338378906
z: -0.18746541440486908
visibility: 0.9997811913490295
","x: 265.2096252441406
y: 322.79107666015625
z: -0.18745771050453186
visibility: 0.999717116355896
","x: 262.2814636230469
y: 321.0006408691406
z: -0.20124073326587677
visibility: 0.9998178482055664
","x: 261.5230712890625
y: 318.65289306640625
z: -0.20128758251667023
visibility: 0.999829888343811
","x: 260.65380859375
y: 316.5643615722656
z: -0.20131893455982208
visibility: 0.9997931718826294
","x: 265.17742919921875
y: 324.1458740234375
z: -0.07437826693058014
visibility: 0.9995471239089966
","x: 258.56390380859375
y: 316.9464416503906
z: -0.15921588242053986
visibility: 0.999809741973877
","x: 260.6260681152344
y: 332.36578369140625
z: -0.16724494099617004
visibility: 0.9998456835746765
","x: 258.1449890136719
y: 326.17919921875
z: -0.18478968739509583
visibility: 0.9998761415481567
","x: 259.03582763671875
y: 354.5472717285156
z: 0.02096322923898697
visibility: 0.9998795390129089
","x: 232.8226776123047
y: 342.08447265625
z: -0.10294447094202042
visibility: 0.9999023079872131
","x: 263.5436096191406
y: 399.8293762207031
z: -0.0013653009664267302
visibility: 0.9279671311378479
","x: 213.6269989013672
y: 367.6961975097656
z: -0.08658995479345322
visibility: 0.9833022952079773
","x: 274.0566101074219
y: 380.4151916503906
z: -0.21156811714172363
visibility: 0.9814824461936951
","x: 203.0650177001953
y: 388.8681640625
z: -0.14672306180000305
visibility: 0.9761799573898315
","x: 277.6909484863281
y: 376.90240478515625
z: -0.24966928362846375
visibility: 0.965847909450531
","x: 199.9647674560547
y: 397.8535461425781
z: -0.172929584980011
visibility: 0.9481230974197388
","x: 277.5706787109375
y: 372.3352355957031
z: -0.2707633376121521
visibility: 0.9678829312324524
","x: 201.30308532714844
y: 402.4355773925781
z: -0.19121307134628296
visibility: 0.9490620493888855
","x: 275.7386779785156
y: 373.7790222167969
z: -0.22647786140441895
visibility: 0.9621906280517578
","x: 202.718994140625
y: 399.5841064453125
z: -0.15433412790298462
visibility: 0.9371954202651978
","x: 244.3282470703125
y: 439.31072998046875
z: 0.049382422119379044
visibility: 0.9997991919517517
","x: 227.49462890625
y: 437.81329345703125
z: -0.04934423044323921
visibility: 0.999835729598999
","x: 258.40740966796875
y: 502.6583557128906
z: 0.0273010041564703
visibility: 0.9948895573616028
","x: 199.93386840820312
y: 491.36004638671875
z: -0.08837391436100006
visibility: 0.9967343807220459
","x: 257.60552978515625
y: 559.6941528320312
z: 0.2025448977947235
visibility: 0.9939506649971008
","x: 173.43374633789062
y: 543.1810913085938
z: 0.0003903077740687877
visibility: 0.995293378829956
","x: 253.6845245361328
y: 569.6129150390625
z: 0.21644127368927002
visibility: 0.9577181935310364
","x: 169.89601135253906
y: 546.6572875976562
z: 0.006171640940010548
visibility: 0.9644300937652588
","x: 269.39093017578125
y: 576.751220703125
z: 0.15205268561840057
visibility: 0.9877294301986694
","x: 170.01734924316406
y: 571.5363159179688
z: -0.08282104879617691
visibility: 0.9904769062995911
",,,,,,,,,,,,,,,,,,,,,,,,,,,,,,,,,,,,,,,,,,
14,"x: 266.0345764160156
y: 326.9920349121094
z: -0.22268852591514587
visibility: 0.9999226331710815
","x: 268.5919494628906
y: 323.1175231933594
z: -0.20625276863574982
visibility: 0.9997974634170532
","x: 269.3963317871094
y: 323.30804443359375
z: -0.20630331337451935
visibility: 0.999795138835907
","x: 270.1912841796875
y: 323.7228088378906
z: -0.20635953545570374
visibility: 0.99973464012146
","x: 266.12506103515625
y: 320.347412109375
z: -0.21873018145561218
visibility: 0.9998273849487305
","x: 265.1457214355469
y: 318.68829345703125
z: -0.21876943111419678
visibility: 0.9998388290405273
","x: 264.2146301269531
y: 317.20953369140625
z: -0.21881696581840515
visibility: 0.9998022317886353
","x: 270.3673400878906
y: 324.28265380859375
z: -0.09508894383907318
visibility: 0.9995750188827515
","x: 261.84429931640625
y: 317.0419616699219
z: -0.15917013585567474
visibility: 0.9998214244842529
","x: 266.265625
y: 332.011474609375
z: -0.18123221397399902
visibility: 0.9998500347137451
","x: 263.1156311035156
y: 327.1011962890625
z: -0.19885650277137756
visibility: 0.9998823404312134
","x: 268.3754577636719
y: 355.9014587402344
z: 0.009682930074632168
visibility: 0.9998403191566467
","x: 238.74850463867188
y: 342.2320556640625
z: -0.11816650629043579
visibility: 0.9998899698257446
","x: 265.5240478515625
y: 404.3965148925781
z: -0.11772413551807404
visibility: 0.9103403091430664
","x: 228.01612854003906
y: 370.20159912109375
z: -0.21995623409748077
visibility: 0.9688580632209778
","x: 268.217529296875
y: 375.2767333984375
z: -0.3104965090751648
visibility: 0.9653903841972351
","x: 235.55995178222656
y: 391.1628723144531
z: -0.3621610999107361
visibility: 0.94174724817276
","x: 265.4833679199219
y: 371.4337158203125
z: -0.3466901183128357
visibility: 0.9470395445823669
","x: 242.17425537109375
y: 392.4288330078125
z: -0.39575356245040894
visibility: 0.9089603424072266
","x: 268.7445373535156
y: 368.02679443359375
z: -0.3462580144405365
visibility: 0.9489437937736511
","x: 243.70530700683594
y: 389.432861328125
z: -0.3928219974040985
visibility: 0.9088470339775085
","x: 267.83673095703125
y: 369.6349792480469
z: -0.3151930868625641
visibility: 0.9372262358665466
","x: 243.20237731933594
y: 388.6910705566406
z: -0.3633035719394684
visibility: 0.8870330452919006
","x: 247.00839233398438
y: 443.0712890625
z: 0.03635602444410324
visibility: 0.9998058676719666
","x: 229.3109588623047
y: 438.08721923828125
z: -0.03636401891708374
visibility: 0.9998342394828796
","x: 261.06103515625
y: 504.71551513671875
z: -0.011422708630561829
visibility: 0.9950947761535645
","x: 203.57704162597656
y: 492.2383117675781
z: -0.07990924268960953
visibility: 0.9969872832298279
","x: 256.93414306640625
y: 559.8851318359375
z: 0.16696003079414368
visibility: 0.9943081140518188
","x: 177.25567626953125
y: 542.9021606445312
z: 0.010625389404594898
visibility: 0.995680034160614
","x: 252.7864227294922
y: 569.7267456054688
z: 0.18130308389663696
visibility: 0.960709810256958
","x: 174.30682373046875
y: 546.7871704101562
z: 0.009671123698353767
visibility: 0.9637581706047058
","x: 269.54571533203125
y: 576.7659912109375
z: 0.10816262662410736
visibility: 0.9883174300193787
","x: 169.5199737548828
y: 569.98486328125
z: -0.057148903608322144
visibility: 0.9909860491752625
",,,,,,,,,,,,,,,,,,,,,,,,,,,,,,,,,,,,,,,,,,
15,"x: 264.81036376953125
y: 320.855712890625
z: -0.21086017787456512
visibility: 0.9999200105667114
","x: 267.0499572753906
y: 315.8184814453125
z: -0.19547906517982483
visibility: 0.9998035430908203
","x: 268.23046875
y: 316.1502685546875
z: -0.19548273086547852
visibility: 0.999801754951477
","x: 269.3810729980469
y: 316.66961669921875
z: -0.19550423324108124
visibility: 0.999746561050415
","x: 263.6687927246094
y: 314.8455505371094
z: -0.19938215613365173
visibility: 0.9998249411582947
","x: 262.4509582519531
y: 314.45172119140625
z: -0.19935867190361023
visibility: 0.9998332262039185
","x: 261.34393310546875
y: 314.1388244628906
z: -0.1993609219789505
visibility: 0.9997920393943787
","x: 271.0073547363281
y: 321.4383239746094
z: -0.09254929423332214
visibility: 0.9996007084846497
","x: 260.111083984375
y: 316.2088623046875
z: -0.08724760264158249
visibility: 0.9997971653938293
","x: 266.4297180175781
y: 328.50592041015625
z: -0.17204508185386658
visibility: 0.9998522400856018
","x: 262.3514404296875
y: 325.8822937011719
z: -0.17522946000099182
visibility: 0.9998719096183777
","x: 276.08642578125
y: 356.06182861328125
z: -0.03593551740050316
visibility: 0.9998412728309631
","x: 244.6846160888672
y: 343.685791015625
z: -0.06261524558067322
visibility: 0.9998494982719421
","x: 276.07305908203125
y: 395.1392822265625
z: -0.16551315784454346
visibility: 0.9182143211364746
","x: 241.87794494628906
y: 380.0579528808594
z: -0.16157372295856476
visibility: 0.9486631751060486
","x: 260.06719970703125
y: 372.9642028808594
z: -0.30189257860183716
visibility: 0.9658567309379578
","x: 258.2079772949219
y: 392.3525695800781
z: -0.29037949442863464
visibility: 0.9014066457748413
","x: 254.90753173828125
y: 368.7650146484375
z: -0.3384585678577423
visibility: 0.9441318511962891
","x: 262.13140869140625
y: 394.6237487792969
z: -0.32426270842552185
visibility: 0.8621370792388916
","x: 255.70387268066406
y: 362.3391418457031
z: -0.32829347252845764
visibility: 0.9452010989189148
","x: 262.53485107421875
y: 391.8887634277344
z: -0.32394692301750183
visibility: 0.8591547012329102
","x: 256.6592102050781
y: 363.67498779296875
z: -0.30063390731811523
visibility: 0.9310895204544067
","x: 261.3902587890625
y: 391.0914611816406
z: -0.2935771346092224
visibility: 0.8313137292861938
","x: 251.00384521484375
y: 444.0873718261719
z: 0.02330152317881584
visibility: 0.9998176097869873
","x: 232.81719970703125
y: 436.7967529296875
z: -0.023286137729883194
visibility: 0.9998438358306885
","x: 261.29986572265625
y: 508.0875244140625
z: 0.02571982517838478
visibility: 0.9952107071876526
","x: 211.22483825683594
y: 493.5821228027344
z: -0.05617304518818855
visibility: 0.9972476959228516
","x: 254.86329650878906
y: 559.7801513671875
z: 0.2340078353881836
visibility: 0.9944143891334534
","x: 182.3280487060547
y: 542.6250610351562
z: 0.05213499814271927
visibility: 0.996039628982544
","x: 250.2554168701172
y: 569.1849365234375
z: 0.2503073811531067
visibility: 0.9613645076751709
","x: 181.54571533203125
y: 546.51513671875
z: 0.05621074512600899
visibility: 0.9620558023452759
","x: 267.94110107421875
y: 576.794677734375
z: 0.17083123326301575
visibility: 0.9885162115097046
","x: 171.9453125
y: 568.2783203125
z: -0.04814598336815834
visibility: 0.9915890097618103
",,,,,,,,,,,,,,,,,,,,,,,,,,,,,,,,,,,,,,,,,,
16,"x: 258.7757263183594
y: 317.67340087890625
z: -0.18472997844219208
visibility: 0.9998934864997864
","x: 259.7035827636719
y: 310.4803466796875
z: -0.18054020404815674
visibility: 0.9997434616088867
","x: 260.7665100097656
y: 310.0614013671875
z: -0.18062275648117065
visibility: 0.999760091304779
","x: 261.85894775390625
y: 309.76043701171875
z: -0.18069276213645935
visibility: 0.9997084140777588
","x: 256.8465270996094
y: 311.77716064453125
z: -0.17140671610832214
visibility: 0.9996973276138306
","x: 255.91635131835938
y: 312.16412353515625
z: -0.1714000552892685
visibility: 0.9996863007545471
","x: 254.99777221679688
y: 312.4512634277344
z: -0.17141102254390717
visibility: 0.9995643496513367
","x: 263.7300109863281
y: 312.7475280761719
z: -0.11173009872436523
visibility: 0.9995862245559692
","x: 254.39166259765625
y: 315.2148132324219
z: -0.08073139935731888
visibility: 0.9994368553161621
","x: 261.5998840332031
y: 324.8252868652344
z: -0.16207420825958252
visibility: 0.9998440742492676
","x: 257.65252685546875
y: 324.5145263671875
z: -0.14890384674072266
visibility: 0.9998025894165039
","x: 275.10308837890625
y: 349.0069274902344
z: -0.07938103377819061
visibility: 0.9998555779457092
","x: 245.085693359375
y: 344.7291564941406
z: -0.041825514286756516
visibility: 0.9998069405555725
","x: 271.0033874511719
y: 385.8027648925781
z: -0.14005698263645172
visibility: 0.9243435859680176
","x: 240.8953857421875
y: 386.7340393066406
z: -0.05459029600024223
visibility: 0.9133099317550659
","x: 245.79957580566406
y: 390.5516052246094
z: -0.25222983956336975
visibility: 0.967414140701294
","x: 239.12081909179688
y: 422.4749755859375
z: -0.12643545866012573
visibility: 0.8580885529518127
","x: 239.68849182128906
y: 395.8314208984375
z: -0.287339985370636
visibility: 0.9451034069061279
","x: 238.64669799804688
y: 433.913818359375
z: -0.15157224237918854
visibility: 0.819202721118927
","x: 238.55360412597656
y: 391.6848449707031
z: -0.29012513160705566
visibility: 0.9459806084632874
","x: 239.65347290039062
y: 430.2829284667969
z: -0.16580745577812195
visibility: 0.8158459663391113
","x: 239.86541748046875
y: 390.2926940917969
z: -0.25548255443573
visibility: 0.9308592081069946
","x: 240.2823486328125
y: 425.468017578125
z: -0.1347213089466095
visibility: 0.7870664596557617
","x: 252.4183807373047
y: 441.0364990234375
z: 0.018421586602926254
visibility: 0.9998053908348083
","x: 234.99485778808594
y: 431.8599853515625
z: -0.01839086040854454
visibility: 0.9998133778572083
","x: 263.149169921875
y: 507.7660827636719
z: -0.013088819570839405
visibility: 0.9937400221824646
","x: 218.079833984375
y: 493.67291259765625
z: -0.028652068227529526
visibility: 0.997050404548645
","x: 254.7110137939453
y: 559.572265625
z: 0.15871478617191315
visibility: 0.9922974705696106
","x: 196.33877563476562
y: 544.08544921875
z: 0.10180044174194336
visibility: 0.9956978559494019
","x: 249.84812927246094
y: 568.5741577148438
z: 0.1728094518184662
visibility: 0.9576884508132935
","x: 193.50186157226562
y: 549.0771484375
z: 0.11103804409503937
visibility: 0.9528836607933044
","x: 267.7572326660156
y: 576.8133544921875
z: 0.10824064165353775
visibility: 0.9854856133460999
","x: 191.21116638183594
y: 568.8666381835938
z: 0.01701691560447216
visibility: 0.9901705384254456
",,,,,,,,,,,,,,,,,,,,,,,,,,,,,,,,,,,,,,,,,,
17,"x: 239.6904754638672
y: 323.5829162597656
z: -0.19548940658569336
visibility: 0.9999020099639893
","x: 238.55288696289062
y: 314.2995910644531
z: -0.2046392261981964
visibility: 0.9997623562812805
","x: 239.38943481445312
y: 312.5268249511719
z: -0.2046714723110199
visibility: 0.9997784495353699
","x: 240.44775390625
y: 310.696044921875
z: -0.2047514021396637
visibility: 0.9997305274009705
","x: 236.39422607421875
y: 316.76019287109375
z: -0.18432533740997314
visibility: 0.9997152090072632
","x: 235.76124572753906
y: 316.8483581542969
z: -0.18432483077049255
visibility: 0.9997028112411499
","x: 235.21746826171875
y: 316.8706359863281
z: -0.18424327671527863
visibility: 0.9995878338813782
","x: 243.2136688232422
y: 311.78753662109375
z: -0.182571679353714
visibility: 0.9996238946914673
","x: 237.3015594482422
y: 316.20111083984375
z: -0.09840134531259537
visibility: 0.9994716644287109
","x: 244.00906372070312
y: 327.1463317871094
z: -0.185346320271492
visibility: 0.9998570084571838
","x: 241.36380004882812
y: 328.1688232421875
z: -0.14957451820373535
visibility: 0.9998118281364441
","x: 265.52069091796875
y: 340.3742980957031
z: -0.11627422273159027
visibility: 0.9998695850372314
","x: 233.3233642578125
y: 345.2694091796875
z: -0.05070140212774277
visibility: 0.99982088804245
","x: 272.5049133300781
y: 376.242431640625
z: -0.11106111109256744
visibility: 0.931666910648346
","x: 228.5106658935547
y: 386.0919189453125
z: 0.0066279275342822075
visibility: 0.911331057548523
","x: 276.94476318359375
y: 405.4761962890625
z: -0.16815748810768127
visibility: 0.9701448678970337
","x: 214.90708923339844
y: 394.64788818359375
z: -0.030368760228157043
visibility: 0.869163990020752
","x: 278.0550537109375
y: 418.005615234375
z: -0.18705475330352783
visibility: 0.9489212036132812
","x: 207.83267211914062
y: 393.2435302734375
z: -0.03992796316742897
visibility: 0.8318369388580322
","x: 276.27423095703125
y: 418.0013427734375
z: -0.21028128266334534
visibility: 0.9499313235282898
","x: 207.66136169433594
y: 390.3269958496094
z: -0.06929711997509003
visibility: 0.8295537233352661
","x: 275.5512390136719
y: 415.14013671875
z: -0.17855460941791534
visibility: 0.9359013438224792
","x: 209.56100463867188
y: 390.8541564941406
z: -0.044452209025621414
visibility: 0.8029583096504211
","x: 252.77978515625
y: 436.0208740234375
z: -0.009101706556975842
visibility: 0.9998081922531128
","x: 233.8842010498047
y: 430.2878112792969
z: 0.00921128410845995
visibility: 0.9998131990432739
","x: 267.1733703613281
y: 497.19439697265625
z: -0.14686962962150574
visibility: 0.9942295551300049
","x: 221.60667419433594
y: 492.22711181640625
z: -0.022198203951120377
visibility: 0.9970970749855042
","x: 259.02838134765625
y: 556.90087890625
z: 0.0011461307294666767
visibility: 0.9927456378936768
","x: 218.29608154296875
y: 544.1908569335938
z: 0.13660885393619537
visibility: 0.9958293437957764
","x: 251.94517517089844
y: 565.3782348632812
z: 0.01146676391363144
visibility: 0.9603801369667053
","x: 220.7880401611328
y: 552.1300048828125
z: 0.1477510780096054
visibility: 0.9550696015357971
","x: 268.08953857421875
y: 577.1512451171875
z: -0.0775194838643074
visibility: 0.9863969087600708
","x: 204.8621368408203
y: 567.1015014648438
z: 0.0664956197142601
visibility: 0.9904815554618835
",,,,,,,,,,,,,,,,,,,,,,,,,,,,,,,,,,,,,,,,,,
18,"x: 218.67977905273438
y: 320.9956359863281
z: -0.106076680123806
visibility: 0.9998934864997864
","x: 219.1509552001953
y: 311.0179748535156
z: -0.12020517885684967
visibility: 0.9997638463973999
","x: 220.10069274902344
y: 309.4654541015625
z: -0.12023601680994034
visibility: 0.999783992767334
","x: 221.0614013671875
y: 307.99652099609375
z: -0.12028664350509644
visibility: 0.9997350573539734
","x: 219.5623779296875
y: 315.7577819824219
z: -0.09414344280958176
visibility: 0.9996827244758606
","x: 219.24472045898438
y: 316.0875244140625
z: -0.09416265040636063
visibility: 0.9996660947799683
","x: 218.91510009765625
y: 316.3469543457031
z: -0.09409712255001068
visibility: 0.9995513558387756
","x: 225.18272399902344
y: 308.38043212890625
z: -0.138851597905159
visibility: 0.9996511340141296
","x: 221.35223388671875
y: 313.2648620605469
z: -0.015931524336338043
visibility: 0.9994246959686279
","x: 223.6879119873047
y: 323.47821044921875
z: -0.10941795259714127
visibility: 0.9998570680618286
","x: 222.5795440673828
y: 326.698974609375
z: -0.07307624816894531
visibility: 0.9997807145118713
","x: 257.1084289550781
y: 333.54498291015625
z: -0.12870703637599945
visibility: 0.9998824596405029
","x: 232.30926513671875
y: 340.6041259765625
z: 0.05047941207885742
visibility: 0.9998282790184021
","x: 267.40997314453125
y: 371.0978698730469
z: -0.22973695397377014
visibility: 0.938223659992218
","x: 221.47381591796875
y: 387.4364013671875
z: 0.07859979569911957
visibility: 0.8871670961380005
","x: 283.9766845703125
y: 398.5484619140625
z: -0.3693258464336395
visibility: 0.9726181030273438
","x: 205.84571838378906
y: 362.7374267578125
z: -0.004271014593541622
visibility: 0.8778833150863647
","x: 290.0235595703125
y: 395.1822509765625
z: -0.4059904217720032
visibility: 0.9531120657920837
","x: 204.4547882080078
y: 351.57659912109375
z: -0.016306988894939423
visibility: 0.8428424000740051
","x: 289.6536865234375
y: 394.38427734375
z: -0.41531482338905334
visibility: 0.9541031122207642
","x: 202.23704528808594
y: 347.3695068359375
z: -0.03563699498772621
visibility: 0.8414772152900696
","x: 286.4667663574219
y: 393.24530029296875
z: -0.3773501515388489
visibility: 0.9408423900604248
","x: 204.02481079101562
y: 351.2212829589844
z: -0.01598355546593666
visibility: 0.8168447613716125
","x: 250.85523986816406
y: 427.0492248535156
z: -0.07298032939434052
visibility: 0.9998206496238708
","x: 233.57470703125
y: 427.73779296875
z: 0.0730513334274292
visibility: 0.999821662902832
","x: 264.29052734375
y: 494.97991943359375
z: -0.1204240694642067
visibility: 0.9947136640548706
","x: 221.9508819580078
y: 493.0089111328125
z: 0.08834628760814667
visibility: 0.9934895634651184
","x: 273.8330993652344
y: 554.2150268554688
z: -0.007783360779285431
visibility: 0.9933356046676636
","x: 219.71841430664062
y: 548.8775024414062
z: 0.2001875936985016
visibility: 0.9954118132591248
","x: 276.7862854003906
y: 560.922607421875
z: 0.0009350409964099526
visibility: 0.9625849723815918
","x: 222.11050415039062
y: 559.5545654296875
z: 0.20773521065711975
visibility: 0.9573628902435303
","x: 268.3131103515625
y: 577.3768310546875
z: -0.08023903518915176
visibility: 0.9875146150588989
","x: 204.6939697265625
y: 566.3338623046875
z: 0.1387026607990265
visibility: 0.9904333353042603
",,,,,,,,,,,,,,,,,,,,,,,,,,,,,,,,,,,,,,,,,,
19,"x: 217.0311279296875
y: 316.3312683105469
z: -0.10284994542598724
visibility: 0.9998941421508789
","x: 217.9462432861328
y: 307.8677673339844
z: -0.10970236361026764
visibility: 0.9997633099555969
","x: 218.74681091308594
y: 306.9482727050781
z: -0.10974767059087753
visibility: 0.999787449836731
","x: 219.54913330078125
y: 306.0194091796875
z: -0.1098296269774437
visibility: 0.9997405409812927
","x: 215.7916717529297
y: 311.68963623046875
z: -0.08735024183988571
visibility: 0.9996707439422607
","x: 215.1079864501953
y: 312.3199768066406
z: -0.08737529814243317
visibility: 0.9996508955955505
","x: 214.35791015625
y: 312.88885498046875
z: -0.08729010075330734
visibility: 0.9995459318161011
","x: 221.57015991210938
y: 306.24017333984375
z: -0.11041192710399628
visibility: 0.9996756315231323
","x: 214.46841430664062
y: 312.1298828125
z: 0.005677592940628529
visibility: 0.9993642568588257
","x: 219.3597412109375
y: 318.8976745605469
z: -0.09659051150083542
visibility: 0.9998517632484436
","x: 216.9213104248047
y: 321.12762451171875
z: -0.06575118750333786
visibility: 0.999738335609436
","x: 243.0196990966797
y: 331.6413879394531
z: -0.09501077234745026
visibility: 0.9998931884765625
","x: 218.15777587890625
y: 340.71820068359375
z: 0.08291421830654144
visibility: 0.9998188614845276
","x: 260.7942199707031
y: 357.3147888183594
z: -0.1602678894996643
visibility: 0.9441814422607422
","x: 205.374267578125
y: 385.0948486328125
z: 0.06064221262931824
visibility: 0.8874678015708923
","x: 276.67523193359375
y: 396.2498474121094
z: -0.1459624320268631
visibility: 0.9745718836784363
","x: 199.33486938476562
y: 344.79974365234375
z: -0.08461813628673553
visibility: 0.8890151977539062
","x: 280.75579833984375
y: 388.5626220703125
z: -0.15939012169837952
visibility: 0.9558402895927429
","x: 197.08152770996094
y: 334.67694091796875
z: -0.1080038994550705
visibility: 0.8564401268959045
","x: 280.2541809082031
y: 388.7220764160156
z: -0.178507998585701
visibility: 0.9569193124771118
","x: 197.38197326660156
y: 332.63836669921875
z: -0.11644262075424194
visibility: 0.8553975820541382
","x: 278.45904541015625
y: 387.29815673828125
z: -0.15382613241672516
visibility: 0.9445635676383972
","x: 198.77178955078125
y: 335.8392333984375
z: -0.0939982458949089
visibility: 0.8329083919525146
","x: 240.6279296875
y: 421.4773864746094
z: -0.06981976330280304
visibility: 0.9998002052307129
","x: 230.99159240722656
y: 425.74261474609375
z: 0.06992113590240479
visibility: 0.9998118281364441
","x: 254.0714874267578
y: 489.87646484375
z: -0.11816290766000748
visibility: 0.994901716709137
","x: 221.897705078125
y: 492.38916015625
z: 0.04589158669114113
visibility: 0.9903257489204407
","x: 273.5178527832031
y: 549.4276733398438
z: -0.05866951867938042
visibility: 0.9937936067581177
","x: 240.8101043701172
y: 557.17431640625
z: 0.13509240746498108
visibility: 0.9948288798332214
","x: 276.7079772949219
y: 554.0989379882812
z: -0.0556727834045887
visibility: 0.964801549911499
","x: 246.20191955566406
y: 569.7435302734375
z: 0.17590267956256866
visibility: 0.9595444202423096
","x: 268.3247985839844
y: 577.233642578125
z: -0.14038336277008057
visibility: 0.9883702397346497
","x: 227.11598205566406
y: 575.9425048828125
z: 0.05470089241862297
visibility: 0.9900766611099243
",,,,,,,,,,,,,,,,,,,,,,,,,,,,,,,,,,,,,,,,,,
20,"x: 218.2921600341797
y: 305.3326416015625
z: -0.23748242855072021
visibility: 0.9998852014541626
","x: 219.46376037597656
y: 299.7823791503906
z: -0.2289694845676422
visibility: 0.9997087121009827
","x: 220.35983276367188
y: 299.69183349609375
z: -0.2289474904537201
visibility: 0.9997435808181763
","x: 221.2679443359375
y: 299.57354736328125
z: -0.2290000170469284
visibility: 0.9996823668479919
","x: 216.65733337402344
y: 300.5261535644531
z: -0.22336959838867188
visibility: 0.9996246099472046
","x: 215.6176300048828
y: 300.8707275390625
z: -0.22343938052654266
visibility: 0.999617874622345
","x: 214.5745849609375
y: 301.2906188964844
z: -0.22338125109672546
visibility: 0.9995062947273254
","x: 222.49246215820312
y: 302.0350341796875
z: -0.15102644264698029
visibility: 0.9996543526649475
","x: 213.3209991455078
y: 304.912841796875
z: -0.11829204857349396
visibility: 0.9991481304168701
","x: 220.33251953125
y: 311.4329833984375
z: -0.20474345982074738
visibility: 0.9998090267181396
","x: 216.89620971679688
y: 312.3970642089844
z: -0.19640623033046722
visibility: 0.9996488690376282
","x: 237.74876403808594
y: 330.60540771484375
z: -0.10008746385574341
visibility: 0.9998998641967773
","x: 210.4406280517578
y: 337.3791198730469
z: -0.023588750511407852
visibility: 0.9997956156730652
","x: 252.614501953125
y: 361.8598937988281
z: -0.0857110247015953
visibility: 0.949314534664154
","x: 199.65640258789062
y: 374.613525390625
z: -0.14199331402778625
visibility: 0.8966515064239502
","x: 266.1580505371094
y: 395.6897277832031
z: -0.10890205949544907
visibility: 0.9755767583847046
","x: 206.72511291503906
y: 336.2182312011719
z: -0.3464043438434601
visibility: 0.899391770362854
","x: 270.8040466308594
y: 405.6945495605469
z: -0.12215924263000488
visibility: 0.9557416439056396
","x: 212.8887176513672
y: 329.79119873046875
z: -0.3831523358821869
visibility: 0.8688621520996094
","x: 268.94891357421875
y: 406.990966796875
z: -0.13993164896965027
visibility: 0.9573866724967957
","x: 212.7472686767578
y: 328.06707763671875
z: -0.38242390751838684
visibility: 0.8678414225578308
","x: 267.0650329589844
y: 403.3727722167969
z: -0.1161007508635521
visibility: 0.9453062415122986
","x: 211.37603759765625
y: 329.92657470703125
z: -0.35114437341690063
visibility: 0.8466129302978516
","x: 238.72711181640625
y: 419.26812744140625
z: -0.04956904053688049
visibility: 0.9997795224189758
","x: 226.1287078857422
y: 424.7533874511719
z: 0.04956667870283127
visibility: 0.9997956156730652
","x: 248.2578887939453
y: 486.03594970703125
z: -0.09329625964164734
visibility: 0.9950773119926453
","x: 220.40110778808594
y: 490.6665344238281
z: 0.061404693871736526
visibility: 0.9875528216362
","x: 271.2320251464844
y: 545.1273803710938
z: 0.01889602653682232
visibility: 0.9941272139549255
","x: 222.44627380371094
y: 556.3651123046875
z: 0.19059206545352936
visibility: 0.994354248046875
","x: 273.7778625488281
y: 550.31201171875
z: 0.024432066828012466
visibility: 0.961587131023407
","x: 225.22593688964844
y: 567.2022094726562
z: 0.19965282082557678
visibility: 0.9587507843971252
","x: 270.127197265625
y: 577.1636962890625
z: -0.07595998793840408
visibility: 0.9890490770339966
","x: 209.35585021972656
y: 568.5083618164062
z: 0.1081080436706543
visibility: 0.9897128939628601
",,,,,,,,,,,,,,,,,,,,,,,,,,,,,,,,,,,,,,,,,,
21,"x: 219.220458984375
y: 307.6683654785156
z: -0.23856794834136963
visibility: 0.9998531341552734
","x: 220.11126708984375
y: 301.6521911621094
z: -0.22646358609199524
visibility: 0.9995778799057007
","x: 220.8348388671875
y: 301.52783203125
z: -0.22645032405853271
visibility: 0.999610424041748
","x: 221.5875701904297
y: 301.4029541015625
z: -0.2264665812253952
visibility: 0.9995471835136414
","x: 218.01235961914062
y: 301.9998779296875
z: -0.22992673516273499
visibility: 0.9995428919792175
","x: 217.18968200683594
y: 302.0868225097656
z: -0.22997157275676727
visibility: 0.9995524287223816
","x: 216.2955780029297
y: 302.24664306640625
z: -0.23002174496650696
visibility: 0.9994400143623352
","x: 222.40882873535156
y: 303.2882385253906
z: -0.13752731680870056
visibility: 0.9993298053741455
","x: 214.5508575439453
y: 304.74188232421875
z: -0.15208017826080322
visibility: 0.9990792274475098
","x: 220.2504425048828
y: 313.19036865234375
z: -0.2020823061466217
visibility: 0.9997264742851257
","x: 217.52093505859375
y: 313.9410400390625
z: -0.20721201598644257
visibility: 0.9996041059494019
","x: 235.8521270751953
y: 333.06536865234375
z: -0.06924678385257721
visibility: 0.9998634457588196
","x: 203.64129638671875
y: 336.2093811035156
z: -0.11092148721218109
visibility: 0.9997885823249817
","x: 244.1421356201172
y: 370.213134765625
z: -0.02661101147532463
visibility: 0.9477745294570923
","x: 200.4290008544922
y: 372.7193908691406
z: -0.17390522360801697
visibility: 0.9041365385055542
","x: 251.4717254638672
y: 412.86358642578125
z: -0.07420623302459717
visibility: 0.958656907081604
","x: 225.2384490966797
y: 364.932861328125
z: -0.27524641156196594
visibility: 0.902924656867981
","x: 254.0197296142578
y: 425.31005859375
z: -0.08963669091463089
visibility: 0.930366575717926
","x: 232.15777587890625
y: 372.4603271484375
z: -0.3025597035884857
visibility: 0.870693564414978
","x: 252.98031616210938
y: 425.33465576171875
z: -0.11165200173854828
visibility: 0.9336411952972412
","x: 232.8199005126953
y: 368.9159851074219
z: -0.30812105536460876
visibility: 0.8693335056304932
","x: 251.52523803710938
y: 421.7266540527344
z: -0.08384574949741364
visibility: 0.9208737015724182
","x: 230.76416015625
y: 366.07427978515625
z: -0.27854084968566895
visibility: 0.8453963398933411
","x: 237.39198303222656
y: 420.2868347167969
z: -0.0013273046351969242
visibility: 0.9996844530105591
","x: 220.65884399414062
y: 424.1648864746094
z: 0.0013882332714274526
visibility: 0.999709963798523
","x: 242.98292541503906
y: 488.53173828125
z: -0.018490735441446304
visibility: 0.9948590397834778
","x: 220.61358642578125
y: 490.8572692871094
z: 0.023982150480151176
visibility: 0.987868070602417
","x: 249.76197814941406
y: 548.305908203125
z: 0.04071468487381935
visibility: 0.993868350982666
","x: 220.2581024169922
y: 556.1173095703125
z: 0.14415839314460754
visibility: 0.9937927722930908
","x: 248.13543701171875
y: 557.148193359375
z: 0.04729430750012398
visibility: 0.9592095613479614
","x: 222.22621154785156
y: 566.7353515625
z: 0.1511417031288147
visibility: 0.9486262202262878
","x: 253.0539093017578
y: 571.720947265625
z: -0.053544264286756516
visibility: 0.9885222315788269
","x: 213.5654296875
y: 567.697265625
z: 0.06558571010828018
visibility: 0.9885948300361633
",,,,,,,,,,,,,,,,,,,,,,,,,,,,,,,,,,,,,,,,,,
22,"x: 222.79733276367188
y: 301.2998046875
z: -0.07812242209911346
visibility: 0.9998027682304382
","x: 224.0583038330078
y: 296.7701416015625
z: -0.0606127604842186
visibility: 0.9995093941688538
","x: 224.91055297851562
y: 297.1239318847656
z: -0.06061304360628128
visibility: 0.9994930028915405
","x: 225.75401306152344
y: 297.50189208984375
z: -0.06060176342725754
visibility: 0.9994584321975708
","x: 221.49517822265625
y: 296.08282470703125
z: -0.06866325438022614
visibility: 0.999505877494812
","x: 220.5023956298828
y: 296.0561828613281
z: -0.06866879016160965
visibility: 0.9995036721229553
","x: 219.4703369140625
y: 296.1473388671875
z: -0.06870227307081223
visibility: 0.9994223117828369
","x: 226.68927001953125
y: 301.33251953125
z: 0.034225739538669586
visibility: 0.9989992380142212
","x: 217.568359375
y: 300.1261291503906
z: -0.003139554290100932
visibility: 0.9990872740745544
","x: 224.2176055908203
y: 308.27764892578125
z: -0.04244245961308479
visibility: 0.9996545314788818
","x: 220.77516174316406
y: 308.05224609375
z: -0.053301066160202026
visibility: 0.9995898008346558
","x: 235.4377899169922
y: 333.6495361328125
z: 0.07561802119016647
visibility: 0.9997883439064026
","x: 208.07952880859375
y: 332.49505615234375
z: -0.013492116704583168
visibility: 0.9997939467430115
","x: 246.48863220214844
y: 362.8531494140625
z: -0.025923382490873337
visibility: 0.9444287419319153
","x: 203.22158813476562
y: 364.6246337890625
z: -0.1566486656665802
visibility: 0.9124363660812378
","x: 237.5790252685547
y: 365.8901672363281
z: -0.1781347543001175
visibility: 0.953822672367096
","x: 228.6287841796875
y: 380.71173095703125
z: -0.16848663985729218
visibility: 0.9096234440803528
","x: 235.01243591308594
y: 371.0545654296875
z: -0.2241496741771698
visibility: 0.9213391542434692
","x: 233.6861572265625
y: 390.5299072265625
z: -0.1969459354877472
visibility: 0.8772605657577515
","x: 231.80178833007812
y: 367.6196594238281
z: -0.21258051693439484
visibility: 0.9243031740188599
","x: 235.30703735351562
y: 385.47540283203125
z: -0.19810423254966736
visibility: 0.8756274580955505
","x: 232.32974243164062
y: 366.7969970703125
z: -0.1788664162158966
visibility: 0.9088502526283264
","x: 234.4591522216797
y: 382.2453308105469
z: -0.16851361095905304
visibility: 0.8507503867149353
","x: 234.4403076171875
y: 421.2741394042969
z: 0.025655627250671387
visibility: 0.9996753334999084
","x: 217.44219970703125
y: 423.70953369140625
z: -0.025601815432310104
visibility: 0.9996999502182007
","x: 239.0663604736328
y: 488.1064147949219
z: -0.015466746874153614
visibility: 0.9904848337173462
","x: 218.9150848388672
y: 490.246826171875
z: -0.01946529932320118
visibility: 0.9872443675994873
","x: 236.85848999023438
y: 548.3851318359375
z: 0.045413244515657425
visibility: 0.9904627799987793
","x: 219.80262756347656
y: 555.254150390625
z: 0.08468940854072571
visibility: 0.9921659827232361
","x: 233.18748474121094
y: 559.236083984375
z: 0.047860901802778244
visibility: 0.9554425477981567
","x: 221.5876922607422
y: 565.303466796875
z: 0.08909689635038376
visibility: 0.9334073066711426
","x: 247.8572235107422
y: 571.0288696289062
z: -0.04145395755767822
visibility: 0.9858860373497009
","x: 214.6475372314453
y: 567.351318359375
z: -0.002243450377136469
visibility: 0.9865361452102661
",,,,,,,,,,,,,,,,,,,,,,,,,,,,,,,,,,,,,,,,,,
23,"x: 229.9586944580078
y: 303.76409912109375
z: -0.1196822077035904
visibility: 0.9987001419067383
","x: 231.55616760253906
y: 299.26507568359375
z: -0.10606922954320908
visibility: 0.9966172575950623
","x: 232.65911865234375
y: 299.4159240722656
z: -0.10606993734836578
visibility: 0.9961664080619812
","x: 233.74415588378906
y: 299.58416748046875
z: -0.10606591403484344
visibility: 0.9960055947303772
","x: 228.0015869140625
y: 298.97576904296875
z: -0.10641144216060638
visibility: 0.9973190426826477
","x: 226.75405883789062
y: 298.91534423828125
z: -0.1064269170165062
visibility: 0.9973028898239136
","x: 225.3281707763672
y: 298.8912658691406
z: -0.10645385831594467
visibility: 0.9976834058761597
","x: 235.17982482910156
y: 302.4770812988281
z: -0.024438830092549324
visibility: 0.9930979013442993
","x: 222.7760009765625
y: 301.6339416503906
z: -0.025683727115392685
visibility: 0.9960645437240601
","x: 231.64202880859375
y: 309.182861328125
z: -0.08807767182588577
visibility: 0.9974822998046875
","x: 227.3489227294922
y: 309.40667724609375
z: -0.08870460093021393
visibility: 0.9983139634132385
","x: 241.06227111816406
y: 331.10174560546875
z: 2.234675775980577e-05
visibility: 0.9993077516555786
","x: 211.3092041015625
y: 331.71624755859375
z: -0.006828843615949154
visibility: 0.9996173977851868
","x: 250.4951171875
y: 352.93682861328125
z: -0.1249835267663002
visibility: 0.9478064179420471
","x: 204.34860229492188
y: 355.592041015625
z: -0.12960658967494965
visibility: 0.9200338125228882
","x: 234.81320190429688
y: 345.7021789550781
z: -0.24756190180778503
visibility: 0.951880693435669
","x: 227.12486267089844
y: 346.18603515625
z: -0.2370455265045166
visibility: 0.9153992533683777
","x: 230.44921875
y: 344.4565124511719
z: -0.2803320288658142
visibility: 0.9132843613624573
","x: 231.564697265625
y: 343.7248229980469
z: -0.2690175175666809
visibility: 0.8802324533462524
","x: 229.04254150390625
y: 341.07958984375
z: -0.26363250613212585
visibility: 0.9145362973213196
","x: 231.96075439453125
y: 341.81591796875
z: -0.25046828389167786
visibility: 0.8777154088020325
","x: 230.58026123046875
y: 341.6600036621094
z: -0.2440909594297409
visibility: 0.8966659903526306
","x: 231.12106323242188
y: 343.162841796875
z: -0.23170307278633118
visibility: 0.8514394760131836
","x: 234.86590576171875
y: 416.6711730957031
z: 0.00979158841073513
visibility: 0.9993210434913635
","x: 219.7671661376953
y: 418.4164733886719
z: -0.009778155013918877
visibility: 0.9993975162506104
","x: 238.6834716796875
y: 475.5084228515625
z: -0.01661582663655281
visibility: 0.9898070096969604
","x: 222.6801300048828
y: 477.39117431640625
z: -0.0059049250558018684
visibility: 0.9868202805519104
","x: 239.30165100097656
y: 523.7227172851562
z: 0.1284378468990326
visibility: 0.98830246925354
","x: 224.44725036621094
y: 534.4957885742188
z: 0.1172463521361351
visibility: 0.9908975958824158
","x: 238.45413208007812
y: 530.50927734375
z: 0.1394866406917572
visibility: 0.9393818378448486
","x: 226.3912811279297
y: 542.4426879882812
z: 0.1248873844742775
visibility: 0.9217017292976379
","x: 240.94476318359375
y: 543.510009765625
z: 0.06000109761953354
visibility: 0.9826709628105164
","x: 220.33518981933594
y: 549.109619140625
z: 0.036157649010419846
visibility: 0.9838104248046875
",,,,,,,,,,,,,,,,,,,,,,,,,,,,,,,,,,,,,,,,,,
24,"x: 233.61231994628906
y: 305.9552001953125
z: -0.31504613161087036
visibility: 0.9988137483596802
","x: 235.01133728027344
y: 302.836181640625
z: -0.3076254427433014
visibility: 0.9968855977058411
","x: 235.9496307373047
y: 302.8941650390625
z: -0.30759117007255554
visibility: 0.996491014957428
","x: 236.93133544921875
y: 303.0071716308594
z: -0.30761459469795227
visibility: 0.9963463544845581
","x: 232.48841857910156
y: 302.3896484375
z: -0.3069382905960083
visibility: 0.9975252747535706
","x: 231.63926696777344
y: 302.2934265136719
z: -0.3070068061351776
visibility: 0.9975146055221558
","x: 230.72174072265625
y: 302.2192687988281
z: -0.3070167601108551
visibility: 0.9978457093238831
","x: 238.6438751220703
y: 305.3406677246094
z: -0.23471951484680176
visibility: 0.9936761856079102
","x: 229.4189453125
y: 303.69000244140625
z: -0.23394246399402618
visibility: 0.9963111281394958
","x: 235.0110321044922
y: 310.57513427734375
z: -0.2854844033718109
visibility: 0.997697651386261
","x: 231.93161010742188
y: 310.09954833984375
z: -0.285348117351532
visibility: 0.9984395503997803
","x: 246.70257568359375
y: 334.9450378417969
z: -0.1765119433403015
visibility: 0.9993681311607361
","x: 217.6387939453125
y: 333.4452819824219
z: -0.14657197892665863
visibility: 0.9996419548988342
","x: 261.3144836425781
y: 362.9671936035156
z: -0.138527512550354
visibility: 0.9529017806053162
","x: 208.34658813476562
y: 358.702880859375
z: -0.0890154093503952
visibility: 0.9266917705535889
","x: 255.09400939941406
y: 406.185302734375
z: -0.19262856245040894
visibility: 0.9562528729438782
","x: 214.79881286621094
y: 402.775390625
z: -0.10558414459228516
visibility: 0.9215834140777588
","x: 255.4790496826172
y: 416.69976806640625
z: -0.20881977677345276
visibility: 0.9203525185585022
","x: 212.425048828125
y: 414.9349670410156
z: -0.1167815700173378
visibility: 0.886856734752655
","x: 252.48883056640625
y: 416.01300048828125
z: -0.23061101138591766
visibility: 0.9215779900550842
","x: 214.82994079589844
y: 415.694091796875
z: -0.14100593328475952
visibility: 0.884857177734375
","x: 251.57717895507812
y: 412.94183349609375
z: -0.20007272064685822
visibility: 0.9050570726394653
","x: 216.65757751464844
y: 411.3789367675781
z: -0.11531032621860504
visibility: 0.86042720079422
","x: 239.3942413330078
y: 416.73297119140625
z: 0.004857837688177824
visibility: 0.9993093609809875
","x: 224.04803466796875
y: 416.1181945800781
z: -0.004679714795202017
visibility: 0.9994019269943237
","x: 240.5599365234375
y: 475.9553527832031
z: 0.019333770498633385
visibility: 0.9881600737571716
","x: 224.80990600585938
y: 471.50439453125
z: 0.017417611554265022
visibility: 0.9853804707527161
","x: 238.04324340820312
y: 525.100341796875
z: 0.13871611654758453
visibility: 0.9855430722236633
","x: 226.67971801757812
y: 522.2506103515625
z: 0.14072228968143463
visibility: 0.9887867569923401
","x: 237.4660186767578
y: 531.6648559570312
z: 0.14643096923828125
visibility: 0.9319865703582764
","x: 228.52615356445312
y: 530.6050415039062
z: 0.14871500432491302
visibility: 0.9101375937461853
","x: 240.08233642578125
y: 539.3636474609375
z: 0.07413879036903381
visibility: 0.9792476892471313
","x: 221.46826171875
y: 541.8162231445312
z: 0.0703340694308281
visibility: 0.9813963770866394
",,,,,,,,,,,,,,,,,,,,,,"x: 211.1185302734375
y: 408.02313232421875
z: 0.0
","x: 212.66346740722656
y: 412.80499267578125
z: -0.00024036079412326217
","x: 213.23529052734375
y: 418.1810302734375
z: -0.00038780629984103143
","x: 212.7172088623047
y: 422.29400634765625
z: -0.0010069169802591205
","x: 211.99859619140625
y: 424.7591857910156
z: -0.0015569578390568495
","x: 212.0164337158203
y: 423.3708190917969
z: 0.0016285080928355455
","x: 211.89273071289062
y: 428.61419677734375
z: 0.00030880665872246027
","x: 211.5789794921875
y: 431.5968322753906
z: -0.0006427126354537904
","x: 211.2488555908203
y: 434.0992736816406
z: -0.001172505086287856
","x: 210.4044952392578
y: 423.4222412109375
z: 0.00040124671068042517
","x: 209.68838500976562
y: 429.13104248046875
z: -0.0005768948467448354
","x: 209.1284942626953
y: 432.45477294921875
z: -0.001469736685976386
","x: 208.68487548828125
y: 435.3250732421875
z: -0.0021355862263590097
","x: 208.97019958496094
y: 422.3172302246094
z: -0.001256623538210988
","x: 207.84344482421875
y: 427.5294494628906
z: -0.0026112401392310858
","x: 207.08636474609375
y: 430.4566650390625
z: -0.003508131019771099
","x: 206.50823974609375
y: 432.7852783203125
z: -0.004022420383989811
","x: 207.6083526611328
y: 420.19537353515625
z: -0.003118912223726511
","x: 206.5123748779297
y: 423.920654296875
z: -0.004176310263574123
","x: 205.79547119140625
y: 426.1639099121094
z: -0.004719237331300974
","x: 205.20046997070312
y: 427.972900390625
z: -0.005026793107390404
"
25,"x: 233.61231994628906
y: 305.9552001953125
z: -0.31504613161087036
visibility: 0.9988137483596802
","x: 235.01133728027344
y: 302.836181640625
z: -0.3076254427433014
visibility: 0.9968855977058411
","x: 235.9496307373047
y: 302.8941650390625
z: -0.30759117007255554
visibility: 0.996491014957428
","x: 236.93133544921875
y: 303.0071716308594
z: -0.30761459469795227
visibility: 0.9963463544845581
","x: 232.48841857910156
y: 302.3896484375
z: -0.3069382905960083
visibility: 0.9975252747535706
","x: 231.63926696777344
y: 302.2934265136719
z: -0.3070068061351776
visibility: 0.9975146055221558
","x: 230.72174072265625
y: 302.2192687988281
z: -0.3070167601108551
visibility: 0.9978457093238831
","x: 238.6438751220703
y: 305.3406677246094
z: -0.23471951484680176
visibility: 0.9936761856079102
","x: 229.4189453125
y: 303.69000244140625
z: -0.23394246399402618
visibility: 0.9963111281394958
","x: 235.0110321044922
y: 310.57513427734375
z: -0.2854844033718109
visibility: 0.997697651386261
","x: 231.93161010742188
y: 310.09954833984375
z: -0.285348117351532
visibility: 0.9984395503997803
","x: 246.70257568359375
y: 334.9450378417969
z: -0.1765119433403015
visibility: 0.9993681311607361
","x: 217.6387939453125
y: 333.4452819824219
z: -0.14657197892665863
visibility: 0.9996419548988342
","x: 261.3144836425781
y: 362.9671936035156
z: -0.138527512550354
visibility: 0.9529017806053162
","x: 208.34658813476562
y: 358.702880859375
z: -0.0890154093503952
visibility: 0.9266917705535889
","x: 255.09400939941406
y: 406.185302734375
z: -0.19262856245040894
visibility: 0.9562528729438782
","x: 214.79881286621094
y: 402.775390625
z: -0.10558414459228516
visibility: 0.9215834140777588
","x: 255.4790496826172
y: 416.69976806640625
z: -0.20881977677345276
visibility: 0.9203525185585022
","x: 212.425048828125
y: 414.9349670410156
z: -0.1167815700173378
visibility: 0.886856734752655
","x: 252.48883056640625
y: 416.01300048828125
z: -0.23061101138591766
visibility: 0.9215779900550842
","x: 214.82994079589844
y: 415.694091796875
z: -0.14100593328475952
visibility: 0.884857177734375
","x: 251.57717895507812
y: 412.94183349609375
z: -0.20007272064685822
visibility: 0.9050570726394653
","x: 216.65757751464844
y: 411.3789367675781
z: -0.11531032621860504
visibility: 0.86042720079422
","x: 239.3942413330078
y: 416.73297119140625
z: 0.004857837688177824
visibility: 0.9993093609809875
","x: 224.04803466796875
y: 416.1181945800781
z: -0.004679714795202017
visibility: 0.9994019269943237
","x: 240.5599365234375
y: 475.9553527832031
z: 0.019333770498633385
visibility: 0.9881600737571716
","x: 224.80990600585938
y: 471.50439453125
z: 0.017417611554265022
visibility: 0.9853804707527161
","x: 238.04324340820312
y: 525.100341796875
z: 0.13871611654758453
visibility: 0.9855430722236633
","x: 226.67971801757812
y: 522.2506103515625
z: 0.14072228968143463
visibility: 0.9887867569923401
","x: 237.4660186767578
y: 531.6648559570312
z: 0.14643096923828125
visibility: 0.9319865703582764
","x: 228.52615356445312
y: 530.6050415039062
z: 0.14871500432491302
visibility: 0.9101375937461853
","x: 240.08233642578125
y: 539.3636474609375
z: 0.07413879036903381
visibility: 0.9792476892471313
","x: 221.46826171875
y: 541.8162231445312
z: 0.0703340694308281
visibility: 0.9813963770866394
",,,,,,,,,,,,,,,,,,,,,,"x: 211.1185302734375
y: 408.02313232421875
z: 0.0
","x: 212.66346740722656
y: 412.80499267578125
z: -0.00024036079412326217
","x: 213.23529052734375
y: 418.1810302734375
z: -0.00038780629984103143
","x: 212.7172088623047
y: 422.29400634765625
z: -0.0010069169802591205
","x: 211.99859619140625
y: 424.7591857910156
z: -0.0015569578390568495
","x: 212.0164337158203
y: 423.3708190917969
z: 0.0016285080928355455
","x: 211.89273071289062
y: 428.61419677734375
z: 0.00030880665872246027
","x: 211.5789794921875
y: 431.5968322753906
z: -0.0006427126354537904
","x: 211.2488555908203
y: 434.0992736816406
z: -0.001172505086287856
","x: 210.4044952392578
y: 423.4222412109375
z: 0.00040124671068042517
","x: 209.68838500976562
y: 429.13104248046875
z: -0.0005768948467448354
","x: 209.1284942626953
y: 432.45477294921875
z: -0.001469736685976386
","x: 208.68487548828125
y: 435.3250732421875
z: -0.0021355862263590097
","x: 208.97019958496094
y: 422.3172302246094
z: -0.001256623538210988
","x: 207.84344482421875
y: 427.5294494628906
z: -0.0026112401392310858
","x: 207.08636474609375
y: 430.4566650390625
z: -0.003508131019771099
","x: 206.50823974609375
y: 432.7852783203125
z: -0.004022420383989811
","x: 207.6083526611328
y: 420.19537353515625
z: -0.003118912223726511
","x: 206.5123748779297
y: 423.920654296875
z: -0.004176310263574123
","x: 205.79547119140625
y: 426.1639099121094
z: -0.004719237331300974
","x: 205.20046997070312
y: 427.972900390625
z: -0.005026793107390404
"
26,"x: 236.97567749023438
y: 306.4243469238281
z: -0.23599913716316223
visibility: 0.9989200234413147
","x: 238.86264038085938
y: 303.18505859375
z: -0.2281670868396759
visibility: 0.9971465468406677
","x: 239.98814392089844
y: 303.1868896484375
z: -0.22812512516975403
visibility: 0.9968012571334839
","x: 241.1187744140625
y: 303.09503173828125
z: -0.22814151644706726
visibility: 0.9966676831245422
","x: 235.6277618408203
y: 302.8515625
z: -0.22610361874103546
visibility: 0.9977257251739502
","x: 234.52276611328125
y: 302.7920837402344
z: -0.22614991664886475
visibility: 0.9977228045463562
","x: 233.46469116210938
y: 302.74560546875
