uscmakers/ReverseChoreography/data/3_woman_doja_cat.csv
,NOSE,LEFT_EYE_INNER,LEFT_EYE,LEFT_EYE_OUTER,RIGHT_EYE_INNER,RIGHT_EYE,RIGHT_EYE_OUTER,LEFT_EAR,RIGHT_EAR,MOUTH_LEFT,MOUTH_RIGHT,LEFT_SHOULDER,RIGHT_SHOULDER,LEFT_ELBOW,RIGHT_ELBOW,LEFT_WRIST,RIGHT_WRIST,LEFT_PINKY,RIGHT_PINKY,LEFT_INDEX,RIGHT_INDEX,LEFT_THUMB,RIGHT_THUMB,LEFT_HIP,RIGHT_HIP,LEFT_KNEE,RIGHT_KNEE,LEFT_ANKLE,RIGHT_ANKLE,LEFT_HEEL,RIGHT_HEEL,LEFT_FOOT_INDEX,RIGHT_FOOT_INDEX,WRIST,THUMB_CPC,THUMB_MCP,THUMB_IP,THUMB_TIP,INDEX_FINGER_MCP,INDEX_FINGER_PIP,INDEX_FINGER_DIP,INDEX_FINGER_TIP,MIDDLE_FINGER_MCP,MIDDLE_FINGER_PIP,MIDDLE_FINGER_DIP,MIDDLE_FINGER_TIP,RING_FINGER_PIP,RING_FINGER_DIP,RING_FINGER_TIP,RING_FINGER_MCP,PINKY_MCP,PINKY_PIP,PINKY_DIP,PINKY_TIP,WRIST2,THUMB_CPC2,THUMB_MCP2,THUMB_IP2,THUMB_TIP2,INDEX_FINGER_MCP2,INDEX_FINGER_PIP2,INDEX_FINGER_DIP2,INDEX_FINGER_TIP2,MIDDLE_FINGER_MCP2,MIDDLE_FINGER_PIP2,MIDDLE_FINGER_DIP2,MIDDLE_FINGER_TIP2,RING_FINGER_PIP2,RING_FINGER_DIP2,RING_FINGER_TIP2,RING_FINGER_MCP2,PINKY_MCP2,PINKY_PIP2,PINKY_DIP2,PINKY_TIP2
0,"x: 242.94985961914062
y: 309.5996398925781
z: -0.170320063829422
visibility: 0.9999923706054688
","x: 245.38941955566406
y: 305.26531982421875
z: -0.1630125492811203
visibility: 0.9999794960021973
","x: 246.5384979248047
y: 305.248291015625
z: -0.1630048155784607
visibility: 0.9999799728393555
","x: 247.68003845214844
y: 305.221923828125
z: -0.163040891289711
visibility: 0.999974250793457
","x: 242.7891845703125
y: 304.9932861328125
z: -0.154343843460083
visibility: 0.999980092048645
","x: 242.135986328125
y: 304.77313232421875
z: -0.15437284111976624
visibility: 0.999976396560669
","x: 241.48455810546875
y: 304.4690246582031
z: -0.15433484315872192
visibility: 0.9999794960021973
","x: 250.04483032226562
y: 306.4770812988281
z: -0.10345759242773056
visibility: 0.9999679327011108
","x: 240.64129638671875
y: 305.1373596191406
z: -0.06336568295955658
visibility: 0.9999762773513794
","x: 244.98052978515625
y: 313.73236083984375
z: -0.14599154889583588
visibility: 0.9999880790710449
","x: 241.23487854003906
y: 313.30145263671875
z: -0.13453447818756104
visibility: 0.999984860420227
","x: 259.1061706542969
y: 334.2998046875
z: -0.07390746474266052
visibility: 0.9999686479568481
","x: 230.688720703125
y: 331.0731506347656
z: 0.008939803577959538
visibility: 0.9999295473098755
","x: 277.783935546875
y: 356.3446350097656
z: -0.17133018374443054
visibility: 0.9986390471458435
","x: 212.25003051757812
y: 355.5685729980469
z: -0.06645604968070984
visibility: 0.9974496960639954
","x: 284.5379638671875
y: 315.519287109375
z: -0.2900373637676239
visibility: 0.987603485584259
","x: 218.16302490234375
y: 317.49493408203125
z: -0.20538818836212158
visibility: 0.996829092502594
","x: 287.1874694824219
y: 305.09161376953125
z: -0.3171415627002716
visibility: 0.9602203369140625
","x: 219.78375244140625
y: 305.11865234375
z: -0.23119337856769562
visibility: 0.9859931468963623
","x: 286.68170166015625
y: 303.1900634765625
z: -0.3064837157726288
visibility: 0.95725417137146
","x: 221.5633087158203
y: 303.6810607910156
z: -0.2193763256072998
visibility: 0.9851674437522888
","x: 285.116455078125
y: 306.11114501953125
z: -0.28981807827949524
visibility: 0.9471644163131714
","x: 222.12783813476562
y: 308.09661865234375
z: -0.2055954933166504
visibility: 0.9802307486534119
","x: 249.37411499023438
y: 424.0710754394531
z: -0.05904410034418106
visibility: 0.9999241828918457
","x: 236.48989868164062
y: 425.0008544921875
z: 0.0590326301753521
visibility: 0.9997174143791199
","x: 234.0354766845703
y: 474.5996398925781
z: -0.17885227501392365
visibility: 0.9939404726028442
","x: 248.5419921875
y: 488.000244140625
z: 0.126445934176445
visibility: 0.8966839909553528
","x: 227.98641967773438
y: 546.939208984375
z: -0.16529645025730133
visibility: 0.9990543723106384
","x: 272.41680908203125
y: 529.5572509765625
z: 0.26346588134765625
visibility: 0.9757787585258484
","x: 229.94937133789062
y: 558.0377197265625
z: -0.16776242852210999
visibility: 0.9918698072433472
","x: 277.33709716796875
y: 529.4776611328125
z: 0.2756109833717346
visibility: 0.9880701899528503
","x: 211.7083740234375
y: 564.6399536132812
z: -0.2689844071865082
visibility: 0.9971973896026611
","x: 270.4989929199219
y: 558.7064208984375
z: 0.21672114729881287
visibility: 0.9761602878570557
","x: 219.17208862304688
y: 313.9725341796875
z: 0.0
","x: 222.09124755859375
y: 311.29168701171875
z: -0.0008463652920909226
","x: 224.852783203125
y: 308.0765075683594
z: -0.0018393159843981266
","x: 227.16275024414062
y: 306.403564453125
z: -0.003528048051521182
","x: 228.9905548095703
y: 305.69805908203125
z: -0.005064424127340317
","x: 223.73944091796875
y: 297.4753112792969
z: 0.0008741801138967276
","x: 224.8943328857422
y: 290.7744445800781
z: -0.0010553526226431131
","x: 225.41696166992188
y: 288.3961181640625
z: -0.002080312231555581
","x: 225.6787567138672
y: 286.9840393066406
z: -0.0024951102677732706
","x: 221.9562530517578
y: 296.1859436035156
z: -0.0005019961972720921
","x: 222.4764404296875
y: 287.6675720214844
z: -0.0017371271969750524
","x: 222.78268432617188
y: 284.1928405761719
z: -0.002211502753198147
","x: 222.82046508789062
y: 281.6940002441406
z: -0.002455722540616989
","x: 220.0864715576172
y: 296.37841796875
z: -0.0024694171734154224
","x: 219.82928466796875
y: 289.3678894042969
z: -0.004155361093580723
","x: 219.77467346191406
y: 287.21820068359375
z: -0.004628454335033894
","x: 219.80641174316406
y: 286.0091857910156
z: -0.0046368613839149475
","x: 218.29307556152344
y: 297.87066650390625
z: -0.004807644058018923
","x: 217.5725555419922
y: 292.75909423828125
z: -0.006217517890036106
","x: 217.33154296875
y: 290.84722900390625
z: -0.00651722215116024
","x: 217.3376922607422
y: 289.99237060546875
z: -0.006425187457352877
",,,,,,,,,,,,,,,,,,,,,
1,"x: 242.94985961914062
y: 309.5996398925781
z: -0.170320063829422
visibility: 0.9999923706054688
","x: 245.38941955566406
y: 305.26531982421875
z: -0.1630125492811203
visibility: 0.9999794960021973
","x: 246.5384979248047
y: 305.248291015625
z: -0.1630048155784607
visibility: 0.9999799728393555
","x: 247.68003845214844
y: 305.221923828125
z: -0.163040891289711
visibility: 0.999974250793457
","x: 242.7891845703125
y: 304.9932861328125
z: -0.154343843460083
visibility: 0.999980092048645
","x: 242.135986328125
y: 304.77313232421875
z: -0.15437284111976624
visibility: 0.999976396560669
","x: 241.48455810546875
y: 304.4690246582031
z: -0.15433484315872192
visibility: 0.9999794960021973
","x: 250.04483032226562
y: 306.4770812988281
z: -0.10345759242773056
visibility: 0.9999679327011108
","x: 240.64129638671875
y: 305.1373596191406
z: -0.06336568295955658
visibility: 0.9999762773513794
","x: 244.98052978515625
y: 313.73236083984375
z: -0.14599154889583588
visibility: 0.9999880790710449
","x: 241.23487854003906
y: 313.30145263671875
z: -0.13453447818756104
visibility: 0.999984860420227
","x: 259.1061706542969
y: 334.2998046875
z: -0.07390746474266052
visibility: 0.9999686479568481
","x: 230.688720703125
y: 331.0731506347656
z: 0.008939803577959538
visibility: 0.9999295473098755
","x: 277.783935546875
y: 356.3446350097656
z: -0.17133018374443054
visibility: 0.9986390471458435
","x: 212.25003051757812
y: 355.5685729980469
z: -0.06645604968070984
visibility: 0.9974496960639954
","x: 284.5379638671875
y: 315.519287109375
z: -0.2900373637676239
visibility: 0.987603485584259
","x: 218.16302490234375
y: 317.49493408203125
z: -0.20538818836212158
visibility: 0.996829092502594
","x: 287.1874694824219
y: 305.09161376953125
z: -0.3171415627002716
visibility: 0.9602203369140625
","x: 219.78375244140625
y: 305.11865234375
z: -0.23119337856769562
visibility: 0.9859931468963623
","x: 286.68170166015625
y: 303.1900634765625
z: -0.3064837157726288
visibility: 0.95725417137146
","x: 221.5633087158203
y: 303.6810607910156
z: -0.2193763256072998
visibility: 0.9851674437522888
","x: 285.116455078125
y: 306.11114501953125
z: -0.28981807827949524
visibility: 0.9471644163131714
","x: 222.12783813476562
y: 308.09661865234375
z: -0.2055954933166504
visibility: 0.9802307486534119
","x: 249.37411499023438
y: 424.0710754394531
z: -0.05904410034418106
visibility: 0.9999241828918457
","x: 236.48989868164062
y: 425.0008544921875
z: 0.0590326301753521
visibility: 0.9997174143791199
","x: 234.0354766845703
y: 474.5996398925781
z: -0.17885227501392365
visibility: 0.9939404726028442
","x: 248.5419921875
y: 488.000244140625
z: 0.126445934176445
visibility: 0.8966839909553528
","x: 227.98641967773438
y: 546.939208984375
z: -0.16529645025730133
visibility: 0.9990543723106384
","x: 272.41680908203125
y: 529.5572509765625
z: 0.26346588134765625
visibility: 0.9757787585258484
","x: 229.94937133789062
y: 558.0377197265625
z: -0.16776242852210999
visibility: 0.9918698072433472
","x: 277.33709716796875
y: 529.4776611328125
z: 0.2756109833717346
visibility: 0.9880701899528503
","x: 211.7083740234375
y: 564.6399536132812
z: -0.2689844071865082
visibility: 0.9971973896026611
","x: 270.4989929199219
y: 558.7064208984375
z: 0.21672114729881287
visibility: 0.9761602878570557
","x: 219.17208862304688
y: 313.9725341796875
z: 0.0
","x: 222.09124755859375
y: 311.29168701171875
z: -0.0008463652920909226
","x: 224.852783203125
y: 308.0765075683594
z: -0.0018393159843981266
","x: 227.16275024414062
y: 306.403564453125
z: -0.003528048051521182
","x: 228.9905548095703
y: 305.69805908203125
z: -0.005064424127340317
","x: 223.73944091796875
y: 297.4753112792969
z: 0.0008741801138967276
","x: 224.8943328857422
y: 290.7744445800781
z: -0.0010553526226431131
","x: 225.41696166992188
y: 288.3961181640625
z: -0.002080312231555581
","x: 225.6787567138672
y: 286.9840393066406
z: -0.0024951102677732706
","x: 221.9562530517578
y: 296.1859436035156
z: -0.0005019961972720921
","x: 222.4764404296875
y: 287.6675720214844
z: -0.0017371271969750524
","x: 222.78268432617188
y: 284.1928405761719
z: -0.002211502753198147
","x: 222.82046508789062
y: 281.6940002441406
z: -0.002455722540616989
","x: 220.0864715576172
y: 296.37841796875
z: -0.0024694171734154224
","x: 219.82928466796875
y: 289.3678894042969
z: -0.004155361093580723
","x: 219.77467346191406
y: 287.21820068359375
z: -0.004628454335033894
","x: 219.80641174316406
y: 286.0091857910156
z: -0.0046368613839149475
","x: 218.29307556152344
y: 297.87066650390625
z: -0.004807644058018923
","x: 217.5725555419922
y: 292.75909423828125
z: -0.006217517890036106
","x: 217.33154296875
y: 290.84722900390625
z: -0.00651722215116024
","x: 217.3376922607422
y: 289.99237060546875
z: -0.006425187457352877
",,,,,,,,,,,,,,,,,,,,,
2,"x: 220.91542053222656
y: 306.6614990234375
z: -0.16136473417282104
visibility: 0.9999794363975525
","x: 223.06048583984375
y: 302.197021484375
z: -0.15207171440124512
visibility: 0.9999556541442871
","x: 224.08673095703125
y: 302.2300109863281
z: -0.15210047364234924
visibility: 0.9999544024467468
","x: 225.2152862548828
y: 302.3345642089844
z: -0.15214094519615173
visibility: 0.9999566078186035
","x: 220.1641387939453
y: 302.4755554199219
z: -0.14514920115470886
visibility: 0.999942421913147
","x: 219.20204162597656
y: 302.55377197265625
z: -0.14514729380607605
visibility: 0.9999245405197144
","x: 218.27613830566406
y: 302.5698547363281
z: -0.14510609209537506
visibility: 0.9999222159385681
","x: 228.478515625
y: 306.15960693359375
z: -0.09012740105390549
visibility: 0.999940037727356
","x: 218.19949340820312
y: 305.097412109375
z: -0.05918924883008003
visibility: 0.9997796416282654
","x: 223.12380981445312
y: 311.9781188964844
z: -0.13875660300254822
visibility: 0.9999760389328003
","x: 219.7764129638672
y: 311.9637145996094
z: -0.12968993186950684
visibility: 0.9999436140060425
","x: 239.7156524658203
y: 334.2026062011719
z: -0.08389775454998016
visibility: 0.9999575614929199
","x: 213.37069702148438
y: 335.70196533203125
z: -0.00402437150478363
visibility: 0.999810516834259
","x: 254.8066864013672
y: 348.10919189453125
z: -0.22559955716133118
visibility: 0.9985906481742859
","x: 206.4295654296875
y: 357.4928283691406
z: -0.08693709224462509
visibility: 0.9917967319488525
","x: 233.77487182617188
y: 330.9709167480469
z: -0.3452755808830261
visibility: 0.9884759783744812
","x: 192.63665771484375
y: 336.1268310546875
z: -0.25982582569122314
visibility: 0.9942336678504944
","x: 227.62953186035156
y: 332.2626953125
z: -0.3782678246498108
visibility: 0.9626548886299133
","x: 187.95843505859375
y: 331.2767028808594
z: -0.2923245429992676
visibility: 0.9827542304992676
","x: 226.53355407714844
y: 331.71868896484375
z: -0.36380258202552795
visibility: 0.9597987532615662
","x: 187.87570190429688
y: 328.8487243652344
z: -0.29642197489738464
visibility: 0.9821071028709412
","x: 228.2805633544922
y: 331.5232849121094
z: -0.34188148379325867
visibility: 0.9499011635780334
","x: 189.5421142578125
y: 330.4478454589844
z: -0.2681661546230316
visibility: 0.9767773747444153
","x: 238.67344665527344
y: 422.60809326171875
z: -0.01415187306702137
visibility: 0.9999088644981384
","x: 221.91311645507812
y: 421.8223876953125
z: 0.014045802876353264
visibility: 0.9997171759605408
","x: 234.62547302246094
y: 478.2564697265625
z: 0.017081547528505325
visibility: 0.993178129196167
","x: 215.37261962890625
y: 479.19549560546875
z: 0.02430655062198639
visibility: 0.9059559106826782
","x: 232.64865112304688
y: 525.0675048828125
z: 0.1856028139591217
visibility: 0.9954842329025269
","x: 208.187255859375
y: 529.295166015625
z: 0.13852910697460175
visibility: 0.9765837788581848
","x: 231.045654296875
y: 531.8916625976562
z: 0.1995197981595993
visibility: 0.9779012799263
","x: 208.07833862304688
y: 533.3253784179688
z: 0.1461402028799057
visibility: 0.9713129997253418
","x: 236.66262817382812
y: 546.2152099609375
z: 0.13545235991477966
visibility: 0.9927924275398254
","x: 202.54066467285156
y: 547.8894653320312
z: 0.07111269235610962
visibility: 0.9753997325897217
",,,,,,,,,,,,,,,,,,,,,,,,,,,,,,,,,,,,,,,,,,
3,"x: 227.58489990234375
y: 308.0590515136719
z: -0.12302495539188385
visibility: 0.9999328851699829
","x: 228.88893127441406
y: 303.3963317871094
z: -0.11168007552623749
visibility: 0.9998876452445984
","x: 229.84695434570312
y: 303.28485107421875
z: -0.11172845214605331
visibility: 0.9998883008956909
","x: 230.8460235595703
y: 303.3179626464844
z: -0.11175782978534698
visibility: 0.9999002814292908
","x: 226.41143798828125
y: 304.2937927246094
z: -0.10810580104589462
visibility: 0.9998209476470947
","x: 225.64295959472656
y: 304.6164855957031
z: -0.10812743008136749
visibility: 0.9997673630714417
","x: 224.884033203125
y: 304.9945373535156
z: -0.10813558101654053
visibility: 0.9997404217720032
","x: 233.35772705078125
y: 307.6299133300781
z: -0.05028114840388298
visibility: 0.9998663663864136
","x: 224.15084838867188
y: 309.3450622558594
z: -0.035031259059906006
visibility: 0.9994162917137146
","x: 229.84584045410156
y: 313.62213134765625
z: -0.1009436696767807
visibility: 0.999929666519165
","x: 226.48074340820312
y: 314.0954895019531
z: -0.09650534391403198
visibility: 0.9998089671134949
","x: 245.12437438964844
y: 331.7831115722656
z: -0.06668562442064285
visibility: 0.999935507774353
","x: 218.94117736816406
y: 337.86627197265625
z: -0.0024937381967902184
visibility: 0.9995691180229187
","x: 253.0064697265625
y: 331.35418701171875
z: -0.21471504867076874
visibility: 0.9983856678009033
","x: 207.2521209716797
y: 341.4602355957031
z: -0.09630635380744934
visibility: 0.9905545711517334
","x: 235.13381958007812
y: 326.8637390136719
z: -0.33424198627471924
visibility: 0.9892624616622925
","x: 192.92849731445312
y: 328.8795471191406
z: -0.25240159034729004
visibility: 0.9930892586708069
","x: 229.9517822265625
y: 325.83563232421875
z: -0.3662737011909485
visibility: 0.9652285575866699
","x: 188.95077514648438
y: 321.7247009277344
z: -0.2807812988758087
visibility: 0.9812840223312378
","x: 229.24720764160156
y: 325.5071716308594
z: -0.3552336096763611
visibility: 0.9626103639602661
","x: 189.25930786132812
y: 319.7529296875
z: -0.2861558794975281
visibility: 0.9808921813964844
","x: 230.73184204101562
y: 325.86346435546875
z: -0.33259081840515137
visibility: 0.9533070921897888
","x: 190.69993591308594
y: 323.3941345214844
z: -0.2607653737068176
visibility: 0.9758933782577515
","x: 240.40528869628906
y: 416.7144470214844
z: -0.01090601272881031
visibility: 0.9998667240142822
","x: 226.90272521972656
y: 418.7577819824219
z: 0.010873698629438877
visibility: 0.9996302127838135
","x: 242.37965393066406
y: 472.2628173828125
z: -0.060561537742614746
visibility: 0.9805766940116882
","x: 230.56214904785156
y: 469.1365051269531
z: -0.024250950664281845
visibility: 0.8969961404800415
","x: 235.40936279296875
y: 518.3064575195312
z: 0.031779780983924866
visibility: 0.9708204865455627
","x: 234.87960815429688
y: 517.1339111328125
z: 0.07572592794895172
visibility: 0.9505597949028015
","x: 231.81321716308594
y: 526.781494140625
z: 0.03782695531845093
visibility: 0.9469271898269653
","x: 234.39637756347656
y: 523.6895141601562
z: 0.08199506253004074
visibility: 0.9181643128395081
","x: 237.28237915039062
y: 539.4273071289062
z: -0.02892526425421238
visibility: 0.9695389270782471
","x: 233.16940307617188
y: 537.7244262695312
z: 0.013325750827789307
visibility: 0.9475523829460144
",,,,,,,,,,,,,,,,,,,,,,,,,,,,,,,,,,,,,,,,,,
4,"x: 231.2525634765625
y: 308.18768310546875
z: -0.09383663535118103
visibility: 0.9999392032623291
","x: 233.3515167236328
y: 303.7393798828125
z: -0.07783248275518417
visibility: 0.9998981356620789
","x: 234.36073303222656
y: 303.6580505371094
z: -0.0778176337480545
visibility: 0.9998983144760132
","x: 235.37181091308594
y: 303.6957702636719
z: -0.07780589163303375
visibility: 0.9999092817306519
","x: 230.76612854003906
y: 304.52069091796875
z: -0.0840514525771141
visibility: 0.9998381733894348
","x: 230.04795837402344
y: 304.83453369140625
z: -0.08408056199550629
visibility: 0.999789834022522
","x: 229.33143615722656
y: 305.1996154785156
z: -0.0840621292591095
visibility: 0.9997658133506775
","x: 237.1919403076172
y: 307.8539123535156
z: 0.0010623830603435636
visibility: 0.9998782873153687
","x: 228.4416046142578
y: 309.3456115722656
z: -0.028056850656867027
visibility: 0.9994741082191467
","x: 233.64857482910156
y: 313.7472839355469
z: -0.0652301236987114
visibility: 0.9999361634254456
","x: 229.67831420898438
y: 314.2745666503906
z: -0.07370643317699432
visibility: 0.9998276233673096
","x: 246.95166015625
y: 331.06207275390625
z: 0.02043430134654045
visibility: 0.9999301433563232
","x: 221.61373901367188
y: 337.05889892578125
z: -0.03826495260000229
visibility: 0.99960857629776
","x: 255.58096313476562
y: 323.1187744140625
z: -0.10894887149333954
visibility: 0.9967449307441711
","x: 207.9864959716797
y: 330.3840637207031
z: -0.18979884684085846
visibility: 0.9913594722747803
","x: 254.51983642578125
y: 300.5074768066406
z: -0.2559295892715454
visibility: 0.9893703460693359
","x: 197.72509765625
y: 310.9476318359375
z: -0.3435203433036804
visibility: 0.9936069250106812
","x: 253.9029998779297
y: 293.8353576660156
z: -0.2854241728782654
visibility: 0.9665612578392029
","x: 193.5242919921875
y: 309.570068359375
z: -0.3815213739871979
visibility: 0.982585072517395
","x: 253.07176208496094
y: 293.3924560546875
z: -0.2861276865005493
visibility: 0.9641935229301453
","x: 193.91949462890625
y: 308.90948486328125
z: -0.37631964683532715
visibility: 0.9822386503219604
","x: 252.83615112304688
y: 296.5053405761719
z: -0.2628456950187683
visibility: 0.9556128978729248
","x: 195.6634521484375
y: 310.0963134765625
z: -0.3481309711933136
visibility: 0.9776265025138855
","x: 247.9670867919922
y: 413.3851318359375
z: 0.018985718488693237
visibility: 0.9998697638511658
","x: 233.7118377685547
y: 416.134765625
z: -0.01896846666932106
visibility: 0.9996596574783325
","x: 247.42022705078125
y: 472.532470703125
z: -0.03150377422571182
visibility: 0.9801125526428223
","x: 242.5884552001953
y: 471.2350769042969
z: -0.08346206694841385
visibility: 0.9064689874649048
","x: 234.88348388671875
y: 523.9656372070312
z: 0.06596745550632477
visibility: 0.9716956615447998
","x: 256.8746337890625
y: 515.0347290039062
z: -0.0030908805783838034
visibility: 0.9549193382263184
","x: 231.67857360839844
y: 533.0286865234375
z: 0.07137950509786606
visibility: 0.9472702145576477
","x: 257.7703857421875
y: 520.5345458984375
z: 0.0003579521144274622
visibility: 0.9226100444793701
","x: 240.48780822753906
y: 542.0335693359375
z: -0.007303281687200069
visibility: 0.9704792499542236
","x: 262.5931091308594
y: 537.538818359375
z: -0.08565523475408554
visibility: 0.9520219564437866
",,,,,,,,,,,,,,,,,,,,,,,,,,,,,,,,,,,,,,,,,,
5,"x: 236.99368286132812
y: 308.01702880859375
z: -0.11689235270023346
visibility: 0.9999451041221619
","x: 238.35263061523438
y: 303.7909851074219
z: -0.09854982793331146
visibility: 0.9999077916145325
","x: 239.3624267578125
y: 303.6816711425781
z: -0.09852714836597443
visibility: 0.9999074935913086
","x: 240.33705139160156
y: 303.8253479003906
z: -0.09854546189308167
visibility: 0.9999175071716309
","x: 235.44967651367188
y: 304.51922607421875
z: -0.09796497970819473
visibility: 0.9998540282249451
","x: 234.3944549560547
y: 304.83197021484375
z: -0.09799499064683914
visibility: 0.9998104572296143
","x: 233.32061767578125
y: 305.1784973144531
z: -0.09797840565443039
visibility: 0.9997889995574951
","x: 241.73123168945312
y: 308.0801696777344
z: -0.017352918162941933
visibility: 0.9998884797096252
","x: 232.6124725341797
y: 309.10302734375
z: -0.016306819394230843
visibility: 0.9995262622833252
","x: 239.1365203857422
y: 313.5741882324219
z: -0.08933793753385544
visibility: 0.9999415278434753
","x: 235.572509765625
y: 314.1106872558594
z: -0.08910570293664932
visibility: 0.9998444318771362
","x: 250.87222290039062
y: 331.0927734375
z: 0.015028409659862518
visibility: 0.9998597502708435
","x: 225.2255401611328
y: 337.09686279296875
z: 0.0002971728681586683
visibility: 0.999637246131897
","x: 262.2284851074219
y: 315.586669921875
z: -0.011211095377802849
visibility: 0.996472179889679
","x: 211.3656005859375
y: 321.3168029785156
z: -0.08148939907550812
visibility: 0.9920651912689209
","x: 271.0224914550781
y: 281.1895751953125
z: -0.05600685626268387
visibility: 0.9886451959609985
","x: 211.36215209960938
y: 287.57745361328125
z: -0.18257704377174377
visibility: 0.9936116933822632
","x: 274.5966491699219
y: 274.185546875
z: -0.0722501128911972
visibility: 0.9636041522026062
","x: 211.5157470703125
y: 280.25244140625
z: -0.21635310351848602
visibility: 0.9810484647750854
","x: 272.9450378417969
y: 272.8796691894531
z: -0.07831431925296783
visibility: 0.9611074924468994
","x: 214.27490234375
y: 280.38128662109375
z: -0.20215360820293427
visibility: 0.9803009629249573
","x: 271.4554138183594
y: 276.1699523925781
z: -0.062503382563591
visibility: 0.953296422958374
","x: 214.46530151367188
y: 283.63909912109375
z: -0.18325866758823395
visibility: 0.9759341478347778
","x: 256.23480224609375
y: 414.06134033203125
z: 0.0007309937500394881
visibility: 0.9998311400413513
","x: 240.302978515625
y: 417.2615966796875
z: -0.000690610846504569
visibility: 0.9996779561042786
","x: 251.78460693359375
y: 472.6855773925781
z: -0.005385099444538355
visibility: 0.9788708090782166
","x: 250.3617401123047
y: 473.3299255371094
z: -0.06129123643040657
visibility: 0.9145402312278748
","x: 235.74298095703125
y: 524.0057983398438
z: 0.11252586543560028
visibility: 0.9723576307296753
","x: 266.2797546386719
y: 515.5052490234375
z: 0.014492010697722435
visibility: 0.9588738679885864
","x: 232.1983642578125
y: 532.3914184570312
z: 0.11948998272418976
visibility: 0.9470011591911316
","x: 267.81207275390625
y: 525.190673828125
z: 0.017653275281190872
visibility: 0.9272515177726746
","x: 240.2561798095703
y: 543.4931030273438
z: 0.036345500499010086
visibility: 0.970644474029541
","x: 267.49383544921875
y: 541.9608154296875
z: -0.07173478603363037
visibility: 0.9559217691421509
",,,,,,,,,,,,,,,,,,,,,,,,,,,,,,,,,,,,,,,,,,
6,"x: 248.34500122070312
y: 311.8598327636719
z: -0.0979434996843338
visibility: 0.9999226927757263
","x: 248.5460205078125
y: 307.6492004394531
z: -0.08038508892059326
visibility: 0.9998332262039185
","x: 249.00071716308594
y: 307.5266418457031
z: -0.08035022020339966
visibility: 0.9997681975364685
","x: 249.4846649169922
y: 307.47369384765625
z: -0.08032841980457306
visibility: 0.999813973903656
","x: 247.10638427734375
y: 308.58917236328125
z: -0.08576709032058716
visibility: 0.9998143315315247
","x: 246.47003173828125
y: 309.171875
z: -0.08579964935779572
visibility: 0.9997619390487671
","x: 245.73194885253906
y: 309.7745361328125
z: -0.08583422005176544
visibility: 0.9997735023498535
","x: 249.61366271972656
y: 310.8813781738281
z: -0.005589728243649006
visibility: 0.9995673894882202
","x: 243.55673217773438
y: 313.3127136230469
z: -0.027525644749403
visibility: 0.9995034337043762
","x: 249.05931091308594
y: 316.68267822265625
z: -0.07167668640613556
visibility: 0.9998467564582825
","x: 247.4772491455078
y: 317.53973388671875
z: -0.07873989641666412
visibility: 0.9998056292533875
","x: 257.96392822265625
y: 331.5145263671875
z: 0.03005603328347206
visibility: 0.9994714856147766
","x: 235.18641662597656
y: 338.439208984375
z: -0.035790279507637024
visibility: 0.9996074438095093
","x: 267.3858947753906
y: 311.8469543457031
z: -0.0006009924691170454
visibility: 0.9935827851295471
","x: 221.68812561035156
y: 314.61871337890625
z: -0.11627064645290375
visibility: 0.9924218654632568
","x: 257.293212890625
y: 288.73516845703125
z: -0.019549792632460594
visibility: 0.9787893295288086
","x: 230.5145263671875
y: 283.3770446777344
z: -0.14465171098709106
visibility: 0.9905780553817749
","x: 252.4830780029297
y: 282.3723449707031
z: -0.0315043181180954
visibility: 0.9371623992919922
","x: 232.60780334472656
y: 274.5877380371094
z: -0.1652439683675766
visibility: 0.9703381657600403
","x: 249.86866760253906
y: 282.0689697265625
z: -0.022763680666685104
visibility: 0.9316933751106262
","x: 234.43687438964844
y: 275.4377136230469
z: -0.1516627073287964
visibility: 0.9675775170326233
","x: 250.56541442871094
y: 285.26812744140625
z: -0.019028877839446068
visibility: 0.9244058728218079
","x: 234.32972717285156
y: 279.5538635253906
z: -0.1419314593076706
visibility: 0.9620333909988403
","x: 256.45947265625
y: 415.16131591796875
z: 0.03281768411397934
visibility: 0.9997040629386902
","x: 246.92942810058594
y: 417.9219055175781
z: -0.03296623378992081
visibility: 0.9996485114097595
","x: 251.3212432861328
y: 472.9287109375
z: 0.044291019439697266
visibility: 0.9594324827194214
","x: 254.69891357421875
y: 472.6357727050781
z: -0.0721103772521019
visibility: 0.919015645980835
","x: 235.53387451171875
y: 523.3214111328125
z: 0.13306443393230438
visibility: 0.969989001750946
","x: 266.5512390136719
y: 515.6209716796875
z: -0.025749001652002335
visibility: 0.9615685343742371
","x: 231.36837768554688
y: 532.3357543945312
z: 0.1383334994316101
visibility: 0.9465576410293579
","x: 267.28167724609375
y: 531.013427734375
z: -0.02454417571425438
visibility: 0.9302166104316711
","x: 242.8072967529297
y: 542.7488403320312
z: 0.07487040758132935
visibility: 0.9669287204742432
","x: 271.8290710449219
y: 539.416748046875
z: -0.1040770635008812
visibility: 0.9581078886985779
",,,,,,,,,,,,,,,,,,,,,,,,,,,,,,,,,,,,,,,,,,
7,"x: 259.54644775390625
y: 305.4242248535156
z: -0.07208342105150223
visibility: 0.9996267557144165
","x: 258.1410827636719
y: 301.361572265625
z: -0.06463741511106491
visibility: 0.9994075298309326
","x: 257.8023986816406
y: 301.23150634765625
z: -0.06462263315916061
visibility: 0.9990925192832947
","x: 257.4244689941406
y: 301.06829833984375
z: -0.06464032828807831
visibility: 0.9993887543678284
","x: 257.998291015625
y: 301.58148193359375
z: -0.08708706498146057
visibility: 0.9994938969612122
","x: 257.6168518066406
y: 301.67913818359375
z: -0.08710340410470963
visibility: 0.9994589686393738
","x: 257.17474365234375
y: 301.7752685546875
z: -0.08714906126260757
visibility: 0.9995642900466919
","x: 254.62136840820312
y: 304.26287841796875
z: -0.01434529572725296
visibility: 0.9991817474365234
","x: 253.89437866210938
y: 305.468505859375
z: -0.12002311646938324
visibility: 0.9990138411521912
","x: 258.43157958984375
y: 310.21771240234375
z: -0.05103931948542595
visibility: 0.9994496703147888
","x: 258.3797302246094
y: 310.42987060546875
z: -0.08113755285739899
visibility: 0.9993773102760315
","x: 254.3130645751953
y: 335.27099609375
z: 0.0662730485200882
visibility: 0.9955849647521973
","x: 251.9116973876953
y: 333.548828125
z: -0.16911104321479797
visibility: 0.9988554120063782
","x: 249.97438049316406
y: 360.57122802734375
z: 0.22057393193244934
visibility: 0.895115852355957
","x: 246.7637939453125
y: 309.65228271484375
z: -0.3617266118526459
visibility: 0.9823338985443115
","x: 253.46826171875
y: 382.3997802734375
z: 0.34910672903060913
visibility: 0.8838904500007629
","x: 239.17213439941406
y: 288.8863830566406
z: -0.5246344804763794
visibility: 0.9840047955513
","x: 254.53958129882812
y: 393.84881591796875
z: 0.3839021325111389
visibility: 0.848796010017395
","x: 237.1714324951172
y: 283.5538024902344
z: -0.5658119320869446
visibility: 0.9660711884498596
","x: 254.5863494873047
y: 392.774658203125
z: 0.36505261063575745
visibility: 0.8439610004425049
","x: 237.31704711914062
y: 283.8585510253906
z: -0.552686333656311
visibility: 0.962975263595581
","x: 254.71356201171875
y: 388.908935546875
z: 0.34584513306617737
visibility: 0.8379851579666138
","x: 238.05320739746094
y: 286.23284912109375
z: -0.5245368480682373
visibility: 0.9542436599731445
","x: 254.1402587890625
y: 416.2521057128906
z: 0.06565211713314056
visibility: 0.9996780157089233
","x: 252.5435028076172
y: 418.28497314453125
z: -0.06583182513713837
visibility: 0.9996073246002197
","x: 249.22198486328125
y: 473.93310546875
z: 0.08691053837537766
visibility: 0.9458010196685791
","x: 260.79144287109375
y: 471.9399719238281
z: -0.030827661976218224
visibility: 0.9204414486885071
","x: 235.0225067138672
y: 524.1401977539062
z: 0.15571846067905426
visibility: 0.9671017527580261
","x: 263.3611145019531
y: 519.5206298828125
z: 0.058915507048368454
visibility: 0.9630560874938965
","x: 228.6139678955078
y: 534.272216796875
z: 0.16040703654289246
visibility: 0.9454699754714966
","x: 260.3190002441406
y: 534.2340698242188
z: 0.06573516130447388
visibility: 0.9319795966148376
","x: 243.50892639160156
y: 542.3162231445312
z: 0.11709888279438019
visibility: 0.9615907073020935
","x: 274.3123474121094
y: 538.4635009765625
z: 0.0064638955518603325
visibility: 0.9571714401245117
",,,,,,,,,,,,,,,,,,,,,,,,,,,,,,,,,,,,,,,,,,
8,"x: 258.6802062988281
y: 298.9283447265625
z: 0.031286031007766724
visibility: 0.9995940327644348
","x: 256.64544677734375
y: 296.30865478515625
z: 0.02291204035282135
visibility: 0.9993927478790283
","x: 256.0843811035156
y: 296.5062561035156
z: 0.022896604612469673
visibility: 0.9990963339805603
","x: 255.51747131347656
y: 296.65576171875
z: 0.022880055010318756
visibility: 0.9993857741355896
","x: 258.02593994140625
y: 296.613525390625
z: 0.009584160521626472
visibility: 0.9994708895683289
","x: 258.39825439453125
y: 296.9595947265625
z: 0.009592678397893906
visibility: 0.9994467496871948
","x: 258.7825012207031
y: 297.3403625488281
z: 0.009590514935553074
visibility: 0.9995434880256653
","x: 253.34263610839844
y: 301.347900390625
z: 0.010332713834941387
visibility: 0.9992305636405945
","x: 258.1387023925781
y: 301.64202880859375
z: -0.06964334845542908
visibility: 0.9990217685699463
","x: 257.9687805175781
y: 303.9330749511719
z: 0.031293172389268875
visibility: 0.9994269609451294
","x: 259.67706298828125
y: 304.3689880371094
z: 0.013087277300655842
visibility: 0.9993146657943726
","x: 247.6324920654297
y: 335.01904296875
z: 0.04928749054670334
visibility: 0.9953959584236145
","x: 262.7687683105469
y: 329.9618835449219
z: -0.10398226976394653
visibility: 0.9987090229988098
","x: 243.26708984375
y: 312.1950378417969
z: 0.15006865561008453
visibility: 0.8637208938598633
","x: 268.87139892578125
y: 312.8442077636719
z: -0.21118387579917908
visibility: 0.9571054577827454
","x: 244.10218811035156
y: 301.62542724609375
z: 0.2632451057434082
visibility: 0.8243383169174194
","x: 257.1572265625
y: 292.9565734863281
z: -0.3267950415611267
visibility: 0.9513407349586487
","x: 243.7446746826172
y: 293.6598815917969
z: 0.27920809388160706
visibility: 0.7933893203735352
","x: 256.1059265136719
y: 281.4035339355469
z: -0.3719915747642517
visibility: 0.9376694560050964
","x: 244.73948669433594
y: 295.4571838378906
z: 0.26964685320854187
visibility: 0.7897222638130188
","x: 252.17408752441406
y: 286.78857421875
z: -0.34733450412750244
visibility: 0.9347957968711853
","x: 245.94900512695312
y: 299.87628173828125
z: 0.26175376772880554
visibility: 0.7855881452560425
","x: 252.80653381347656
y: 290.16839599609375
z: -0.32767194509506226
visibility: 0.9217224717140198
","x: 249.41319274902344
y: 416.74676513671875
z: 0.05852682515978813
visibility: 0.9996938109397888
","x: 256.9039001464844
y: 418.5826110839844
z: -0.058674924075603485
visibility: 0.9996221661567688
","x: 249.49790954589844
y: 473.9895935058594
z: 0.061400603502988815
visibility: 0.9387978911399841
","x: 261.91656494140625
y: 473.162109375
z: -0.01989162340760231
visibility: 0.9255614280700684
","x: 237.2321014404297
y: 525.7112426757812
z: 0.08917620778083801
visibility: 0.9606254696846008
","x: 263.1409912109375
y: 526.7450561523438
z: 0.01335145253688097
visibility: 0.9648460149765015
","x: 231.91744995117188
y: 534.7200317382812
z: 0.09062294661998749
visibility: 0.9430195093154907
","x: 257.90374755859375
y: 538.2708740234375
z: 0.01584143564105034
visibility: 0.9362497329711914
","x: 245.82052612304688
y: 542.8700561523438
z: 0.059736914932727814
visibility: 0.9417335987091064
","x: 270.6856994628906
y: 539.834716796875
z: -0.01711886003613472
visibility: 0.955458402633667
",,,,,,,,,,,,,,,,,,,,,,,,,,,,,,,,,,,,,,,,,,
9,"x: 258.73687744140625
y: 301.0077209472656
z: 0.1524842083454132
visibility: 0.9996002316474915
","x: 256.90606689453125
y: 297.40423583984375
z: 0.1303773820400238
visibility: 0.9994219541549683
","x: 255.77511596679688
y: 297.31182861328125
z: 0.13035230338573456
visibility: 0.9991631507873535
","x: 254.6459503173828
y: 297.1320495605469
z: 0.1303534209728241
visibility: 0.9994194507598877
","x: 260.1376953125
y: 297.7806396484375
z: 0.13007524609565735
visibility: 0.9994915127754211
","x: 261.2642822265625
y: 297.9912109375
z: 0.13014379143714905
visibility: 0.9994748830795288
","x: 262.427734375
y: 298.2087097167969
z: 0.13011637330055237
visibility: 0.9995492100715637
","x: 252.5292510986328
y: 300.5384521484375
z: 0.05675806477665901
visibility: 0.9992899894714355
","x: 262.79638671875
y: 302.118408203125
z: 0.05353271961212158
visibility: 0.999072790145874
","x: 257.1634521484375
y: 305.66448974609375
z: 0.1313108205795288
visibility: 0.9993850588798523
","x: 260.4503173828125
y: 306.08331298828125
z: 0.13056281208992004
visibility: 0.9992040991783142
","x: 241.87310791015625
y: 327.4364013671875
z: 0.018713679164648056
visibility: 0.9958211779594421
","x: 270.1484680175781
y: 330.53460693359375
z: -0.002015843987464905
visibility: 0.9987457394599915
","x: 233.91078186035156
y: 294.8430480957031
z: 0.029975691810250282
visibility: 0.8756694197654724
","x: 288.96356201171875
y: 318.6340637207031
z: -0.049712423235177994
visibility: 0.9601806998252869
","x: 248.52362060546875
y: 280.6466369628906
z: 0.09663918614387512
visibility: 0.8143432140350342
","x: 276.90966796875
y: 294.8890380859375
z: -0.08978113532066345
visibility: 0.9434130787849426
","x: 251.11358642578125
y: 274.66925048828125
z: 0.08897887170314789
visibility: 0.7747148275375366
","x: 274.0014953613281
y: 285.7981262207031
z: -0.09982573240995407
visibility: 0.9228762984275818
","x: 251.7838134765625
y: 279.8782958984375
z: 0.18140143156051636
visibility: 0.7722183465957642
","x: 270.65386962890625
y: 288.8451843261719
z: -0.0973077267408371
visibility: 0.9205989241600037
","x: 251.84738159179688
y: 283.7785949707031
z: 0.12004151195287704
visibility: 0.7694946527481079
","x: 270.97613525390625
y: 292.1387939453125
z: -0.08950959891080856
visibility: 0.9065544605255127
","x: 248.02590942382812
y: 414.685791015625
z: 0.03602715581655502
visibility: 0.99971604347229
","x: 263.46051025390625
y: 415.1205749511719
z: -0.03545674309134483
visibility: 0.9996430277824402
","x: 247.9690399169922
y: 473.9050598144531
z: 0.009223227389156818
visibility: 0.9445269107818604
","x: 266.095703125
y: 473.1861572265625
z: 0.0016903234645724297
visibility: 0.9324885606765747
","x: 243.8912811279297
y: 527.6735229492188
z: -0.06462547183036804
visibility: 0.9628654718399048
","x: 265.4544372558594
y: 528.71337890625
z: -0.05264386534690857
visibility: 0.9676210284233093
","x: 243.5501251220703
y: 535.3489990234375
z: -0.07250700145959854
visibility: 0.9477948546409607
","x: 262.7012634277344
y: 538.049560546875
z: -0.05877167731523514
visibility: 0.9419995546340942
","x: 242.47274780273438
y: 540.9293212890625
z: -0.0900564044713974
visibility: 0.9299266934394836
","x: 268.4246520996094
y: 537.81982421875
z: -0.07233639061450958
visibility: 0.9535146951675415
","x: 277.0900573730469
y: 295.8009033203125
z: 0.0
","x: 274.1342468261719
y: 294.45013427734375
z: 0.001568956533446908
","x: 271.4814147949219
y: 291.9493408203125
z: 0.0005984106683172286
","x: 269.53656005859375
y: 290.7009582519531
z: -0.001391166471876204
","x: 268.54071044921875
y: 289.58416748046875
z: -0.0031208477448672056
","x: 270.5834655761719
y: 284.96466064453125
z: 0.0006947992951609194
","x: 269.32440185546875
y: 278.012451171875
z: -0.0019496657187119126
","x: 268.5822448730469
y: 273.62322998046875
z: -0.003784172236919403
","x: 268.3662109375
y: 270.65130615234375
z: -0.004967500921338797
","x: 270.90045166015625
y: 285.7288513183594
z: -0.0019163358956575394
","x: 268.3370056152344
y: 283.7107238769531
z: -0.005371002480387688
","x: 269.19720458984375
y: 286.5631103515625
z: -0.005783468950539827
","x: 270.4024963378906
y: 288.7630920410156
z: -0.005302049685269594
","x: 271.0445556640625
y: 287.2637634277344
z: -0.004722499754279852
","x: 268.4232482910156
y: 285.9534912109375
z: -0.0073217060416936874
","x: 269.46746826171875
y: 288.52972412109375
z: -0.006104381754994392
","x: 270.61669921875
y: 290.3545837402344
z: -0.004884832538664341
","x: 271.0885314941406
y: 289.52178955078125
z: -0.007668974809348583
","x: 268.56024169921875
y: 288.3602600097656
z: -0.008703873492777348
","x: 269.2221374511719
y: 289.8501281738281
z: -0.007596565876156092
","x: 270.2430114746094
y: 291.2003173828125
z: -0.006653709802776575
",,,,,,,,,,,,,,,,,,,,,
10,"x: 258.73687744140625
y: 301.0077209472656
z: 0.1524842083454132
visibility: 0.9996002316474915
","x: 256.90606689453125
y: 297.40423583984375
z: 0.1303773820400238
visibility: 0.9994219541549683
","x: 255.77511596679688
y: 297.31182861328125
z: 0.13035230338573456
visibility: 0.9991631507873535
","x: 254.6459503173828
y: 297.1320495605469
z: 0.1303534209728241
visibility: 0.9994194507598877
","x: 260.1376953125
y: 297.7806396484375
z: 0.13007524609565735
visibility: 0.9994915127754211
","x: 261.2642822265625
y: 297.9912109375
z: 0.13014379143714905
visibility: 0.9994748830795288
","x: 262.427734375
y: 298.2087097167969
z: 0.13011637330055237
visibility: 0.9995492100715637
","x: 252.5292510986328
y: 300.5384521484375
z: 0.05675806477665901
visibility: 0.9992899894714355
","x: 262.79638671875
y: 302.118408203125
z: 0.05353271961212158
visibility: 0.999072790145874
","x: 257.1634521484375
y: 305.66448974609375
z: 0.1313108205795288
visibility: 0.9993850588798523
","x: 260.4503173828125
y: 306.08331298828125
z: 0.13056281208992004
visibility: 0.9992040991783142
","x: 241.87310791015625
y: 327.4364013671875
z: 0.018713679164648056
visibility: 0.9958211779594421
","x: 270.1484680175781
y: 330.53460693359375
z: -0.002015843987464905
visibility: 0.9987457394599915
","x: 233.91078186035156
y: 294.8430480957031
z: 0.029975691810250282
visibility: 0.8756694197654724
","x: 288.96356201171875
y: 318.6340637207031
z: -0.049712423235177994
visibility: 0.9601806998252869
","x: 248.52362060546875
y: 280.6466369628906
z: 0.09663918614387512
visibility: 0.8143432140350342
","x: 276.90966796875
y: 294.8890380859375
z: -0.08978113532066345
visibility: 0.9434130787849426
","x: 251.11358642578125
y: 274.66925048828125
z: 0.08897887170314789
visibility: 0.7747148275375366
","x: 274.0014953613281
y: 285.7981262207031
z: -0.09982573240995407
visibility: 0.9228762984275818
","x: 251.7838134765625
y: 279.8782958984375
z: 0.18140143156051636
visibility: 0.7722183465957642
","x: 270.65386962890625
y: 288.8451843261719
z: -0.0973077267408371
visibility: 0.9205989241600037
","x: 251.84738159179688
y: 283.7785949707031
z: 0.12004151195287704
visibility: 0.7694946527481079
","x: 270.97613525390625
y: 292.1387939453125
z: -0.08950959891080856
visibility: 0.9065544605255127
","x: 248.02590942382812
y: 414.685791015625
z: 0.03602715581655502
visibility: 0.99971604347229
","x: 263.46051025390625
y: 415.1205749511719
z: -0.03545674309134483
visibility: 0.9996430277824402
","x: 247.9690399169922
y: 473.9050598144531
z: 0.009223227389156818
visibility: 0.9445269107818604
","x: 266.095703125
y: 473.1861572265625
z: 0.0016903234645724297
visibility: 0.9324885606765747
","x: 243.8912811279297
y: 527.6735229492188
z: -0.06462547183036804
visibility: 0.9628654718399048
","x: 265.4544372558594
y: 528.71337890625
z: -0.05264386534690857
visibility: 0.9676210284233093
","x: 243.5501251220703
y: 535.3489990234375
z: -0.07250700145959854
visibility: 0.9477948546409607
","x: 262.7012634277344
y: 538.049560546875
z: -0.05877167731523514
visibility: 0.9419995546340942
","x: 242.47274780273438
y: 540.9293212890625
z: -0.0900564044713974
visibility: 0.9299266934394836
","x: 268.4246520996094
y: 537.81982421875
z: -0.07233639061450958
visibility: 0.9535146951675415
","x: 277.0900573730469
y: 295.8009033203125
z: 0.0
","x: 274.1342468261719
y: 294.45013427734375
z: 0.001568956533446908
","x: 271.4814147949219
y: 291.9493408203125
z: 0.0005984106683172286
","x: 269.53656005859375
y: 290.7009582519531
z: -0.001391166471876204
","x: 268.54071044921875
y: 289.58416748046875
z: -0.0031208477448672056
","x: 270.5834655761719
y: 284.96466064453125
z: 0.0006947992951609194
","x: 269.32440185546875
y: 278.012451171875
z: -0.0019496657187119126
","x: 268.5822448730469
y: 273.62322998046875
z: -0.003784172236919403
","x: 268.3662109375
y: 270.65130615234375
z: -0.004967500921338797
","x: 270.90045166015625
y: 285.7288513183594
z: -0.0019163358956575394
","x: 268.3370056152344
y: 283.7107238769531
z: -0.005371002480387688
","x: 269.19720458984375
y: 286.5631103515625
z: -0.005783468950539827
","x: 270.4024963378906
y: 288.7630920410156
z: -0.005302049685269594
","x: 271.0445556640625
y: 287.2637634277344
z: -0.004722499754279852
","x: 268.4232482910156
y: 285.9534912109375
z: -0.0073217060416936874
","x: 269.46746826171875
y: 288.52972412109375
z: -0.006104381754994392
","x: 270.61669921875
y: 290.3545837402344
z: -0.004884832538664341
","x: 271.0885314941406
y: 289.52178955078125
z: -0.007668974809348583
","x: 268.56024169921875
y: 288.3602600097656
z: -0.008703873492777348
","x: 269.2221374511719
y: 289.8501281738281
z: -0.007596565876156092
","x: 270.2430114746094
y: 291.2003173828125
z: -0.006653709802776575
",,,,,,,,,,,,,,,,,,,,,
11,"x: 259.54248046875
y: 300.96368408203125
z: 0.06278209388256073
visibility: 0.9989555478096008
","x: 259.7213134765625
y: 297.17584228515625
z: 0.04156896471977234
visibility: 0.9988462924957275
","x: 258.9524841308594
y: 296.9817810058594
z: 0.041551634669303894
visibility: 0.9987386465072632
","x: 258.0618591308594
y: 296.7453308105469
z: 0.04156268388032913
visibility: 0.9989030361175537
","x: 261.8851318359375
y: 297.7470703125
z: 0.05368814989924431
visibility: 0.9988223910331726
","x: 262.6341857910156
y: 298.0238037109375
z: 0.05370128154754639
visibility: 0.9988487958908081
","x: 263.6414794921875
y: 298.3646545410156
z: 0.05366392806172371
visibility: 0.9989442229270935
","x: 256.8678283691406
y: 300.3487854003906
z: -0.006133221089839935
visibility: 0.9985927939414978
","x: 264.6326599121094
y: 302.5252685546875
z: 0.028766214847564697
visibility: 0.9982268214225769
","x: 257.97076416015625
y: 305.1412353515625
z: 0.04344138875603676
visibility: 0.9971243143081665
","x: 260.3333435058594
y: 305.89178466796875
z: 0.05880989506840706
visibility: 0.9970296025276184
","x: 243.97744750976562
y: 326.5915222167969
z: -0.07627947628498077
visibility: 0.9959203004837036
","x: 271.801513671875
y: 330.6121520996094
z: 0.03999695926904678
visibility: 0.9979021549224854
","x: 241.59530639648438
y: 296.8993835449219
z: -0.0671662837266922
visibility: 0.8823480010032654
","x: 279.9975280761719
y: 318.2977600097656
z: 0.09596586972475052
visibility: 0.9125582575798035
","x: 252.3652801513672
y: 284.45721435546875
z: -0.008793462999165058
visibility: 0.7832524180412292
","x: 275.7292175292969
y: 295.5506286621094
z: 0.11789722740650177
visibility: 0.8788259029388428
","x: 254.0499725341797
y: 281.276611328125
z: -0.014923694543540478
visibility: 0.7435616254806519
","x: 273.9725341796875
y: 290.45794677734375
z: 0.11919295787811279
visibility: 0.8616195321083069
","x: 253.6614990234375
y: 283.3839111328125
z: -0.005511700641363859
visibility: 0.741863489151001
","x: 272.38134765625
y: 291.3171081542969
z: 0.11162783950567245
visibility: 0.86106938123703
","x: 253.7987060546875
y: 285.0985107421875
z: -0.006495201028883457
visibility: 0.739425003528595
","x: 272.2147216796875
y: 292.50408935546875
z: 0.11502951383590698
visibility: 0.8469392657279968
","x: 250.09469604492188
y: 415.27685546875
z: -0.04854542389512062
visibility: 0.9997254014015198
","x: 264.6297912597656
y: 414.25909423828125
z: 0.048330157995224
visibility: 0.9996485114097595
","x: 247.25160217285156
y: 473.87945556640625
z: -0.0048340680077672005
visibility: 0.9483127593994141
","x: 261.62286376953125
y: 468.8329772949219
z: 0.06778892874717712
visibility: 0.9180272817611694
","x: 248.46705627441406
y: 530.36279296875
z: -0.04044026508927345
visibility: 0.9648938179016113
","x: 267.7343444824219
y: 525.1967163085938
z: 0.017752517014741898
visibility: 0.9626007080078125
","x: 250.87228393554688
y: 539.0679931640625
z: -0.042208634316921234
visibility: 0.9513862729072571
","x: 269.5563659667969
y: 535.283935546875
z: 0.013695836067199707
visibility: 0.9388874769210815
","x: 240.56356811523438
y: 540.8193359375
z: -0.06397710740566254
visibility: 0.9331634640693665
","x: 265.6217041015625
y: 536.1201171875
z: -0.013593005947768688
visibility: 0.9464947581291199
",,,,,,,,,,,,,,,,,,,,,,,,,,,,,,,,,,,,,,,,,,
12,"x: 256.53338623046875
y: 301.6590270996094
z: -0.06392766535282135
visibility: 0.9984908103942871
","x: 255.75851440429688
y: 297.719970703125
z: -0.07821664959192276
visibility: 0.9986716508865356
","x: 255.5271759033203
y: 297.05267333984375
z: -0.07823722064495087
visibility: 0.9986374378204346
","x: 255.30274963378906
y: 297.197998046875
z: -0.07823631167411804
visibility: 0.9987815618515015
","x: 256.5483093261719
y: 298.4132080078125
z: -0.05102037265896797
visibility: 0.9985393285751343
","x: 256.76776123046875
y: 298.6539001464844
z: -0.05104069039225578
visibility: 0.9985275268554688
","x: 257.11297607421875
y: 298.95513916015625
z: -0.05106712505221367
visibility: 0.9986699223518372
","x: 256.8204040527344
y: 302.9923400878906
z: -0.10451291501522064
visibility: 0.9982987642288208
","x: 258.0267333984375
y: 303.06622314453125
z: -0.002156361471861601
visibility: 0.9981160163879395
","x: 254.99444580078125
y: 305.7982177734375
z: -0.07416834682226181
visibility: 0.9964506030082703
","x: 255.80320739746094
y: 306.1942138671875
z: -0.039014991372823715
visibility: 0.9962161779403687
","x: 256.8738098144531
y: 332.0728759765625
z: -0.1654193103313446
visibility: 0.9961162805557251
","x: 259.585693359375
y: 331.70562744140625
z: 0.05653480440378189
visibility: 0.9971343278884888
","x: 250.89918518066406
y: 309.1324157714844
z: -0.33061927556991577
visibility: 0.8926623463630676
","x: 258.1984558105469
y: 336.3990783691406
z: 0.20820942521095276
visibility: 0.8239272236824036
","x: 252.93067932128906
y: 281.99822998046875
z: -0.43385791778564453
visibility: 0.8006765842437744
","x: 253.97535705566406
y: 328.3780517578125
z: 0.3353860378265381
visibility: 0.7996406555175781
","x: 250.54278564453125
y: 275.5288391113281
z: -0.4668272137641907
visibility: 0.7637266516685486
","x: 252.72320556640625
y: 325.9539794921875
z: 0.35979363322257996
visibility: 0.7889832258224487
","x: 250.23373413085938
y: 275.79144287109375
z: -0.45751339197158813
visibility: 0.7619795799255371
","x: 252.0608673095703
y: 324.661376953125
z: 0.34938693046569824
visibility: 0.7888263463973999
","x: 251.23300170898438
y: 278.87738037109375
z: -0.43388184905052185
visibility: 0.757027804851532
","x: 252.32545471191406
y: 325.18212890625
z: 0.3338777422904968
visibility: 0.7770746350288391
","x: 256.6493835449219
y: 416.9119567871094
z: -0.06794193387031555
visibility: 0.9996913075447083
","x: 261.7867431640625
y: 415.0294494628906
z: 0.06792166829109192
visibility: 0.9995037317276001
","x: 248.69139099121094
y: 473.9019470214844
z: -0.027555376291275024
visibility: 0.9480518698692322
","x: 259.5342102050781
y: 469.61981201171875
z: 0.11022542417049408
visibility: 0.8821505904197693
","x: 249.85044860839844
y: 532.4385986328125
z: 0.003498746082186699
visibility: 0.9659697413444519
","x: 268.00396728515625
y: 521.0987548828125
z: 0.17036983370780945
visibility: 0.9429607391357422
","x: 253.63563537597656
y: 540.5933227539062
z: 0.010963723994791508
visibility: 0.9542267918586731
","x: 271.5836486816406
y: 528.2587280273438
z: 0.17480571568012238
visibility: 0.9260907173156738
","x: 239.46719360351562
y: 541.2259521484375
z: -0.016545206308364868
visibility: 0.9362857937812805
","x: 263.9981994628906
y: 537.5663452148438
z: 0.1474451720714569
visibility: 0.9325166344642639
",,,,,,,,,,,,,,,,,,,,,,,,,,,,,,,,,,,,,,,,,,
13,"x: 254.6622314453125
y: 302.2316589355469
z: -0.07424439489841461
visibility: 0.9984707236289978
","x: 256.1285705566406
y: 298.1011657714844
z: -0.07957783341407776
visibility: 0.9986288547515869
","x: 256.54632568359375
y: 297.73248291015625
z: -0.07962368428707123
visibility: 0.9986275434494019
","x: 257.0018005371094
y: 297.8249816894531
z: -0.07964398711919785
visibility: 0.9987757205963135
","x: 255.71725463867188
y: 298.12396240234375
z: -0.06069575995206833
visibility: 0.9985062479972839
","x: 255.79913330078125
y: 297.9620666503906
z: -0.0607326440513134
visibility: 0.9984564781188965
","x: 255.88792419433594
y: 297.7993469238281
z: -0.060767460614442825
visibility: 0.9985856413841248
","x: 259.85162353515625
y: 302.76092529296875
z: -0.07674689590930939
visibility: 0.9983314275741577
","x: 257.40447998046875
y: 301.830078125
z: 0.001828885986469686
visibility: 0.9980468153953552
","x: 254.7526397705078
y: 306.5085144042969
z: -0.07208285480737686
visibility: 0.9964908361434937
","x: 254.36842346191406
y: 306.9070739746094
z: -0.04795967787504196
visibility: 0.9960802793502808
","x: 265.31427001953125
y: 331.0995178222656
z: -0.12687692046165466
visibility: 0.9964104890823364
","x: 255.494384765625
y: 330.5636291503906
z: 0.07661227881908417
visibility: 0.9967730045318604
","x: 265.8950500488281
y: 299.2483215332031
z: -0.22969655692577362
visibility: 0.9030380845069885
","x: 253.24917602539062
y: 352.6786804199219
z: 0.13350918889045715
visibility: 0.7480868697166443
","x: 253.20553588867188
y: 280.2713317871094
z: -0.23324361443519592
visibility: 0.8131808042526245
","x: 248.87257385253906
y: 353.4086608886719
z: 0.10668961703777313
visibility: 0.7279110550880432
","x: 248.23912048339844
y: 277.400146484375
z: -0.2527647018432617
visibility: 0.7729295492172241
","x: 247.78646850585938
y: 355.6077575683594
z: 0.10688839107751846
visibility: 0.7226710915565491
","x: 247.4502716064453
y: 277.90142822265625
z: -0.2435050755739212
visibility: 0.7705118060112
","x: 247.05674743652344
y: 352.1038818359375
z: 0.093843013048172
visibility: 0.7238719463348389
","x: 249.447265625
y: 281.1456604003906
z: -0.23009690642356873
visibility: 0.7627080678939819
","x: 247.33111572265625
y: 351.2087707519531
z: 0.09963275492191315
visibility: 0.7133381366729736
","x: 260.1166687011719
y: 417.4400329589844
z: -0.06841375678777695
visibility: 0.9996766448020935
","x: 257.8952941894531
y: 415.4176330566406
z: 0.06842584162950516
visibility: 0.9994124174118042
","x: 248.732666015625
y: 473.3158874511719
z: -0.0707704946398735
visibility: 0.9492476582527161
","x: 255.8038330078125
y: 469.61468505859375
z: 0.07250374555587769
visibility: 0.8664775490760803
","x: 249.82435607910156
y: 532.7987060546875
z: -0.03559695929288864
visibility: 0.9678727984428406
","x: 268.8080749511719
y: 519.3756103515625
z: 0.11822493374347687
visibility: 0.9367501139640808
","x: 253.35874938964844
y: 542.2213134765625
z: -0.03369387611746788
visibility: 0.9569820165634155
","x: 272.81732177734375
y: 525.4422607421875
z: 0.12066235393285751
visibility: 0.9238747954368591
","x: 237.588134765625
y: 541.5858764648438
z: -0.08173796534538269
visibility: 0.9407035112380981
","x: 263.6669616699219
y: 538.247314453125
z: 0.08265788853168488
visibility: 0.9280452728271484
",,,,,,,,,,,,,,,,,,,,,,,,,,,,,,,,,,,,,,,,,,
14,"x: 255.12081909179688
y: 302.5867004394531
z: -0.08405569195747375
visibility: 0.998599112033844
","x: 256.641357421875
y: 298.46844482421875
z: -0.08080891519784927
visibility: 0.9987380504608154
","x: 257.46636962890625
y: 298.2005920410156
z: -0.08084244281053543
visibility: 0.9987361431121826
","x: 258.37677001953125
y: 298.2455139160156
z: -0.0808490514755249
visibility: 0.9988704919815063
","x: 255.28094482421875
y: 298.5028381347656
z: -0.06742919236421585
visibility: 0.998629629611969
","x: 255.08851623535156
y: 298.40118408203125
z: -0.0674746111035347
visibility: 0.998580276966095
","x: 254.90054321289062
y: 298.30670166015625
z: -0.0675111636519432
visibility: 0.9987044930458069
","x: 261.6376647949219
y: 302.7153625488281
z: -0.07428430020809174
visibility: 0.998461127281189
","x: 255.74789428710938
y: 302.1415100097656
z: 0.009880655445158482
visibility: 0.9981924891471863
","x: 256.5318908691406
y: 306.9976806640625
z: -0.07101597636938095
visibility: 0.9967400431632996
","x: 254.56655883789062
y: 307.18756103515625
z: -0.05392436310648918
visibility: 0.9963786005973816
","x: 269.6160583496094
y: 327.19580078125
z: -0.08264278620481491
visibility: 0.9965909123420715
","x: 254.46226501464844
y: 330.23388671875
z: 0.07802262902259827
visibility: 0.9968793392181396
","x: 269.0163269042969
y: 306.58245849609375
z: -0.17818747460842133
visibility: 0.9120575785636902
","x: 240.27903747558594
y: 352.9534606933594
z: 0.03708859533071518
visibility: 0.7588858008384705
","x: 258.0416564941406
y: 280.5400695800781
z: -0.22132892906665802
visibility: 0.8286261558532715
","x: 236.83489990234375
y: 331.5050048828125
z: -0.08350944519042969
visibility: 0.7461888194084167
","x: 252.6199493408203
y: 274.5279235839844
z: -0.23936700820922852
visibility: 0.7886288166046143
","x: 236.62948608398438
y: 328.51922607421875
z: -0.10115377604961395
visibility: 0.7355011701583862
","x: 249.7913055419922
y: 274.9526672363281
z: -0.22799623012542725
visibility: 0.7853296995162964
","x: 237.5018310546875
y: 329.4607238769531
z: -0.09629224985837936
visibility: 0.7356995940208435
","x: 252.36708068847656
y: 277.6495666503906
z: -0.21788902580738068
visibility: 0.7760401368141174
","x: 238.03416442871094
y: 329.6448974609375
z: -0.08691210299730301
visibility: 0.7245291471481323
","x: 259.8121032714844
y: 416.85888671875
z: -0.058916669338941574
visibility: 0.9996305108070374
","x: 256.195068359375
y: 415.5802917480469
z: 0.05881040543317795
visibility: 0.9993188381195068
","x: 248.96730041503906
y: 473.34429931640625
z: -0.05867499113082886
visibility: 0.9513476490974426
","x: 253.42654418945312
y: 470.2410583496094
z: 0.06281805038452148
visibility: 0.8644167184829712
","x: 250.9049072265625
y: 533.5604248046875
z: -0.023277906700968742
visibility: 0.9698262214660645
","x: 267.8833923339844
y: 520.2991333007812
z: 0.1027466207742691
visibility: 0.9373829960823059
","x: 253.7794647216797
y: 542.4083251953125
z: -0.022602472454309464
visibility: 0.9582964777946472
","x: 271.4689636230469
y: 526.4339599609375
z: 0.10483846813440323
visibility: 0.9248679876327515
","x: 241.11436462402344
y: 544.97509765625
z: -0.08076684921979904
visibility: 0.9450748562812805
","x: 262.3953857421875
y: 538.3214721679688
z: 0.0632728785276413
visibility: 0.9300032258033752
",,,,,,,,,,,,,,,,,,,,,,,,,,,,,,,,,,,,,,,,,,
15,"x: 254.9196014404297
y: 306.34716796875
z: -0.09699903428554535
visibility: 0.9987333416938782
","x: 256.4660339355469
y: 301.8111572265625
z: -0.09378041326999664
visibility: 0.9988588094711304
","x: 257.2953796386719
y: 301.55987548828125
z: -0.09381747245788574
visibility: 0.9988589882850647
","x: 258.1937255859375
y: 301.4684143066406
z: -0.0938323363661766
visibility: 0.998979389667511
","x: 254.88111877441406
y: 301.9244079589844
z: -0.08158276975154877
visibility: 0.9987555742263794
","x: 254.57791137695312
y: 301.8352355957031
z: -0.08160312473773956
visibility: 0.9987086653709412
","x: 254.2980194091797
y: 301.73016357421875
z: -0.08162786066532135
visibility: 0.9988196492195129
","x: 260.7287292480469
y: 304.12286376953125
z: -0.06139257550239563
visibility: 0.9986072778701782
","x: 254.86106872558594
y: 303.95855712890625
z: 7.354115223279223e-05
visibility: 0.9983575940132141
","x: 256.4210510253906
y: 310.3558654785156
z: -0.08215127885341644
visibility: 0.9970489144325256
","x: 254.2454071044922
y: 310.4299011230469
z: -0.06672213971614838
visibility: 0.9967131614685059
","x: 269.2350158691406
y: 331.5047912597656
z: -0.08033521473407745
visibility: 0.9969218969345093
","x: 251.25399780273438
y: 332.5671081542969
z: 0.0778907909989357
visibility: 0.9969958662986755
","x: 265.97308349609375
y: 339.9386291503906
z: -0.19521579146385193
visibility: 0.9203264713287354
","x: 235.8968048095703
y: 349.721435546875
z: 0.13806159794330597
visibility: 0.7606656551361084
","x: 266.8376159667969
y: 297.6095275878906
z: -0.2928076684474945
visibility: 0.8452179431915283
","x: 237.8827667236328
y: 328.8301086425781
z: 0.16164742410182953
visibility: 0.7522829174995422
","x: 268.7033386230469
y: 291.84869384765625
z: -0.3151504397392273
visibility: 0.8086274266242981
","x: 236.67237854003906
y: 324.7982177734375
z: 0.16794943809509277
visibility: 0.7312528491020203
","x: 269.6748352050781
y: 290.6441955566406
z: -0.31650179624557495
visibility: 0.8056693077087402
","x: 239.94915771484375
y: 324.3429260253906
z: 0.1718406081199646
visibility: 0.730737566947937
","x: 268.6288146972656
y: 293.1018371582031
z: -0.2959134578704834
visibility: 0.7967392206192017
","x: 239.86285400390625
y: 325.3763427734375
z: 0.16254256665706635
visibility: 0.7201797962188721
","x: 261.4364318847656
y: 419.12274169921875
z: -0.06139061972498894
visibility: 0.9996194243431091
","x: 255.79029846191406
y: 418.21209716796875
z: 0.06142260506749153
visibility: 0.9992680549621582
","x: 248.61544799804688
y: 474.6339111328125
z: -0.07822790741920471
visibility: 0.9543204307556152
","x: 253.04483032226562
y: 474.1743469238281
z: 0.06914640963077545
visibility: 0.8682700991630554
","x: 248.90504455566406
y: 534.1494140625
z: -0.05127830430865288
visibility: 0.9724661111831665
","x: 270.7218322753906
y: 521.8907470703125
z: 0.12226931750774384
visibility: 0.9409834742546082
","x: 250.66529846191406
y: 542.7054443359375
z: -0.05137159302830696
visibility: 0.9615598320960999
","x: 276.91156005859375
y: 528.1390991210938
z: 0.12430231273174286
visibility: 0.9298138618469238
","x: 240.42208862304688
y: 546.9982299804688
z: -0.11105278879404068
visibility: 0.9499080777168274
","x: 262.4656677246094
y: 538.6666259765625
z: 0.0804821327328682
visibility: 0.9338811039924622
",,,,,,,,,,,,,,,,,,,,,,,,,,,,,,,,,,,,,,,,,,
16,"x: 255.28875732421875
y: 314.49395751953125
z: -0.08718294650316238
visibility: 0.9988414645195007
","x: 256.9980773925781
y: 308.8693542480469
z: -0.09012724459171295
visibility: 0.9989550709724426
","x: 257.84814453125
y: 308.509033203125
z: -0.09015412628650665
visibility: 0.9989593029022217
","x: 258.74456787109375
y: 308.2286376953125
z: -0.09017089009284973
visibility: 0.9990659356117249
","x: 255.2779541015625
y: 309.7012634277344
z: -0.07493329048156738
visibility: 0.9988533854484558
","x: 254.9128875732422
y: 309.946533203125
z: -0.07495369017124176
visibility: 0.998806893825531
","x: 254.5413818359375
y: 310.2011413574219
z: -0.07499103248119354
visibility: 0.9989063739776611
","x: 261.3201904296875
y: 310.3783874511719
z: -0.06873179227113724
visibility: 0.9987263083457947
","x: 255.2628173828125
y: 311.8629150390625
z: 0.000756902270950377
visibility: 0.9984909892082214
","x: 256.9083557128906
y: 319.4122619628906
z: -0.07706663757562637
visibility: 0.9973281621932983
","x: 254.94830322265625
y: 319.4531555175781
z: -0.058570582419633865
visibility: 0.9970144629478455
","x: 270.352294921875
y: 342.1590881347656
z: -0.09387537837028503
visibility: 0.997218668460846
","x: 254.1793212890625
y: 338.1471252441406
z: 0.0850367620587349
visibility: 0.9972588419914246
","x: 269.9197082519531
y: 372.71795654296875
z: -0.20782551169395447
visibility: 0.9274675846099854
","x: 240.3958282470703
y: 363.5465087890625
z: 0.1318437159061432
visibility: 0.7238377332687378
","x: 267.8226318359375
y: 369.7579650878906
z: -0.3322628140449524
visibility: 0.8590935468673706
","x: 240.467041015625
y: 374.9261169433594
z: 0.0949830710887909
visibility: 0.7450692057609558
","x: 267.8487243652344
y: 370.3982238769531
z: -0.3617042005062103
visibility: 0.8254010081291199
","x: 238.3331298828125
y: 375.88720703125
z: 0.09325461089611053
visibility: 0.7248241901397705
","x: 267.9998779296875
y: 364.5216369628906
z: -0.3634694814682007
visibility: 0.822879433631897
","x: 240.24696350097656
y: 376.1866760253906
z: 0.08288109302520752
visibility: 0.725674033164978
","x: 267.6578369140625
y: 364.8594665527344
z: -0.3348671495914459
visibility: 0.8137099742889404
","x: 240.59521484375
y: 376.6503601074219
z: 0.08964796364307404
visibility: 0.7139198780059814
","x: 261.8854064941406
y: 424.63970947265625
z: -0.06570293009281158
visibility: 0.9996011853218079
","x: 258.72418212890625
y: 423.69879150390625
z: 0.06571843475103378
visibility: 0.9992634057998657
","x: 243.81849670410156
y: 474.20098876953125
z: -0.08933860063552856
visibility: 0.9579200744628906
","x: 255.11495971679688
y: 481.2660217285156
z: 0.0785910040140152
visibility: 0.8657127618789673
","x: 247.9781036376953
y: 531.358642578125
z: -0.05902772396802902
visibility: 0.9746893048286438
","x: 272.908203125
y: 530.8655395507812
z: 0.12376342713832855
visibility: 0.9422333240509033
","x: 250.1167449951172
y: 538.048095703125
z: -0.05720964074134827
visibility: 0.9647911787033081
","x: 278.24456787109375
y: 539.4673461914062
z: 0.1251286268234253
visibility: 0.9331843852996826
","x: 240.61752319335938
y: 548.3832397460938
z: -0.0982295349240303
visibility: 0.9538746476173401
","x: 261.7280578613281
y: 539.7890014648438
z: 0.08599045872688293
visibility: 0.9343729615211487
",,,,,,,,,,,,,,,,,,,,,,,,,,,,,,,,,,,,,,,,,,
17,"x: 256.0433044433594
y: 318.4813537597656
z: -0.09701450169086456
visibility: 0.9989568591117859
","x: 257.5445251464844
y: 312.5878601074219
z: -0.10239659249782562
visibility: 0.999058723449707
","x: 258.38287353515625
y: 312.0175476074219
z: -0.10235767066478729
visibility: 0.9990627765655518
","x: 259.2629089355469
y: 311.4678649902344
z: -0.10236034542322159
visibility: 0.9991585612297058
","x: 255.8560791015625
y: 313.6752624511719
z: -0.0863487645983696
visibility: 0.9989670515060425
","x: 255.5091552734375
y: 313.90496826171875
z: -0.086338572204113
visibility: 0.9989252686500549
","x: 255.15780639648438
y: 314.12530517578125
z: -0.0864139124751091
visibility: 0.9990146160125732
","x: 262.3759765625
y: 313.1722717285156
z: -0.09177734702825546
visibility: 0.9988529682159424
","x: 256.789306640625
y: 315.6567687988281
z: -0.019505023956298828
visibility: 0.9986408948898315
","x: 258.2421875
y: 323.2064514160156
z: -0.09065069258213043
visibility: 0.997594952583313
","x: 256.11163330078125
y: 323.6755065917969
z: -0.07060179114341736
visibility: 0.9973124861717224
","x: 271.0167541503906
y: 345.72216796875
z: -0.1267877072095871
visibility: 0.9974964261054993
","x: 256.5951232910156
y: 344.452392578125
z: 0.0676761195063591
visibility: 0.9975314736366272
","x: 270.97747802734375
y: 386.5406799316406
z: -0.1920461356639862
visibility: 0.9346601366996765
","x: 253.23146057128906
y: 385.95623779296875
z: 0.11269251257181168
visibility: 0.6791092753410339
","x: 269.4362487792969
y: 426.00445556640625
z: -0.1928541213274002
visibility: 0.8729897737503052
","x: 249.83187866210938
y: 422.5337219238281
z: 0.0549345538020134
visibility: 0.7336344718933105
","x: 269.52960205078125
y: 436.11248779296875
z: -0.21669776737689972
visibility: 0.8424139618873596
","x: 247.01785278320312
y: 429.59124755859375
z: 0.050454031676054
visibility: 0.7142868041992188
","x: 267.16192626953125
y: 435.7279052734375
z: -0.22673852741718292
visibility: 0.840119481086731
","x: 247.25469970703125
y: 429.5037536621094
z: 0.032156720757484436
visibility: 0.7157338261604309
","x: 266.5348815917969
y: 432.57696533203125
z: -0.1940266191959381
visibility: 0.8316524028778076
","x: 248.636962890625
y: 427.4491882324219
z: 0.04619026929140091
visibility: 0.7022713422775269
","x: 261.9366149902344
y: 428.91253662109375
z: -0.06974717229604721
visibility: 0.9996333122253418
","x: 259.5655212402344
y: 428.27313232421875
z: 0.06980247050523758
visibility: 0.9993276596069336
","x: 238.62387084960938
y: 471.5491943359375
z: -0.08814488351345062
visibility: 0.9621105194091797
","x: 256.7026062011719
y: 482.9119873046875
z: 0.10803423076868057
visibility: 0.8723838925361633
","x: 247.7274169921875
y: 526.6747436523438
z: -0.045172952115535736
visibility: 0.9770964980125427
","x: 273.6667175292969
y: 531.7706298828125
z: 0.1909417361021042
visibility: 0.9469941258430481
","x: 249.0474090576172
y: 532.0601806640625
z: -0.041433922946453094
visibility: 0.9681347608566284
","x: 278.25262451171875
y: 541.156494140625
z: 0.19602952897548676
visibility: 0.9391007423400879
","x: 240.48048400878906
y: 548.6005249023438
z: -0.049097027629613876
visibility: 0.958160400390625
","x: 261.2480773925781
y: 539.94677734375
z: 0.16906031966209412
visibility: 0.9395458102226257
",,,,,,,,,,,,,,,,,,,,,,"x: 268.4186706542969
y: 426.28167724609375
z: 0.0
","x: 266.48870849609375
y: 429.60552978515625
z: -0.0001325179764535278
","x: 265.3188171386719
y: 434.3515625
z: -0.0003484434855636209
","x: 264.664794921875
y: 437.71160888671875
z: -0.0009830293711274862
","x: 264.1931457519531
y: 439.9788818359375
z: -0.0013507335679605603
","x: 267.47283935546875
y: 439.0267639160156
z: 0.0017167888581752777
","x: 267.6685791015625
y: 443.770263671875
z: 0.00036350940354168415
","x: 267.1390075683594
y: 445.25982666015625
z: -0.0004071418079547584
","x: 266.676513671875
y: 445.7060241699219
z: -0.0006394567317329347
","x: 268.7069396972656
y: 438.7270812988281
z: 0.0007467527175322175
","x: 268.8135681152344
y: 443.69384765625
z: -0.0005390418809838593
","x: 268.30731201171875
y: 444.8049621582031
z: -0.0010653407080098987
","x: 267.91241455078125
y: 444.74664306640625
z: -0.0010692060459405184
","x: 269.955078125
y: 437.9090576171875
z: -0.0006229847786016762
","x: 270.1340026855469
y: 442.52520751953125
z: -0.0018627113895490766
","x: 269.6155700683594
y: 443.8406982421875
z: -0.0018721151864156127
","x: 269.1038818359375
y: 444.22528076171875
z: -0.0015407241880893707
","x: 271.2091369628906
y: 436.351318359375
z: -0.00219826796092093
","x: 271.6210021972656
y: 440.33935546875
z: -0.003074182430282235
","x: 271.34283447265625
y: 442.1805114746094
z: -0.0030841766856610775
","x: 270.8877258300781
y: 443.3658447265625
z: -0.0028164945542812347
"
18,"x: 256.0433044433594
y: 318.4813537597656
z: -0.09701450169086456
visibility: 0.9989568591117859
","x: 257.5445251464844
y: 312.5878601074219
z: -0.10239659249782562
visibility: 0.999058723449707
","x: 258.38287353515625
y: 312.0175476074219
z: -0.10235767066478729
visibility: 0.9990627765655518
","x: 259.2629089355469
y: 311.4678649902344
z: -0.10236034542322159
visibility: 0.9991585612297058
","x: 255.8560791015625
y: 313.6752624511719
z: -0.0863487645983696
visibility: 0.9989670515060425
","x: 255.5091552734375
y: 313.90496826171875
z: -0.086338572204113
visibility: 0.9989252686500549
","x: 255.15780639648438
y: 314.12530517578125
z: -0.0864139124751091
visibility: 0.9990146160125732
","x: 262.3759765625
y: 313.1722717285156
z: -0.09177734702825546
visibility: 0.9988529682159424
","x: 256.789306640625
y: 315.6567687988281
z: -0.019505023956298828
visibility: 0.9986408948898315
","x: 258.2421875
y: 323.2064514160156
z: -0.09065069258213043
visibility: 0.997594952583313
","x: 256.11163330078125
y: 323.6755065917969
z: -0.07060179114341736
visibility: 0.9973124861717224
","x: 271.0167541503906
y: 345.72216796875
z: -0.1267877072095871
visibility: 0.9974964261054993
","x: 256.5951232910156
y: 344.452392578125
z: 0.0676761195063591
visibility: 0.9975314736366272
","x: 270.97747802734375
y: 386.5406799316406
z: -0.1920461356639862
visibility: 0.9346601366996765
","x: 253.23146057128906
y: 385.95623779296875
z: 0.11269251257181168
visibility: 0.6791092753410339
","x: 269.4362487792969
y: 426.00445556640625
z: -0.1928541213274002
visibility: 0.8729897737503052
","x: 249.83187866210938
y: 422.5337219238281
z: 0.0549345538020134
visibility: 0.7336344718933105
","x: 269.52960205078125
y: 436.11248779296875
z: -0.21669776737689972
visibility: 0.8424139618873596
","x: 247.01785278320312
y: 429.59124755859375
z: 0.050454031676054
visibility: 0.7142868041992188
","x: 267.16192626953125
y: 435.7279052734375
z: -0.22673852741718292
visibility: 0.840119481086731
","x: 247.25469970703125
y: 429.5037536621094
z: 0.032156720757484436
visibility: 0.7157338261604309
","x: 266.5348815917969
y: 432.57696533203125
z: -0.1940266191959381
visibility: 0.8316524028778076
","x: 248.636962890625
y: 427.4491882324219
z: 0.04619026929140091
visibility: 0.7022713422775269
","x: 261.9366149902344
y: 428.91253662109375
z: -0.06974717229604721
visibility: 0.9996333122253418
","x: 259.5655212402344
y: 428.27313232421875
z: 0.06980247050523758
visibility: 0.9993276596069336
","x: 238.62387084960938
y: 471.5491943359375
z: -0.08814488351345062
visibility: 0.9621105194091797
","x: 256.7026062011719
y: 482.9119873046875
z: 0.10803423076868057
visibility: 0.8723838925361633
","x: 247.7274169921875
y: 526.6747436523438
z: -0.045172952115535736
visibility: 0.9770964980125427
","x: 273.6667175292969
y: 531.7706298828125
z: 0.1909417361021042
visibility: 0.9469941258430481
","x: 249.0474090576172
y: 532.0601806640625
z: -0.041433922946453094
visibility: 0.9681347608566284
","x: 278.25262451171875
y: 541.156494140625
z: 0.19602952897548676
visibility: 0.9391007423400879
","x: 240.48048400878906
y: 548.6005249023438
z: -0.049097027629613876
visibility: 0.958160400390625
","x: 261.2480773925781
y: 539.94677734375
z: 0.16906031966209412
visibility: 0.9395458102226257
",,,,,,,,,,,,,,,,,,,,,,"x: 268.4186706542969
y: 426.28167724609375
z: 0.0
","x: 266.48870849609375
y: 429.60552978515625
z: -0.0001325179764535278
","x: 265.3188171386719
y: 434.3515625
z: -0.0003484434855636209
","x: 264.664794921875
y: 437.71160888671875
z: -0.0009830293711274862
","x: 264.1931457519531
y: 439.9788818359375
z: -0.0013507335679605603
","x: 267.47283935546875
y: 439.0267639160156
z: 0.0017167888581752777
","x: 267.6685791015625
y: 443.770263671875
z: 0.00036350940354168415
","x: 267.1390075683594
y: 445.25982666015625
z: -0.0004071418079547584
","x: 266.676513671875
y: 445.7060241699219
z: -0.0006394567317329347
","x: 268.7069396972656
y: 438.7270812988281
z: 0.0007467527175322175
","x: 268.8135681152344
y: 443.69384765625
z: -0.0005390418809838593
","x: 268.30731201171875
y: 444.8049621582031
z: -0.0010653407080098987
","x: 267.91241455078125
y: 444.74664306640625
z: -0.0010692060459405184
","x: 269.955078125
y: 437.9090576171875
z: -0.0006229847786016762
","x: 270.1340026855469
y: 442.52520751953125
z: -0.0018627113895490766
","x: 269.6155700683594
y: 443.8406982421875
z: -0.0018721151864156127
","x: 269.1038818359375
y: 444.22528076171875
z: -0.0015407241880893707
","x: 271.2091369628906
y: 436.351318359375
z: -0.00219826796092093
","x: 271.6210021972656
y: 440.33935546875
z: -0.003074182430282235
","x: 271.34283447265625
y: 442.1805114746094
z: -0.0030841766856610775
","x: 270.8877258300781
y: 443.3658447265625
z: -0.0028164945542812347
"
19,"x: 258.156005859375
y: 315.669921875
z: -0.08829356729984283
visibility: 0.9990593194961548
","x: 259.7200012207031
y: 310.3473205566406
z: -0.0928291603922844
visibility: 0.9991508722305298
","x: 260.4914245605469
y: 309.959228515625
z: -0.09281351417303085
visibility: 0.999154806137085
","x: 261.2410888671875
y: 309.5586853027344
z: -0.09283454716205597
visibility: 0.9992411732673645
","x: 258.090576171875
y: 311.08984375
z: -0.07688745111227036
visibility: 0.9990679621696472
","x: 257.74359130859375
y: 311.2655944824219
z: -0.07687776535749435
visibility: 0.9990295767784119
","x: 257.3835144042969
y: 311.44049072265625
z: -0.07692750543355942
visibility: 0.9991098046302795
","x: 264.2495422363281
y: 311.74188232421875
z: -0.08183290809392929
visibility: 0.9989664554595947
","x: 259.5022888183594
y: 313.5340270996094
z: -0.005900910589843988
visibility: 0.9987725019454956
","x: 260.35791015625
y: 320.3807067871094
z: -0.08203331381082535
visibility: 0.9978334903717041
","x: 258.2994384765625
y: 320.8102722167969
z: -0.062460701912641525
visibility: 0.9975773692131042
","x: 271.919677734375
y: 342.9024963378906
z: -0.12554475665092468
visibility: 0.9977461695671082
","x: 261.8182067871094
y: 342.35296630859375
z: 0.09587373584508896
visibility: 0.9977593421936035
","x: 275.4872741699219
y: 377.7305603027344
z: -0.16923227906227112
visibility: 0.9411089420318604
","x: 261.13201904296875
y: 381.42822265625
z: 0.13746485114097595
visibility: 0.614016056060791
","x: 270.3726806640625
y: 417.774658203125
z: -0.17513231933116913
visibility: 0.8852800130844116
","x: 259.0893859863281
y: 412.0235595703125
z: 0.08156333863735199
visibility: 0.6680930852890015
","x: 269.961181640625
y: 429.0693664550781
z: -0.19877849519252777
visibility: 0.8571785688400269
","x: 260.88421630859375
y: 423.8155822753906
z: 0.07967089116573334
visibility: 0.6525835990905762
","x: 266.9363708496094
y: 426.984375
z: -0.2000543177127838
visibility: 0.8550515174865723
","x: 257.1457214355469
y: 420.76605224609375
z: 0.05823061987757683
visibility: 0.6542544364929199
","x: 266.5928039550781
y: 423.977783203125
z: -0.17393365502357483
visibility: 0.8468363881111145
","x: 258.1441650390625
y: 417.4620056152344
z: 0.07126802951097488
visibility: 0.6423417925834656
","x: 266.02911376953125
y: 426.9454650878906
z: -0.07455994188785553
visibility: 0.9996492266654968
","x: 265.3764953613281
y: 426.5018310546875
z: 0.07465367019176483
visibility: 0.9993607401847839
","x: 237.8612823486328
y: 464.4568176269531
z: -0.08254830539226532
visibility: 0.9657790064811707
","x: 259.0860595703125
y: 481.4678649902344
z: 0.10313142836093903
visibility: 0.8641794919967651
","x: 246.41064453125
y: 524.8214111328125
z: -0.033643342554569244
visibility: 0.9789056777954102
","x: 274.22601318359375
y: 531.8322143554688
z: 0.1535392850637436
visibility: 0.9488608241081238
","x: 248.49317932128906
y: 529.9358520507812
z: -0.03130989521741867
visibility: 0.9706563353538513
","x: 278.03662109375
y: 541.8364868164062
z: 0.1555672138929367
visibility: 0.9428715705871582
","x: 240.13040161132812
y: 548.57470703125
z: -0.04373237490653992
visibility: 0.9614216089248657
","x: 260.8657531738281
y: 539.9487915039062
z: 0.13009321689605713
visibility: 0.9411531686782837
",,,,,,,,,,,,,,,,,,,,,,,,,,,,,,,,,,,,,,,,,,
20,"x: 260.4974670410156
y: 312.43817138671875
z: -0.013688139617443085
visibility: 0.9991392493247986
","x: 261.6629638671875
y: 307.88916015625
z: -0.018714839592576027
visibility: 0.9992157816886902
","x: 262.0306091308594
y: 307.86328125
z: -0.0187776368111372
visibility: 0.9992229342460632
","x: 262.3959045410156
y: 307.86614990234375
z: -0.018814222887158394
visibility: 0.9993053674697876
","x: 261.1036376953125
y: 307.7524108886719
z: -0.001527742831967771
visibility: 0.9991337656974792
","x: 261.06341552734375
y: 307.69976806640625
z: -0.0014989631017670035
visibility: 0.9990874528884888
","x: 260.9952392578125
y: 307.69512939453125
z: -0.0015165427466854453
visibility: 0.9991655945777893
","x: 264.5219421386719
y: 310.29669189453125
z: -0.015988457947969437
visibility: 0.9990598559379578
","x: 262.5057678222656
y: 310.1379699707031
z: 0.05972722917795181
visibility: 0.9988347887992859
","x: 261.6084289550781
y: 317.5350646972656
z: -0.01065807230770588
visibility: 0.9980320334434509
","x: 260.7544860839844
y: 316.7443542480469
z: 0.011116722598671913
visibility: 0.9977816939353943
","x: 270.9595947265625
y: 333.963623046875
z: -0.07802248746156693
visibility: 0.9979710578918457
","x: 264.2399597167969
y: 338.83905029296875
z: 0.14520500600337982
visibility: 0.9978291988372803
","x: 277.2861633300781
y: 363.9843444824219
z: -0.14115411043167114
visibility: 0.9467406272888184
","x: 263.1534729003906
y: 372.47412109375
z: 0.17789189517498016
visibility: 0.5563521385192871
","x: 271.6020812988281
y: 401.51983642578125
z: -0.17862674593925476
visibility: 0.8958678841590881
","x: 260.1583557128906
y: 398.2449035644531
z: 0.13838817179203033
visibility: 0.6065463423728943
","x: 270.9933776855469
y: 413.6864013671875
z: -0.2020484209060669
visibility: 0.8694480061531067
","x: 257.936279296875
y: 411.3650817871094
z: 0.13740235567092896
visibility: 0.5938268899917603
","x: 267.61749267578125
y: 411.7126770019531
z: -0.20193123817443848
visibility: 0.8673067092895508
","x: 256.8381042480469
y: 410.2562255859375
z: 0.11899347603321075
visibility: 0.5955846905708313
","x: 267.3844299316406
y: 408.3800048828125
z: -0.17768679559230804
visibility: 0.858366847038269
","x: 257.5407409667969
y: 406.5723876953125
z: 0.12917904555797577
visibility: 0.5850725173950195
","x: 264.9331970214844
y: 419.409423828125
z: -0.06617181748151779
visibility: 0.9996439814567566
","x: 267.86712646484375
y: 419.2896728515625
z: 0.0662338063120842
visibility: 0.9993262887001038
","x: 246.06752014160156
y: 466.5894775390625
z: -0.0774129256606102
visibility: 0.9675018191337585
","x: 258.4548034667969
y: 475.985107421875
z: 0.05286545306444168
visibility: 0.8598973751068115
","x: 240.09544372558594
y: 525.2833251953125
z: -0.031702324748039246
visibility: 0.9798723459243774
","x: 273.48699951171875
y: 532.4288330078125
z: 0.05964737385511398
visibility: 0.9454126358032227
","x: 248.68148803710938
y: 531.8400268554688
z: -0.029943356290459633
visibility: 0.9716939330101013
","x: 277.3695983886719
y: 542.6799926757812
z: 0.05736786127090454
visibility: 0.9370518922805786
","x: 239.66041564941406
y: 547.067138671875
z: -0.06439153105020523
visibility: 0.9631798267364502
","x: 260.48291015625
y: 538.6507568359375
z: 0.017600493505597115
visibility: 0.9336037635803223
",,,,,,,,,,,,,,,,,,,,,,"x: 271.43658447265625
y: 403.92840576171875
z: 0.0
","x: 267.9349365234375
y: 406.7889099121094
z: 0.0011144820600748062
","x: 265.8060607910156
y: 411.534423828125
z: 0.000998801551759243
","x: 264.9869689941406
y: 415.734130859375
z: 0.00010784243931993842
","x: 264.77734375
y: 418.6963195800781
z: -0.0003868801868520677
","x: 265.5067138671875
y: 416.14013671875
z: 0.0011227710638195276
","x: 264.53631591796875
y: 422.31817626953125
z: -0.0004942690720781684
","x: 264.7274475097656
y: 420.36676025390625
z: -0.0005751544958911836
","x: 265.10491943359375
y: 417.399658203125
z: -0.00023352386779151857
","x: 267.0877990722656
y: 416.9767761230469
z: -0.0006201635696925223
","x: 266.13592529296875
y: 423.1024169921875
z: -0.0021763795521110296
","x: 266.3401794433594
y: 420.30419921875
z: -0.0017717983573675156
","x: 266.8890075683594
y: 417.1192626953125
z: -0.0009646960534155369
","x: 268.98260498046875
y: 417.13348388671875
z: -0.00259156571701169
","x: 268.4147644042969
y: 422.3010559082031
z: -0.003930758684873581
","x: 268.45947265625
y: 419.2931823730469
z: -0.002889481373131275
","x: 268.790283203125
y: 416.455810546875
z: -0.001786996959708631
","x: 271.07733154296875
y: 416.7328186035156
z: -0.004665732383728027
","x: 270.6581115722656
y: 420.2789611816406
z: -0.005429134704172611
","x: 270.50250244140625
y: 418.038818359375
z: -0.004661298356950283
","x: 270.6583557128906
y: 415.61767578125
z: -0.003717627376317978
"
21,"x: 260.4974670410156
y: 312.43817138671875
z: -0.013688139617443085
visibility: 0.9991392493247986
","x: 261.6629638671875
y: 307.88916015625
z: -0.018714839592576027
visibility: 0.9992157816886902
","x: 262.0306091308594
y: 307.86328125
z: -0.0187776368111372
visibility: 0.9992229342460632
","x: 262.3959045410156
y: 307.86614990234375
z: -0.018814222887158394
visibility: 0.9993053674697876
","x: 261.1036376953125
y: 307.7524108886719
z: -0.001527742831967771
visibility: 0.9991337656974792
","x: 261.06341552734375
y: 307.69976806640625
z: -0.0014989631017670035
visibility: 0.9990874528884888
","x: 260.9952392578125
y: 307.69512939453125
z: -0.0015165427466854453
visibility: 0.9991655945777893
","x: 264.5219421386719
y: 310.29669189453125
z: -0.015988457947969437
visibility: 0.9990598559379578
","x: 262.5057678222656
y: 310.1379699707031
z: 0.05972722917795181
visibility: 0.9988347887992859
","x: 261.6084289550781
y: 317.5350646972656
z: -0.01065807230770588
visibility: 0.9980320334434509
","x: 260.7544860839844
y: 316.7443542480469
z: 0.011116722598671913
visibility: 0.9977816939353943
","x: 270.9595947265625
y: 333.963623046875
z: -0.07802248746156693
visibility: 0.9979710578918457
","x: 264.2399597167969
y: 338.83905029296875
z: 0.14520500600337982
visibility: 0.9978291988372803
","x: 277.2861633300781
y: 363.9843444824219
z: -0.14115411043167114
visibility: 0.9467406272888184
","x: 263.1534729003906
y: 372.47412109375
z: 0.17789189517498016
visibility: 0.5563521385192871
","x: 271.6020812988281
y: 401.51983642578125
z: -0.17862674593925476
visibility: 0.8958678841590881
","x: 260.1583557128906
y: 398.2449035644531
z: 0.13838817179203033
visibility: 0.6065463423728943
","x: 270.9933776855469
y: 413.6864013671875
z: -0.2020484209060669
visibility: 0.8694480061531067
","x: 257.936279296875
y: 411.3650817871094
z: 0.13740235567092896
visibility: 0.5938268899917603
","x: 267.61749267578125
y: 411.7126770019531
z: -0.20193123817443848
visibility: 0.8673067092895508
","x: 256.8381042480469
y: 410.2562255859375
z: 0.11899347603321075
visibility: 0.5955846905708313
","x: 267.3844299316406
y: 408.3800048828125
z: -0.17768679559230804
visibility: 0.858366847038269
","x: 257.5407409667969
y: 406.5723876953125
z: 0.12917904555797577
visibility: 0.5850725173950195
","x: 264.9331970214844
y: 419.409423828125
z: -0.06617181748151779
visibility: 0.9996439814567566
","x: 267.86712646484375
y: 419.2896728515625
z: 0.0662338063120842
visibility: 0.9993262887001038
","x: 246.06752014160156
y: 466.5894775390625
z: -0.0774129256606102
visibility: 0.9675018191337585
","x: 258.4548034667969
y: 475.985107421875
z: 0.05286545306444168
visibility: 0.8598973751068115
","x: 240.09544372558594
y: 525.2833251953125
z: -0.031702324748039246
visibility: 0.9798723459243774
","x: 273.48699951171875
y: 532.4288330078125
z: 0.05964737385511398
visibility: 0.9454126358032227
","x: 248.68148803710938
y: 531.8400268554688
z: -0.029943356290459633
visibility: 0.9716939330101013
","x: 277.3695983886719
y: 542.6799926757812
z: 0.05736786127090454
visibility: 0.9370518922805786
","x: 239.66041564941406
y: 547.067138671875
z: -0.06439153105020523
visibility: 0.9631798267364502
","x: 260.48291015625
y: 538.6507568359375
z: 0.017600493505597115
visibility: 0.9336037635803223
",,,,,,,,,,,,,,,,,,,,,,"x: 271.43658447265625
y: 403.92840576171875
z: 0.0
","x: 267.9349365234375
y: 406.7889099121094
z: 0.0011144820600748062
","x: 265.8060607910156
y: 411.534423828125
z: 0.000998801551759243
","x: 264.9869689941406
y: 415.734130859375
z: 0.00010784243931993842
","x: 264.77734375
y: 418.6963195800781
z: -0.0003868801868520677
","x: 265.5067138671875
y: 416.14013671875
z: 0.0011227710638195276
","x: 264.53631591796875
y: 422.31817626953125
z: -0.0004942690720781684
","x: 264.7274475097656
y: 420.36676025390625
z: -0.0005751544958911836
","x: 265.10491943359375
y: 417.399658203125
z: -0.00023352386779151857
","x: 267.0877990722656
y: 416.9767761230469
z: -0.0006201635696925223
","x: 266.13592529296875
y: 423.1024169921875
z: -0.0021763795521110296
","x: 266.3401794433594
y: 420.30419921875
z: -0.0017717983573675156
","x: 266.8890075683594
y: 417.1192626953125
z: -0.0009646960534155369
","x: 268.98260498046875
y: 417.13348388671875
z: -0.00259156571701169
","x: 268.4147644042969
y: 422.3010559082031
z: -0.003930758684873581
","x: 268.45947265625
y: 419.2931823730469
z: -0.002889481373131275
","x: 268.790283203125
y: 416.455810546875
z: -0.001786996959708631
","x: 271.07733154296875
y: 416.7328186035156
z: -0.004665732383728027
","x: 270.6581115722656
y: 420.2789611816406
z: -0.005429134704172611
","x: 270.50250244140625
y: 418.038818359375
z: -0.004661298356950283
","x: 270.6583557128906
y: 415.61767578125
z: -0.003717627376317978
"
22,"x: 261.1806945800781
y: 307.94122314453125
z: -0.018623415380716324
visibility: 0.9992137551307678
","x: 262.33074951171875
y: 303.78155517578125
z: -0.02644277736544609
visibility: 0.9992771148681641
","x: 262.594970703125
y: 303.9064636230469
z: -0.026502903550863266
visibility: 0.9992861747741699
","x: 262.8539123535156
y: 304.0777282714844
z: -0.02652316726744175
visibility: 0.999363899230957
","x: 261.97723388671875
y: 303.3947448730469
z: -0.008592218160629272
visibility: 0.9991966485977173
","x: 261.9858703613281
y: 303.2830505371094
z: -0.008569663390517235
visibility: 0.9991470575332642
","x: 261.9559020996094
y: 303.2010498046875
z: -0.008573009632527828
visibility: 0.9992194175720215
","x: 264.8126525878906
y: 307.1761779785156
z: -0.029606278985738754
visibility: 0.9991457462310791
","x: 263.3780517578125
y: 306.0925598144531
z: 0.04722718894481659
visibility: 0.9989057779312134
","x: 262.12823486328125
y: 313.34814453125
z: -0.017888711765408516
visibility: 0.9982168674468994
","x: 261.4330139160156
y: 312.4022216796875
z: 0.004612413235008717
visibility: 0.9979746341705322
","x: 270.66644287109375
y: 330.1272888183594
z: -0.08053645491600037
visibility: 0.9981731176376343
","x: 263.43963623046875
y: 332.9667663574219
z: 0.13065509498119354
visibility: 0.997895359992981
","x: 279.18212890625
y: 357.9659729003906
z: -0.16055038571357727
visibility: 0.9518195390701294
","x: 263.601318359375
y: 371.7333679199219
z: 0.16414804756641388
visibility: 0.5050780177116394
","x: 270.7230224609375
y: 387.5926208496094
z: -0.21576566994190216
visibility: 0.9055269360542297
","x: 257.50970458984375
y: 379.8204040527344
z: 0.11732204258441925
visibility: 0.5570299625396729
","x: 269.50006103515625
y: 396.8753662109375
z: -0.23886899650096893
visibility: 0.8809168338775635
","x: 255.39324951171875
y: 386.2771911621094
z: 0.11718277633190155
visibility: 0.5498064160346985
","x: 266.7273864746094
y: 395.30047607421875
z: -0.2365817278623581
visibility: 0.8788160085678101
","x: 254.5517120361328
y: 384.6659851074219
z: 0.10101678222417831
visibility: 0.5521484613418579
","x: 266.9222106933594
y: 392.4331359863281
z: -0.21371421217918396
visibility: 0.8695453405380249
","x: 255.2457275390625
y: 382.8941345214844
z: 0.1088949590921402
visibility: 0.5425934195518494
","x: 264.1290283203125
y: 413.7141418457031
z: -0.06291806697845459
visibility: 0.9996436238288879
","x: 267.2976989746094
y: 414.1313171386719
z: 0.06295295804738998
visibility: 0.9992942214012146
","x: 250.7454833984375
y: 467.2900390625
z: -0.0740136057138443
visibility: 0.9691411852836609
","x: 258.2769775390625
y: 470.59375
z: 0.045265428721904755
visibility: 0.8602200150489807
","x: 237.85523986816406
y: 525.4029541015625
z: -0.04011191427707672
visibility: 0.9812257885932922
","x: 273.51611328125
y: 531.688720703125
z: 0.051120687276124954
visibility: 0.9454252123832703
","x: 248.47669982910156
y: 532.3986206054688
z: -0.039805345237255096
visibility: 0.9736493229866028
","x: 277.056396484375
y: 542.0040283203125
z: 0.048728395253419876
visibility: 0.9348297119140625
","x: 235.9955596923828
y: 546.9254150390625
z: -0.082980215549469
visibility: 0.9657970666885376
","x: 260.11419677734375
y: 538.0731811523438
z: 0.009131870232522488
visibility: 0.9329948425292969
",,,,,,,,,,,,,,,,,,,,,,,,,,,,,,,,,,,,,,,,,,
23,"x: 261.1786193847656
y: 307.58575439453125
z: 0.04345688968896866
visibility: 0.9992604851722717
","x: 262.00140380859375
y: 302.9295959472656
z: 0.02850775420665741
visibility: 0.9993071556091309
","x: 262.2165832519531
y: 302.998046875
z: 0.02847631648182869
visibility: 0.9993196725845337
","x: 262.4059753417969
y: 303.1277160644531
z: 0.028466111049056053
visibility: 0.9993959665298462
","x: 261.9190368652344
y: 302.66595458984375
z: 0.049151673913002014
visibility: 0.9992239475250244
","x: 262.1036071777344
y: 302.58819580078125
z: 0.04916376993060112
visibility: 0.9991627335548401
","x: 262.250244140625
y: 302.5550537109375
z: 0.0491250678896904
visibility: 0.9992387294769287
","x: 264.6240539550781
y: 305.9612731933594
z: -0.010211155749857426
visibility: 0.9991997480392456
","x: 264.62371826171875
y: 305.3271179199219
z: 0.08151763677597046
visibility: 0.9989322423934937
","x: 262.43096923828125
y: 312.7370910644531
z: 0.03196169063448906
visibility: 0.998349130153656
","x: 262.23773193359375
y: 312.1595458984375
z: 0.0586182102560997
visibility: 0.9981029033660889
","x: 270.7469177246094
y: 325.4893798828125
z: -0.07577584683895111
visibility: 0.9983535408973694
","x: 268.9101257324219
y: 330.8447265625
z: 0.13502982258796692
visibility: 0.9980406761169434
","x: 277.0044250488281
y: 356.5448303222656
z: -0.1734124720096588
visibility: 0.9547725915908813
","x: 265.8992004394531
y: 367.1064758300781
z: 0.16489621996879578
visibility: 0.46115025877952576
","x: 270.0073547363281
y: 378.4607238769531
z: -0.24850401282310486
visibility: 0.9119566679000854
","x: 258.4785461425781
y: 390.7760009765625
z: 0.14182652533054352
visibility: 0.5133167505264282
","x: 269.2814025878906
y: 388.7660217285156
z: -0.27349430322647095
visibility: 0.8885914087295532
","x: 256.3009033203125
y: 398.90948486328125
z: 0.144712895154953
visibility: 0.5086384415626526
","x: 266.98040771484375
y: 388.14208984375
z: -0.2673172652721405
visibility: 0.8861514329910278
","x: 255.0094451904297
y: 398.3811950683594
z: 0.12692975997924805
visibility: 0.5112426280975342
","x: 267.07177734375
y: 384.7980041503906
z: -0.2465386837720871
visibility: 0.8744727969169617
","x: 255.7089080810547
y: 395.5318603515625
z: 0.13311640918254852
visibility: 0.502845048904419
","x: 263.3208312988281
y: 412.9989318847656
z: -0.06153048947453499
visibility: 0.9996238350868225
","x: 268.092041015625
y: 413.7273864746094
z: 0.0615430548787117
visibility: 0.9992609024047852
","x: 251.63369750976562
y: 467.4100036621094
z: -0.052949439734220505
visibility: 0.9691396951675415
","x: 261.0691833496094
y: 471.2002868652344
z: 0.05157516524195671
visibility: 0.8639492988586426
","x: 239.31063842773438
y: 525.6984252929688
z: -0.03614373877644539
visibility: 0.9821906685829163
","x: 273.6265563964844
y: 531.5232543945312
z: 0.0534336157143116
visibility: 0.9458738565444946
","x: 243.8212432861328
y: 531.8440551757812
z: -0.03607896715402603
visibility: 0.9751906991004944
","x: 276.9548645019531
y: 541.97412109375
z: 0.05150073766708374
visibility: 0.933429479598999
","x: 236.35325622558594
y: 546.9926147460938
z: -0.07707855105400085
visibility: 0.9673104882240295
","x: 260.2940673828125
y: 537.2538452148438
z: 0.01679864339530468
visibility: 0.9314820170402527
",,,,,,,,,,,,,,,,,,,,,,,,,,,,,,,,,,,,,,,,,,
24,"x: 260.8936462402344
y: 307.78167724609375
z: -0.010406019166111946
visibility: 0.999324381351471
","x: 262.0813903808594
y: 302.9449157714844
z: -0.017730100080370903
visibility: 0.9993662238121033
","x: 262.56817626953125
y: 303.009765625
z: -0.017757225781679153
visibility: 0.9993807077407837
","x: 263.0618591308594
y: 303.1351623535156
z: -0.017769766971468925
visibility: 0.9994484782218933
","x: 261.2608947753906
y: 302.6986389160156
z: -0.0004739215655717999
visibility: 0.9992873072624207
","x: 261.17864990234375
y: 302.6174621582031
z: -0.00045803896500729024
visibility: 0.99923175573349
","x: 261.0771484375
y: 302.57916259765625
z: -0.000495001208037138
visibility: 0.9993019104003906
","x: 265.6506042480469
y: 305.9790344238281
z: -0.021506668999791145
visibility: 0.9992744326591492
","x: 262.9722595214844
y: 305.4936828613281
z: 0.06113610789179802
visibility: 0.9990288019180298
","x: 262.4596862792969
y: 312.88787841796875
z: -0.01011271309107542
visibility: 0.9985023140907288
","x: 261.3409729003906
y: 312.326171875
z: 0.012145647779107094
visibility: 0.9982709288597107
","x: 270.5371398925781
y: 327.3905944824219
z: -0.0805402547121048
visibility: 0.9985176920890808
","x: 265.7037048339844
y: 331.39666748046875
z: 0.15189500153064728
visibility: 0.9981755018234253
","x: 275.9231872558594
y: 354.8240661621094
z: -0.18273071944713593
visibility: 0.9592000842094421
","x: 263.9693603515625
y: 369.5910339355469
z: 0.22396989166736603
visibility: 0.422610878944397
","x: 269.1333312988281
y: 382.76861572265625
z: -0.26156091690063477
visibility: 0.920528769493103
","x: 256.5614318847656
y: 393.47088623046875
z: 0.22531624138355255
visibility: 0.49200257658958435
","x: 268.4532165527344
y: 394.0179443359375
z: -0.2850758731365204
visibility: 0.8990952372550964
","x: 254.4249267578125
y: 401.5229797363281
z: 0.23467016220092773
visibility: 0.49042680859565735
","x: 266.83526611328125
y: 392.1148376464844
z: -0.284597247838974
visibility: 0.8968343734741211
","x: 253.46139526367188
y: 399.09613037109375
z: 0.2198619842529297
visibility: 0.49335089325904846
","x: 266.7513732910156
y: 388.9472961425781
z: -0.2613895833492279
visibility: 0.8857715725898743
","x: 254.3021697998047
y: 396.5408630371094
z: 0.2194761335849762
visibility: 0.4834498465061188
","x: 263.29534912109375
y: 413.5856628417969
z: -0.06929441541433334
visibility: 0.999602735042572
","x: 267.80462646484375
y: 414.538818359375
z: 0.06925544887781143
visibility: 0.9992392659187317
","x: 251.37892150878906
y: 469.9112548828125
z: -0.08179524540901184
visibility: 0.9720320105552673
","x: 261.20855712890625
y: 472.0361022949219
z: 0.0542573407292366
visibility: 0.8676004409790039
","x: 256.0041809082031
y: 531.4904174804688
z: -0.06775128096342087
visibility: 0.9831498861312866
","x: 273.13287353515625
y: 533.4354248046875
z: 0.0712045207619667
visibility: 0.9462288618087769
","x: 263.052490234375
y: 537.4305419921875
z: -0.06747196614742279
visibility: 0.9767740964889526
","x: 276.8755187988281
y: 542.0478515625
z: 0.06948710978031158
visibility: 0.9346330165863037
","x: 249.6939239501953
y: 554.4200439453125
z: -0.10175053030252457
visibility: 0.9690952897071838
","x: 261.2494201660156
y: 543.734619140625
z: 0.034917768090963364
visibility: 0.931816041469574
",,,,,,,,,,,,,,,,,,,,,,,,,,,,,,,,,,,,,,,,,,
25,"x: 260.6464538574219
y: 318.1531677246094
z: 0.019232461228966713
visibility: 0.9993671178817749
","x: 261.62847900390625
y: 313.0146484375
z: 0.00680980458855629
visibility: 0.9994049072265625
","x: 262.20361328125
y: 313.1808776855469
z: 0.006783591117709875
visibility: 0.999422013759613
","x: 262.8582458496094
y: 313.3147888183594
z: 0.006782963871955872
visibility: 0.9994871020317078
","x: 260.5776672363281
y: 312.590087890625
z: 0.027596041560173035
visibility: 0.9993276596069336
","x: 260.4501647949219
y: 312.5641784667969
z: 0.027600925415754318
visibility: 0.9992722272872925
","x: 260.33648681640625
y: 312.5338134765625
z: 0.02753901109099388
visibility: 0.9993410110473633
","x: 264.8157653808594
y: 315.5370788574219
z: -0.021459687501192093
visibility: 0.9993314743041992
","x: 262.3243408203125
y: 314.90576171875
z: 0.07072563469409943
visibility: 0.9990873336791992
","x: 262.26483154296875
y: 323.1029968261719
z: 0.010722699575126171
visibility: 0.9986316561698914
","x: 260.6741638183594
y: 322.50775146484375
z: 0.03739072382450104
visibility: 0.9984055757522583
","x: 270.6113586425781
y: 340.9710998535156
z: -0.09214352071285248
visibility: 0.9986656308174133
","x: 263.787353515625
y: 342.99884033203125
z: 0.14164195954799652
visibility: 0.9983449578285217
","x: 273.1133728027344
y: 373.50970458984375
z: -0.17980697751045227
visibility: 0.9627305865287781
","x: 262.58636474609375
y: 379.71795654296875
z: 0.17505687475204468
visibility: 0.3974262773990631
","x: 264.0758972167969
y: 403.15899658203125
z: -0.2376716136932373
visibility: 0.9276505708694458
","x: 255.16018676757812
y: 410.1268005371094
z: 0.14067043364048004
visibility: 0.4838091731071472
","x: 263.1353454589844
y: 413.7814025878906
z: -0.26030153036117554
visibility: 0.9078854918479919
","x: 251.9391326904297
y: 418.0697937011719
z: 0.1413814127445221
visibility: 0.48285090923309326
","x: 261.64373779296875
y: 412.80828857421875
z: -0.25871866941452026
visibility: 0.905674159526825
","x: 250.6465301513672
y: 417.8270263671875
z: 0.12537232041358948
visibility: 0.48668572306632996
","x: 261.6038513183594
y: 409.4198913574219
z: -0.23705430328845978
visibility: 0.8944591879844666
","x: 253.81053161621094
y: 414.9563903808594
z: 0.13229860365390778
visibility: 0.4766831398010254
","x: 266.7722473144531
y: 422.11187744140625
z: -0.0751684159040451
visibility: 0.9996180534362793
","x: 266.5301208496094
y: 424.14984130859375
z: 0.07512634247541428
visibility: 0.9992368817329407
","x: 251.00103759765625
y: 480.8243408203125
z: -0.1019713431596756
visibility: 0.9735456705093384
","x: 260.01861572265625
y: 476.5465087890625
z: 0.06115971878170967
visibility: 0.855991542339325
","x: 263.80767822265625
y: 542.336669921875
z: -0.10465788841247559
visibility: 0.9834546446800232
","x: 271.60302734375
y: 534.8055419921875
z: 0.07014261186122894
visibility: 0.9295167922973633
","x: 269.35614013671875
y: 551.3919677734375
z: -0.10673713684082031
visibility: 0.9756342768669128
","x: 276.79180908203125
y: 544.8319091796875
z: 0.06864643841981888
visibility: 0.9229162931442261
","x: 250.45652770996094
y: 557.9337158203125
z: -0.15152660012245178
visibility: 0.9702613353729248
","x: 261.45758056640625
y: 552.112060546875
z: 0.040470533072948456
visibility: 0.9211647510528564
",,,,,,,,,,,,,,,,,,,,,,,,,,,,,,,,,,,,,,,,,,
26,"x: 258.3858947753906
y: 321.8691711425781
z: -0.07557080686092377
visibility: 0.9993172287940979
","x: 260.0113525390625
y: 317.0197448730469
z: -0.08811208605766296
visibility: 0.9993645548820496
","x: 260.65570068359375
y: 317.200439453125
z: -0.08812330663204193
visibility: 0.9993995428085327
","x: 261.35650634765625
y: 317.33575439453125
z: -0.08815912157297134
visibility: 0.9994715452194214
","x: 259.0942687988281
y: 316.5118713378906
z: -0.06696682423353195
visibility: 0.9992547035217285
","x: 259.1289367675781
y: 316.4122314453125
z: -0.0669683963060379
visibility: 0.9991786479949951
","x: 259.17132568359375
y: 316.25360107421875
z: -0.06702183932065964
visibility: 0.9992474317550659
","x: 264.6637878417969
y: 320.19415283203125
z: -0.10820676386356354
visibility: 0.9993459582328796
