uscmakers/ReverseChoreography/data/4_all_i_wanna_do_jay_park.csv
,NOSE,LEFT_EYE_INNER,LEFT_EYE,LEFT_EYE_OUTER,RIGHT_EYE_INNER,RIGHT_EYE,RIGHT_EYE_OUTER,LEFT_EAR,RIGHT_EAR,MOUTH_LEFT,MOUTH_RIGHT,LEFT_SHOULDER,RIGHT_SHOULDER,LEFT_ELBOW,RIGHT_ELBOW,LEFT_WRIST,RIGHT_WRIST,LEFT_PINKY,RIGHT_PINKY,LEFT_INDEX,RIGHT_INDEX,LEFT_THUMB,RIGHT_THUMB,LEFT_HIP,RIGHT_HIP,LEFT_KNEE,RIGHT_KNEE,LEFT_ANKLE,RIGHT_ANKLE,LEFT_HEEL,RIGHT_HEEL,LEFT_FOOT_INDEX,RIGHT_FOOT_INDEX,WRIST2,THUMB_CPC2,THUMB_MCP2,THUMB_IP2,THUMB_TIP2,INDEX_FINGER_MCP2,INDEX_FINGER_PIP2,INDEX_FINGER_DIP2,INDEX_FINGER_TIP2,MIDDLE_FINGER_MCP2,MIDDLE_FINGER_PIP2,MIDDLE_FINGER_DIP2,MIDDLE_FINGER_TIP2,RING_FINGER_PIP2,RING_FINGER_DIP2,RING_FINGER_TIP2,RING_FINGER_MCP2,PINKY_MCP2,PINKY_PIP2,PINKY_DIP2,PINKY_TIP2,WRIST,THUMB_CPC,THUMB_MCP,THUMB_IP,THUMB_TIP,INDEX_FINGER_MCP,INDEX_FINGER_PIP,INDEX_FINGER_DIP,INDEX_FINGER_TIP,MIDDLE_FINGER_MCP,MIDDLE_FINGER_PIP,MIDDLE_FINGER_DIP,MIDDLE_FINGER_TIP,RING_FINGER_PIP,RING_FINGER_DIP,RING_FINGER_TIP,RING_FINGER_MCP,PINKY_MCP,PINKY_PIP,PINKY_DIP,PINKY_TIP
0,"x: 195.2454833984375
y: 259.68212890625
z: -0.22146692872047424
visibility: 0.999823272228241
","x: 197.58094787597656
y: 253.80032348632812
z: -0.20505090057849884
visibility: 0.9987562894821167
","x: 199.21527099609375
y: 253.87062072753906
z: -0.20506444573402405
visibility: 0.998747706413269
","x: 200.8583221435547
y: 253.9723358154297
z: -0.20507319271564484
visibility: 0.9985054731369019
","x: 193.74859619140625
y: 254.39019775390625
z: -0.2019800841808319
visibility: 0.9990813732147217
","x: 192.36721801757812
y: 254.93411254882812
z: -0.2019948661327362
visibility: 0.9992399215698242
","x: 191.1697235107422
y: 255.43052673339844
z: -0.2020103484392166
visibility: 0.9993919134140015
","x: 203.8187713623047
y: 257.98876953125
z: -0.11150266975164413
visibility: 0.9968189001083374
","x: 191.14727783203125
y: 259.1607971191406
z: -0.0971892774105072
visibility: 0.9992443323135376
","x: 198.28404235839844
y: 266.0091857910156
z: -0.18696504831314087
visibility: 0.9996399879455566
","x: 193.634765625
y: 266.5849609375
z: -0.18281833827495575
visibility: 0.999775230884552
","x: 215.42230224609375
y: 285.77783203125
z: -0.07880432903766632
visibility: 0.9999071359634399
","x: 180.39942932128906
y: 295.10809326171875
z: -0.032962068915367126
visibility: 0.9998922348022461
","x: 229.2992401123047
y: 246.64157104492188
z: -0.16435179114341736
visibility: 0.9960402250289917
","x: 171.82188415527344
y: 338.10992431640625
z: -0.0016207003500312567
visibility: 0.9783122539520264
","x: 210.91534423828125
y: 227.642822265625
z: -0.24093464016914368
visibility: 0.9553473591804504
","x: 172.82582092285156
y: 375.03314208984375
z: -0.07279188930988312
visibility: 0.9463838338851929
","x: 206.18324279785156
y: 220.5192413330078
z: -0.27584388852119446
visibility: 0.8046433329582214
","x: 173.8124542236328
y: 388.6764221191406
z: -0.09748915582895279
visibility: 0.8883739709854126
","x: 204.72047424316406
y: 221.68601989746094
z: -0.2650992274284363
visibility: 0.7887202501296997
","x: 176.66505432128906
y: 387.3611755371094
z: -0.11421962082386017
visibility: 0.8919572234153748
","x: 206.0233612060547
y: 226.27499389648438
z: -0.24167251586914062
visibility: 0.7577593326568604
","x: 177.0810546875
y: 383.34881591796875
z: -0.08105672150850296
visibility: 0.858788013458252
","x: 213.11119079589844
y: 387.7264099121094
z: 0.0002575863036327064
visibility: 0.9999388456344604
","x: 190.46719360351562
y: 388.8597106933594
z: -0.0004426593950483948
visibility: 0.9998667240142822
","x: 220.49105834960938
y: 461.5716857910156
z: -0.044742271304130554
visibility: 0.993902325630188
","x: 192.10423278808594
y: 459.15264892578125
z: -0.07623030245304108
visibility: 0.9936102032661438
","x: 224.85198974609375
y: 521.4417724609375
z: 0.16523292660713196
visibility: 0.9905283451080322
","x: 186.43980407714844
y: 511.60089111328125
z: 0.14798006415367126
visibility: 0.9854696989059448
","x: 222.99502563476562
y: 530.5706787109375
z: 0.18141929805278778
visibility: 0.8625161647796631
","x: 184.63165283203125
y: 517.0618286132812
z: 0.1666417419910431
visibility: 0.8185275793075562
","x: 228.80442810058594
y: 545.4769287109375
z: 0.0695614442229271
visibility: 0.9820235371589661
","x: 195.10020446777344
y: 544.43212890625
z: 0.0563780777156353
visibility: 0.9809659719467163
","x: 210.80838012695312
y: 226.64183044433594
z: 0.0
","x: 207.6512908935547
y: 226.73699951171875
z: -0.0005467451992444694
","x: 204.6569061279297
y: 223.65638732910156
z: -0.0012300147209316492
","x: 203.07330322265625
y: 219.7602081298828
z: -0.002495452528819442
","x: 202.0925750732422
y: 216.1229705810547
z: -0.0035356245934963226
","x: 203.27992248535156
y: 218.34909057617188
z: 0.0015215673483908176
","x: 200.74127197265625
y: 214.7030792236328
z: -0.0002196688874391839
","x: 199.06373596191406
y: 212.51528930664062
z: -0.001577239017933607
","x: 197.744384765625
y: 210.620361328125
z: -0.002411087742075324
","x: 204.5509490966797
y: 216.45545959472656
z: 0.0002978239790536463
","x: 202.71197509765625
y: 213.85418701171875
z: -0.0019198105437681079
","x: 203.20333862304688
y: 216.20831298828125
z: -0.002380114747211337
","x: 203.95379638671875
y: 218.08229064941406
z: -0.0019657195080071688
","x: 206.08819580078125
y: 215.20587158203125
z: -0.001401153509505093
","x: 204.40023803710938
y: 213.134521484375
z: -0.0034505792427808046
","x: 204.8861846923828
y: 216.01463317871094
z: -0.0027752299793064594
","x: 205.66543579101562
y: 218.05845642089844
z: -0.0016849464736878872
","x: 207.9879608154297
y: 214.38525390625
z: -0.003448937786743045
","x: 206.32127380371094
y: 212.4405059814453
z: -0.004501146264374256
","x: 206.38565063476562
y: 214.7333526611328
z: -0.003851980669423938
","x: 206.94552612304688
y: 216.656982421875
z: -0.0029326623771339655
",,,,,,,,,,,,,,,,,,,,,
1,"x: 195.2454833984375
y: 259.68212890625
z: -0.22146692872047424
visibility: 0.999823272228241
","x: 197.58094787597656
y: 253.80032348632812
z: -0.20505090057849884
visibility: 0.9987562894821167
","x: 199.21527099609375
y: 253.87062072753906
z: -0.20506444573402405
visibility: 0.998747706413269
","x: 200.8583221435547
y: 253.9723358154297
z: -0.20507319271564484
visibility: 0.9985054731369019
","x: 193.74859619140625
y: 254.39019775390625
z: -0.2019800841808319
visibility: 0.9990813732147217
","x: 192.36721801757812
y: 254.93411254882812
z: -0.2019948661327362
visibility: 0.9992399215698242
","x: 191.1697235107422
y: 255.43052673339844
z: -0.2020103484392166
visibility: 0.9993919134140015
","x: 203.8187713623047
y: 257.98876953125
z: -0.11150266975164413
visibility: 0.9968189001083374
","x: 191.14727783203125
y: 259.1607971191406
z: -0.0971892774105072
visibility: 0.9992443323135376
","x: 198.28404235839844
y: 266.0091857910156
z: -0.18696504831314087
visibility: 0.9996399879455566
","x: 193.634765625
y: 266.5849609375
z: -0.18281833827495575
visibility: 0.999775230884552
","x: 215.42230224609375
y: 285.77783203125
z: -0.07880432903766632
visibility: 0.9999071359634399
","x: 180.39942932128906
y: 295.10809326171875
z: -0.032962068915367126
visibility: 0.9998922348022461
","x: 229.2992401123047
y: 246.64157104492188
z: -0.16435179114341736
visibility: 0.9960402250289917
","x: 171.82188415527344
y: 338.10992431640625
z: -0.0016207003500312567
visibility: 0.9783122539520264
","x: 210.91534423828125
y: 227.642822265625
z: -0.24093464016914368
visibility: 0.9553473591804504
","x: 172.82582092285156
y: 375.03314208984375
z: -0.07279188930988312
visibility: 0.9463838338851929
","x: 206.18324279785156
y: 220.5192413330078
z: -0.27584388852119446
visibility: 0.8046433329582214
","x: 173.8124542236328
y: 388.6764221191406
z: -0.09748915582895279
visibility: 0.8883739709854126
","x: 204.72047424316406
y: 221.68601989746094
z: -0.2650992274284363
visibility: 0.7887202501296997
","x: 176.66505432128906
y: 387.3611755371094
z: -0.11421962082386017
visibility: 0.8919572234153748
","x: 206.0233612060547
y: 226.27499389648438
z: -0.24167251586914062
visibility: 0.7577593326568604
","x: 177.0810546875
y: 383.34881591796875
z: -0.08105672150850296
visibility: 0.858788013458252
","x: 213.11119079589844
y: 387.7264099121094
z: 0.0002575863036327064
visibility: 0.9999388456344604
","x: 190.46719360351562
y: 388.8597106933594
z: -0.0004426593950483948
visibility: 0.9998667240142822
","x: 220.49105834960938
y: 461.5716857910156
z: -0.044742271304130554
visibility: 0.993902325630188
","x: 192.10423278808594
y: 459.15264892578125
z: -0.07623030245304108
visibility: 0.9936102032661438
","x: 224.85198974609375
y: 521.4417724609375
z: 0.16523292660713196
visibility: 0.9905283451080322
","x: 186.43980407714844
y: 511.60089111328125
z: 0.14798006415367126
visibility: 0.9854696989059448
","x: 222.99502563476562
y: 530.5706787109375
z: 0.18141929805278778
visibility: 0.8625161647796631
","x: 184.63165283203125
y: 517.0618286132812
z: 0.1666417419910431
visibility: 0.8185275793075562
","x: 228.80442810058594
y: 545.4769287109375
z: 0.0695614442229271
visibility: 0.9820235371589661
","x: 195.10020446777344
y: 544.43212890625
z: 0.0563780777156353
visibility: 0.9809659719467163
","x: 210.80838012695312
y: 226.64183044433594
z: 0.0
","x: 207.6512908935547
y: 226.73699951171875
z: -0.0005467451992444694
","x: 204.6569061279297
y: 223.65638732910156
z: -0.0012300147209316492
","x: 203.07330322265625
y: 219.7602081298828
z: -0.002495452528819442
","x: 202.0925750732422
y: 216.1229705810547
z: -0.0035356245934963226
","x: 203.27992248535156
y: 218.34909057617188
z: 0.0015215673483908176
","x: 200.74127197265625
y: 214.7030792236328
z: -0.0002196688874391839
","x: 199.06373596191406
y: 212.51528930664062
z: -0.001577239017933607
","x: 197.744384765625
y: 210.620361328125
z: -0.002411087742075324
","x: 204.5509490966797
y: 216.45545959472656
z: 0.0002978239790536463
","x: 202.71197509765625
y: 213.85418701171875
z: -0.0019198105437681079
","x: 203.20333862304688
y: 216.20831298828125
z: -0.002380114747211337
","x: 203.95379638671875
y: 218.08229064941406
z: -0.0019657195080071688
","x: 206.08819580078125
y: 215.20587158203125
z: -0.001401153509505093
","x: 204.40023803710938
y: 213.134521484375
z: -0.0034505792427808046
","x: 204.8861846923828
y: 216.01463317871094
z: -0.0027752299793064594
","x: 205.66543579101562
y: 218.05845642089844
z: -0.0016849464736878872
","x: 207.9879608154297
y: 214.38525390625
z: -0.003448937786743045
","x: 206.32127380371094
y: 212.4405059814453
z: -0.004501146264374256
","x: 206.38565063476562
y: 214.7333526611328
z: -0.003851980669423938
","x: 206.94552612304688
y: 216.656982421875
z: -0.0029326623771339655
",,,,,,,,,,,,,,,,,,,,,
2,"x: 211.52442932128906
y: 268.00579833984375
z: -0.09284450113773346
visibility: 0.9998007416725159
","x: 211.83349609375
y: 262.1169128417969
z: -0.07621851563453674
visibility: 0.9987750053405762
","x: 211.8238067626953
y: 262.3673400878906
z: -0.07618486136198044
visibility: 0.9987590909004211
","x: 211.78440856933594
y: 262.5430908203125
z: -0.07613848894834518
visibility: 0.9985402822494507
","x: 210.74290466308594
y: 260.4925537109375
z: -0.10415216535329819
visibility: 0.9990744590759277
","x: 209.95849609375
y: 259.612060546875
z: -0.1041719913482666
visibility: 0.9992150664329529
","x: 209.0069122314453
y: 258.6056823730469
z: -0.10426129400730133
visibility: 0.9993276596069336
","x: 207.52304077148438
y: 262.5356750488281
z: 0.011460993438959122
visibility: 0.9966772198677063
","x: 202.84616088867188
y: 259.104736328125
z: -0.10998199135065079
visibility: 0.9992180466651917
","x: 209.02462768554688
y: 273.90679931640625
z: -0.05763358622789383
visibility: 0.9995777010917664
","x: 207.94747924804688
y: 271.8686218261719
z: -0.09532876312732697
visibility: 0.9997261762619019
","x: 208.4007568359375
y: 299.6481018066406
z: 0.09744173288345337
visibility: 0.9998947381973267
","x: 182.10914611816406
y: 284.00091552734375
z: -0.1609637588262558
visibility: 0.9999009966850281
","x: 208.1339569091797
y: 357.474609375
z: 0.1448778361082077
visibility: 0.9379968047142029
","x: 191.0902099609375
y: 330.72088623046875
z: -0.22410762310028076
visibility: 0.9803867340087891
","x: 216.4198760986328
y: 393.0914611816406
z: 0.07795194536447525
visibility: 0.9429445862770081
","x: 218.2928924560547
y: 332.1100158691406
z: -0.24802008271217346
visibility: 0.9516396522521973
","x: 220.61248779296875
y: 403.1588134765625
z: 0.06985624879598618
visibility: 0.8042647242546082
","x: 225.32717895507812
y: 334.5516662597656
z: -0.27736014127731323
visibility: 0.8992339968681335
","x: 221.14906311035156
y: 403.69366455078125
z: 0.040984854102134705
visibility: 0.7915491461753845
","x: 226.41696166992188
y: 330.1151123046875
z: -0.2723185420036316
visibility: 0.9024445414543152
","x: 219.187744140625
y: 399.34930419921875
z: 0.06319586932659149
visibility: 0.7628548741340637
","x: 224.20712280273438
y: 329.19610595703125
z: -0.2444303333759308
visibility: 0.8722105026245117
","x: 205.07191467285156
y: 393.6959533691406
z: 0.07014712691307068
visibility: 0.9999396800994873
","x: 186.25521850585938
y: 393.3175048828125
z: -0.07013300061225891
visibility: 0.9998705387115479
","x: 205.73423767089844
y: 468.8309326171875
z: 0.01981055922806263
visibility: 0.9912271499633789
","x: 190.17593383789062
y: 469.9517822265625
z: -0.07034365832805634
visibility: 0.9931840300559998
","x: 197.42820739746094
y: 537.4524536132812
z: 0.12984654307365417
visibility: 0.9878644347190857
","x: 181.58470153808594
y: 517.5416259765625
z: 0.19121350347995758
visibility: 0.9803693294525146
","x: 192.72625732421875
y: 548.9228515625
z: 0.1365741342306137
visibility: 0.8712126016616821
","x: 179.00083923339844
y: 517.9447631835938
z: 0.2159871608018875
visibility: 0.8150846362113953
","x: 210.48556518554688
y: 560.396728515625
z: 0.06952870637178421
visibility: 0.981648862361908
","x: 182.10443115234375
y: 544.873779296875
z: 0.1752365231513977
visibility: 0.9781649708747864
",,,,,,,,,,,,,,,,,,,,,,,,,,,,,,,,,,,,,,,,,,
3,"x: 212.6041259765625
y: 268.3666076660156
z: -0.1202172189950943
visibility: 0.9997693300247192
","x: 213.81497192382812
y: 262.4989013671875
z: -0.10044363886117935
visibility: 0.998799204826355
","x: 214.125
y: 262.781005859375
z: -0.10044936090707779
visibility: 0.9987756609916687
","x: 214.34271240234375
y: 262.99981689453125
z: -0.100436270236969
visibility: 0.9985776543617249
","x: 211.83441162109375
y: 260.5536804199219
z: -0.12334257364273071
visibility: 0.9990573525428772
","x: 210.73834228515625
y: 259.4436340332031
z: -0.12335579097270966
visibility: 0.9992043972015381
","x: 209.40023803710938
y: 258.3936462402344
z: -0.12342636287212372
visibility: 0.999298632144928
","x: 210.8580322265625
y: 262.72576904296875
z: 0.0029660826548933983
visibility: 0.9965325593948364
","x: 203.69485473632812
y: 257.54595947265625
z: -0.10750578343868256
visibility: 0.999210000038147
","x: 210.82308959960938
y: 274.87091064453125
z: -0.07993482053279877
visibility: 0.9994868636131287
","x: 208.5097198486328
y: 272.4566650390625
z: -0.11067817360162735
visibility: 0.9996746182441711
","x: 209.7728729248047
y: 301.5903625488281
z: 0.09903013706207275
visibility: 0.9997981190681458
","x: 182.59141540527344
y: 284.95849609375
z: -0.14739654958248138
visibility: 0.9999064207077026
","x: 207.62608337402344
y: 355.6674499511719
z: 0.12348274886608124
visibility: 0.8508720993995667
","x: 190.3212127685547
y: 330.6328125
z: -0.20215828716754913
visibility: 0.9814273118972778
","x: 210.34510803222656
y: 398.5681457519531
z: 0.047787103801965714
visibility: 0.8568276166915894
","x: 211.23654174804688
y: 351.3790588378906
z: -0.23120316863059998
visibility: 0.9526943564414978
","x: 218.63255310058594
y: 415.1611022949219
z: 0.03616827353835106
visibility: 0.7327018976211548
","x: 214.01095581054688
y: 366.75103759765625
z: -0.26084446907043457
visibility: 0.9022046327590942
","x: 215.53688049316406
y: 414.4510192871094
z: 0.009563347324728966
visibility: 0.7219477891921997
","x: 216.5294647216797
y: 365.63909912109375
z: -0.25862663984298706
visibility: 0.9047008156776428
","x: 215.7982635498047
y: 407.63653564453125
z: 0.03318648785352707
visibility: 0.6962504386901855
","x: 215.49183654785156
y: 364.1211242675781
z: -0.2291698157787323
visibility: 0.8721156716346741
","x: 204.5554962158203
y: 394.6134033203125
z: 0.06906693428754807
visibility: 0.9999106526374817
","x: 184.99783325195312
y: 393.054931640625
z: -0.06899021565914154
visibility: 0.9998484253883362
","x: 206.04225158691406
y: 470.86895751953125
z: 0.01697191782295704
visibility: 0.98343825340271
","x: 190.08250427246094
y: 469.575927734375
z: -0.09153584390878677
visibility: 0.9924454689025879
","x: 193.3399658203125
y: 542.8278198242188
z: 0.11695871502161026
visibility: 0.9837268590927124
","x: 174.96728515625
y: 530.04248046875
z: 0.0423283576965332
visibility: 0.9803444147109985
","x: 188.45912170410156
y: 554.6394653320312
z: 0.12119565159082413
visibility: 0.8753437995910645
","x: 171.3592071533203
y: 535.9364624023438
z: 0.05071340873837471
visibility: 0.8168269395828247
","x: 207.948486328125
y: 563.7346801757812
z: 0.042174406349658966
visibility: 0.9794689416885376
","x: 175.52951049804688
y: 558.0853881835938
z: -0.04064691439270973
visibility: 0.9783362746238708
",,,,,,,,,,,,,,,,,,,,,,,,,,,,,,,,,,,,,,,,,,
4,"x: 208.76138305664062
y: 267.2798767089844
z: -0.2628743350505829
visibility: 0.9997864961624146
","x: 210.0917510986328
y: 261.5854187011719
z: -0.24608547985553741
visibility: 0.9989058971405029
","x: 210.89805603027344
y: 262.12176513671875
z: -0.24612745642662048
visibility: 0.9988839030265808
","x: 211.62567138671875
y: 262.7521057128906
z: -0.24615390598773956
visibility: 0.9987026453018188
","x: 207.19256591796875
y: 259.9639892578125
z: -0.2612552046775818
visibility: 0.9991382956504822
","x: 205.95730590820312
y: 259.1231689453125
z: -0.2612980902194977
visibility: 0.9992716908454895
","x: 204.61001586914062
y: 258.2439880371094
z: -0.26133593916893005
visibility: 0.9993540644645691
","x: 210.20281982421875
y: 261.20556640625
z: -0.12324745953083038
visibility: 0.9968318343162537
","x: 200.7493133544922
y: 257.5588073730469
z: -0.19334973394870758
visibility: 0.9992758631706238
","x: 209.0056915283203
y: 273.67694091796875
z: -0.21281209588050842
visibility: 0.9995241165161133
","x: 205.59324645996094
y: 272.2030029296875
z: -0.23314431309700012
visibility: 0.9996975660324097
","x: 213.494873046875
y: 299.45391845703125
z: 0.018616406247019768
visibility: 0.9998030066490173
","x: 183.35614013671875
y: 286.248779296875
z: -0.1650690734386444
visibility: 0.9999125003814697
","x: 214.0536346435547
y: 350.32037353515625
z: 0.06726974993944168
visibility: 0.8352013826370239
","x: 185.1692657470703
y: 342.75921630859375
z: -0.15559938549995422
visibility: 0.9823363423347473
","x: 218.198974609375
y: 392.3879699707031
z: -0.018487360328435898
visibility: 0.8504046201705933
","x: 196.33953857421875
y: 388.05615234375
z: -0.2199935019016266
visibility: 0.9543818831443787
","x: 221.2116241455078
y: 407.0918273925781
z: -0.035267412662506104
visibility: 0.7312994599342346
","x: 189.62899780273438
y: 405.3399353027344
z: -0.2518450915813446
visibility: 0.9061620235443115
","x: 219.23377990722656
y: 406.7776184082031
z: -0.06806649267673492
visibility: 0.7233446836471558
","x: 192.86082458496094
y: 406.5799560546875
z: -0.27033668756484985
visibility: 0.9084000587463379
","x: 218.25439453125
y: 402.4412536621094
z: -0.03443114832043648
visibility: 0.6970970034599304
","x: 194.75567626953125
y: 400.5203552246094
z: -0.2275526523590088
visibility: 0.87632817029953
","x: 205.2025604248047
y: 396.0941162109375
z: 0.059474457055330276
visibility: 0.9998080134391785
","x: 185.3554229736328
y: 393.1853942871094
z: -0.059404246509075165
visibility: 0.9997889995574951
","x: 206.36070251464844
y: 471.0087585449219
z: 0.06400598585605621
visibility: 0.9790208339691162
","x: 185.802734375
y: 470.2301330566406
z: -0.10520225763320923
visibility: 0.9924140572547913
","x: 193.3267364501953
y: 543.9820556640625
z: 0.13884244859218597
visibility: 0.9816797375679016
","x: 177.42156982421875
y: 547.6707153320312
z: -0.04112200066447258
visibility: 0.9815417528152466
","x: 187.43081665039062
y: 557.031494140625
z: 0.13996221125125885
visibility: 0.8805857300758362
","x: 174.87576293945312
y: 562.124755859375
z: -0.04215510934591293
visibility: 0.8256168961524963
","x: 206.52249145507812
y: 564.5568237304688
z: 0.055623412132263184
visibility: 0.9783435463905334
","x: 180.2579345703125
y: 565.79248046875
z: -0.16642078757286072
visibility: 0.9794788956642151
",,,,,,,,,,,,,,,,,,,,,,,,,,,,,,,,,,,,,,,,,,
5,"x: 206.80735778808594
y: 260.4671630859375
z: -0.2477770298719406
visibility: 0.9997755289077759
","x: 208.73538208007812
y: 253.03411865234375
z: -0.23085065186023712
visibility: 0.9989362955093384
","x: 209.63360595703125
y: 253.07150268554688
z: -0.23091962933540344
visibility: 0.9989014863967896
","x: 210.47543334960938
y: 253.2264404296875
z: -0.23094359040260315
visibility: 0.9987185001373291
","x: 206.8819122314453
y: 253.0460205078125
z: -0.23792621493339539
visibility: 0.9991731643676758
","x: 205.1729736328125
y: 252.84646606445312
z: -0.23796860873699188
visibility: 0.9992921948432922
","x: 202.79449462890625
y: 252.64093017578125
z: -0.23805375397205353
visibility: 0.9993730783462524
","x: 209.35653686523438
y: 254.9821319580078
z: -0.11258314549922943
visibility: 0.9967387914657593
","x: 197.22926330566406
y: 254.22425842285156
z: -0.14830662310123444
visibility: 0.999305248260498
","x: 207.3339080810547
y: 267.8085632324219
z: -0.2009531706571579
visibility: 0.9995071887969971
","x: 203.81597900390625
y: 267.39666748046875
z: -0.2103215456008911
visibility: 0.9997023344039917
","x: 216.53370666503906
y: 297.73309326171875
z: 0.0007090881117619574
visibility: 0.999732494354248
","x: 182.37451171875
y: 286.4220886230469
z: -0.10186710208654404
visibility: 0.9999184012413025
","x: 214.83929443359375
y: 339.11181640625
z: -0.007795468904078007
visibility: 0.8108670115470886
","x: 172.44509887695312
y: 344.1021728515625
z: -0.05103323608636856
visibility: 0.9821299314498901
","x: 219.03016662597656
y: 350.7792663574219
z: -0.20276756584644318
visibility: 0.8183919787406921
","x: 170.10487365722656
y: 391.56939697265625
z: -0.12821133434772491
visibility: 0.9536945223808289
","x: 220.1221466064453
y: 355.99365234375
z: -0.23736348748207092
visibility: 0.7086177468299866
","x: 166.93392944335938
y: 406.4523010253906
z: -0.1490100920200348
visibility: 0.9066789150238037
","x: 218.90615844726562
y: 350.7104797363281
z: -0.25710535049438477
visibility: 0.7029791474342346
","x: 169.5042266845703
y: 407.4386901855469
z: -0.1947644054889679
visibility: 0.9091360569000244
","x: 217.79193115234375
y: 349.1830139160156
z: -0.21597814559936523
visibility: 0.6741226315498352
","x: 171.27093505859375
y: 402.76995849609375
z: -0.1448739916086197
visibility: 0.8780820965766907
","x: 206.08364868164062
y: 395.8886413574219
z: 0.04550698399543762
visibility: 0.999519407749176
","x: 185.12986755371094
y: 393.079345703125
z: -0.04553937539458275
visibility: 0.9996985793113708
","x: 206.45968627929688
y: 470.67449951171875
z: 0.025004610419273376
visibility: 0.9706791639328003
","x: 185.47763061523438
y: 469.4823913574219
z: -0.1240704208612442
visibility: 0.9916968941688538
","x: 194.2494659423828
y: 545.79296875
z: 0.09527330100536346
visibility: 0.978282630443573
","x: 178.34625244140625
y: 546.1566772460938
z: -0.056737739592790604
visibility: 0.9815028309822083
","x: 187.91390991210938
y: 562.1815185546875
z: 0.09507092088460922
visibility: 0.8797163367271423
","x: 177.54502868652344
y: 564.3519287109375
z: -0.057501692324876785
visibility: 0.8264908194541931
","x: 206.98577880859375
y: 563.6613159179688
z: -0.00675970921292901
visibility: 0.975849986076355
","x: 184.00730895996094
y: 569.6072998046875
z: -0.1858706921339035
visibility: 0.9793291091918945
",,,,,,,,,,,,,,,,,,,,,,,,,,,,,,,,,,,,,,,,,,
6,"x: 200.2457733154297
y: 280.1483459472656
z: -0.46956881880760193
visibility: 0.9997854232788086
","x: 201.9925994873047
y: 273.2033996582031
z: -0.4639769196510315
visibility: 0.9990033507347107
","x: 203.11798095703125
y: 272.1413879394531
z: -0.46404194831848145
visibility: 0.9989728331565857
","x: 204.19541931152344
y: 270.9775390625
z: -0.464142382144928
visibility: 0.9988079071044922
","x: 198.89427185058594
y: 273.7671203613281
z: -0.4640081822872162
visibility: 0.9992203712463379
","x: 197.6044158935547
y: 273.0816650390625
z: -0.46407556533813477
visibility: 0.999321460723877
","x: 196.07180786132812
y: 272.17608642578125
z: -0.46414175629615784
visibility: 0.9993936419487
","x: 204.63397216796875
y: 264.55633544921875
z: -0.34981098771095276
visibility: 0.9970019459724426
","x: 192.767578125
y: 265.9049072265625
z: -0.3491092920303345
visibility: 0.9993393421173096
","x: 202.20932006835938
y: 282.70306396484375
z: -0.41936618089675903
visibility: 0.9995505809783936
","x: 197.8344268798828
y: 282.7169494628906
z: -0.41932278871536255
visibility: 0.9997278451919556
","x: 216.56956481933594
y: 297.73138427734375
z: -0.22385486960411072
visibility: 0.9997585415840149
","x: 177.67918395996094
y: 293.40203857421875
z: -0.2187635898590088
visibility: 0.9999262094497681
","x: 222.58786010742188
y: 349.215087890625
z: -0.2628006637096405
visibility: 0.8293384909629822
","x: 167.64292907714844
y: 352.228515625
z: -0.1644923835992813
visibility: 0.9831299185752869
","x: 213.6071319580078
y: 361.8558349609375
z: -0.4407625198364258
visibility: 0.8354424834251404
","x: 163.28114318847656
y: 399.9957580566406
z: -0.2601982653141022
visibility: 0.9557246565818787
","x: 210.56153869628906
y: 371.720703125
z: -0.4863189160823822
visibility: 0.7349150776863098
","x: 161.61135864257812
y: 416.6192626953125
z: -0.2895340621471405
visibility: 0.9107369780540466
","x: 207.66444396972656
y: 365.76275634765625
z: -0.49722033739089966
visibility: 0.7298425436019897
","x: 163.2801513671875
y: 417.2430419921875
z: -0.3237447738647461
visibility: 0.9132345914840698
","x: 207.80873107910156
y: 361.64935302734375
z: -0.4475683569908142
visibility: 0.7014629244804382
","x: 164.69578552246094
y: 411.3331298828125
z: -0.27469149231910706
visibility: 0.883110523223877
","x: 206.66079711914062
y: 398.75738525390625
z: 0.026115301996469498
visibility: 0.9994376301765442
","x: 184.99795532226562
y: 396.7071533203125
z: -0.025902390480041504
visibility: 0.999677300453186
","x: 205.67230224609375
y: 472.7261657714844
z: 0.01917874626815319
visibility: 0.9667707681655884
","x: 185.77223205566406
y: 473.12945556640625
z: -0.13501909375190735
visibility: 0.9903062582015991
","x: 194.63323974609375
y: 546.0292358398438
z: 0.11971676349639893
visibility: 0.9744969010353088
","x: 180.10028076171875
y: 551.4030151367188
z: -0.05794871598482132
visibility: 0.9801923036575317
","x: 188.5425262451172
y: 563.3610229492188
z: 0.12673422694206238
visibility: 0.8785393238067627
","x: 179.9593048095703
y: 568.5560302734375
z: -0.058146845549345016
visibility: 0.8244010210037231
","x: 203.96905517578125
y: 562.0037231445312
z: 0.021427299827337265
visibility: 0.9730458855628967
","x: 185.1692657470703
y: 565.7874755859375
z: -0.19761183857917786
visibility: 0.9781251549720764
",,,,,,,,,,,,,,,,,,,,,,,,,,,,,,,,,,,,,,,,,,
7,"x: 192.42626953125
y: 290.96905517578125
z: -0.5153800845146179
visibility: 0.9998043179512024
","x: 194.4122772216797
y: 284.54620361328125
z: -0.5150995850563049
visibility: 0.9990941286087036
","x: 195.92294311523438
y: 283.58013916015625
z: -0.5151185989379883
visibility: 0.9990668296813965
","x: 197.43992614746094
y: 282.48974609375
z: -0.5152227878570557
visibility: 0.9989185333251953
","x: 190.65040588378906
y: 284.8050842285156
z: -0.5139092803001404
visibility: 0.999290406703949
","x: 189.44125366210938
y: 284.1131591796875
z: -0.5140023827552795
visibility: 0.9993804097175598
","x: 188.13609313964844
y: 283.3138732910156
z: -0.5140615701675415
visibility: 0.9994451999664307
","x: 199.41464233398438
y: 274.681396484375
z: -0.40665048360824585
visibility: 0.9972892999649048
","x: 186.24948120117188
y: 276.4804382324219
z: -0.3993116319179535
visibility: 0.9993984699249268
","x: 194.80923461914062
y: 292.5413818359375
z: -0.4649481773376465
visibility: 0.9995942115783691
","x: 190.90985107421875
y: 292.75244140625
z: -0.4631062150001526
visibility: 0.999754011631012
","x: 214.3830108642578
y: 297.6475830078125
z: -0.26297542452812195
visibility: 0.9997822046279907
","x: 174.21994018554688
y: 297.5600891113281
z: -0.260110467672348
visibility: 0.9999334216117859
","x: 223.26870727539062
y: 350.8307189941406
z: -0.2990802824497223
visibility: 0.8459710478782654
","x: 166.75013732910156
y: 357.8050537109375
z: -0.19677190482616425
visibility: 0.984262228012085
","x: 203.7184295654297
y: 356.1904602050781
z: -0.4822089672088623
visibility: 0.8501341938972473
","x: 162.4815216064453
y: 402.5519104003906
z: -0.2897416651248932
visibility: 0.9575986266136169
","x: 199.35009765625
y: 363.40069580078125
z: -0.5287140011787415
visibility: 0.7569520473480225
","x: 161.4287567138672
y: 418.63665771484375
z: -0.31931546330451965
visibility: 0.9142735600471497
","x: 196.63980102539062
y: 357.3957824707031
z: -0.5381363034248352
visibility: 0.7524423599243164
","x: 162.84580993652344
y: 418.7800598144531
z: -0.3537203371524811
visibility: 0.916767954826355
","x: 197.67941284179688
y: 354.693603515625
z: -0.4886261820793152
visibility: 0.7234058976173401
","x: 164.06687927246094
y: 413.1616516113281
z: -0.3040870130062103
visibility: 0.8871819972991943
","x: 206.33518981933594
y: 398.7110595703125
z: 0.023055901750922203
visibility: 0.9994326233863831
","x: 183.5994110107422
y: 397.8995361328125
z: -0.02286509796977043
visibility: 0.9996867775917053
","x: 206.3344268798828
y: 476.9888916015625
z: 0.011855377815663815
visibility: 0.9674554467201233
","x: 184.44775390625
y: 476.8743591308594
z: -0.1290636509656906
visibility: 0.990687906742096
","x: 194.74673461914062
y: 546.7696533203125
z: 0.1618724763393402
visibility: 0.9746845960617065
","x: 180.297119140625
y: 557.5524291992188
z: -0.025221850723028183
visibility: 0.9812778234481812
","x: 188.70863342285156
y: 562.0875244140625
z: 0.17142358422279358
visibility: 0.8843122124671936
","x: 180.49053955078125
y: 572.455810546875
z: -0.022927626967430115
visibility: 0.8330656290054321
","x: 205.9535675048828
y: 564.7677001953125
z: 0.06003224104642868
visibility: 0.9735413789749146
","x: 185.78762817382812
y: 575.3438720703125
z: -0.16155503690242767
visibility: 0.9791455864906311
",,,,,,,,,,,,,,,,,,,,,,,,,,,,,,,,,,,,,,,,,,
8,"x: 188.5938262939453
y: 246.46240234375
z: -0.1777225285768509
visibility: 0.9998233318328857
","x: 190.6749267578125
y: 242.08566284179688
z: -0.16005319356918335
visibility: 0.9991834163665771
","x: 192.18971252441406
y: 242.3358917236328
z: -0.16010159254074097
visibility: 0.9991587400436401
","x: 193.79623413085938
y: 242.77178955078125
z: -0.16011682152748108
visibility: 0.9990252256393433
","x: 187.08309936523438
y: 242.5135040283203
z: -0.16194632649421692
visibility: 0.9993601441383362
","x: 185.9264678955078
y: 243.0260009765625
z: -0.16195765137672424
visibility: 0.9994409680366516
","x: 184.71966552734375
y: 243.5778045654297
z: -0.1620279997587204
visibility: 0.9994993209838867
","x: 196.85093688964844
y: 247.5562286376953
z: -0.05299263447523117
visibility: 0.997556746006012
","x: 182.7317352294922
y: 247.40823364257812
z: -0.06256446987390518
visibility: 0.9994572401046753
","x: 191.14756774902344
y: 253.9581298828125
z: -0.13739141821861267
visibility: 0.9996343851089478
","x: 186.81613159179688
y: 253.88558959960938
z: -0.14034110307693481
visibility: 0.9997783303260803
","x: 210.6846160888672
y: 287.15924072265625
z: 0.006579211913049221
visibility: 0.999801754951477
","x: 169.7867889404297
y: 290.98345947265625
z: -0.009066222235560417
visibility: 0.9999395608901978
","x: 217.42935180664062
y: 341.3444519042969
z: -0.11889077723026276
visibility: 0.8607769012451172
","x: 161.75148010253906
y: 348.3031921386719
z: 0.020989123731851578
visibility: 0.984092116355896
","x: 200.33645629882812
y: 318.6094055175781
z: -0.32024502754211426
visibility: 0.8647679090499878
","x: 159.17259216308594
y: 394.8199768066406
z: -0.05959191173315048
visibility: 0.9592319130897522
","x: 194.62254333496094
y: 307.64300537109375
z: -0.36659592390060425
visibility: 0.7804069519042969
","x: 158.21780395507812
y: 409.29217529296875
z: -0.08523167669773102
visibility: 0.9177807569503784
","x: 195.262939453125
y: 300.53985595703125
z: -0.36961790919303894
visibility: 0.7763156294822693
","x: 160.31930541992188
y: 408.9481201171875
z: -0.11484669148921967
visibility: 0.920070230960846
","x: 196.1945343017578
y: 302.1925964355469
z: -0.3265267014503479
visibility: 0.7495294809341431
","x: 161.44918823242188
y: 403.94085693359375
z: -0.07227042317390442
visibility: 0.8917213082313538
","x: 204.9176025390625
y: 392.5130615234375
z: 0.02583804726600647
visibility: 0.999452531337738
","x: 182.0971221923828
y: 392.5158386230469
z: -0.02575944922864437
visibility: 0.9997067451477051
","x: 201.685791015625
y: 476.5359802246094
z: 0.021578431129455566
visibility: 0.9667825698852539
","x: 183.41317749023438
y: 475.02276611328125
z: -0.12124458700418472
visibility: 0.9909923672676086
","x: 193.72996520996094
y: 545.6846923828125
z: 0.18634983897209167
visibility: 0.973234236240387
","x: 180.58482360839844
y: 559.322998046875
z: -0.026459503918886185
visibility: 0.9824638366699219
","x: 188.54721069335938
y: 558.8138427734375
z: 0.19692590832710266
visibility: 0.8874821662902832
","x: 180.4647674560547
y: 572.4744873046875
z: -0.024944815784692764
visibility: 0.84255051612854
","x: 205.43247985839844
y: 565.6795654296875
z: 0.0965127944946289
visibility: 0.9730303883552551
","x: 186.0835418701172
y: 581.72802734375
z: -0.1579846441745758
visibility: 0.9801212549209595
",,,,,,,,,,,,,,,,,,,,,,,,,,,,,,,,,,,,,,,,,,
9,"x: 188.34970092773438
y: 249.03273010253906
z: -0.161522775888443
visibility: 0.9998406171798706
","x: 190.35537719726562
y: 242.83700561523438
z: -0.14476241171360016
visibility: 0.9992640614509583
","x: 191.69598388671875
y: 242.99282836914062
z: -0.14481404423713684
visibility: 0.9992417693138123
","x: 192.9505615234375
y: 243.17108154296875
z: -0.1448485106229782
visibility: 0.9991216063499451
","x: 186.72093200683594
y: 242.511962890625
z: -0.14538559317588806
visibility: 0.9994230270385742
","x: 185.52456665039062
y: 242.4775848388672
z: -0.14538051187992096
visibility: 0.9994954466819763
","x: 184.31576538085938
y: 242.56674194335938
z: -0.14543043076992035
visibility: 0.9995479583740234
","x: 195.4644012451172
y: 245.97784423828125
z: -0.036703839898109436
visibility: 0.9977988600730896
","x: 181.80201721191406
y: 245.54568481445312
z: -0.04117124527692795
visibility: 0.9995099902153015
","x: 190.7335205078125
y: 255.7197265625
z: -0.12004899978637695
visibility: 0.9996705651283264
","x: 185.97515869140625
y: 255.48529052734375
z: -0.12162239849567413
visibility: 0.9998002052307129
","x: 208.5662078857422
y: 284.20379638671875
z: 0.018523570150136948
visibility: 0.9998205304145813
","x: 168.00466918945312
y: 285.0552673339844
z: 0.03202282264828682
visibility: 0.9999450445175171
","x: 215.35305786132812
y: 340.1843566894531
z: -0.08931153267621994
visibility: 0.8743835091590881
","x: 160.4407958984375
y: 340.53778076171875
z: 0.07764136791229248
visibility: 0.9838340878486633
","x: 201.07093811035156
y: 306.709228515625
z: -0.30251508951187134
visibility: 0.8781437277793884
","x: 156.79568481445312
y: 391.0745849609375
z: 0.0010446627857163548
visibility: 0.9612404704093933
","x: 195.74298095703125
y: 296.804443359375
z: -0.3490980267524719
visibility: 0.8019673824310303
","x: 155.37051391601562
y: 405.73065185546875
z: -0.021032769232988358
visibility: 0.9219691753387451
","x: 196.217529296875
y: 290.56341552734375
z: -0.3531736135482788
visibility: 0.7982732057571411
","x: 157.4629669189453
y: 405.40887451171875
z: -0.05138611048460007
visibility: 0.9242008924484253
","x: 197.0408477783203
y: 292.0824279785156
z: -0.30875280499458313
visibility: 0.7738142013549805
","x: 158.8166046142578
y: 400.853759765625
z: -0.011950935237109661
visibility: 0.8973134160041809
","x: 203.3271026611328
y: 390.06640625
z: 0.018154587596654892
visibility: 0.9994806051254272
","x: 180.25790405273438
y: 390.6072998046875
z: -0.018097903579473495
visibility: 0.9997292757034302
","x: 199.97952270507812
y: 474.8693542480469
z: 0.01538818795233965
visibility: 0.9684774279594421
","x: 180.57089233398438
y: 476.0101318359375
z: -0.1161736398935318
visibility: 0.9914888739585876
","x: 194.0513153076172
y: 544.1884765625
z: 0.19358530640602112
visibility: 0.972894012928009
","x: 179.98590087890625
y: 560.721923828125
z: -0.024126701056957245
visibility: 0.9837143421173096
","x: 189.38702392578125
y: 557.3641357421875
z: 0.20690210163593292
visibility: 0.8900247812271118
","x: 180.23147583007812
y: 572.5389404296875
z: -0.023642949759960175
visibility: 0.8511922955513
","x: 203.62628173828125
y: 565.7578735351562
z: 0.1105111613869667
visibility: 0.9729076623916626
","x: 186.32859802246094
y: 583.211181640625
z: -0.15495017170906067
visibility: 0.9811399579048157
","x: 202.53411865234375
y: 299.7064514160156
z: 0.0
","x: 201.26397705078125
y: 291.3937683105469
z: 0.0005508443573489785
","x: 199.10791015625
y: 284.50933837890625
z: -3.32173440256156e-05
","x: 197.56385803222656
y: 279.67230224609375
z: -0.001305525191128254
","x: 196.54647827148438
y: 276.02044677734375
z: -0.0025523679796606302
","x: 194.9784393310547
y: 285.19293212890625
z: -0.00018111513054464012
","x: 191.40419006347656
y: 280.7515869140625
z: -0.0022124634124338627
","x: 189.83877563476562
y: 279.2432861328125
z: -0.003084063297137618
","x: 188.59918212890625
y: 278.357421875
z: -0.0035448744893074036
","x: 193.99029541015625
y: 288.7784423828125
z: -0.002393630798906088
","x: 189.74069213867188
y: 285.8977966308594
z: -0.004098908044397831
","x: 187.6473388671875
y: 284.32958984375
z: -0.004538853652775288
","x: 185.9217987060547
y: 283.2498779296875
z: -0.004926594439893961
","x: 193.64822387695312
y: 292.8552551269531
z: -0.00483401445671916
","x: 189.4969482421875
y: 290.76654052734375
z: -0.006980794947594404
","x: 187.13807678222656
y: 289.2277526855469
z: -0.007516367826610804
","x: 185.12432861328125
y: 287.9371337890625
z: -0.007857751101255417
","x: 194.00149536132812
y: 297.15380859375
z: -0.007360375020653009
","x: 190.60562133789062
y: 296.6502380371094
z: -0.00940242875367403
","x: 188.48635864257812
y: 296.15203857421875
z: -0.0098115224391222
","x: 186.64027404785156
y: 295.70025634765625
z: -0.009961958974599838
",,,,,,,,,,,,,,,,,,,,,
10,"x: 188.34970092773438
y: 249.03273010253906
z: -0.161522775888443
visibility: 0.9998406171798706
","x: 190.35537719726562
y: 242.83700561523438
z: -0.14476241171360016
visibility: 0.9992640614509583
","x: 191.69598388671875
y: 242.99282836914062
z: -0.14481404423713684
visibility: 0.9992417693138123
","x: 192.9505615234375
y: 243.17108154296875
z: -0.1448485106229782
visibility: 0.9991216063499451
","x: 186.72093200683594
y: 242.511962890625
z: -0.14538559317588806
visibility: 0.9994230270385742
","x: 185.52456665039062
y: 242.4775848388672
z: -0.14538051187992096
visibility: 0.9994954466819763
","x: 184.31576538085938
y: 242.56674194335938
z: -0.14543043076992035
visibility: 0.9995479583740234
","x: 195.4644012451172
y: 245.97784423828125
z: -0.036703839898109436
visibility: 0.9977988600730896
","x: 181.80201721191406
y: 245.54568481445312
z: -0.04117124527692795
visibility: 0.9995099902153015
","x: 190.7335205078125
y: 255.7197265625
z: -0.12004899978637695
visibility: 0.9996705651283264
","x: 185.97515869140625
y: 255.48529052734375
z: -0.12162239849567413
visibility: 0.9998002052307129
","x: 208.5662078857422
y: 284.20379638671875
z: 0.018523570150136948
visibility: 0.9998205304145813
","x: 168.00466918945312
y: 285.0552673339844
z: 0.03202282264828682
visibility: 0.9999450445175171
","x: 215.35305786132812
y: 340.1843566894531
z: -0.08931153267621994
visibility: 0.8743835091590881
","x: 160.4407958984375
y: 340.53778076171875
z: 0.07764136791229248
visibility: 0.9838340878486633
","x: 201.07093811035156
y: 306.709228515625
z: -0.30251508951187134
visibility: 0.8781437277793884
","x: 156.79568481445312
y: 391.0745849609375
z: 0.0010446627857163548
visibility: 0.9612404704093933
","x: 195.74298095703125
y: 296.804443359375
z: -0.3490980267524719
visibility: 0.8019673824310303
","x: 155.37051391601562
y: 405.73065185546875
z: -0.021032769232988358
visibility: 0.9219691753387451
","x: 196.217529296875
y: 290.56341552734375
z: -0.3531736135482788
visibility: 0.7982732057571411
","x: 157.4629669189453
y: 405.40887451171875
z: -0.05138611048460007
visibility: 0.9242008924484253
","x: 197.0408477783203
y: 292.0824279785156
z: -0.30875280499458313
visibility: 0.7738142013549805
","x: 158.8166046142578
y: 400.853759765625
z: -0.011950935237109661
visibility: 0.8973134160041809
","x: 203.3271026611328
y: 390.06640625
z: 0.018154587596654892
visibility: 0.9994806051254272
","x: 180.25790405273438
y: 390.6072998046875
z: -0.018097903579473495
visibility: 0.9997292757034302
","x: 199.97952270507812
y: 474.8693542480469
z: 0.01538818795233965
visibility: 0.9684774279594421
","x: 180.57089233398438
y: 476.0101318359375
z: -0.1161736398935318
visibility: 0.9914888739585876
","x: 194.0513153076172
y: 544.1884765625
z: 0.19358530640602112
visibility: 0.972894012928009
","x: 179.98590087890625
y: 560.721923828125
z: -0.024126701056957245
visibility: 0.9837143421173096
","x: 189.38702392578125
y: 557.3641357421875
z: 0.20690210163593292
visibility: 0.8900247812271118
","x: 180.23147583007812
y: 572.5389404296875
z: -0.023642949759960175
visibility: 0.8511922955513
","x: 203.62628173828125
y: 565.7578735351562
z: 0.1105111613869667
visibility: 0.9729076623916626
","x: 186.32859802246094
y: 583.211181640625
z: -0.15495017170906067
visibility: 0.9811399579048157
","x: 202.53411865234375
y: 299.7064514160156
z: 0.0
","x: 201.26397705078125
y: 291.3937683105469
z: 0.0005508443573489785
","x: 199.10791015625
y: 284.50933837890625
z: -3.32173440256156e-05
","x: 197.56385803222656
y: 279.67230224609375
z: -0.001305525191128254
","x: 196.54647827148438
y: 276.02044677734375
z: -0.0025523679796606302
","x: 194.9784393310547
y: 285.19293212890625
z: -0.00018111513054464012
","x: 191.40419006347656
y: 280.7515869140625
z: -0.0022124634124338627
","x: 189.83877563476562
y: 279.2432861328125
z: -0.003084063297137618
","x: 188.59918212890625
y: 278.357421875
z: -0.0035448744893074036
","x: 193.99029541015625
y: 288.7784423828125
z: -0.002393630798906088
","x: 189.74069213867188
y: 285.8977966308594
z: -0.004098908044397831
","x: 187.6473388671875
y: 284.32958984375
z: -0.004538853652775288
","x: 185.9217987060547
y: 283.2498779296875
z: -0.004926594439893961
","x: 193.64822387695312
y: 292.8552551269531
z: -0.00483401445671916
","x: 189.4969482421875
y: 290.76654052734375
z: -0.006980794947594404
","x: 187.13807678222656
y: 289.2277526855469
z: -0.007516367826610804
","x: 185.12432861328125
y: 287.9371337890625
z: -0.007857751101255417
","x: 194.00149536132812
y: 297.15380859375
z: -0.007360375020653009
","x: 190.60562133789062
y: 296.6502380371094
z: -0.00940242875367403
","x: 188.48635864257812
y: 296.15203857421875
z: -0.0098115224391222
","x: 186.64027404785156
y: 295.70025634765625
z: -0.009961958974599838
",,,,,,,,,,,,,,,,,,,,,
11,"x: 186.47262573242188
y: 252.8410186767578
z: -0.15233930945396423
visibility: 0.9998553991317749
","x: 188.4833984375
y: 245.94879150390625
z: -0.13671807944774628
visibility: 0.9993347525596619
","x: 189.7593994140625
y: 245.83639526367188
z: -0.13676322996616364
visibility: 0.999314546585083
","x: 190.9034423828125
y: 245.73594665527344
z: -0.1368064433336258
visibility: 0.99920654296875
","x: 184.75088500976562
y: 245.62551879882812
z: -0.1368977278470993
visibility: 0.9994772672653198
","x: 183.47579956054688
y: 245.3065185546875
z: -0.13688567280769348
visibility: 0.999541163444519
","x: 182.1324462890625
y: 245.11221313476562
z: -0.13692523539066315
visibility: 0.9995883107185364
","x: 193.0845184326172
y: 247.0648193359375
z: -0.028949107974767685
visibility: 0.9980136752128601
","x: 179.4097442626953
y: 246.86831665039062
z: -0.03155091777443886
visibility: 0.9995540976524353
","x: 188.67330932617188
y: 258.23590087890625
z: -0.11020584404468536
visibility: 0.9997024536132812
","x: 183.85977172851562
y: 258.3916931152344
z: -0.11122868210077286
visibility: 0.999819278717041
","x: 205.86590576171875
y: 283.0062561035156
z: 0.025606760755181313
visibility: 0.9998371601104736
","x: 165.58218383789062
y: 281.74285888671875
z: 0.050780028104782104
visibility: 0.9999496340751648
","x: 211.77525329589844
y: 339.11224365234375
z: -0.0780014619231224
visibility: 0.8865894675254822
","x: 159.55429077148438
y: 336.4970703125
z: 0.10606124252080917
visibility: 0.9830074906349182
","x: 198.87368774414062
y: 303.9073791503906
z: -0.2895532250404358
visibility: 0.8901772499084473
","x: 154.5178985595703
y: 390.31927490234375
z: 0.034230757504701614
visibility: 0.962913453578949
","x: 193.49658203125
y: 294.1800231933594
z: -0.33546802401542664
visibility: 0.8213629126548767
","x: 151.9851837158203
y: 404.08038330078125
z: 0.014164136722683907
visibility: 0.9256671071052551
","x: 193.7519073486328
y: 288.3990783691406
z: -0.33840498328208923
visibility: 0.8180303573608398
","x: 153.5787811279297
y: 403.6021423339844
z: -0.01756727509200573
visibility: 0.9278972744941711
","x: 194.68112182617188
y: 289.95074462890625
z: -0.2951771020889282
visibility: 0.7956596612930298
","x: 155.00636291503906
y: 399.2933654785156
z: 0.020545292645692825
visibility: 0.9025044441223145
","x: 201.7962188720703
y: 387.5318603515625
z: 0.012576242908835411
visibility: 0.9994996786117554
","x: 178.55494689941406
y: 388.6665344238281
z: -0.012499285861849785
visibility: 0.9997442960739136
","x: 197.90771484375
y: 474.7500915527344
z: -0.0019931383430957794
visibility: 0.9702144265174866
","x: 179.74867248535156
y: 476.36328125
z: -0.08966322988271713
visibility: 0.9918316006660461
","x: 192.97412109375
y: 543.6560668945312
z: 0.17802467942237854
visibility: 0.972652018070221
","x: 180.1283721923828
y: 556.9971313476562
z: -0.0029326938092708588
visibility: 0.9846916198730469
","x: 188.6869659423828
y: 556.04052734375
z: 0.18987974524497986
visibility: 0.8918335437774658
","x: 180.30247497558594
y: 569.4083862304688
z: 0.005786566995084286
visibility: 0.8577070832252502
","x: 202.6751708984375
y: 564.9219970703125
z: 0.09242065250873566
visibility: 0.97279292345047
","x: 185.78921508789062
y: 582.170166015625
z: -0.11638350784778595
visibility: 0.9817700386047363
","x: 200.2710418701172
y: 301.8689270019531
z: 0.0
","x: 199.7017059326172
y: 294.07025146484375
z: 0.0010069099953398108
","x: 197.69618225097656
y: 288.200927734375
z: 0.0009661743533797562
","x: 195.8000946044922
y: 284.518798828125
z: 0.00031124227098189294
","x: 194.28794860839844
y: 282.33575439453125
z: -0.0004484887176658958
","x: 193.2442626953125
y: 287.14312744140625
z: 0.0017033007461577654
","x: 189.7364959716797
y: 283.4140319824219
z: 0.0007988843135535717
","x: 187.51156616210938
y: 281.0819091796875
z: -2.9198256015661173e-05
","x: 185.77493286132812
y: 279.2359619140625
z: -0.0006727947038598359
","x: 191.9469451904297
y: 289.7016296386719
z: -0.00040037257713265717
","x: 187.8966827392578
y: 286.39031982421875
z: -0.000916901626624167
","x: 185.3519287109375
y: 284.0361633300781
z: -0.0017312965355813503
","x: 183.3367156982422
y: 282.36395263671875
z: -0.0025963217485696077
","x: 191.18453979492188
y: 293.00079345703125
z: -0.0027054098900407553
","x: 187.13265991210938
y: 289.96820068359375
z: -0.003752844873815775
","x: 184.62176513671875
y: 287.7929992675781
z: -0.004927853122353554
","x: 182.69737243652344
y: 286.0735778808594
z: -0.0059384978376328945
","x: 190.969970703125
y: 296.8544006347656
z: -0.00508091552183032
","x: 187.5146484375
y: 296.0525817871094
z: -0.0063883839175105095
","x: 184.97860717773438
y: 295.4582214355469
z: -0.007284181192517281
","x: 182.8841552734375
y: 294.8232421875
z: -0.008018563501536846
",,,,,,,,,,,,,,,,,,,,,
12,"x: 186.47262573242188
y: 252.8410186767578
z: -0.15233930945396423
visibility: 0.9998553991317749
","x: 188.4833984375
y: 245.94879150390625
z: -0.13671807944774628
visibility: 0.9993347525596619
","x: 189.7593994140625
y: 245.83639526367188
z: -0.13676322996616364
visibility: 0.999314546585083
","x: 190.9034423828125
y: 245.73594665527344
z: -0.1368064433336258
visibility: 0.99920654296875
","x: 184.75088500976562
y: 245.62551879882812
z: -0.1368977278470993
visibility: 0.9994772672653198
","x: 183.47579956054688
y: 245.3065185546875
z: -0.13688567280769348
visibility: 0.999541163444519
","x: 182.1324462890625
y: 245.11221313476562
z: -0.13692523539066315
visibility: 0.9995883107185364
","x: 193.0845184326172
y: 247.0648193359375
z: -0.028949107974767685
visibility: 0.9980136752128601
","x: 179.4097442626953
y: 246.86831665039062
z: -0.03155091777443886
visibility: 0.9995540976524353
","x: 188.67330932617188
y: 258.23590087890625
z: -0.11020584404468536
visibility: 0.9997024536132812
","x: 183.85977172851562
y: 258.3916931152344
z: -0.11122868210077286
visibility: 0.999819278717041
","x: 205.86590576171875
y: 283.0062561035156
z: 0.025606760755181313
visibility: 0.9998371601104736
","x: 165.58218383789062
y: 281.74285888671875
z: 0.050780028104782104
visibility: 0.9999496340751648
","x: 211.77525329589844
y: 339.11224365234375
z: -0.0780014619231224
visibility: 0.8865894675254822
","x: 159.55429077148438
y: 336.4970703125
z: 0.10606124252080917
visibility: 0.9830074906349182
","x: 198.87368774414062
y: 303.9073791503906
z: -0.2895532250404358
visibility: 0.8901772499084473
","x: 154.5178985595703
y: 390.31927490234375
z: 0.034230757504701614
visibility: 0.962913453578949
","x: 193.49658203125
y: 294.1800231933594
z: -0.33546802401542664
visibility: 0.8213629126548767
","x: 151.9851837158203
y: 404.08038330078125
z: 0.014164136722683907
visibility: 0.9256671071052551
","x: 193.7519073486328
y: 288.3990783691406
z: -0.33840498328208923
visibility: 0.8180303573608398
","x: 153.5787811279297
y: 403.6021423339844
z: -0.01756727509200573
visibility: 0.9278972744941711
","x: 194.68112182617188
y: 289.95074462890625
z: -0.2951771020889282
visibility: 0.7956596612930298
","x: 155.00636291503906
y: 399.2933654785156
z: 0.020545292645692825
visibility: 0.9025044441223145
","x: 201.7962188720703
y: 387.5318603515625
z: 0.012576242908835411
visibility: 0.9994996786117554
","x: 178.55494689941406
y: 388.6665344238281
z: -0.012499285861849785
visibility: 0.9997442960739136
","x: 197.90771484375
y: 474.7500915527344
z: -0.0019931383430957794
visibility: 0.9702144265174866
","x: 179.74867248535156
y: 476.36328125
z: -0.08966322988271713
visibility: 0.9918316006660461
","x: 192.97412109375
y: 543.6560668945312
z: 0.17802467942237854
visibility: 0.972652018070221
","x: 180.1283721923828
y: 556.9971313476562
z: -0.0029326938092708588
visibility: 0.9846916198730469
","x: 188.6869659423828
y: 556.04052734375
z: 0.18987974524497986
visibility: 0.8918335437774658
","x: 180.30247497558594
y: 569.4083862304688
z: 0.005786566995084286
visibility: 0.8577070832252502
","x: 202.6751708984375
y: 564.9219970703125
z: 0.09242065250873566
visibility: 0.97279292345047
","x: 185.78921508789062
y: 582.170166015625
z: -0.11638350784778595
visibility: 0.9817700386047363
","x: 200.2710418701172
y: 301.8689270019531
z: 0.0
","x: 199.7017059326172
y: 294.07025146484375
z: 0.0010069099953398108
","x: 197.69618225097656
y: 288.200927734375
z: 0.0009661743533797562
","x: 195.8000946044922
y: 284.518798828125
z: 0.00031124227098189294
","x: 194.28794860839844
y: 282.33575439453125
z: -0.0004484887176658958
","x: 193.2442626953125
y: 287.14312744140625
z: 0.0017033007461577654
","x: 189.7364959716797
y: 283.4140319824219
z: 0.0007988843135535717
","x: 187.51156616210938
y: 281.0819091796875
z: -2.9198256015661173e-05
","x: 185.77493286132812
y: 279.2359619140625
z: -0.0006727947038598359
","x: 191.9469451904297
y: 289.7016296386719
z: -0.00040037257713265717
","x: 187.8966827392578
y: 286.39031982421875
z: -0.000916901626624167
","x: 185.3519287109375
y: 284.0361633300781
z: -0.0017312965355813503
","x: 183.3367156982422
y: 282.36395263671875
z: -0.0025963217485696077
","x: 191.18453979492188
y: 293.00079345703125
z: -0.0027054098900407553
","x: 187.13265991210938
y: 289.96820068359375
z: -0.003752844873815775
","x: 184.62176513671875
y: 287.7929992675781
z: -0.004927853122353554
","x: 182.69737243652344
y: 286.0735778808594
z: -0.0059384978376328945
","x: 190.969970703125
y: 296.8544006347656
z: -0.00508091552183032
","x: 187.5146484375
y: 296.0525817871094
z: -0.0063883839175105095
","x: 184.97860717773438
y: 295.4582214355469
z: -0.007284181192517281
","x: 182.8841552734375
y: 294.8232421875
z: -0.008018563501536846
",,,,,,,,,,,,,,,,,,,,,
13,"x: 187.05812072753906
y: 244.05657958984375
z: -0.12777699530124664
visibility: 0.9998677372932434
","x: 188.67471313476562
y: 239.53707885742188
z: -0.10875087976455688
visibility: 0.9993959069252014
","x: 189.75588989257812
y: 239.82911682128906
z: -0.1087951511144638
visibility: 0.9993772506713867
","x: 190.73968505859375
y: 240.08993530273438
z: -0.108822301030159
visibility: 0.9992805123329163
","x: 185.1499481201172
y: 238.74581909179688
z: -0.11111439764499664
visibility: 0.9995236396789551
","x: 183.8035430908203
y: 238.544677734375
z: -0.11110331118106842
visibility: 0.9995794296264648
","x: 182.45513916015625
y: 238.47796630859375
z: -0.11115361750125885
visibility: 0.9996222853660583
","x: 191.9246368408203
y: 243.45843505859375
z: -0.0004423352947924286
visibility: 0.9981983304023743
","x: 179.208740234375
y: 242.49871826171875
z: -0.013415682129561901
visibility: 0.9995889067649841
","x: 189.13729858398438
y: 250.9798583984375
z: -0.08727854490280151
visibility: 0.9997295141220093
","x: 184.0463409423828
y: 250.55580139160156
z: -0.09125913679599762
visibility: 0.9998351335525513
","x: 204.3486328125
y: 281.5887145996094
z: 0.041198357939720154
visibility: 0.9998489618301392
","x: 165.00599670410156
y: 281.34466552734375
z: 0.05124157667160034
visibility: 0.9999520778656006
","x: 210.4950714111328
y: 337.4443054199219
z: -0.06567509472370148
visibility: 0.8972854614257812
","x: 158.43563842773438
y: 334.1790466308594
z: 0.09638095647096634
visibility: 0.9828118681907654
","x: 195.2250213623047
y: 303.329345703125
z: -0.28028687834739685
visibility: 0.9009143114089966
","x: 153.10202026367188
y: 384.54412841796875
z: 0.03246790170669556
visibility: 0.9647164940834045
","x: 189.471435546875
y: 293.6053161621094
z: -0.3259161114692688
visibility: 0.8386028409004211
","x: 151.63629150390625
y: 400.7261657714844
z: 0.011645211838185787
visibility: 0.9293317198753357
","x: 189.90492248535156
y: 287.61114501953125
z: -0.32828259468078613
visibility: 0.8355922698974609
","x: 153.39617919921875
y: 400.30572509765625
z: -0.017022868618369102
visibility: 0.9315382242202759
","x: 190.93191528320312
y: 289.28668212890625
z: -0.2860138416290283
visibility: 0.8149780035018921
","x: 154.5592041015625
y: 394.7939758300781
z: 0.019905228167772293
visibility: 0.9075795412063599
","x: 200.45330810546875
y: 387.37646484375
z: 0.01509012095630169
visibility: 0.999510645866394
","x: 178.06118774414062
y: 388.6413879394531
z: -0.015057750046253204
visibility: 0.9997528195381165
","x: 197.62908935546875
y: 474.3912353515625
z: -0.0011695449938997626
visibility: 0.9707949161529541
","x: 179.55377197265625
y: 476.73095703125
z: -0.05988519638776779
visibility: 0.9916449189186096
","x: 192.8155975341797
y: 544.4501342773438
z: 0.18367032706737518
visibility: 0.9712815880775452
","x: 180.30723571777344
y: 557.282958984375
z: 0.06113124638795853
visibility: 0.9850975275039673
","x: 188.61770629882812
y: 556.1128540039062
z: 0.19740471243858337
visibility: 0.8904199600219727
","x: 180.7100372314453
y: 569.718017578125
z: 0.06658157706260681
visibility: 0.8571074604988098
","x: 201.92724609375
y: 565.1258544921875
z: 0.10265674442052841
visibility: 0.9719875454902649
","x: 185.8449249267578
y: 582.698486328125
z: -0.05458750203251839
visibility: 0.981621503829956
","x: 197.57357788085938
y: 305.04840087890625
z: 0.0
","x: 197.21279907226562
y: 297.0885925292969
z: 0.00028035789728164673
","x: 195.56932067871094
y: 290.9413757324219
z: 4.216389424982481e-05
","x: 193.99888610839844
y: 286.81939697265625
z: -0.0008040629327297211
","x: 193.01016235351562
y: 283.49945068359375
z: -0.001672520418651402
","x: 190.82443237304688
y: 290.38916015625
z: 0.0018519184086471796
","x: 187.71060180664062
y: 286.3332824707031
z: 0.0007908440893515944
","x: 185.80262756347656
y: 283.8660888671875
z: -0.00014627307245973498
","x: 184.22698974609375
y: 281.84161376953125
z: -0.0008213380933739245
","x: 189.3512420654297
y: 293.2937927246094
z: 1.5887311747064814e-05
","x: 185.51361083984375
y: 289.4071044921875
z: -0.000568150426261127
","x: 183.19664001464844
y: 286.89959716796875
z: -0.0015337266959249973
","x: 181.27145385742188
y: 285.06817626953125
z: -0.0024743201211094856
","x: 188.6007843017578
y: 296.68450927734375
z: -0.0021768840961158276
","x: 184.8496856689453
y: 293.5550842285156
z: -0.003372684819623828
","x: 182.51710510253906
y: 291.326416015625
z: -0.0047238292172551155
","x: 180.63125610351562
y: 289.6341247558594
z: -0.0057769762352108955
","x: 188.56134033203125
y: 300.4978332519531
z: -0.00452258950099349
","x: 185.50701904296875
y: 299.41693115234375
z: -0.005790879484266043
","x: 183.40988159179688
y: 298.65435791015625
z: -0.006646743509918451
","x: 181.62344360351562
y: 298.0123596191406
z: -0.007320433855056763
",,,,,,,,,,,,,,,,,,,,,
14,"x: 187.05812072753906
y: 244.05657958984375
z: -0.12777699530124664
visibility: 0.9998677372932434
","x: 188.67471313476562
y: 239.53707885742188
z: -0.10875087976455688
visibility: 0.9993959069252014
","x: 189.75588989257812
y: 239.82911682128906
z: -0.1087951511144638
visibility: 0.9993772506713867
","x: 190.73968505859375
y: 240.08993530273438
z: -0.108822301030159
visibility: 0.9992805123329163
","x: 185.1499481201172
y: 238.74581909179688
z: -0.11111439764499664
visibility: 0.9995236396789551
","x: 183.8035430908203
y: 238.544677734375
z: -0.11110331118106842
visibility: 0.9995794296264648
","x: 182.45513916015625
y: 238.47796630859375
z: -0.11115361750125885
visibility: 0.9996222853660583
","x: 191.9246368408203
y: 243.45843505859375
z: -0.0004423352947924286
visibility: 0.9981983304023743
","x: 179.208740234375
y: 242.49871826171875
z: -0.013415682129561901
visibility: 0.9995889067649841
","x: 189.13729858398438
y: 250.9798583984375
z: -0.08727854490280151
visibility: 0.9997295141220093
","x: 184.0463409423828
y: 250.55580139160156
z: -0.09125913679599762
visibility: 0.9998351335525513
","x: 204.3486328125
y: 281.5887145996094
z: 0.041198357939720154
visibility: 0.9998489618301392
","x: 165.00599670410156
y: 281.34466552734375
z: 0.05124157667160034
visibility: 0.9999520778656006
","x: 210.4950714111328
y: 337.4443054199219
z: -0.06567509472370148
visibility: 0.8972854614257812
","x: 158.43563842773438
y: 334.1790466308594
z: 0.09638095647096634
visibility: 0.9828118681907654
","x: 195.2250213623047
y: 303.329345703125
z: -0.28028687834739685
visibility: 0.9009143114089966
","x: 153.10202026367188
y: 384.54412841796875
z: 0.03246790170669556
visibility: 0.9647164940834045
","x: 189.471435546875
y: 293.6053161621094
z: -0.3259161114692688
visibility: 0.8386028409004211
","x: 151.63629150390625
y: 400.7261657714844
z: 0.011645211838185787
visibility: 0.9293317198753357
","x: 189.90492248535156
y: 287.61114501953125
z: -0.32828259468078613
visibility: 0.8355922698974609
","x: 153.39617919921875
y: 400.30572509765625
z: -0.017022868618369102
visibility: 0.9315382242202759
","x: 190.93191528320312
y: 289.28668212890625
z: -0.2860138416290283
visibility: 0.8149780035018921
","x: 154.5592041015625
y: 394.7939758300781
z: 0.019905228167772293
visibility: 0.9075795412063599
","x: 200.45330810546875
y: 387.37646484375
z: 0.01509012095630169
visibility: 0.999510645866394
","x: 178.06118774414062
y: 388.6413879394531
z: -0.015057750046253204
visibility: 0.9997528195381165
","x: 197.62908935546875
y: 474.3912353515625
z: -0.0011695449938997626
visibility: 0.9707949161529541
","x: 179.55377197265625
y: 476.73095703125
z: -0.05988519638776779
visibility: 0.9916449189186096
","x: 192.8155975341797
y: 544.4501342773438
z: 0.18367032706737518
visibility: 0.9712815880775452
","x: 180.30723571777344
y: 557.282958984375
z: 0.06113124638795853
visibility: 0.9850975275039673
","x: 188.61770629882812
y: 556.1128540039062
z: 0.19740471243858337
visibility: 0.8904199600219727
","x: 180.7100372314453
y: 569.718017578125
z: 0.06658157706260681
visibility: 0.8571074604988098
","x: 201.92724609375
y: 565.1258544921875
z: 0.10265674442052841
visibility: 0.9719875454902649
","x: 185.8449249267578
y: 582.698486328125
z: -0.05458750203251839
visibility: 0.981621503829956
","x: 197.57357788085938
y: 305.04840087890625
z: 0.0
","x: 197.21279907226562
y: 297.0885925292969
z: 0.00028035789728164673
","x: 195.56932067871094
y: 290.9413757324219
z: 4.216389424982481e-05
","x: 193.99888610839844
y: 286.81939697265625
z: -0.0008040629327297211
","x: 193.01016235351562
y: 283.49945068359375
z: -0.001672520418651402
","x: 190.82443237304688
y: 290.38916015625
z: 0.0018519184086471796
","x: 187.71060180664062
y: 286.3332824707031
z: 0.0007908440893515944
","x: 185.80262756347656
y: 283.8660888671875
z: -0.00014627307245973498
","x: 184.22698974609375
y: 281.84161376953125
z: -0.0008213380933739245
","x: 189.3512420654297
y: 293.2937927246094
z: 1.5887311747064814e-05
","x: 185.51361083984375
y: 289.4071044921875
z: -0.000568150426261127
","x: 183.19664001464844
y: 286.89959716796875
z: -0.0015337266959249973
","x: 181.27145385742188
y: 285.06817626953125
z: -0.0024743201211094856
","x: 188.6007843017578
y: 296.68450927734375
z: -0.0021768840961158276
","x: 184.8496856689453
y: 293.5550842285156
z: -0.003372684819623828
","x: 182.51710510253906
y: 291.326416015625
z: -0.0047238292172551155
","x: 180.63125610351562
y: 289.6341247558594
z: -0.0057769762352108955
","x: 188.56134033203125
y: 300.4978332519531
z: -0.00452258950099349
","x: 185.50701904296875
y: 299.41693115234375
z: -0.005790879484266043
","x: 183.40988159179688
y: 298.65435791015625
z: -0.006646743509918451
","x: 181.62344360351562
y: 298.0123596191406
z: -0.007320433855056763
",,,,,,,,,,,,,,,,,,,,,
15,"x: 186.41981506347656
y: 247.55270385742188
z: -0.1786462515592575
visibility: 0.9998795986175537
","x: 188.071044921875
y: 242.16168212890625
z: -0.16317851841449738
visibility: 0.9994529485702515
","x: 189.1422882080078
y: 242.28411865234375
z: -0.1632184237241745
visibility: 0.9994357228279114
","x: 190.12240600585938
y: 242.3980712890625
z: -0.1632523089647293
visibility: 0.9993488192558289
","x: 184.6125030517578
y: 241.37757873535156
z: -0.16618892550468445
visibility: 0.9995676875114441
","x: 183.30276489257812
y: 241.0055694580078
z: -0.16619831323623657
visibility: 0.9996168613433838
","x: 181.9895782470703
y: 240.71189880371094
z: -0.16624879837036133
visibility: 0.9996557831764221
","x: 191.2796630859375
y: 244.91351318359375
z: -0.054637737572193146
visibility: 0.9983681440353394
","x: 178.92222595214844
y: 243.6007537841797
z: -0.06862059980630875
visibility: 0.999624490737915
","x: 188.45594787597656
y: 253.4686279296875
z: -0.13826075196266174
visibility: 0.9997544884681702
","x: 183.56320190429688
y: 253.17373657226562
z: -0.14256319403648376
visibility: 0.9998502731323242
","x: 204.025146484375
y: 281.46429443359375
z: 0.00645993510261178
visibility: 0.9998595118522644
","x: 163.92001342773438
y: 280.782958984375
z: 0.0033626991789788008
visibility: 0.9999551177024841
","x: 210.1470184326172
y: 337.1107177734375
z: -0.08994488418102264
visibility: 0.9070339798927307
","x: 149.6980743408203
y: 330.1175537109375
z: 0.034322671592235565
visibility: 0.9838070273399353
","x: 194.2418670654297
y: 305.5850830078125
z: -0.31456613540649414
visibility: 0.9105650782585144
","x: 139.0289306640625
y: 372.38232421875
z: 0.02196483686566353
visibility: 0.9663559198379517
","x: 188.2834930419922
y: 297.468505859375
z: -0.36187824606895447
visibility: 0.8539747595787048
","x: 137.63037109375
y: 388.32037353515625
z: -0.019116360694169998
visibility: 0.932016909122467
","x: 188.96234130859375
y: 291.0940856933594
z: -0.36247915029525757
visibility: 0.8512503504753113
","x: 140.29476928710938
y: 388.33087158203125
z: -0.06935727596282959
visibility: 0.9342004060745239
","x: 189.99105834960938
y: 293.08465576171875
z: -0.31942853331565857
visibility: 0.8320668339729309
","x: 141.37130737304688
y: 382.4405517578125
z: -0.007200905587524176
visibility: 0.9114864468574524
","x: 199.4061279296875
y: 387.2532653808594
z: 0.016273070126771927
visibility: 0.9994847178459167
","x: 177.0778350830078
y: 388.3285217285156
z: -0.016255155205726624
visibility: 0.9997526407241821
","x: 198.67916870117188
y: 473.7308349609375
z: 0.012292331084609032
visibility: 0.9709900617599487
","x: 177.39749145507812
y: 474.5827941894531
z: -0.10764627158641815
visibility: 0.9918792247772217
","x: 192.59681701660156
y: 544.2926635742188
z: 0.17656178772449493
visibility: 0.9713841676712036
","x: 178.24221801757812
y: 557.1671142578125
z: -0.008406085893511772
visibility: 0.9858987331390381
","x: 187.59085083007812
y: 556.5035400390625
z: 0.1852940022945404
visibility: 0.8943217992782593
","x: 179.11097717285156
y: 570.4992065429688
z: -0.006202579941600561
visibility: 0.8626278638839722
","x: 203.63095092773438
y: 564.6678466796875
z: 0.0827547088265419
visibility: 0.9725828170776367
","x: 184.0572967529297
y: 581.1837158203125
z: -0.13945801556110382
visibility: 0.9823256134986877
","x: 195.1511993408203
y: 306.1417236328125
z: 0.0
","x: 193.64434814453125
y: 297.82080078125
z: 0.002396714873611927
","x: 191.17799377441406
y: 291.76617431640625
z: 0.003174460493028164
","x: 189.58460998535156
y: 287.2768859863281
z: 0.0030768446158617735
","x: 189.33937072753906
y: 283.725830078125
z: 0.0029086507856845856
","x: 188.24668884277344
y: 291.5473327636719
z: 0.003993989899754524
","x: 185.35939025878906
y: 287.18841552734375
z: 0.003645337885245681
","x: 183.2906036376953
y: 284.4530029296875
z: 0.0031504675280302763
","x: 181.60548400878906
y: 282.19366455078125
z: 0.002780941780656576
","x: 186.7593536376953
y: 294.0655517578125
z: 0.00154193548951298
","x: 183.51766967773438
y: 289.6664733886719
z: 0.0016163194086402655
","x: 181.39288330078125
y: 286.349365234375
z: 0.0011528180912137032
","x: 179.5566864013672
y: 283.6161193847656
z: 0.0005502910353243351
","x: 185.75439453125
y: 297.3056335449219
z: -0.0010854204883798957
","x: 182.35714721679688
y: 293.7392578125
z: -0.0014399368083104491
","x: 180.17420959472656
y: 291.0035095214844
z: -0.002123428974300623
","x: 178.4049530029297
y: 288.7781677246094
z: -0.0028235414065420628
","x: 185.31927490234375
y: 301.0505065917969
z: -0.003717708634212613
","x: 182.236083984375
y: 299.6336364746094
z: -0.004323635715991259
","x: 180.1021728515625
y: 298.7503356933594
z: -0.004742350894957781
","x: 178.30441284179688
y: 297.9430847167969
z: -0.005135714076459408
",,,,,,,,,,,,,,,,,,,,,
16,"x: 186.41981506347656
y: 247.55270385742188
z: -0.1786462515592575
visibility: 0.9998795986175537
","x: 188.071044921875
y: 242.16168212890625
z: -0.16317851841449738
visibility: 0.9994529485702515
","x: 189.1422882080078
y: 242.28411865234375
z: -0.1632184237241745
visibility: 0.9994357228279114
","x: 190.12240600585938
y: 242.3980712890625
z: -0.1632523089647293
visibility: 0.9993488192558289
","x: 184.6125030517578
y: 241.37757873535156
z: -0.16618892550468445
visibility: 0.9995676875114441
","x: 183.30276489257812
y: 241.0055694580078
z: -0.16619831323623657
visibility: 0.9996168613433838
","x: 181.9895782470703
y: 240.71189880371094
z: -0.16624879837036133
visibility: 0.9996557831764221
","x: 191.2796630859375
y: 244.91351318359375
z: -0.054637737572193146
visibility: 0.9983681440353394
","x: 178.92222595214844
y: 243.6007537841797
z: -0.06862059980630875
visibility: 0.999624490737915
","x: 188.45594787597656
y: 253.4686279296875
z: -0.13826075196266174
visibility: 0.9997544884681702
","x: 183.56320190429688
y: 253.17373657226562
z: -0.14256319403648376
visibility: 0.9998502731323242
","x: 204.025146484375
y: 281.46429443359375
z: 0.00645993510261178
visibility: 0.9998595118522644
","x: 163.92001342773438
y: 280.782958984375
z: 0.0033626991789788008
visibility: 0.9999551177024841
","x: 210.1470184326172
y: 337.1107177734375
z: -0.08994488418102264
visibility: 0.9070339798927307
","x: 149.6980743408203
y: 330.1175537109375
z: 0.034322671592235565
visibility: 0.9838070273399353
","x: 194.2418670654297
y: 305.5850830078125
z: -0.31456613540649414
visibility: 0.9105650782585144
","x: 139.0289306640625
y: 372.38232421875
z: 0.02196483686566353
visibility: 0.9663559198379517
","x: 188.2834930419922
y: 297.468505859375
z: -0.36187824606895447
visibility: 0.8539747595787048
","x: 137.63037109375
y: 388.32037353515625
z: -0.019116360694169998
visibility: 0.932016909122467
","x: 188.96234130859375
y: 291.0940856933594
z: -0.36247915029525757
visibility: 0.8512503504753113
","x: 140.29476928710938
y: 388.33087158203125
z: -0.06935727596282959
visibility: 0.9342004060745239
","x: 189.99105834960938
y: 293.08465576171875
z: -0.31942853331565857
visibility: 0.8320668339729309
","x: 141.37130737304688
y: 382.4405517578125
z: -0.007200905587524176
visibility: 0.9114864468574524
","x: 199.4061279296875
y: 387.2532653808594
z: 0.016273070126771927
visibility: 0.9994847178459167
","x: 177.0778350830078
y: 388.3285217285156
z: -0.016255155205726624
visibility: 0.9997526407241821
","x: 198.67916870117188
y: 473.7308349609375
z: 0.012292331084609032
visibility: 0.9709900617599487
","x: 177.39749145507812
y: 474.5827941894531
z: -0.10764627158641815
visibility: 0.9918792247772217
","x: 192.59681701660156
y: 544.2926635742188
z: 0.17656178772449493
visibility: 0.9713841676712036
","x: 178.24221801757812
y: 557.1671142578125
z: -0.008406085893511772
visibility: 0.9858987331390381
","x: 187.59085083007812
y: 556.5035400390625
z: 0.1852940022945404
visibility: 0.8943217992782593
","x: 179.11097717285156
y: 570.4992065429688
z: -0.006202579941600561
visibility: 0.8626278638839722
","x: 203.63095092773438
y: 564.6678466796875
z: 0.0827547088265419
visibility: 0.9725828170776367
","x: 184.0572967529297
y: 581.1837158203125
z: -0.13945801556110382
visibility: 0.9823256134986877
","x: 195.1511993408203
y: 306.1417236328125
z: 0.0
","x: 193.64434814453125
y: 297.82080078125
z: 0.002396714873611927
","x: 191.17799377441406
y: 291.76617431640625
z: 0.003174460493028164
","x: 189.58460998535156
y: 287.2768859863281
z: 0.0030768446158617735
","x: 189.33937072753906
y: 283.725830078125
z: 0.0029086507856845856
","x: 188.24668884277344
y: 291.5473327636719
z: 0.003993989899754524
","x: 185.35939025878906
y: 287.18841552734375
z: 0.003645337885245681
","x: 183.2906036376953
y: 284.4530029296875
z: 0.0031504675280302763
","x: 181.60548400878906
y: 282.19366455078125
z: 0.002780941780656576
","x: 186.7593536376953
y: 294.0655517578125
z: 0.00154193548951298
","x: 183.51766967773438
y: 289.6664733886719
z: 0.0016163194086402655
","x: 181.39288330078125
y: 286.349365234375
z: 0.0011528180912137032
","x: 179.5566864013672
y: 283.6161193847656
z: 0.0005502910353243351
","x: 185.75439453125
y: 297.3056335449219
z: -0.0010854204883798957
","x: 182.35714721679688
y: 293.7392578125
z: -0.0014399368083104491
","x: 180.17420959472656
y: 291.0035095214844
z: -0.002123428974300623
","x: 178.4049530029297
y: 288.7781677246094
z: -0.0028235414065420628
","x: 185.31927490234375
y: 301.0505065917969
z: -0.003717708634212613
","x: 182.236083984375
y: 299.6336364746094
z: -0.004323635715991259
","x: 180.1021728515625
y: 298.7503356933594
z: -0.004742350894957781
","x: 178.30441284179688
y: 297.9430847167969
z: -0.005135714076459408
",,,,,,,,,,,,,,,,,,,,,
17,"x: 185.8137664794922
y: 246.19485473632812
z: -0.22122585773468018
visibility: 0.9998815655708313
","x: 187.31842041015625
y: 241.14276123046875
z: -0.20405611395835876
visibility: 0.9994853734970093
","x: 188.4473876953125
y: 241.50949096679688
z: -0.2041126936674118
visibility: 0.9994679093360901
","x: 189.47634887695312
y: 241.92315673828125
z: -0.20413938164710999
visibility: 0.9993897676467896
","x: 183.82102966308594
y: 240.50631713867188
z: -0.20569495856761932
visibility: 0.9995813965797424
","x: 182.52395629882812
y: 240.4466552734375
z: -0.20571593940258026
visibility: 0.9996182322502136
","x: 181.23789978027344
y: 240.51626586914062
z: -0.2057170867919922
visibility: 0.9996506571769714
","x: 190.7847442626953
y: 245.7640380859375
z: -0.0949377566576004
visibility: 0.9984462857246399
","x: 178.0313720703125
y: 244.9183807373047
z: -0.10613223165273666
visibility: 0.9996095895767212
","x: 188.15859985351562
y: 252.8518829345703
z: -0.18104811012744904
visibility: 0.9997544288635254
","x: 183.25924682617188
y: 252.959228515625
z: -0.18441994488239288
visibility: 0.9998484253883362
","x: 202.94879150390625
y: 282.0103759765625
z: -0.04317504167556763
visibility: 0.9998586773872375
","x: 163.09906005859375
y: 281.29083251953125
z: -0.04274090752005577
visibility: 0.9999530911445618
","x: 209.5843505859375
y: 336.3561706542969
z: -0.15423911809921265
visibility: 0.9150501489639282
","x: 140.24053955078125
y: 303.5043640136719
z: -0.03655824437737465
visibility: 0.9848988652229309
","x: 193.1750946044922
y: 306.7773132324219
z: -0.36343830823898315
visibility: 0.9190366864204407
","x: 115.32144927978516
y: 317.77728271484375
z: -0.12452228367328644
visibility: 0.9683948755264282
","x: 186.63198852539062
y: 299.22021484375
z: -0.40911585092544556
visibility: 0.8673983216285706
","x: 109.60179901123047
y: 324.72210693359375
z: -0.15321281552314758
visibility: 0.935469388961792
","x: 187.64291381835938
y: 292.66302490234375
z: -0.4101462960243225
visibility: 0.864942729473114
","x: 109.16820526123047
y: 323.87335205078125
z: -0.18443427979946136
visibility: 0.9378592371940613
","x: 188.73667907714844
y: 294.7606506347656
z: -0.36913424730300903
visibility: 0.8470430374145508
","x: 111.11174011230469
y: 322.6908874511719
z: -0.14213290810585022
visibility: 0.9170311689376831
","x: 196.651123046875
y: 389.53497314453125
z: 0.024311048910021782
visibility: 0.9995057582855225
","x: 174.1630401611328
y: 389.6042175292969
z: -0.024357855319976807
visibility: 0.9997655153274536
","x: 199.7406005859375
y: 473.4215087890625
z: 0.06684897094964981
visibility: 0.9719203114509583
","x: 169.8546142578125
y: 468.3993225097656
z: -0.1511712521314621
visibility: 0.9924544095993042
","x: 192.3181610107422
y: 544.7037963867188
z: 0.20548832416534424
visibility: 0.9729524254798889
","x: 157.16139221191406
y: 543.057373046875
z: -0.07267792522907257
visibility: 0.9869823455810547
","x: 187.38006591796875
y: 557.0896606445312
z: 0.21296794712543488
visibility: 0.8990986347198486
","x: 156.0526885986328
y: 549.2350463867188
z: -0.07128376513719559
visibility: 0.8672131896018982
","x: 204.90631103515625
y: 564.4384155273438
z: 0.11658979952335358
visibility: 0.9737830758094788
","x: 159.62176513671875
y: 579.080078125
z: -0.19857798516750336
visibility: 0.9836031198501587
","x: 192.66371154785156
y: 307.8057556152344
z: 0.0
","x: 191.8251495361328
y: 300.1537780761719
z: 0.0013636734802275896
","x: 189.951904296875
y: 293.92529296875
z: 0.001533358357846737
","x: 188.7288818359375
y: 289.02203369140625
z: 0.0010508786654099822
","x: 188.3456573486328
y: 285.00311279296875
z: 0.0005179207073524594
","x: 186.26998901367188
y: 293.2171325683594
z: 0.0024237879551947117
","x: 183.6061248779297
y: 288.03790283203125
z: 0.0016012302367016673
","x: 181.77145385742188
y: 285.0948791503906
z: 0.0008581236470490694
","x: 180.3293914794922
y: 282.7987365722656
z: 0.00034116031019948423
","x: 184.84776306152344
y: 295.4861755371094
z: 0.00033181477920152247
","x: 181.57679748535156
y: 290.421630859375
z: -8.396052726311609e-05
","x: 179.45233154296875
y: 286.94781494140625
z: -0.0008688670350238681
","x: 177.7884979248047
y: 284.17315673828125
z: -0.0016616379143670201
","x: 183.85012817382812
y: 298.4749755859375
z: -0.001961486879736185
","x: 180.38426208496094
y: 294.2159423828125
z: -0.0027763766702264547
","x: 178.17160034179688
y: 291.1905517578125
z: -0.0037939271423965693
","x: 176.42709350585938
y: 288.6226806640625
z: -0.004674533382058144
","x: 183.36846923828125
y: 302.0302734375
z: -0.004302948713302612
","x: 180.4188690185547
y: 300.08160400390625
z: -0.0051825037226080894
","x: 178.4288787841797
y: 298.77099609375
z: -0.005796419456601143
","x: 176.75523376464844
y: 297.40203857421875
z: -0.0063400184735655785
",,,,,,,,,,,,,,,,,,,,,
18,"x: 185.8137664794922
y: 246.19485473632812
z: -0.22122585773468018
visibility: 0.9998815655708313
","x: 187.31842041015625
y: 241.14276123046875
z: -0.20405611395835876
visibility: 0.9994853734970093
","x: 188.4473876953125
y: 241.50949096679688
z: -0.2041126936674118
visibility: 0.9994679093360901
","x: 189.47634887695312
y: 241.92315673828125
z: -0.20413938164710999
visibility: 0.9993897676467896
","x: 183.82102966308594
y: 240.50631713867188
z: -0.20569495856761932
visibility: 0.9995813965797424
","x: 182.52395629882812
y: 240.4466552734375
z: -0.20571593940258026
visibility: 0.9996182322502136
","x: 181.23789978027344
y: 240.51626586914062
z: -0.2057170867919922
visibility: 0.9996506571769714
","x: 190.7847442626953
y: 245.7640380859375
z: -0.0949377566576004
visibility: 0.9984462857246399
","x: 178.0313720703125
y: 244.9183807373047
z: -0.10613223165273666
visibility: 0.9996095895767212
","x: 188.15859985351562
y: 252.8518829345703
z: -0.18104811012744904
visibility: 0.9997544288635254
","x: 183.25924682617188
y: 252.959228515625
z: -0.18441994488239288
visibility: 0.9998484253883362
","x: 202.94879150390625
y: 282.0103759765625
z: -0.04317504167556763
visibility: 0.9998586773872375
","x: 163.09906005859375
y: 281.29083251953125
z: -0.04274090752005577
visibility: 0.9999530911445618
","x: 209.5843505859375
y: 336.3561706542969
z: -0.15423911809921265
visibility: 0.9150501489639282
","x: 140.24053955078125
y: 303.5043640136719
z: -0.03655824437737465
visibility: 0.9848988652229309
","x: 193.1750946044922
y: 306.7773132324219
z: -0.36343830823898315
visibility: 0.9190366864204407
","x: 115.32144927978516
y: 317.77728271484375
z: -0.12452228367328644
visibility: 0.9683948755264282
","x: 186.63198852539062
y: 299.22021484375
z: -0.40911585092544556
visibility: 0.8673983216285706
","x: 109.60179901123047
y: 324.72210693359375
z: -0.15321281552314758
visibility: 0.935469388961792
","x: 187.64291381835938
y: 292.66302490234375
z: -0.4101462960243225
visibility: 0.864942729473114
","x: 109.16820526123047
y: 323.87335205078125
z: -0.18443427979946136
visibility: 0.9378592371940613
","x: 188.73667907714844
y: 294.7606506347656
z: -0.36913424730300903
visibility: 0.8470430374145508
","x: 111.11174011230469
y: 322.6908874511719
z: -0.14213290810585022
visibility: 0.9170311689376831
","x: 196.651123046875
y: 389.53497314453125
z: 0.024311048910021782
visibility: 0.9995057582855225
","x: 174.1630401611328
y: 389.6042175292969
z: -0.024357855319976807
visibility: 0.9997655153274536
","x: 199.7406005859375
y: 473.4215087890625
z: 0.06684897094964981
visibility: 0.9719203114509583
","x: 169.8546142578125
y: 468.3993225097656
z: -0.1511712521314621
visibility: 0.9924544095993042
","x: 192.3181610107422
y: 544.7037963867188
z: 0.20548832416534424
visibility: 0.9729524254798889
","x: 157.16139221191406
y: 543.057373046875
z: -0.07267792522907257
visibility: 0.9869823455810547
","x: 187.38006591796875
y: 557.0896606445312
z: 0.21296794712543488
visibility: 0.8990986347198486
","x: 156.0526885986328
y: 549.2350463867188
z: -0.07128376513719559
visibility: 0.8672131896018982
","x: 204.90631103515625
y: 564.4384155273438
z: 0.11658979952335358
visibility: 0.9737830758094788
","x: 159.62176513671875
y: 579.080078125
z: -0.19857798516750336
visibility: 0.9836031198501587
","x: 192.66371154785156
y: 307.8057556152344
z: 0.0
","x: 191.8251495361328
y: 300.1537780761719
z: 0.0013636734802275896
","x: 189.951904296875
y: 293.92529296875
z: 0.001533358357846737
","x: 188.7288818359375
y: 289.02203369140625
z: 0.0010508786654099822
","x: 188.3456573486328
y: 285.00311279296875
z: 0.0005179207073524594
","x: 186.26998901367188
y: 293.2171325683594
z: 0.0024237879551947117
","x: 183.6061248779297
y: 288.03790283203125
z: 0.0016012302367016673
","x: 181.77145385742188
y: 285.0948791503906
z: 0.0008581236470490694
","x: 180.3293914794922
y: 282.7987365722656
z: 0.00034116031019948423
","x: 184.84776306152344
y: 295.4861755371094
z: 0.00033181477920152247
","x: 181.57679748535156
y: 290.421630859375
z: -8.396052726311609e-05
","x: 179.45233154296875
y: 286.94781494140625
z: -0.0008688670350238681
","x: 177.7884979248047
y: 284.17315673828125
z: -0.0016616379143670201
","x: 183.85012817382812
y: 298.4749755859375
z: -0.001961486879736185
","x: 180.38426208496094
y: 294.2159423828125
z: -0.0027763766702264547
","x: 178.17160034179688
y: 291.1905517578125
z: -0.0037939271423965693
","x: 176.42709350585938
y: 288.6226806640625
z: -0.004674533382058144
","x: 183.36846923828125
y: 302.0302734375
z: -0.004302948713302612
","x: 180.4188690185547
y: 300.08160400390625
z: -0.0051825037226080894
","x: 178.4288787841797
y: 298.77099609375
z: -0.005796419456601143
","x: 176.75523376464844
y: 297.40203857421875
z: -0.0063400184735655785
",,,,,,,,,,,,,,,,,,,,,
19,"x: 181.5382080078125
y: 248.25457763671875
z: -0.1835608184337616
visibility: 0.9998930096626282
","x: 183.7305450439453
y: 242.77920532226562
z: -0.16106878221035004
visibility: 0.999536395072937
","x: 185.095947265625
y: 242.9472198486328
z: -0.16111920773983002
visibility: 0.9995205998420715
","x: 186.44163513183594
y: 243.04730224609375
z: -0.1611405909061432
visibility: 0.9994502663612366
","x: 179.9204864501953
y: 242.17227172851562
z: -0.16458293795585632
visibility: 0.9996225237846375
","x: 178.60960388183594
y: 241.88246154785156
z: -0.16460226476192474
visibility: 0.9996554851531982
","x: 177.34739685058594
y: 241.5733642578125
z: -0.16455386579036713
visibility: 0.9996845126152039
","x: 188.67294311523438
y: 247.21322631835938
z: -0.03865751251578331
visibility: 0.9985998272895813
","x: 174.86062622070312
y: 246.97532653808594
z: -0.05655336380004883
visibility: 0.9996473789215088
","x: 184.1751251220703
y: 254.56727600097656
z: -0.13927039504051208
visibility: 0.9997780919075012
","x: 178.95982360839844
y: 254.21273803710938
z: -0.14446184039115906
visibility: 0.9998628497123718
","x: 200.48019409179688
y: 285.84710693359375
z: 0.030490297824144363
visibility: 0.9998676776885986
","x: 161.23995971679688
y: 285.24053955078125
z: -0.01938745006918907
visibility: 0.9999522566795349
","x: 208.1315460205078
y: 340.8917541503906
z: -0.09430743753910065
visibility: 0.9224399924278259
","x: 134.49606323242188
y: 300.4708251953125
z: -0.04489491879940033
visibility: 0.9862524271011353
","x: 190.8562469482422
y: 310.6103820800781
z: -0.321291983127594
visibility: 0.926765501499176
","x: 112.84761047363281
y: 272.50994873046875
z: -0.15314406156539917
visibility: 0.9711723923683167
","x: 184.3399200439453
y: 300.28448486328125
z: -0.36896806955337524
visibility: 0.8796981573104858
","x: 105.8433609008789
y: 269.6739807128906
z: -0.18458953499794006
visibility: 0.9407118558883667
","x: 184.9495849609375
y: 294.3097229003906
z: -0.36909955739974976
visibility: 0.8774981498718262
","x: 106.78337860107422
y: 264.41387939453125
z: -0.20747685432434082
visibility: 0.9429374933242798
","x: 186.46742248535156
y: 295.9898681640625
z: -0.3272530734539032
visibility: 0.8608744740486145
","x: 109.22789001464844
y: 265.3598327636719
z: -0.1665308028459549
visibility: 0.9238806962966919
","x: 191.06748962402344
y: 401.5231018066406
z: 0.04878174886107445
visibility: 0.999544620513916
","x: 168.66786193847656
y: 397.5791931152344
z: -0.04892512410879135
visibility: 0.9997817873954773
","x: 200.3534698486328
y: 481.040771484375
z: 0.07241961359977722
visibility: 0.9734466671943665
","x: 163.66864013671875
y: 475.67913818359375
z: -0.13273510336875916
visibility: 0.9931328892707825
","x: 192.84092712402344
y: 546.6948852539062
z: 0.21353057026863098
visibility: 0.9751317501068115
","x: 144.53456115722656
y: 548.416015625
z: -0.06394296139478683
visibility: 0.9881502985954285
","x: 186.9075469970703
y: 560.5115356445312
z: 0.22157132625579834
visibility: 0.9069424271583557
","x: 139.88320922851562
y: 557.798095703125
z: -0.06335870921611786
visibility: 0.8747482299804688
","x: 206.54217529296875
y: 565.09423828125
z: 0.13576674461364746
visibility: 0.9756815433502197
","x: 155.29229736328125
y: 577.7979125976562
z: -0.18325744569301605
visibility: 0.9849603176116943
","x: 191.99514770507812
y: 309.5133056640625
z: 0.0
","x: 191.3495635986328
y: 301.65283203125
z: 0.0017127551836892962
","x: 189.65484619140625
y: 295.9992370605469
z: 0.0021068367641419172
","x: 188.0987548828125
y: 292.5574951171875
z: 0.001854287227615714
","x: 186.87753295898438
y: 290.46514892578125
z: 0.0017904217820614576
","x: 185.991943359375
y: 294.662109375
z: 0.0022009259555488825
","x: 182.70040893554688
y: 291.0769348144531
z: 0.0018417169339954853
","x: 180.79869079589844
y: 289.6359558105469
z: 0.0020336995366960764
","x: 179.25718688964844
y: 288.7286071777344
z: 0.002230224432423711
","x: 184.55918884277344
y: 297.7341003417969
z: 0.00033260759664699435
","x: 180.80242919921875
y: 294.46051025390625
z: 0.0001549381559016183
","x: 178.7355499267578
y: 293.0854797363281
z: 0.0003675803600344807
","x: 177.09780883789062
y: 292.1673889160156
z: 0.0004879878251813352
","x: 183.5935821533203
y: 301.3727111816406
z: -0.0016248096944764256
","x: 180.93783569335938
y: 298.9501647949219
z: -0.0019787014462053776
","x: 181.24452209472656
y: 298.5094909667969
z: -0.0014457409270107746
","x: 181.65440368652344
y: 298.242431640625
z: -0.0009166075033135712
","x: 182.898681640625
y: 305.336181640625
z: -0.0036827337462455034
","x: 179.76705932617188
y: 303.70928955078125
z: -0.004785913974046707
","x: 177.78009033203125
y: 302.6199951171875
z: -0.005018378142267466
","x: 176.26229858398438
y: 301.5185241699219
z: -0.0048469495959579945
",,,,,,,,,,,,,,,,,,,,,
20,"x: 181.5382080078125
y: 248.25457763671875
z: -0.1835608184337616
visibility: 0.9998930096626282
","x: 183.7305450439453
y: 242.77920532226562
z: -0.16106878221035004
visibility: 0.999536395072937
","x: 185.095947265625
y: 242.9472198486328
z: -0.16111920773983002
visibility: 0.9995205998420715
","x: 186.44163513183594
y: 243.04730224609375
z: -0.1611405909061432
visibility: 0.9994502663612366
","x: 179.9204864501953
y: 242.17227172851562
z: -0.16458293795585632
visibility: 0.9996225237846375
","x: 178.60960388183594
y: 241.88246154785156
z: -0.16460226476192474
visibility: 0.9996554851531982
","x: 177.34739685058594
y: 241.5733642578125
z: -0.16455386579036713
visibility: 0.9996845126152039
","x: 188.67294311523438
y: 247.21322631835938
z: -0.03865751251578331
visibility: 0.9985998272895813
","x: 174.86062622070312
y: 246.97532653808594
z: -0.05655336380004883
visibility: 0.9996473789215088
","x: 184.1751251220703
y: 254.56727600097656
z: -0.13927039504051208
visibility: 0.9997780919075012
","x: 178.95982360839844
y: 254.21273803710938
z: -0.14446184039115906
visibility: 0.9998628497123718
","x: 200.48019409179688
y: 285.84710693359375
z: 0.030490297824144363
visibility: 0.9998676776885986
","x: 161.23995971679688
y: 285.24053955078125
z: -0.01938745006918907
visibility: 0.9999522566795349
","x: 208.1315460205078
y: 340.8917541503906
z: -0.09430743753910065
visibility: 0.9224399924278259
","x: 134.49606323242188
y: 300.4708251953125
z: -0.04489491879940033
visibility: 0.9862524271011353
","x: 190.8562469482422
y: 310.6103820800781
z: -0.321291983127594
visibility: 0.926765501499176
","x: 112.84761047363281
y: 272.50994873046875
z: -0.15314406156539917
visibility: 0.9711723923683167
","x: 184.3399200439453
y: 300.28448486328125
z: -0.36896806955337524
visibility: 0.8796981573104858
","x: 105.8433609008789
y: 269.6739807128906
z: -0.18458953499794006
visibility: 0.9407118558883667
","x: 184.9495849609375
y: 294.3097229003906
z: -0.36909955739974976
visibility: 0.8774981498718262
","x: 106.78337860107422
y: 264.41387939453125
z: -0.20747685432434082
visibility: 0.9429374933242798
","x: 186.46742248535156
y: 295.9898681640625
z: -0.3272530734539032
visibility: 0.8608744740486145
","x: 109.22789001464844
y: 265.3598327636719
z: -0.1665308028459549
visibility: 0.9238806962966919
","x: 191.06748962402344
y: 401.5231018066406
z: 0.04878174886107445
visibility: 0.999544620513916
","x: 168.66786193847656
y: 397.5791931152344
z: -0.04892512410879135
visibility: 0.9997817873954773
","x: 200.3534698486328
y: 481.040771484375
z: 0.07241961359977722
visibility: 0.9734466671943665
","x: 163.66864013671875
y: 475.67913818359375
z: -0.13273510336875916
visibility: 0.9931328892707825
","x: 192.84092712402344
y: 546.6948852539062
z: 0.21353057026863098
visibility: 0.9751317501068115
","x: 144.53456115722656
y: 548.416015625
z: -0.06394296139478683
visibility: 0.9881502985954285
","x: 186.9075469970703
y: 560.5115356445312
z: 0.22157132625579834
visibility: 0.9069424271583557
","x: 139.88320922851562
y: 557.798095703125
z: -0.06335870921611786
visibility: 0.8747482299804688
","x: 206.54217529296875
y: 565.09423828125
z: 0.13576674461364746
visibility: 0.9756815433502197
","x: 155.29229736328125
y: 577.7979125976562
z: -0.18325744569301605
visibility: 0.9849603176116943
","x: 191.99514770507812
y: 309.5133056640625
z: 0.0
","x: 191.3495635986328
y: 301.65283203125
z: 0.0017127551836892962
","x: 189.65484619140625
y: 295.9992370605469
z: 0.0021068367641419172
","x: 188.0987548828125
y: 292.5574951171875
z: 0.001854287227615714
","x: 186.87753295898438
y: 290.46514892578125
z: 0.0017904217820614576
","x: 185.991943359375
y: 294.662109375
z: 0.0022009259555488825
","x: 182.70040893554688
y: 291.0769348144531
z: 0.0018417169339954853
","x: 180.79869079589844
y: 289.6359558105469
z: 0.0020336995366960764
","x: 179.25718688964844
y: 288.7286071777344
z: 0.002230224432423711
","x: 184.55918884277344
y: 297.7341003417969
z: 0.00033260759664699435
","x: 180.80242919921875
y: 294.46051025390625
z: 0.0001549381559016183
","x: 178.7355499267578
y: 293.0854797363281
z: 0.0003675803600344807
","x: 177.09780883789062
y: 292.1673889160156
z: 0.0004879878251813352
","x: 183.5935821533203
y: 301.3727111816406
z: -0.0016248096944764256
","x: 180.93783569335938
y: 298.9501647949219
z: -0.0019787014462053776
","x: 181.24452209472656
y: 298.5094909667969
z: -0.0014457409270107746
","x: 181.65440368652344
y: 298.242431640625
z: -0.0009166075033135712
","x: 182.898681640625
y: 305.336181640625
z: -0.0036827337462455034
","x: 179.76705932617188
y: 303.70928955078125
z: -0.004785913974046707
","x: 177.78009033203125
y: 302.6199951171875
z: -0.005018378142267466
","x: 176.26229858398438
y: 301.5185241699219
z: -0.0048469495959579945
",,,,,,,,,,,,,,,,,,,,,
21,"x: 180.25759887695312
y: 248.53448486328125
z: -0.1842978596687317
visibility: 0.9999030828475952
","x: 182.22055053710938
y: 242.78750610351562
z: -0.1644344925880432
visibility: 0.9995819330215454
","x: 183.74526977539062
y: 242.85093688964844
z: -0.1644676923751831
visibility: 0.9995675683021545
","x: 185.32269287109375
y: 242.91787719726562
z: -0.16449260711669922
visibility: 0.9995043873786926
","x: 178.14178466796875
y: 242.81553649902344
z: -0.16420510411262512
visibility: 0.9996592402458191
","x: 176.8618927001953
y: 242.8528594970703
z: -0.16424496471881866
visibility: 0.9996886849403381
","x: 175.6796875
y: 242.81935119628906
z: -0.1642400622367859
visibility: 0.9997149705886841
","x: 188.21524047851562
y: 247.04115295410156
z: -0.05115866661071777
visibility: 0.998736560344696
","x: 174.0338134765625
y: 247.2631072998047
z: -0.052527714520692825
visibility: 0.99968022108078
","x: 183.697509765625
y: 254.7174835205078
z: -0.14278295636177063
visibility: 0.9997987747192383
","x: 177.8011932373047
y: 255.19747924804688
z: -0.14361263811588287
visibility: 0.9998751878738403
","x: 201.95846557617188
y: 284.5482177734375
z: 0.01380124967545271
visibility: 0.9998745322227478
","x: 161.9053192138672
y: 289.35650634765625
z: 0.00970123615115881
visibility: 0.999945878982544
","x: 209.54383850097656
y: 339.5377197265625
z: -0.09326525032520294
visibility: 0.9299083352088928
","x: 135.4510498046875
y: 310.50103759765625
z: -0.08098544925451279
visibility: 0.9871380925178528
","x: 189.2992706298828
y: 310.01239013671875
z: -0.26681894063949585
visibility: 0.9338915944099426
","x: 129.15773010253906
y: 268.59259033203125
z: -0.28423357009887695
visibility: 0.9730005264282227
","x: 181.14529418945312
y: 301.43035888671875
z: -0.3047972023487091
visibility: 0.890899658203125
","x: 125.532470703125
y: 256.909423828125
z: -0.32704490423202515
visibility: 0.943228006362915
","x: 181.9799041748047
y: 295.5389099121094
z: -0.29502400755882263
visibility: 0.8888512253761292
","x: 128.0163116455078
y: 253.36468505859375
z: -0.3250035047531128
visibility: 0.9448421597480774
","x: 183.8981170654297
y: 297.1136169433594
z: -0.26502352952957153
visibility: 0.873038649559021
","x: 130.02236938476562
y: 257.0011291503906
z: -0.2891419231891632
visibility: 0.9260199069976807
","x: 191.7545928955078
y: 399.7179870605469
z: 0.03784714266657829
visibility: 0.9995583295822144
","x: 168.49166870117188
y: 394.9320983886719
z: -0.03817348927259445
visibility: 0.999791145324707
","x: 196.40103149414062
y: 479.2007751464844
z: 0.04936442896723747
visibility: 0.9743332862854004
","x: 157.00070190429688
y: 472.24407958984375
z: -0.16642265021800995
visibility: 0.9936428070068359
","x: 192.3153076171875
y: 546.9571533203125
z: 0.2081470787525177
visibility: 0.9768540859222412
","x: 145.41139221191406
y: 548.794677734375
z: -0.10543166100978851
visibility: 0.9891278147697449
","x: 187.326416015625
y: 560.2048950195312
z: 0.20652827620506287
visibility: 0.9128076434135437
","x: 142.27468872070312
y: 559.981201171875
z: -0.10578354448080063
visibility: 0.8817422986030579
","x: 206.6724853515625
y: 565.5016479492188
z: 0.09610246121883392
visibility: 0.9770318269729614
","x: 152.3160400390625
y: 577.2661743164062
z: -0.23764586448669434
visibility: 0.9860147833824158
","x: 191.6405029296875
y: 310.1864013671875
z: 0.0
","x: 191.47256469726562
y: 302.67816162109375
z: 0.0015446164179593325
","x: 190.10569763183594
y: 296.95367431640625
z: 0.0022298130206763744
","x: 188.82818603515625
y: 293.38055419921875
z: 0.002483372576534748
","x: 187.89096069335938
y: 291.1971740722656
z: 0.0028346157632768154
","x: 185.9673309326172
y: 295.66693115234375
z: 0.0019766497425734997
","x: 183.15283203125
y: 291.5969543457031
z: 0.0020989940967410803
","x: 181.71290588378906
y: 290.05792236328125
z: 0.002630902687087655
","x: 180.75633239746094
y: 289.4039306640625
z: 0.003105804091319442
","x: 184.38351440429688
y: 298.8624267578125
z: 0.0005464127752929926
","x: 181.2393035888672
y: 295.3662109375
z: 0.0009939258452504873
","x: 179.8005828857422
y: 293.64837646484375
z: 0.0017869399162009358
","x: 178.7951202392578
y: 292.6943664550781
z: 0.0022840870078653097
","x: 183.42715454101562
y: 302.4644775390625
z: -0.0009449662757106125
","x: 180.09510803222656
y: 300.2749938964844
z: -0.001106669893488288
","x: 178.37286376953125
y: 299.0827331542969
z: -0.0008575711399316788
","x: 177.14187622070312
y: 298.3138122558594
z: -0.0006254559266380966
","x: 183.0807342529297
y: 306.22265625
z: -0.0024577693548053503
","x: 180.1755828857422
y: 305.34979248046875
z: -0.0032621019054204226
","x: 178.3863067626953
y: 304.4817199707031
z: -0.0033956144470721483
","x: 177.01979064941406
y: 303.73529052734375
z: -0.0032549258321523666
",,,,,,,,,,,,,,,,,,,,,
22,"x: 180.25759887695312
y: 248.53448486328125
z: -0.1842978596687317
visibility: 0.9999030828475952
","x: 182.22055053710938
y: 242.78750610351562
z: -0.1644344925880432
visibility: 0.9995819330215454
","x: 183.74526977539062
y: 242.85093688964844
z: -0.1644676923751831
visibility: 0.9995675683021545
","x: 185.32269287109375
y: 242.91787719726562
z: -0.16449260711669922
visibility: 0.9995043873786926
","x: 178.14178466796875
y: 242.81553649902344
z: -0.16420510411262512
visibility: 0.9996592402458191
","x: 176.8618927001953
y: 242.8528594970703
z: -0.16424496471881866
visibility: 0.9996886849403381
","x: 175.6796875
y: 242.81935119628906
z: -0.1642400622367859
visibility: 0.9997149705886841
","x: 188.21524047851562
y: 247.04115295410156
z: -0.05115866661071777
visibility: 0.998736560344696
","x: 174.0338134765625
y: 247.2631072998047
z: -0.052527714520692825
visibility: 0.99968022108078
","x: 183.697509765625
y: 254.7174835205078
z: -0.14278295636177063
visibility: 0.9997987747192383
","x: 177.8011932373047
y: 255.19747924804688
z: -0.14361263811588287
visibility: 0.9998751878738403
","x: 201.95846557617188
y: 284.5482177734375
z: 0.01380124967545271
visibility: 0.9998745322227478
","x: 161.9053192138672
y: 289.35650634765625
z: 0.00970123615115881
visibility: 0.999945878982544
","x: 209.54383850097656
y: 339.5377197265625
z: -0.09326525032520294
visibility: 0.9299083352088928
","x: 135.4510498046875
y: 310.50103759765625
z: -0.08098544925451279
visibility: 0.9871380925178528
","x: 189.2992706298828
y: 310.01239013671875
z: -0.26681894063949585
visibility: 0.9338915944099426
","x: 129.15773010253906
y: 268.59259033203125
z: -0.28423357009887695
visibility: 0.9730005264282227
","x: 181.14529418945312
y: 301.43035888671875
z: -0.3047972023487091
visibility: 0.890899658203125
","x: 125.532470703125
y: 256.909423828125
z: -0.32704490423202515
visibility: 0.943228006362915
","x: 181.9799041748047
y: 295.5389099121094
z: -0.29502400755882263
visibility: 0.8888512253761292
","x: 128.0163116455078
y: 253.36468505859375
z: -0.3250035047531128
visibility: 0.9448421597480774
","x: 183.8981170654297
y: 297.1136169433594
z: -0.26502352952957153
visibility: 0.873038649559021
","x: 130.02236938476562
y: 257.0011291503906
z: -0.2891419231891632
visibility: 0.9260199069976807
","x: 191.7545928955078
y: 399.7179870605469
z: 0.03784714266657829
visibility: 0.9995583295822144
","x: 168.49166870117188
y: 394.9320983886719
z: -0.03817348927259445
visibility: 0.999791145324707
","x: 196.40103149414062
y: 479.2007751464844
z: 0.04936442896723747
visibility: 0.9743332862854004
","x: 157.00070190429688
y: 472.24407958984375
z: -0.16642265021800995
visibility: 0.9936428070068359
","x: 192.3153076171875
y: 546.9571533203125
z: 0.2081470787525177
visibility: 0.9768540859222412
","x: 145.41139221191406
y: 548.794677734375
z: -0.10543166100978851
visibility: 0.9891278147697449
","x: 187.326416015625
y: 560.2048950195312
z: 0.20652827620506287
visibility: 0.9128076434135437
","x: 142.27468872070312
y: 559.981201171875
z: -0.10578354448080063
visibility: 0.8817422986030579
","x: 206.6724853515625
y: 565.5016479492188
z: 0.09610246121883392
visibility: 0.9770318269729614
","x: 152.3160400390625
y: 577.2661743164062
z: -0.23764586448669434
visibility: 0.9860147833824158
","x: 191.6405029296875
y: 310.1864013671875
z: 0.0
","x: 191.47256469726562
y: 302.67816162109375
z: 0.0015446164179593325
","x: 190.10569763183594
y: 296.95367431640625
z: 0.0022298130206763744
","x: 188.82818603515625
y: 293.38055419921875
z: 0.002483372576534748
","x: 187.89096069335938
