uscmakers/ReverseChoreography/data/4_easily_bruno_major.csv
,NOSE,LEFT_EYE_INNER,LEFT_EYE,LEFT_EYE_OUTER,RIGHT_EYE_INNER,RIGHT_EYE,RIGHT_EYE_OUTER,LEFT_EAR,RIGHT_EAR,MOUTH_LEFT,MOUTH_RIGHT,LEFT_SHOULDER,RIGHT_SHOULDER,LEFT_ELBOW,RIGHT_ELBOW,LEFT_WRIST,RIGHT_WRIST,LEFT_PINKY,RIGHT_PINKY,LEFT_INDEX,RIGHT_INDEX,LEFT_THUMB,RIGHT_THUMB,LEFT_HIP,RIGHT_HIP,LEFT_KNEE,RIGHT_KNEE,LEFT_ANKLE,RIGHT_ANKLE,LEFT_HEEL,RIGHT_HEEL,LEFT_FOOT_INDEX,RIGHT_FOOT_INDEX,WRIST2,THUMB_CPC2,THUMB_MCP2,THUMB_IP2,THUMB_TIP2,INDEX_FINGER_MCP2,INDEX_FINGER_PIP2,INDEX_FINGER_DIP2,INDEX_FINGER_TIP2,MIDDLE_FINGER_MCP2,MIDDLE_FINGER_PIP2,MIDDLE_FINGER_DIP2,MIDDLE_FINGER_TIP2,RING_FINGER_PIP2,RING_FINGER_DIP2,RING_FINGER_TIP2,RING_FINGER_MCP2,PINKY_MCP2,PINKY_PIP2,PINKY_DIP2,PINKY_TIP2,WRIST,THUMB_CPC,THUMB_MCP,THUMB_IP,THUMB_TIP,INDEX_FINGER_MCP,INDEX_FINGER_PIP,INDEX_FINGER_DIP,INDEX_FINGER_TIP,MIDDLE_FINGER_MCP,MIDDLE_FINGER_PIP,MIDDLE_FINGER_DIP,MIDDLE_FINGER_TIP,RING_FINGER_PIP,RING_FINGER_DIP,RING_FINGER_TIP,RING_FINGER_MCP,PINKY_MCP,PINKY_PIP,PINKY_DIP,PINKY_TIP
0,"x: 209.72927856445312
y: 312.3160095214844
z: -0.5482091903686523
visibility: 0.9999984502792358
","x: 211.87832641601562
y: 306.2132568359375
z: -0.5417479872703552
visibility: 0.9999973773956299
","x: 213.25030517578125
y: 305.63348388671875
z: -0.5416768193244934
visibility: 0.9999963045120239
","x: 214.59841918945312
y: 304.823974609375
z: -0.5416772365570068
visibility: 0.9999977350234985
","x: 208.18455505371094
y: 305.8536376953125
z: -0.5417910218238831
visibility: 0.9999979734420776
","x: 207.03794860839844
y: 305.07952880859375
z: -0.5419106483459473
visibility: 0.9999955892562866
","x: 205.8433074951172
y: 303.97418212890625
z: -0.5419667363166809
visibility: 0.9999958276748657
","x: 216.59518432617188
y: 299.41326904296875
z: -0.4392968714237213
visibility: 0.9999936819076538
","x: 203.7943572998047
y: 297.3749084472656
z: -0.44306331872940063
visibility: 0.999983549118042
","x: 211.6812286376953
y: 316.03936767578125
z: -0.5038121938705444
visibility: 0.9999977350234985
","x: 207.47598266601562
y: 315.63623046875
z: -0.5048925280570984
visibility: 0.9999964237213135
","x: 227.58236694335938
y: 328.30316162109375
z: -0.3384415805339813
visibility: 0.9999923706054688
","x: 190.220458984375
y: 319.45843505859375
z: -0.3218475580215454
visibility: 0.9999896287918091
","x: 220.80982971191406
y: 381.7147216796875
z: -0.34217652678489685
visibility: 0.9896091222763062
","x: 186.72177124023438
y: 376.765869140625
z: -0.33335283398628235
visibility: 0.9864810705184937
","x: 208.92112731933594
y: 428.40142822265625
z: -0.4356282651424408
visibility: 0.9691076278686523
","x: 189.50071716308594
y: 424.27838134765625
z: -0.40702685713768005
visibility: 0.9553329944610596
","x: 206.1023406982422
y: 443.0294494628906
z: -0.4738121032714844
visibility: 0.9311248660087585
","x: 188.4807586669922
y: 439.6072692871094
z: -0.43590325117111206
visibility: 0.9051957130432129
","x: 201.89996337890625
y: 440.82269287109375
z: -0.4949356019496918
visibility: 0.9429945349693298
","x: 190.45956420898438
y: 440.2642822265625
z: -0.4559711813926697
visibility: 0.9082964062690735
","x: 202.41741943359375
y: 435.07452392578125
z: -0.44488468766212463
visibility: 0.9153886437416077
","x: 191.5426788330078
y: 434.8616943359375
z: -0.4147665500640869
visibility: 0.8600711226463318
","x: 222.3730926513672
y: 388.2648010253906
z: -0.01011587493121624
visibility: 0.9999659061431885
","x: 201.02801513671875
y: 386.6390686035156
z: 0.010274494998157024
visibility: 0.9999266862869263
","x: 211.44117736816406
y: 415.64837646484375
z: -0.37444451451301575
visibility: 0.9474492073059082
","x: 205.73069763183594
y: 454.98895263671875
z: 0.027703801169991493
visibility: 0.835014820098877
","x: 180.25738525390625
y: 464.09478759765625
z: -0.45926737785339355
visibility: 0.9683024883270264
","x: 209.63735961914062
y: 540.7911376953125
z: 0.10369370877742767
visibility: 0.858669638633728
","x: 175.38955688476562
y: 474.0588684082031
z: -0.4709993898868561
visibility: 0.9712849259376526
","x: 211.6949462890625
y: 551.328125
z: 0.10381090641021729
visibility: 0.6447750329971313
","x: 172.78526306152344
y: 457.5208740234375
z: -0.619171679019928
visibility: 0.992638349533081
","x: 205.0318603515625
y: 562.32080078125
z: -0.009059052914381027
visibility: 0.8266875743865967
",,,,,,,,,,,,,,,,,,,,,,,,,,,,,,,,,,,,,,,,,,
1,"x: 224.9059295654297
y: 326.02593994140625
z: -0.33450156450271606
visibility: 0.9999908208847046
","x: 227.59524536132812
y: 318.792724609375
z: -0.3252057433128357
visibility: 0.999959409236908
","x: 228.9243621826172
y: 318.47796630859375
z: -0.32518965005874634
visibility: 0.9999610185623169
","x: 230.22579956054688
y: 318.11602783203125
z: -0.3252275586128235
visibility: 0.9999388456344604
","x: 223.93798828125
y: 317.7283935546875
z: -0.32679539918899536
visibility: 0.9999712109565735
","x: 222.50225830078125
y: 316.6422119140625
z: -0.32690736651420593
visibility: 0.9999744296073914
","x: 220.93235778808594
y: 315.4595947265625
z: -0.32696834206581116
visibility: 0.9999754428863525
","x: 231.66226196289062
y: 316.94268798828125
z: -0.2327212542295456
visibility: 0.9998543858528137
","x: 217.33273315429688
y: 312.698486328125
z: -0.24096402525901794
visibility: 0.9999632239341736
","x: 226.37777709960938
y: 331.55621337890625
z: -0.2958289682865143
visibility: 0.9999666213989258
","x: 221.85008239746094
y: 330.07666015625
z: -0.2988041043281555
visibility: 0.9999860525131226
","x: 241.4779510498047
y: 349.11993408203125
z: -0.168390691280365
visibility: 0.9999577403068542
","x: 200.29461669921875
y: 341.22930908203125
z: -0.1506214439868927
visibility: 0.9999893307685852
","x: 243.17819213867188
y: 404.4589538574219
z: -0.28873342275619507
visibility: 0.9839190244674683
","x: 198.44883728027344
y: 393.5772399902344
z: -0.24599044024944305
visibility: 0.9855031371116638
","x: 230.51211547851562
y: 368.642578125
z: -0.4500904977321625
visibility: 0.9594284296035767
","x: 213.23626708984375
y: 372.51904296875
z: -0.40728896856307983
visibility: 0.9556810855865479
","x: 230.02593994140625
y: 356.54248046875
z: -0.4796510636806488
visibility: 0.9133475422859192
","x: 216.92015075683594
y: 362.2080078125
z: -0.4390392303466797
visibility: 0.9030511379241943
","x: 229.86602783203125
y: 352.40618896484375
z: -0.46880197525024414
visibility: 0.9213179349899292
","x: 217.2501983642578
y: 356.213134765625
z: -0.4295726716518402
visibility: 0.9038545489311218
","x: 229.2826385498047
y: 356.00299072265625
z: -0.44713807106018066
visibility: 0.8825355172157288
","x: 216.64659118652344
y: 359.2741394042969
z: -0.40738600492477417
visibility: 0.8517271876335144
","x: 235.61862182617188
y: 424.9619140625
z: -0.008950280956923962
visibility: 0.9998770356178284
","x: 213.12950134277344
y: 422.358642578125
z: 0.008917603641748428
visibility: 0.9999243021011353
","x: 244.15423583984375
y: 497.4197998046875
z: -0.05141753703355789
visibility: 0.95110023021698
","x: 208.5153350830078
y: 474.0574645996094
z: -0.21440160274505615
visibility: 0.8508093357086182
","x: 273.94140625
y: 530.162109375
z: 0.12503871321678162
visibility: 0.9700911045074463
","x: 209.02713012695312
y: 540.8448486328125
z: -0.03552912175655365
visibility: 0.8722559809684753
","x: 276.078125
y: 533.1541748046875
z: 0.13775578141212463
visibility: 0.9518938064575195
","x: 211.1629180908203
y: 550.3778076171875
z: -0.022161755710840225
visibility: 0.6740849614143372
","x: 282.23858642578125
y: 553.906005859375
z: 0.02793947421014309
visibility: 0.9905892014503479
","x: 205.13031005859375
y: 562.4547729492188
z: -0.13944821059703827
visibility: 0.8430049419403076
",,,,,,,,,,,,,,,,,,,,,,,,,,,,,,,,,,,,,,,,,,
2,"x: 237.76084899902344
y: 344.2393798828125
z: -0.40761813521385193
visibility: 0.9999875426292419
","x: 238.87271118164062
y: 336.3204345703125
z: -0.39872798323631287
visibility: 0.9999488592147827
","x: 239.98794555664062
y: 335.3919677734375
z: -0.3987436294555664
visibility: 0.999951958656311
","x: 241.07077026367188
y: 334.41827392578125
z: -0.3988155424594879
visibility: 0.9999262094497681
","x: 235.364501953125
y: 336.61944580078125
z: -0.4002780318260193
visibility: 0.9999601244926453
","x: 234.0252685546875
y: 336.10882568359375
z: -0.4003986716270447
visibility: 0.9999666213989258
","x: 232.67015075683594
y: 335.64752197265625
z: -0.4004400670528412
visibility: 0.9999660849571228
","x: 242.24143981933594
y: 331.7318115234375
z: -0.3019193410873413
visibility: 0.9998345375061035
","x: 229.9253387451172
y: 334.0169677734375
z: -0.30868685245513916
visibility: 0.999952495098114
","x: 239.5257568359375
y: 348.87872314453125
z: -0.3670031428337097
visibility: 0.9999648928642273
","x: 235.4666290283203
y: 349.7645568847656
z: -0.36943569779396057
visibility: 0.999983549118042
","x: 255.80674743652344
y: 360.63348388671875
z: -0.23099736869335175
visibility: 0.9999603629112244
","x: 215.70217895507812
y: 365.9441833496094
z: -0.21951094269752502
visibility: 0.9999891519546509
","x: 263.2813720703125
y: 413.3584289550781
z: -0.31077924370765686
visibility: 0.9843034744262695
","x: 214.16041564941406
y: 408.667236328125
z: -0.2791348397731781
visibility: 0.9740506410598755
","x: 241.52349853515625
y: 382.1884460449219
z: -0.46810808777809143
visibility: 0.9564592242240906
","x: 221.73434448242188
y: 419.9278564453125
z: -0.4493855834007263
visibility: 0.9305037260055542
","x: 235.6500701904297
y: 398.2430725097656
z: -0.5063968300819397
visibility: 0.9078710675239563
","x: 223.01614379882812
y: 415.9447937011719
z: -0.49223774671554565
visibility: 0.8792961239814758
","x: 234.91758728027344
y: 395.3725891113281
z: -0.496389240026474
visibility: 0.9149870276451111
","x: 223.3300323486328
y: 399.0367126464844
z: -0.5000491738319397
visibility: 0.8811491131782532
","x: 236.24819946289062
y: 393.8676452636719
z: -0.4671173691749573
visibility: 0.870846688747406
","x: 223.3522491455078
y: 403.2377624511719
z: -0.45632505416870117
visibility: 0.8230275511741638
","x: 247.03994750976562
y: 439.9599914550781
z: -0.00707104941830039
visibility: 0.9998764991760254
","x: 226.3219451904297
y: 437.13177490234375
z: 0.006984512321650982
visibility: 0.9999295473098755
","x: 248.8588409423828
y: 507.8118896484375
z: 0.0017483343835920095
visibility: 0.9548329710960388
","x: 220.89031982421875
y: 481.65533447265625
z: -0.19201433658599854
visibility: 0.8648408055305481
","x: 276.0267333984375
y: 534.9708251953125
z: 0.2541308104991913
visibility: 0.9713501930236816
","x: 202.2789764404297
y: 539.4132690429688
z: -0.011274652555584908
visibility: 0.8840725421905518
","x: 276.9408874511719
y: 535.0654296875
z: 0.2750108242034912
visibility: 0.9259795546531677
","x: 198.3618927001953
y: 547.4644775390625
z: 0.0026628649793565273
visibility: 0.68708336353302
","x: 283.77215576171875
y: 553.7247314453125
z: 0.1751282960176468
visibility: 0.988345205783844
","x: 206.2624053955078
y: 562.4503784179688
z: -0.11245377361774445
visibility: 0.8573904037475586
",,,,,,,,,,,,,,,,,,,,,,,,,,,,,,,,,,,,,,,,,,
3,"x: 248.12269592285156
y: 367.0746154785156
z: -0.5241450071334839
visibility: 0.9999856948852539
","x: 248.5216064453125
y: 359.6078796386719
z: -0.5188084840774536
visibility: 0.9999457001686096
","x: 249.46194458007812
y: 358.57867431640625
z: -0.5188201665878296
visibility: 0.9999454021453857
","x: 250.3946990966797
y: 357.41143798828125
z: -0.5188349485397339
visibility: 0.9999208450317383
","x: 245.37789916992188
y: 360.4247741699219
z: -0.5259162187576294
visibility: 0.9999592900276184
","x: 244.0518035888672
y: 360.109375
z: -0.5260459184646606
visibility: 0.9999651312828064
","x: 242.66529846191406
y: 359.7109680175781
z: -0.5261564254760742
visibility: 0.9999657273292542
","x: 250.9274444580078
y: 353.3480529785156
z: -0.42853957414627075
visibility: 0.9998019933700562
","x: 239.572998046875
y: 356.76580810546875
z: -0.4606042802333832
visibility: 0.9999496936798096
","x: 249.7520294189453
y: 370.8741455078125
z: -0.4848397672176361
visibility: 0.9999604225158691
","x: 246.04339599609375
y: 372.941162109375
z: -0.4944557547569275
visibility: 0.9999814033508301
","x: 264.55462646484375
y: 379.64306640625
z: -0.3156452178955078
visibility: 0.9999637007713318
","x: 225.07083129882812
y: 391.48492431640625
z: -0.3824533224105835
visibility: 0.9999899864196777
","x: 267.4793701171875
y: 435.47747802734375
z: -0.317411869764328
visibility: 0.9821338653564453
","x: 226.5575714111328
y: 451.85137939453125
z: -0.38817352056503296
visibility: 0.9754384756088257
","x: 247.89230346679688
y: 459.0390319824219
z: -0.4039199948310852
visibility: 0.94806307554245
","x: 236.06015014648438
y: 498.5433349609375
z: -0.4399617612361908
visibility: 0.9322488903999329
","x: 244.24085998535156
y: 467.7694396972656
z: -0.4360583424568176
visibility: 0.89052414894104
","x: 237.7600860595703
y: 512.7350463867188
z: -0.4771222472190857
visibility: 0.8796095252037048
","x: 240.28395080566406
y: 462.7647705078125
z: -0.4393072724342346
visibility: 0.8960928916931152
","x: 239.84547424316406
y: 511.72998046875
z: -0.4877541661262512
visibility: 0.8809882402420044
","x: 241.26634216308594
y: 461.5569763183594
z: -0.406568706035614
visibility: 0.8481485247612
","x: 239.5543975830078
y: 506.5979309082031
z: -0.4454813003540039
visibility: 0.823158323764801
","x: 253.20021057128906
y: 452.8802795410156
z: 0.009431155398488045
visibility: 0.9998870491981506
","x: 235.0010986328125
y: 451.79486083984375
z: -0.009571344591677189
visibility: 0.9999358057975769
","x: 253.82200622558594
y: 512.0745239257812
z: 0.2012511044740677
visibility: 0.9542495012283325
","x: 225.4089813232422
y: 499.0137939453125
z: 0.07177446782588959
visibility: 0.8748553395271301
","x: 276.6559753417969
y: 535.07080078125
z: 0.5062538385391235
visibility: 0.9699414968490601
","x: 201.93946838378906
y: 539.4312133789062
z: 0.2853369414806366
visibility: 0.8923696875572205
","x: 278.6405029296875
y: 535.7406005859375
z: 0.534949004650116
visibility: 0.9083354473114014
","x: 197.29815673828125
y: 545.9449462890625
z: 0.30455535650253296
visibility: 0.6821686625480652
","x: 282.257080078125
y: 553.7555541992188
z: 0.4658381938934326
visibility: 0.9854530096054077
","x: 206.84202575683594
y: 562.416015625
z: 0.21761390566825867
visibility: 0.8673136830329895
",,,,,,,,,,,,,,,,,,,,,,,,,,,,,,,,,,,,,,,,,,
4,"x: 257.7013854980469
y: 399.4307861328125
z: -0.5933849215507507
visibility: 0.9999868869781494
","x: 258.1796569824219
y: 390.8346252441406
z: -0.5832318067550659
visibility: 0.9999505877494812
","x: 258.9580078125
y: 389.4330139160156
z: -0.5832394957542419
visibility: 0.999950110912323
","x: 259.7296447753906
y: 387.9119873046875
z: -0.5832641124725342
visibility: 0.9999278783798218
","x: 255.40499877929688
y: 392.6318664550781
z: -0.5933729410171509
visibility: 0.999963104724884
","x: 254.2061767578125
y: 392.5243835449219
z: -0.5935076475143433
visibility: 0.9999682903289795
","x: 252.95193481445312
y: 392.2424621582031
z: -0.5935901999473572
visibility: 0.9999688863754272
","x: 259.26544189453125
y: 382.6164245605469
z: -0.4776560664176941
visibility: 0.9998161196708679
","x: 249.64102172851562
y: 388.0766296386719
z: -0.5262051820755005
visibility: 0.9999542832374573
","x: 258.919189453125
y: 402.71478271484375
z: -0.5490463972091675
visibility: 0.9999629259109497
","x: 255.54771423339844
y: 403.8787841796875
z: -0.5632798075675964
visibility: 0.9999828338623047
","x: 271.59893798828125
y: 407.1012878417969
z: -0.34956124424934387
visibility: 0.9999668598175049
","x: 234.5560760498047
y: 410.7532958984375
z: -0.4507525861263275
visibility: 0.9999908804893494
","x: 267.566650390625
y: 464.3341369628906
z: -0.333845317363739
visibility: 0.976731538772583
","x: 235.44232177734375
y: 470.1556396484375
z: -0.47990578413009644
visibility: 0.9775584936141968
","x: 255.96353149414062
y: 508.6959533691406
z: -0.4038354456424713
visibility: 0.9420343041419983
","x: 243.37420654296875
y: 523.090576171875
z: -0.525142252445221
visibility: 0.9374385476112366
","x: 256.2549133300781
y: 521.4246215820312
z: -0.4350602626800537
visibility: 0.8829500079154968
","x: 243.1454620361328
y: 542.1886596679688
z: -0.569778323173523
visibility: 0.8874592185020447
","x: 253.36607360839844
y: 522.0303955078125
z: -0.45294418931007385
visibility: 0.8881558179855347
","x: 246.05320739746094
y: 542.2977294921875
z: -0.5759733319282532
visibility: 0.888493001461029
","x: 252.68008422851562
y: 517.0814208984375
z: -0.41301169991493225
visibility: 0.8407151103019714
","x: 246.4217987060547
y: 536.2061157226562
z: -0.5293053388595581
visibility: 0.8329120874404907
","x: 257.5671081542969
y: 461.2935791015625
z: 0.03163982182741165
visibility: 0.9998977780342102
","x: 239.67575073242188
y: 465.9658203125
z: -0.031669098883867264
visibility: 0.9999421238899231
","x: 261.924072265625
y: 514.6558837890625
z: 0.24106545746326447
visibility: 0.9461777806282043
","x: 232.26718139648438
y: 508.81097412109375
z: 0.008309022523462772
visibility: 0.8865009546279907
","x: 277.20196533203125
y: 535.358154296875
z: 0.5640532374382019
visibility: 0.9656455516815186
","x: 203.18690490722656
y: 539.9110107421875
z: 0.19064030051231384
visibility: 0.9024685621261597
","x: 277.63934326171875
y: 536.7586059570312
z: 0.5939890146255493
visibility: 0.8976475596427917
","x: 199.74537658691406
y: 545.854248046875
z: 0.20634710788726807
visibility: 0.6980960369110107
","x: 283.4991760253906
y: 553.1109008789062
z: 0.535714328289032
visibility: 0.9816786646842957
","x: 206.8077392578125
y: 562.17724609375
z: 0.10905126482248306
visibility: 0.8794994950294495
",,,,,,,,,,,,,,,,,,,,,,,,,,,,,,,,,,,,,,,,,,
5,"x: 262.6974792480469
y: 415.82208251953125
z: -0.5542148947715759
visibility: 0.9999862313270569
","x: 263.7084045410156
y: 407.79736328125
z: -0.546585202217102
visibility: 0.9999514818191528
","x: 264.3890686035156
y: 406.33465576171875
z: -0.5466166138648987
visibility: 0.9999495148658752
","x: 264.9966735839844
y: 404.8466796875
z: -0.5466746091842651
visibility: 0.9999295473098755
","x: 260.7919921875
y: 410.045166015625
z: -0.556641697883606
visibility: 0.9999648332595825
","x: 259.37353515625
y: 410.1266174316406
z: -0.55675208568573
visibility: 0.9999692440032959
","x: 257.8770751953125
y: 410.0027770996094
z: -0.5568212270736694
visibility: 0.9999698996543884
","x: 263.7812194824219
y: 399.4078063964844
z: -0.4513206481933594
visibility: 0.9998169541358948
","x: 253.38487243652344
y: 405.8007507324219
z: -0.499286413192749
visibility: 0.9999564290046692
","x: 263.2228698730469
y: 418.3796691894531
z: -0.5127185583114624
visibility: 0.9999629259109497
","x: 259.7706298828125
y: 419.6432189941406
z: -0.5265203714370728
visibility: 0.9999830722808838
","x: 274.3780822753906
y: 415.14666748046875
z: -0.32750290632247925
visibility: 0.9999695420265198
","x: 234.5853729248047
y: 432.4217224121094
z: -0.42028990387916565
visibility: 0.9999911785125732
","x: 272.28900146484375
y: 470.83245849609375
z: -0.3015516996383667
visibility: 0.9739850163459778
","x: 242.2670135498047
y: 486.8745422363281
z: -0.43684250116348267
visibility: 0.9787193536758423
","x: 262.5910949707031
y: 515.5794677734375
z: -0.34275349974632263
visibility: 0.9399396181106567
","x: 247.61924743652344
y: 537.9053344726562
z: -0.47667211294174194
visibility: 0.9411008358001709
","x: 263.1016845703125
y: 529.582275390625
z: -0.3683379888534546
visibility: 0.8816816806793213
","x: 246.22183227539062
y: 553.37744140625
z: -0.5181153416633606
visibility: 0.8931126594543457
","x: 259.2798156738281
y: 529.3536987304688
z: -0.3892839848995209
visibility: 0.8871467709541321
","x: 249.33837890625
y: 553.97412109375
z: -0.5269852876663208
visibility: 0.894107460975647
","x: 258.7032470703125
y: 524.8631591796875
z: -0.35227054357528687
visibility: 0.8425282835960388
","x: 250.7266082763672
y: 549.130859375
z: -0.48202046751976013
visibility: 0.8405005931854248
","x: 257.9046630859375
y: 455.5553894042969
z: 0.0358039066195488
visibility: 0.999907374382019
","x: 237.3727569580078
y: 454.9100036621094
z: -0.03573909029364586
visibility: 0.999947726726532
","x: 263.78997802734375
y: 514.0607299804688
z: 0.1432458609342575
visibility: 0.9376458525657654
","x: 234.61146545410156
y: 511.2512512207031
z: -0.03008708357810974
visibility: 0.8961087465286255
","x: 276.5101318359375
y: 536.0344848632812
z: 0.443389356136322
visibility: 0.9497045278549194
","x: 203.70327758789062
y: 541.9181518554688
z: 0.14909496903419495
visibility: 0.9114100337028503
","x: 276.41790771484375
y: 537.0781860351562
z: 0.4720696806907654
visibility: 0.8743410110473633
","x: 200.06222534179688
y: 546.1148681640625
z: 0.15770557522773743
visibility: 0.7120731472969055
","x: 284.9269104003906
y: 553.0281982421875
z: 0.42673975229263306
visibility: 0.9682592153549194
","x: 206.8699493408203
y: 563.0963134765625
z: 0.06446608901023865
visibility: 0.8903049230575562
","x: 261.4349365234375
y: 519.4805297851562
z: 0.0
","x: 257.81341552734375
y: 524.4881591796875
z: 0.002152637578547001
","x: 256.0191345214844
y: 530.9891357421875
z: 0.0025482962373644114
","x: 255.64764404296875
y: 535.970458984375
z: 0.0024659724440425634
","x: 255.920166015625
y: 539.5819702148438
z: 0.0027414122596383095
","x: 256.1321716308594
y: 534.7081909179688
z: -0.0006448992062360048
","x: 254.4458770751953
y: 543.6785278320312
z: -0.0009617014438845217
","x: 254.42201232910156
y: 542.6087036132812
z: 0.0004493816231843084
","x: 254.7145538330078
y: 539.3831176757812
z: 0.0017494144849479198
","x: 258.5353088378906
y: 535.5465698242188
z: -0.0022425195202231407
","x: 257.2567138671875
y: 545.0374755859375
z: -0.002291039563715458
","x: 257.1101379394531
y: 544.2021484375
z: -0.0003403949667699635
","x: 257.2816162109375
y: 541.4209594726562
z: 0.0012469772482290864
","x: 260.94183349609375
y: 535.1944580078125
z: -0.0036226033698767424
","x: 260.3339538574219
y: 543.2982788085938
z: -0.0036374516785144806
","x: 260.22308349609375
y: 542.9135131835938
z: -0.0019603963010013103
","x: 260.23944091796875
y: 541.141845703125
z: -0.0007241375860758126
","x: 263.2601623535156
y: 534.1025390625
z: -0.004906324669718742
","x: 263.69677734375
y: 539.4754028320312
z: -0.005361588671803474
","x: 264.1563415527344
y: 539.8123168945312
z: -0.004619726911187172
","x: 264.59814453125
y: 539.1348266601562
z: -0.003759477287530899
",,,,,,,,,,,,,,,,,,,,,
6,"x: 262.6974792480469
y: 415.82208251953125
z: -0.5542148947715759
visibility: 0.9999862313270569
","x: 263.7084045410156
y: 407.79736328125
z: -0.546585202217102
visibility: 0.9999514818191528
","x: 264.3890686035156
y: 406.33465576171875
z: -0.5466166138648987
visibility: 0.9999495148658752
","x: 264.9966735839844
y: 404.8466796875
z: -0.5466746091842651
visibility: 0.9999295473098755
","x: 260.7919921875
y: 410.045166015625
z: -0.556641697883606
visibility: 0.9999648332595825
","x: 259.37353515625
y: 410.1266174316406
z: -0.55675208568573
visibility: 0.9999692440032959
","x: 257.8770751953125
y: 410.0027770996094
z: -0.5568212270736694
visibility: 0.9999698996543884
","x: 263.7812194824219
y: 399.4078063964844
z: -0.4513206481933594
visibility: 0.9998169541358948
","x: 253.38487243652344
y: 405.8007507324219
z: -0.499286413192749
visibility: 0.9999564290046692
","x: 263.2228698730469
y: 418.3796691894531
z: -0.5127185583114624
visibility: 0.9999629259109497
","x: 259.7706298828125
y: 419.6432189941406
z: -0.5265203714370728
visibility: 0.9999830722808838
","x: 274.3780822753906
y: 415.14666748046875
z: -0.32750290632247925
visibility: 0.9999695420265198
","x: 234.5853729248047
y: 432.4217224121094
z: -0.42028990387916565
visibility: 0.9999911785125732
","x: 272.28900146484375
y: 470.83245849609375
z: -0.3015516996383667
visibility: 0.9739850163459778
","x: 242.2670135498047
y: 486.8745422363281
z: -0.43684250116348267
visibility: 0.9787193536758423
","x: 262.5910949707031
y: 515.5794677734375
z: -0.34275349974632263
visibility: 0.9399396181106567
","x: 247.61924743652344
y: 537.9053344726562
z: -0.47667211294174194
visibility: 0.9411008358001709
","x: 263.1016845703125
y: 529.582275390625
z: -0.3683379888534546
visibility: 0.8816816806793213
","x: 246.22183227539062
y: 553.37744140625
z: -0.5181153416633606
visibility: 0.8931126594543457
","x: 259.2798156738281
y: 529.3536987304688
z: -0.3892839848995209
visibility: 0.8871467709541321
","x: 249.33837890625
y: 553.97412109375
z: -0.5269852876663208
visibility: 0.894107460975647
","x: 258.7032470703125
y: 524.8631591796875
z: -0.35227054357528687
visibility: 0.8425282835960388
","x: 250.7266082763672
y: 549.130859375
z: -0.48202046751976013
visibility: 0.8405005931854248
","x: 257.9046630859375
y: 455.5553894042969
z: 0.0358039066195488
visibility: 0.999907374382019
","x: 237.3727569580078
y: 454.9100036621094
z: -0.03573909029364586
visibility: 0.999947726726532
","x: 263.78997802734375
y: 514.0607299804688
z: 0.1432458609342575
visibility: 0.9376458525657654
","x: 234.61146545410156
y: 511.2512512207031
z: -0.03008708357810974
visibility: 0.8961087465286255
","x: 276.5101318359375
y: 536.0344848632812
z: 0.443389356136322
visibility: 0.9497045278549194
","x: 203.70327758789062
y: 541.9181518554688
z: 0.14909496903419495
visibility: 0.9114100337028503
","x: 276.41790771484375
y: 537.0781860351562
z: 0.4720696806907654
visibility: 0.8743410110473633
","x: 200.06222534179688
y: 546.1148681640625
z: 0.15770557522773743
visibility: 0.7120731472969055
","x: 284.9269104003906
y: 553.0281982421875
z: 0.42673975229263306
visibility: 0.9682592153549194
","x: 206.8699493408203
y: 563.0963134765625
z: 0.06446608901023865
visibility: 0.8903049230575562
","x: 261.4349365234375
y: 519.4805297851562
z: 0.0
","x: 257.81341552734375
y: 524.4881591796875
z: 0.002152637578547001
","x: 256.0191345214844
y: 530.9891357421875
z: 0.0025482962373644114
","x: 255.64764404296875
y: 535.970458984375
z: 0.0024659724440425634
","x: 255.920166015625
y: 539.5819702148438
z: 0.0027414122596383095
","x: 256.1321716308594
y: 534.7081909179688
z: -0.0006448992062360048
","x: 254.4458770751953
y: 543.6785278320312
z: -0.0009617014438845217
","x: 254.42201232910156
y: 542.6087036132812
z: 0.0004493816231843084
","x: 254.7145538330078
y: 539.3831176757812
z: 0.0017494144849479198
","x: 258.5353088378906
y: 535.5465698242188
z: -0.0022425195202231407
","x: 257.2567138671875
y: 545.0374755859375
z: -0.002291039563715458
","x: 257.1101379394531
y: 544.2021484375
z: -0.0003403949667699635
","x: 257.2816162109375
y: 541.4209594726562
z: 0.0012469772482290864
","x: 260.94183349609375
y: 535.1944580078125
z: -0.0036226033698767424
","x: 260.3339538574219
y: 543.2982788085938
z: -0.0036374516785144806
","x: 260.22308349609375
y: 542.9135131835938
z: -0.0019603963010013103
","x: 260.23944091796875
y: 541.141845703125
z: -0.0007241375860758126
","x: 263.2601623535156
y: 534.1025390625
z: -0.004906324669718742
","x: 263.69677734375
y: 539.4754028320312
z: -0.005361588671803474
","x: 264.1563415527344
y: 539.8123168945312
z: -0.004619726911187172
","x: 264.59814453125
y: 539.1348266601562
z: -0.003759477287530899
",,,,,,,,,,,,,,,,,,,,,
7,"x: 261.0253601074219
y: 410.9022521972656
z: -0.5361254215240479
visibility: 0.9999798536300659
","x: 261.8266906738281
y: 405.051025390625
z: -0.5273928642272949
visibility: 0.9999238848686218
","x: 262.5892333984375
y: 403.7442321777344
z: -0.527398943901062
visibility: 0.999908983707428
","x: 263.3609924316406
y: 402.2729797363281
z: -0.5274416208267212
visibility: 0.99989253282547
","x: 259.1537170410156
y: 406.26934814453125
z: -0.5344147086143494
visibility: 0.9999529719352722
","x: 257.89373779296875
y: 405.9014892578125
z: -0.5345298051834106
visibility: 0.9999561309814453
","x: 256.54071044921875
y: 405.32452392578125
z: -0.5346177220344543
visibility: 0.9999597072601318
","x: 263.54351806640625
y: 395.6658630371094
z: -0.4351034164428711
visibility: 0.9996915459632874
","x: 252.68603515625
y: 399.8786926269531
z: -0.4723333418369293
visibility: 0.9999430775642395
","x: 261.7765808105469
y: 410.9673767089844
z: -0.4931558072566986
visibility: 0.9999570846557617
","x: 258.7153015136719
y: 412.42840576171875
z: -0.5020076036453247
visibility: 0.9999791383743286
","x: 273.53863525390625
y: 397.9512023925781
z: -0.29281002283096313
visibility: 0.9999721646308899
","x: 237.15972900390625
y: 423.0810546875
z: -0.38730570673942566
visibility: 0.9999914169311523
","x: 280.5643310546875
y: 448.560302734375
z: -0.2494812309741974
visibility: 0.9741717576980591
","x: 241.60292053222656
y: 483.8189697265625
z: -0.39462488889694214
visibility: 0.979371964931488
","x: 270.76470947265625
y: 489.92230224609375
z: -0.3001285195350647
visibility: 0.9386227130889893
","x: 246.4024200439453
y: 536.5697631835938
z: -0.42796340584754944
visibility: 0.944847583770752
","x: 269.5640563964844
y: 501.9978332519531
z: -0.3219165802001953
visibility: 0.8790880441665649
","x: 245.05857849121094
y: 549.850341796875
z: -0.46828189492225647
visibility: 0.8980110287666321
","x: 266.16876220703125
y: 500.34783935546875
z: -0.33997100591659546
visibility: 0.8852377533912659
","x: 247.5977020263672
y: 551.1113891601562
z: -0.4810856878757477
visibility: 0.8990011811256409
","x: 265.7132873535156
y: 496.4150695800781
z: -0.3077625334262848
visibility: 0.8413124680519104
","x: 248.565185546875
y: 546.8721923828125
z: -0.4344451427459717
visibility: 0.8473461866378784
","x: 258.9254455566406
y: 446.240234375
z: 0.03576134145259857
visibility: 0.9999146461486816
","x: 240.10012817382812
y: 447.3593444824219
z: -0.03569784760475159
visibility: 0.9999518990516663
","x: 266.1637878417969
y: 504.72955322265625
z: 0.12150084972381592
visibility: 0.9319607615470886
","x: 235.09127807617188
y: 506.34814453125
z: -0.057393282651901245
visibility: 0.9021665453910828
","x: 278.7620849609375
y: 536.0886840820312
z: 0.3629257380962372
visibility: 0.9484767317771912
","x: 204.2006378173828
y: 542.2118530273438
z: 0.10766253620386124
visibility: 0.9190282821655273
","x: 279.4386901855469
y: 540.3981323242188
z: 0.3841840922832489
visibility: 0.8642654418945312
","x: 198.1787567138672
y: 546.3032836914062
z: 0.12061110883951187
visibility: 0.7197794318199158
","x: 284.54541015625
y: 553.379150390625
z: 0.31628355383872986
visibility: 0.9640236496925354
","x: 207.5535888671875
y: 563.23779296875
z: 0.024599598720669746
visibility: 0.8993630409240723
",,,,,,,,,,,,,,,,,,,,,,,,,,,,,,,,,,,,,,,,,,
8,"x: 260.14141845703125
y: 387.5445861816406
z: -0.5168484449386597
visibility: 0.9999805688858032
","x: 259.8243103027344
y: 379.6743469238281
z: -0.5192703604698181
visibility: 0.9999186992645264
","x: 260.45404052734375
y: 379.2109680175781
z: -0.519285261631012
visibility: 0.9999030232429504
","x: 261.0975036621094
y: 378.7337646484375
z: -0.5193314552307129
visibility: 0.9998849630355835
","x: 257.56011962890625
y: 379.42303466796875
z: -0.5301874279975891
visibility: 0.9999525547027588
","x: 256.5953369140625
y: 378.78375244140625
z: -0.5302555561065674
visibility: 0.9999569058418274
","x: 255.64988708496094
y: 378.00311279296875
z: -0.5305090546607971
visibility: 0.9999605417251587
","x: 261.1331787109375
y: 374.1250915527344
z: -0.42823848128318787
visibility: 0.9996882677078247
","x: 253.05699157714844
y: 373.63134765625
z: -0.4592527449131012
visibility: 0.9999447464942932
","x: 261.3729248046875
y: 394.4539794921875
z: -0.4781923294067383
visibility: 0.9999603033065796
","x: 258.7204284667969
y: 391.4425964355469
z: -0.48857060074806213
visibility: 0.9999803900718689
","x: 272.6440124511719
y: 359.88287353515625
z: -0.26395902037620544
visibility: 0.9999748468399048
","x: 241.5695037841797
y: 398.4042053222656
z: -0.3671121895313263
visibility: 0.9999913573265076
","x: 282.98553466796875
y: 384.3896179199219
z: -0.10524506866931915
visibility: 0.9752388000488281
","x: 238.20086669921875
y: 458.256103515625
z: -0.35843631625175476
visibility: 0.9807884097099304
","x: 277.404052734375
y: 427.0515441894531
z: -0.044617824256420135
visibility: 0.9409865140914917
","x: 238.88771057128906
y: 518.0819091796875
z: -0.3990689516067505
visibility: 0.9490265250205994
","x: 277.0537414550781
y: 438.1982727050781
z: -0.03821887448430061
visibility: 0.8825485706329346
","x: 237.38441467285156
y: 532.6152954101562
z: -0.429970920085907
visibility: 0.903849184513092
","x: 274.94000244140625
y: 438.0339050292969
z: -0.06390461325645447
visibility: 0.8890090584754944
","x: 240.43441772460938
y: 534.5491943359375
z: -0.4539448618888855
visibility: 0.9048480987548828
","x: 274.0162658691406
y: 434.82183837890625
z: -0.050565969198942184
visibility: 0.8460577130317688
","x: 241.44956970214844
y: 528.895751953125
z: -0.40816158056259155
visibility: 0.855908215045929
","x: 259.88348388671875
y: 432.9024658203125
z: 0.02565203607082367
visibility: 0.9999207854270935
","x: 242.22547912597656
y: 430.5232238769531
z: -0.0256333090364933
visibility: 0.9999531507492065
","x: 264.91851806640625
y: 495.1782531738281
z: 0.03084966167807579
visibility: 0.9378218054771423
","x: 232.32928466796875
y: 498.7680358886719
z: -0.10482295602560043
visibility: 0.909797191619873
","x: 280.2826843261719
y: 533.2942504882812
z: 0.2581900954246521
visibility: 0.9524729251861572
","x: 204.2632293701172
y: 542.00830078125
z: 0.028574611991643906
visibility: 0.9263562560081482
","x: 280.4347229003906
y: 539.7022705078125
z: 0.2761037349700928
visibility: 0.8632144927978516
","x: 198.27621459960938
y: 547.1192626953125
z: 0.03666345030069351
visibility: 0.7298151850700378
","x: 284.72601318359375
y: 553.537109375
z: 0.17859242856502533
visibility: 0.9649178981781006
","x: 207.65541076660156
y: 563.1681518554688
z: -0.09078096598386765
visibility: 0.9082828760147095
",,,,,,,,,,,,,,,,,,,,,,,,,,,,,,,,,,,,,,,,,,
9,"x: 260.7964782714844
y: 345.76043701171875
z: -0.47509998083114624
visibility: 0.9999814033508301
","x: 260.4056396484375
y: 338.81951904296875
z: -0.4730417728424072
visibility: 0.999918520450592
","x: 261.0355529785156
y: 337.00836181640625
z: -0.4730297923088074
visibility: 0.9999030828475952
","x: 261.5584411621094
y: 335.1280212402344
z: -0.4730725884437561
visibility: 0.9998868703842163
","x: 257.643310546875
y: 341.67596435546875
z: -0.4839819371700287
visibility: 0.999953031539917
","x: 256.4128112792969
y: 341.96533203125
z: -0.48407047986984253
visibility: 0.999957799911499
","x: 255.3333740234375
y: 342.0636291503906
z: -0.4841906428337097
visibility: 0.9999611973762512
","x: 260.2695007324219
y: 331.1802978515625
z: -0.38668712973594666
visibility: 0.9997019171714783
","x: 252.6024932861328
y: 339.9610900878906
z: -0.43269529938697815
visibility: 0.9999464154243469
","x: 261.91845703125
y: 346.7805480957031
z: -0.4355820119380951
visibility: 0.9999631643295288
","x: 258.8257751464844
y: 349.22314453125
z: -0.44918203353881836
visibility: 0.9999812245368958
","x: 270.3782653808594
y: 326.4488525390625
z: -0.23294517397880554
visibility: 0.999977171421051
","x: 241.7273712158203
y: 371.58575439453125
z: -0.34083932638168335
visibility: 0.9999855756759644
","x: 279.24871826171875
y: 343.8080139160156
z: -0.08052771538496017
visibility: 0.9755913615226746
","x: 235.52471923828125
y: 428.7248229980469
z: -0.3155745565891266
visibility: 0.980774998664856
","x: 279.77679443359375
y: 380.16485595703125
z: -7.418774475809187e-05
visibility: 0.9438556432723999
","x: 235.02281188964844
y: 510.28509521484375
z: -0.33984237909317017
visibility: 0.948789119720459
","x: 280.95263671875
y: 388.524658203125
z: 0.011446431279182434
visibility: 0.8872870206832886
","x: 233.2170867919922
y: 525.5961303710938
z: -0.36130309104919434
visibility: 0.9012728929519653
","x: 278.956787109375
y: 389.06396484375
z: -0.014161281287670135
visibility: 0.8937044739723206
","x: 235.9569854736328
y: 514.418212890625
z: -0.38553911447525024
visibility: 0.9023293256759644
","x: 277.5064392089844
y: 387.19317626953125
z: -0.006199004128575325
visibility: 0.8524431586265564
","x: 236.89910888671875
y: 509.01983642578125
z: -0.3482235372066498
visibility: 0.8536660671234131
","x: 262.918701171875
y: 415.14385986328125
z: 0.023514945060014725
visibility: 0.9999250769615173
","x: 244.86700439453125
y: 415.5963134765625
z: -0.023948630318045616
visibility: 0.9999439716339111
","x: 266.6505432128906
y: 487.78265380859375
z: 0.012939056381583214
visibility: 0.9437125325202942
","x: 231.39895629882812
y: 489.99371337890625
z: -0.06901554763317108
visibility: 0.9168831706047058
","x: 281.6448059082031
y: 534.4508666992188
z: 0.2079528272151947
visibility: 0.9567763805389404
","x: 204.32688903808594
y: 540.2405395507812
z: 0.06755543500185013
visibility: 0.9330165982246399
","x: 280.9194030761719
y: 541.5711669921875
z: 0.22336077690124512
visibility: 0.8633311986923218
","x: 198.73159790039062
y: 546.999267578125
z: 0.07608424872159958
visibility: 0.7405717968940735
","x: 285.0197448730469
y: 554.7192993164062
z: 0.13398298621177673
visibility: 0.9673040509223938
","x: 207.8840789794922
y: 562.3490600585938
z: -0.04101931303739548
visibility: 0.9161320924758911
",,,,,,,,,,,,,,,,,,,,,,,,,,,,,,,,,,,,,,,,,,
10,"x: 261.8936462402344
y: 336.1393737792969
z: -0.44502654671669006
visibility: 0.9999823570251465
","x: 261.3434143066406
y: 328.85577392578125
z: -0.4396006464958191
visibility: 0.9999207258224487
","x: 261.77874755859375
y: 327.13177490234375
z: -0.4395950734615326
visibility: 0.9999060034751892
","x: 262.14910888671875
y: 325.31744384765625
z: -0.43963995575904846
visibility: 0.9998911023139954
","x: 258.7624206542969
y: 331.87701416015625
z: -0.452644020318985
visibility: 0.9999547600746155
","x: 257.4267883300781
y: 332.3126525878906
z: -0.4527243971824646
visibility: 0.9999596476554871
","x: 256.0982360839844
y: 332.5362854003906
z: -0.4528183341026306
visibility: 0.9999628067016602
","x: 260.0748291015625
y: 320.7406921386719
z: -0.3461402356624603
visibility: 0.9997140169143677
","x: 252.14309692382812
y: 330.13372802734375
z: -0.4026101529598236
visibility: 0.99994957447052
","x: 262.63616943359375
y: 337.2171325683594
z: -0.4034779965877533
visibility: 0.9999658465385437
","x: 259.5773620605469
y: 340.8183288574219
z: -0.4201835095882416
visibility: 0.9999824166297913
","x: 269.7764587402344
y: 322.5484619140625
z: -0.19961586594581604
visibility: 0.9999792575836182
","x: 239.80296325683594
y: 365.77496337890625
z: -0.31634974479675293
visibility: 0.9999807476997375
","x: 277.82037353515625
y: 337.7581787109375
z: -0.05384588986635208
visibility: 0.9753080606460571
","x: 233.07408142089844
y: 422.2469482421875
z: -0.2965181767940521
visibility: 0.9812418818473816
","x: 283.00860595703125
y: 372.5485534667969
z: 0.009519228711724281
visibility: 0.9455320239067078
","x: 233.57058715820312
y: 492.9066467285156
z: -0.32044297456741333
visibility: 0.9488178491592407
","x: 284.1907653808594
y: 380.87158203125
z: 0.017438102513551712
visibility: 0.8899261951446533
","x: 232.36166381835938
y: 512.2777099609375
z: -0.34040307998657227
visibility: 0.8995238542556763
","x: 282.56842041015625
y: 381.16253662109375
z: -0.008019881322979927
visibility: 0.8966552019119263
","x: 234.94366455078125
y: 509.7568054199219
z: -0.3652094304561615
visibility: 0.9009227156639099
","x: 281.421875
y: 378.8385314941406
z: 0.002479411428794265
visibility: 0.8574609160423279
","x: 235.8319091796875
y: 503.90155029296875
z: -0.3284572958946228
visibility: 0.8528490662574768
","x: 263.0355224609375
y: 413.7850646972656
z: 0.021964315325021744
visibility: 0.9999287724494934
","x: 243.92660522460938
y: 415.3062438964844
z: -0.022244449704885483
visibility: 0.9999340772628784
","x: 266.9315490722656
y: 484.4090576171875
z: 0.015188746154308319
visibility: 0.9490746259689331
","x: 231.16549682617188
y: 489.8959045410156
z: -0.06131657958030701
visibility: 0.923866868019104
","x: 282.2989501953125
y: 534.7980346679688
z: 0.2164493054151535
visibility: 0.9608418941497803
","x: 204.11737060546875
y: 539.325439453125
z: 0.07539401948451996
visibility: 0.9392126202583313
","x: 282.14923095703125
y: 542.03076171875
z: 0.23078052699565887
visibility: 0.8678306937217712
","x: 197.8659210205078
y: 546.696044921875
z: 0.08390187472105026
visibility: 0.7525907754898071
","x: 284.74127197265625
y: 554.1785888671875
z: 0.12858383357524872
visibility: 0.9698666334152222
","x: 207.9999542236328
y: 562.3505859375
z: -0.03525155410170555
visibility: 0.9235659837722778
",,,,,,,,,,,,,,,,,,,,,,,,,,,,,,,,,,,,,,,,,,
11,"x: 263.6081237792969
y: 340.7016296386719
z: -0.440084844827652
visibility: 0.9999826550483704
","x: 262.400146484375
y: 333.3719482421875
z: -0.43470174074172974
visibility: 0.9999209642410278
","x: 262.68719482421875
y: 331.6358947753906
z: -0.4346798062324524
visibility: 0.9999061226844788
","x: 262.9131774902344
y: 329.71417236328125
z: -0.4347313344478607
visibility: 0.9998916983604431
","x: 260.0854797363281
y: 336.4897155761719
z: -0.4477364420890808
visibility: 0.9999557733535767
","x: 258.7312316894531
y: 337.0290832519531
z: -0.44782620668411255
visibility: 0.9999611377716064
","x: 257.2921447753906
y: 337.4433898925781
z: -0.4479045271873474
visibility: 0.9999640583992004
","x: 260.34283447265625
y: 326.0872802734375
z: -0.34416505694389343
visibility: 0.9997214674949646
","x: 252.5109100341797
y: 336.6191101074219
z: -0.4010113775730133
visibility: 0.9999526739120483
","x: 264.11962890625
y: 342.747802734375
z: -0.39991387724876404
visibility: 0.9999675750732422
","x: 260.8331298828125
y: 346.3150329589844
z: -0.41676896810531616
visibility: 0.999983012676239
","x: 270.1055908203125
y: 329.9586486816406
z: -0.20624808967113495
visibility: 0.9999810457229614
","x: 239.5861053466797
y: 369.64227294921875
z: -0.31896957755088806
visibility: 0.9999769926071167
","x: 279.9479675292969
y: 347.099853515625
z: -0.0485750250518322
visibility: 0.974869966506958
","x: 230.25901794433594
y: 426.4564208984375
z: -0.3107641339302063
visibility: 0.9815672039985657
","x: 287.08038330078125
y: 376.6869812011719
z: 0.037399161607027054
visibility: 0.9465502500534058
","x: 232.06146240234375
y: 489.2586669921875
z: -0.33129239082336426
visibility: 0.946207582950592
","x: 288.5827331542969
y: 383.85662841796875
z: 0.05233590677380562
visibility: 0.8910563588142395
","x: 231.0644073486328
y: 504.8703308105469
z: -0.3475826382637024
visibility: 0.8934964537620544
","x: 286.2467956542969
y: 383.908447265625
z: 0.030138781294226646
visibility: 0.8985982537269592
","x: 233.5362548828125
y: 503.9606018066406
z: -0.3713374435901642
visibility: 0.8956037759780884
","x: 285.1950378417969
y: 382.21685791015625
z: 0.03254402428865433
visibility: 0.8617342114448547
","x: 234.59458923339844
y: 498.94940185546875
z: -0.3388579487800598
visibility: 0.8480656743049622
","x: 262.9073791503906
y: 416.7391357421875
z: 0.021134164184331894
visibility: 0.9999326467514038
","x: 243.4001007080078
y: 418.9680480957031
z: -0.021397894248366356
visibility: 0.9999298453330994
","x: 267.3371276855469
y: 484.3972473144531
z: 0.012200606986880302
visibility: 0.95377516746521
","x: 232.01536560058594
y: 490.8992004394531
z: -0.06766493618488312
visibility: 0.9303091764450073
","x: 282.0777282714844
y: 535.2289428710938
z: 0.20369386672973633
visibility: 0.9644855260848999
","x: 203.98663330078125
y: 539.3262939453125
z: 0.05161375552415848
visibility: 0.9448162913322449
","x: 281.60516357421875
y: 541.7197265625
z: 0.217716246843338
visibility: 0.8724122047424316
","x: 197.64349365234375
y: 546.2920532226562
z: 0.05904683470726013
visibility: 0.762589693069458
","x: 284.9978942871094
y: 555.416015625
z: 0.12210819870233536
visibility: 0.9721517562866211
","x: 207.92312622070312
y: 562.3409423828125
z: -0.04966890066862106
visibility: 0.9304201006889343
",,,,,,,,,,,,,,,,,,,,,,,,,,,,,,,,,,,,,,,,,,
12,"x: 263.45562744140625
y: 347.89300537109375
z: -0.4433601498603821
visibility: 0.9999833106994629
","x: 262.5917663574219
y: 341.5958251953125
z: -0.43860092759132385
visibility: 0.9999200105667114
","x: 263.0755310058594
y: 339.0179748535156
z: -0.43856239318847656
visibility: 0.9999054074287415
","x: 263.5065002441406
y: 336.4963073730469
z: -0.4385985732078552
visibility: 0.9998896718025208
","x: 259.9638671875
y: 347.62335205078125
z: -0.4493381977081299
visibility: 0.9999565482139587
","x: 258.67333984375
y: 349.03997802734375
z: -0.44941431283950806
visibility: 0.999962568283081
","x: 257.4052734375
y: 350.20831298828125
z: -0.4494840204715729
visibility: 0.9999651908874512
","x: 261.64453125
y: 335.4693908691406
z: -0.3526710867881775
visibility: 0.999725341796875
","x: 253.22645568847656
y: 349.6309814453125
z: -0.3995209336280823
visibility: 0.9999555945396423
","x: 264.2625427246094
y: 346.4656066894531
z: -0.40553051233291626
visibility: 0.9999684691429138
","x: 261.08795166015625
y: 354.02325439453125
z: -0.4193389415740967
visibility: 0.9999831318855286
","x: 269.8858947753906
y: 340.2449035644531
z: -0.21276266872882843
visibility: 0.9999825954437256
","x: 238.785400390625
y: 382.5979309082031
z: -0.3243730664253235
visibility: 0.9999755024909973
","x: 279.7787780761719
y: 351.9949951171875
z: -0.0418337807059288
visibility: 0.9755678176879883
","x: 228.79849243164062
y: 440.2887268066406
z: -0.3287200331687927
visibility: 0.9829269647598267
","x: 290.7133483886719
y: 377.8481750488281
z: 0.07198981195688248
visibility: 0.949702262878418
","x: 229.95240783691406
y: 496.7535400390625
z: -0.3685927987098694
visibility: 0.9499559998512268
","x: 293.4229431152344
y: 386.21282958984375
z: 0.09495153278112411
visibility: 0.8963093161582947
","x: 227.54600524902344
y: 511.1116027832031
z: -0.3915392756462097
visibility: 0.8988837599754333
","x: 291.13031005859375
y: 388.0322570800781
z: 0.07247196137905121
visibility: 0.9044471383094788
","x: 230.88531494140625
y: 511.5585021972656
z: -0.41189271211624146
visibility: 0.9012653827667236
","x: 289.5621643066406
y: 386.883056640625
z: 0.0676988959312439
visibility: 0.870975911617279
","x: 232.32772827148438
y: 506.7229919433594
z: -0.3753851056098938
visibility: 0.8569663763046265
","x: 262.78546142578125
y: 424.6636962890625
z: 0.022140424698591232
visibility: 0.9999381899833679
","x: 243.9197998046875
y: 429.3807678222656
z: -0.022454192861914635
visibility: 0.9999289512634277
","x: 267.9405822753906
y: 487.5579528808594
z: -0.03570004552602768
visibility: 0.9581502676010132
","x: 232.65292358398438
y: 500.05975341796875
z: -0.07125726342201233
visibility: 0.9367815256118774
","x: 282.49407958984375
y: 535.9259643554688
z: 0.1416764110326767
visibility: 0.9678624272346497
","x: 203.92074584960938
y: 538.9824829101562
z: 0.06510482728481293
visibility: 0.950044572353363
","x: 282.1603698730469
y: 542.3088989257812
z: 0.15398277342319489
visibility: 0.8807640075683594
","x: 197.1427001953125
y: 545.5928344726562
z: 0.07483594119548798
visibility: 0.7757228016853333
","x: 286.3938903808594
y: 555.6633911132812
z: 0.06057210639119148
visibility: 0.9745349884033203
","x: 207.87417602539062
y: 562.318359375
z: -0.028897052630782127
visibility: 0.9368888139724731
",,,,,,,,,,,,,,,,,,,,,,,,,,,,,,,,,,,,,,,,,,
13,"x: 262.9075927734375
y: 366.9314880371094
z: -0.43946900963783264
visibility: 0.999984085559845
","x: 263.09991455078125
y: 361.9617919921875
z: -0.43937763571739197
visibility: 0.9999181032180786
","x: 263.8846130371094
y: 359.9984130859375
z: -0.43932849168777466
visibility: 0.9999023675918579
","x: 264.6172180175781
y: 357.9580383300781
z: -0.4393492341041565
visibility: 0.999884307384491
","x: 259.96917724609375
y: 365.5335998535156
z: -0.4486313462257385
visibility: 0.9999575614929199
","x: 258.59246826171875
y: 366.0262756347656
z: -0.4487014710903168
visibility: 0.9999641180038452
","x: 257.30181884765625
y: 366.28466796875
z: -0.448784202337265
visibility: 0.9999668002128601
","x: 263.310302734375
y: 352.12481689453125
z: -0.3646543323993683
visibility: 0.9997250437736511
","x: 253.5252227783203
y: 362.5403137207031
z: -0.4051547050476074
visibility: 0.9999586939811707
","x: 264.2020263671875
y: 364.86468505859375
z: -0.4051763117313385
visibility: 0.9999692440032959
","x: 260.3078308105469
y: 369.8645324707031
z: -0.4170467257499695
visibility: 0.9999836683273315
","x: 269.5189514160156
y: 342.5610656738281
z: -0.22328779101371765
visibility: 0.9999838471412659
","x: 238.10330200195312
y: 387.81024169921875
z: -0.3272645175457001
visibility: 0.9999765157699585
","x: 280.5940246582031
y: 350.94171142578125
z: -0.050584644079208374
visibility: 0.9749417304992676
","x: 228.13565063476562
y: 446.5890808105469
z: -0.3590920567512512
visibility: 0.9841097593307495
","x: 291.68463134765625
y: 376.7799072265625
z: 0.06132650375366211
visibility: 0.9491831064224243
","x: 227.7681884765625
y: 500.5066223144531
z: -0.4073675572872162
visibility: 0.9535329341888428
","x: 294.5498352050781
y: 384.80328369140625
z: 0.08341528475284576
visibility: 0.8941804766654968
","x: 225.61886596679688
y: 514.584716796875
z: -0.42510610818862915
visibility: 0.904199481010437
","x: 292.4222717285156
y: 387.38690185546875
z: 0.061332859098911285
visibility: 0.9044538736343384
","x: 228.99795532226562
y: 515.5740966796875
z: -0.44887036085128784
visibility: 0.9069049954414368
","x: 290.88885498046875
y: 386.3711242675781
z: 0.05669296905398369
visibility: 0.8743851780891418
","x: 230.3385772705078
y: 510.9815979003906
z: -0.4152451157569885
visibility: 0.8656003475189209
","x: 262.6329345703125
y: 427.56201171875
z: 0.022590026259422302
visibility: 0.9999436140060425
","x: 244.8651123046875
y: 431.5811462402344
z: -0.022905584424734116
visibility: 0.999933123588562
","x: 267.68206787109375
y: 488.336181640625
z: -0.022463316097855568
visibility: 0.9620533585548401
","x: 233.36929321289062
y: 503.084228515625
z: -0.0691530853509903
visibility: 0.9426116347312927
","x: 282.5724182128906
y: 535.4160766601562
z: 0.15698060393333435
visibility: 0.9708676934242249
","x: 204.02813720703125
y: 538.7901000976562
z: 0.06505944579839706
visibility: 0.9547585248947144
","x: 282.619873046875
y: 541.963134765625
z: 0.17142631113529205
visibility: 0.8869072794914246
","x: 197.1785430908203
y: 545.6473388671875
z: 0.07458982616662979
visibility: 0.7880080938339233
","x: 286.3798828125
y: 555.9019775390625
z: 0.0660841315984726
visibility: 0.9766092896461487
","x: 207.852783203125
y: 562.129638671875
z: -0.03184599429368973
visibility: 0.942764401435852
",,,,,,,,,,,,,,,,,,,,,,,,,,,,,,,,,,,,,,,,,,
14,"x: 264.6375732421875
y: 367.9404296875
z: -0.439521849155426
visibility: 0.9999843835830688
","x: 264.7950439453125
y: 363.6333923339844
z: -0.44018831849098206
visibility: 0.9999145269393921
","x: 265.4424133300781
y: 362.03314208984375
z: -0.44014063477516174
visibility: 0.9998965859413147
","x: 266.0739440917969
y: 360.30596923828125
z: -0.4401710629463196
visibility: 0.9998756051063538
","x: 261.9753723144531
y: 366.49468994140625
z: -0.45080819725990295
visibility: 0.9999579787254333
","x: 260.60540771484375
y: 366.9363708496094
z: -0.45088353753089905
visibility: 0.9999651312828064
","x: 259.1097717285156
y: 367.2175598144531
z: -0.4509710669517517
visibility: 0.9999679923057556
","x: 264.2964782714844
y: 354.33636474609375
z: -0.36647409200668335
visibility: 0.9997144341468811
","x: 254.34022521972656
y: 363.7995910644531
z: -0.41063132882118225
visibility: 0.9999615550041199
","x: 265.2817687988281
y: 366.52874755859375
z: -0.404278039932251
visibility: 0.9999696016311646
","x: 261.8533630371094
y: 370.34283447265625
z: -0.4180946946144104
visibility: 0.999984085559845
","x: 268.7498474121094
y: 339.5774841308594
z: -0.21889996528625488
visibility: 0.9999849796295166
","x: 237.75881958007812
y: 385.6161193847656
z: -0.32857397198677063
visibility: 0.9999780058860779
","x: 280.9720764160156
y: 344.4430236816406
z: -0.031049275770783424
visibility: 0.9737412929534912
","x: 228.3113250732422
y: 445.9547119140625
z: -0.35587137937545776
visibility: 0.9851447343826294
","x: 292.060302734375
y: 371.443115234375
z: 0.08801279217004776
visibility: 0.947166919708252
","x: 228.46920776367188
y: 497.4468994140625
z: -0.40400153398513794
visibility: 0.9564529657363892
","x: 294.749755859375
y: 378.5003662109375
z: 0.11126001179218292
visibility: 0.8895197510719299
","x: 226.35830688476562
y: 511.13714599609375
z: -0.42485111951828003
visibility: 0.908295214176178
","x: 292.8080139160156
y: 382.0243835449219
z: 0.08819504827260971
visibility: 0.9021820425987244
","x: 230.01058959960938
y: 512.7858276367188
z: -0.44637054204940796
visibility: 0.9114135503768921
","x: 291.33709716796875
y: 381.0648193359375
z: 0.08321183919906616
visibility: 0.875197172164917
","x: 231.1857147216797
y: 507.9031066894531
z: -0.41139429807662964
visibility: 0.8723050355911255
","x: 262.6962890625
y: 425.55682373046875
z: 0.022526729851961136
visibility: 0.9999486804008484
","x: 245.22337341308594
y: 430.22271728515625
z: -0.02282794937491417
visibility: 0.9999385476112366
","x: 267.89007568359375
y: 488.18841552734375
z: 0.0034933097194880247
visibility: 0.9654684066772461
","x: 232.42886352539062
y: 499.9681091308594
z: -0.08053700625896454
visibility: 0.9475637674331665
","x: 282.6962890625
y: 534.7637329101562
z: 0.22195056080818176
visibility: 0.9734722375869751
","x: 203.93191528320312
y: 538.8284912109375
z: 0.05103099346160889
visibility: 0.958850085735321
","x: 282.7954406738281
y: 541.2157592773438
z: 0.23811209201812744
visibility: 0.8900464177131653
","x: 197.0888214111328
y: 545.7310180664062
z: 0.05990754812955856
visibility: 0.7961410284042358
","x: 286.0030212402344
y: 555.7271728515625
z: 0.13962601125240326
visibility: 0.9782768487930298
","x: 207.87159729003906
y: 562.1099243164062
z: -0.05170171707868576
visibility: 0.9479527473449707
",,,,,,,,,,,,,,,,,,,,,,,,,,,,,,,,,,,,,,,,,,
15,"x: 265.06915283203125
y: 366.48193359375
z: -0.4474088251590729
visibility: 0.9999849796295166
","x: 265.1715393066406
y: 361.75604248046875
z: -0.44599470496177673
visibility: 0.9999151229858398
","x: 265.7760314941406
y: 360.1713562011719
z: -0.44594019651412964
visibility: 0.9998958706855774
","x: 266.34332275390625
y: 358.473876953125
z: -0.44596830010414124
visibility: 0.999873697757721
","x: 262.3299255371094
y: 364.6942443847656
z: -0.45697498321533203
visibility: 0.9999597072601318
","x: 260.91668701171875
y: 365.1982116699219
z: -0.4570508897304535
visibility: 0.9999669790267944
","x: 259.40557861328125
y: 365.53277587890625
z: -0.4571380019187927
visibility: 0.9999699592590332
","x: 264.5061950683594
y: 353.17620849609375
z: -0.36717402935028076
visibility: 0.9997142553329468
","x: 254.8660430908203
y: 362.80584716796875
z: -0.4130481779575348
visibility: 0.9999645948410034
","x: 265.56951904296875
y: 365.8199768066406
z: -0.41082048416137695
visibility: 0.9999701976776123
","x: 262.2193298339844
y: 369.33154296875
z: -0.4251022934913635
visibility: 0.9999847412109375
","x: 268.22393798828125
y: 339.132080078125
z: -0.21694409847259521
visibility: 0.9999856352806091
","x: 241.1202392578125
y: 387.6076965332031
z: -0.33252042531967163
visibility: 0.9999792575836182
","x: 279.4390869140625
y: 340.45184326171875
z: -0.021795298904180527
visibility: 0.9717251658439636
","x: 228.0219268798828
y: 444.282958984375
z: -0.361172080039978
visibility: 0.9861540794372559
","x: 291.5937194824219
y: 364.56646728515625
z: 0.10764144361019135
visibility: 0.943014919757843
","x: 229.06338500976562
y: 495.6603698730469
z: -0.411231130361557
visibility: 0.959235668182373
","x: 294.5089111328125
y: 371.40997314453125
z: 0.13426363468170166
visibility: 0.8819181323051453
","x: 228.13784790039062
y: 508.84051513671875
z: -0.430189311504364
visibility: 0.9124988317489624
","x: 293.24005126953125
y: 375.0010986328125
z: 0.11030949652194977
visibility: 0.8974213600158691
","x: 232.0347900390625
y: 510.3641052246094
z: -0.45179542899131775
visibility: 0.9159167408943176
","x: 291.949951171875
y: 373.9376220703125
z: 0.10266894102096558
visibility: 0.8740212321281433
","x: 232.86761474609375
y: 505.6224365234375
z: -0.41798049211502075
visibility: 0.8788033127784729
","x: 262.6294860839844
y: 424.9437255859375
z: 0.02268213778734207
visibility: 0.9999531507492065
","x: 244.8987274169922
y: 429.9865417480469
z: -0.023012815043330193
visibility: 0.9999435544013977
","x: 268.396240234375
y: 487.8258972167969
z: 0.0076085166074335575
visibility: 0.9686377644538879
","x: 232.15438842773438
y: 498.4964294433594
z: -0.09021501988172531
visibility: 0.952343225479126
","x: 282.0140686035156
y: 534.1509399414062
z: 0.2207643687725067
visibility: 0.9759203195571899
","x: 203.51206970214844
y: 538.8033447265625
z: 0.026215434074401855
visibility: 0.9626685976982117
","x: 282.0557556152344
y: 540.7908935546875
z: 0.23600491881370544
visibility: 0.8946421146392822
","x: 196.5550994873047
y: 545.6636352539062
z: 0.0334538072347641
visibility: 0.8049357533454895
","x: 285.4844055175781
y: 554.7891845703125
z: 0.13617655634880066
visibility: 0.9799923896789551
","x: 207.34188842773438
y: 562.1724243164062
z: -0.08040205389261246
visibility: 0.9527743458747864
",,,,,,,,,,,,,,,,,,,,,,,,,,,,,,,,,,,,,,,,,,
16,"x: 266.04034423828125
y: 369.46051025390625
z: -0.45399466156959534
visibility: 0.9999860525131226
","x: 265.4069519042969
y: 363.9910888671875
z: -0.4519146978855133
visibility: 0.9999191164970398
","x: 265.772216796875
y: 362.24810791015625
z: -0.4518720209598541
visibility: 0.999900221824646
","x: 266.102294921875
y: 360.4603576660156
z: -0.4519025385379791
visibility: 0.9998772740364075
","x: 262.9244689941406
y: 367.7522277832031
z: -0.46176567673683167
visibility: 0.9999624490737915
","x: 261.5608215332031
y: 368.66656494140625
z: -0.4618507921695709
visibility: 0.9999694228172302
","x: 260.0234375
y: 369.460693359375
z: -0.46193546056747437
visibility: 0.9999722242355347
","x: 263.8344421386719
y: 356.3986511230469
z: -0.3701401352882385
visibility: 0.9997268319129944
","x: 255.78663635253906
y: 368.609619140625
z: -0.4194602966308594
visibility: 0.999967634677887
","x: 266.4417419433594
y: 368.9366455078125
z: -0.41547608375549316
visibility: 0.9999712109565735
","x: 263.4097900390625
y: 373.063232421875
z: -0.42681726813316345
visibility: 0.9999854564666748
","x: 267.7933349609375
y: 341.427978515625
z: -0.22512610256671906
visibility: 0.999985933303833
","x: 241.95860290527344
y: 397.197265625
z: -0.3502956032752991
visibility: 0.9999799132347107
","x: 279.67547607421875
y: 348.5267639160156
z: -0.025586102157831192
visibility: 0.9703807830810547
","x: 227.84121704101562
y: 448.89825439453125
z: -0.39100897312164307
visibility: 0.9872288703918457
","x: 292.8981628417969
y: 366.0829162597656
z: 0.13009296357631683
visibility: 0.943853497505188
","x: 228.93679809570312
y: 501.03387451171875
z: -0.42897605895996094
visibility: 0.9624789357185364
","x: 296.31146240234375
y: 372.42236328125
z: 0.16323204338550568
visibility: 0.8833600878715515
","x: 228.09530639648438
y: 515.4334106445312
z: -0.44414010643959045
visibility: 0.9181671738624573
","x: 294.9335021972656
y: 375.49188232421875
z: 0.13917486369609833
visibility: 0.9000722765922546
","x: 231.81980895996094
y: 516.1151733398438
z: -0.4636663794517517
visibility: 0.9215671420097351
","x: 293.4317932128906
y: 374.6327209472656
z: 0.12602125108242035
visibility: 0.8797593116760254
","x: 232.70018005371094
y: 510.7055358886719
z: -0.43474406003952026
visibility: 0.8870326280593872
","x: 262.8564147949219
y: 431.2362060546875
z: 0.025453483685851097
visibility: 0.9999573230743408
","x: 244.99151611328125
y: 436.1041259765625
z: -0.02584947645664215
visibility: 0.9999467730522156
","x: 268.6246337890625
y: 491.09564208984375
z: -0.0551099069416523
visibility: 0.9714905023574829
","x: 232.72354125976562
y: 503.02618408203125
z: -0.09752903878688812
visibility: 0.9566932320594788
","x: 282.3069152832031
y: 534.7562255859375
z: 0.1477569043636322
visibility: 0.9781090021133423
","x: 203.77682495117188
y: 538.8245239257812
z: 0.04373853653669357
visibility: 0.9660494327545166
","x: 282.1009521484375
y: 541.1986694335938
z: 0.16250884532928467
visibility: 0.9007688164710999
","x: 196.69204711914062
y: 545.672607421875
z: 0.05382627248764038
visibility: 0.8129088878631592
","x: 286.06610107421875
y: 554.6268310546875
z: 0.06749521940946579
visibility: 0.9816294312477112
","x: 207.29832458496094
y: 562.1083984375
z: -0.05272367596626282
visibility: 0.9570508003234863
",,,,,,,,,,,,,,,,,,,,,,,,,,,,,,,,,,,,,,,,,,
17,"x: 265.88763427734375
y: 382.15167236328125
z: -0.446037620306015
visibility: 0.9999867677688599
","x: 265.91302490234375
y: 376.8282470703125
z: -0.4438742697238922
visibility: 0.999919593334198
","x: 266.43292236328125
y: 374.74993896484375
z: -0.4438014030456543
visibility: 0.999899685382843
","x: 266.9034118652344
y: 372.546142578125
z: -0.4438075125217438
visibility: 0.9998741745948792
","x: 262.9530334472656
y: 380.6563720703125
z: -0.45465049147605896
visibility: 0.99996417760849
","x: 261.4751281738281
y: 381.2387390136719
z: -0.45472413301467896
visibility: 0.9999710917472839
","x: 259.9295959472656
y: 381.64984130859375
z: -0.4548153281211853
visibility: 0.9999738931655884
","x: 264.6346435546875
y: 366.0943908691406
z: -0.36758846044540405
visibility: 0.9997239708900452
","x: 255.12765502929688
y: 380.1021728515625
z: -0.41656598448753357
visibility: 0.9999699592590332
","x: 266.4231872558594
y: 380.5765075683594
z: -0.4108685851097107
visibility: 0.9999697804450989
","x: 262.69610595703125
y: 385.2540588378906
z: -0.42462483048439026
visibility: 0.9999853372573853
","x: 267.584228515625
y: 350.0655822753906
z: -0.22345073521137238
visibility: 0.9999858140945435
","x: 241.8748321533203
y: 404.2335205078125
z: -0.34740540385246277
visibility: 0.9999807476997375
","x: 279.2668151855469
y: 352.5131530761719
z: -0.03170881047844887
visibility: 0.9671051502227783
","x: 227.9300994873047
y: 455.5985107421875
z: -0.38806796073913574
visibility: 0.9879269599914551
","x: 293.6932373046875
y: 368.68359375
z: 0.10462949424982071
visibility: 0.9440451264381409
","x: 228.92433166503906
y: 505.7427978515625
z: -0.4347383379936218
visibility: 0.9652779698371887
","x: 297.85662841796875
y: 376.1491394042969
z: 0.13334181904792786
visibility: 0.884018063545227
","x: 228.0824432373047
y: 519.8443603515625
z: -0.45190826058387756
visibility: 0.9230239391326904
","x: 296.6028747558594
y: 379.8719482421875
z: 0.10980194807052612
visibility: 0.9019392132759094
","x: 231.7564697265625
y: 520.3385009765625
z: -0.4727984368801117
visibility: 0.9264757633209229
","x: 295.0678405761719
y: 378.4857177734375
z: 0.09994955360889435
visibility: 0.8843111395835876
","x: 232.60171508789062
y: 515.4901733398438
z: -0.44137224555015564
visibility: 0.8942395448684692
","x: 262.3087158203125
y: 437.20819091796875
z: 0.025385955348610878
visibility: 0.9999610185623169
","x: 244.80416870117188
y: 440.2799987792969
z: -0.025749385356903076
visibility: 0.9999505877494812
","x: 267.98681640625
y: 492.6799011230469
z: -0.03257230669260025
visibility: 0.9739413261413574
","x: 233.08163452148438
y: 502.6298828125
z: -0.09221591800451279
visibility: 0.960375189781189
","x: 282.3041076660156
y: 535.5582275390625
z: 0.16606366634368896
visibility: 0.9800431728363037
","x: 204.29835510253906
y: 539.7412719726562
z: 0.04119999334216118
visibility: 0.9690756797790527
","x: 282.7015686035156
y: 542.2642822265625
z: 0.18034246563911438
visibility: 0.9048464298248291
","x: 196.9225311279297
y: 546.92529296875
z: 0.0504780039191246
visibility: 0.8197178244590759
","x: 285.5064392089844
y: 554.3018188476562
z: 0.08301224559545517
visibility: 0.9830291271209717
","x: 207.37802124023438
y: 562.233642578125
z: -0.05752070993185043
visibility: 0.9609299898147583
",,,,,,,,,,,,,,,,,,,,,,,,,,,,,,,,,,,,,,,,,,
18,"x: 268.74072265625
y: 383.371826171875
z: -0.44596490263938904
visibility: 0.9999874234199524
","x: 268.48272705078125
y: 377.99554443359375
z: -0.4440677762031555
visibility: 0.9999197125434875
","x: 268.7869873046875
y: 376.0778503417969
z: -0.44399553537368774
visibility: 0.9998988509178162
","x: 269.0727233886719
y: 374.0588684082031
z: -0.4440084993839264
visibility: 0.9998703002929688
","x: 266.5283203125
y: 381.5699768066406
z: -0.45643487572669983
visibility: 0.9999656677246094
","x: 265.4120178222656
y: 382.2510986328125
z: -0.4565138816833496
visibility: 0.9999725818634033
","x: 264.15106201171875
y: 382.8421325683594
z: -0.4566074311733246
visibility: 0.9999752044677734
","x: 266.5198059082031
y: 368.47308349609375
z: -0.3689461052417755
visibility: 0.9997216463088989
","x: 258.3197021484375
y: 381.81964111328125
z: -0.4245675504207611
visibility: 0.9999721050262451
","x: 268.6036682128906
y: 382.4358825683594
z: -0.411175400018692
visibility: 0.999968945980072
","x: 266.02862548828125
y: 386.0613708496094
z: -0.42723774909973145
visibility: 0.9999853372573853
","x: 267.37701416015625
y: 350.86199951171875
z: -0.22640633583068848
visibility: 0.9999855756759644
","x: 241.6462860107422
y: 406.30181884765625
z: -0.35454779863357544
visibility: 0.9999811053276062
","x: 280.03759765625
y: 350.6738586425781
z: -0.031415872275829315
visibility: 0.964872419834137
","x: 228.07147216796875
y: 457.3360595703125
z: -0.3901021182537079
visibility: 0.9885354042053223
","x: 294.6897888183594
y: 368.38006591796875
z: 0.11212273687124252
visibility: 0.9445611238479614
","x: 230.3203125
y: 506.1135559082031
z: -0.42836689949035645
visibility: 0.9676442742347717
","x: 298.70416259765625
y: 376.25567626953125
z: 0.14203086495399475
visibility: 0.8849515318870544
","x: 229.9875946044922
y: 520.4693603515625
z: -0.4456344246864319
visibility: 0.9270110130310059
","x: 297.1117248535156
y: 380.28143310546875
z: 0.11840386688709259
visibility: 0.9038490653038025
","x: 233.77565002441406
y: 520.5352783203125
z: -0.4655884802341461
visibility: 0.9305033087730408
","x: 295.6548767089844
y: 378.6290283203125
z: 0.10793701559305191
visibility: 0.8887172341346741
","x: 234.62376403808594
y: 515.8301391601562
z: -0.4344220757484436
visibility: 0.9001098871231079
","x: 261.9923400878906
y: 435.9718017578125
z: 0.027889659628272057
visibility: 0.9999639987945557
","x: 244.31808471679688
y: 439.39508056640625
z: -0.02821294590830803
visibility: 0.9999530911445618
","x: 267.7054138183594
y: 492.24114990234375
z: -0.021337606012821198
visibility: 0.9758843779563904
","x: 232.6841583251953
y: 502.6451416015625
z: -0.08825953304767609
visibility: 0.9634933471679688
","x: 282.2838439941406
y: 535.943603515625
z: 0.17184258997440338
visibility: 0.9816591739654541
","x: 204.2529296875
y: 540.3553466796875
z: 0.049038976430892944
visibility: 0.9717766046524048
","x: 282.3737487792969
y: 542.388671875
z: 0.18473312258720398
visibility: 0.907744824886322
","x: 196.96231079101562
y: 547.279296875
z: 0.05808775871992111
visibility: 0.8259966969490051
","x: 286.358642578125
y: 554.803466796875
z: 0.0982825979590416
visibility: 0.9840586185455322
","x: 207.61111450195312
y: 562.5933227539062
z: -0.05470643192529678
visibility: 0.9643155336380005
",,,,,,,,,,,,,,,,,,,,,,,,,,,,,,,,,,,,,,,,,,
19,"x: 271.13983154296875
y: 386.257568359375
z: -0.5124858617782593
visibility: 0.9999884963035583
","x: 270.5204162597656
y: 380.7742614746094
z: -0.5053353309631348
visibility: 0.9999256730079651
","x: 270.7020568847656
y: 378.9992980957031
z: -0.5052514672279358
visibility: 0.9999057054519653
","x: 270.8588562011719
y: 377.0273132324219
z: -0.5052365064620972
visibility: 0.9998777508735657
","x: 268.9034729003906
y: 384.40631103515625
z: -0.5207399129867554
visibility: 0.9999687075614929
","x: 267.9035949707031
y: 385.2963562011719
z: -0.5208442807197571
visibility: 0.9999750256538391
","x: 266.7657165527344
y: 386.14801025390625
z: -0.5209559798240662
visibility: 0.9999773502349854
","x: 267.8751220703125
y: 372.77398681640625
z: -0.41203927993774414
visibility: 0.9997371435165405
","x: 261.02313232421875
y: 387.0194091796875
z: -0.4820159077644348
visibility: 0.9999746680259705
","x: 270.70751953125
y: 386.44244384765625
z: -0.4717729985713959
visibility: 0.9999701380729675
","x: 268.55902099609375
y: 389.8979187011719
z: -0.49247345328330994
visibility: 0.9999862909317017
","x: 267.0790710449219
y: 357.20513916015625
z: -0.252984881401062
visibility: 0.9999858736991882
","x: 246.1818084716797
y: 411.737060546875
z: -0.41459840536117554
visibility: 0.9999824166297913
","x: 279.18426513671875
y: 349.58331298828125
z: -0.0489518865942955
visibility: 0.9637687802314758
","x: 228.62254333496094
y: 458.4451599121094
z: -0.46978479623794556
visibility: 0.9894974231719971
","x: 295.91107177734375
y: 364.83038330078125
z: 0.08575262129306793
visibility: 0.9482889175415039
","x: 230.91632080078125
y: 510.35028076171875
z: -0.5111054182052612
visibility: 0.9706494212150574
","x: 300.4708251953125
y: 370.94036865234375
z: 0.11433582007884979
visibility: 0.8929687738418579
","x: 230.60719299316406
y: 526.841064453125
z: -0.5332192182540894
visibility: 0.9334036707878113
","x: 298.60650634765625
y: 375.2945556640625
z: 0.08668466657400131
visibility: 0.9108574986457825
","x: 234.24609375
y: 525.914794921875
z: -0.5507856607437134
visibility: 0.9365874528884888
","x: 297.1029968261719
y: 374.8056335449219
z: 0.08012617379426956
visibility: 0.8975734710693359
","x: 235.18646240234375
y: 520.7806396484375
z: -0.5162340998649597
visibility: 0.908667802810669
","x: 262.8133850097656
y: 442.9444580078125
z: 0.04500637203454971
visibility: 0.9999673366546631
","x: 246.27267456054688
y: 450.2624206542969
z: -0.04534846171736717
visibility: 0.9999569058418274
","x: 271.5926818847656
y: 493.60736083984375
z: -0.0074180676601827145
visibility: 0.9775223135948181
","x: 238.14015197753906
y: 516.240478515625
z: -0.127451553940773
visibility: 0.966924786567688
","x: 281.6672668457031
y: 535.839111328125
z: 0.22749297320842743
visibility: 0.9828091263771057
","x: 204.93722534179688
y: 540.4418334960938
z: 0.049896497279405594
visibility: 0.9742311239242554
","x: 281.1325988769531
y: 542.239013671875
z: 0.24652616679668427
visibility: 0.911309540271759
","x: 197.0628662109375
y: 545.14697265625
z: 0.0613505020737648
visibility: 0.834007978439331
","x: 287.04876708984375
y: 555.8005981445312
z: 0.1692282259464264
visibility: 0.9848660826683044
","x: 207.39059448242188
y: 562.7635498046875
z: -0.027663078159093857
visibility: 0.9673905968666077
",,,,,,,,,,,,,,,,,,,,,,,,,,,,,,,,,,,,,,,,,,
20,"x: 272.5645751953125
y: 389.1263427734375
z: -0.4871644973754883
visibility: 0.9999895691871643
","x: 271.76116943359375
y: 382.95758056640625
z: -0.48276835680007935
visibility: 0.9999312162399292
","x: 271.8516540527344
y: 381.1250305175781
z: -0.482695996761322
visibility: 0.9999123811721802
","x: 271.8814392089844
y: 379.1982421875
z: -0.48269718885421753
visibility: 0.9998850226402283
","x: 270.2060546875
y: 386.9778747558594
z: -0.49594688415527344
visibility: 0.9999715685844421
","x: 269.1151428222656
y: 388.07696533203125
z: -0.49603620171546936
visibility: 0.9999773502349854
","x: 267.86041259765625
y: 389.1087341308594
z: -0.4961414933204651
visibility: 0.9999794363975525
","x: 268.4716796875
y: 375.98583984375
z: -0.40411537885665894
visibility: 0.9997549653053284
","x: 261.7071228027344
y: 390.5342102050781
z: -0.46806177496910095
visibility: 0.9999771118164062
","x: 272.3488464355469
y: 389.9342346191406
z: -0.4503580927848816
visibility: 0.999971330165863
","x: 270.0807189941406
y: 393.7892150878906
z: -0.4685349464416504
visibility: 0.9999873638153076
","x: 267.69500732421875
y: 366.58489990234375
z: -0.2661820352077484
visibility: 0.9999861121177673
","x: 247.15249633789062
y: 420.38623046875
z: -0.42065802216529846
visibility: 0.9999837875366211
","x: 279.6048583984375
y: 350.94378662109375
z: -0.07530336081981659
visibility: 0.9622595906257629
","x: 227.91517639160156
y: 461.52825927734375
z: -0.49251866340637207
visibility: 0.9903042912483215
","x: 299.0257263183594
y: 358.3674621582031
z: 0.061756499111652374
visibility: 0.9496963620185852
","x: 223.1359405517578
y: 511.510498046875
z: -0.5257123708724976
visibility: 0.973274827003479
","x: 304.29522705078125
y: 362.00372314453125
z: 0.08813571184873581
visibility: 0.89609295129776
","x: 220.71926879882812
y: 524.0462036132812
z: -0.5446184873580933
visibility: 0.9387431144714355
","x: 303.7693786621094
y: 366.66241455078125
z: 0.06437283009290695
visibility: 0.9139523506164551
","x: 223.44305419921875
y: 524.3192138671875
z: -0.5645325183868408
visibility: 0.941687285900116
","x: 301.9443359375
y: 367.0779724121094
z: 0.056508321315050125
visibility: 0.9031323194503784
","x: 225.19024658203125
y: 520.1289672851562
z: -0.5326805710792542
visibility: 0.9158854484558105
","x: 266.63922119140625
y: 455.87200927734375
z: 0.046021468937397
visibility: 0.9999700784683228
","x: 250.6157989501953
y: 466.0360107421875
z: -0.046402450650930405
visibility: 0.9999603629112244
","x: 280.6988220214844
y: 501.41888427734375
z: 0.09558925777673721
visibility: 0.9782638549804688
","x: 252.52493286132812
y: 535.2841796875
z: -0.10508525371551514
visibility: 0.9700590968132019
","x: 281.70660400390625
y: 535.4508056640625
z: 0.376001238822937
visibility: 0.9826352596282959
","x: 213.31024169921875
y: 540.0817260742188
z: 0.10927343368530273
visibility: 0.9763157963752747
","x: 280.4714660644531
y: 541.6857299804688
z: 0.40142765641212463
visibility: 0.9035826921463013
","x: 209.62179565429688
y: 536.813232421875
z: 0.12963244318962097
visibility: 0.843884289264679
","x: 286.7907409667969
y: 555.93994140625
z: 0.35023272037506104
visibility: 0.9838915467262268
","x: 207.76248168945312
y: 559.3946533203125
z: 0.07378176599740982
visibility: 0.9699683785438538
",,,,,,,,,,,,,,,,,,,,,,,,,,,,,,,,,,,,,,,,,,
21,"x: 272.19085693359375
y: 392.3745422363281
z: -0.5245572924613953
visibility: 0.9999905824661255
","x: 271.3724670410156
y: 385.2972412109375
z: -0.5244227647781372
visibility: 0.9999375343322754
","x: 271.57952880859375
y: 383.4400939941406
z: -0.5243402123451233
visibility: 0.9999202489852905
","x: 271.7033996582031
y: 381.60174560546875
z: -0.5243478417396545
visibility: 0.9998950362205505
","x: 269.48944091796875
y: 389.7003173828125
z: -0.5382692813873291
visibility: 0.999974250793457
","x: 268.33538818359375
y: 390.8656005859375
z: -0.5383297204971313
visibility: 0.9999794960021973
","x: 267.045654296875
y: 391.8726806640625
z: -0.5384131669998169
visibility: 0.9999814033508301
","x: 269.0067443847656
y: 378.21856689453125
z: -0.44748377799987793
visibility: 0.9997752904891968
","x: 262.0053405761719
y: 391.3662414550781
z: -0.5118175745010376
visibility: 0.9999793171882629
","x: 272.703369140625
y: 392.12115478515625
z: -0.4885518550872803
visibility: 0.9999735355377197
","x: 270.0455017089844
y: 396.92523193359375
z: -0.5074427127838135
visibility: 0.9999884963035583
","x: 272.9788513183594
y: 371.6141357421875
z: -0.3066929876804352
visibility: 0.9999872446060181
","x: 246.8021697998047
y: 423.7672119140625
z: -0.4502025246620178
visibility: 0.9999851584434509
","x: 288.7218017578125
y: 352.2615966796875
z: -0.15290677547454834
visibility: 0.9628655314445496
","x: 226.47552490234375
y: 459.4042663574219
z: -0.5194194316864014
visibility: 0.9909053444862366
","x: 307.2402648925781
y: 356.03289794921875
z: -0.0699978619813919
visibility: 0.9526230692863464
","x: 212.97592163085938
y: 508.9945068359375
z: -0.5813877582550049
visibility: 0.9752480387687683
","x: 312.7850341796875
y: 358.59136962890625
z: -0.05969826132059097
visibility: 0.9015618562698364
","x: 208.4598846435547
y: 521.1300048828125
z: -0.6088474988937378
visibility: 0.942427933216095
","x: 312.44561767578125
y: 363.7164611816406
z: -0.08527709543704987
visibility: 0.9188427925109863
","x: 210.77874755859375
y: 522.7574462890625
z: -0.6376003623008728
visibility: 0.9453168511390686
","x: 310.7598571777344
y: 364.2410583496094
z: -0.07850128412246704
visibility: 0.909339964389801
","x: 213.02047729492188
y: 517.2110595703125
z: -0.5934797525405884
visibility: 0.9209856986999512
","x: 267.3526916503906
y: 454.785888671875
z: 0.042495131492614746
visibility: 0.9999727606773376
","x: 249.8450927734375
y: 461.2606506347656
z: -0.04284102842211723
visibility: 0.99996417760849
","x: 278.3627014160156
y: 510.9254150390625
z: 0.252959668636322
visibility: 0.97895747423172
","x: 248.73773193359375
y: 521.1509399414062
z: -0.04196910932660103
visibility: 0.972873866558075
","x: 282.2496337890625
y: 535.3447875976562
z: 0.6121516227722168
visibility: 0.9835779666900635
","x: 214.8120880126953
y: 540.2088623046875
z: 0.145056813955307
visibility: 0.9784498810768127
","x: 281.23236083984375
y: 540.88037109375
z: 0.6440666913986206
visibility: 0.9048766493797302
","x: 210.46929931640625
y: 537.6578369140625
z: 0.16191621124744415
visibility: 0.8550171256065369
","x: 286.82574462890625
y: 555.8912353515625
z: 0.5719588398933411
visibility: 0.9843807816505432
","x: 207.24044799804688
y: 560.0960083007812
z: 0.06514499336481094
visibility: 0.972725510597229
",,,,,,,,,,,,,,,,,,,,,,,,,,,,,,,,,,,,,,,,,,
22,"x: 267.7666931152344
y: 397.0310974121094
z: -0.4288550913333893
visibility: 0.9999914765357971
","x: 267.3001403808594
y: 390.8797607421875
z: -0.42608094215393066
visibility: 0.9999433159828186
","x: 267.4624938964844
y: 389.64947509765625
z: -0.4260125756263733
visibility: 0.9999275803565979
","x: 267.64178466796875
y: 388.25665283203125
z: -0.4260846972465515
visibility: 0.9999045729637146
","x: 265.55517578125
y: 392.8366394042969
z: -0.43673259019851685
visibility: 0.9999766945838928
","x: 264.31640625
y: 393.1446533203125
z: -0.43683600425720215
visibility: 0.9999814629554749
","x: 262.9029846191406
y: 393.3349914550781
z: -0.4368075430393219
visibility: 0.9999831914901733
","x: 264.80230712890625
y: 385.2303466796875
z: -0.35570234060287476
visibility: 0.9997958540916443
","x: 256.8626403808594
y: 391.974365234375
z: -0.4059939384460449
visibility: 0.9999812841415405
","x: 267.6226501464844
y: 399.0166015625
z: -0.39682552218437195
visibility: 0.9999756813049316
","x: 264.26019287109375
y: 401.087158203125
z: -0.4114212989807129
visibility: 0.9999895691871643
","x: 273.8436584472656
y: 392.43524169921875
z: -0.2812820076942444
visibility: 0.9999880790710449
","x: 237.7198486328125
y: 418.4493408203125
z: -0.31568700075149536
visibility: 0.9999865293502808
","x: 293.1529541015625
y: 376.15496826171875
z: -0.25799670815467834
visibility: 0.9664926528930664
","x: 213.90576171875
y: 454.53729248046875
z: -0.3259045481681824
visibility: 0.9912993311882019
","x: 312.76312255859375
y: 367.43572998046875
z: -0.2721874713897705
visibility: 0.9570716023445129
","x: 199.65301513671875
y: 484.4847412109375
z: -0.3919452428817749
visibility: 0.9765421152114868
","x: 318.2873840332031
y: 362.32135009765625
z: -0.28758174180984497
visibility: 0.9096590280532837
","x: 195.49822998046875
y: 495.9081726074219
z: -0.4117584228515625
visibility: 0.9443762898445129
","x: 318.1168212890625
y: 369.874267578125
z: -0.30704227089881897
visibility: 0.925637423992157
","x: 197.07196044921875
y: 499.6050720214844
z: -0.4433954358100891
visibility: 0.9475697875022888
","x: 316.2759704589844
y: 367.8670959472656
z: -0.2840651571750641
visibility: 0.9170675873756409
","x: 198.83941650390625
y: 496.986328125
z: -0.40640515089035034
visibility: 0.9248659610748291
","x: 266.0748596191406
y: 473.8052062988281
z: -0.005304853431880474
visibility: 0.9999740719795227
","x: 247.06590270996094
y: 468.31427001953125
z: 0.005189650692045689
visibility: 0.9999676942825317
","x: 268.6723937988281
y: 528.4920043945312
z: 0.06378166377544403
visibility: 0.9803144931793213
","x: 222.55584716796875
y: 486.2486572265625
z: -0.2282692939043045
visibility: 0.9754995107650757
","x: 281.73516845703125
y: 536.8739624023438
z: 0.38520342111587524
visibility: 0.9832028746604919
","x: 213.51097106933594
y: 540.7146606445312
z: -0.06931600719690323
visibility: 0.9804621338844299
","x: 281.2495422363281
y: 536.868408203125
z: 0.41332197189331055
visibility: 0.9050437808036804
","x: 215.06414794921875
y: 545.4356689453125
z: -0.057064592838287354
visibility: 0.8684929609298706
","x: 286.8447570800781
y: 556.3213500976562
z: 0.3371425271034241
visibility: 0.9838280081748962
","x: 204.1179962158203
y: 560.3106079101562
z: -0.15921391546726227
visibility: 0.9752883315086365
",,,,,,,,,,,,,,,,,,,,,,,,,,,,,,,,,,,,,,,,,,
23,"x: 249.28952026367188
y: 401.99853515625
z: -0.4314834177494049
visibility: 0.9999921917915344
","x: 251.1184844970703
y: 394.92852783203125
z: -0.4283119738101959
visibility: 0.9999471306800842
","x: 251.9942626953125
y: 393.6542053222656
z: -0.42825445532798767
visibility: 0.9999330639839172
","x: 252.84176635742188
y: 392.2422790527344
z: -0.42833590507507324
visibility: 0.9999111294746399
","x: 248.1400146484375
y: 395.8362121582031
z: -0.42905759811401367
visibility: 0.9999778866767883
","x: 246.96749877929688
y: 395.3809814453125
z: -0.42914214730262756
visibility: 0.9999824166297913
","x: 245.9016876220703
y: 394.72039794921875
z: -0.42911386489868164
visibility: 0.9999837875366211
","x: 252.1464385986328
y: 389.3524475097656
z: -0.35087713599205017
visibility: 0.9998123645782471
","x: 243.07379150390625
y: 391.6605224609375
z: -0.35325300693511963
visibility: 0.9999825954437256
","x: 250.29249572753906
y: 404.3072204589844
z: -0.39708811044692993
visibility: 0.999977171421051
","x: 246.47581481933594
y: 404.73382568359375
z: -0.39844849705696106
visibility: 0.9999903440475464
","x: 268.2381286621094
y: 406.7000732421875
z: -0.27354830503463745
visibility: 0.9999891519546509
","x: 227.95166015625
y: 411.87615966796875
z: -0.24696561694145203
visibility: 0.9999878406524658
","x: 289.27392578125
y: 411.84307861328125
z: -0.3269391655921936
visibility: 0.969795286655426
","x: 205.71128845214844
y: 423.7393798828125
z: -0.2397688925266266
visibility: 0.9919223785400391
","x: 307.0392150878906
y: 407.14678955078125
z: -0.43425431847572327
visibility: 0.9612184762954712
","x: 189.01742553710938
y: 446.31036376953125
z: -0.31755295395851135
visibility: 0.97808438539505
","x: 311.8624267578125
y: 407.7294616699219
z: -0.46432724595069885
visibility: 0.9179369211196899
","x: 184.93515014648438
y: 457.83709716796875
z: -0.33718469738960266
visibility: 0.9471505284309387
","x: 310.35223388671875
y: 406.5479736328125
z: -0.47579455375671387
visibility: 0.9324321746826172
","x: 187.13555908203125
y: 459.77301025390625
z: -0.364377498626709
visibility: 0.950522780418396
","x: 308.400634765625
y: 406.5498046875
z: -0.4435294568538666
visibility: 0.9244556427001953
","x: 189.05194091796875
y: 456.7852478027344
z: -0.33007895946502686
visibility: 0.929452657699585
","x: 263.1221618652344
y: 475.35638427734375
z: -0.019991593435406685
visibility: 0.9999741315841675
","x: 242.8897705078125
y: 471.6662902832031
z: 0.020084669813513756
visibility: 0.9999708533287048
","x: 258.64764404296875
y: 536.728759765625
z: 0.0004430302942637354
visibility: 0.9815409779548645
","x: 213.37742614746094
y: 473.5830993652344
z: -0.26659125089645386
visibility: 0.9778457283973694
","x: 281.57244873046875
y: 535.4529418945312
z: 0.3444371521472931
visibility: 0.9816532731056213
","x: 212.6177520751953
y: 541.3197021484375
z: -0.12122193723917007
visibility: 0.9822410941123962
","x: 281.541259765625
y: 530.8658447265625
z: 0.3718867301940918
visibility: 0.8977729082107544
","x: 216.6051483154297
y: 552.280029296875
z: -0.11076851189136505
visibility: 0.8806308507919312
","x: 286.34686279296875
y: 556.408935546875
z: 0.2985231280326843
visibility: 0.9818260073661804
","x: 201.81536865234375
y: 560.1935424804688
z: -0.20690181851387024
visibility: 0.9775405526161194
",,,,,,,,,,,,,,,,,,,,,,,,,,,,,,,,,,,,,,,,,,
24,"x: 235.51914978027344
y: 404.1632080078125
z: -0.3830370008945465
visibility: 0.9999923706054688
","x: 237.51681518554688
y: 396.7884826660156
z: -0.38431859016418457
visibility: 0.999950110912323
","x: 238.662109375
y: 395.4123229980469
z: -0.38429901003837585
visibility: 0.9999367594718933
","x: 239.68629455566406
y: 393.9321594238281
z: -0.38440215587615967
visibility: 0.9999168515205383
","x: 233.9157257080078
y: 397.3070983886719
z: -0.38203322887420654
visibility: 0.9999777674674988
","x: 232.62789916992188
y: 396.322509765625
z: -0.38213521242141724
visibility: 0.9999814629554749
","x: 231.37225341796875
y: 395.1565856933594
z: -0.3821226954460144
visibility: 0.9999827742576599
","x: 239.91275024414062
y: 389.0609436035156
z: -0.31741201877593994
visibility: 0.9998279213905334
","x: 229.47608947753906
y: 390.8383483886719
z: -0.3082176446914673
visibility: 0.9999825358390808
","x: 237.77023315429688
y: 406.1785888671875
z: -0.3513999581336975
visibility: 0.9999784231185913
","x: 233.75210571289062
y: 406.4926452636719
z: -0.3490377366542816
visibility: 0.9999906420707703
","x: 255.21188354492188
y: 411.8309020996094
z: -0.24962572753429413
visibility: 0.9999899864196777
","x: 218.8626251220703
y: 402.4141845703125
z: -0.19516858458518982
visibility: 0.9999890327453613
","x: 273.7441101074219
y: 432.58746337890625
z: -0.30583757162094116
visibility: 0.971476674079895
","x: 198.8748779296875
y: 412.1806335449219
z: -0.22620537877082825
visibility: 0.9898217916488647
","x: 289.4161376953125
y: 441.823486328125
z: -0.4396803379058838
visibility: 0.9604896903038025
","x: 181.66468811035156
y: 427.3316650390625
z: -0.3739807605743408
visibility: 0.9764748811721802
","x: 295.1676940917969
y: 445.8568115234375
z: -0.46891266107559204
visibility: 0.9180420637130737
","x: 176.25779724121094
y: 435.4299621582031
z: -0.39925819635391235
visibility: 0.9455217719078064
","x: 294.542236328125
y: 445.2632141113281
z: -0.4881695806980133
visibility: 0.9326433539390564
","x: 177.9014892578125
y: 435.9403991699219
z: -0.42283502221107483
visibility: 0.949855387210846
","x: 292.3014221191406
y: 444.6908264160156
z: -0.45117563009262085
visibility: 0.9234358072280884
","x: 179.9951629638672
y: 434.2546081542969
z: -0.3868383467197418
visibility: 0.93033367395401
","x: 256.86163330078125
y: 469.01666259765625
z: -0.024694429710507393
visibility: 0.9999757409095764
","x: 236.5879669189453
y: 465.3795166015625
z: 0.024854209274053574
visibility: 0.999973714351654
","x: 248.9840087890625
y: 539.1542358398438
z: -0.040595002472400665
visibility: 0.9825039505958557
","x: 213.38107299804688
y: 475.406494140625
z: -0.1952590048313141
visibility: 0.9795733094215393
","x: 279.5621032714844
y: 534.8369140625
z: 0.2005375325679779
visibility: 0.9793080687522888
","x: 212.3149871826172
y: 542.3735961914062
z: -0.07145197689533234
visibility: 0.9836097359657288
","x: 281.3897705078125
y: 527.487060546875
z: 0.2222166508436203
visibility: 0.8869978785514832
","x: 216.37591552734375
y: 553.0946044921875
z: -0.0622578039765358
visibility: 0.8907787799835205
","x: 286.05865478515625
y: 556.7996826171875
z: 0.17078091204166412
visibility: 0.9789184927940369
","x: 200.90382385253906
y: 560.325439453125
z: -0.1359890103340149
visibility: 0.9792747497558594
",,,,,,,,,,,,,,,,,,,,,,,,,,,,,,,,,,,,,,,,,,
25,"x: 214.79110717773438
y: 412.9079895019531
z: -0.4046408534049988
visibility: 0.9999826550483704
","x: 215.76576232910156
y: 406.991943359375
z: -0.4153732359409332
visibility: 0.999936580657959
","x: 217.15269470214844
y: 406.4404602050781
z: -0.4153381884098053
visibility: 0.9999163746833801
","x: 218.59629821777344
y: 405.67059326171875
z: -0.4154561460018158
visibility: 0.9999098777770996
","x: 212.91683959960938
y: 406.0537109375
z: -0.39913538098335266
visibility: 0.9999378323554993
","x: 212.27317810058594
y: 404.9898986816406
z: -0.39921754598617554
visibility: 0.9999182820320129
","x: 211.6442413330078
y: 403.86163330078125
z: -0.3992398679256439
visibility: 0.9999480247497559
","x: 222.75018310546875
y: 399.2554016113281
z: -0.40423864126205444
visibility: 0.9998165369033813
","x: 214.02915954589844
y: 396.9058837890625
z: -0.3249496817588806
visibility: 0.999898374080658
","x: 218.5433807373047
y: 414.75732421875
z: -0.3889026939868927
visibility: 0.9999728798866272
","x: 214.98875427246094
y: 414.19781494140625
z: -0.37081801891326904
visibility: 0.9999818205833435
","x: 245.46621704101562
y: 417.65618896484375
z: -0.3712444603443146
visibility: 0.9999906420707703
","x: 214.77622985839844
y: 398.5555725097656
z: -0.22562488913536072
visibility: 0.9999899864196777
","x: 255.25831604003906
y: 470.86932373046875
z: -0.4176701605319977
visibility: 0.9738643765449524
","x: 195.10935974121094
y: 418.843994140625
z: -0.21094703674316406
visibility: 0.9778735637664795
","x: 244.5283966064453
y: 521.1162719726562
z: -0.4471077024936676
visibility: 0.9622121453285217
","x: 174.20440673828125
y: 434.7308044433594
z: -0.2981973886489868
visibility: 0.9693952798843384
","x: 245.4086456298828
y: 528.8850708007812
z: -0.4809487760066986
visibility: 0.9200555682182312
","x: 167.97711181640625
y: 440.60650634765625
z: -0.3139807879924774
visibility: 0.9378178715705872
","x: 239.8358612060547
y: 527.7615966796875
z: -0.48629799485206604
visibility: 0.933702290058136
","x: 168.009033203125
y: 440.688720703125
z: -0.3444150388240814
visibility: 0.94419264793396
","x: 240.63668823242188
y: 524.7639770507812
z: -0.44986051321029663
visibility: 0.9207669496536255
","x: 170.18394470214844
y: 439.29205322265625
z: -0.3130362927913666
visibility: 0.9263296723365784
","x: 252.76889038085938
y: 464.9706726074219
z: -0.03588861599564552
visibility: 0.9999777674674988
","x: 234.35238647460938
y: 464.4573669433594
z: 0.03595096617937088
visibility: 0.9999763369560242
","x: 244.34617614746094
y: 536.6298828125
z: -0.048678528517484665
visibility: 0.9788872003555298
","x: 213.08895874023438
y: 474.8170166015625
z: -0.1855955868959427
visibility: 0.9754687547683716
","x: 279.1091613769531
y: 533.5792236328125
z: 0.20726382732391357
visibility: 0.9694346189498901
","x: 211.87838745117188
y: 542.826416015625
z: -0.08874508738517761
visibility: 0.9807235598564148
","x: 282.50054931640625
y: 524.0391845703125
z: 0.23322029411792755
visibility: 0.8726252913475037
","x: 216.09840393066406
y: 553.6680297851562
z: -0.078687384724617
visibility: 0.8897082805633545
","x: 286.13824462890625
y: 557.0195922851562
z: 0.20397961139678955
visibility: 0.9692541360855103
","x: 200.78819274902344
y: 559.7911376953125
z: -0.13673608005046844
visibility: 0.9769928455352783
",,,,,,,,,,,,,,,,,,,,,,"x: 173.9643096923828
y: 434.8654479980469
z: 0.0
","x: 174.12330627441406
y: 436.6558837890625
z: -0.00678055128082633
","x: 172.66651916503906
y: 439.1738586425781
z: -0.010138574056327343
","x: 170.76312255859375
y: 442.54315185546875
z: -0.011973388493061066
","x: 169.02659606933594
y: 445.4209899902344
z: -0.013464867137372494
","x: 167.88479614257812
y: 436.87164306640625
z: -0.010554919950664043
","x: 165.05078125
y: 441.861328125
z: -0.013863466680049896
","x: 164.3687286376953
y: 447.0536804199219
z: -0.015302501618862152
","x: 164.69593811035156
y: 451.0951232910156
z: -0.01588236168026924
","x: 166.44248962402344
y: 437.94622802734375
z: -0.008170449174940586
","x: 163.67889404296875
y: 443.4112854003906
z: -0.011687316931784153
","x: 163.31692504882812
y: 449.18292236328125
z: -0.013176086358726025
","x: 163.68772888183594
y: 453.41229248046875
z: -0.014092055149376392
","x: 165.8715362548828
y: 439.59881591796875
z: -0.005955653265118599
","x: 163.36270141601562
y: 444.7586669921875
z: -0.00923543144017458
","x: 163.07562255859375
y: 449.9627380371094
z: -0.010896201245486736
","x: 163.36904907226562
y: 454.1281433105469
z: -0.01180986687541008
","x: 165.92759704589844
y: 441.6309814453125
z: -0.004156955052167177
","x: 163.8468017578125
y: 445.84417724609375
z: -0.006666712928563356
","x: 163.38539123535156
y: 449.48455810546875
z: -0.008098756894469261
","x: 163.37066650390625
y: 452.5408935546875
z: -0.008980012498795986
"
26,"x: 214.79110717773438
y: 412.9079895019531
z: -0.4046408534049988
visibility: 0.9999826550483704
","x: 215.76576232910156
y: 406.991943359375
z: -0.4153732359409332
visibility: 0.999936580657959
","x: 217.15269470214844
y: 406.4404602050781
z: -0.4153381884098053
visibility: 0.9999163746833801
","x: 218.59629821777344
y: 405.67059326171875
z: -0.4154561460018158
visibility: 0.9999098777770996
","x: 212.91683959960938
y: 406.0537109375
z: -0.39913538098335266
visibility: 0.9999378323554993
","x: 212.27317810058594
y: 404.9898986816406
z: -0.39921754598617554
visibility: 0.9999182820320129
","x: 211.6442413330078
y: 403.86163330078125
z: -0.3992398679256439
visibility: 0.9999480247497559
","x: 222.75018310546875
y: 399.2554016113281
z: -0.40423864126205444
visibility: 0.9998165369033813
","x: 214.02915954589844
y: 396.9058837890625
z: -0.3249496817588806
visibility: 0.999898374080658
","x: 218.5433807373047
y: 414.75732421875
z: -0.3889026939868927
visibility: 0.9999728798866272
","x: 214.98875427246094
y: 414.19781494140625
z: -0.37081801891326904
visibility: 0.9999818205833435
","x: 245.46621704101562
y: 417.65618896484375
z: -0.3712444603443146
visibility: 0.9999906420707703
","x: 214.77622985839844
y: 398.5555725097656
z: -0.22562488913536072
visibility: 0.9999899864196777
","x: 255.25831604003906
y: 470.86932373046875
z: -0.4176701605319977
visibility: 0.9738643765449524
","x: 195.10935974121094
y: 418.843994140625
z: -0.21094703674316406
visibility: 0.9778735637664795
","x: 244.5283966064453
y: 521.1162719726562
z: -0.4471077024936676
visibility: 0.9622121453285217
","x: 174.20440673828125
y: 434.7308044433594
z: -0.2981973886489868
visibility: 0.9693952798843384
","x: 245.4086456298828
y: 528.8850708007812
z: -0.4809487760066986
visibility: 0.9200555682182312
","x: 167.97711181640625
y: 440.60650634765625
z: -0.3139807879924774
visibility: 0.9378178715705872
","x: 239.8358612060547
y: 527.7615966796875
z: -0.48629799485206604
visibility: 0.933702290058136
","x: 168.009033203125
y: 440.688720703125
z: -0.3444150388240814
visibility: 0.94419264793396
","x: 240.63668823242188
y: 524.7639770507812
z: -0.44986051321029663
visibility: 0.9207669496536255
","x: 170.18394470214844
y: 439.29205322265625
z: -0.3130362927913666
visibility: 0.9263296723365784
","x: 252.76889038085938
y: 464.9706726074219
z: -0.03588861599564552
visibility: 0.9999777674674988
","x: 234.35238647460938
y: 464.4573669433594
z: 0.03595096617937088
visibility: 0.9999763369560242
","x: 244.34617614746094
y: 536.6298828125
z: -0.048678528517484665
visibility: 0.9788872003555298
","x: 213.08895874023438
y: 474.8170166015625
z: -0.1855955868959427
visibility: 0.9754687547683716
","x: 279.1091613769531
y: 533.5792236328125
z: 0.20726382732391357
visibility: 0.9694346189498901
","x: 211.87838745117188
y: 542.826416015625
z: -0.08874508738517761
visibility: 0.9807235598564148
","x: 282.50054931640625
y: 524.0391845703125
z: 0.23322029411792755
visibility: 0.8726252913475037
","x: 216.09840393066406
y: 553.6680297851562
z: -0.078687384724617
visibility: 0.8897082805633545
","x: 286.13824462890625
y: 557.0195922851562
z: 0.20397961139678955
visibility: 0.9692541360855103
","x: 200.78819274902344
y: 559.7911376953125
z: -0.13673608005046844
visibility: 0.9769928455352783
",,,,,,,,,,,,,,,,,,,,,,"x: 173.9643096923828
y: 434.8654479980469
z: 0.0
","x: 174.12330627441406
y: 436.6558837890625
z: -0.00678055128082633
","x: 172.66651916503906
y: 439.1738586425781
z: -0.010138574056327343
","x: 170.76312255859375
y: 442.54315185546875
z: -0.011973388493061066
","x: 169.02659606933594
y: 445.4209899902344
z: -0.013464867137372494
","x: 167.88479614257812
y: 436.87164306640625
z: -0.010554919950664043
","x: 165.05078125
y: 441.861328125
z: -0.013863466680049896
","x: 164.3687286376953
y: 447.0536804199219
z: -0.015302501618862152
","x: 164.69593811035156
y: 451.0951232910156
z: -0.01588236168026924
","x: 166.44248962402344
y: 437.94622802734375
z: -0.008170449174940586
","x: 163.67889404296875
y: 443.4112854003906
z: -0.011687316931784153
","x: 163.31692504882812
y: 449.18292236328125
z: -0.013176086358726025
","x: 163.68772888183594
y: 453.41229248046875
z: -0.014092055149376392
","x: 165.8715362548828
y: 439.59881591796875
z: -0.005955653265118599
","x: 163.36270141601562
y: 444.7586669921875
z: -0.00923543144017458
","x: 163.07562255859375
y: 449.9627380371094
z: -0.010896201245486736
","x: 163.36904907226562
y: 454.1281433105469
z: -0.01180986687541008
","x: 165.92759704589844
y: 441.6309814453125
z: -0.004156955052167177
","x: 163.8468017578125
y: 445.84417724609375
z: -0.006666712928563356
","x: 163.38539123535156
y: 449.48455810546875
z: -0.008098756894469261
","x: 163.37066650390625
y: 452.5408935546875
z: -0.008980012498795986
"
27,"x: 207.3139190673828
y: 416.4063720703125
z: -0.3244478106498718
visibility: 0.9999576210975647
","x: 206.70433044433594
y: 410.0509948730469
z: -0.3409666121006012
visibility: 0.9999035596847534
","x: 207.32986450195312
y: 409.13995361328125
z: -0.34096387028694153
visibility: 0.9998655319213867
","x: 208.06536865234375
y: 408.14569091796875
z: -0.34103453159332275
visibility: 0.9998776912689209
","x: 205.61993408203125
y: 410.247314453125
z: -0.3152233362197876
visibility: 0.9998682141304016
","x: 205.43731689453125
y: 409.5113525390625
z: -0.31527334451675415
visibility: 0.9998056292533875
","x: 205.26182556152344
y: 408.7135009765625
z: -0.31531840562820435
visibility: 0.9998885989189148
","x: 212.26910400390625
y: 401.92449951171875
z: -0.3707446753978729
visibility: 0.9997302293777466
","x: 208.30528259277344
y: 401.220703125
z: -0.248820498585701
visibility: 0.9997546672821045
","x: 211.6715545654297
y: 417.2697448730469
z: -0.32839059829711914
visibility: 0.9999565482139587
","x: 209.8737030029297
y: 417.5907897949219
z: -0.29460805654525757
visibility: 0.9999651312828064
","x: 236.8078155517578
y: 421.95672607421875
z: -0.3660946786403656
visibility: 0.999991238117218
","x: 215.25411987304688
y: 399.75732421875
z: -0.15427689254283905
visibility: 0.999990701675415
","x: 229.49034118652344
y: 485.508056640625
z: -0.4130827486515045
visibility: 0.9763882160186768
","x: 198.5386962890625
y: 439.353759765625
z: -0.11819666624069214
visibility: 0.9663442373275757
","x: 210.86868286132812
y: 526.183837890625
z: -0.4259551167488098
visibility: 0.9657925367355347
","x: 179.91844177246094
y: 484.67962646484375
z: -0.16376197338104248
visibility: 0.9642977714538574
","x: 206.84646606445312
y: 539.3692626953125
z: -0.4705902934074402
visibility: 0.9274653792381287
","x: 174.91172790527344
y: 495.1665954589844
z: -0.17476023733615875
visibility: 0.9318775534629822
","x: 203.87596130371094
y: 534.641357421875
z: -0.4669405519962311
visibility: 0.9397748112678528
","x: 175.46986389160156
y: 497.3205261230469
z: -0.20961162447929382
visibility: 0.9397835731506348
","x: 204.71714782714844
y: 530.88330078125
z: -0.4260205626487732
visibility: 0.9272568225860596
","x: 177.6063995361328
y: 493.87017822265625
z: -0.17884278297424316
visibility: 0.9230514168739319
","x: 254.0491943359375
y: 465.13311767578125
z: -0.05720661208033562
visibility: 0.9999794363975525
","x: 235.69024658203125
y: 464.121826171875
z: 0.05721495300531387
visibility: 0.9999784827232361
","x: 247.3276824951172
y: 529.6458740234375
z: -0.04120906814932823
visibility: 0.9788203239440918
","x: 212.63685607910156
y: 473.98492431640625
z: -0.04884917289018631
visibility: 0.9648727178573608
","x: 279.22467041015625
y: 533.629638671875
z: 0.18885265290737152
visibility: 0.9655011296272278
","x: 211.65037536621094
y: 540.5729370117188
z: 0.06290476769208908
visibility: 0.9707863926887512
","x: 284.6841125488281
y: 525.6373291015625
z: 0.2138577401638031
visibility: 0.8638854026794434
","x: 215.17922973632812
y: 552.42919921875
z: 0.07557821273803711
visibility: 0.878582775592804
","x: 286.1003723144531
y: 557.9111328125
z: 0.20935702323913574
visibility: 0.9640145897865295
","x: 201.12124633789062
y: 566.1483154296875
z: 0.05142465978860855
visibility: 0.9674637913703918
",,,,,,,,,,,,,,,,,,,,,,,,,,,,,,,,,,,,,,,,,,
28,"x: 205.57696533203125
y: 417.1307067871094
z: -0.3527746796607971
visibility: 0.9999379515647888
","x: 204.44842529296875
y: 410.2120666503906
z: -0.363640695810318
