uscmakers/ReverseChoreography/data/4_feed_the_fire_lucky_daye.csv
,NOSE,LEFT_EYE_INNER,LEFT_EYE,LEFT_EYE_OUTER,RIGHT_EYE_INNER,RIGHT_EYE,RIGHT_EYE_OUTER,LEFT_EAR,RIGHT_EAR,MOUTH_LEFT,MOUTH_RIGHT,LEFT_SHOULDER,RIGHT_SHOULDER,LEFT_ELBOW,RIGHT_ELBOW,LEFT_WRIST,RIGHT_WRIST,LEFT_PINKY,RIGHT_PINKY,LEFT_INDEX,RIGHT_INDEX,LEFT_THUMB,RIGHT_THUMB,LEFT_HIP,RIGHT_HIP,LEFT_KNEE,RIGHT_KNEE,LEFT_ANKLE,RIGHT_ANKLE,LEFT_HEEL,RIGHT_HEEL,LEFT_FOOT_INDEX,RIGHT_FOOT_INDEX,WRIST2,THUMB_CPC2,THUMB_MCP2,THUMB_IP2,THUMB_TIP2,INDEX_FINGER_MCP2,INDEX_FINGER_PIP2,INDEX_FINGER_DIP2,INDEX_FINGER_TIP2,MIDDLE_FINGER_MCP2,MIDDLE_FINGER_PIP2,MIDDLE_FINGER_DIP2,MIDDLE_FINGER_TIP2,RING_FINGER_PIP2,RING_FINGER_DIP2,RING_FINGER_TIP2,RING_FINGER_MCP2,PINKY_MCP2,PINKY_PIP2,PINKY_DIP2,PINKY_TIP2,WRIST,THUMB_CPC,THUMB_MCP,THUMB_IP,THUMB_TIP,INDEX_FINGER_MCP,INDEX_FINGER_PIP,INDEX_FINGER_DIP,INDEX_FINGER_TIP,MIDDLE_FINGER_MCP,MIDDLE_FINGER_PIP,MIDDLE_FINGER_DIP,MIDDLE_FINGER_TIP,RING_FINGER_PIP,RING_FINGER_DIP,RING_FINGER_TIP,RING_FINGER_MCP,PINKY_MCP,PINKY_PIP,PINKY_DIP,PINKY_TIP
0,"x: 205.1219482421875
y: 248.1896209716797
z: -0.3172512650489807
visibility: 0.9999961853027344
","x: 207.12246704101562
y: 242.42916870117188
z: -0.3062281608581543
visibility: 0.999981164932251
","x: 208.63125610351562
y: 242.6692352294922
z: -0.3062126934528351
visibility: 0.9999817609786987
","x: 210.19578552246094
y: 243.0232391357422
z: -0.3062344491481781
visibility: 0.9999809265136719
","x: 203.3591766357422
y: 242.15701293945312
z: -0.3034917116165161
visibility: 0.9999822378158569
","x: 202.1403350830078
y: 242.23052978515625
z: -0.30352845788002014
visibility: 0.9999825954437256
","x: 201.06381225585938
y: 242.35049438476562
z: -0.30353179574012756
visibility: 0.9999797344207764
","x: 212.7764892578125
y: 247.92889404296875
z: -0.21798530220985413
visibility: 0.999977707862854
","x: 199.6669921875
y: 247.5110626220703
z: -0.20352716743946075
visibility: 0.9999560117721558
","x: 207.7073211669922
y: 256.5782775878906
z: -0.2824174165725708
visibility: 0.9999961853027344
","x: 203.00677490234375
y: 256.0127868652344
z: -0.2784307599067688
visibility: 0.9999924898147583
","x: 227.8856201171875
y: 293.3445129394531
z: -0.14360865950584412
visibility: 0.9999871253967285
","x: 187.78199768066406
y: 296.6321716308594
z: -0.11356040090322495
visibility: 0.9999743700027466
","x: 239.67137145996094
y: 344.37359619140625
z: -0.0849064365029335
visibility: 0.9969834685325623
","x: 185.31256103515625
y: 346.51654052734375
z: -0.050152044743299484
visibility: 0.9569219946861267
","x: 239.25453186035156
y: 388.08221435546875
z: -0.15207906067371368
visibility: 0.9861488342285156
","x: 179.30157470703125
y: 383.7831115722656
z: -0.12791438400745392
visibility: 0.9678093791007996
","x: 240.97860717773438
y: 401.5574645996094
z: -0.1728477030992508
visibility: 0.9640578031539917
","x: 175.75865173339844
y: 398.0221252441406
z: -0.15082566440105438
visibility: 0.9441798329353333
","x: 238.90087890625
y: 400.2474365234375
z: -0.20315805077552795
visibility: 0.9674040079116821
","x: 177.2371368408203
y: 397.0880432128906
z: -0.18528947234153748
visibility: 0.9490326642990112
","x: 237.2748565673828
y: 396.80078125
z: -0.1645176261663437
visibility: 0.9604845643043518
","x: 178.99884033203125
y: 393.0853271484375
z: -0.14348629117012024
visibility: 0.9386969208717346
","x: 221.93650817871094
y: 386.68719482421875
z: -0.014491233043372631
visibility: 0.9997838139533997
","x: 199.60301208496094
y: 388.47698974609375
z: 0.014343703165650368
visibility: 0.9998371601104736
","x: 221.11972045898438
y: 470.1617736816406
z: -0.041872475296258926
visibility: 0.9957408905029297
","x: 198.39175415039062
y: 469.9864501953125
z: -0.0065805562771856785
visibility: 0.9944095015525818
","x: 221.715576171875
y: 537.23583984375
z: 0.12395837157964706
visibility: 0.9953315854072571
","x: 201.83731079101562
y: 538.4446411132812
z: 0.1558520495891571
visibility: 0.995672881603241
","x: 219.89483642578125
y: 547.6497802734375
z: 0.13299104571342468
visibility: 0.8912387490272522
","x: 207.50115966796875
y: 547.534423828125
z: 0.16491830348968506
visibility: 0.944794237613678
","x: 223.76101684570312
y: 562.0645751953125
z: 0.01891569420695305
visibility: 0.9923100471496582
","x: 188.4652557373047
y: 562.3814697265625
z: 0.06074472516775131
visibility: 0.9935035109519958
",,,,,,,,,,,,,,,,,,,,,,,,,,,,,,,,,,,,,,,,,,
1,"x: 208.6112823486328
y: 250.521484375
z: -0.3332979679107666
visibility: 0.9999961256980896
","x: 208.90655517578125
y: 243.799072265625
z: -0.3148111402988434
visibility: 0.9999791383743286
","x: 210.09097290039062
y: 243.55099487304688
z: -0.31479793787002563
visibility: 0.9999796152114868
","x: 211.31993103027344
y: 243.47776794433594
z: -0.3148132264614105
visibility: 0.999977707862854
","x: 205.33804321289062
y: 245.41021728515625
z: -0.31660598516464233
visibility: 0.9999820590019226
","x: 203.9517059326172
y: 246.31956481933594
z: -0.31663376092910767
visibility: 0.9999828934669495
","x: 202.5406036376953
y: 247.45855712890625
z: -0.3166334331035614
visibility: 0.9999804496765137
","x: 213.24053955078125
y: 248.0064239501953
z: -0.20715221762657166
visibility: 0.9999719858169556
","x: 200.1697998046875
y: 253.13204956054688
z: -0.20597787201404572
visibility: 0.9999586939811707
","x: 211.8701171875
y: 258.03509521484375
z: -0.2906970679759979
visibility: 0.9999949336051941
","x: 207.57354736328125
y: 259.7699279785156
z: -0.29183530807495117
visibility: 0.9999921321868896
","x: 228.76222229003906
y: 284.4706115722656
z: -0.10691635310649872
visibility: 0.9999861717224121
","x: 193.4164581298828
y: 307.14520263671875
z: -0.11692298948764801
visibility: 0.9999707341194153
","x: 248.14907836914062
y: 300.5660400390625
z: 0.01296849362552166
visibility: 0.9961661696434021
","x: 182.53872680664062
y: 360.40472412109375
z: -0.10357493162155151
visibility: 0.960889995098114
","x: 257.2425231933594
y: 314.38671875
z: 0.015591698698699474
visibility: 0.9849256277084351
","x: 180.43348693847656
y: 408.45037841796875
z: -0.19979359209537506
visibility: 0.9697418808937073
","x: 259.76416015625
y: 323.36309814453125
z: 0.01084737665951252
visibility: 0.9605153799057007
","x: 179.86459350585938
y: 423.8690185546875
z: -0.22562232613563538
visibility: 0.9448668360710144
","x: 257.50653076171875
y: 324.96630859375
z: -0.018703440204262733
visibility: 0.9647234678268433
","x: 183.13076782226562
y: 423.1557922363281
z: -0.25519150495529175
visibility: 0.9496164321899414
","x: 255.96038818359375
y: 322.6724548339844
z: 0.004592982120811939
visibility: 0.9572873115539551
","x: 184.20889282226562
y: 418.06646728515625
z: -0.21297132968902588
visibility: 0.9394111037254333
","x: 236.2586212158203
y: 386.90869140625
z: -0.011352580972015858
visibility: 0.9997877478599548
","x: 214.0996551513672
y: 391.4630126953125
z: 0.011276399716734886
visibility: 0.999835729598999
","x: 242.1993865966797
y: 467.2813415527344
z: -0.040443889796733856
visibility: 0.9959712624549866
","x: 204.54986572265625
y: 468.33001708984375
z: -0.06273051351308823
visibility: 0.9947094321250916
","x: 243.73590087890625
y: 534.5443115234375
z: 0.15018409490585327
visibility: 0.9955600500106812
","x: 203.16143798828125
y: 538.41455078125
z: 0.12436509132385254
visibility: 0.9958443641662598
","x: 241.75222778320312
y: 544.1844482421875
z: 0.16054901480674744
visibility: 0.8923975229263306
","x: 207.52841186523438
y: 547.580078125
z: 0.13544408977031708
visibility: 0.9449663162231445
","x: 244.64979553222656
y: 560.839111328125
z: 0.021519290283322334
visibility: 0.9926386475563049
","x: 199.18971252441406
y: 563.5050048828125
z: 0.0064631374552845955
visibility: 0.9937767386436462
",,,,,,,,,,,,,,,,,,,,,,,,,,,,,,,,,,,,,,,,,,
2,"x: 208.36798095703125
y: 259.9899597167969
z: -0.35082322359085083
visibility: 0.9999961256980896
","x: 208.88404846191406
y: 252.80775451660156
z: -0.3321410119533539
visibility: 0.9999780058860779
","x: 210.040283203125
y: 252.57806396484375
z: -0.3321269154548645
visibility: 0.9999784827232361
","x: 211.221923828125
y: 252.45355224609375
z: -0.33214014768600464
visibility: 0.9999756813049316
","x: 205.11233520507812
y: 254.7323455810547
z: -0.33690711855888367
visibility: 0.9999821782112122
","x: 203.712158203125
y: 255.7949676513672
z: -0.33696597814559937
visibility: 0.9999833106994629
","x: 202.29364013671875
y: 256.88525390625
z: -0.3369584381580353
visibility: 0.9999809265136719
","x: 212.9223175048828
y: 256.1861572265625
z: -0.22242137789726257
visibility: 0.9999691843986511
","x: 200.00668334960938
y: 262.17230224609375
z: -0.24386215209960938
visibility: 0.9999611973762512
","x: 211.25759887695312
y: 267.24853515625
z: -0.31050604581832886
visibility: 0.9999918341636658
","x: 207.23797607421875
y: 270.0357666015625
z: -0.3162432014942169
visibility: 0.999990701675415
","x: 229.240234375
y: 285.99066162109375
z: -0.16198177635669708
visibility: 0.9999840259552002
","x: 192.9761505126953
y: 311.9625244140625
z: -0.16522172093391418
visibility: 0.9999661445617676
","x: 254.3639373779297
y: 271.6029968261719
z: -0.16860587894916534
visibility: 0.9964438676834106
","x: 172.84776306152344
y: 360.6512145996094
z: -0.17138871550559998
visibility: 0.9641051888465881
","x: 275.72955322265625
y: 257.2063903808594
z: -0.24326419830322266
visibility: 0.9859706163406372
","x: 156.0489044189453
y: 403.0130615234375
z: -0.25459808111190796
visibility: 0.9710133671760559
","x: 281.44964599609375
y: 254.30052185058594
z: -0.263835608959198
visibility: 0.9625983238220215
","x: 150.70045471191406
y: 416.61676025390625
z: -0.2703768014907837
visibility: 0.9451278448104858
","x: 282.2084655761719
y: 254.25167846679688
z: -0.29167041182518005
visibility: 0.9667788743972778
","x: 150.90489196777344
y: 416.2666015625
z: -0.3066425323486328
visibility: 0.9500640034675598
","x: 279.91778564453125
y: 256.27020263671875
z: -0.25985997915267944
visibility: 0.9601335525512695
","x: 152.8428497314453
y: 412.375732421875
z: -0.2718445062637329
visibility: 0.9408331513404846
","x: 235.81365966796875
y: 390.1160888671875
z: -0.011389452032744884
visibility: 0.9997931718826294
","x: 211.93341064453125
y: 397.7717590332031
z: 0.01132972352206707
visibility: 0.9998337626457214
","x: 243.8040771484375
y: 466.29827880859375
z: -0.12217216193675995
visibility: 0.9960964322090149
","x: 205.22418212890625
y: 469.6188659667969
z: -0.06191711872816086
visibility: 0.9948979616165161
","x: 244.9166717529297
y: 534.2902221679688
z: 0.007847340777516365
visibility: 0.9958130121231079
","x: 204.2438201904297
y: 542.3682861328125
z: 0.0683133527636528
visibility: 0.9960064888000488
","x: 243.9798583984375
y: 544.3897094726562
z: 0.012223904021084309
visibility: 0.8993568420410156
","x: 208.0940704345703
y: 554.457763671875
z: 0.07314927130937576
visibility: 0.9477534890174866
","x: 245.62428283691406
y: 559.6014404296875
z: -0.1181422621011734
visibility: 0.9930984377861023
","x: 197.5372314453125
y: 567.828125
z: -0.03494508937001228
visibility: 0.9940288662910461
",,,,,,,,,,,,,,,,,,,,,,,,,,,,,,,,,,,,,,,,,,
3,"x: 207.19775390625
y: 257.74078369140625
z: -0.3960474133491516
visibility: 0.9999962449073792
","x: 208.2641143798828
y: 250.97271728515625
z: -0.37970173358917236
visibility: 0.9999778270721436
","x: 209.4928741455078
y: 250.85321044921875
z: -0.3797084391117096
visibility: 0.9999786615371704
","x: 210.5876922607422
y: 250.8319091796875
z: -0.3797725737094879
visibility: 0.9999755024909973
","x: 204.0636444091797
y: 252.39373779296875
z: -0.3823995888233185
visibility: 0.9999822974205017
","x: 202.59109497070312
y: 253.19973754882812
z: -0.38244935870170593
visibility: 0.9999836087226868
","x: 201.09103393554688
y: 254.02508544921875
z: -0.3824259638786316
visibility: 0.9999808669090271
","x: 212.45654296875
y: 254.93646240234375
z: -0.2728310227394104
visibility: 0.9999685883522034
","x: 199.17393493652344
y: 259.40948486328125
z: -0.28496021032333374
visibility: 0.9999624490737915
","x: 210.77224731445312
y: 265.8861083984375
z: -0.35590776801109314
visibility: 0.999990701675415
","x: 205.05551147460938
y: 267.45526123046875
z: -0.359249472618103
visibility: 0.9999896883964539
","x: 229.23934936523438
y: 286.1671142578125
z: -0.19968831539154053
visibility: 0.9999837875366211
","x: 189.5278778076172
y: 308.86431884765625
z: -0.20081594586372375
visibility: 0.9999598860740662
","x: 259.2864990234375
y: 273.4365539550781
z: -0.19796468317508698
visibility: 0.9967769980430603
","x: 173.7035369873047
y: 358.61474609375
z: -0.19087925553321838
visibility: 0.9654852151870728
","x: 287.5953674316406
y: 262.58074951171875
z: -0.26965662837028503
visibility: 0.9872605800628662
","x: 160.93569946289062
y: 401.808349609375
z: -0.2745038568973541
visibility: 0.9695687890052795
","x: 296.5093688964844
y: 260.65093994140625
z: -0.28935277462005615
visibility: 0.9657904505729675
","x: 156.355224609375
y: 416.9388122558594
z: -0.29298338294029236
visibility: 0.9411421418190002
","x: 297.00628662109375
y: 259.79461669921875
z: -0.32312706112861633
visibility: 0.9696887135505676
","x: 157.1945343017578
y: 416.555419921875
z: -0.3321848213672638
visibility: 0.9466428756713867
","x: 293.72332763671875
y: 261.6036682128906
z: -0.2871813178062439
visibility: 0.9636966586112976
","x: 159.09925842285156
y: 412.8157043457031
z: -0.2926134765148163
visibility: 0.9386177659034729
","x: 234.11837768554688
y: 390.87640380859375
z: -0.011110152117908001
visibility: 0.9997902512550354
","x: 208.97991943359375
y: 396.87506103515625
z: 0.010989924892783165
visibility: 0.999825656414032
","x: 236.962646484375
y: 466.3804931640625
z: -0.02705588936805725
visibility: 0.9955660700798035
","x: 204.53297424316406
y: 470.0479736328125
z: -0.044543080031871796
visibility: 0.9949146509170532
","x: 241.43983459472656
y: 533.2820434570312
z: 0.09597773104906082
visibility: 0.9958248734474182
","x: 204.43206787109375
y: 544.5924682617188
z: 0.10300246626138687
visibility: 0.9961032867431641
","x: 240.25210571289062
y: 543.4002685546875
z: 0.09605422616004944
visibility: 0.9016941785812378
","x: 208.79554748535156
y: 556.222412109375
z: 0.10934032499790192
visibility: 0.9485732316970825
","x: 244.1933135986328
y: 558.3785400390625
z: -0.07711922377347946
visibility: 0.9932267665863037
","x: 198.76744079589844
y: 571.0594482421875
z: -0.008828915655612946
visibility: 0.9942091107368469
",,,,,,,,,,,,,,,,,,,,,,,,,,,,,,,,,,,,,,,,,,
4,"x: 204.82347106933594
y: 251.95335388183594
z: -0.2874324321746826
visibility: 0.9999921321868896
","x: 206.6724395751953
y: 244.7049560546875
z: -0.2724021077156067
visibility: 0.9999588131904602
","x: 208.128173828125
y: 244.50970458984375
z: -0.27245229482650757
visibility: 0.9999600052833557
","x: 209.35830688476562
y: 244.41445922851562
z: -0.2724805772304535
visibility: 0.9999536275863647
","x: 202.16616821289062
y: 246.32562255859375
z: -0.27068156003952026
visibility: 0.9999625086784363
","x: 200.76019287109375
y: 247.14077758789062
z: -0.2707020044326782
visibility: 0.9999626874923706
","x: 199.3822021484375
y: 247.90866088867188
z: -0.2707456648349762
visibility: 0.9999608993530273
","x: 211.5467529296875
y: 248.0133056640625
z: -0.1686529964208603
visibility: 0.9999423027038574
","x: 198.18313598632812
y: 251.89630126953125
z: -0.15978899598121643
visibility: 0.999923050403595
","x: 208.64268493652344
y: 258.97430419921875
z: -0.2478092461824417
visibility: 0.9999880194664001
","x: 202.56321716308594
y: 260.90643310546875
z: -0.24520666897296906
visibility: 0.9999870657920837
","x: 228.11695861816406
y: 285.65985107421875
z: -0.09571035951375961
visibility: 0.9999790191650391
","x: 187.99172973632812
y: 296.1199645996094
z: -0.076359823346138
visibility: 0.9999594688415527
","x: 253.8265838623047
y: 287.9510803222656
z: -0.13844938576221466
visibility: 0.9958845376968384
","x: 175.61294555664062
y: 348.12640380859375
z: -0.038663845509290695
visibility: 0.9680674076080322
","x: 277.72857666015625
y: 287.1598205566406
z: -0.3124801516532898
visibility: 0.9855207204818726
","x: 166.5431671142578
y: 395.7220153808594
z: -0.15440063178539276
visibility: 0.971101701259613
","x: 293.9939270019531
y: 293.5307922363281
z: -0.3545970320701599
visibility: 0.9635826945304871
","x: 166.7635955810547
y: 414.40936279296875
z: -0.18685725331306458
visibility: 0.9436584115028381
","x: 287.3719177246094
y: 271.1966552734375
z: -0.3851681351661682
visibility: 0.9677916765213013
","x: 167.8480224609375
y: 414.25335693359375
z: -0.2201801985502243
visibility: 0.9490004181861877
","x: 284.65972900390625
y: 285.624755859375
z: -0.3294798731803894
visibility: 0.9613747596740723
","x: 168.43519592285156
y: 407.9014892578125
z: -0.1703106313943863
visibility: 0.9410715103149414
","x: 223.98431396484375
y: 390.60980224609375
z: -0.007481462322175503
visibility: 0.9997571110725403
","x: 201.17198181152344
y: 395.83544921875
z: 0.007530091796070337
visibility: 0.9998151659965515
","x: 221.76246643066406
y: 466.5142822265625
z: -0.06661556661128998
visibility: 0.993557333946228
","x: 201.19546508789062
y: 469.95928955078125
z: -0.05767261981964111
visibility: 0.9942540526390076
","x: 221.24267578125
y: 517.4737548828125
z: 0.2022715061903
visibility: 0.9866030216217041
","x: 204.2890167236328
y: 543.9127197265625
z: 0.10999053716659546
visibility: 0.9948273301124573
","x: 219.00535583496094
y: 519.7584228515625
z: 0.2249249666929245
visibility: 0.8705756664276123
","x: 208.42044067382812
y: 556.0601806640625
z: 0.11855429410934448
visibility: 0.9364545941352844
","x: 223.19403076171875
y: 546.3005981445312
z: 0.12466782331466675
visibility: 0.985123872756958
","x: 200.17581176757812
y: 570.3032836914062
z: -0.0076114460825920105
visibility: 0.9923600554466248
",,,,,,,,,,,,,,,,,,,,,,,,,,,,,,,,,,,,,,,,,,
5,"x: 204.03506469726562
y: 252.31500244140625
z: -0.2617972195148468
visibility: 0.9999876022338867
","x: 206.2445831298828
y: 244.92855834960938
z: -0.2475271224975586
visibility: 0.9999434947967529
","x: 207.8700714111328
y: 244.8223114013672
z: -0.24757859110832214
visibility: 0.999943196773529
","x: 209.18128967285156
y: 244.81101989746094
z: -0.24758589267730713
visibility: 0.9999388456344604
","x: 201.47085571289062
y: 246.30117797851562
z: -0.24165603518486023
visibility: 0.9999468326568604
","x: 200.0745086669922
y: 247.02532958984375
z: -0.24167518317699432
visibility: 0.9999439120292664
","x: 198.73764038085938
y: 247.72438049316406
z: -0.24173486232757568
visibility: 0.9999473690986633
","x: 211.5926055908203
y: 248.58517456054688
z: -0.1528012454509735
visibility: 0.9999111890792847
","x: 197.9559326171875
y: 251.8665771484375
z: -0.12645769119262695
visibility: 0.9998915195465088
","x: 208.04080200195312
y: 259.34747314453125
z: -0.22559602558612823
visibility: 0.9999760389328003
","x: 201.50120544433594
y: 261.03448486328125
z: -0.21796302497386932
visibility: 0.9999737739562988
","x: 225.06161499023438
y: 287.84521484375
z: -0.11708363145589828
visibility: 0.9999626874923706
","x: 188.10885620117188
y: 296.1717834472656
z: -0.025079157203435898
visibility: 0.9999397397041321
","x: 216.58096313476562
y: 334.072509765625
z: -0.14051349461078644
visibility: 0.9910690188407898
","x: 179.8146514892578
y: 346.3591003417969
z: 0.019952166825532913
visibility: 0.9539292454719543
","x: 201.6815185546875
y: 373.09490966796875
z: -0.24895238876342773
visibility: 0.9775452017784119
","x: 177.80801391601562
y: 393.9958190917969
z: -0.08577974140644073
visibility: 0.9454571008682251
","x: 198.68382263183594
y: 390.5578308105469
z: -0.283492773771286
visibility: 0.9537950158119202
","x: 177.93826293945312
y: 411.838623046875
z: -0.1127743273973465
visibility: 0.9115990996360779
","x: 195.69497680664062
y: 384.7943420410156
z: -0.3018801212310791
visibility: 0.9578861594200134
","x: 177.8067169189453
y: 412.29296875
z: -0.1434735357761383
visibility: 0.9177336096763611
","x: 196.26443481445312
y: 381.338134765625
z: -0.2585340142250061
visibility: 0.9460069537162781
","x: 178.57313537597656
y: 405.1568603515625
z: -0.10106034576892853
visibility: 0.9087403416633606
","x: 219.2158966064453
y: 390.63348388671875
z: -0.02420704998075962
visibility: 0.9997307062149048
","x: 196.63983154296875
y: 395.6565856933594
z: 0.024222712963819504
visibility: 0.9997988343238831
","x: 209.74285888671875
y: 466.644775390625
z: -0.1052195206284523
visibility: 0.9916963577270508
","x: 184.04246520996094
y: 467.0370178222656
z: -0.11943402141332626
visibility: 0.9937682747840881
","x: 200.53408813476562
y: 524.8267822265625
z: 0.07301484048366547
visibility: 0.9862199425697327
","x: 193.5950927734375
y: 532.348876953125
z: 0.07758839428424835
visibility: 0.9935219883918762
","x: 200.0634765625
y: 531.20068359375
z: 0.08372627198696136
visibility: 0.8645237684249878
","x: 196.61737060546875
y: 541.3895263671875
z: 0.09089454263448715
visibility: 0.9318395853042603
","x: 202.27687072753906
y: 549.3309936523438
z: -0.03460945934057236
visibility: 0.9845808148384094
","x: 193.47706604003906
y: 561.1751708984375
z: -0.015512751415371895
visibility: 0.9912011623382568
",,,,,,,,,,,,,,,,,,,,,,,,,,,,,,,,,,,,,,,,,,
6,"x: 203.77359008789062
y: 250.52032470703125
z: -0.2731637954711914
visibility: 0.9999831914901733
","x: 206.27960205078125
y: 244.4482421875
z: -0.2596295475959778
visibility: 0.9999281167984009
","x: 207.8910369873047
y: 244.57040405273438
z: -0.25967738032341003
visibility: 0.9999246597290039
","x: 209.20852661132812
y: 244.70948791503906
z: -0.2596934735774994
visibility: 0.9999241828918457
","x: 201.60377502441406
y: 244.90533447265625
z: -0.2539703845977783
visibility: 0.999931275844574
","x: 200.2251434326172
y: 245.328369140625
z: -0.25399288535118103
visibility: 0.999923050403595
","x: 198.91197204589844
y: 245.69703674316406
z: -0.25403356552124023
visibility: 0.9999302625656128
","x: 211.60621643066406
y: 248.6028289794922
z: -0.16323299705982208
visibility: 0.9998860359191895
","x: 197.9733123779297
y: 250.0627899169922
z: -0.1376403123140335
visibility: 0.9998407363891602
","x: 207.59490966796875
y: 258.2359619140625
z: -0.23600459098815918
visibility: 0.9999675750732422
","x: 200.99571228027344
y: 258.596923828125
z: -0.22865542769432068
visibility: 0.9999598860740662
","x: 223.26914978027344
y: 289.64013671875
z: -0.12438670545816422
visibility: 0.9999549388885498
","x: 188.1183319091797
y: 293.25067138671875
z: -0.02041039802134037
visibility: 0.9999167919158936
","x: 217.70899963378906
y: 343.9095764160156
z: -0.15529577434062958
visibility: 0.9912970066070557
","x: 183.2100372314453
y: 344.4752502441406
z: 0.04986048489809036
visibility: 0.9335576891899109
","x: 189.0146026611328
y: 362.5305480957031
z: -0.2686566710472107
visibility: 0.9787684082984924
","x: 177.2181396484375
y: 383.2991027832031
z: -0.05587807297706604
visibility: 0.9286166429519653
","x: 183.45387268066406
y: 373.0032653808594
z: -0.3060951828956604
visibility: 0.9560847878456116
","x: 176.32833862304688
y: 401.27984619140625
z: -0.08228207379579544
visibility: 0.8919996023178101
","x: 182.08566284179688
y: 370.33917236328125
z: -0.31573086977005005
visibility: 0.9597902894020081
","x: 177.69781494140625
y: 400.83563232421875
z: -0.11800067126750946
visibility: 0.8991777300834656
","x: 184.153564453125
y: 367.2081298828125
z: -0.27341631054878235
visibility: 0.9469619989395142
","x: 177.9508514404297
y: 394.5367736816406
z: -0.07349283248186111
visibility: 0.8885751962661743
","x: 213.89132690429688
y: 390.98284912109375
z: -0.024206161499023438
visibility: 0.9997114539146423
","x: 192.16104125976562
y: 393.1442565917969
z: 0.02420530840754509
visibility: 0.9997912049293518
","x: 207.75778198242188
y: 467.9010314941406
z: -0.08402569591999054
visibility: 0.9919452667236328
","x: 176.6764373779297
y: 464.2153625488281
z: -0.09282547235488892
visibility: 0.994148313999176
","x: 200.3130340576172
y: 532.2022705078125
z: 0.07742033153772354
visibility: 0.9871838092803955
","x: 176.17242431640625
y: 532.3876953125
z: 0.07805197685956955
visibility: 0.9939357042312622
","x: 196.9481201171875
y: 539.6666870117188
z: 0.08526863902807236
visibility: 0.8701373338699341
","x: 180.8374481201172
y: 541.7139282226562
z: 0.08732406795024872
visibility: 0.9353752732276917
","x: 205.4882049560547
y: 553.2864990234375
z: -0.036286529153585434
visibility: 0.985501229763031
","x: 167.3551025390625
y: 560.0709228515625
z: -0.02362958900630474
visibility: 0.9917113780975342
",,,,,,,,,,,,,,,,,,,,,,,,,,,,,,,,,,,,,,,,,,
7,"x: 203.8582763671875
y: 244.82015991210938
z: -0.23401883244514465
visibility: 0.9999799132347107
","x: 206.41346740722656
y: 238.7637481689453
z: -0.2194261997938156
visibility: 0.9999224543571472
","x: 207.927978515625
y: 239.07733154296875
z: -0.21948091685771942
visibility: 0.9999185800552368
","x: 209.25054931640625
y: 239.37782287597656
z: -0.21950764954090118
visibility: 0.9999192357063293
","x: 201.6265106201172
y: 238.39862060546875
z: -0.21379859745502472
visibility: 0.9999211430549622
","x: 200.32574462890625
y: 238.5771026611328
z: -0.2137947827577591
visibility: 0.9999091029167175
","x: 199.0316162109375
y: 238.78492736816406
z: -0.2138141393661499
visibility: 0.9999166131019592
","x: 211.61233520507812
y: 243.77188110351562
z: -0.11924737691879272
visibility: 0.9998748898506165
","x: 197.8897705078125
y: 243.09828186035156
z: -0.09341587126255035
visibility: 0.9998083114624023
","x: 207.46746826171875
y: 252.84788513183594
z: -0.19589009881019592
visibility: 0.999965488910675
","x: 201.02447509765625
y: 253.11439514160156
z: -0.18868955969810486
visibility: 0.9999567270278931
","x: 223.17401123046875
y: 288.0367126464844
z: -0.08170609176158905
visibility: 0.9999487400054932
","x: 186.85643005371094
y: 282.13250732421875
z: 0.009064631536602974
visibility: 0.999911904335022
","x: 224.58843994140625
y: 340.8525390625
z: -0.1801149994134903
visibility: 0.9915686845779419
","x: 180.9958038330078
y: 323.6364440917969
z: 0.08083686977624893
visibility: 0.9349149465560913
","x: 201.92604064941406
y: 322.29852294921875
z: -0.38593775033950806
visibility: 0.9804372191429138
","x: 166.99351501464844
y: 348.9564208984375
z: -0.01745670847594738
visibility: 0.9315050840377808
","x: 196.07679748535156
y: 317.8385314941406
z: -0.4324137270450592
visibility: 0.9594671726226807
","x: 162.38894653320312
y: 360.8206481933594
z: -0.043497346341609955
visibility: 0.8957080245018005
","x: 196.27552795410156
y: 312.56890869140625
z: -0.43698081374168396
visibility: 0.962784469127655
","x: 162.40049743652344
y: 359.03326416015625
z: -0.07771871238946915
visibility: 0.902960479259491
","x: 197.908447265625
y: 313.75213623046875
z: -0.3914942145347595
visibility: 0.9502521753311157
","x: 164.01072692871094
y: 354.7058410644531
z: -0.03443622216582298
visibility: 0.8917017579078674
","x: 211.2230987548828
y: 389.7742004394531
z: -0.020915547385811806
visibility: 0.9997127056121826
","x: 188.51046752929688
y: 386.8559265136719
z: 0.02098250389099121
visibility: 0.9997918605804443
","x: 209.43783569335938
y: 467.9417724609375
z: -0.027275288477540016
visibility: 0.9924846291542053
","x: 176.42971801757812
y: 464.09295654296875
z: -0.061643265187740326
visibility: 0.9946422576904297
","x: 203.02325439453125
y: 531.9453125
z: 0.16479818522930145
visibility: 0.9881027340888977
","x: 169.6485595703125
y: 533.3800048828125
z: 0.09412763267755508
visibility: 0.9944292306900024
","x: 199.87887573242188
y: 538.7933959960938
z: 0.17777465283870697
visibility: 0.8760247826576233
","x: 172.55117797851562
y: 542.9041137695312
z: 0.10267255455255508
visibility: 0.9375322461128235
","x: 207.9718017578125
y: 553.7947998046875
z: 0.060869671404361725
visibility: 0.98640376329422
","x: 165.76779174804688
y: 560.68701171875
z: -0.02010825276374817
visibility: 0.9923165440559387
",,,,,,,,,,,,,,,,,,,,,,,,,,,,,,,,,,,,,,,,,,
8,"x: 204.7966766357422
y: 245.20938110351562
z: -0.23646283149719238
visibility: 0.9999809861183167
","x: 207.3289794921875
y: 239.32618713378906
z: -0.22111904621124268
visibility: 0.9999285340309143
","x: 208.76673889160156
y: 240.00169372558594
z: -0.22116729617118835
visibility: 0.9999249577522278
","x: 210.1164093017578
y: 240.6733856201172
z: -0.22122898697853088
visibility: 0.9999256730079651
","x: 202.6826171875
y: 239.0127716064453
z: -0.21725015342235565
visibility: 0.9999261498451233
","x: 201.17010498046875
y: 239.41366577148438
z: -0.2172633856534958
visibility: 0.9999139308929443
","x: 199.67654418945312
y: 239.76202392578125
z: -0.21726801991462708
visibility: 0.9999197125434875
","x: 212.56747436523438
y: 246.46424865722656
z: -0.11986187845468521
visibility: 0.999884843826294
","x: 198.10899353027344
y: 244.08428955078125
z: -0.1046270877122879
visibility: 0.9998220801353455
","x: 207.87254333496094
y: 254.46096801757812
z: -0.19867739081382751
visibility: 0.9999680519104004
","x: 201.4464874267578
y: 253.31817626953125
z: -0.19443446397781372
visibility: 0.9999595284461975
","x: 223.60690307617188
y: 292.0189208984375
z: -0.06596435606479645
visibility: 0.9999486804008484
","x: 186.37733459472656
y: 282.3272399902344
z: -0.028916101902723312
visibility: 0.9999133348464966
","x: 226.36451721191406
y: 346.494384765625
z: -0.18053361773490906
visibility: 0.9921097159385681
","x: 169.2026824951172
y: 304.86065673828125
z: 0.037208400666713715
visibility: 0.9405415058135986
","x: 218.87081909179688
y: 316.4651794433594
z: -0.3937546908855438
visibility: 0.9822068810462952
","x: 148.1912384033203
y: 317.078369140625
z: -0.12434022128582001
visibility: 0.9368689060211182
","x: 215.87142944335938
y: 305.3384094238281
z: -0.43812352418899536
visibility: 0.9629151225090027
","x: 142.23304748535156
y: 324.38916015625
z: -0.15062151849269867
visibility: 0.9026694297790527
","x: 214.94410705566406
y: 299.67218017578125
z: -0.43613380193710327
visibility: 0.9659019112586975
","x: 142.2091064453125
y: 322.355224609375
z: -0.1709887832403183
visibility: 0.9095616936683655
","x: 215.2840576171875
y: 302.9530944824219
z: -0.3976137042045593
visibility: 0.9541986584663391
","x: 144.42796325683594
y: 320.9390563964844
z: -0.1388067901134491
visibility: 0.8989277482032776
","x: 209.4696807861328
y: 393.0664367675781
z: 0.006165798287838697
visibility: 0.9997329115867615
","x: 186.03961181640625
y: 388.1878356933594
z: -0.006268709897994995
visibility: 0.999800443649292
","x: 211.732666015625
y: 467.98345947265625
z: -0.07928632199764252
visibility: 0.9928330779075623
","x: 174.5788116455078
y: 464.8216247558594
z: -0.07799795269966125
visibility: 0.9950237274169922
","x: 208.862548828125
y: 535.1311645507812
z: 0.07616303116083145
visibility: 0.9888438582420349
","x: 167.83837890625
y: 533.5393676757812
z: 0.07270164042711258
visibility: 0.994708240032196
","x: 203.76768493652344
y: 547.6110229492188
z: 0.0865762010216713
visibility: 0.8862616419792175
","x: 169.0871124267578
y: 542.0362548828125
z: 0.08109622448682785
visibility: 0.9361927509307861
","x: 216.0912322998047
y: 555.813720703125
z: -0.017774244770407677
visibility: 0.9870531558990479
","x: 165.64927673339844
y: 560.1715087890625
z: -0.034986499696969986
visibility: 0.9924336671829224
",,,,,,,,,,,,,,,,,,,,,,,,,,,,,,,,,,,,,,,,,,
9,"x: 206.45947265625
y: 247.7383575439453
z: -0.3036799132823944
visibility: 0.9999802708625793
","x: 208.69476318359375
y: 241.7038116455078
z: -0.2906665802001953
visibility: 0.9999311566352844
","x: 210.13079833984375
y: 242.36000061035156
z: -0.29067954421043396
visibility: 0.9999279379844666
","x: 211.58706665039062
y: 243.11557006835938
z: -0.290743887424469
visibility: 0.9999287724494934
","x: 204.7198486328125
y: 241.4119873046875
z: -0.2871406674385071
visibility: 0.9999264478683472
","x: 203.4556884765625
y: 241.72369384765625
z: -0.2872191071510315
visibility: 0.9999139308929443
","x: 202.21302795410156
y: 241.9974365234375
z: -0.28724268078804016
visibility: 0.9999182224273682
","x: 215.23806762695312
y: 249.38601684570312
z: -0.1879328191280365
visibility: 0.9998888969421387
","x: 201.40162658691406
y: 246.6248779296875
z: -0.17331388592720032
visibility: 0.9998307228088379
","x: 209.50820922851562
y: 256.93304443359375
z: -0.2645663917064667
visibility: 0.9999687671661377
","x: 204.2069091796875
y: 255.5666961669922
z: -0.2604472041130066
visibility: 0.9999595880508423
","x: 226.93150329589844
y: 295.54327392578125
z: -0.09900064766407013
visibility: 0.9999370574951172
","x: 188.4225311279297
y: 285.26983642578125
z: -0.09755627810955048
visibility: 0.99991375207901
","x: 234.65975952148438
y: 352.1753234863281
z: -0.22962531447410583
visibility: 0.9923246502876282
","x: 164.2439727783203
y: 302.4207763671875
z: -0.08608593046665192
visibility: 0.9462597966194153
","x: 230.23658752441406
y: 319.4022216796875
z: -0.4543018341064453
visibility: 0.9832958579063416
","x: 141.0730743408203
y: 286.83935546875
z: -0.1878105103969574
visibility: 0.9426279664039612
","x: 227.3144073486328
y: 309.3060302734375
z: -0.4967753291130066
visibility: 0.9644535183906555
","x: 131.6007537841797
y: 287.33087158203125
z: -0.21358561515808105
visibility: 0.9105621576309204
","x: 226.12509155273438
y: 304.87115478515625
z: -0.4988935589790344
visibility: 0.9671969413757324
","x: 131.760986328125
y: 284.4757995605469
z: -0.23686084151268005
visibility: 0.9169818758964539
","x: 226.0926055908203
y: 308.25836181640625
z: -0.46100369095802307
visibility: 0.9557744860649109
","x: 134.27755737304688
y: 284.33294677734375
z: -0.2021288126707077
visibility: 0.9071096777915955
","x: 212.86720275878906
y: 393.69189453125
z: 0.010970345698297024
visibility: 0.9997200965881348
","x: 189.73997497558594
y: 388.6128234863281
z: -0.011071229353547096
visibility: 0.9997853636741638
","x: 214.22808837890625
y: 468.0684814453125
z: -0.029816636815667152
visibility: 0.9927547574043274
","x: 177.7884521484375
y: 465.1039123535156
z: -0.05663209408521652
visibility: 0.9952793121337891
","x: 208.9468231201172
y: 539.0941772460938
z: 0.09822928160429001
visibility: 0.9892781972885132
","x: 167.42262268066406
y: 533.4464721679688
z: 0.08438485860824585
visibility: 0.9947901964187622
","x: 203.93150329589844
y: 553.0565795898438
z: 0.10037393867969513
visibility: 0.8934260606765747
","x: 168.27171325683594
y: 541.7749633789062
z: 0.09195758402347565
visibility: 0.9297899603843689
","x: 217.1788330078125
y: 560.431396484375
z: -0.0065128393471241
visibility: 0.987255871295929
","x: 166.5799102783203
y: 560.1995849609375
z: -0.029897455126047134
visibility: 0.9923062920570374
",,,,,,,,,,,,,,,,,,,,,,,,,,,,,,,,,,,,,,,,,,
10,"x: 210.5002899169922
y: 246.6829071044922
z: -0.1592322587966919
visibility: 0.9999813437461853
","x: 212.6588897705078
y: 240.73428344726562
z: -0.14766433835029602
visibility: 0.9999362230300903
","x: 214.08485412597656
y: 241.1118927001953
z: -0.14769959449768066
visibility: 0.9999330043792725
","x: 215.60472106933594
y: 241.64361572265625
z: -0.14770549535751343
visibility: 0.9999337792396545
","x: 209.0264892578125
y: 241.08583068847656
z: -0.14077690243721008
visibility: 0.9999314546585083
","x: 207.80960083007812
y: 241.5333709716797
z: -0.14078575372695923
visibility: 0.9999191761016846
","x: 206.604736328125
y: 241.9595184326172
z: -0.1407606452703476
visibility: 0.9999225735664368
","x: 219.40220642089844
y: 247.75045776367188
z: -0.06311337649822235
visibility: 0.9998974800109863
","x: 206.5902099609375
y: 246.53900146484375
z: -0.033327896147966385
visibility: 0.9998405575752258
","x: 213.63015747070312
y: 255.5422821044922
z: -0.12770681083202362
visibility: 0.9999706149101257
","x: 208.98048400878906
y: 254.8975372314453
z: -0.11894593387842178
visibility: 0.9999613761901855
","x: 232.68405151367188
y: 294.1654052734375
z: -0.026314815506339073
visibility: 0.9999393820762634
","x: 194.40110778808594
y: 282.2768859863281
z: 0.030410608276724815
visibility: 0.9999148845672607
","x: 237.91384887695312
y: 345.81048583984375
z: -0.12661398947238922
visibility: 0.9904939532279968
","x: 166.9947052001953
y: 301.1783447265625
z: -0.06731941550970078
visibility: 0.9504625201225281
","x: 244.1134033203125
y: 347.0654602050781
z: -0.3471211791038513
visibility: 0.9838140606880188
","x: 152.57940673828125
y: 293.73828125
z: -0.2540205419063568
visibility: 0.9477095603942871
","x: 246.68118286132812
y: 350.5654602050781
z: -0.3843255043029785
visibility: 0.966101348400116
","x: 146.97772216796875
y: 290.45257568359375
z: -0.29281118512153625
visibility: 0.917988121509552
","x: 245.49159240722656
y: 346.01416015625
z: -0.40113887190818787
visibility: 0.9687546491622925
","x: 147.45753479003906
y: 287.8572692871094
z: -0.3084618151187897
visibility: 0.9238693118095398
","x: 243.80587768554688
y: 344.3951416015625
z: -0.35640233755111694
visibility: 0.9577068090438843
","x: 149.40074157714844
y: 289.1712341308594
z: -0.2677258849143982
visibility: 0.9147380590438843
","x: 218.86019897460938
y: 391.4726257324219
z: 0.0018291233573108912
visibility: 0.9997414350509644
","x: 197.7205352783203
y: 386.9589538574219
z: -0.001705589354969561
visibility: 0.9998002648353577
","x: 218.1891326904297
y: 466.1890869140625
z: -0.07549524307250977
visibility: 0.9929787516593933
","x: 183.59678649902344
y: 463.5518798828125
z: 0.0010722428560256958
visibility: 0.9954249858856201
","x: 209.65814208984375
y: 539.0149536132812
z: 0.011603808961808681
visibility: 0.9896512031555176
","x: 184.4105987548828
y: 525.6060180664062
z: 0.14402571320533752
visibility: 0.9948221445083618
","x: 204.17401123046875
y: 552.3651733398438
z: 0.013357390649616718
visibility: 0.8999435305595398
","x: 188.41107177734375
y: 536.5272827148438
z: 0.1514921486377716
visibility: 0.9318692088127136
","x: 218.2078399658203
y: 561.000732421875
z: -0.10030059516429901
visibility: 0.9876704216003418
","x: 169.99063110351562
y: 550.925048828125
z: 0.05271752551198006
visibility: 0.9923443794250488
",,,,,,,,,,,,,,,,,,,,,,,,,,,,,,,,,,,,,,,,,,
11,"x: 214.8067169189453
y: 244.0612030029297
z: -0.15000976622104645
visibility: 0.9999823570251465
","x: 216.8118438720703
y: 238.09719848632812
z: -0.1305597573518753
visibility: 0.9999414086341858
","x: 218.160888671875
y: 238.2836151123047
z: -0.13058646023273468
visibility: 0.9999382495880127
","x: 219.60952758789062
y: 238.5782470703125
z: -0.13061387836933136
visibility: 0.9999390840530396
","x: 212.90538024902344
y: 238.696044921875
z: -0.13372565805912018
visibility: 0.9999368786811829
","x: 211.46493530273438
y: 239.24282836914062
z: -0.13375061750411987
visibility: 0.9999253153800964
","x: 209.9286346435547
y: 239.70050048828125
z: -0.13376036286354065
visibility: 0.9999281167984009
","x: 222.2095947265625
y: 243.2572021484375
z: -0.015091395005583763
visibility: 0.9999056458473206
","x: 208.50428771972656
y: 243.7504425048828
z: -0.030233347788453102
visibility: 0.9998542666435242
","x: 217.63470458984375
y: 252.73451232910156
z: -0.10671515762805939
visibility: 0.9999731183052063
","x: 212.79405212402344
y: 252.7161407470703
z: -0.11093606054782867
visibility: 0.9999642372131348
","x: 234.9115753173828
y: 288.7207336425781
z: 0.05524734780192375
visibility: 0.9999443292617798
","x: 196.55319213867188
y: 276.9107666015625
z: -0.008230218663811684
visibility: 0.999916136264801
","x: 242.0602264404297
y: 339.1002197265625
z: 0.03148920461535454
visibility: 0.9863956570625305
","x: 191.1717987060547
y: 308.637939453125
z: -0.11550857126712799
visibility: 0.948250412940979
","x: 240.26409912109375
y: 356.11871337890625
z: -0.12102626264095306
visibility: 0.9812957048416138
","x: 197.6001739501953
y: 323.33367919921875
z: -0.3296505808830261
visibility: 0.9424436688423157
","x: 243.60311889648438
y: 364.49896240234375
z: -0.1560109257698059
visibility: 0.9633075594902039
","x: 198.5578155517578
y: 329.4910888671875
z: -0.3793065845966339
visibility: 0.9127948880195618
","x: 241.04994201660156
y: 359.49505615234375
z: -0.1801232248544693
visibility: 0.9662129878997803
","x: 200.67210388183594
y: 327.3207092285156
z: -0.3895309269428253
visibility: 0.9179980158805847
","x: 242.52548217773438
y: 356.6416015625
z: -0.1335509717464447
visibility: 0.9539217352867126
","x: 201.5095977783203
y: 325.48760986328125
z: -0.3389124274253845
visibility: 0.9062875509262085
","x: 223.95346069335938
y: 385.9472961425781
z: 0.014093054458498955
visibility: 0.9997658729553223
","x: 203.2665557861328
y: 384.3579406738281
z: -0.013966193422675133
visibility: 0.99981689453125
","x: 219.84332275390625
y: 463.91455078125
z: -0.09183518588542938
visibility: 0.9926918148994446
","x: 195.8049774169922
y: 464.759765625
z: -0.08840223401784897
visibility: 0.9942810535430908
","x: 210.47579956054688
y: 538.4859008789062
z: 0.008629105053842068
visibility: 0.9886018633842468
","x: 207.33103942871094
y: 510.3912658691406
z: 0.21695974469184875
visibility: 0.9631366729736328
","x: 205.32032775878906
y: 551.8568115234375
z: 0.013513056561350822
visibility: 0.8991754651069641
","x: 209.97067260742188
y: 508.4090881347656
z: 0.24507899582386017
visibility: 0.8793782591819763
","x: 218.48748779296875
y: 562.1814575195312
z: -0.0954047292470932
visibility: 0.9860783219337463
","x: 205.05291748046875
y: 530.6890258789062
z: 0.19076892733573914
visibility: 0.9648340940475464
",,,,,,,,,,,,,,,,,,,,,,,,,,,,,,,,,,,,,,,,,,
12,"x: 220.8954315185547
y: 244.35240173339844
z: -0.22744722664356232
visibility: 0.9999699592590332
","x: 222.14599609375
y: 238.1351318359375
z: -0.1994909644126892
visibility: 0.9999006986618042
","x: 223.25030517578125
y: 238.5408935546875
z: -0.19937117397785187
visibility: 0.9998805522918701
","x: 224.35565185546875
y: 239.01869201660156
z: -0.19930417835712433
visibility: 0.9998682737350464
","x: 218.46630859375
y: 239.107177734375
z: -0.21697118878364563
visibility: 0.9999087452888489
","x: 216.96884155273438
y: 239.64544677734375
z: -0.2170465737581253
visibility: 0.999897301197052
","x: 215.4291229248047
y: 240.09568786621094
z: -0.21717479825019836
visibility: 0.9999012351036072
","x: 225.20938110351562
y: 243.91929626464844
z: -0.04643450304865837
visibility: 0.9998013973236084
","x: 212.02853393554688
y: 244.0166473388672
z: -0.13447025418281555
visibility: 0.9998329877853394
","x: 223.1426544189453
y: 253.1511688232422
z: -0.1781780868768692
visibility: 0.9999561905860901
","x: 218.3144989013672
y: 252.80560302734375
z: -0.19817467033863068
visibility: 0.9999486804008484
","x: 235.49070739746094
y: 288.93505859375
z: -0.017213787883520126
visibility: 0.999897837638855
","x: 200.2549285888672
y: 279.80474853515625
z: -0.14091917872428894
visibility: 0.9999187588691711
","x: 232.80319213867188
y: 339.563232421875
z: -0.06272910535335541
visibility: 0.9732442498207092
","x: 213.62220764160156
y: 312.18798828125
z: -0.210433691740036
visibility: 0.9531725645065308
","x: 215.2726593017578
y: 364.4483947753906
z: -0.16102851927280426
visibility: 0.9583092927932739
","x: 243.1051025390625
y: 331.7590637207031
z: -0.28362390398979187
visibility: 0.9473426938056946
","x: 210.42727661132812
y: 374.61431884765625
z: -0.18833093345165253
visibility: 0.9295809268951416
","x: 249.12100219726562
y: 339.21148681640625
z: -0.31871142983436584
visibility: 0.9194075465202332
","x: 209.4107208251953
y: 369.1669921875
z: -0.1953757107257843
visibility: 0.9310819506645203
","x: 251.44229125976562
y: 336.9302978515625
z: -0.31893616914749146
visibility: 0.9239668250083923
","x: 209.8772735595703
y: 365.96014404296875
z: -0.1660914272069931
visibility: 0.9170082807540894
","x: 248.8012237548828
y: 334.5549011230469
z: -0.28478431701660156
visibility: 0.9121217131614685
","x: 228.96517944335938
y: 386.30877685546875
z: 0.015776803717017174
visibility: 0.9997633695602417
","x: 207.97906494140625
y: 385.3804931640625
z: -0.01581747457385063
visibility: 0.9998191595077515
","x: 235.59503173828125
y: 461.9580078125
z: -0.0737798884510994
visibility: 0.992653489112854
","x: 210.40725708007812
y: 466.0964660644531
z: -0.06975490599870682
visibility: 0.9939181804656982
","x: 227.65567016601562
y: 527.4693603515625
z: 0.13361981511116028
visibility: 0.9870169162750244
","x: 217.08746337890625
y: 514.0543212890625
z: 0.18929125368595123
visibility: 0.963214635848999
","x: 222.1460723876953
y: 536.6866455078125
z: 0.1504911333322525
visibility: 0.8962717652320862
","x: 219.13380432128906
y: 517.7007446289062
z: 0.20953229069709778
visibility: 0.8652149438858032
","x: 237.62820434570312
y: 558.0656127929688
z: 0.06283174455165863
visibility: 0.9845967888832092
","x: 212.76885986328125
y: 531.3743896484375
z: 0.12719537317752838
visibility: 0.9641216993331909
",,,,,,,,,,,,,,,,,,,,,,,,,,,,,,,,,,,,,,,,,,
13,"x: 226.24423217773438
y: 245.22911071777344
z: -0.1547200083732605
visibility: 0.9999682307243347
","x: 227.46034240722656
y: 239.64547729492188
z: -0.1339748352766037
visibility: 0.999903678894043
","x: 228.6079559326172
y: 240.10556030273438
z: -0.13397368788719177
visibility: 0.9998850226402283
","x: 229.6570587158203
y: 240.55267333984375
z: -0.13396109640598297
visibility: 0.9998738169670105
","x: 223.51626586914062
y: 240.0839080810547
z: -0.14175865054130554
visibility: 0.999908983707428
","x: 222.04669189453125
y: 240.52467346191406
z: -0.14175139367580414
visibility: 0.9998980760574341
","x: 220.7984161376953
y: 240.92098999023438
z: -0.14174851775169373
visibility: 0.9999015927314758
","x: 230.38516235351562
y: 245.52392578125
z: -0.020624535158276558
visibility: 0.9998083710670471
","x: 217.97813415527344
y: 245.16090393066406
z: -0.053231049329042435
visibility: 0.9998383522033691
","x: 228.580810546875
y: 253.3841552734375
z: -0.1124873161315918
visibility: 0.9999573230743408
","x: 223.57276916503906
y: 252.96176147460938
z: -0.12175699323415756
visibility: 0.9999496936798096
","x: 240.064453125
y: 293.3636779785156
z: 0.04585627466440201
visibility: 0.9999023079872131
","x: 205.54339599609375
y: 285.2279968261719
z: -0.04193790256977081
visibility: 0.9999130964279175
","x: 243.90821838378906
y: 339.6615905761719
z: -0.0021419120021164417
visibility: 0.9604697823524475
","x: 209.73370361328125
y: 328.5504455566406
z: -0.13611702620983124
visibility: 0.9568670392036438
","x: 240.81036376953125
y: 357.2105407714844
z: -0.17362765967845917
visibility: 0.9498918056488037
","x: 233.42453002929688
y: 321.06640625
z: -0.27223116159439087
visibility: 0.9513364434242249
","x: 240.49301147460938
y: 365.45953369140625
z: -0.2092040330171585
visibility: 0.9190742373466492
","x: 239.14944458007812
y: 317.45751953125
z: -0.3109431862831116
visibility: 0.9243433475494385
","x: 240.32766723632812
y: 359.83404541015625
z: -0.22134089469909668
visibility: 0.9207755327224731
","x: 239.3529052734375
y: 313.3822326660156
z: -0.3086192011833191
visibility: 0.9281505346298218
","x: 239.8567657470703
y: 360.5343017578125
z: -0.18301768600940704
visibility: 0.9035248160362244
","x: 237.54356384277344
y: 314.6692199707031
z: -0.27345865964889526
visibility: 0.9155260324478149
","x: 235.5059814453125
y: 386.6884765625
z: 0.018544908612966537
visibility: 0.9997811913490295
","x: 214.11837768554688
y: 388.8873596191406
z: -0.018552422523498535
visibility: 0.9998242259025574
","x: 243.17259216308594
y: 463.7335205078125
z: -0.06843213737010956
visibility: 0.9932367205619812
","x: 210.59359741210938
y: 470.95404052734375
z: -0.02813943289220333
visibility: 0.9941572546958923
","x: 248.68914794921875
y: 531.072509765625
z: 0.10396851599216461
visibility: 0.9879552721977234
","x: 213.4552001953125
y: 518.9730224609375
z: 0.23699644207954407
visibility: 0.9642122387886047
","x: 246.8114013671875
y: 539.3031005859375
z: 0.11205156147480011
visibility: 0.8974623680114746
","x: 215.71006774902344
y: 525.061767578125
z: 0.2584003210067749
visibility: 0.8483352661132812
","x: 250.358154296875
y: 559.0020751953125
z: -0.021936634555459023
visibility: 0.9852797389030457
","x: 213.18263244628906
y: 533.7102661132812
z: 0.16411174833774567
visibility: 0.9645161032676697
",,,,,,,,,,,,,,,,,,,,,,,,,,,,,,,,,,,,,,,,,,
14,"x: 228.3582763671875
y: 245.34912109375
z: -0.19225452840328217
visibility: 0.9999710917472839
","x: 229.51702880859375
y: 239.9342498779297
z: -0.17389287054538727
visibility: 0.9999122023582458
","x: 230.68666076660156
y: 240.4661865234375
z: -0.17390850186347961
visibility: 0.9998953938484192
","x: 231.82489013671875
y: 240.94876098632812
z: -0.17390581965446472
visibility: 0.9998849630355835
","x: 225.8740234375
y: 240.2686309814453
z: -0.17703233659267426
visibility: 0.9999170303344727
","x: 224.66282653808594
y: 240.749267578125
z: -0.17706196010112762
visibility: 0.9999074339866638
","x: 223.37730407714844
y: 241.2422332763672
z: -0.17705796658992767
visibility: 0.9999104142189026
","x: 232.56671142578125
y: 245.87918090820312
z: -0.07205048203468323
visibility: 0.9998239278793335
","x: 220.64309692382812
y: 246.2664031982422
z: -0.08604855090379715
visibility: 0.9998526573181152
","x: 230.6627655029297
y: 253.435791015625
z: -0.15489201247692108
visibility: 0.999960720539093
","x: 225.53631591796875
y: 253.4036102294922
z: -0.15913958847522736
visibility: 0.9999539256095886
","x: 243.48733520507812
y: 293.89080810546875
z: -0.0010333985555917025
visibility: 0.9999112486839294
","x: 206.89944458007812
y: 289.1052551269531
z: -0.0487331859767437
visibility: 0.9999189376831055
","x: 259.02606201171875
y: 338.9888916015625
z: -0.0013051407877355814
visibility: 0.9639254212379456
","x: 204.9613037109375
y: 335.4183654785156
z: -0.1494465172290802
visibility: 0.9608076214790344
","x: 283.26715087890625
y: 331.37103271484375
z: -0.12972229719161987
visibility: 0.9547825455665588
","x: 194.86691284179688
y: 317.14031982421875
z: -0.3558572828769684
visibility: 0.9560484886169434
","x: 289.9556579589844
y: 330.4248046875
z: -0.15233199298381805
visibility: 0.926794707775116
","x: 187.3841552734375
y: 309.1017761230469
z: -0.39684242010116577
visibility: 0.9314683079719543
","x: 290.2345886230469
y: 326.3550109863281
z: -0.17467716336250305
visibility: 0.928390622138977
","x: 188.7487335205078
y: 303.4111328125
z: -0.4045582711696625
visibility: 0.9349204301834106
","x: 287.6553649902344
y: 326.92059326171875
z: -0.14255481958389282
visibility: 0.9127488732337952
","x: 191.82846069335938
y: 305.79351806640625
z: -0.36460867524147034
visibility: 0.923356294631958
","x: 236.1287384033203
y: 390.9119873046875
z: 0.020030003041028976
visibility: 0.9997950792312622
","x: 214.3853302001953
y: 390.52191162109375
z: -0.020157936960458755
visibility: 0.9998300075531006
","x: 243.31398010253906
y: 466.04290771484375
z: 0.01855536177754402
visibility: 0.993657648563385
","x: 205.8724822998047
y: 468.7763977050781
z: -0.055591803044080734
visibility: 0.9946004152297974
","x: 249.07774353027344
y: 532.6819458007812
z: 0.1926344484090805
visibility: 0.9888998866081238
","x: 187.90826416015625
y: 519.3193969726562
z: 0.1214524656534195
visibility: 0.9673768877983093
","x: 247.61012268066406
y: 542.5343627929688
z: 0.20406238734722137
visibility: 0.900989294052124
","x: 184.19247436523438
y: 524.5263061523438
z: 0.13580617308616638
visibility: 0.8505045175552368
","x: 251.70816040039062
y: 559.0111694335938
z: 0.10596831142902374
visibility: 0.9862244725227356
","x: 192.0653533935547
y: 541.512939453125
z: 0.043683942407369614
visibility: 0.9674155116081238
",,,,,,,,,,,,,,,,,,,,,,,,,,,,,,,,,,,,,,,,,,
15,"x: 227.68280029296875
y: 245.5321044921875
z: -0.2620982229709625
visibility: 0.9999738335609436
","x: 228.78895568847656
y: 240.10232543945312
z: -0.24160654842853546
visibility: 0.9999205470085144
","x: 229.91065979003906
y: 240.54483032226562
z: -0.24165523052215576
visibility: 0.9999054670333862
","x: 231.10401916503906
y: 240.95669555664062
z: -0.24167326092720032
visibility: 0.9998959898948669
","x: 225.12509155273438
y: 240.38839721679688
z: -0.24678070843219757
visibility: 0.9999247789382935
","x: 223.6453399658203
y: 240.82708740234375
z: -0.2468322217464447
visibility: 0.9999162554740906
","x: 222.14938354492188
y: 241.28866577148438
z: -0.24680960178375244
visibility: 0.9999188780784607
","x: 232.11268615722656
y: 245.9585418701172
z: -0.12536729872226715
visibility: 0.9998404383659363
","x: 218.98988342285156
y: 246.35250854492188
z: -0.15040883421897888
visibility: 0.9998666644096375
","x: 230.11192321777344
y: 253.733154296875
z: -0.22016969323158264
visibility: 0.9999644160270691
","x: 225.24899291992188
y: 253.7523193359375
z: -0.2274201661348343
visibility: 0.999958336353302
","x: 243.88174438476562
y: 295.2413635253906
z: -0.051445506513118744
visibility: 0.9999192953109741
","x: 204.44424438476562
y: 289.54217529296875
z: -0.09893317520618439
visibility: 0.9999250769615173
","x: 259.84295654296875
y: 338.56439208984375
z: -0.09944982826709747
visibility: 0.9651985764503479
","x: 197.7004852294922
y: 333.19757080078125
z: -0.17243684828281403
visibility: 0.9641106128692627
","x: 278.90570068359375
y: 343.75799560546875
z: -0.302749365568161
visibility: 0.9572427868843079
","x: 174.07994079589844
y: 343.67236328125
z: -0.3606310486793518
visibility: 0.9593769907951355
","x: 284.5834655761719
y: 349.12835693359375
z: -0.34290242195129395
visibility: 0.9306296706199646
","x: 166.75511169433594
y: 351.7286376953125
z: -0.4032589793205261
visibility: 0.9360966682434082
","x: 283.8999328613281
y: 346.67364501953125
z: -0.3722633719444275
visibility: 0.9327693581581116
","x: 167.18582153320312
y: 349.06268310546875
z: -0.42573490738868713
visibility: 0.939515233039856
","x: 281.4327087402344
y: 345.2811279296875
z: -0.3208802044391632
visibility: 0.9181380867958069
","x: 169.89749145507812
y: 346.2701416015625
z: -0.3751401901245117
visibility: 0.928591787815094
","x: 235.32366943359375
y: 392.7701416015625
z: 0.019724536687135696
visibility: 0.9998108744621277
","x: 212.781982421875
y: 392.4886474609375
z: -0.019842620939016342
visibility: 0.9998401403427124
","x: 242.3709259033203
y: 467.08795166015625
z: 0.039399631321430206
visibility: 0.9941694140434265
","x: 204.44879150390625
y: 468.7410888671875
z: -0.05499086529016495
visibility: 0.9950543642044067
","x: 248.8290557861328
y: 532.70654296875
z: 0.24274826049804688
visibility: 0.9898872375488281
","x: 175.01795959472656
y: 520.2174072265625
z: 0.11411677300930023
visibility: 0.9704885482788086
","x: 247.48483276367188
y: 542.6995239257812
z: 0.25636792182922363
visibility: 0.9055955410003662
","x: 170.76556396484375
y: 526.3695068359375
z: 0.12537160515785217
visibility: 0.853549599647522
","x: 251.29864501953125
y: 559.004638671875
z: 0.14375126361846924
visibility: 0.987285315990448
","x: 180.27590942382812
y: 552.4176635742188
z: 0.006265206728130579
visibility: 0.9703607559204102
",,,,,,,,,,,,,,,,,,,,,,,,,,,,,,,,,,,,,,,,,,
16,"x: 225.8856201171875
y: 246.3849639892578
z: -0.3650609254837036
visibility: 0.9999743700027466
","x: 228.5095977783203
y: 241.08877563476562
z: -0.34641510248184204
visibility: 0.9999237656593323
","x: 229.1731719970703
y: 241.6394805908203
z: -0.34647196531295776
visibility: 0.999910831451416
","x: 230.31454467773438
y: 242.1724853515625
z: -0.3465062975883484
visibility: 0.9999019503593445
","x: 223.7987060546875
y: 240.88836669921875
z: -0.34590601921081543
visibility: 0.9999273419380188
","x: 222.49681091308594
y: 241.19232177734375
z: -0.34595388174057007
visibility: 0.999919593334198
","x: 221.93179321289062
y: 241.53799438476562
z: -0.34598010778427124
visibility: 0.9999213814735413
","x: 231.54254150390625
y: 246.92431640625
z: -0.2290705442428589
visibility: 0.9998447895050049
","x: 218.81076049804688
y: 246.47555541992188
z: -0.22643211483955383
visibility: 0.9998679161071777
","x: 228.77879333496094
y: 255.35739135742188
z: -0.32112574577331543
visibility: 0.9999649524688721
","x: 222.0865936279297
y: 254.879638671875
z: -0.32068854570388794
visibility: 0.9999597072601318
","x: 243.578857421875
y: 295.5196228027344
z: -0.16446556150913239
visibility: 0.9999236464500427
","x: 199.57977294921875
y: 292.552978515625
z: -0.12708082795143127
visibility: 0.9999272227287292
","x: 239.58346557617188
y: 347.35858154296875
z: -0.1956392228603363
visibility: 0.9672014117240906
","x: 193.9179229736328
y: 345.6614990234375
z: -0.0833108201622963
visibility: 0.9633763432502747
","x: 215.79928588867188
y: 364.75390625
z: -0.35420605540275574
visibility: 0.9573161602020264
","x: 179.65200805664062
y: 391.2063903808594
z: -0.1714446246623993
visibility: 0.9486179947853088
","x: 210.0892333984375
y: 375.3900146484375
z: -0.3994522988796234
visibility: 0.9300567507743835
","x: 169.6729736328125
y: 406.2101745605469
z: -0.20580434799194336
visibility: 0.9203192591667175
","x: 209.11636352539062
y: 368.908935546875
z: -0.41932496428489685
visibility: 0.9323142766952515
","x: 169.43460083007812
y: 405.83331298828125
z: -0.23643667995929718
visibility: 0.9244922995567322
","x: 209.9322052001953
y: 366.2204284667969
z: -0.3647966980934143
visibility: 0.9147517681121826
","x: 173.12196350097656
y: 400.6022644042969
z: -0.1858849972486496
visibility: 0.9091507196426392
","x: 230.12525939941406
y: 395.3680419921875
z: 0.009909949265420437
visibility: 0.9998217225074768
","x: 205.6555938720703
y: 395.77093505859375
z: -0.010028807446360588
visibility: 0.999851405620575
","x: 239.40682983398438
y: 467.82958984375
z: 0.06611619144678116
visibility: 0.9946486353874207
","x: 193.1285858154297
y: 468.71197509765625
z: -0.027557697147130966
visibility: 0.9954873323440552
","x: 249.68353271484375
y: 532.2327880859375
z: 0.26645487546920776
visibility: 0.9908230900764465
","x: 176.39707946777344
y: 531.5794677734375
z: 0.1217288002371788
visibility: 0.9733489155769348
","x: 247.8352508544922
y: 542.3563232421875
z: 0.27929791808128357
visibility: 0.9109905958175659
","x: 174.46568298339844
y: 540.726806640625
z: 0.12990616261959076
visibility: 0.8593350648880005
","x: 251.74310302734375
y: 558.0850830078125
z: 0.14838632941246033
visibility: 0.9883183240890503
","x: 179.0166015625
y: 558.66015625
z: -0.006302574183791876
visibility: 0.9730669856071472
",,,,,,,,,,,,,,,,,,,,,,,,,,,,,,,,,,,,,,,,,,
17,"x: 224.0532684326172
y: 246.05075073242188
z: -0.1774613857269287
visibility: 0.9999765157699585
","x: 227.39561462402344
y: 240.6537628173828
z: -0.1652739942073822
visibility: 0.9999302625656128
","x: 227.42193603515625
y: 241.06320190429688
z: -0.1653268039226532
visibility: 0.9999187588691711
","x: 228.25523376464844
y: 241.5215301513672
z: -0.16529929637908936
visibility: 0.9999103546142578
","x: 222.20555114746094
y: 240.6314239501953
z: -0.15760666131973267
visibility: 0.999933660030365
","x: 220.7705841064453
y: 240.96286010742188
z: -0.15759791433811188
visibility: 0.9999266862869263
","x: 220.27587890625
y: 241.30767822265625
z: -0.15763118863105774
visibility: 0.9999281167984009
","x: 229.1572265625
y: 245.6510772705078
z: -0.0876743346452713
visibility: 0.9998574256896973
","x: 217.81680297851562
y: 245.86923217773438
z: -0.0503983199596405
visibility: 0.9998801946640015
","x: 227.55450439453125
y: 254.28533935546875
z: -0.1477704644203186
visibility: 0.9999662041664124
","x: 219.45582580566406
y: 254.2268524169922
z: -0.137577086687088
visibility: 0.9999626278877258
","x: 241.85342407226562
y: 287.7536315917969
z: -0.09938104450702667
visibility: 0.9999186992645264
","x: 199.35360717773438
y: 292.02947998046875
z: 0.024818673729896545
visibility: 0.9999308586120605
","x: 221.38970947265625
y: 286.48370361328125
z: -0.22105686366558075
visibility: 0.9689452052116394
","x: 193.75936889648438
y: 343.45330810546875
z: 0.07082213461399078
visibility: 0.956087052822113
","x: 204.18495178222656
y: 241.39878845214844
z: -0.3951290547847748
visibility: 0.9602616429328918
","x: 181.41183471679688
y: 388.4852600097656
z: 0.0006559055182151496
visibility: 0.9357030987739563
","x: 201.97178649902344
y: 229.20370483398438
z: -0.44021329283714294
visibility: 0.9345510601997375
","x: 172.1336669921875
y: 403.2577819824219
z: -0.017407523468136787
visibility: 0.9010496139526367
","x: 203.0690460205078
y: 225.98385620117188
z: -0.44019031524658203
visibility: 0.9364457726478577
","x: 172.67269897460938
y: 403.5104675292969
z: -0.04559428244829178
visibility: 0.9055954813957214
","x: 203.97213745117188
y: 230.9416961669922
z: -0.4008511006832123
visibility: 0.9188300371170044
","x: 177.1277313232422
y: 398.7490234375
z: -0.012464037165045738
visibility: 0.8877981305122375
","x: 226.05397033691406
y: 394.856689453125
z: -0.011684509925544262
visibility: 0.9998367428779602
","x: 201.69735717773438
y: 394.34161376953125
z: 0.011448118835687637
visibility: 0.9998623132705688
","x: 237.3070526123047
y: 466.52392578125
z: 0.025690317153930664
visibility: 0.995073139667511
","x: 188.5181121826172
y: 468.23358154296875
z: -0.004039647988975048
visibility: 0.9958852529525757
","x: 248.49429321289062
y: 532.712646484375
z: 0.12985853850841522
visibility: 0.9916391968727112
","x: 175.4720458984375
y: 534.8438720703125
z: 0.12447801977396011
visibility: 0.9759148359298706
","x: 246.69187927246094
y: 544.1614379882812
z: 0.13663910329341888
visibility: 0.9150213599205017
","x: 175.0216064453125
y: 544.1466064453125
z: 0.13171514868736267
visibility: 0.8677037954330444
","x: 252.3979034423828
y: 558.1051025390625
z: 0.00979243591427803
visibility: 0.9892510175704956
","x: 177.6888427734375
y: 561.0169067382812
z: 0.0120980991050601
visibility: 0.9754796624183655
",,,,,,,,,,,,,,,,,,,,,,,,,,,,,,,,,,,,,,,,,,
18,"x: 220.70065307617188
y: 248.6222686767578
z: -0.27541810274124146
visibility: 0.9999783635139465
","x: 225.45761108398438
y: 242.3678741455078
z: -0.2604545056819916
visibility: 0.9999353289604187
","x: 226.40968322753906
y: 242.81695556640625
z: -0.2604808211326599
visibility: 0.9999253153800964
","x: 228.13453674316406
y: 243.32174682617188
z: -0.2604556679725647
visibility: 0.9999170899391174
","x: 221.03248596191406
y: 242.0266571044922
z: -0.2532878816127777
visibility: 0.9999389052391052
","x: 220.39767456054688
y: 242.17063903808594
z: -0.2532980740070343
visibility: 0.9999327063560486
","x: 219.78660583496094
y: 242.34454345703125
z: -0.25330501794815063
visibility: 0.999933660030365
","x: 228.0675506591797
y: 247.78341674804688
z: -0.1640952229499817
visibility: 0.9998691082000732
","x: 215.86587524414062
y: 247.19346618652344
z: -0.12713052332401276
visibility: 0.9998908042907715
","x: 224.30294799804688
y: 257.5595703125
z: -0.238943412899971
visibility: 0.999967098236084
","x: 217.21865844726562
y: 256.83203125
z: -0.22908218204975128
visibility: 0.9999647736549377
","x: 238.88461303710938
y: 286.38800048828125
z: -0.15291354060173035
visibility: 0.9999167919158936
","x: 199.96556091308594
y: 291.75537109375
z: -0.025821780785918236
visibility: 0.9999271035194397
","x: 228.19395446777344
y: 239.364501953125
z: -0.3029811978340149
visibility: 0.9719160795211792
","x: 193.1433868408203
y: 339.9755554199219
z: -0.006945089437067509
visibility: 0.9492425322532654
","x: 211.96266174316406
y: 198.59716796875
z: -0.4636518359184265
visibility: 0.9639301896095276
","x: 187.83396911621094
y: 375.2908935546875
z: -0.08472158014774323
visibility: 0.9236093759536743
","x: 208.0224609375
y: 190.52992248535156
z: -0.5141064524650574
visibility: 0.9400621056556702
","x: 184.80520629882812
y: 389.83013916015625
z: -0.10827472060918808
visibility: 0.8843289613723755
","x: 207.3079376220703
y: 188.847900390625
z: -0.5118679404258728
visibility: 0.9416307806968689
","x: 184.79405212402344
y: 389.5342712402344
z: -0.13539789617061615
visibility: 0.8887927532196045
","x: 208.32765197753906
y: 191.90036010742188
z: -0.46917447447776794
visibility: 0.9250901341438293
","x: 187.94711303710938
y: 383.94049072265625
z: -0.09792640060186386
visibility: 0.8661651611328125
","x: 225.57553100585938
y: 392.5693359375
z: -0.014782525599002838
visibility: 0.9998496770858765
","x: 201.61825561523438
y: 389.32867431640625
z: 0.014570949599146843
visibility: 0.9998723864555359
","x: 237.56410217285156
y: 466.06427001953125
z: -0.0023455002810806036
visibility: 0.9954693913459778
","x: 186.67007446289062
y: 463.864013671875
z: -0.03929789364337921
visibility: 0.9962582588195801
","x: 249.34649658203125
y: 532.7019653320312
z: 0.1409664899110794
visibility: 0.9923551678657532
","x: 175.21075439453125
y: 536.7340698242188
z: 0.0689224898815155
visibility: 0.9782446622848511
","x: 247.82395935058594
y: 544.1376342773438
z: 0.14979027211666107
visibility: 0.9186396598815918
","x: 174.40414428710938
y: 546.8505249023438
z: 0.07331428676843643
visibility: 0.8760742545127869
","x: 253.0149383544922
y: 557.97412109375
z: 0.021405735984444618
visibility: 0.9900409579277039
","x: 177.5419464111328
y: 562.515869140625
z: -0.06598520278930664
visibility: 0.9777218699455261
","x: 211.75025939941406
y: 196.78773498535156
z: 0.0
","x: 207.968017578125
y: 197.268798828125
z: -0.003660578513517976
","x: 205.2142333984375
y: 194.29779052734375
z: -0.00601700134575367
","x: 203.41958618164062
y: 190.2005157470703
z: -0.0071983966045081615
","x: 202.2424774169922
y: 187.1391143798828
z: -0.007502813823521137
","x: 209.37664794921875
y: 184.20013427734375
z: -0.009172859601676464
","x: 202.7127685546875
y: 182.26072692871094
z: -0.010916708037257195
","x: 203.1345672607422
y: 186.32730102539062
z: -0.009666869416832924
","x: 205.12112426757812
y: 188.18067932128906
z: -0.008438130840659142
","x: 209.9803466796875
y: 181.02572631835938
z: -0.008015230298042297
","x: 203.42462158203125
y: 179.80807495117188
z: -0.009036565199494362
","x: 203.496826171875
y: 183.47042846679688
z: -0.006846951320767403
","x: 205.1119384765625
y: 185.07872009277344
z: -0.005470996256917715
","x: 209.8139190673828
y: 179.43505859375
z: -0.006788499653339386
","x: 203.9407958984375
y: 178.428466796875
z: -0.008065136149525642
","x: 204.2520294189453
y: 181.8392333984375
z: -0.006528970319777727
","x: 205.77137756347656
y: 183.20724487304688
z: -0.005554493982344866
","x: 209.13885498046875
y: 178.7679443359375
z: -0.005672450643032789
","x: 204.7495880126953
y: 178.27105712890625
z: -0.007124928291887045
","x: 205.0930633544922
y: 181.15150451660156
z: -0.0067344107665121555
","x: 206.4205322265625
y: 182.0903778076172
z: -0.006233248393982649
",,,,,,,,,,,,,,,,,,,,,
19,"x: 220.70065307617188
y: 248.6222686767578
z: -0.27541810274124146
visibility: 0.9999783635139465
","x: 225.45761108398438
y: 242.3678741455078
z: -0.2604545056819916
visibility: 0.9999353289604187
","x: 226.40968322753906
y: 242.81695556640625
z: -0.2604808211326599
visibility: 0.9999253153800964
","x: 228.13453674316406
y: 243.32174682617188
z: -0.2604556679725647
visibility: 0.9999170899391174
","x: 221.03248596191406
y: 242.0266571044922
z: -0.2532878816127777
visibility: 0.9999389052391052
","x: 220.39767456054688
y: 242.17063903808594
z: -0.2532980740070343
visibility: 0.9999327063560486
","x: 219.78660583496094
y: 242.34454345703125
z: -0.25330501794815063
visibility: 0.999933660030365
","x: 228.0675506591797
y: 247.78341674804688
z: -0.1640952229499817
visibility: 0.9998691082000732
","x: 215.86587524414062
y: 247.19346618652344
z: -0.12713052332401276
visibility: 0.9998908042907715
","x: 224.30294799804688
y: 257.5595703125
z: -0.238943412899971
visibility: 0.999967098236084
","x: 217.21865844726562
y: 256.83203125
z: -0.22908218204975128
visibility: 0.9999647736549377
","x: 238.88461303710938
y: 286.38800048828125
z: -0.15291354060173035
visibility: 0.9999167919158936
","x: 199.96556091308594
y: 291.75537109375
z: -0.025821780785918236
visibility: 0.9999271035194397
","x: 228.19395446777344
y: 239.364501953125
z: -0.3029811978340149
visibility: 0.9719160795211792
","x: 193.1433868408203
y: 339.9755554199219
z: -0.006945089437067509
visibility: 0.9492425322532654
","x: 211.96266174316406
y: 198.59716796875
z: -0.4636518359184265
visibility: 0.9639301896095276
","x: 187.83396911621094
y: 375.2908935546875
z: -0.08472158014774323
visibility: 0.9236093759536743
","x: 208.0224609375
y: 190.52992248535156
z: -0.5141064524650574
visibility: 0.9400621056556702
","x: 184.80520629882812
y: 389.83013916015625
z: -0.10827472060918808
visibility: 0.8843289613723755
","x: 207.3079376220703
y: 188.847900390625
z: -0.5118679404258728
visibility: 0.9416307806968689
","x: 184.79405212402344
y: 389.5342712402344
z: -0.13539789617061615
visibility: 0.8887927532196045
","x: 208.32765197753906
y: 191.90036010742188
z: -0.46917447447776794
visibility: 0.9250901341438293
","x: 187.94711303710938
y: 383.94049072265625
z: -0.09792640060186386
visibility: 0.8661651611328125
","x: 225.57553100585938
y: 392.5693359375
z: -0.014782525599002838
visibility: 0.9998496770858765
","x: 201.61825561523438
y: 389.32867431640625
z: 0.014570949599146843
visibility: 0.9998723864555359
","x: 237.56410217285156
y: 466.06427001953125
z: -0.0023455002810806036
visibility: 0.9954693913459778
","x: 186.67007446289062
y: 463.864013671875
z: -0.03929789364337921
visibility: 0.9962582588195801
","x: 249.34649658203125
y: 532.7019653320312
z: 0.1409664899110794
visibility: 0.9923551678657532
","x: 175.21075439453125
y: 536.7340698242188
z: 0.0689224898815155
visibility: 0.9782446622848511
","x: 247.82395935058594
y: 544.1376342773438
z: 0.14979027211666107
visibility: 0.9186396598815918
","x: 174.40414428710938
y: 546.8505249023438
z: 0.07331428676843643
visibility: 0.8760742545127869
","x: 253.0149383544922
y: 557.97412109375
z: 0.021405735984444618
visibility: 0.9900409579277039
","x: 177.5419464111328
y: 562.515869140625
z: -0.06598520278930664
visibility: 0.9777218699455261
","x: 211.75025939941406
y: 196.78773498535156
z: 0.0
","x: 207.968017578125
y: 197.268798828125
z: -0.003660578513517976
","x: 205.2142333984375
y: 194.29779052734375
z: -0.00601700134575367
","x: 203.41958618164062
y: 190.2005157470703
z: -0.0071983966045081615
","x: 202.2424774169922
y: 187.1391143798828
z: -0.007502813823521137
","x: 209.37664794921875
y: 184.20013427734375
z: -0.009172859601676464
","x: 202.7127685546875
y: 182.26072692871094
z: -0.010916708037257195
","x: 203.1345672607422
y: 186.32730102539062
z: -0.009666869416832924
","x: 205.12112426757812
y: 188.18067932128906
z: -0.008438130840659142
","x: 209.9803466796875
y: 181.02572631835938
z: -0.008015230298042297
","x: 203.42462158203125
y: 179.80807495117188
z: -0.009036565199494362
","x: 203.496826171875
y: 183.47042846679688
z: -0.006846951320767403
","x: 205.1119384765625
y: 185.07872009277344
z: -0.005470996256917715
","x: 209.8139190673828
y: 179.43505859375
z: -0.006788499653339386
","x: 203.9407958984375
y: 178.428466796875
z: -0.008065136149525642
","x: 204.2520294189453
y: 181.8392333984375
z: -0.006528970319777727
","x: 205.77137756347656
y: 183.20724487304688
z: -0.005554493982344866
","x: 209.13885498046875
y: 178.7679443359375
z: -0.005672450643032789
","x: 204.7495880126953
y: 178.27105712890625
z: -0.007124928291887045
","x: 205.0930633544922
y: 181.15150451660156
z: -0.0067344107665121555
","x: 206.4205322265625
y: 182.0903778076172
z: -0.006233248393982649
",,,,,,,,,,,,,,,,,,,,,
20,"x: 215.7604217529297
y: 248.67501831054688
z: -0.26157137751579285
visibility: 0.9999789595603943
","x: 218.8993377685547
y: 242.48475646972656
z: -0.24574343860149384
visibility: 0.9999314546585083
","x: 220.3733367919922
y: 242.91632080078125
z: -0.24577924609184265
visibility: 0.9999248385429382
","x: 222.18511962890625
y: 243.38449096679688
z: -0.24578765034675598
visibility: 0.9999138712882996
","x: 214.7570343017578
y: 242.236572265625
z: -0.24233677983283997
visibility: 0.9999402165412903
","x: 213.5269317626953
y: 242.4700927734375
z: -0.24235573410987854
visibility: 0.9999361038208008
","x: 212.3550567626953
y: 242.739501953125
z: -0.24236559867858887
visibility: 0.9999361634254456
","x: 224.12350463867188
y: 248.07034301757812
z: -0.1456257402896881
visibility: 0.9998524785041809
","x: 209.61895751953125
y: 248.03506469726562
z: -0.13171370327472687
visibility: 0.9998968243598938
","x: 218.76072692871094
y: 257.7582092285156
z: -0.22384440898895264
visibility: 0.9999581575393677
","x: 213.1849822998047
y: 257.3084716796875
z: -0.21983227133750916
visibility: 0.9999644160270691
","x: 233.1780242919922
y: 283.01446533203125
z: -0.10934366285800934
visibility: 0.9999015927314758
","x: 198.4629364013672
y: 294.1461181640625
z: -0.04112768545746803
visibility: 0.9999222159385681
","x: 237.9053497314453
y: 236.02902221679688
z: -0.18780562281608582
visibility: 0.9742741584777832
","x: 192.87106323242188
y: 346.2060852050781
z: 0.0012993650743737817
visibility: 0.9502294659614563
","x: 244.8654327392578
y: 188.4600830078125
z: -0.3520248234272003
visibility: 0.9665424227714539
","x: 189.93267822265625
y: 391.8830871582031
z: -0.06928341090679169
visibility: 0.9213967323303223
","x: 247.6900634765625
y: 179.12234497070312
z: -0.386955201625824
visibility: 0.9429965615272522
","x: 188.57928466796875
y: 406.1405029296875
z: -0.08857590705156326
visibility: 0.8792838454246521
","x: 246.42942810058594
y: 177.41888427734375
z: -0.3961392045021057
visibility: 0.944324791431427
","x: 189.56080627441406
y: 405.4905700683594
z: -0.1155315488576889
visibility: 0.8848252892494202
","x: 245.08692932128906
y: 179.53793334960938
z: -0.3559810221195221
visibility: 0.9294351935386658
","x: 191.19711303710938
y: 400.55670166015625
z: -0.08100172877311707
visibility: 0.8613590598106384
","x: 228.5027313232422
y: 392.4566650390625
z: -0.010591435246169567
visibility: 0.9998542666435242
","x: 204.26568603515625
y: 392.17303466796875
z: 0.010421189479529858
visibility: 0.9998754858970642
","x: 239.26451110839844
y: 467.047607421875
z: -0.008942654356360435
visibility: 0.9957816004753113
","x: 189.02676391601562
y: 465.8692626953125
z: -0.025387343019247055
visibility: 0.9965105056762695
","x: 248.7119598388672
y: 533.4077758789062
z: 0.15554878115653992
visibility: 0.9929012060165405
","x: 177.04022216796875
y: 538.1499633789062
z: 0.09546814113855362
visibility: 0.9802364110946655
","x: 247.30332946777344
y: 544.663818359375
z: 0.16654162108898163
visibility: 0.9214403629302979
","x: 176.0472412109375
y: 548.6002197265625
z: 0.08448909223079681
visibility: 0.8816277980804443
","x: 253.31594848632812
y: 558.1353149414062
z: 0.03233225643634796
visibility: 0.9905993938446045
","x: 177.51953125
y: 563.2434692382812
z: -0.004692636430263519
visibility: 0.9794816970825195
",,,,,,,,,,,,,,,,,,,,,,,,,,,,,,,,,,,,,,,,,,
21,"x: 210.97030639648438
y: 254.67689514160156
z: -0.3755877614021301
visibility: 0.9999798536300659
","x: 213.8174285888672
y: 247.463134765625
z: -0.3615882992744446
visibility: 0.9999299645423889
","x: 215.5227813720703
y: 247.7603759765625
z: -0.36154547333717346
visibility: 0.9999256730079651
","x: 217.26622009277344
y: 248.12246704101562
z: -0.361530601978302
visibility: 0.9999121427536011
","x: 209.364013671875
y: 247.24449157714844
z: -0.36050763726234436
visibility: 0.9999421834945679
","x: 207.91836547851562
y: 247.45175170898438
z: -0.36057206988334656
visibility: 0.9999397397041321
","x: 206.47723388671875
y: 247.74671936035156
z: -0.36057379841804504
visibility: 0.9999392032623291
","x: 220.30934143066406
y: 252.55096435546875
z: -0.25370651483535767
visibility: 0.9998482465744019
","x: 204.837646484375
y: 252.16949462890625
z: -0.24796037375926971
visibility: 0.9999050498008728
","x: 213.7713165283203
y: 262.8140869140625
z: -0.3334019184112549
visibility: 0.9999541640281677
","x: 208.3052215576172
y: 262.4955139160156
z: -0.3320372998714447
visibility: 0.9999655485153198
","x: 229.59652709960938
y: 282.78912353515625
z: -0.1866740882396698
visibility: 0.9999032020568848
","x: 196.5990447998047
y: 296.82354736328125
z: -0.14313273131847382
visibility: 0.9999244213104248
","x: 249.29110717773438
y: 250.6990203857422
z: -0.25232821702957153
visibility: 0.9766926169395447
","x: 192.77076721191406
y: 346.75
z: -0.010283129289746284
visibility: 0.9523258805274963
","x: 262.88958740234375
y: 202.61593627929688
z: -0.39908406138420105
visibility: 0.9694451093673706
","x: 193.59629821777344
y: 391.09014892578125
z: -0.08539170026779175
visibility: 0.9218933582305908
","x: 266.3977355957031
y: 191.9102325439453
z: -0.441821813583374
visibility: 0.947094202041626
","x: 192.86376953125
y: 405.4077453613281
z: -0.09958910942077637
visibility: 0.8765286207199097
","x: 265.0240173339844
y: 190.2362823486328
z: -0.45990076661109924
visibility: 0.9483289122581482
","x: 194.16445922851562
y: 404.7442626953125
z: -0.1258857250213623
visibility: 0.8829778432846069
","x: 263.2703552246094
y: 192.88525390625
z: -0.4135429263114929
visibility: 0.9347302913665771
","x: 195.27760314941406
y: 400.6815185546875
z: -0.09549777209758759
visibility: 0.8598605394363403
","x: 232.47056579589844
y: 392.87615966796875
z: -0.011416086927056313
visibility: 0.9998601078987122
","x: 208.02804565429688
y: 396.086181640625
z: 0.011380867101252079
visibility: 0.9998809695243835
","x: 244.78231811523438
y: 468.8197021484375
z: -0.0638156533241272
visibility: 0.9960629343986511
","x: 191.69305419921875
y: 465.8346252441406
z: -0.06806100159883499
visibility: 0.9967518448829651
","x: 249.76376342773438
y: 535.20166015625
z: 0.14717751741409302
visibility: 0.9933720827102661
","x: 179.5858917236328
y: 537.7879638671875
z: 0.10770756006240845
visibility: 0.9820488095283508
","x: 247.9333038330078
y: 545.3753662109375
z: 0.1610657125711441
visibility: 0.9234777092933655
","x: 179.03189086914062
y: 546.7522583007812
z: 0.11411692947149277
visibility: 0.889826774597168
","x: 252.9237823486328
y: 558.80224609375
z: 0.018495600670576096
visibility: 0.9910586476325989
","x: 176.32595825195312
y: 562.4609985351562
z: 0.010396154597401619
visibility: 0.9811617136001587
","x: 264.3013916015625
y: 198.22604370117188
z: 0.0
","x: 267.9693298339844
y: 194.91070556640625
z: 0.0007624843274243176
","x: 270.53118896484375
y: 191.36929321289062
z: 0.0007034043082967401
","x: 271.5546875
y: 187.27125549316406
z: -0.0003611238207668066
","x: 271.15423583984375
y: 183.787353515625
z: -0.0008778358460403979
","x: 269.67755126953125
y: 185.71990966796875
z: 0.003572281217202544
","x: 270.74981689453125
y: 181.34530639648438
z: 0.0014468708541244268
","x: 270.76922607421875
y: 184.05332946777344
z: 0.0005851436872035265
","x: 270.2965087890625
y: 187.044921875
z: 0.0005451322649605572
","x: 268.38250732421875
y: 184.74403381347656
z: 0.0017985800513997674
","x: 269.60528564453125
y: 181.06666564941406
z: -0.0010188505984842777
","x: 269.5979919433594
y: 184.7156982421875
z: -0.001951185055077076
","x: 269.1255187988281
y: 187.9075927734375
z: -0.0016426382353529334
","x: 267.02203369140625
y: 184.0459442138672
z: -0.0004822174378205091
","x: 268.11688232421875
y: 180.598876953125
z: -0.002812557155266404
","x: 268.3360595703125
y: 183.90924072265625
z: -0.0023263203911483288
","x: 268.0514221191406
y: 187.13250732421875
z: -0.0012133944546803832
","x: 265.5606384277344
y: 183.32098388671875
z: -0.0030009394977241755
","x: 266.5633544921875
y: 178.38018798828125
z: -0.004273250233381987
","x: 267.3043518066406
y: 175.82015991210938
z: -0.004136264324188232
","x: 267.7508850097656
y: 174.1837158203125
z: -0.0034900777973234653
",,,,,,,,,,,,,,,,,,,,,
22,"x: 210.97030639648438
y: 254.67689514160156
z: -0.3755877614021301
visibility: 0.9999798536300659
","x: 213.8174285888672
y: 247.463134765625
z: -0.3615882992744446
visibility: 0.9999299645423889
","x: 215.5227813720703
y: 247.7603759765625
z: -0.36154547333717346
visibility: 0.9999256730079651
","x: 217.26622009277344
y: 248.12246704101562
z: -0.361530601978302
visibility: 0.9999121427536011
","x: 209.364013671875
y: 247.24449157714844
z: -0.36050763726234436
visibility: 0.9999421834945679
","x: 207.91836547851562
y: 247.45175170898438
z: -0.36057206988334656
visibility: 0.9999397397041321
","x: 206.47723388671875
y: 247.74671936035156
z: -0.36057379841804504
visibility: 0.9999392032623291
","x: 220.30934143066406
y: 252.55096435546875
z: -0.25370651483535767
visibility: 0.9998482465744019
","x: 204.837646484375
y: 252.16949462890625
z: -0.24796037375926971
visibility: 0.9999050498008728
","x: 213.7713165283203
y: 262.8140869140625
z: -0.3334019184112549
visibility: 0.9999541640281677
","x: 208.3052215576172
y: 262.4955139160156
z: -0.3320372998714447
visibility: 0.9999655485153198
","x: 229.59652709960938
y: 282.78912353515625
z: -0.1866740882396698
visibility: 0.9999032020568848
","x: 196.5990447998047
y: 296.82354736328125
z: -0.14313273131847382
visibility: 0.9999244213104248
","x: 249.29110717773438
y: 250.6990203857422
z: -0.25232821702957153
visibility: 0.9766926169395447
","x: 192.77076721191406
y: 346.75
z: -0.010283129289746284
visibility: 0.9523258805274963
","x: 262.88958740234375
y: 202.61593627929688
z: -0.39908406138420105
visibility: 0.9694451093673706
","x: 193.59629821777344
y: 391.09014892578125
z: -0.08539170026779175
visibility: 0.9218933582305908
","x: 266.3977355957031
y: 191.9102325439453
z: -0.441821813583374
visibility: 0.947094202041626
","x: 192.86376953125
y: 405.4077453613281
z: -0.09958910942077637
visibility: 0.8765286207199097
","x: 265.0240173339844
y: 190.2362823486328
z: -0.45990076661109924
visibility: 0.9483289122581482
","x: 194.16445922851562
y: 404.7442626953125
z: -0.1258857250213623
visibility: 0.8829778432846069
","x: 263.2703552246094
y: 192.88525390625
z: -0.4135429263114929
visibility: 0.9347302913665771
","x: 195.27760314941406
y: 400.6815185546875
z: -0.09549777209758759
visibility: 0.8598605394363403
","x: 232.47056579589844
y: 392.87615966796875
z: -0.011416086927056313
visibility: 0.9998601078987122
","x: 208.02804565429688
y: 396.086181640625
z: 0.011380867101252079
visibility: 0.9998809695243835
","x: 244.78231811523438
y: 468.8197021484375
z: -0.0638156533241272
visibility: 0.9960629343986511
","x: 191.69305419921875
y: 465.8346252441406
z: -0.06806100159883499
visibility: 0.9967518448829651
","x: 249.76376342773438
y: 535.20166015625
z: 0.14717751741409302
visibility: 0.9933720827102661
","x: 179.5858917236328
y: 537.7879638671875
z: 0.10770756006240845
visibility: 0.9820488095283508
","x: 247.9333038330078
y: 545.3753662109375
z: 0.1610657125711441
visibility: 0.9234777092933655
","x: 179.03189086914062
y: 546.7522583007812
z: 0.11411692947149277
visibility: 0.889826774597168
","x: 252.9237823486328
y: 558.80224609375
z: 0.018495600670576096
visibility: 0.9910586476325989
","x: 176.32595825195312
y: 562.4609985351562
z: 0.010396154597401619
visibility: 0.9811617136001587
","x: 264.3013916015625
y: 198.22604370117188
z: 0.0
","x: 267.9693298339844
y: 194.91070556640625
z: 0.0007624843274243176
","x: 270.53118896484375
y: 191.36929321289062
z: 0.0007034043082967401
","x: 271.5546875
y: 187.27125549316406
z: -0.0003611238207668066
","x: 271.15423583984375
y: 183.787353515625
z: -0.0008778358460403979
","x: 269.67755126953125
y: 185.71990966796875
z: 0.003572281217202544
","x: 270.74981689453125
y: 181.34530639648438
z: 0.0014468708541244268
","x: 270.76922607421875
y: 184.05332946777344
z: 0.0005851436872035265
","x: 270.2965087890625
y: 187.044921875
z: 0.0005451322649605572
","x: 268.38250732421875
y: 184.74403381347656
z: 0.0017985800513997674
","x: 269.60528564453125
y: 181.06666564941406
z: -0.0010188505984842777
","x: 269.5979919433594
y: 184.7156982421875
z: -0.001951185055077076
","x: 269.1255187988281
y: 187.9075927734375
z: -0.0016426382353529334
","x: 267.02203369140625
y: 184.0459442138672
z: -0.0004822174378205091
","x: 268.11688232421875
y: 180.598876953125
z: -0.002812557155266404
","x: 268.3360595703125
y: 183.90924072265625
z: -0.0023263203911483288
","x: 268.0514221191406
y: 187.13250732421875
z: -0.0012133944546803832
","x: 265.5606384277344
y: 183.32098388671875
z: -0.0030009394977241755
","x: 266.5633544921875
y: 178.38018798828125
z: -0.004273250233381987
","x: 267.3043518066406
y: 175.82015991210938
z: -0.004136264324188232
","x: 267.7508850097656
y: 174.1837158203125
z: -0.0034900777973234653
",,,,,,,,,,,,,,,,,,,,,
23,"x: 209.06451416015625
y: 254.13357543945312
z: -0.3121447265148163
visibility: 0.9999787211418152
","x: 211.77467346191406
y: 247.32461547851562
z: -0.29499584436416626
visibility: 0.9999196529388428
","x: 213.31329345703125
y: 247.66693115234375
z: -0.2949903607368469
visibility: 0.9999152421951294
","x: 214.9127655029297
y: 248.03260803222656
z: -0.29499921202659607
visibility: 0.9999027848243713
","x: 207.58206176757812
y: 246.86387634277344
z: -0.2954075038433075
visibility: 0.9999393820762634
","x: 206.24102783203125
y: 247.0061492919922
z: -0.29543906450271606
visibility: 0.9999372959136963
","x: 204.9554443359375
y: 247.2718505859375
z: -0.29544979333877563
visibility: 0.9999374151229858
","x: 217.60057067871094
y: 252.2880401611328
z: -0.19018147885799408
visibility: 0.9998344779014587
","x: 202.9552764892578
y: 251.8072509765625
z: -0.18640249967575073
visibility: 0.9999094009399414
","x: 211.48684692382812
y: 262.2925109863281
z: -0.27044740319252014
visibility: 0.9999445676803589
","x: 206.21945190429688
y: 261.9273681640625
z: -0.2708105444908142
visibility: 0.9999620914459229
","x: 228.31509399414062
y: 282.895263671875
z: -0.14902493357658386
visibility: 0.9998856782913208
","x: 191.40162658691406
y: 296.3247375488281
z: -0.11565373092889786
visibility: 0.9999134540557861
","x: 256.23919677734375
y: 260.5340576171875
z: -0.20021215081214905
visibility: 0.9788698554039001
","x: 191.03717041015625
y: 345.89837646484375
z: -0.024468082934617996
visibility: 0.9483769536018372
","x: 258.8515625
y: 213.9383544921875
z: -0.34754252433776855
visibility: 0.9713108539581299
","x: 199.18215942382812
y: 382.7870178222656
z: -0.08322110772132874
visibility: 0.9091631174087524
","x: 260.01702880859375
y: 203.72061157226562
z: -0.38809460401535034
visibility: 0.9476578235626221
","x: 200.90260314941406
y: 395.1224060058594
z: -0.10254082828760147
visibility: 0.853667140007019
","x: 257.2184143066406
y: 201.84323120117188
z: -0.40702229738235474
visibility: 0.9485957026481628
","x: 202.4591827392578
y: 394.8017578125
z: -0.12553951144218445
visibility: 0.8606566786766052
","x: 256.18756103515625
y: 205.95791625976562
z: -0.3584422767162323
visibility: 0.9348002076148987
","x: 203.08763122558594
y: 390.6700134277344
z: -0.0932077169418335
visibility: 0.8370373249053955
","x: 233.46336364746094
y: 392.7579040527344
z: -0.017037270590662956
visibility: 0.9998387694358826
","x: 208.86166381835938
y: 397.30267333984375
z: 0.017123118042945862
visibility: 0.9998791217803955
","x: 246.1085662841797
y: 468.7882995605469
z: -0.09602166712284088
visibility: 0.9960762858390808
","x: 187.3286590576172
y: 463.2330017089844
z: -0.13138237595558167
visibility: 0.9969097971916199
","x: 250.1883544921875
y: 536.5748291015625
z: 0.07292485982179642
visibility: 0.9934868216514587
","x: 188.75540161132812
y: 538.5723876953125
z: 0.05849852040410042
visibility: 0.9836533665657043
","x: 248.55995178222656
y: 546.5363159179688
z: 0.08164418488740921
visibility: 0.9217386245727539
","x: 196.03778076171875
y: 548.56640625
z: 0.06901352852582932
visibility: 0.8992074728012085
","x: 253.77188110351562
y: 559.0368041992188
z: -0.051453106105327606
visibility: 0.9909594655036926
","x: 176.5782470703125
y: 563.7424926757812
z: -0.0408727303147316
visibility: 0.9825682044029236
",,,,,,,,,,,,,,,,,,,,,,,,,,,,,,,,,,,,,,,,,,
24,"x: 209.15219116210938
y: 254.28404235839844
z: -0.3166729509830475
visibility: 0.9999807476997375
","x: 211.42559814453125
y: 247.45944213867188
z: -0.2956002950668335
visibility: 0.9999270439147949
","x: 212.74923706054688
y: 247.8550567626953
z: -0.2955474555492401
visibility: 0.999923050403595
","x: 213.93902587890625
y: 248.22792053222656
z: -0.2955288290977478
visibility: 0.9999114871025085
","x: 207.38479614257812
y: 246.57431030273438
z: -0.30250442028045654
visibility: 0.9999451637268066
","x: 205.94677734375
y: 246.7193603515625
z: -0.30254149436950684
visibility: 0.9999433755874634
","x: 204.54678344726562
y: 247.16815185546875
z: -0.3025302588939667
visibility: 0.9999434947967529
","x: 215.2979736328125
y: 251.985595703125
z: -0.1738555133342743
visibility: 0.9998481869697571
","x: 201.47232055664062
y: 250.6258544921875
z: -0.20415914058685303
visibility: 0.9999183416366577
","x: 210.99400329589844
y: 262.5647277832031
z: -0.26915502548217773
visibility: 0.9999495148658752
","x: 205.94549560546875
y: 261.9955139160156
z: -0.2794511020183563
visibility: 0.9999657273292542
","x: 226.1147003173828
y: 282.24383544921875
z: -0.08892841637134552
visibility: 0.9998942613601685
","x: 186.65794372558594
y: 296.1363525390625
z: -0.13387875258922577
visibility: 0.9999212622642517
","x: 254.9527587890625
y: 255.68154907226562
z: -0.0962965115904808
visibility: 0.9808881282806396
","x: 176.63818359375
y: 345.28033447265625
z: -0.1418095976114273
visibility: 0.9533455967903137
","x: 260.4793701171875
y: 210.36868286132812
z: -0.21516616642475128
visibility: 0.973913311958313
","x: 187.3094940185547
y: 387.8777770996094
z: -0.2515099346637726
visibility: 0.9171313047409058
","x: 262.3186340332031
y: 199.54525756835938
z: -0.2479439675807953
visibility: 0.9513576030731201
","x: 190.778564453125
y: 401.5713806152344
z: -0.280443400144577
visibility: 0.8644483685493469
","x: 260.19732666015625
y: 197.48497009277344
z: -0.2575787901878357
visibility: 0.9522525072097778
","x: 196.54446411132812
y: 397.97509765625
z: -0.2974189817905426
visibility: 0.8708814382553101
","x: 259.1954345703125
y: 201.84121704101562
z: -0.22507885098457336
visibility: 0.9396175742149353
","x: 195.8271484375
y: 392.9847412109375
z: -0.2591511011123657
visibility: 0.8481301069259644
","x: 230.39739990234375
y: 391.32940673828125
z: 0.00777855422347784
visibility: 0.999849796295166
","x: 206.65359497070312
y: 397.00543212890625
z: -0.007953017950057983
visibility: 0.9998847842216492
","x: 245.35726928710938
y: 464.335205078125
z: -0.011303122155368328
visibility: 0.9962893724441528
","x: 190.3560333251953
y: 469.27447509765625
z: -0.06400161981582642
visibility: 0.997100293636322
","x: 249.25157165527344
y: 536.5108642578125
z: 0.1533510833978653
visibility: 0.993905246257782
","x: 181.21881103515625
y: 537.6898803710938
z: 0.12848325073719025
visibility: 0.9850309491157532
","x: 247.72161865234375
y: 546.837158203125
z: 0.16316910088062286
visibility: 0.9259244203567505
","x: 179.3586883544922
y: 547.2344360351562
z: 0.1418112814426422
visibility: 0.9007357954978943
","x: 253.6002197265625
y: 558.5204467773438
z: 0.04023490101099014
visibility: 0.9914782643318176
","x: 181.8658905029297
y: 563.1837158203125
z: 0.021883714944124222
visibility: 0.9838085174560547
",,,,,,,,,,,,,,,,,,,,,,,,,,,,,,,,,,,,,,,,,,
25,"x: 208.35345458984375
y: 254.17239379882812
z: -0.264281302690506
visibility: 0.9999825954437256
","x: 210.4119873046875
y: 247.54302978515625
z: -0.23929743468761444
visibility: 0.9999336004257202
","x: 211.47438049316406
y: 247.98829650878906
z: -0.23927216231822968
visibility: 0.9999297857284546
","x: 212.44076538085938
y: 248.40509033203125
z: -0.23925349116325378
visibility: 0.9999188780784607
","x: 206.50894165039062
y: 246.36595153808594
z: -0.2543879747390747
visibility: 0.9999504089355469
","x: 204.9122314453125
y: 246.64007568359375
z: -0.2544178366661072
visibility: 0.9999488592147827
","x: 203.34104919433594
y: 246.5618896484375
z: -0.2543862462043762
visibility: 0.9999489784240723
","x: 212.8293914794922
y: 251.7830810546875
z: -0.10617498308420181
visibility: 0.999858558177948
","x: 199.3355255126953
y: 248.5232391357422
z: -0.20049545168876648
visibility: 0.9999263882637024
","x: 209.346435546875
y: 262.5316467285156
z: -0.21361751854419708
visibility: 0.999953031539917
","x: 204.50009155273438
y: 261.70635986328125
z: -0.2349131852388382
visibility: 0.9999688863754272
","x: 221.55271911621094
y: 278.5975341796875
z: -0.006491054780781269
visibility: 0.9998980760574341
","x: 182.47052001953125
y: 295.7213439941406
z: -0.12260349094867706
visibility: 0.9999281764030457
","x: 248.57740783691406
y: 249.1236114501953
z: 0.0428696945309639
visibility: 0.9822928309440613
","x: 172.90077209472656
y: 344.49163818359375
z: -0.1425309181213379
visibility: 0.9578158855438232
","x: 260.0878601074219
y: 211.58163452148438
z: -0.025536781176924706
visibility: 0.9758411049842834
","x: 181.32887268066406
y: 387.354736328125
z: -0.24807479977607727
visibility: 0.9247702360153198
","x: 265.1432800292969
y: 203.7059326171875
z: -0.04869880899786949
visibility: 0.9535822868347168
","x: 182.73236083984375
y: 402.0299072265625
z: -0.2778303325176239
visibility: 0.8759932518005371
","x: 264.35614013671875
y: 202.5503387451172
z: -0.07520060241222382
visibility: 0.9547274708747864
","x: 187.75003051757812
y: 399.3445129394531
z: -0.3026665449142456
visibility: 0.8818966150283813
","x: 262.379638671875
y: 205.52182006835938
z: -0.04253336787223816
visibility: 0.9433236718177795
","x: 188.43133544921875
y: 394.1529541015625
z: -0.2589341700077057
visibility: 0.8605386018753052
","x: 222.5264434814453
y: 391.7115478515625
z: 0.03408616781234741
visibility: 0.9998589754104614
","x: 200.1580810546875
y: 397.64117431640625
z: -0.03422437235713005
visibility: 0.9998882412910461
","x: 242.70315551757812
y: 463.5729675292969
z: 0.023443477228283882
visibility: 0.9961870312690735
","x: 191.3162384033203
y: 470.61029052734375
z: -0.06579798460006714
visibility: 0.9972564578056335
","x: 244.5548095703125
y: 536.5553588867188
z: 0.1482270061969757
visibility: 0.9941484332084656
","x: 180.1337890625
y: 537.5801391601562
z: 0.07783186435699463
visibility: 0.9863467812538147
","x: 240.72140502929688
y: 547.4077758789062
z: 0.15753784775733948
visibility: 0.931136429309845
","x: 177.44143676757812
y: 548.0570068359375
z: 0.08563254773616791
visibility: 0.90558260679245
","x: 254.09490966796875
y: 558.5372314453125
z: 0.04316152259707451
visibility: 0.991801381111145
","x: 185.12039184570312
y: 562.8695068359375
z: -0.0339687205851078
visibility: 0.9850559234619141
",,,,,,,,,,,,,,,,,,,,,,,,,,,,,,,,,,,,,,,,,,
26,"x: 208.8341064453125
y: 252.2716522216797
z: -0.21024775505065918
visibility: 0.9999842047691345
","x: 210.65447998046875
y: 246.58753967285156
z: -0.183754563331604
visibility: 0.9999397397041321
","x: 211.69540405273438
y: 247.13565063476562
z: -0.18373465538024902
visibility: 0.9999361038208008
","x: 212.7019500732422
y: 247.60061645507812
z: -0.1837218850851059
visibility: 0.9999260902404785
","x: 206.8744354248047
y: 244.76312255859375
z: -0.19903910160064697
visibility: 0.9999551177024841
","x: 205.28529357910156
y: 244.4691162109375
z: -0.19906803965568542
visibility: 0.9999537467956543
","x: 203.663818359375
y: 243.8089599609375
z: -0.19907760620117188
visibility: 0.9999538660049438
","x: 212.87026977539062
y: 250.6326141357422
z: -0.04926826432347298
visibility: 0.9998707175254822
","x: 199.39483642578125
y: 245.969482421875
z: -0.12605372071266174
visibility: 0.999933660030365
","x: 209.9305419921875
y: 260.12548828125
z: -0.16016492247581482
visibility: 0.9999570250511169
","x: 205.1074981689453
y: 258.72491455078125
z: -0.18163789808750153
visibility: 0.9999718070030212
","x: 221.11729431152344
y: 276.0141296386719
z: 0.036584027111530304
visibility: 0.9998992085456848
","x: 182.81900024414062
y: 294.68896484375
z: -0.09738605469465256
visibility: 0.9999328255653381
","x: 246.1715087890625
y: 243.66030883789062
z: -0.0014203209429979324
visibility: 0.9836285710334778
","x: 170.62823486328125
y: 344.4151611328125
z: -0.1322040557861328
visibility: 0.9618415236473083
","x: 231.11767578125
y: 204.9127960205078
z: -0.12350340187549591
visibility: 0.9775504469871521
","x: 181.49417114257812
y: 383.39990234375
z: -0.2395392656326294
visibility: 0.9314783811569214
","x: 228.34976196289062
y: 195.28164672851562
z: -0.1579246073961258
visibility: 0.9549012184143066
","x: 181.95834350585938
y: 397.4232177734375
z: -0.26712650060653687
visibility: 0.8860896825790405
","x: 225.4108428955078
y: 197.6036376953125
z: -0.15109260380268097
visibility: 0.9556412696838379
","x: 186.49916076660156
y: 395.1264953613281
z: -0.2810887098312378
visibility: 0.891297459602356
","x: 225.4351348876953
y: 202.522216796875
z: -0.12652452290058136
visibility: 0.944442868232727
","x: 187.19012451171875
y: 390.0869445800781
z: -0.24482806026935577
visibility: 0.8704426884651184
","x: 217.4805450439453
y: 394.06103515625
z: 0.0427510067820549
visibility: 0.9998716115951538
","x: 195.53871154785156
y: 397.6937255859375
z: -0.04292949661612511
visibility: 0.9998936653137207
","x: 242.414306640625
y: 458.0458068847656
z: -0.12409760057926178
visibility: 0.9962391257286072
","x: 186.68577575683594
y: 472.5284423828125
z: -0.06255948543548584
visibility: 0.9972182512283325
","x: 240.31802368164062
y: 533.9325561523438
z: -0.0015415467787533998
visibility: 0.9942331910133362
","x: 179.06629943847656
y: 538.2125244140625
z: 0.09506760537624359
visibility: 0.9872305393218994
","x: 234.3090362548828
y: 546.7149658203125
z: 0.006099221296608448
visibility: 0.9366308450698853
","x: 177.2200469970703
y: 549.289794921875
z: 0.10496686398983002
visibility: 0.9060349464416504
","x: 252.9041290283203
y: 558.457763671875
z: -0.09533529728651047
visibility: 0.9920710325241089
","x: 185.03302001953125
y: 562.6298217773438
z: -0.01845533214509487
visibility: 0.9854986071586609
",,,,,,,,,,,,,,,,,,,,,,,,,,,,,,,,,,,,,,,,,,
27,"x: 208.87142944335938
y: 251.44558715820312
z: -0.2675172984600067
visibility: 0.9999849796295166
","x: 210.76535034179688
y: 246.47100830078125
z: -0.24453143775463104
visibility: 0.9999419450759888
","x: 212.0465087890625
y: 247.08871459960938
z: -0.24446722865104675
visibility: 0.9999375343322754
","x: 213.2636260986328
y: 247.57521057128906
z: -0.24441134929656982
visibility: 0.9999269247055054
","x: 206.914306640625
y: 244.07443237304688
z: -0.2601180672645569
visibility: 0.9999581575393677
","x: 205.45237731933594
y: 243.3901824951172
z: -0.2601912021636963
visibility: 0.999957263469696
","x: 203.96484375
y: 242.39503479003906
z: -0.2602398693561554
visibility: 0.9999576210975647
","x: 214.22569274902344
y: 250.3140106201172
z: -0.08856870979070663
visibility: 0.9998629093170166
","x: 200.13568115234375
y: 244.6951141357422
z: -0.17995795607566833
visibility: 0.9999396800994873
","x: 210.84156799316406
y: 259.1305847167969
z: -0.21246309578418732
visibility: 0.9999556541442871
","x: 205.607666015625
y: 257.483154296875
z: -0.23651084303855896
visibility: 0.9999735355377197
","x: 222.7155303955078
y: 275.64862060546875
z: -0.023681173101067543
visibility: 0.9998869895935059
","x: 185.04306030273438
y: 290.5438537597656
z: -0.11258385330438614
visibility: 0.9999374151229858
","x: 243.99267578125
y: 239.24134826660156
z: -0.06277040392160416
visibility: 0.984842836856842
","x: 173.46058654785156
y: 339.8619079589844
z: -0.11028730869293213
visibility: 0.9653300046920776
","x: 221.28517150878906
y: 209.0418243408203
z: -0.1954229325056076
visibility: 0.9782983660697937
","x: 181.1940460205078
y: 381.59588623046875
z: -0.17836959660053253
visibility: 0.9371097087860107
","x: 216.33056640625
y: 200.06234741210938
z: -0.2305642068386078
visibility: 0.9517393708229065
","x: 181.70301818847656
y: 395.7823486328125
z: -0.20022740960121155
visibility: 0.8939011693000793
","x: 213.8283233642578
y: 204.0598907470703
z: -0.22645702958106995
visibility: 0.951598048210144
","x: 185.0189971923828
y: 394.25738525390625
z: -0.21704788506031036
visibility: 0.8985503315925598
","x: 215.018798828125
y: 209.3482666015625
z: -0.2001335620880127
visibility: 0.9395238161087036
","x: 185.69561767578125
y: 389.4414978027344
z: -0.18262246251106262
visibility: 0.877788782119751
","x: 218.47763061523438
y: 389.97686767578125
z: 0.03095262683928013
visibility: 0.9998695850372314
","x: 195.79684448242188
y: 391.0857849121094
z: -0.03114406391978264
visibility: 0.9998903274536133
","x: 235.25889587402344
y: 458.25018310546875
z: 0.016969209536910057
visibility: 0.9960916638374329
","x: 186.62960815429688
y: 467.1249694824219
z: -0.06252380460500717
visibility: 0.9972870945930481
","x: 240.30667114257812
y: 534.3720092773438
z: 0.11943145841360092
visibility: 0.9943899512290955
","x: 178.9365234375
y: 537.9404296875
