uscmakers/ReverseChoreography/data/4_fool_around_yas.csv
,NOSE,LEFT_EYE_INNER,LEFT_EYE,LEFT_EYE_OUTER,RIGHT_EYE_INNER,RIGHT_EYE,RIGHT_EYE_OUTER,LEFT_EAR,RIGHT_EAR,MOUTH_LEFT,MOUTH_RIGHT,LEFT_SHOULDER,RIGHT_SHOULDER,LEFT_ELBOW,RIGHT_ELBOW,LEFT_WRIST,RIGHT_WRIST,LEFT_PINKY,RIGHT_PINKY,LEFT_INDEX,RIGHT_INDEX,LEFT_THUMB,RIGHT_THUMB,LEFT_HIP,RIGHT_HIP,LEFT_KNEE,RIGHT_KNEE,LEFT_ANKLE,RIGHT_ANKLE,LEFT_HEEL,RIGHT_HEEL,LEFT_FOOT_INDEX,RIGHT_FOOT_INDEX,WRIST,THUMB_CPC,THUMB_MCP,THUMB_IP,THUMB_TIP,INDEX_FINGER_MCP,INDEX_FINGER_PIP,INDEX_FINGER_DIP,INDEX_FINGER_TIP,MIDDLE_FINGER_MCP,MIDDLE_FINGER_PIP,MIDDLE_FINGER_DIP,MIDDLE_FINGER_TIP,RING_FINGER_PIP,RING_FINGER_DIP,RING_FINGER_TIP,RING_FINGER_MCP,PINKY_MCP,PINKY_PIP,PINKY_DIP,PINKY_TIP,WRIST2,THUMB_CPC2,THUMB_MCP2,THUMB_IP2,THUMB_TIP2,INDEX_FINGER_MCP2,INDEX_FINGER_PIP2,INDEX_FINGER_DIP2,INDEX_FINGER_TIP2,MIDDLE_FINGER_MCP2,MIDDLE_FINGER_PIP2,MIDDLE_FINGER_DIP2,MIDDLE_FINGER_TIP2,RING_FINGER_PIP2,RING_FINGER_DIP2,RING_FINGER_TIP2,RING_FINGER_MCP2,PINKY_MCP2,PINKY_PIP2,PINKY_DIP2,PINKY_TIP2
0,"x: 221.655029296875
y: 245.76870727539062
z: -0.10064949840307236
visibility: 0.9983012676239014
","x: 218.983154296875
y: 238.9381103515625
z: -0.0887899249792099
visibility: 0.996288537979126
","x: 218.4105224609375
y: 238.6002960205078
z: -0.08881410211324692
visibility: 0.995404839515686
","x: 217.73062133789062
y: 238.1079864501953
z: -0.08876758813858032
visibility: 0.9964080452919006
","x: 218.6344757080078
y: 238.59255981445312
z: -0.12202464044094086
visibility: 0.9981963038444519
","x: 217.8841094970703
y: 238.1041259765625
z: -0.1220480352640152
visibility: 0.9982149600982666
","x: 216.99224853515625
y: 237.5404052734375
z: -0.12214784324169159
visibility: 0.9985095858573914
","x: 211.5398712158203
y: 239.697998046875
z: -0.023045357316732407
visibility: 0.9891475439071655
","x: 211.16131591796875
y: 239.79092407226562
z: -0.17200875282287598
visibility: 0.9980413913726807
","x: 219.13905334472656
y: 252.04296875
z: -0.0723365992307663
visibility: 0.9971786737442017
","x: 218.59738159179688
y: 252.1498260498047
z: -0.11532026529312134
visibility: 0.9988632202148438
","x: 207.4853515625
y: 283.21185302734375
z: 0.07235892117023468
visibility: 0.9967206120491028
","x: 198.59072875976562
y: 284.7449035644531
z: -0.22425737977027893
visibility: 0.9999368190765381
","x: 203.7198486328125
y: 338.31585693359375
z: 0.11005453765392303
visibility: 0.015263264067471027
","x: 188.81631469726562
y: 341.30133056640625
z: -0.2661241590976715
visibility: 0.9767823815345764
","x: 201.34812927246094
y: 386.6080017089844
z: 0.04880914092063904
visibility: 0.026112383231520653
","x: 180.04376220703125
y: 391.203125
z: -0.2742109000682831
visibility: 0.9512985944747925
","x: 200.89544677734375
y: 400.35589599609375
z: 0.043194480240345
visibility: 0.03761246055364609
","x: 175.84408569335938
y: 403.8656311035156
z: -0.30360904335975647
visibility: 0.9267379641532898
","x: 201.40818786621094
y: 400.0057678222656
z: 0.02055540308356285
visibility: 0.03839069977402687
","x: 178.49942016601562
y: 405.4228515625
z: -0.3045012652873993
visibility: 0.9204753041267395
","x: 201.2434844970703
y: 395.2441711425781
z: 0.03564754128456116
visibility: 0.04025006294250488
","x: 180.6278076171875
y: 401.17913818359375
z: -0.27389511466026306
visibility: 0.8743340969085693
","x: 214.93643188476562
y: 388.5554504394531
z: 0.09304624050855637
visibility: 0.9965646862983704
","x: 206.72044372558594
y: 388.8809509277344
z: -0.09310346096754074
visibility: 0.9984434247016907
","x: 214.5802001953125
y: 460.9332275390625
z: 0.1484561562538147
visibility: 0.5717174410820007
","x: 215.80311584472656
y: 466.68707275390625
z: -0.06400562822818756
visibility: 0.924257755279541
","x: 189.156005859375
y: 518.1339111328125
z: 0.2546679675579071
visibility: 0.7855409979820251
","x: 200.36785888671875
y: 539.48828125
z: 0.018390994518995285
visibility: 0.9692332148551941
","x: 179.87188720703125
y: 520.0372314453125
z: 0.26192736625671387
visibility: 0.8430670499801636
","x: 195.03469848632812
y: 552.5092163085938
z: 0.021857498213648796
visibility: 0.9351286292076111
","x: 195.58482360839844
y: 541.04736328125
z: 0.21778038144111633
visibility: 0.8991116881370544
","x: 214.72146606445312
y: 563.916748046875
z: -0.058712076395750046
visibility: 0.9697213172912598
",,,,,,,,,,,,,,,,,,,,,,,,,,,,,,,,,,,,,,,,,,
1,"x: 202.6487274169922
y: 243.9573516845703
z: 0.18451151251792908
visibility: 0.9984546303749084
","x: 200.57125854492188
y: 238.04588317871094
z: 0.16297927498817444
visibility: 0.9966273903846741
","x: 199.28271484375
y: 238.09349060058594
z: 0.16302630305290222
visibility: 0.995836615562439
","x: 197.91038513183594
y: 237.968017578125
z: 0.16300979256629944
visibility: 0.9967343211174011
","x: 203.91578674316406
y: 237.51614379882812
z: 0.15100039541721344
visibility: 0.9983527660369873
","x: 204.93450927734375
y: 237.32818603515625
z: 0.15101954340934753
visibility: 0.9983737468719482
","x: 206.03919982910156
y: 237.09979248046875
z: 0.1509522795677185
visibility: 0.9986348748207092
","x: 195.50161743164062
y: 240.1858673095703
z: 0.08830089867115021
visibility: 0.9902068376541138
","x: 206.87527465820312
y: 239.86026000976562
z: 0.03169132396578789
visibility: 0.9982229471206665
","x: 200.45578002929688
y: 250.21722412109375
z: 0.16325101256370544
visibility: 0.9974367618560791
","x: 204.43984985351562
y: 249.7274932861328
z: 0.14650261402130127
visibility: 0.9989612102508545
","x: 184.32603454589844
y: 280.19439697265625
z: 0.10974691808223724
visibility: 0.9970124959945679
","x: 206.29275512695312
y: 280.01727294921875
z: -0.06722798943519592
visibility: 0.9999310374259949
","x: 198.2378387451172
y: 295.4026184082031
z: 0.15868797898292542
visibility: 0.02783076837658882
","x: 201.38388061523438
y: 334.2181701660156
z: -0.12860211730003357
visibility: 0.9567631483078003
","x: 215.72532653808594
y: 264.7452087402344
z: 0.19642457365989685
visibility: 0.06098107993602753
","x: 205.10362243652344
y: 379.1434020996094
z: -0.1996317207813263
visibility: 0.9142341017723083
","x: 219.71957397460938
y: 256.77325439453125
z: 0.20707371830940247
visibility: 0.07246154546737671
","x: 204.5934295654297
y: 395.3821105957031
z: -0.22013577818870544
visibility: 0.8965876698493958
","x: 222.5116424560547
y: 256.1920471191406
z: 0.19108226895332336
visibility: 0.07183817028999329
","x: 202.71624755859375
y: 394.517333984375
z: -0.2242126762866974
visibility: 0.8905649185180664
","x: 220.08335876464844
y: 258.9883117675781
z: 0.189682275056839
visibility: 0.07219388335943222
","x: 202.63363647460938
y: 389.393798828125
z: -0.20262043178081512
visibility: 0.8398261070251465
","x: 188.8118896484375
y: 388.5551452636719
z: 0.08362965285778046
visibility: 0.9968968033790588
","x: 205.45162963867188
y: 389.1667175292969
z: -0.08365829288959503
visibility: 0.9985921382904053
","x: 188.01626586914062
y: 460.17437744140625
z: 0.1463051587343216
visibility: 0.6127341389656067
","x: 214.59445190429688
y: 465.9983825683594
z: -0.07236383855342865
visibility: 0.93171226978302
","x: 176.6444549560547
y: 529.8709716796875
z: 0.21927747130393982
visibility: 0.8053199052810669
","x: 207.76780700683594
y: 543.9534301757812
z: -0.056669723242521286
visibility: 0.9721890091896057
","x: 171.6302032470703
y: 543.6115112304688
z: 0.22442273795604706
visibility: 0.8578809499740601
","x: 203.40243530273438
y: 555.2400512695312
z: -0.05568981170654297
visibility: 0.9414001107215881
","x: 188.26853942871094
y: 543.7769165039062
z: 0.18370355665683746
visibility: 0.8907736539840698
","x: 216.75682067871094
y: 565.9368286132812
z: -0.11577974259853363
visibility: 0.9704079627990723
",,,,,,,,,,,,,,,,,,,,,,,,,,,,,,,,,,,,,,,,,,
2,"x: 201.69178771972656
y: 243.3900604248047
z: 0.17560602724552155
visibility: 0.9985923767089844
","x: 199.5403289794922
y: 237.42506408691406
z: 0.16292740404605865
visibility: 0.9969366192817688
","x: 198.38198852539062
y: 237.60733032226562
z: 0.16298536956310272
visibility: 0.9962242245674133
","x: 197.3056640625
y: 237.6669921875
z: 0.16297800838947296
visibility: 0.9970278739929199
","x: 202.44635009765625
y: 236.98866271972656
z: 0.14598135650157928
visibility: 0.9985014796257019
","x: 203.19593811035156
y: 236.98036193847656
z: 0.14600791037082672
visibility: 0.9985232949256897
","x: 204.0157470703125
y: 236.93861389160156
z: 0.14591535925865173
visibility: 0.9987573623657227
","x: 194.22537231445312
y: 240.26475524902344
z: 0.11791946738958359
visibility: 0.9911611676216125
","x: 203.69342041015625
y: 240.02500915527344
z: 0.03974846750497818
visibility: 0.9983887672424316
","x: 199.71554565429688
y: 249.51376342773438
z: 0.16513846814632416
visibility: 0.9976516962051392
","x: 202.66525268554688
y: 248.9454803466797
z: 0.14177383482456207
visibility: 0.999036431312561
","x: 180.27333068847656
y: 276.29949951171875
z: 0.14725780487060547
visibility: 0.997263491153717
","x: 205.83462524414062
y: 276.0415344238281
z: -0.05800731107592583
visibility: 0.9999324679374695
","x: 190.4272003173828
y: 285.5546875
z: 0.24922052025794983
visibility: 0.04098057746887207
","x: 204.22288513183594
y: 330.5399169921875
z: -0.10519977658987045
visibility: 0.9459643363952637
","x: 213.65972900390625
y: 243.3944854736328
z: 0.3760376572608948
visibility: 0.0898745134472847
","x: 211.166259765625
y: 375.81646728515625
z: -0.12341563403606415
visibility: 0.8989952802658081
","x: 215.27255249023438
y: 236.43307495117188
z: 0.40433305501937866
visibility: 0.09667260944843292
","x: 212.7045440673828
y: 391.9878845214844
z: -0.12881571054458618
visibility: 0.8829984664916992
","x: 216.35800170898438
y: 236.1988525390625
z: 0.3974480926990509
visibility: 0.09451846778392792
","x: 212.0972900390625
y: 391.4649658203125
z: -0.1318637579679489
visibility: 0.8770931363105774
","x: 214.58958435058594
y: 238.03866577148438
z: 0.3758576512336731
visibility: 0.09444297105073929
","x: 211.08975219726562
y: 386.62884521484375
z: -0.12271364033222198
visibility: 0.8205073475837708
","x: 185.818603515625
y: 386.1918640136719
z: 0.08028990030288696
visibility: 0.9971853494644165
","x: 204.02684020996094
y: 385.8471984863281
z: -0.08050868660211563
visibility: 0.9987190365791321
","x: 184.0483856201172
y: 457.8358154296875
z: 0.11693211644887924
visibility: 0.6507072448730469
","x: 214.1729278564453
y: 462.4886474609375
z: -0.07137136161327362
visibility: 0.9381850957870483
","x: 175.57273864746094
y: 533.5663452148438
z: 0.1660456508398056
visibility: 0.8230883479118347
","x: 213.87127685546875
y: 543.5194702148438
z: -0.05936797335743904
visibility: 0.9745898246765137
","x: 170.8909912109375
y: 547.5910034179688
z: 0.1700921356678009
visibility: 0.87114417552948
","x: 211.2356414794922
y: 555.209716796875
z: -0.058109790086746216
visibility: 0.9466130137443542
","x: 187.8033905029297
y: 543.75634765625
z: 0.13792696595191956
visibility: 0.8778511881828308
","x: 218.3987274169922
y: 565.8467407226562
z: -0.10671430826187134
visibility: 0.9673212170600891
",,,,,,,,,,,,,,,,,,,,,,,,,,,,,,,,,,,,,,,,,,
3,"x: 202.74801635742188
y: 243.4755096435547
z: 0.11851729452610016
visibility: 0.9987255334854126
","x: 200.53260803222656
y: 237.4396514892578
z: 0.11384148895740509
visibility: 0.9972274899482727
","x: 199.47512817382812
y: 237.605224609375
z: 0.11388717591762543
visibility: 0.9965834021568298
","x: 198.52867126464844
y: 237.60653686523438
z: 0.11387783288955688
visibility: 0.997308075428009
","x: 202.90577697753906
y: 237.1345672607422
z: 0.09119723737239838
visibility: 0.9986439347267151
","x: 203.368408203125
y: 237.088623046875
z: 0.09121626615524292
visibility: 0.9986648559570312
","x: 203.9329376220703
y: 237.03036499023438
z: 0.09111358970403671
visibility: 0.9988760352134705
","x: 195.0673370361328
y: 239.37478637695312
z: 0.10163408517837524
visibility: 0.9920274615287781
","x: 202.291259765625
y: 239.8277130126953
z: -0.002094076946377754
visibility: 0.9985438585281372
","x: 200.37387084960938
y: 248.64834594726562
z: 0.11925293505191803
visibility: 0.9978647828102112
","x: 202.6981201171875
y: 248.4268035888672
z: 0.0884576290845871
visibility: 0.999118983745575
","x: 182.671630859375
y: 272.3401184082031
z: 0.15918898582458496
visibility: 0.9974988102912903
","x: 204.74192810058594
y: 271.3500671386719
z: -0.10055079311132431
visibility: 0.999937891960144
","x: 194.1051025390625
y: 279.74237060546875
z: 0.28472501039505005
visibility: 0.05761238560080528
","x: 207.42225646972656
y: 325.198486328125
z: -0.16533434391021729
visibility: 0.9452294707298279
","x: 213.62599182128906
y: 237.15406799316406
z: 0.4325335919857025
visibility: 0.1295882910490036
","x: 215.77377319335938
y: 372.25537109375
z: -0.18665078282356262
visibility: 0.9001425504684448
","x: 216.1584930419922
y: 232.90255737304688
z: 0.4681394100189209
visibility: 0.12885713577270508
","x: 216.9909210205078
y: 386.51812744140625
z: -0.19630298018455505
visibility: 0.8841558694839478
","x: 216.53843688964844
y: 232.58770751953125
z: 0.4601598381996155
visibility: 0.12537656724452972
","x: 216.44924926757812
y: 386.3337707519531
z: -0.1975966989994049
visibility: 0.8781667351722717
","x: 214.66807556152344
y: 234.78329467773438
z: 0.4322524964809418
visibility: 0.12452147901058197
","x: 215.51527404785156
y: 382.2243957519531
z: -0.18534372746944427
visibility: 0.81900954246521
","x: 184.48275756835938
y: 380.33251953125
z: 0.08094499260187149
visibility: 0.997434675693512
","x: 201.47067260742188
y: 379.3481750488281
z: -0.08141624927520752
visibility: 0.9988297820091248
","x: 185.95285034179688
y: 450.54144287109375
z: 0.11170592159032822
visibility: 0.682137131690979
","x: 212.5897979736328
y: 453.8028564453125
z: -0.10560759156942368
visibility: 0.9438549876213074
","x: 175.874755859375
y: 530.4570922851562
z: 0.15043801069259644
visibility: 0.8369985818862915
","x: 213.14474487304688
y: 538.5675659179688
z: -0.12655432522296906
visibility: 0.9767169952392578
","x: 171.0758056640625
y: 542.2406616210938
z: 0.1517735868692398
visibility: 0.8812237977981567
","x: 209.05709838867188
y: 550.1404418945312
z: -0.1291504204273224
visibility: 0.9508835077285767
","x: 189.18638610839844
y: 544.8960571289062
z: 0.11662892997264862
visibility: 0.8741430640220642
","x: 218.60980224609375
y: 565.5877075195312
z: -0.18381014466285706
visibility: 0.9680953025817871
",,,,,,,,,,,,,,,,,,,,,,,,,,,,,,,,,,,,,,,,,,
4,"x: 205.272216796875
y: 244.28292846679688
z: 0.01783451996743679
visibility: 0.9988522529602051
","x: 204.92327880859375
y: 237.95823669433594
z: 0.05523048713803291
visibility: 0.9975025057792664
","x: 205.27992248535156
y: 237.98483276367188
z: 0.05550007149577141
visibility: 0.9969218373298645
","x: 205.50311279296875
y: 237.85948181152344
z: 0.055484622716903687
visibility: 0.9975745677947998
","x: 203.33126831054688
y: 237.44833374023438
z: 0.016187960281968117
visibility: 0.9987787008285522
","x: 204.87942504882812
y: 237.19229125976562
z: 0.016328871250152588
visibility: 0.998797595500946
","x: 205.92626953125
y: 237.03302001953125
z: 0.01647244207561016
visibility: 0.9989877939224243
","x: 200.0115203857422
y: 238.6463165283203
z: 0.07890723645687103
visibility: 0.992820143699646
","x: 203.3995819091797
y: 238.34445190429688
z: -0.051209479570388794
visibility: 0.9986887574195862
","x: 202.38583374023438
y: 249.2227325439453
z: 0.07634559273719788
visibility: 0.9980736374855042
","x: 205.88534545898438
y: 248.69508361816406
z: 0.019113004207611084
visibility: 0.999204695224762
","x: 187.0890655517578
y: 267.902099609375
z: 0.17579513788223267
visibility: 0.9977344274520874
","x: 198.95901489257812
y: 268.4561767578125
z: -0.13037261366844177
visibility: 0.9999430179595947
","x: 217.25157165527344
y: 275.4037170410156
z: 0.2954089343547821
visibility: 0.11310502141714096
","x: 210.21083068847656
y: 313.8064270019531
z: -0.1879894733428955
visibility: 0.9500072598457336
","x: 233.48785400390625
y: 259.23046875
z: 0.37253257632255554
visibility: 0.19882702827453613
","x: 228.53302001953125
y: 347.6052551269531
z: -0.19309107959270477
visibility: 0.9084176421165466
","x: 238.11273193359375
y: 254.08999633789062
z: 0.3957526981830597
visibility: 0.18861189484596252
","x: 232.018798828125
y: 357.6903076171875
z: -0.2059028446674347
visibility: 0.8929025530815125
","x: 236.4737548828125
y: 253.71295166015625
z: 0.3844729959964752
visibility: 0.18471458554267883
","x: 233.0132293701172
y: 356.93780517578125
z: -0.20385274291038513
visibility: 0.8872374892234802
","x: 235.05416870117188
y: 256.1278991699219
z: 0.36883819103240967
visibility: 0.1835709661245346
","x: 231.91534423828125
y: 353.6827087402344
z: -0.1889915019273758
visibility: 0.8309512734413147
","x: 185.99937438964844
y: 377.5152282714844
z: 0.09114532917737961
visibility: 0.9976219534873962
","x: 196.2534942626953
y: 378.0279846191406
z: -0.09155507385730743
visibility: 0.9988968372344971
","x: 187.31680297851562
y: 449.39947509765625
z: 0.11686398833990097
visibility: 0.6993257403373718
","x: 212.13999938964844
y: 449.1851501464844
z: -0.1283905804157257
visibility: 0.9490472078323364
","x: 176.0883026123047
y: 529.03662109375
z: 0.18190385401248932
visibility: 0.8469026684761047
","x: 211.140625
y: 534.0801391601562
z: -0.1273263394832611
visibility: 0.9786689281463623
","x: 171.28094482421875
y: 539.7776489257812
z: 0.18440523743629456
visibility: 0.8878157138824463
","x: 206.93356323242188
y: 544.8370971679688
z: -0.12701767683029175
visibility: 0.9545758366584778
","x: 189.89097595214844
y: 545.207275390625
z: 0.15339072048664093
visibility: 0.8794713020324707
","x: 218.53028869628906
y: 563.85986328125
z: -0.16801638901233673
visibility: 0.9704468846321106
",,,,,,,,,,,,,,,,,,,,,,,,,,,,,,,,,,,,,,,,,,
5,"x: 212.701904296875
y: 243.46282958984375
z: -0.09930505603551865
visibility: 0.9989625215530396
","x: 213.05630493164062
y: 236.60882568359375
z: -0.07651130855083466
visibility: 0.997742772102356
","x: 213.4761199951172
y: 236.592529296875
z: -0.07648616284132004
visibility: 0.9972159266471863
","x: 213.80020141601562
y: 236.53988647460938
z: -0.07646975666284561
visibility: 0.9978059530258179
","x: 210.52281188964844
y: 236.12246704101562
z: -0.10525377839803696
visibility: 0.9988955855369568
","x: 209.91061401367188
y: 235.8128204345703
z: -0.1052294597029686
visibility: 0.9989129900932312
","x: 208.9049835205078
y: 235.57809448242188
z: -0.10524405539035797
visibility: 0.9990842938423157
","x: 209.72659301757812
y: 237.43125915527344
z: 0.03856777027249336
visibility: 0.9935165643692017
","x: 204.192626953125
y: 236.8749237060547
z: -0.09043236076831818
visibility: 0.9988119006156921
","x: 211.57569885253906
y: 248.8377227783203
z: -0.053442053496837616
visibility: 0.9982540011405945
","x: 209.65939331054688
y: 248.55201721191406
z: -0.09141549468040466
visibility: 0.9992733597755432
","x: 209.08177185058594
y: 269.5032958984375
z: 0.15227161347866058
visibility: 0.9979348182678223
","x: 192.55653381347656
y: 262.0437316894531
z: -0.16929897665977478
visibility: 0.9999458193778992
","x: 226.73358154296875
y: 289.7965087890625
z: 0.2543303072452545
visibility: 0.16155526041984558
","x: 213.3800048828125
y: 285.59307861328125
z: -0.33841636776924133
visibility: 0.9549502730369568
","x: 243.9357147216797
y: 315.3921203613281
z: 0.27093157172203064
visibility: 0.26877304911613464
","x: 243.20091247558594
y: 282.153564453125
z: -0.42611560225486755
visibility: 0.9174308776855469
","x: 247.51905822753906
y: 329.104736328125
z: 0.2818353772163391
visibility: 0.2555370032787323
","x: 249.9293212890625
y: 282.6383056640625
z: -0.4666904807090759
visibility: 0.9031718969345093
","x: 246.0642852783203
y: 328.62420654296875
z: 0.26166754961013794
visibility: 0.25319549441337585
","x: 251.69500732421875
y: 280.33428955078125
z: -0.4512028694152832
visibility: 0.8980000019073486
","x: 244.65745544433594
y: 324.22686767578125
z: 0.26197636127471924
visibility: 0.24998266994953156
","x: 249.27484130859375
y: 281.03460693359375
z: -0.4199935495853424
visibility: 0.846611738204956
","x: 195.98960876464844
y: 377.22039794921875
z: 0.09252586215734482
visibility: 0.9976800680160522
","x: 191.6446075439453
y: 376.1148681640625
z: -0.09269972145557404
visibility: 0.9989657402038574
","x: 190.87490844726562
y: 448.42706298828125
z: 0.14703556895256042
visibility: 0.7059182524681091
","x: 201.2618865966797
y: 451.8836975097656
z: -0.14768990874290466
visibility: 0.9531148672103882
","x: 176.45257568359375
y: 521.7845458984375
z: 0.2641734480857849
visibility: 0.854634702205658
","x: 202.9698486328125
y: 537.3245849609375
z: -0.13626530766487122
visibility: 0.9803727269172668
","x: 170.5236358642578
y: 537.0872802734375
z: 0.2710314393043518
visibility: 0.8906942009925842
","x: 199.41883850097656
y: 550.938720703125
z: -0.14072540402412415
visibility: 0.9571722149848938
","x: 188.52508544921875
y: 540.8789672851562
z: 0.21389023959636688
visibility: 0.8869790434837341
","x: 216.67208862304688
y: 563.9099731445312
z: -0.2410249412059784
visibility: 0.9728537201881409
",,,,,,,,,,,,,,,,,,,,,,,,,,,,,,,,,,,,,,,,,,
6,"x: 215.12161254882812
y: 240.5595703125
z: -0.09509998559951782
visibility: 0.999059796333313
","x: 215.7007293701172
y: 234.31698608398438
z: -0.06992676854133606
visibility: 0.9979620575904846
","x: 216.10531616210938
y: 234.4845428466797
z: -0.06992735713720322
visibility: 0.9974851012229919
","x: 216.4599151611328
y: 234.6920928955078
z: -0.06989463418722153
visibility: 0.9980195164680481
","x: 212.91384887695312
y: 233.78326416015625
z: -0.09472545981407166
visibility: 0.9989991188049316
","x: 211.55624389648438
y: 233.4893035888672
z: -0.09474104642868042
visibility: 0.9990140795707703
","x: 209.74986267089844
y: 233.22715759277344
z: -0.09479602426290512
visibility: 0.9991682171821594
","x: 212.83030700683594
y: 236.9748077392578
z: 0.04039276763796806
visibility: 0.9941557049751282
","x: 204.5984344482422
y: 234.98956298828125
z: -0.07304516434669495
visibility: 0.9989222288131714
","x: 214.33453369140625
y: 247.292724609375
z: -0.05283243581652641
visibility: 0.9984238743782043
","x: 211.1026611328125
y: 247.12144470214844
z: -0.08553416281938553
visibility: 0.9993401765823364
","x: 216.6405487060547
y: 275.6017761230469
z: 0.13707467913627625
visibility: 0.9981337785720825
","x: 189.46600341796875
y: 262.7825622558594
z: -0.1502137929201126
visibility: 0.9999444484710693
","x: 226.3832244873047
y: 327.5614013671875
z: 0.1470966637134552
visibility: 0.23762014508247375
","x: 205.43289184570312
y: 263.6820373535156
z: -0.340556800365448
visibility: 0.9594212770462036
","x: 235.68939208984375
y: 371.48309326171875
z: 0.08229567855596542
visibility: 0.33866003155708313
","x: 227.64187622070312
y: 230.74688720703125
z: -0.4190892279148102
visibility: 0.9255775213241577
","x: 238.2337646484375
y: 385.92266845703125
z: 0.07282207906246185
visibility: 0.3240912854671478
","x: 235.4366455078125
y: 222.42201232910156
z: -0.4584270119667053
visibility: 0.9123808741569519
","x: 237.041748046875
y: 385.8052978515625
z: 0.050408460199832916
visibility: 0.32227635383605957
","x: 236.28939819335938
y: 219.55772399902344
z: -0.4421984553337097
visibility: 0.9076041579246521
","x: 235.7650909423828
y: 381.8066711425781
z: 0.07099992781877518
visibility: 0.31838086247444153
","x: 232.86973571777344
y: 223.7609100341797
z: -0.4141879677772522
visibility: 0.860828161239624
","x: 206.9288330078125
y: 377.2933349609375
z: 0.08345292508602142
visibility: 0.9978962540626526
","x: 192.54714965820312
y: 374.6276550292969
z: -0.0834219828248024
visibility: 0.9990628957748413
","x: 207.66380310058594
y: 449.5207214355469
z: 0.04161513224244118
visibility: 0.7235296964645386
","x: 194.50306701660156
y: 451.83233642578125
z: -0.15714523196220398
visibility: 0.9560503363609314
","x: 184.12075805664062
y: 515.0906982421875
z: 0.17570938169956207
visibility: 0.8472319841384888
","x: 197.86575317382812
y: 537.39599609375
z: -0.12867288291454315
visibility: 0.9809696078300476
","x: 174.6824188232422
y: 522.3041381835938
z: 0.1860124170780182
visibility: 0.881929337978363
","x: 195.74656677246094
y: 551.2412109375
z: -0.13150618970394135
visibility: 0.9556671380996704
","x: 190.7716064453125
y: 536.6906127929688
z: 0.12803718447685242
visibility: 0.8843820691108704
","x: 212.81703186035156
y: 563.2826538085938
z: -0.24232156574726105
visibility: 0.9739890098571777
",,,,,,,,,,,,,,,,,,,,,,,,,,,,,,,,,,,,,,,,,,
7,"x: 215.13751220703125
y: 240.86984252929688
z: -0.1263120472431183
visibility: 0.9991535544395447
","x: 216.69155883789062
y: 234.560546875
z: -0.10024981200695038
visibility: 0.9981656670570374
","x: 217.57237243652344
y: 234.52789306640625
z: -0.10023339837789536
visibility: 0.9977362751960754
","x: 218.3943328857422
y: 235.06781005859375
z: -0.10020703077316284
visibility: 0.9982173442840576
","x: 213.0608673095703
y: 234.11874389648438
z: -0.11378906667232513
visibility: 0.9990988373756409
","x: 211.57260131835938
y: 233.7429962158203
z: -0.11380960047245026
visibility: 0.9991121888160706
","x: 209.87033081054688
y: 233.31185913085938
z: -0.11379770934581757
visibility: 0.9992509484291077
","x: 217.47314453125
y: 240.14749145507812
z: 0.024370089173316956
visibility: 0.9947397708892822
","x: 204.6485137939453
y: 235.36241149902344
z: -0.04398665949702263
visibility: 0.9990296959877014
","x: 215.5512237548828
y: 247.96633911132812
z: -0.08135087043046951
visibility: 0.9985812306404114
","x: 211.14102172851562
y: 247.33009338378906
z: -0.09976212680339813
visibility: 0.9994058012962341
","x: 221.4617462158203
y: 286.3829345703125
z: 0.10878454148769379
visibility: 0.9983182549476624
","x: 191.2152099609375
y: 265.302978515625
z: -0.08687417954206467
visibility: 0.999948263168335
","x: 223.5970916748047
y: 341.3464660644531
z: 0.13131046295166016
visibility: 0.3091141879558563
","x: 202.31126403808594
y: 235.96902465820312
z: -0.2231561839580536
visibility: 0.9634653925895691
","x: 228.3339385986328
y: 388.3838195800781
z: 0.05858299881219864
visibility: 0.40084466338157654
","x: 220.21853637695312
y: 207.89334106445312
z: -0.23377318680286407
visibility: 0.9328093528747559
","x: 230.44654846191406
y: 403.7109680175781
z: 0.041624777019023895
visibility: 0.38469168543815613
","x: 223.3817138671875
y: 200.42080688476562
z: -0.27312561869621277
visibility: 0.9200259447097778
","x: 229.64300537109375
y: 403.686767578125
z: 0.01279367320239544
visibility: 0.3834661841392517
","x: 225.7144775390625
y: 200.34738159179688
z: -0.2599989175796509
visibility: 0.9154965877532959
","x: 228.45899963378906
y: 398.6053161621094
z: 0.04395534098148346
visibility: 0.3788139522075653
","x: 224.06190490722656
y: 205.0714874267578
z: -0.23325291275978088
visibility: 0.8730596899986267
","x: 211.22215270996094
y: 378.27410888671875
z: 0.07292099297046661
visibility: 0.9981032013893127
","x: 194.39117431640625
y: 376.2721252441406
z: -0.07291172444820404
visibility: 0.9991546273231506
","x: 216.49200439453125
y: 453.9349060058594
z: 0.031118473038077354
visibility: 0.7475598454475403
","x: 192.2959442138672
y: 453.49371337890625
z: -0.11169368028640747
visibility: 0.9602681398391724
","x: 205.49908447265625
y: 522.8228149414062
z: 0.1344858705997467
visibility: 0.8598736524581909
","x: 197.36805725097656
y: 537.87646484375
z: -0.029681876301765442
visibility: 0.9826551079750061
","x: 199.66607666015625
y: 533.610595703125
z: 0.1399480253458023
visibility: 0.8889731764793396
","x: 195.24485778808594
y: 552.0185546875
z: -0.02926579676568508
visibility: 0.9571583271026611
","x: 222.3851776123047
y: 546.83935546875
z: 0.04750211164355278
visibility: 0.8942514657974243
","x: 213.29147338867188
y: 561.8750610351562
z: -0.1930103451013565
visibility: 0.9763153791427612
",,,,,,,,,,,,,,,,,,,,,,,,,,,,,,,,,,,,,,,,,,
8,"x: 220.7938690185547
y: 242.00880432128906
z: -0.24779930710792542
visibility: 0.999238133430481
","x: 223.49725341796875
y: 237.17556762695312
z: -0.22241492569446564
visibility: 0.9983490109443665
","x: 224.57034301757812
y: 238.03271484375
z: -0.22234880924224854
visibility: 0.9979625344276428
","x: 225.650634765625
y: 239.21156311035156
z: -0.22232875227928162
visibility: 0.9983955025672913
","x: 220.0730438232422
y: 234.8571014404297
z: -0.23228132724761963
visibility: 0.9991888403892517
","x: 218.7189483642578
y: 234.10250854492188
z: -0.23235078155994415
visibility: 0.9992008209228516
","x: 217.1568603515625
y: 233.36331176757812
z: -0.23232197761535645
visibility: 0.999325692653656
","x: 225.85830688476562
y: 244.53189086914062
z: -0.08530529588460922
visibility: 0.995265543460846
","x: 213.16722106933594
y: 235.51719665527344
z: -0.13159319758415222
visibility: 0.9991266131401062
","x: 221.28746032714844
y: 251.59375
z: -0.19718952476978302
visibility: 0.9987229704856873
","x: 216.55322265625
y: 248.1370849609375
z: -0.21158108115196228
visibility: 0.9994651079177856
","x: 228.39828491210938
y: 288.5797424316406
z: 0.01402224414050579
visibility: 0.998485267162323
","x: 191.33883666992188
y: 262.69281005859375
z: -0.10810533910989761
visibility: 0.999953031539917
","x: 230.32521057128906
y: 341.4577941894531
z: 0.04712068289518356
visibility: 0.376910537481308
","x: 175.9835205078125
y: 229.3659210205078
z: -0.23321481049060822
visibility: 0.9671037793159485
","x: 229.12220764160156
y: 386.4090270996094
z: -0.024379316717386246
visibility: 0.45936059951782227
","x: 201.94412231445312
y: 201.49537658691406
z: -0.3583362102508545
visibility: 0.9393841028213501
","x: 230.1152801513672
y: 401.8063659667969
z: -0.04301570728421211
visibility: 0.4420819878578186
","x: 206.72845458984375
y: 194.18453979492188
z: -0.4040601849555969
visibility: 0.9272345304489136
","x: 228.19972229003906
y: 400.32177734375
z: -0.07118500769138336
visibility: 0.44096219539642334
","x: 209.48309326171875
y: 196.59768676757812
z: -0.3887532651424408
visibility: 0.9229558110237122
","x: 227.01206970214844
y: 395.3612976074219
z: -0.037563756108284
visibility: 0.43560299277305603
","x: 208.40711975097656
y: 200.4981231689453
z: -0.35804876685142517
visibility: 0.8843733668327332
","x: 215.64956665039062
y: 378.396484375
z: 0.05504421517252922
visibility: 0.9982873797416687
","x: 195.57801818847656
y: 376.4322509765625
z: -0.05515535548329353
visibility: 0.9992363452911377
","x: 230.02198791503906
y: 452.32501220703125
z: -0.004835850093513727
visibility: 0.7715118527412415
","x: 194.84237670898438
y: 454.0454406738281
z: -0.1091369017958641
visibility: 0.9640526175498962
","x: 236.01324462890625
y: 532.007568359375
z: 0.050875891000032425
visibility: 0.8731082677841187
","x: 198.0687713623047
y: 540.4620971679688
z: -0.043922144919633865
visibility: 0.9842238426208496
","x: 232.86898803710938
y: 546.7957763671875
z: 0.049867503345012665
visibility: 0.8978824615478516
","x: 195.188232421875
y: 554.469482421875
z: -0.04152786731719971
visibility: 0.9586946964263916
","x: 255.19638061523438
y: 551.164794921875
z: -0.06214714050292969
visibility: 0.9039753675460815
","x: 213.09893798828125
y: 562.2124633789062
z: -0.1916469782590866
visibility: 0.9783867597579956
","x: 197.6288299560547
y: 205.0418701171875
z: 0.0
","x: 202.7410888671875
y: 204.6501007080078
z: 0.0009562692721374333
","x: 206.5137481689453
y: 202.5816192626953
z: 0.0004949345020577312
","x: 208.77377319335938
y: 198.9669189453125
z: -0.0011666964273899794
","x: 209.2792510986328
y: 195.4636993408203
z: -0.0022001168690621853
","x: 206.5813751220703
y: 195.0501251220703
z: 0.0031815103720873594
","x: 209.27008056640625
y: 190.8822784423828
z: 0.0004760617739520967
","x: 209.2611083984375
y: 194.43814086914062
z: -0.0007178100058808923
","x: 208.2281036376953
y: 197.52938842773438
z: -0.0009587279637344182
","x: 205.35150146484375
y: 193.29446411132812
z: 0.0007470795535482466
","x: 208.04307556152344
y: 190.30584716796875
z: -0.0022039751056581736
","x: 207.610595703125
y: 194.59170532226562
z: -0.0029616416431963444
","x: 206.23910522460938
y: 197.68038940429688
z: -0.0026988263707607985
","x: 203.76170349121094
y: 191.85537719726562
z: -0.002236605854704976
","x: 206.3681182861328
y: 188.95315551757812
z: -0.004771042615175247
","x: 206.40255737304688
y: 193.0823974609375
z: -0.003917204216122627
","x: 205.4127960205078
y: 196.38992309570312
z: -0.0027323884423822165
","x: 201.96664428710938
y: 190.56739807128906
z: -0.0054839844815433025
","x: 204.45436096191406
y: 187.64747619628906
z: -0.006800568196922541
","x: 205.4259033203125
y: 189.91636657714844
z: -0.005906359758228064
","x: 205.4153289794922
y: 192.5452880859375
z: -0.004777859430760145
",,,,,,,,,,,,,,,,,,,,,
9,"x: 220.7938690185547
y: 242.00880432128906
z: -0.24779930710792542
visibility: 0.999238133430481
","x: 223.49725341796875
y: 237.17556762695312
z: -0.22241492569446564
visibility: 0.9983490109443665
","x: 224.57034301757812
y: 238.03271484375
z: -0.22234880924224854
visibility: 0.9979625344276428
","x: 225.650634765625
y: 239.21156311035156
z: -0.22232875227928162
visibility: 0.9983955025672913
","x: 220.0730438232422
y: 234.8571014404297
z: -0.23228132724761963
visibility: 0.9991888403892517
","x: 218.7189483642578
y: 234.10250854492188
z: -0.23235078155994415
visibility: 0.9992008209228516
","x: 217.1568603515625
y: 233.36331176757812
z: -0.23232197761535645
visibility: 0.999325692653656
","x: 225.85830688476562
y: 244.53189086914062
z: -0.08530529588460922
visibility: 0.995265543460846
","x: 213.16722106933594
y: 235.51719665527344
z: -0.13159319758415222
visibility: 0.9991266131401062
","x: 221.28746032714844
y: 251.59375
z: -0.19718952476978302
visibility: 0.9987229704856873
","x: 216.55322265625
y: 248.1370849609375
z: -0.21158108115196228
visibility: 0.9994651079177856
","x: 228.39828491210938
y: 288.5797424316406
z: 0.01402224414050579
visibility: 0.998485267162323
","x: 191.33883666992188
y: 262.69281005859375
z: -0.10810533910989761
visibility: 0.999953031539917
","x: 230.32521057128906
y: 341.4577941894531
z: 0.04712068289518356
visibility: 0.376910537481308
","x: 175.9835205078125
y: 229.3659210205078
z: -0.23321481049060822
visibility: 0.9671037793159485
","x: 229.12220764160156
y: 386.4090270996094
z: -0.024379316717386246
visibility: 0.45936059951782227
","x: 201.94412231445312
y: 201.49537658691406
z: -0.3583362102508545
visibility: 0.9393841028213501
","x: 230.1152801513672
y: 401.8063659667969
z: -0.04301570728421211
visibility: 0.4420819878578186
","x: 206.72845458984375
y: 194.18453979492188
z: -0.4040601849555969
visibility: 0.9272345304489136
","x: 228.19972229003906
y: 400.32177734375
z: -0.07118500769138336
visibility: 0.44096219539642334
","x: 209.48309326171875
y: 196.59768676757812
z: -0.3887532651424408
visibility: 0.9229558110237122
","x: 227.01206970214844
y: 395.3612976074219
z: -0.037563756108284
visibility: 0.43560299277305603
","x: 208.40711975097656
y: 200.4981231689453
z: -0.35804876685142517
visibility: 0.8843733668327332
","x: 215.64956665039062
y: 378.396484375
z: 0.05504421517252922
visibility: 0.9982873797416687
","x: 195.57801818847656
y: 376.4322509765625
z: -0.05515535548329353
visibility: 0.9992363452911377
","x: 230.02198791503906
y: 452.32501220703125
z: -0.004835850093513727
visibility: 0.7715118527412415
","x: 194.84237670898438
y: 454.0454406738281
z: -0.1091369017958641
visibility: 0.9640526175498962
","x: 236.01324462890625
y: 532.007568359375
z: 0.050875891000032425
visibility: 0.8731082677841187
","x: 198.0687713623047
y: 540.4620971679688
z: -0.043922144919633865
visibility: 0.9842238426208496
","x: 232.86898803710938
y: 546.7957763671875
z: 0.049867503345012665
visibility: 0.8978824615478516
","x: 195.188232421875
y: 554.469482421875
z: -0.04152786731719971
visibility: 0.9586946964263916
","x: 255.19638061523438
y: 551.164794921875
z: -0.06214714050292969
visibility: 0.9039753675460815
","x: 213.09893798828125
y: 562.2124633789062
z: -0.1916469782590866
visibility: 0.9783867597579956
","x: 197.6288299560547
y: 205.0418701171875
z: 0.0
","x: 202.7410888671875
y: 204.6501007080078
z: 0.0009562692721374333
","x: 206.5137481689453
y: 202.5816192626953
z: 0.0004949345020577312
","x: 208.77377319335938
y: 198.9669189453125
z: -0.0011666964273899794
","x: 209.2792510986328
y: 195.4636993408203
z: -0.0022001168690621853
","x: 206.5813751220703
y: 195.0501251220703
z: 0.0031815103720873594
","x: 209.27008056640625
y: 190.8822784423828
z: 0.0004760617739520967
","x: 209.2611083984375
y: 194.43814086914062
z: -0.0007178100058808923
","x: 208.2281036376953
y: 197.52938842773438
z: -0.0009587279637344182
","x: 205.35150146484375
y: 193.29446411132812
z: 0.0007470795535482466
","x: 208.04307556152344
y: 190.30584716796875
z: -0.0022039751056581736
","x: 207.610595703125
y: 194.59170532226562
z: -0.0029616416431963444
","x: 206.23910522460938
y: 197.68038940429688
z: -0.0026988263707607985
","x: 203.76170349121094
y: 191.85537719726562
z: -0.002236605854704976
","x: 206.3681182861328
y: 188.95315551757812
z: -0.004771042615175247
","x: 206.40255737304688
y: 193.0823974609375
z: -0.003917204216122627
","x: 205.4127960205078
y: 196.38992309570312
z: -0.0027323884423822165
","x: 201.96664428710938
y: 190.56739807128906
z: -0.0054839844815433025
","x: 204.45436096191406
y: 187.64747619628906
z: -0.006800568196922541
","x: 205.4259033203125
y: 189.91636657714844
z: -0.005906359758228064
","x: 205.4153289794922
y: 192.5452880859375
z: -0.004777859430760145
",,,,,,,,,,,,,,,,,,,,,
10,"x: 228.1548309326172
y: 243.86146545410156
z: -0.17037905752658844
visibility: 0.9993142485618591
","x: 231.22726440429688
y: 239.77630615234375
z: -0.1430581659078598
visibility: 0.9985140562057495
","x: 232.38368225097656
y: 241.3511962890625
z: -0.14303357899188995
visibility: 0.9981662034988403
","x: 233.6370849609375
y: 242.98951721191406
z: -0.1430160105228424
visibility: 0.9985558390617371
","x: 227.92112731933594
y: 235.72991943359375
z: -0.154501274228096
visibility: 0.9992698431015015
","x: 226.8590545654297
y: 234.59730529785156
z: -0.15454460680484772
visibility: 0.9992806315422058
","x: 225.45333862304688
y: 233.5559844970703
z: -0.1545027643442154
visibility: 0.9993929862976074
","x: 234.16017150878906
y: 247.99635314941406
z: -0.03387581184506416
visibility: 0.9957388043403625
","x: 221.6876983642578
y: 236.88560485839844
z: -0.05860266089439392
visibility: 0.9992138147354126
","x: 228.58535766601562
y: 254.86846923828125
z: -0.12079127132892609
visibility: 0.9988505244255066
","x: 224.31744384765625
y: 250.06919860839844
z: -0.13750812411308289
visibility: 0.9995185136795044
","x: 235.54278564453125
y: 292.1642761230469
z: 0.06319882720708847
visibility: 0.9986356496810913
","x: 199.83865356445312
y: 263.6252746582031
z: -0.0438540056347847
visibility: 0.9999569058418274
","x: 240.8164825439453
y: 341.4144287109375
z: 0.05887669324874878
visibility: 0.43648746609687805
","x: 180.2681884765625
y: 250.90792846679688
z: -0.2183109074831009
visibility: 0.9703333973884583
","x: 237.18902587890625
y: 380.582275390625
z: -0.07347587496042252
visibility: 0.5121912956237793
","x: 181.95933532714844
y: 229.17440795898438
z: -0.4277665615081787
visibility: 0.9453390836715698
","x: 235.8931427001953
y: 395.55316162109375
z: -0.10267671197652817
visibility: 0.4947696626186371
","x: 180.93368530273438
y: 220.62217712402344
z: -0.48561781644821167
visibility: 0.9341286420822144
","x: 233.81822204589844
y: 390.92181396484375
z: -0.13000522553920746
visibility: 0.49395647644996643
","x: 183.99530029296875
y: 221.3761749267578
z: -0.47700953483581543
visibility: 0.9302446246147156
","x: 233.8562774658203
y: 384.9079895019531
z: -0.08793909102678299
visibility: 0.48838526010513306
","x: 184.88453674316406
y: 225.25341796875
z: -0.43141335248947144
visibility: 0.8953239917755127
","x: 221.70761108398438
y: 378.7449645996094
z: 0.05258824676275253
visibility: 0.9984564185142517
","x: 198.16098022460938
y: 376.6716003417969
z: -0.05267857760190964
visibility: 0.9993115663528442
","x: 238.19125366210938
y: 455.408447265625
z: 0.03846467658877373
visibility: 0.7941348552703857
","x: 197.14541625976562
y: 455.164306640625
z: -0.08148910105228424
visibility: 0.9675846099853516
","x: 251.46080017089844
y: 531.3716430664062
z: 0.15084286034107208
visibility: 0.8855627775192261
","x: 198.46107482910156
y: 540.7279052734375
z: 0.029976893216371536
visibility: 0.9857454895973206
","x: 247.739501953125
y: 544.1785888671875
z: 0.1620604246854782
visibility: 0.9063180685043335
","x: 195.69839477539062
y: 554.4027099609375
z: 0.033445753157138824
visibility: 0.960419774055481
","x: 262.5485534667969
y: 554.4408569335938
z: 0.05947970226407051
visibility: 0.9132290482521057
","x: 211.24148559570312
y: 562.2913818359375
z: -0.10764990001916885
visibility: 0.9804232716560364
",,,,,,,,,,,,,,,,,,,,,,,,,,,,,,,,,,,,,,,,,,
11,"x: 237.10118103027344
y: 245.18682861328125
z: -0.3101702332496643
visibility: 0.9993807673454285
","x: 240.0146484375
y: 240.7447967529297
z: -0.2935560345649719
visibility: 0.9986578822135925
","x: 241.42788696289062
y: 242.31097412109375
z: -0.29356613755226135
visibility: 0.9983449578285217
","x: 243.02392578125
y: 243.97653198242188
z: -0.2935861051082611
visibility: 0.9986959099769592
","x: 236.4251251220703
y: 237.14744567871094
z: -0.29283416271209717
visibility: 0.9993363618850708
","x: 235.34449768066406
y: 236.2568817138672
z: -0.29291149973869324
visibility: 0.9993444085121155
","x: 233.98013305664062
y: 235.52748107910156
z: -0.2929030954837799
visibility: 0.9994443655014038
","x: 245.23126220703125
y: 249.4507598876953
z: -0.1825409233570099
visibility: 0.9961571097373962
","x: 230.88629150390625
y: 239.86093139648438
z: -0.18058368563652039
visibility: 0.9992802143096924
","x: 238.1597137451172
y: 256.38995361328125
z: -0.2677347660064697
visibility: 0.9989616870880127
","x: 233.82168579101562
y: 252.4327850341797
z: -0.26794177293777466
visibility: 0.9995625019073486
","x: 250.29690551757812
y: 293.5690612792969
z: -0.10775886476039886
visibility: 0.9987679123878479
","x: 212.74905395507812
y: 264.17425537109375
z: -0.0901065319776535
visibility: 0.9999546408653259
","x: 258.3350524902344
y: 344.56964111328125
z: -0.11406612396240234
visibility: 0.49243614077568054
","x: 185.01327514648438
y: 256.43389892578125
z: -0.0869077816605568
visibility: 0.973132312297821
","x: 245.14517211914062
y: 379.94683837890625
z: -0.23060214519500732
visibility: 0.5603371262550354
","x: 162.9971923828125
y: 256.25994873046875
z: -0.18107905983924866
visibility: 0.9501171708106995
","x: 241.9644317626953
y: 394.5809326171875
z: -0.2612065374851227
visibility: 0.5431544184684753
","x: 154.65318298339844
y: 254.9077606201172
z: -0.21373526751995087
visibility: 0.9385876059532166
","x: 239.1664581298828
y: 388.3279724121094
z: -0.28767484426498413
visibility: 0.5425366759300232
","x: 154.419921875
y: 256.0404052734375
z: -0.24084000289440155
visibility: 0.9353635311126709
","x: 239.7051239013672
y: 383.14434814453125
z: -0.24281010031700134
visibility: 0.5367533564567566
","x: 156.9449920654297
y: 257.85333251953125
z: -0.19706991314888
visibility: 0.9038109183311462
","x: 229.04139709472656
y: 381.7293701171875
z: 0.025250231847167015
visibility: 0.9985737204551697
","x: 205.25828552246094
y: 376.7855529785156
z: -0.025391433387994766
visibility: 0.9993658661842346
","x: 241.39334106445312
y: 459.9065856933594
z: 0.029251540079712868
visibility: 0.8142558336257935
","x: 198.82003784179688
y: 456.19134521484375
z: -0.07952211052179337
visibility: 0.9707162380218506
","x: 254.79354858398438
y: 535.348388671875
z: 0.14598442614078522
visibility: 0.8965818881988525
","x: 198.50564575195312
y: 540.7078857421875
z: 0.034018367528915405
visibility: 0.9870007634162903
","x: 251.98831176757812
y: 547.4810180664062
z: 0.15226329863071442
visibility: 0.9103972315788269
","x: 196.007080078125
y: 553.9448852539062
z: 0.03848015144467354
visibility: 0.9574636816978455
","x: 263.25152587890625
y: 558.9404296875
z: 0.038110263645648956
visibility: 0.9210978746414185
","x: 209.38571166992188
y: 562.3335571289062
z: -0.09172467142343521
visibility: 0.9819654822349548
","x: 160.74266052246094
y: 260.3605651855469
z: 0.0
","x: 159.8768310546875
y: 266.23651123046875
z: -0.0023388187400996685
","x: 157.71141052246094
y: 270.642578125
z: -0.005001518409699202
","x: 155.9622039794922
y: 273.98248291015625
z: -0.007769779302179813
","x: 155.12030029296875
y: 277.231689453125
z: -0.01050777267664671
","x: 152.0748291015625
y: 262.6246643066406
z: -0.003984446637332439
","x: 148.22802734375
y: 261.3281555175781
z: -0.006519334390759468
","x: 146.34547424316406
y: 261.5006103515625
z: -0.007483185734599829
","x: 145.41903686523438
y: 261.95574951171875
z: -0.00788579136133194
","x: 151.8695068359375
y: 257.93212890625
z: -0.004706328269094229
","x: 146.99212646484375
y: 256.1786193847656
z: -0.006584316957741976
","x: 145.01754760742188
y: 256.3202819824219
z: -0.006864215712994337
","x: 144.0540771484375
y: 256.7718200683594
z: -0.007032705005258322
","x: 152.53709411621094
y: 254.37451171875
z: -0.005700153298676014
","x: 148.2819366455078
y: 252.14102172851562
z: -0.008047861978411674
","x: 146.4201202392578
y: 251.97525024414062
z: -0.008655139245092869
","x: 145.41209411621094
y: 252.24673461914062
z: -0.00880567915737629
","x: 153.81016540527344
y: 251.8286895751953
z: -0.006960632279515266
","x: 151.30950927734375
y: 248.62310791015625
z: -0.009081986732780933
","x: 149.9098358154297
y: 247.19815063476562
z: -0.009745003655552864
","x: 149.03912353515625
y: 246.3934326171875
z: -0.009922298602759838
",,,,,,,,,,,,,,,,,,,,,
12,"x: 237.10118103027344
y: 245.18682861328125
z: -0.3101702332496643
visibility: 0.9993807673454285
","x: 240.0146484375
y: 240.7447967529297
z: -0.2935560345649719
visibility: 0.9986578822135925
","x: 241.42788696289062
y: 242.31097412109375
z: -0.29356613755226135
visibility: 0.9983449578285217
","x: 243.02392578125
y: 243.97653198242188
z: -0.2935861051082611
visibility: 0.9986959099769592
","x: 236.4251251220703
y: 237.14744567871094
z: -0.29283416271209717
visibility: 0.9993363618850708
","x: 235.34449768066406
y: 236.2568817138672
z: -0.29291149973869324
visibility: 0.9993444085121155
","x: 233.98013305664062
y: 235.52748107910156
z: -0.2929030954837799
visibility: 0.9994443655014038
","x: 245.23126220703125
y: 249.4507598876953
z: -0.1825409233570099
visibility: 0.9961571097373962
","x: 230.88629150390625
y: 239.86093139648438
z: -0.18058368563652039
visibility: 0.9992802143096924
","x: 238.1597137451172
y: 256.38995361328125
z: -0.2677347660064697
visibility: 0.9989616870880127
","x: 233.82168579101562
y: 252.4327850341797
z: -0.26794177293777466
visibility: 0.9995625019073486
","x: 250.29690551757812
y: 293.5690612792969
z: -0.10775886476039886
visibility: 0.9987679123878479
","x: 212.74905395507812
y: 264.17425537109375
z: -0.0901065319776535
visibility: 0.9999546408653259
","x: 258.3350524902344
y: 344.56964111328125
z: -0.11406612396240234
visibility: 0.49243614077568054
","x: 185.01327514648438
y: 256.43389892578125
z: -0.0869077816605568
visibility: 0.973132312297821
","x: 245.14517211914062
y: 379.94683837890625
z: -0.23060214519500732
visibility: 0.5603371262550354
","x: 162.9971923828125
y: 256.25994873046875
z: -0.18107905983924866
visibility: 0.9501171708106995
","x: 241.9644317626953
y: 394.5809326171875
z: -0.2612065374851227
visibility: 0.5431544184684753
","x: 154.65318298339844
y: 254.9077606201172
z: -0.21373526751995087
visibility: 0.9385876059532166
","x: 239.1664581298828
y: 388.3279724121094
z: -0.28767484426498413
visibility: 0.5425366759300232
","x: 154.419921875
y: 256.0404052734375
z: -0.24084000289440155
visibility: 0.9353635311126709
","x: 239.7051239013672
y: 383.14434814453125
z: -0.24281010031700134
visibility: 0.5367533564567566
","x: 156.9449920654297
y: 257.85333251953125
z: -0.19706991314888
visibility: 0.9038109183311462
","x: 229.04139709472656
y: 381.7293701171875
z: 0.025250231847167015
visibility: 0.9985737204551697
","x: 205.25828552246094
y: 376.7855529785156
z: -0.025391433387994766
visibility: 0.9993658661842346
","x: 241.39334106445312
y: 459.9065856933594
z: 0.029251540079712868
visibility: 0.8142558336257935
","x: 198.82003784179688
y: 456.19134521484375
z: -0.07952211052179337
visibility: 0.9707162380218506
","x: 254.79354858398438
y: 535.348388671875
z: 0.14598442614078522
visibility: 0.8965818881988525
","x: 198.50564575195312
y: 540.7078857421875
z: 0.034018367528915405
visibility: 0.9870007634162903
","x: 251.98831176757812
y: 547.4810180664062
z: 0.15226329863071442
visibility: 0.9103972315788269
","x: 196.007080078125
y: 553.9448852539062
z: 0.03848015144467354
visibility: 0.9574636816978455
","x: 263.25152587890625
y: 558.9404296875
z: 0.038110263645648956
visibility: 0.9210978746414185
","x: 209.38571166992188
y: 562.3335571289062
z: -0.09172467142343521
visibility: 0.9819654822349548
","x: 160.74266052246094
y: 260.3605651855469
z: 0.0
","x: 159.8768310546875
y: 266.23651123046875
z: -0.0023388187400996685
","x: 157.71141052246094
y: 270.642578125
z: -0.005001518409699202
","x: 155.9622039794922
y: 273.98248291015625
z: -0.007769779302179813
","x: 155.12030029296875
y: 277.231689453125
z: -0.01050777267664671
","x: 152.0748291015625
y: 262.6246643066406
z: -0.003984446637332439
","x: 148.22802734375
y: 261.3281555175781
z: -0.006519334390759468
","x: 146.34547424316406
y: 261.5006103515625
z: -0.007483185734599829
","x: 145.41903686523438
y: 261.95574951171875
z: -0.00788579136133194
","x: 151.8695068359375
y: 257.93212890625
z: -0.004706328269094229
","x: 146.99212646484375
y: 256.1786193847656
z: -0.006584316957741976
","x: 145.01754760742188
y: 256.3202819824219
z: -0.006864215712994337
","x: 144.0540771484375
y: 256.7718200683594
z: -0.007032705005258322
","x: 152.53709411621094
y: 254.37451171875
z: -0.005700153298676014
","x: 148.2819366455078
y: 252.14102172851562
z: -0.008047861978411674
","x: 146.4201202392578
y: 251.97525024414062
z: -0.008655139245092869
","x: 145.41209411621094
y: 252.24673461914062
z: -0.00880567915737629
","x: 153.81016540527344
y: 251.8286895751953
z: -0.006960632279515266
","x: 151.30950927734375
y: 248.62310791015625
z: -0.009081986732780933
","x: 149.9098358154297
y: 247.19815063476562
z: -0.009745003655552864
","x: 149.03912353515625
y: 246.3934326171875
z: -0.009922298602759838
",,,,,,,,,,,,,,,,,,,,,
13,"x: 244.16123962402344
y: 250.14154052734375
z: -0.3461119532585144
visibility: 0.9994416236877441
","x: 247.4948272705078
y: 244.3797149658203
z: -0.3310416638851166
visibility: 0.9987897872924805
","x: 249.05194091796875
y: 245.29466247558594
z: -0.33107101917266846
visibility: 0.998508095741272
","x: 250.390869140625
y: 246.2901611328125
z: -0.331112265586853
visibility: 0.998823881149292
","x: 242.89247131347656
y: 242.53878784179688
z: -0.33090898394584656
visibility: 0.9993996620178223
","x: 241.42874145507812
y: 242.10995483398438
z: -0.33099600672721863
visibility: 0.9994059801101685
","x: 240.05532836914062
y: 241.76904296875
z: -0.3309827744960785
visibility: 0.9994953870773315
","x: 252.49911499023438
y: 251.35374450683594
z: -0.2181931436061859
visibility: 0.9965373873710632
","x: 237.67112731933594
y: 244.75003051757812
z: -0.21990832686424255
visibility: 0.9993466138839722
","x: 246.25648498535156
y: 260.528076171875
z: -0.3021736741065979
visibility: 0.9990633726119995
","x: 240.62850952148438
y: 257.83917236328125
z: -0.3029232323169708
visibility: 0.9996040463447571
","x: 258.9689025878906
y: 296.4844055175781
z: -0.1339409351348877
visibility: 0.9988889098167419
","x: 219.285888671875
y: 273.4490661621094
z: -0.12233220040798187
visibility: 0.9999551177024841
","x: 264.70904541015625
y: 348.9306945800781
z: -0.13636718690395355
visibility: 0.5426440834999084
","x: 187.0799102783203
y: 263.0128173828125
z: -0.10417290776968002
visibility: 0.9756830334663391
","x: 248.7123260498047
y: 383.60150146484375
z: -0.25749215483665466
visibility: 0.603541374206543
","x: 160.85458374023438
y: 265.5190734863281
z: -0.1848875880241394
visibility: 0.9546639323234558
","x: 245.23947143554688
y: 396.7935485839844
z: -0.2876422107219696
visibility: 0.5863671898841858
","x: 151.03182983398438
y: 263.4228210449219
z: -0.21475183963775635
visibility: 0.9433190822601318
","x: 242.5703125
y: 390.5360412597656
z: -0.3136252164840698
visibility: 0.5858923196792603
","x: 151.04025268554688
y: 263.775146484375
z: -0.24208274483680725
visibility: 0.9406403303146362
","x: 243.2768096923828
y: 385.84539794921875
z: -0.2698521316051483
visibility: 0.5800603032112122
","x: 153.9327392578125
y: 265.93829345703125
z: -0.20058655738830566
visibility: 0.9121676683425903
","x: 234.26646423339844
y: 385.546142578125
z: 0.023184284567832947
visibility: 0.9986770749092102
","x: 210.75732421875
y: 377.06671142578125
z: -0.02330215647816658
visibility: 0.9994143843650818
","x: 244.21365356445312
y: 465.3453369140625
z: 0.041904203593730927
visibility: 0.8321484327316284
","x: 200.98202514648438
y: 456.2704772949219
z: -0.06713274121284485
visibility: 0.9734488725662231
","x: 255.7660369873047
y: 538.3624877929688
z: 0.18344679474830627
visibility: 0.9062613248825073
","x: 198.77011108398438
y: 540.322998046875
z: 0.05201597139239311
visibility: 0.9880470037460327
","x: 252.3219451904297
y: 550.5016479492188
z: 0.19336089491844177
visibility: 0.9143211245536804
","x: 197.00518798828125
y: 551.9899291992188
z: 0.05799209326505661
visibility: 0.953115701675415
","x: 265.9151611328125
y: 561.778076171875
z: 0.07332500070333481
visibility: 0.9277675151824951
","x: 203.59814453125
y: 562.251953125
z: -0.0666307881474495
visibility: 0.9830321669578552
",,,,,,,,,,,,,,,,,,,,,,,,,,,,,,,,,,,,,,,,,,
14,"x: 249.64151000976562
y: 257.6047058105469
z: -0.2920251488685608
visibility: 0.999487042427063
","x: 252.7364501953125
y: 251.778076171875
z: -0.2790961265563965
visibility: 0.9988911151885986
","x: 254.3001708984375
y: 252.34597778320312
z: -0.279161661863327
visibility: 0.9986379146575928
","x: 255.7345733642578
y: 253.01693725585938
z: -0.27922770380973816
visibility: 0.9989241361618042
","x: 247.9139404296875
y: 250.4512939453125
z: -0.2789006233215332
visibility: 0.9994311928749084
","x: 246.3780517578125
y: 250.15428161621094
z: -0.27895742654800415
visibility: 0.999422550201416
","x: 245.04200744628906
y: 249.96133422851562
z: -0.2789674401283264
visibility: 0.9995002150535583
","x: 257.3951416015625
y: 256.2353210449219
z: -0.1759304255247116
visibility: 0.9968553185462952
","x: 242.72032165527344
y: 250.93130493164062
z: -0.1776084005832672
visibility: 0.9993495345115662
","x: 251.8033447265625
y: 266.3963623046875
z: -0.25144055485725403
visibility: 0.9991447925567627
","x: 245.7899627685547
y: 264.3363342285156
z: -0.252048522233963
visibility: 0.9996293187141418
","x: 262.99969482421875
y: 300.9064025878906
z: -0.1023532971739769
visibility: 0.9989950060844421
","x: 224.2448272705078
y: 279.9969177246094
z: -0.09330327063798904
visibility: 0.9999517798423767
","x: 263.4354553222656
y: 356.3211669921875
z: -0.12524643540382385
visibility: 0.5875473618507385
","x: 192.99952697753906
y: 271.22943115234375
z: -0.05336441844701767
visibility: 0.9774621725082397
","x: 240.80938720703125
y: 363.3142395019531
z: -0.2477206438779831
visibility: 0.6421279907226562
","x: 164.629150390625
y: 268.9041442871094
z: -0.13336443901062012
visibility: 0.9569950699806213
","x: 234.02972412109375
y: 361.6928405761719
z: -0.2799423336982727
visibility: 0.6245349049568176
","x: 155.82623291015625
y: 268.45623779296875
z: -0.1608758121728897
visibility: 0.9441159963607788
","x: 233.486572265625
y: 354.1226806640625
z: -0.2911311686038971
visibility: 0.624018669128418
","x: 155.380859375
y: 268.6852111816406
z: -0.18950936198234558
visibility: 0.942258358001709
","x: 243.10105895996094
y: 353.2850341796875
z: -0.25316759943962097
visibility: 0.6171447038650513
","x: 157.77394104003906
y: 270.5103759765625
z: -0.1492491364479065
visibility: 0.9163280129432678
","x: 234.82598876953125
y: 389.8847961425781
z: 0.028438324108719826
visibility: 0.9987141489982605
","x: 212.6040802001953
y: 377.544677734375
z: -0.028524348512291908
visibility: 0.9994357228279114
","x: 243.4830322265625
y: 466.39483642578125
z: 0.04912441223859787
visibility: 0.8477432727813721
","x: 202.18051147460938
y: 456.3204650878906
z: -0.05479046702384949
visibility: 0.9758787155151367
","x: 256.0531005859375
y: 538.8245849609375
z: 0.20788347721099854
visibility: 0.9148208498954773
","x: 198.6031494140625
y: 540.35107421875
z: 0.04755576699972153
visibility: 0.9889989495277405
","x: 252.04991149902344
y: 550.9581298828125
z: 0.21785637736320496
visibility: 0.9178360104560852
","x: 196.94970703125
y: 551.9666137695312
z: 0.051455337554216385
visibility: 0.9498738646507263
","x: 266.05511474609375
y: 561.8189697265625
z: 0.11497364193201065
visibility: 0.9336051344871521
","x: 201.46902465820312
y: 563.1650390625
z: -0.07599147409200668
visibility: 0.9839445948600769
",,,,,,,,,,,,,,,,,,,,,,,,,,,,,,,,,,,,,,,,,,
15,"x: 250.24900817871094
y: 259.2181091308594
z: -0.2344478815793991
visibility: 0.9995367527008057
","x: 253.05038452148438
y: 254.5150909423828
z: -0.2252994030714035
visibility: 0.99899822473526
","x: 254.48020935058594
y: 255.1796875
z: -0.22532479465007782
visibility: 0.9987704157829285
","x: 255.8785400390625
y: 255.94805908203125
z: -0.2253461629152298
visibility: 0.9990277290344238
","x: 249.15396118164062
y: 253.31671142578125
z: -0.22226500511169434
visibility: 0.9994816184043884
","x: 247.87408447265625
y: 253.04588317871094
z: -0.2222990095615387
visibility: 0.9994698166847229
","x: 246.58689880371094
y: 252.8359832763672
z: -0.22231701016426086
visibility: 0.9995384812355042
","x: 258.07183837890625
y: 260.2966613769531
z: -0.14569005370140076
visibility: 0.9971614480018616
","x: 244.6406707763672
y: 254.00570678710938
z: -0.11817990243434906
visibility: 0.9993975758552551
","x: 251.93563842773438
y: 267.2637634277344
z: -0.20148798823356628
visibility: 0.9992249608039856
","x: 247.23141479492188
y: 265.9801940917969
z: -0.20074252784252167
visibility: 0.9996619820594788
","x: 262.5262756347656
y: 303.36163330078125
z: -0.11133211851119995
visibility: 0.9990824460983276
","x: 226.29638671875
y: 280.9166564941406
z: -0.02839178964495659
visibility: 0.9999542236328125
","x: 257.3936767578125
y: 348.3096923828125
z: -0.21221046149730682
visibility: 0.6261301636695862
","x: 196.37692260742188
y: 276.7031555175781
z: 0.0191130880266428
visibility: 0.9782091379165649
","x: 237.99008178710938
y: 295.18365478515625
z: -0.35621169209480286
visibility: 0.67726731300354
","x: 166.10630798339844
y: 269.6136169433594
z: -0.0302023533731699
visibility: 0.9592117667198181
","x: 234.72628784179688
y: 283.1311340332031
z: -0.3895934522151947
visibility: 0.6607117652893066
","x: 156.6308135986328
y: 270.6866760253906
z: -0.044304344803094864
visibility: 0.9451282024383545
","x: 236.86111450195312
y: 280.5304260253906
z: -0.3922768831253052
visibility: 0.6601356267929077
","x: 156.5637664794922
y: 270.95703125
z: -0.0715145468711853
visibility: 0.9439781308174133
","x: 239.0807647705078
y: 284.25531005859375
z: -0.3603728711605072
visibility: 0.653076171875
","x: 159.125
y: 272.4972839355469
z: -0.0452888160943985
visibility: 0.9208190441131592
","x: 233.7836456298828
y: 390.87957763671875
z: 0.008700951002538204
visibility: 0.9987897872924805
","x: 211.9708251953125
y: 378.1004638671875
z: -0.008931263349950314
visibility: 0.9994778633117676
","x: 242.7337646484375
y: 467.62860107421875
z: 0.022981468588113785
visibility: 0.8625352382659912
","x: 202.24041748046875
y: 458.5523681640625
z: -0.04568236321210861
visibility: 0.9781696200370789
","x: 255.06729125976562
y: 537.4068603515625
z: 0.1944793313741684
visibility: 0.9227551221847534
","x: 198.370361328125
y: 540.3472900390625
z: 0.04991084337234497
visibility: 0.9898953437805176
","x: 251.80709838867188
y: 548.7550048828125
z: 0.20334844291210175
visibility: 0.9192711114883423
","x: 196.97071838378906
y: 551.8701782226562
z: 0.05447930097579956
visibility: 0.9475972652435303
","x: 264.4442138671875
y: 560.6583251953125
z: 0.11242350190877914
visibility: 0.9392755031585693
","x: 199.51174926757812
y: 564.677978515625
z: -0.05855272337794304
visibility: 0.9849916100502014
",,,,,,,,,,,,,,,,,,,,,,,,,,,,,,,,,,,,,,,,,,
16,"x: 251.2740020751953
y: 258.7593994140625
z: -0.16214507818222046
visibility: 0.999582052230835
","x: 253.52658081054688
y: 254.63035583496094
z: -0.15322574973106384
visibility: 0.9990959763526917
","x: 254.62057495117188
y: 255.4430389404297
z: -0.1532565802335739
visibility: 0.9988909363746643
","x: 255.81301879882812
y: 256.400390625
z: -0.15328022837638855
visibility: 0.9991225004196167
","x: 250.16307067871094
y: 252.732421875
z: -0.1445801854133606
visibility: 0.9995293617248535
","x: 248.95144653320312
y: 252.21682739257812
z: -0.14459228515625
visibility: 0.9995161294937134
","x: 247.57350158691406
y: 251.76678466796875
z: -0.14460253715515137
visibility: 0.9995779991149902
","x: 257.9227600097656
y: 261.6105041503906
z: -0.08180823922157288
visibility: 0.9974403977394104
","x: 245.0582275390625
y: 253.32144165039062
z: -0.04324379563331604
visibility: 0.9994484186172485
","x: 252.48367309570312
y: 266.96624755859375
z: -0.13332954049110413
visibility: 0.9992994666099548
","x: 248.21966552734375
y: 265.2535095214844
z: -0.12327855825424194
visibility: 0.9996933341026306
","x: 261.5784606933594
y: 303.90521240234375
z: -0.05638865754008293
visibility: 0.9991671442985535
","x: 226.1090850830078
y: 282.3729248046875
z: 0.028916871175169945
visibility: 0.9999571442604065
","x: 255.9703369140625
y: 346.612548828125
z: -0.1379522681236267
visibility: 0.6606338024139404
","x: 197.19488525390625
y: 278.7094421386719
z: 0.06968297064304352
visibility: 0.9787382483482361
","x: 236.67041015625
y: 288.5634460449219
z: -0.257049560546875
visibility: 0.7088634371757507
","x: 167.45602416992188
y: 270.7369079589844
z: 0.02254045568406582
visibility: 0.9612439274787903
","x: 236.1617889404297
y: 277.3431091308594
z: -0.28772833943367004
visibility: 0.693198561668396
","x: 158.32293701171875
y: 271.85693359375
z: 0.008267071098089218
visibility: 0.9462016224861145
","x: 239.08450317382812
y: 276.0406188964844
z: -0.2906389832496643
visibility: 0.6925814747810364
","x: 157.58987426757812
y: 272.12353515625
z: -0.017534837126731873
visibility: 0.945639967918396
","x: 239.1811065673828
y: 279.55792236328125
z: -0.2611762285232544
visibility: 0.6853682994842529
","x: 160.0931396484375
y: 273.6405029296875
z: 0.00791914202272892
visibility: 0.9250874519348145
","x: 233.51934814453125
y: 389.9999694824219
z: 0.00630520936101675
visibility: 0.9988759160041809
","x: 211.77108764648438
y: 378.4077453613281
z: -0.00650737714022398
visibility: 0.9995188117027283
","x: 242.27520751953125
y: 467.47259521484375
z: -0.0011725918157026172
visibility: 0.8758143186569214
","x: 202.23765563964844
y: 459.23876953125
z: -0.045320864766836166
visibility: 0.9801671504974365
","x: 255.1473388671875
y: 537.2564086914062
z: 0.15968921780586243
visibility: 0.9298766255378723
","x: 198.1336212158203
y: 540.437744140625
z: 0.06280132383108139
visibility: 0.9906488060951233
","x: 252.68299865722656
y: 547.9480590820312
z: 0.17270883917808533
visibility: 0.9203070998191833
","x: 196.76490783691406
y: 552.0836791992188
z: 0.0687485933303833
visibility: 0.9454491138458252
","x: 265.0260009765625
y: 561.6695556640625
z: 0.08453614264726639
visibility: 0.9443512558937073
","x: 199.59999084472656
y: 566.1378173828125
z: -0.04109660163521767
visibility: 0.9857656359672546
",,,,,,,,,,,,,,,,,,,,,,,,,,,,,,,,,,,,,,,,,,
17,"x: 249.3748321533203
y: 258.5772399902344
z: -0.16789399087429047
visibility: 0.9996224045753479
","x: 252.0970916748047
y: 254.1897430419922
z: -0.15677286684513092
visibility: 0.9991833567619324
","x: 253.45533752441406
y: 255.03662109375
z: -0.156806081533432
visibility: 0.998998761177063
","x: 254.69297790527344
y: 255.91085815429688
z: -0.15682809054851532
visibility: 0.9992071986198425
","x: 248.2277069091797
y: 252.2547149658203
z: -0.14993217587471008
visibility: 0.9995717406272888
","x: 246.97354125976562
y: 251.8307647705078
z: -0.1499464362859726
visibility: 0.9995567202568054
","x: 245.71884155273438
y: 251.5194854736328
z: -0.14995738863945007
visibility: 0.9996124505996704
","x: 256.7555847167969
y: 261.0621337890625
z: -0.0788859948515892
visibility: 0.9976897835731506
","x: 243.47962951660156
y: 253.3252716064453
z: -0.04700951650738716
visibility: 0.9994921088218689
","x: 251.0166778564453
y: 267.5189514160156
z: -0.13734127581119537
visibility: 0.9993659853935242
","x: 246.054931640625
y: 265.40106201171875
z: -0.12948128581047058
visibility: 0.9997212290763855
","x: 261.09576416015625
y: 303.58349609375
z: -0.05937911197543144
visibility: 0.9992431402206421
","x: 224.987548828125
y: 282.757080078125
z: 0.023219706490635872
visibility: 0.9999598264694214
","x: 251.9235382080078
y: 344.12359619140625
z: -0.15558257699012756
visibility: 0.6916586756706238
","x: 196.935302734375
y: 281.0470886230469
z: 0.05989246815443039
visibility: 0.9788154363632202
","x: 234.14874267578125
y: 291.9412536621094
z: -0.28346526622772217
visibility: 0.7371912002563477
","x: 167.43544006347656
y: 272.04925537109375
z: 0.004979049786925316
visibility: 0.9621933698654175
","x: 233.6310577392578
y: 280.10015869140625
z: -0.31682077050209045
visibility: 0.7222478985786438
","x: 157.84231567382812
y: 272.1873779296875
z: -0.012884065508842468
visibility: 0.9456608891487122
","x: 238.97726440429688
y: 278.17095947265625
z: -0.31842535734176636
visibility: 0.721560537815094
","x: 157.1771240234375
y: 272.21917724609375
z: -0.0383535660803318
visibility: 0.9457634687423706
","x: 238.5501251220703
y: 281.78997802734375
z: -0.28694382309913635
visibility: 0.7139842510223389
","x: 159.91339111328125
y: 274.1098327636719
z: -0.009853998199105263
visibility: 0.9276189804077148
","x: 233.68710327148438
y: 390.79083251953125
z: 0.009083195589482784
visibility: 0.9989537000656128
","x: 212.01023864746094
y: 379.23626708984375
z: -0.009262553416192532
visibility: 0.9995577931404114
","x: 242.7116241455078
y: 469.89276123046875
z: 0.02235862985253334
visibility: 0.8877357244491577
","x: 202.24530029296875
y: 459.939453125
z: -0.05231686308979988
visibility: 0.9820078611373901
","x: 255.55506896972656
y: 537.3179931640625
z: 0.20116595923900604
visibility: 0.9363172054290771
","x: 198.19747924804688
y: 540.4729614257812
z: 0.06181316822767258
visibility: 0.9913957715034485
","x: 253.03533935546875
y: 547.552490234375
z: 0.21610502898693085
visibility: 0.9218069911003113
","x: 196.7290496826172
y: 552.2293701171875
z: 0.06796315312385559
visibility: 0.9446249008178711
","x: 265.5352478027344
y: 562.3167114257812
z: 0.1260720044374466
visibility: 0.948991060256958
","x: 199.72988891601562
y: 566.823486328125
z: -0.04804889112710953
visibility: 0.9866520762443542
","x: 142.99758911132812
y: 263.0743408203125
z: 0.0
","x: 146.22662353515625
y: 259.87103271484375
z: 2.5570438083377667e-05
","x: 150.1531219482422
y: 259.7202453613281
z: -0.004174875561147928
","x: 152.11474609375
y: 262.7384033203125
z: -0.008624003268778324
","x: 152.33876037597656
y: 263.948974609375
z: -0.013003863394260406
","x: 151.04872131347656
y: 259.6515197753906
z: -0.015813978388905525
","x: 156.49942016601562
y: 268.6820068359375
z: -0.02103305794298649
","x: 159.85694885253906
y: 274.85284423828125
z: -0.021695975214242935
","x: 162.30531311035156
y: 278.57464599609375
z: -0.021554578095674515
","x: 148.72308349609375
y: 263.76611328125
z: -0.018918940797448158
","x: 152.2624053955078
y: 272.2785339355469
z: -0.022642193362116814
","x: 155.462158203125
y: 276.076416015625
z: -0.019172504544258118
","x: 158.0835418701172
y: 277.2847900390625
z: -0.01763247139751911
","x: 145.99468994140625
y: 267.64190673828125
z: -0.020598366856575012
","x: 148.21202087402344
y: 274.4524841308594
z: -0.02193136140704155
","x: 150.7136688232422
y: 276.34442138671875
z: -0.01614285632967949
","x: 152.71299743652344
y: 276.3309326171875
z: -0.013570132665336132
","x: 143.2666015625
y: 271.2779541015625
z: -0.022324778139591217
","x: 145.17678833007812
y: 276.171875
z: -0.022501293569803238
","x: 147.63401794433594
y: 276.85009765625
z: -0.018691454082727432
","x: 149.66761779785156
y: 275.98443603515625
z: -0.016479920595884323
",,,,,,,,,,,,,,,,,,,,,
18,"x: 249.3748321533203
y: 258.5772399902344
z: -0.16789399087429047
visibility: 0.9996224045753479
","x: 252.0970916748047
y: 254.1897430419922
z: -0.15677286684513092
visibility: 0.9991833567619324
","x: 253.45533752441406
y: 255.03662109375
z: -0.156806081533432
visibility: 0.998998761177063
","x: 254.69297790527344
y: 255.91085815429688
z: -0.15682809054851532
visibility: 0.9992071986198425
","x: 248.2277069091797
y: 252.2547149658203
z: -0.14993217587471008
visibility: 0.9995717406272888
","x: 246.97354125976562
y: 251.8307647705078
z: -0.1499464362859726
visibility: 0.9995567202568054
","x: 245.71884155273438
y: 251.5194854736328
z: -0.14995738863945007
visibility: 0.9996124505996704
","x: 256.7555847167969
y: 261.0621337890625
z: -0.0788859948515892
visibility: 0.9976897835731506
","x: 243.47962951660156
y: 253.3252716064453
z: -0.04700951650738716
visibility: 0.9994921088218689
","x: 251.0166778564453
y: 267.5189514160156
z: -0.13734127581119537
visibility: 0.9993659853935242
","x: 246.054931640625
y: 265.40106201171875
z: -0.12948128581047058
visibility: 0.9997212290763855
","x: 261.09576416015625
y: 303.58349609375
z: -0.05937911197543144
visibility: 0.9992431402206421
","x: 224.987548828125
y: 282.757080078125
z: 0.023219706490635872
visibility: 0.9999598264694214
","x: 251.9235382080078
y: 344.12359619140625
z: -0.15558257699012756
visibility: 0.6916586756706238
","x: 196.935302734375
y: 281.0470886230469
z: 0.05989246815443039
visibility: 0.9788154363632202
","x: 234.14874267578125
y: 291.9412536621094
z: -0.28346526622772217
visibility: 0.7371912002563477
","x: 167.43544006347656
y: 272.04925537109375
z: 0.004979049786925316
visibility: 0.9621933698654175
","x: 233.6310577392578
y: 280.10015869140625
z: -0.31682077050209045
visibility: 0.7222478985786438
","x: 157.84231567382812
y: 272.1873779296875
z: -0.012884065508842468
visibility: 0.9456608891487122
","x: 238.97726440429688
y: 278.17095947265625
z: -0.31842535734176636
visibility: 0.721560537815094
","x: 157.1771240234375
y: 272.21917724609375
z: -0.0383535660803318
visibility: 0.9457634687423706
","x: 238.5501251220703
y: 281.78997802734375
z: -0.28694382309913635
visibility: 0.7139842510223389
","x: 159.91339111328125
y: 274.1098327636719
z: -0.009853998199105263
visibility: 0.9276189804077148
","x: 233.68710327148438
y: 390.79083251953125
z: 0.009083195589482784
visibility: 0.9989537000656128
","x: 212.01023864746094
y: 379.23626708984375
z: -0.009262553416192532
visibility: 0.9995577931404114
","x: 242.7116241455078
y: 469.89276123046875
z: 0.02235862985253334
visibility: 0.8877357244491577
","x: 202.24530029296875
y: 459.939453125
z: -0.05231686308979988
visibility: 0.9820078611373901
","x: 255.55506896972656
y: 537.3179931640625
z: 0.20116595923900604
visibility: 0.9363172054290771
","x: 198.19747924804688
y: 540.4729614257812
z: 0.06181316822767258
visibility: 0.9913957715034485
","x: 253.03533935546875
y: 547.552490234375
z: 0.21610502898693085
visibility: 0.9218069911003113
","x: 196.7290496826172
y: 552.2293701171875
z: 0.06796315312385559
visibility: 0.9446249008178711
","x: 265.5352478027344
y: 562.3167114257812
z: 0.1260720044374466
visibility: 0.948991060256958
","x: 199.72988891601562
y: 566.823486328125
z: -0.04804889112710953
visibility: 0.9866520762443542
","x: 142.99758911132812
y: 263.0743408203125
z: 0.0
","x: 146.22662353515625
y: 259.87103271484375
z: 2.5570438083377667e-05
","x: 150.1531219482422
y: 259.7202453613281
z: -0.004174875561147928
","x: 152.11474609375
y: 262.7384033203125
z: -0.008624003268778324
","x: 152.33876037597656
y: 263.948974609375
z: -0.013003863394260406
","x: 151.04872131347656
y: 259.6515197753906
z: -0.015813978388905525
","x: 156.49942016601562
y: 268.6820068359375
z: -0.02103305794298649
","x: 159.85694885253906
y: 274.85284423828125
z: -0.021695975214242935
","x: 162.30531311035156
y: 278.57464599609375
z: -0.021554578095674515
","x: 148.72308349609375
y: 263.76611328125
z: -0.018918940797448158
","x: 152.2624053955078
y: 272.2785339355469
z: -0.022642193362116814
","x: 155.462158203125
y: 276.076416015625
z: -0.019172504544258118
","x: 158.0835418701172
y: 277.2847900390625
z: -0.01763247139751911
","x: 145.99468994140625
y: 267.64190673828125
z: -0.020598366856575012
","x: 148.21202087402344
y: 274.4524841308594
z: -0.02193136140704155
","x: 150.7136688232422
y: 276.34442138671875
z: -0.01614285632967949
","x: 152.71299743652344
y: 276.3309326171875
z: -0.013570132665336132
","x: 143.2666015625
y: 271.2779541015625
z: -0.022324778139591217
","x: 145.17678833007812
y: 276.171875
z: -0.022501293569803238
","x: 147.63401794433594
y: 276.85009765625
z: -0.018691454082727432
","x: 149.66761779785156
y: 275.98443603515625
z: -0.016479920595884323
",,,,,,,,,,,,,,,,,,,,,
19,"x: 245.7763214111328
y: 257.4306335449219
z: -0.08228981494903564
visibility: 0.999658465385437
","x: 248.302001953125
y: 252.7682647705078
z: -0.07029837369918823
visibility: 0.9992623925209045
","x: 249.73666381835938
y: 253.55638122558594
z: -0.0703306794166565
visibility: 0.9990960359573364
","x: 251.15586853027344
y: 254.41175842285156
z: -0.07036011666059494
visibility: 0.9992838501930237
","x: 244.51455688476562
y: 251.08155822753906
z: -0.06455112993717194
visibility: 0.9996102452278137
","x: 243.3541717529297
y: 250.76185607910156
z: -0.0645848959684372
visibility: 0.9995940923690796
","x: 242.1731719970703
y: 250.5483856201172
z: -0.06457128375768661
visibility: 0.9996451735496521
","x: 253.59669494628906
y: 259.20343017578125
z: 0.00429192278534174
visibility: 0.9979162812232971
","x: 240.27777099609375
y: 252.5474395751953
z: 0.02972489595413208
visibility: 0.999534010887146
","x: 247.89590454101562
y: 266.2471923828125
z: -0.05402781441807747
visibility: 0.999426007270813
","x: 242.64120483398438
y: 264.4481201171875
z: -0.047052569687366486
visibility: 0.9997459650039673
","x: 258.53936767578125
y: 301.79705810546875
z: 0.014686557464301586
visibility: 0.999309241771698
","x: 223.78814697265625
y: 283.2158203125
z: 0.08332456648349762
visibility: 0.9999610781669617
","x: 249.16262817382812
y: 338.9991455078125
z: -0.12923909723758698
visibility: 0.7179709672927856
","x: 196.0846405029297
y: 279.3588562011719
z: 0.11850597709417343
visibility: 0.9796739220619202
","x: 226.67578125
y: 291.8497009277344
z: -0.21729937195777893
visibility: 0.7621365189552307
","x: 169.32418823242188
y: 253.2928466796875
z: 0.0739864632487297
visibility: 0.9645971059799194
","x: 223.67710876464844
y: 284.3359375
z: -0.22769801318645477
visibility: 0.7475013136863708
","x: 160.72940063476562
y: 246.55821228027344
z: 0.055553823709487915
visibility: 0.9481412768363953
","x: 224.75204467773438
y: 282.3609313964844
z: -0.3127380311489105
visibility: 0.7466697692871094
","x: 161.02761840820312
y: 243.1472930908203
z: 0.03337184712290764
visibility: 0.9485365152359009
","x: 226.04608154296875
y: 284.98883056640625
z: -0.2629362642765045
visibility: 0.7384594082832336
","x: 163.66790771484375
y: 246.44805908203125
z: 0.060464441776275635
visibility: 0.9323159456253052
","x: 234.380615234375
y: 390.3677673339844
z: 0.01291477121412754
visibility: 0.9990220665931702
","x: 212.8723907470703
y: 379.3685302734375
z: -0.013023589737713337
visibility: 0.9995924234390259
","x: 243.02590942382812
y: 469.65155029296875
z: 0.020607154816389084
visibility: 0.8985249996185303
","x: 202.3456573486328
y: 460.048583984375
z: -0.05418819189071655
visibility: 0.9837285280227661
","x: 255.2965087890625
y: 536.8798217773438
z: 0.1928839385509491
visibility: 0.94211745262146
","x: 197.7845001220703
y: 540.8294067382812
z: 0.04529926925897598
visibility: 0.9921620488166809
","x: 252.5017547607422
y: 547.1552734375
z: 0.20574922859668732
visibility: 0.9242281913757324
","x: 196.3878631591797
y: 553.3356323242188
z: 0.049967072904109955
visibility: 0.9469519853591919
","x: 265.34246826171875
y: 561.5206298828125
z: 0.12256000190973282
visibility: 0.9530873894691467
","x: 200.2273406982422
y: 566.8528442382812
z: -0.06216078996658325
visibility: 0.9876057505607605
",,,,,,,,,,,,,,,,,,,,,,,,,,,,,,,,,,,,,,,,,,
20,"x: 239.71107482910156
y: 257.2469787597656
z: -0.056919246912002563
visibility: 0.9996894001960754
","x: 242.89529418945312
y: 251.8775634765625
z: -0.04597421735525131
visibility: 0.9993302822113037
","x: 244.74935913085938
y: 252.25991821289062
z: -0.045991506427526474
visibility: 0.9991801977157593
","x: 246.5772705078125
y: 252.67686462402344
z: -0.04603772610425949
visibility: 0.9993493556976318
","x: 239.11962890625
y: 250.6454315185547
z: -0.03912118822336197
visibility: 0.9996389746665955
","x: 238.10646057128906
y: 250.15267944335938
z: -0.03916383534669876
visibility: 0.999618411064148
","x: 237.10391235351562
y: 249.81942749023438
z: -0.039118777960538864
visibility: 0.9996667504310608
","x: 251.56431579589844
y: 257.4773864746094
z: 0.024253133684396744
visibility: 0.998117983341217
","x: 239.3780975341797
y: 252.20803833007812
z: 0.05608244985342026
visibility: 0.9995625019073486
","x: 242.80694580078125
y: 265.6234436035156
z: -0.029984023422002792
visibility: 0.9994789361953735
","x: 238.3994598388672
y: 263.95745849609375
z: -0.02105758897960186
visibility: 0.9997658729553223
","x: 255.07861328125
y: 295.6387023925781
z: 0.03266488015651703
visibility: 0.999370813369751
","x: 221.78347778320312
y: 282.3726806640625
z: 0.10926894843578339
visibility: 0.9999607801437378
","x: 244.44757080078125
y: 331.6604309082031
z: -0.0443485863506794
visibility: 0.7432721257209778
","x: 195.12295532226562
y: 266.52508544921875
z: 0.1421280801296234
visibility: 0.9810112714767456
","x: 219.86146545410156
y: 292.05828857421875
z: -0.12270865589380264
visibility: 0.7840976715087891
","x: 174.35955810546875
y: 222.22988891601562
z: 0.09726577252149582
visibility: 0.9673886895179749
","x: 215.87405395507812
y: 286.0032958984375
z: -0.15240225195884705
visibility: 0.7686994075775146
","x: 167.09683227539062
y: 210.89845275878906
z: 0.07629047334194183
visibility: 0.9514614939689636
","x: 216.3996124267578
y: 283.2220764160156
z: -0.15723945200443268
visibility: 0.7676456570625305
","x: 169.587890625
y: 207.46726989746094
z: 0.056095052510499954
visibility: 0.951957643032074
","x: 217.99618530273438
y: 285.5025939941406
z: -0.12711499631404877
visibility: 0.7581271529197693
","x: 172.69078063964844
y: 211.1949462890625
z: 0.08408480882644653
visibility: 0.9373663663864136
","x: 234.52134704589844
y: 390.2148742675781
z: 0.0064120120368897915
visibility: 0.9990877509117126
","x: 212.84197998046875
y: 380.48297119140625
z: -0.006442320998758078
visibility: 0.9996227025985718
","x: 243.32843017578125
y: 468.8976745605469
z: -0.019491584971547127
visibility: 0.908234179019928
","x: 202.49343872070312
y: 461.747802734375
z: -0.03797871619462967
visibility: 0.9852318167686462
","x: 255.89532470703125
y: 536.570068359375
z: 0.1348566710948944
visibility: 0.9475021958351135
","x: 197.5711669921875
y: 540.8472290039062
z: 0.0832405835390091
visibility: 0.9928156137466431
","x: 252.75335693359375
y: 546.964599609375
z: 0.14735864102840424
visibility: 0.9280974268913269
","x: 196.228515625
y: 553.8843994140625
z: 0.08956468105316162
visibility: 0.949015200138092
","x: 264.723876953125
y: 561.5660400390625
z: 0.05736837908625603
visibility: 0.9570107460021973
","x: 200.80181884765625
y: 566.7730102539062
z: -0.018784116953611374
visibility: 0.988284707069397
",,,,,,,,,,,,,,,,,,,,,,,,,,,,,,,,,,,,,,,,,,
21,"x: 226.36512756347656
y: 252.28207397460938
z: -0.057520318776369095
visibility: 0.9997190833091736
","x: 229.40171813964844
y: 245.9703369140625
z: -0.04707290604710579
visibility: 0.9993953108787537
","x: 230.9911651611328
y: 245.91973876953125
z: -0.04709460958838463
visibility: 0.9992597699165344
","x: 232.68719482421875
y: 245.93466186523438
z: -0.04717905446887016
visibility: 0.9994124174118042
","x: 225.9404296875
y: 245.82052612304688
z: -0.03663571551442146
visibility: 0.9996710419654846
","x: 225.00732421875
y: 245.7137908935547
z: -0.03665129467844963
visibility: 0.9996487498283386
","x: 224.06204223632812
y: 245.6999969482422
z: -0.03656354174017906
visibility: 0.9996936321258545
","x: 237.49554443359375
y: 249.19790649414062
z: 0.020519696176052094
visibility: 0.9983039498329163
","x: 225.91259765625
y: 247.36294555664062
z: 0.0697912722826004
visibility: 0.9995989203453064
","x: 230.18356323242188
y: 259.7021179199219
z: -0.031692374497652054
visibility: 0.9995295405387878
","x: 224.70120239257812
y: 259.1742248535156
z: -0.01771169900894165
visibility: 0.9997873306274414
","x: 248.40457153320312
y: 284.0145263671875
z: 0.03604723513126373
visibility: 0.9994323253631592
","x: 219.74392700195312
y: 276.53143310546875
z: 0.13658134639263153
visibility: 0.9999624490737915
","x: 233.13458251953125
y: 326.8416748046875
z: -0.008818505331873894
visibility: 0.7679773569107056
","x: 193.44854736328125
y: 244.24949645996094
z: 0.16565929353237152
visibility: 0.9823749661445618
","x: 214.11746215820312
y: 294.1967468261719
z: -0.051199156790971756
visibility: 0.8045433759689331
","x: 193.3953399658203
y: 195.2401580810547
z: 0.12430588155984879
visibility: 0.9700424671173096
","x: 209.3678741455078
y: 286.31756591796875
z: -0.07702036947011948
visibility: 0.788692831993103
","x: 192.3688201904297
y: 184.369384765625
z: 0.10214249789714813
visibility: 0.9542738795280457
","x: 209.85855102539062
y: 283.6893005371094
z: -0.07848788052797318
visibility: 0.7874631285667419
","x: 194.04876708984375
y: 182.07655334472656
z: 0.09239405393600464
visibility: 0.9546195864677429
","x: 211.49624633789062
y: 286.5240783691406
z: -0.05211707949638367
visibility: 0.7766943573951721
","x: 195.0399169921875
y: 185.8168182373047
z: 0.11488892883062363
visibility: 0.9415647387504578
","x: 233.55377197265625
y: 385.70123291015625
z: -0.001411092234775424
visibility: 0.9991604685783386
","x: 212.28306579589844
y: 380.4312744140625
z: 0.0014894024934619665
visibility: 0.9996525049209595
","x: 244.01766967773438
y: 465.21746826171875
z: -0.029775002971291542
visibility: 0.9171479344367981
","x: 202.6010284423828
y: 462.0318298339844
z: -0.03642325848340988
visibility: 0.9866166114807129
","x: 256.2953796386719
y: 536.4933471679688
z: 0.11047498136758804
visibility: 0.9526077508926392
","x: 197.23814392089844
y: 541.4269409179688
z: 0.07928771525621414
visibility: 0.9934570789337158
","x: 252.88372802734375
y: 546.7867431640625
z: 0.12049888074398041
visibility: 0.9334274530410767
","x: 196.22047424316406
y: 555.2628173828125
z: 0.08448095619678497
visibility: 0.9522204995155334
","x: 263.75482177734375
y: 561.944091796875
z: 0.02041475847363472
visibility: 0.9609288573265076
","x: 200.43905639648438
y: 566.8443603515625
z: -0.024299392476677895
visibility: 0.9891208410263062
","x: 194.877685546875
y: 191.87843322753906
z: 0.0
","x: 197.7474365234375
y: 189.91331481933594
z: -0.004216277971863747
","x: 200.1517791748047
y: 185.30908203125
z: -0.006253993604332209
","x: 202.24822998046875
y: 181.94107055664062
z: -0.007591571193188429
","x: 204.31057739257812
y: 180.1748046875
z: -0.008679996244609356
","x: 195.4622039794922
y: 178.15869140625
z: -0.0038524067495018244
","x: 194.3442840576172
y: 171.64566040039062
z: -0.005641763098537922
","x: 193.78439331054688
y: 167.27378845214844
z: -0.006931950803846121
","x: 193.32046508789062
y: 163.83697509765625
z: -0.007607512176036835
","x: 193.7627410888672
y: 177.78298950195312
z: -0.0024454377125948668
","x: 192.77647399902344
y: 171.14996337890625
z: -0.003967178985476494
","x: 192.39500427246094
y: 166.56082153320312
z: -0.0049647740088403225
","x: 192.14111328125
y: 162.761474609375
z: -0.005620806943625212
","x: 192.95654296875
y: 177.91867065429688
z: -0.0014329522382467985
","x: 192.3553924560547
y: 171.91038513183594
z: -0.0032465492840856314
","x: 192.101318359375
y: 167.33157348632812
z: -0.004679902456700802
","x: 191.95004272460938
y: 163.49365234375
z: -0.005472583696246147
","x: 192.76882934570312
y: 178.48577880859375
z: -0.0007879627519287169
","x: 192.3991241455078
y: 173.19873046875
z: -0.0021976938005536795
","x: 192.16790771484375
y: 169.14727783203125
z: -0.0032250594813376665
","x: 192.05372619628906
y: 165.8447265625
z: -0.0038670466747134924
",,,,,,,,,,,,,,,,,,,,,
22,"x: 226.36512756347656
y: 252.28207397460938
z: -0.057520318776369095
visibility: 0.9997190833091736
","x: 229.40171813964844
y: 245.9703369140625
z: -0.04707290604710579
visibility: 0.9993953108787537
","x: 230.9911651611328
y: 245.91973876953125
z: -0.04709460958838463
visibility: 0.9992597699165344
","x: 232.68719482421875
y: 245.93466186523438
z: -0.04717905446887016
visibility: 0.9994124174118042
","x: 225.9404296875
y: 245.82052612304688
z: -0.03663571551442146
visibility: 0.9996710419654846
","x: 225.00732421875
y: 245.7137908935547
z: -0.03665129467844963
visibility: 0.9996487498283386
","x: 224.06204223632812
y: 245.6999969482422
z: -0.03656354174017906
visibility: 0.9996936321258545
","x: 237.49554443359375
y: 249.19790649414062
z: 0.020519696176052094
visibility: 0.9983039498329163
","x: 225.91259765625
y: 247.36294555664062
z: 0.0697912722826004
visibility: 0.9995989203453064
","x: 230.18356323242188
y: 259.7021179199219
z: -0.031692374497652054
visibility: 0.9995295405387878
","x: 224.70120239257812
y: 259.1742248535156
z: -0.01771169900894165
visibility: 0.9997873306274414
","x: 248.40457153320312
y: 284.0145263671875
z: 0.03604723513126373
visibility: 0.9994323253631592
","x: 219.74392700195312
y: 276.53143310546875
z: 0.13658134639263153
visibility: 0.9999624490737915
","x: 233.13458251953125
y: 326.8416748046875
z: -0.008818505331873894
visibility: 0.7679773569107056
","x: 193.44854736328125
y: 244.24949645996094
z: 0.16565929353237152
visibility: 0.9823749661445618
","x: 214.11746215820312
y: 294.1967468261719
z: -0.051199156790971756
visibility: 0.8045433759689331
","x: 193.3953399658203
y: 195.2401580810547
z: 0.12430588155984879
visibility: 0.9700424671173096
","x: 209.3678741455078
y: 286.31756591796875
z: -0.07702036947011948
visibility: 0.788692831993103
","x: 192.3688201904297
y: 184.369384765625
z: 0.10214249789714813
visibility: 0.9542738795280457
","x: 209.85855102539062
y: 283.6893005371094
z: -0.07848788052797318
visibility: 0.7874631285667419
","x: 194.04876708984375
y: 182.07655334472656
z: 0.09239405393600464
visibility: 0.9546195864677429
","x: 211.49624633789062
y: 286.5240783691406
z: -0.05211707949638367
visibility: 0.7766943573951721
","x: 195.0399169921875
y: 185.8168182373047
z: 0.11488892883062363
visibility: 0.9415647387504578
","x: 233.55377197265625
y: 385.70123291015625
z: -0.001411092234775424
visibility: 0.9991604685783386
","x: 212.28306579589844
y: 380.4312744140625
z: 0.0014894024934619665
visibility: 0.9996525049209595
","x: 244.01766967773438
y: 465.21746826171875
z: -0.029775002971291542
visibility: 0.9171479344367981
","x: 202.6010284423828
y: 462.0318298339844
z: -0.03642325848340988
visibility: 0.9866166114807129
","x: 256.2953796386719
y: 536.4933471679688
z: 0.11047498136758804
visibility: 0.9526077508926392
","x: 197.23814392089844
y: 541.4269409179688
z: 0.07928771525621414
visibility: 0.9934570789337158
","x: 252.88372802734375
y: 546.7867431640625
z: 0.12049888074398041
visibility: 0.9334274530410767
","x: 196.22047424316406
y: 555.2628173828125
z: 0.08448095619678497
visibility: 0.9522204995155334
","x: 263.75482177734375
y: 561.944091796875
z: 0.02041475847363472
visibility: 0.9609288573265076
","x: 200.43905639648438
y: 566.8443603515625
z: -0.024299392476677895
visibility: 0.9891208410263062
","x: 194.877685546875
y: 191.87843322753906
z: 0.0
","x: 197.7474365234375
y: 189.91331481933594
z: -0.004216277971863747
","x: 200.1517791748047
y: 185.30908203125
z: -0.006253993604332209
","x: 202.24822998046875
y: 181.94107055664062
z: -0.007591571193188429
","x: 204.31057739257812
y: 180.1748046875
z: -0.008679996244609356
","x: 195.4622039794922
y: 178.15869140625
z: -0.0038524067495018244
","x: 194.3442840576172
y: 171.64566040039062
z: -0.005641763098537922
","x: 193.78439331054688
y: 167.27378845214844
z: -0.006931950803846121
","x: 193.32046508789062
y: 163.83697509765625
z: -0.007607512176036835
","x: 193.7627410888672
y: 177.78298950195312
z: -0.0024454377125948668
","x: 192.77647399902344
y: 171.14996337890625
z: -0.003967178985476494
","x: 192.39500427246094
y: 166.56082153320312
z: -0.0049647740088403225
","x: 192.14111328125
y: 162.761474609375
z: -0.005620806943625212
","x: 192.95654296875
y: 177.91867065429688
z: -0.0014329522382467985
","x: 192.3553924560547
y: 171.91038513183594
z: -0.0032465492840856314
","x: 192.101318359375
y: 167.33157348632812
z: -0.004679902456700802
","x: 191.95004272460938
y: 163.49365234375
z: -0.005472583696246147
","x: 192.76882934570312
y: 178.48577880859375
z: -0.0007879627519287169
","x: 192.3991241455078
y: 173.19873046875
z: -0.0021976938005536795
","x: 192.16790771484375
y: 169.14727783203125
z: -0.0032250594813376665
","x: 192.05372619628906
y: 165.8447265625
z: -0.0038670466747134924
",,,,,,,,,,,,,,,,,,,,,
23,"x: 223.8043670654297
y: 249.98350524902344
z: -0.06190722435712814
visibility: 0.9997456669807434
","x: 226.38084411621094
y: 243.00531005859375
z: -0.05053187534213066
visibility: 0.9994535446166992
","x: 227.71385192871094
y: 242.60775756835938
z: -0.05053620785474777
visibility: 0.9993311166763306
","x: 229.12994384765625
y: 242.25750732421875
z: -0.050597745925188065
visibility: 0.999468982219696
","x: 223.01556396484375
y: 243.74769592285156
z: -0.041257161647081375
visibility: 0.9996997714042664
","x: 221.93157958984375
y: 243.97413635253906
z: -0.041276250034570694
visibility: 0.9996758103370667
","x: 220.8861083984375
y: 244.27890014648438
z: -0.04121275246143341
visibility: 0.9997175335884094
","x: 233.06324768066406
y: 245.81982421875
z: 0.021951893344521523
visibility: 0.9984703063964844
","x: 221.9227752685547
y: 245.90750122070312
z: 0.0665690004825592
visibility: 0.999630868434906
","x: 227.3155059814453
y: 257.0769958496094
z: -0.03443025052547455
visibility: 0.9995741844177246
","x: 222.39999389648438
y: 257.5635070800781
z: -0.02186770737171173
visibility: 0.9998056888580322
","x: 245.72694396972656
y: 280.8919982910156
z: 0.04379986226558685
visibility: 0.9994874000549316
","x: 217.75408935546875
y: 275.09552001953125
z: 0.1186634749174118
visibility: 0.9999637007713318
","x: 230.36041259765625
y: 323.6540222167969
z: 0.0025265561416745186
visibility: 0.7902138829231262
","x: 192.87696838378906
y: 243.8277587890625
z: 0.12466224282979965
visibility: 0.9838230609893799
","x: 213.50741577148438
y: 291.67327880859375
z: -0.03700416535139084
visibility: 0.823002278804779
","x: 203.98301696777344
y: 199.2711181640625
z: 0.09824524819850922
visibility: 0.9722237586975098
","x: 209.61630249023438
y: 283.622314453125
z: -0.06241893023252487
visibility: 0.8066236972808838
","x: 207.21524047851562
y: 187.564697265625
z: 0.07572876662015915
visibility: 0.955472469329834
","x: 210.07534790039062
y: 280.2865905761719
z: -0.06284146010875702
visibility: 0.8051255941390991
","x: 209.1002655029297
y: 186.05715942382812
z: 0.07621545344591141
visibility: 0.9552300572395325
","x: 211.5615234375
y: 283.0155029296875
z: -0.037564750760793686
visibility: 0.7932091355323792
","x: 208.51373291015625
y: 190.64312744140625
z: 0.09345674514770508
visibility: 0.9434545040130615
","x: 234.0717315673828
y: 385.1724548339844
z: 0.006615811493247747
visibility: 0.9992203116416931
","x: 212.5829315185547
y: 380.5665283203125
z: -0.006607558578252792
visibility: 0.999677300453186
","x: 245.38916015625
y: 465.1763610839844
z: -0.010280536487698555
visibility: 0.9250316023826599
","x: 203.07412719726562
y: 464.1623229980469
z: -0.040609173476696014
visibility: 0.9878594875335693
","x: 255.1982421875
y: 537.0374145507812
z: 0.1349206566810608
visibility: 0.9571412205696106
","x: 196.67843627929688
y: 541.9287109375
z: 0.06883333623409271
visibility: 0.9940131306648254
","x: 251.4499053955078
y: 548.6390991210938
z: 0.14514270424842834
visibility: 0.9384521842002869
","x: 195.56594848632812
y: 555.2857055664062
z: 0.07378991693258286
visibility: 0.9544576406478882
","x: 266.1160583496094
y: 562.8275756835938
z: 0.044650860130786896
visibility: 0.9643054008483887
","x: 200.60797119140625
y: 567.6724853515625
z: -0.03857719525694847
visibility: 0.9898008704185486
",,,,,,,,,,,,,,,,,,,,,,,,,,,,,,,,,,,,,,,,,,
24,"x: 225.6544647216797
y: 251.16058349609375
z: -0.046849705278873444
visibility: 0.9997684359550476
","x: 227.58029174804688
y: 243.29490661621094
z: -0.03637655824422836
visibility: 0.9995038509368896
","x: 228.74354553222656
y: 242.908447265625
z: -0.036352191120386124
visibility: 0.9993937015533447
","x: 230.11131286621094
y: 242.95132446289062
z: -0.03638391196727753
visibility: 0.9995185732841492
","x: 224.4032745361328
y: 244.7946014404297
z: -0.028969574719667435
visibility: 0.9997223019599915
","x: 223.3765106201172
y: 245.13616943359375
z: -0.028980832546949387
visibility: 0.9996952414512634
","x: 222.3358612060547
y: 245.5178680419922
z: -0.028970424085855484
visibility: 0.9997344017028809
","x: 234.23878479003906
y: 246.01690673828125
z: 0.03702431172132492
visibility: 0.9986181855201721
","x: 223.0092315673828
y: 246.68478393554688
z: 0.07311026751995087
visibility: 0.999654233455658
","x: 228.74026489257812
y: 257.3427429199219
z: -0.018038298934698105
visibility: 0.9996089935302734
","x: 224.5685577392578
y: 258.41986083984375
z: -0.008019639179110527
visibility: 0.9998160600662231
","x: 246.7222900390625
y: 282.2371826171875
z: 0.052142560482025146
visibility: 0.9995340704917908
","x: 218.56834411621094
y: 275.8810119628906
z: 0.1155952662229538
visibility: 0.9999597072601318
","x: 231.90447998046875
y: 324.08184814453125
z: -0.0014603041345253587
visibility: 0.8092566132545471
","x: 194.87310791015625
y: 250.07284545898438
z: 0.10360807180404663
visibility: 0.9848742485046387
","x: 216.29214477539062
y: 289.30999755859375
z: -0.0033886630553752184
visibility: 0.838557779788971
","x: 217.70974731445312
y: 218.80812072753906
z: 0.13521839678287506
visibility: 0.9704965353012085
","x: 213.0645751953125
y: 283.8165588378906
z: -0.02030252292752266
visibility: 0.8192475438117981
","x: 223.4717559814453
y: 212.88343811035156
z: 0.12451660633087158
visibility: 0.9432571530342102
","x: 213.5631866455078
y: 280.2645568847656
z: -0.013037174940109253
visibility: 0.8170740604400635
","x: 224.81085205078125
y: 212.35891723632812
z: 0.14059242606163025
visibility: 0.940109133720398
","x: 215.02413940429688
y: 281.7746887207031
z: -0.0005296899471431971
visibility: 0.8029636144638062
","x: 223.2556610107422
y: 215.56243896484375
z: 0.13835904002189636
visibility: 0.9291544556617737
","x: 235.76809692382812
y: 385.23150634765625
z: 0.006161728408187628
visibility: 0.9992508888244629
","x: 214.37069702148438
y: 381.51348876953125
z: -0.006196881644427776
visibility: 0.9996890425682068
","x: 245.1474151611328
y: 465.46795654296875
z: -0.025042733177542686
visibility: 0.9316943287849426
","x: 203.84373474121094
y: 464.15057373046875
z: -0.03236646205186844
visibility: 0.9889030456542969
","x: 255.27354431152344
y: 537.766357421875
z: 0.11252424865961075
visibility: 0.960963249206543
","x: 196.71029663085938
y: 542.058837890625
z: 0.06716124713420868
visibility: 0.9944548010826111
","x: 252.20777893066406
y: 549.3538818359375
z: 0.12270869314670563
visibility: 0.9420430064201355
","x: 195.6977081298828
y: 555.6802978515625
z: 0.0714973583817482
visibility: 0.9556850790977478
","x: 266.36749267578125
y: 562.7044067382812
z: 0.02511175349354744
visibility: 0.9671733975410461
","x: 200.81130981445312
y: 567.7738037109375
z: -0.03863378241658211
visibility: 0.9903451204299927
",,,,,,,,,,,,,,,,,,,,,,,,,,,,,,,,,,,,,,,,,,
25,"x: 227.83335876464844
y: 258.11822509765625
z: -0.0691445916891098
visibility: 0.9997888803482056
","x: 229.8479461669922
y: 250.50717163085938
z: -0.06258052587509155
visibility: 0.9995492100715637
","x: 231.0503387451172
y: 249.32794189453125
z: -0.0625566691160202
visibility: 0.9994499087333679
","x: 232.3758087158203
y: 248.30406188964844
z: -0.0625755563378334
visibility: 0.9995629787445068
","x: 226.65245056152344
y: 253.108154296875
z: -0.0528552420437336
visibility: 0.9997430443763733
","x: 225.60719299316406
y: 253.60452270507812
z: -0.05286388471722603
visibility: 0.9997133016586304
","x: 224.5415802001953
y: 254.0599822998047
z: -0.052883047610521317
visibility: 0.9997501373291016
","x: 235.56826782226562
y: 247.99594116210938
z: 0.00813301745802164
visibility: 0.9987510442733765
","x: 224.1227264404297
y: 254.0977325439453
z: 0.050190091133117676
visibility: 0.9996805787086487
","x: 229.96401977539062
y: 261.5490417480469
z: -0.0423012413084507
visibility: 0.9996420741081238
","x: 225.94874572753906
y: 264.0044250488281
z: -0.029230043292045593
visibility: 0.9998294115066528
","x: 251.26934814453125
y: 285.3839111328125
z: 0.03455211594700813
visibility: 0.9995713829994202
","x: 222.43258666992188
y: 277.85076904296875
z: 0.09568089246749878
visibility: 0.9999597668647766
","x: 235.5348358154297
y: 327.2683410644531
z: -0.03866990655660629
visibility: 0.8259679675102234
","x: 199.38629150390625
y: 253.61688232421875
z: 0.10802178084850311
visibility: 0.9856786727905273
","x: 217.4552764892578
y: 293.5838928222656
z: -0.06083459407091141
visibility: 0.8519160747528076
","x: 222.03143310546875
y: 230.36517333984375
z: 0.1551409661769867
visibility: 0.9605441689491272
","x: 213.68568420410156
y: 287.4525146484375
z: -0.0800950676202774
visibility: 0.8301262855529785
","x: 228.36415100097656
y: 234.35467529296875
z: 0.14673873782157898
visibility: 0.9110181331634521
","x: 214.62486267089844
y: 284.14312744140625
z: -0.05125468224287033
visibility: 0.8276033401489258
","x: 229.99774169921875
y: 240.15472412109375
z: 0.1598171442747116
visibility: 0.9045634269714355
","x: 216.67835998535156
y: 285.5260925292969
z: -0.04107347130775452
visibility: 0.8104504346847534
","x: 228.273193359375
y: 241.6978302001953
z: 0.15756431221961975
visibility: 0.8952381014823914
","x: 237.77174377441406
y: 386.7613525390625
z: 0.006008231081068516
visibility: 0.9992592334747314
","x: 216.79232788085938
y: 382.9136657714844
z: -0.006061697378754616
visibility: 0.9996975660324097
","x: 245.35256958007812
y: 466.0147705078125
z: -0.022417856380343437
visibility: 0.9378402829170227
","x: 204.48728942871094
y: 464.019287109375
z: -0.027976101264357567
visibility: 0.9899340867996216
","x: 255.1366729736328
y: 537.9008178710938
z: 0.1278539001941681
visibility: 0.9645956754684448
","x: 196.79367065429688
y: 541.8541259765625
z: 0.06682725250720978
visibility: 0.994918704032898
","x: 251.85507202148438
y: 549.5210571289062
z: 0.13693532347679138
visibility: 0.9463332891464233
","x: 195.72227478027344
y: 555.636962890625
z: 0.06499984115362167
visibility: 0.9576829671859741
","x: 265.9682922363281
y: 562.4462890625
z: 0.03680312633514404
visibility: 0.9700353741645813
","x: 200.50396728515625
y: 567.6416625976562
z: -0.051900893449783325
visibility: 0.9910226464271545
",,,,,,,,,,,,,,,,,,,,,,,,,,,,,,,,,,,,,,,,,,
26,"x: 231.8566436767578
y: 265.41778564453125
z: -0.08258815109729767
visibility: 0.9998070001602173
","x: 233.1129913330078
y: 256.833984375
z: -0.07416705787181854
visibility: 0.9995900988578796
","x: 234.4621124267578
y: 255.7499542236328
z: -0.07415710389614105
visibility: 0.9994997978210449
","x: 235.90206909179688
y: 254.70542907714844
z: -0.07418384402990341
visibility: 0.9996031522750854
","x: 229.36968994140625
y: 259.32623291015625
z: -0.06633977591991425
