uscmakers/ReverseChoreography/data/4_get_up_ciara.csv
,NOSE,LEFT_EYE_INNER,LEFT_EYE,LEFT_EYE_OUTER,RIGHT_EYE_INNER,RIGHT_EYE,RIGHT_EYE_OUTER,LEFT_EAR,RIGHT_EAR,MOUTH_LEFT,MOUTH_RIGHT,LEFT_SHOULDER,RIGHT_SHOULDER,LEFT_ELBOW,RIGHT_ELBOW,LEFT_WRIST,RIGHT_WRIST,LEFT_PINKY,RIGHT_PINKY,LEFT_INDEX,RIGHT_INDEX,LEFT_THUMB,RIGHT_THUMB,LEFT_HIP,RIGHT_HIP,LEFT_KNEE,RIGHT_KNEE,LEFT_ANKLE,RIGHT_ANKLE,LEFT_HEEL,RIGHT_HEEL,LEFT_FOOT_INDEX,RIGHT_FOOT_INDEX,WRIST,THUMB_CPC,THUMB_MCP,THUMB_IP,THUMB_TIP,INDEX_FINGER_MCP,INDEX_FINGER_PIP,INDEX_FINGER_DIP,INDEX_FINGER_TIP,MIDDLE_FINGER_MCP,MIDDLE_FINGER_PIP,MIDDLE_FINGER_DIP,MIDDLE_FINGER_TIP,RING_FINGER_PIP,RING_FINGER_DIP,RING_FINGER_TIP,RING_FINGER_MCP,PINKY_MCP,PINKY_PIP,PINKY_DIP,PINKY_TIP,WRIST2,THUMB_CPC2,THUMB_MCP2,THUMB_IP2,THUMB_TIP2,INDEX_FINGER_MCP2,INDEX_FINGER_PIP2,INDEX_FINGER_DIP2,INDEX_FINGER_TIP2,MIDDLE_FINGER_MCP2,MIDDLE_FINGER_PIP2,MIDDLE_FINGER_DIP2,MIDDLE_FINGER_TIP2,RING_FINGER_PIP2,RING_FINGER_DIP2,RING_FINGER_TIP2,RING_FINGER_MCP2,PINKY_MCP2,PINKY_PIP2,PINKY_DIP2,PINKY_TIP2
0,"x: 193.03204345703125
y: 256.5035705566406
z: -0.28688833117485046
visibility: 0.9997983574867249
","x: 195.90994262695312
y: 250.4976043701172
z: -0.27617037296295166
visibility: 0.9995689988136292
","x: 197.51541137695312
y: 251.27084350585938
z: -0.27622801065444946
visibility: 0.9996516704559326
","x: 199.0782470703125
y: 252.04501342773438
z: -0.2762799561023712
visibility: 0.9996041655540466
","x: 191.39398193359375
y: 248.84417724609375
z: -0.26862573623657227
visibility: 0.9993221759796143
","x: 189.71885681152344
y: 248.46182250976562
z: -0.2686549127101898
visibility: 0.9991328120231628
","x: 188.0411376953125
y: 248.27670288085938
z: -0.26863858103752136
visibility: 0.9987892508506775
","x: 201.78546142578125
y: 257.4840087890625
z: -0.18304820358753204
visibility: 0.9996851682662964
","x: 185.82859802246094
y: 252.3465118408203
z: -0.15109622478485107
visibility: 0.9975549578666687
","x: 195.51844787597656
y: 266.36968994140625
z: -0.24988000094890594
visibility: 0.9997864365577698
","x: 189.4260711669922
y: 264.8791198730469
z: -0.24130699038505554
visibility: 0.9995965361595154
","x: 208.26629638671875
y: 303.8291015625
z: -0.18053053319454193
visibility: 0.9999157190322876
","x: 175.96278381347656
y: 294.408447265625
z: -0.029238363727927208
visibility: 0.9990952014923096
","x: 188.79055786132812
y: 355.9411315917969
z: -0.23068659007549286
visibility: 0.9799772500991821
","x: 163.91033935546875
y: 316.5242614746094
z: -0.06231611222028732
visibility: 0.23160409927368164
","x: 163.5327911376953
y: 387.187744140625
z: -0.2847481369972229
visibility: 0.928280770778656
","x: 167.89532470703125
y: 319.347900390625
z: -0.22862550616264343
visibility: 0.18575771152973175
","x: 159.42340087890625
y: 403.7475280761719
z: -0.3207797706127167
visibility: 0.8584473133087158
","x: 167.93295288085938
y: 323.5309143066406
z: -0.26182860136032104
visibility: 0.22020603716373444
","x: 156.54844665527344
y: 401.5935974121094
z: -0.33082395792007446
visibility: 0.861223042011261
","x: 169.86102294921875
y: 319.8913879394531
z: -0.27366527915000916
visibility: 0.2260405272245407
","x: 157.76870727539062
y: 394.69464111328125
z: -0.28843602538108826
visibility: 0.7948907017707825
","x: 169.82591247558594
y: 319.3981628417969
z: -0.23889155685901642
visibility: 0.21508432924747467
","x: 207.47113037109375
y: 408.4276123046875
z: -0.02569054625928402
visibility: 0.999869704246521
","x: 183.41578674316406
y: 411.0921630859375
z: 0.025520388036966324
visibility: 0.9998180270195007
","x: 233.84165954589844
y: 483.1558837890625
z: -0.02534586191177368
visibility: 0.9985091090202332
","x: 176.19027709960938
y: 493.62994384765625
z: 0.06033392995595932
visibility: 0.9963290095329285
","x: 263.9859619140625
y: 543.5004272460938
z: 0.14554275572299957
visibility: 0.9983880519866943
","x: 178.6373748779297
y: 553.0353393554688
z: 0.3021577000617981
visibility: 0.9954667091369629
","x: 263.5782775878906
y: 550.6661376953125
z: 0.15585234761238098
visibility: 0.9515426754951477
","x: 183.67034912109375
y: 562.0996704101562
z: 0.3205866515636444
visibility: 0.936511218547821
","x: 274.7183837890625
y: 575.1875
z: 0.020520946010947227
visibility: 0.9961657524108887
","x: 170.02333068847656
y: 577.3712158203125
z: 0.20978042483329773
visibility: 0.9895275235176086
",,,,,,,,,,,,,,,,,,,,,,,,,,,,,,,,,,,,,,,,,,
1,"x: 190.64601135253906
y: 249.9851837158203
z: -0.47987499833106995
visibility: 0.9998177289962769
","x: 193.5773468017578
y: 242.92605590820312
z: -0.4653138518333435
visibility: 0.9996095895767212
","x: 195.20668029785156
y: 243.28900146484375
z: -0.4652908742427826
visibility: 0.9996833801269531
","x: 196.45742797851562
y: 243.6905517578125
z: -0.4653313159942627
visibility: 0.9996404051780701
","x: 188.1602783203125
y: 242.15695190429688
z: -0.4675854742527008
visibility: 0.9993880391120911
","x: 186.28140258789062
y: 242.1992645263672
z: -0.4676799178123474
visibility: 0.9992176294326782
","x: 184.54014587402344
y: 242.3949432373047
z: -0.46771350502967834
visibility: 0.998908519744873
","x: 198.1494140625
y: 247.14944458007812
z: -0.34004491567611694
visibility: 0.999708890914917
","x: 181.7425079345703
y: 246.5963592529297
z: -0.34876692295074463
visibility: 0.9977965354919434
","x: 193.56732177734375
y: 259.3354187011719
z: -0.4295141100883484
visibility: 0.9998068809509277
","x: 186.8656005859375
y: 259.4305725097656
z: -0.4325331151485443
visibility: 0.9996361136436462
","x: 208.88653564453125
y: 298.2431640625
z: -0.2272755652666092
visibility: 0.9999216198921204
","x: 167.11305236816406
y: 293.50225830078125
z: -0.22588761150836945
visibility: 0.9991841316223145
","x: 213.66603088378906
y: 355.50115966796875
z: -0.16260705888271332
visibility: 0.9777715802192688
","x: 162.0850830078125
y: 348.64276123046875
z: -0.16534292697906494
visibility: 0.3061683177947998
","x: 217.77182006835938
y: 400.8709716796875
z: -0.23184581100940704
visibility: 0.9070907831192017
","x: 165.42196655273438
y: 403.9691467285156
z: -0.24532704055309296
visibility: 0.25788411498069763
","x: 219.7832794189453
y: 418.90966796875
z: -0.2562674880027771
visibility: 0.8335200548171997
","x: 166.1902618408203
y: 418.3519287109375
z: -0.2734455466270447
visibility: 0.28004610538482666
","x: 217.96414184570312
y: 416.0937194824219
z: -0.2907019853591919
visibility: 0.8372852802276611
","x: 168.19509887695312
y: 417.8404541015625
z: -0.312558114528656
visibility: 0.2864617109298706
","x: 216.1732177734375
y: 412.7978820800781
z: -0.24643392860889435
visibility: 0.7718359231948853
","x: 168.79270935058594
y: 413.56988525390625
z: -0.26181381940841675
visibility: 0.2745037078857422
","x: 207.59046936035156
y: 399.8951721191406
z: -0.01997961290180683
visibility: 0.9998760223388672
","x: 182.61236572265625
y: 405.1135559082031
z: 0.019853148609399796
visibility: 0.9998221397399902
","x: 227.30621337890625
y: 483.3250732421875
z: -0.07654909789562225
visibility: 0.9985669255256653
","x: 179.27281188964844
y: 493.3317565917969
z: 0.08136897534132004
visibility: 0.9961926341056824
","x: 246.74655151367188
y: 563.6854248046875
z: 0.048467617481946945
visibility: 0.9984464645385742
","x: 178.29434204101562
y: 553.0333862304688
z: 0.34138962626457214
visibility: 0.9953550696372986
","x: 247.0953369140625
y: 576.51806640625
z: 0.05011538416147232
visibility: 0.9420515298843384
","x: 181.50802612304688
y: 563.0614013671875
z: 0.35990816354751587
visibility: 0.9365023970603943
","x: 245.29718017578125
y: 591.5166015625
z: -0.1179807037115097
visibility: 0.996094286441803
","x: 169.991455078125
y: 578.14404296875
z: 0.23636583983898163
visibility: 0.989765465259552
",,,,,,,,,,,,,,,,,,,,,,,,,,,,,,,,,,,,,,,,,,
2,"x: 193.08938598632812
y: 247.10533142089844
z: -0.4167311191558838
visibility: 0.9998353719711304
","x: 195.3101806640625
y: 239.063232421875
z: -0.36801379919052124
visibility: 0.9996463060379028
","x: 197.0135498046875
y: 239.0855255126953
z: -0.3680749535560608
visibility: 0.9997129440307617
","x: 198.5009002685547
y: 239.16140747070312
z: -0.3680679202079773
visibility: 0.9996740221977234
","x: 190.12405395507812
y: 239.0548858642578
z: -0.4078633785247803
visibility: 0.9994463920593262
","x: 188.28933715820312
y: 239.23651123046875
z: -0.4079737067222595
visibility: 0.9992931485176086
","x: 186.44752502441406
y: 239.49659729003906
z: -0.4075556695461273
visibility: 0.9990143775939941
","x: 199.85064697265625
y: 242.72738647460938
z: -0.21166256070137024
visibility: 0.9997349381446838
","x: 183.4053497314453
y: 243.48426818847656
z: -0.2481914758682251
visibility: 0.9980125427246094
","x: 196.0112762451172
y: 255.88040161132812
z: -0.33364006876945496
visibility: 0.9998253583908081
","x: 190.271240234375
y: 256.0110778808594
z: -0.3635024428367615
visibility: 0.9996713995933533
","x: 215.29483032226562
y: 286.2619323730469
z: -0.12027561664581299
visibility: 0.9999287724494934
","x: 167.9034881591797
y: 288.923095703125
z: -0.11574163287878036
visibility: 0.9992602467536926
","x: 240.375732421875
y: 316.0755615234375
z: -0.17692846059799194
visibility: 0.9793448448181152
","x: 152.90658569335938
y: 347.6728515625
z: -0.11549757421016693
visibility: 0.3751872479915619
","x: 263.53765869140625
y: 336.18792724609375
z: -0.3941512405872345
visibility: 0.9150477647781372
","x: 129.87908935546875
y: 362.71429443359375
z: -0.26445868611335754
visibility: 0.3314453959465027
","x: 270.7328186035156
y: 344.366455078125
z: -0.4393165111541748
visibility: 0.8473672866821289
","x: 121.40702056884766
y: 371.4195556640625
z: -0.30028122663497925
visibility: 0.35023799538612366
","x: 269.23944091796875
y: 342.5542907714844
z: -0.4737734794616699
visibility: 0.8513389825820923
","x: 121.55410766601562
y: 368.94482421875
z: -0.33661943674087524
visibility: 0.35630521178245544
","x: 266.00714111328125
y: 340.4819030761719
z: -0.4147774279117584
visibility: 0.7921350002288818
","x: 124.3455810546875
y: 366.4075012207031
z: -0.28398650884628296
visibility: 0.3453744053840637
","x: 213.24298095703125
y: 397.0736999511719
z: -0.014124262146651745
visibility: 0.9998769760131836
","x: 187.5404052734375
y: 402.0077209472656
z: 0.01411737222224474
visibility: 0.9998130202293396
","x: 228.6421661376953
y: 483.8438415527344
z: -0.0730009526014328
visibility: 0.9984900951385498
","x: 178.93072509765625
y: 485.6678771972656
z: -0.021446948871016502
visibility: 0.9962839484214783
","x: 246.107421875
y: 566.3855590820312
z: 0.0908084437251091
visibility: 0.9982800483703613
","x: 172.18406677246094
y: 550.35009765625
z: 0.2074822634458542
visibility: 0.9949586987495422
","x: 246.54092407226562
y: 578.4706420898438
z: 0.09845508635044098
visibility: 0.9338000416755676
","x: 173.05824279785156
y: 557.8172607421875
z: 0.2237631380558014
visibility: 0.9295278787612915
","x: 244.12545776367188
y: 593.30224609375
z: -0.05331457778811455
visibility: 0.9955657720565796
","x: 170.09469604492188
y: 577.9698486328125
z: 0.10470825433731079
visibility: 0.9891658425331116
",,,,,,,,,,,,,,,,,,,,,,,,,,,,,,,,,,,,,,,,,,
3,"x: 195.05072021484375
y: 243.76614379882812
z: -0.3789220452308655
visibility: 0.9998506903648376
","x: 196.9730987548828
y: 236.0806121826172
z: -0.3586435616016388
visibility: 0.9996765851974487
","x: 198.7754364013672
y: 235.9670867919922
z: -0.35865268111228943
visibility: 0.9997367858886719
","x: 200.3866424560547
y: 235.924560546875
z: -0.358702689409256
visibility: 0.999701976776123
","x: 191.9571075439453
y: 236.63729858398438
z: -0.3642159104347229
visibility: 0.9994959235191345
","x: 190.16970825195312
y: 236.94119262695312
z: -0.3643055260181427
visibility: 0.9993583559989929
","x: 188.36502075195312
y: 237.2584686279297
z: -0.36426466703414917
visibility: 0.9991063475608826
","x: 202.201416015625
y: 239.96295166015625
z: -0.2308923751115799
visibility: 0.9997533559799194
","x: 185.11976623535156
y: 241.6497802734375
z: -0.24389955401420593
visibility: 0.9981983304023743
","x: 198.3804473876953
y: 252.58038330078125
z: -0.3286586403846741
visibility: 0.9998404383659363
","x: 192.74256896972656
y: 253.2752227783203
z: -0.3336189091205597
visibility: 0.9997000694274902
","x: 219.07867431640625
y: 281.6418151855469
z: -0.1380338817834854
visibility: 0.9999350309371948
","x: 168.92991638183594
y: 283.354248046875
z: -0.15156683325767517
visibility: 0.9993190169334412
","x: 251.45269775390625
y: 287.6523742675781
z: -0.12431268393993378
visibility: 0.9813597798347473
","x: 143.08560180664062
y: 294.8001403808594
z: -0.13899117708206177
visibility: 0.437589168548584
","x: 280.1650390625
y: 292.9169921875
z: -0.25295644998550415
visibility: 0.9233973622322083
","x: 114.23920440673828
y: 297.63629150390625
z: -0.25352704524993896
visibility: 0.3979349732398987
","x: 288.26025390625
y: 296.8829040527344
z: -0.2789326310157776
visibility: 0.8619933128356934
","x: 106.90963745117188
y: 298.26220703125
z: -0.2885780930519104
visibility: 0.4137076735496521
","x: 288.003173828125
y: 295.5196533203125
z: -0.3245864510536194
visibility: 0.8656973838806152
","x: 106.50413513183594
y: 298.4884338378906
z: -0.3193584382534027
visibility: 0.41942471265792847
","x: 285.2218322753906
y: 295.4225769042969
z: -0.2776581346988678
visibility: 0.8123716115951538
","x: 108.82904052734375
y: 298.2216796875
z: -0.2712383270263672
visibility: 0.40947407484054565
","x: 216.0853729248047
y: 393.001220703125
z: -0.003200556617230177
visibility: 0.9998793601989746
","x: 190.39013671875
y: 398.3624572753906
z: 0.003206482157111168
visibility: 0.9997932314872742
","x: 229.03744506835938
y: 481.7616271972656
z: -0.09229859709739685
visibility: 0.9984740018844604
","x: 182.47097778320312
y: 486.113037109375
z: 0.012233533896505833
visibility: 0.9961385726928711
","x: 246.46742248535156
y: 567.0823974609375
z: 0.015777064487338066
visibility: 0.998183012008667
","x: 169.9110107421875
y: 548.60888671875
z: 0.2370140105485916
visibility: 0.9933859705924988
","x: 247.907958984375
y: 578.7706909179688
z: 0.01830236241221428
visibility: 0.9295516610145569
","x: 168.8112030029297
y: 556.2095336914062
z: 0.25294625759124756
visibility: 0.9117792248725891
","x: 243.2611083984375
y: 593.9476928710938
z: -0.14255115389823914
visibility: 0.9953463673591614
","x: 170.53738403320312
y: 577.7736206054688
z: 0.13808271288871765
visibility: 0.9875422120094299
",,,,,,,,,,,,,,,,,,,,,,,,,,,,,,,,,,,,,,,,,,
4,"x: 198.30697631835938
y: 244.182373046875
z: -0.3676217198371887
visibility: 0.9998650550842285
","x: 200.69186401367188
y: 236.9444580078125
z: -0.3522890508174896
visibility: 0.9997057914733887
","x: 202.57362365722656
y: 237.06494140625
z: -0.3522799015045166
visibility: 0.9997596144676208
","x: 204.34979248046875
y: 237.2419891357422
z: -0.35231679677963257
visibility: 0.9997273683547974
","x: 195.80007934570312
y: 237.08706665039062
z: -0.3534720838069916
visibility: 0.999544084072113
","x: 194.1945343017578
y: 237.28524780273438
z: -0.35355886816978455
visibility: 0.9994202852249146
","x: 192.65167236328125
y: 237.53477478027344
z: -0.35355907678604126
visibility: 0.9991931319236755
","x: 206.66156005859375
y: 241.5992889404297
z: -0.23381376266479492
visibility: 0.9997701644897461
","x: 190.2736358642578
y: 241.7079315185547
z: -0.23930728435516357
visibility: 0.9983757734298706
","x: 201.8371124267578
y: 252.63104248046875
z: -0.3217271566390991
visibility: 0.9998525977134705
","x: 196.20730590820312
y: 253.20318603515625
z: -0.32328301668167114
visibility: 0.9997274875640869
","x: 221.56936645507812
y: 276.560302734375
z: -0.13965903222560883
visibility: 0.9999239444732666
","x: 171.84915161132812
y: 276.3442077636719
z: -0.15655572712421417
visibility: 0.9993747472763062
","x: 249.83473205566406
y: 256.4417724609375
z: -0.14534620940685272
visibility: 0.9830843210220337
","x: 144.4095458984375
y: 269.2069396972656
z: -0.15178309381008148
visibility: 0.49374672770500183
","x: 273.5317687988281
y: 233.25233459472656
z: -0.2571423053741455
visibility: 0.930653989315033
","x: 115.37109375
y: 269.2654724121094
z: -0.2493794858455658
visibility: 0.4577568471431732
","x: 282.20135498046875
y: 235.1871337890625
z: -0.2822687029838562
visibility: 0.8738964796066284
","x: 107.74032592773438
y: 274.9908142089844
z: -0.2861301302909851
visibility: 0.47050952911376953
","x: 282.4596862792969
y: 234.1999053955078
z: -0.3203273415565491
visibility: 0.8775442242622375
","x: 108.90279388427734
y: 275.3589782714844
z: -0.3101356625556946
visibility: 0.47591087222099304
","x: 279.2824401855469
y: 234.47354125976562
z: -0.27873027324676514
visibility: 0.8296251893043518
","x: 111.47511291503906
y: 274.2590637207031
z: -0.26679518818855286
visibility: 0.4669550359249115
","x: 215.57762145996094
y: 393.87042236328125
z: 0.0033238723408430815
visibility: 0.9998767375946045
","x: 189.47413635253906
y: 398.597412109375
z: -0.003379977075383067
visibility: 0.999796986579895
","x: 229.4889678955078
y: 480.3086853027344
z: -0.051423847675323486
visibility: 0.9983681440353394
","x: 183.5850372314453
y: 486.8135986328125
z: 0.020933574065566063
visibility: 0.996370792388916
","x: 246.6987762451172
y: 565.1710205078125
z: 0.042850907891988754
visibility: 0.9980473518371582
","x: 171.01023864746094
y: 552.8126220703125
z: 0.19459544122219086
visibility: 0.9936994314193726
","x: 246.330322265625
y: 580.8930053710938
z: 0.04241049289703369
visibility: 0.9333899617195129
","x: 171.97366333007812
y: 561.9410400390625
z: 0.20379021763801575
visibility: 0.91514652967453
","x: 251.8392791748047
y: 590.8869018554688
z: -0.10372265428304672
visibility: 0.9951768517494202
","x: 170.21127319335938
y: 577.8809204101562
z: 0.08160804957151413
visibility: 0.9880755543708801
",,,,,,,,,,,,,,,,,,,,,,,,,,,,,,,,,,,,,,,,,,
5,"x: 207.9283905029297
y: 240.65255737304688
z: -0.2582609951496124
visibility: 0.9998783469200134
","x: 209.62680053710938
y: 233.47705078125
z: -0.24273569881916046
visibility: 0.9997346997261047
","x: 211.276123046875
y: 233.3779754638672
z: -0.2427423894405365
visibility: 0.9997830390930176
","x: 212.80438232421875
y: 233.29885864257812
z: -0.24272672832012177
visibility: 0.9997537136077881
","x: 204.6369171142578
y: 234.1161346435547
z: -0.24262085556983948
visibility: 0.9995891451835632
","x: 202.93072509765625
y: 234.42343139648438
z: -0.24263735115528107
visibility: 0.9994776248931885
","x: 201.31642150878906
y: 234.77252197265625
z: -0.24259567260742188
visibility: 0.9992731213569641
","x: 214.39602661132812
y: 236.60951232910156
z: -0.1265306919813156
visibility: 0.9997918605804443
","x: 199.29872131347656
y: 239.26577758789062
z: -0.12670668959617615
visibility: 0.9985378980636597
","x: 211.34823608398438
y: 249.02586364746094
z: -0.21317346394062042
visibility: 0.9998664259910583
","x: 205.24139404296875
y: 250.04408264160156
z: -0.21330526471138
visibility: 0.9997543692588806
","x: 226.40126037597656
y: 271.5472106933594
z: -0.061039138585329056
visibility: 0.9999169111251831
","x: 183.00706481933594
y: 273.1341247558594
z: -0.0635591596364975
visibility: 0.9994329810142517
","x: 243.4556884765625
y: 237.09564208984375
z: -0.1890234351158142
visibility: 0.982082724571228
","x: 148.97427368164062
y: 272.9388427734375
z: -0.10083838552236557
visibility: 0.5442268252372742
","x: 251.35443115234375
y: 196.3864288330078
z: -0.45046788454055786
visibility: 0.9354105591773987
","x: 127.00249481201172
y: 277.2818298339844
z: -0.21651780605316162
visibility: 0.5114089250564575
","x: 258.0452880859375
y: 187.94358825683594
z: -0.5037853717803955
visibility: 0.8819060325622559
","x: 117.95679473876953
y: 281.96783447265625
z: -0.24801523983478546
visibility: 0.5212131142616272
","x: 256.9558410644531
y: 188.39353942871094
z: -0.5177711248397827
visibility: 0.8854917883872986
","x: 119.56892395019531
y: 283.3877258300781
z: -0.2735983729362488
visibility: 0.5263479948043823
","x: 254.01246643066406
y: 191.72079467773438
z: -0.46693921089172363
visibility: 0.8422461152076721
","x: 122.59659576416016
y: 282.19122314453125
z: -0.23261773586273193
visibility: 0.5182746648788452
","x: 216.46632385253906
y: 394.48504638671875
z: 0.002359842648729682
visibility: 0.9998834729194641
","x: 190.56202697753906
y: 395.161376953125
z: -0.002413031179457903
visibility: 0.9998080134391785
","x: 233.69094848632812
y: 476.88092041015625
z: -0.04060477763414383
visibility: 0.9981691241264343
","x: 182.50440979003906
y: 480.3552551269531
z: -0.025501161813735962
visibility: 0.9966568350791931
","x: 247.8563995361328
y: 562.3950805664062
z: 0.04429849237203598
visibility: 0.9979286789894104
","x: 171.01553344726562
y: 553.2649536132812
z: 0.1272948831319809
visibility: 0.9941628575325012
","x: 249.18983459472656
y: 575.5908813476562
z: 0.0562848225235939
visibility: 0.9368780255317688
","x: 172.71205139160156
y: 563.3362426757812
z: 0.135915607213974
visibility: 0.9199371933937073
","x: 263.0935363769531
y: 589.5067138671875
z: -0.061537884175777435
visibility: 0.9950370788574219
","x: 170.21063232421875
y: 578.545654296875
z: 0.009559955447912216
visibility: 0.9888495206832886
",,,,,,,,,,,,,,,,,,,,,,,,,,,,,,,,,,,,,,,,,,
6,"x: 217.029052734375
y: 238.5602569580078
z: -0.27929607033729553
visibility: 0.9998893141746521
","x: 219.45147705078125
y: 233.04913330078125
z: -0.26111501455307007
visibility: 0.999758780002594
","x: 221.1015625
y: 233.0762939453125
z: -0.2610860764980316
visibility: 0.9998015761375427
","x: 222.7228240966797
y: 233.13150024414062
z: -0.26106372475624084
visibility: 0.9997751116752625
","x: 214.93226623535156
y: 233.98536682128906
z: -0.25996705889701843
visibility: 0.9996283650398254
","x: 213.4827423095703
y: 234.6256866455078
z: -0.260023832321167
visibility: 0.9995282292366028
","x: 212.1880645751953
y: 235.19125366210938
z: -0.2600040137767792
visibility: 0.9993443489074707
","x: 225.53001403808594
y: 238.30178833007812
z: -0.14375700056552887
visibility: 0.9998095035552979
","x: 211.11526489257812
y: 240.01190185546875
z: -0.13956326246261597
visibility: 0.9986820816993713
","x: 220.57342529296875
y: 246.74081420898438
z: -0.2355261743068695
visibility: 0.9998777508735657
","x: 214.77671813964844
y: 247.81698608398438
z: -0.23452022671699524
visibility: 0.9997771382331848
","x: 240.14588928222656
y: 271.8848876953125
z: -0.10351486504077911
visibility: 0.9999077320098877
","x: 199.11529541015625
y: 276.6867370605469
z: -0.0654122456908226
visibility: 0.999468982219696
","x: 258.5108642578125
y: 227.4359130859375
z: -0.28388482332229614
visibility: 0.9837155342102051
","x: 171.36566162109375
y: 282.6028747558594
z: -0.2790299654006958
visibility: 0.587965190410614
","x: 238.49459838867188
y: 200.52809143066406
z: -0.43441691994667053
visibility: 0.9412453174591064
","x: 155.7315673828125
y: 289.7664794921875
z: -0.5846892595291138
visibility: 0.5580184459686279
","x: 237.27035522460938
y: 190.89846801757812
z: -0.47835588455200195
visibility: 0.8907352089881897
","x: 149.7166748046875
y: 290.80487060546875
z: -0.6438935399055481
visibility: 0.5645980834960938
","x: 235.628662109375
y: 193.7557830810547
z: -0.46144312620162964
visibility: 0.8934779763221741
","x: 150.1536865234375
y: 288.0184631347656
z: -0.6457175016403198
visibility: 0.5691564679145813
","x: 234.19285583496094
y: 199.7152862548828
z: -0.43337297439575195
visibility: 0.8530759215354919
","x: 152.4522705078125
y: 288.8107604980469
z: -0.5954173803329468
visibility: 0.5605080723762512
","x: 228.7808074951172
y: 395.5823974609375
z: 0.002148823346942663
visibility: 0.9998853206634521
","x: 202.6690673828125
y: 395.752685546875
z: -0.002421719254925847
visibility: 0.9998099207878113
","x: 246.65621948242188
y: 478.29736328125
z: -0.013747774064540863
visibility: 0.9982420802116394
","x: 188.20472717285156
y: 477.9754638671875
z: -0.010512628592550755
visibility: 0.9968679547309875
","x: 262.01422119140625
y: 561.2523193359375
z: 0.17914053797721863
visibility: 0.9978605508804321
","x: 171.71437072753906
y: 553.044189453125
z: 0.16183842718601227
visibility: 0.994535505771637
","x: 260.35546875
y: 571.8660278320312
z: 0.19083654880523682
visibility: 0.9337288737297058
","x: 173.3526611328125
y: 563.2634887695312
z: 0.1728639006614685
visibility: 0.9202980995178223
","x: 266.67779541015625
y: 589.03173828125
z: 0.05153312161564827
visibility: 0.9948294758796692
","x: 169.75228881835938
y: 578.5262451171875
z: 0.03705873712897301
visibility: 0.9894457459449768
",,,,,,,,,,,,,,,,,,,,,,,,,,,,,,,,,,,,,,,,,,
7,"x: 220.00442504882812
y: 245.73757934570312
z: -0.18182487785816193
visibility: 0.9998948574066162
","x: 221.810791015625
y: 238.584716796875
z: -0.17025375366210938
visibility: 0.9997732639312744
","x: 223.2588653564453
y: 238.53948974609375
z: -0.17025887966156006
visibility: 0.9998108148574829
","x: 224.8973388671875
y: 238.45924377441406
z: -0.17021486163139343
visibility: 0.9997850656509399
","x: 218.26963806152344
y: 239.01751708984375
z: -0.15866565704345703
visibility: 0.9996545314788818
","x: 217.1099090576172
y: 239.3972930908203
z: -0.1586848348379135
visibility: 0.9995625615119934
","x: 216.0486297607422
y: 239.65150451660156
z: -0.1586821973323822
visibility: 0.9993985891342163
","x: 228.51516723632812
y: 242.81890869140625
z: -0.0947912335395813
visibility: 0.9997997879981995
","x: 215.37428283691406
y: 244.25025939941406
z: -0.038868535310029984
visibility: 0.998794674873352
","x: 223.1648712158203
y: 253.51402282714844
z: -0.15400709211826324
visibility: 0.9998665452003479
","x: 218.54461669921875
y: 253.700927734375
z: -0.1379590928554535
visibility: 0.9997830986976624
","x: 241.93882751464844
y: 275.7611389160156
z: -0.08927413076162338
visibility: 0.9998394846916199
","x: 204.246337890625
y: 292.0984191894531
z: 0.022580793127417564
visibility: 0.9994891881942749
","x: 244.630615234375
y: 262.00390625
z: -0.2995167076587677
visibility: 0.9826184511184692
","x: 181.09974670410156
y: 319.10943603515625
z: -0.036539413034915924
visibility: 0.6287558078765869
","x: 242.80409240722656
y: 233.41941833496094
z: -0.5508598685264587
visibility: 0.9455987215042114
","x: 169.54478454589844
y: 280.8216247558594
z: -0.19854770600795746
visibility: 0.601976752281189
","x: 244.8982696533203
y: 224.52120971679688
z: -0.6051871180534363
visibility: 0.8991389274597168
","x: 167.82240295410156
y: 267.9486389160156
z: -0.2367982417345047
visibility: 0.6072499752044678
","x: 243.89308166503906
y: 224.58006286621094
z: -0.6036219596862793
visibility: 0.9013522267341614
","x: 169.6134490966797
y: 262.58319091796875
z: -0.2386883795261383
visibility: 0.6113699078559875
","x: 242.484375
y: 229.23300170898438
z: -0.5592896938323975
visibility: 0.8641257882118225
","x: 170.62110900878906
y: 269.05841064453125
z: -0.20577077567577362
visibility: 0.6033877730369568
","x: 235.6493377685547
y: 398.55767822265625
z: -0.024899274110794067
visibility: 0.9998851418495178
","x: 210.639404296875
y: 398.4054870605469
z: 0.02472156658768654
visibility: 0.9998142123222351
","x: 249.9735870361328
y: 481.9593505859375
z: -0.07151292264461517
visibility: 0.9982659816741943
","x: 193.2901153564453
y: 478.6717529296875
z: -0.004527589306235313
visibility: 0.9970741271972656
","x: 266.35845947265625
y: 560.1115112304688
z: 0.13450416922569275
visibility: 0.9978230595588684
","x: 176.37722778320312
y: 552.8629760742188
z: 0.15677814185619354
visibility: 0.994936466217041
","x: 265.3179931640625
y: 570.837646484375
z: 0.1575273722410202
visibility: 0.9326372146606445
","x: 179.46533203125
y: 564.2191772460938
z: 0.16695719957351685
visibility: 0.9254812598228455
","x: 268.2793273925781
y: 588.46044921875
z: 0.022685233503580093
visibility: 0.9947174787521362
","x: 167.84400939941406
y: 577.3490600585938
z: 0.0466524139046669
visibility: 0.9900899529457092
","x: 170.79005432128906
y: 272.0453186035156
z: 0.0
","x: 172.7554168701172
y: 271.052490234375
z: -0.001662668539211154
","x: 174.57313537597656
y: 267.3820495605469
z: -0.002549423137679696
","x: 176.41061401367188
y: 264.83154296875
z: -0.00370083749294281
","x: 178.21978759765625
y: 263.8002014160156
z: -0.0046345568262040615
","x: 172.70668029785156
y: 255.9394073486328
z: 0.0009815532248467207
","x: 174.07070922851562
y: 249.212158203125
z: -0.00043951772386208177
","x: 174.98870849609375
y: 245.05276489257812
z: -0.001582291559316218
","x: 175.6853485107422
y: 241.53338623046875
z: -0.002187814097851515
","x: 171.6122589111328
y: 253.78082275390625
z: 0.00034699763637036085
","x: 172.481201171875
y: 246.00320434570312
z: -0.0006886342889629304
","x: 173.29830932617188
y: 241.37315368652344
z: -0.0015551549149677157
","x: 173.9202423095703
y: 237.2634735107422
z: -0.0021752570755779743
","x: 170.73397827148438
y: 252.64540100097656
z: -0.0008631249656900764
","x: 171.29734802246094
y: 245.2620849609375
z: -0.0023011178709566593
","x: 171.82720947265625
y: 240.7187042236328
z: -0.0033018668182194233
","x: 172.26980590820312
y: 236.61497497558594
z: -0.00386573513969779
","x: 170.18023681640625
y: 252.42051696777344
z: -0.0024547805078327656
","x: 170.24496459960938
y: 245.74493408203125
z: -0.003626127727329731
","x: 170.3250732421875
y: 241.623046875
z: -0.004336492158472538
","x: 170.4607696533203
y: 238.0988311767578
z: -0.004782245960086584
",,,,,,,,,,,,,,,,,,,,,
8,"x: 220.00442504882812
y: 245.73757934570312
z: -0.18182487785816193
visibility: 0.9998948574066162
","x: 221.810791015625
y: 238.584716796875
z: -0.17025375366210938
visibility: 0.9997732639312744
","x: 223.2588653564453
y: 238.53948974609375
z: -0.17025887966156006
visibility: 0.9998108148574829
","x: 224.8973388671875
y: 238.45924377441406
z: -0.17021486163139343
visibility: 0.9997850656509399
","x: 218.26963806152344
y: 239.01751708984375
z: -0.15866565704345703
visibility: 0.9996545314788818
","x: 217.1099090576172
y: 239.3972930908203
z: -0.1586848348379135
visibility: 0.9995625615119934
","x: 216.0486297607422
y: 239.65150451660156
z: -0.1586821973323822
visibility: 0.9993985891342163
","x: 228.51516723632812
y: 242.81890869140625
z: -0.0947912335395813
visibility: 0.9997997879981995
","x: 215.37428283691406
y: 244.25025939941406
z: -0.038868535310029984
visibility: 0.998794674873352
","x: 223.1648712158203
y: 253.51402282714844
z: -0.15400709211826324
visibility: 0.9998665452003479
","x: 218.54461669921875
y: 253.700927734375
z: -0.1379590928554535
visibility: 0.9997830986976624
","x: 241.93882751464844
y: 275.7611389160156
z: -0.08927413076162338
visibility: 0.9998394846916199
","x: 204.246337890625
y: 292.0984191894531
z: 0.022580793127417564
visibility: 0.9994891881942749
","x: 244.630615234375
y: 262.00390625
z: -0.2995167076587677
visibility: 0.9826184511184692
","x: 181.09974670410156
y: 319.10943603515625
z: -0.036539413034915924
visibility: 0.6287558078765869
","x: 242.80409240722656
y: 233.41941833496094
z: -0.5508598685264587
visibility: 0.9455987215042114
","x: 169.54478454589844
y: 280.8216247558594
z: -0.19854770600795746
visibility: 0.601976752281189
","x: 244.8982696533203
y: 224.52120971679688
z: -0.6051871180534363
visibility: 0.8991389274597168
","x: 167.82240295410156
y: 267.9486389160156
z: -0.2367982417345047
visibility: 0.6072499752044678
","x: 243.89308166503906
y: 224.58006286621094
z: -0.6036219596862793
visibility: 0.9013522267341614
","x: 169.6134490966797
y: 262.58319091796875
z: -0.2386883795261383
visibility: 0.6113699078559875
","x: 242.484375
y: 229.23300170898438
z: -0.5592896938323975
visibility: 0.8641257882118225
","x: 170.62110900878906
y: 269.05841064453125
z: -0.20577077567577362
visibility: 0.6033877730369568
","x: 235.6493377685547
y: 398.55767822265625
z: -0.024899274110794067
visibility: 0.9998851418495178
","x: 210.639404296875
y: 398.4054870605469
z: 0.02472156658768654
visibility: 0.9998142123222351
","x: 249.9735870361328
y: 481.9593505859375
z: -0.07151292264461517
visibility: 0.9982659816741943
","x: 193.2901153564453
y: 478.6717529296875
z: -0.004527589306235313
visibility: 0.9970741271972656
","x: 266.35845947265625
y: 560.1115112304688
z: 0.13450416922569275
visibility: 0.9978230595588684
","x: 176.37722778320312
y: 552.8629760742188
z: 0.15677814185619354
visibility: 0.994936466217041
","x: 265.3179931640625
y: 570.837646484375
z: 0.1575273722410202
visibility: 0.9326372146606445
","x: 179.46533203125
y: 564.2191772460938
z: 0.16695719957351685
visibility: 0.9254812598228455
","x: 268.2793273925781
y: 588.46044921875
z: 0.022685233503580093
visibility: 0.9947174787521362
","x: 167.84400939941406
y: 577.3490600585938
z: 0.0466524139046669
visibility: 0.9900899529457092
","x: 170.79005432128906
y: 272.0453186035156
z: 0.0
","x: 172.7554168701172
y: 271.052490234375
z: -0.001662668539211154
","x: 174.57313537597656
y: 267.3820495605469
z: -0.002549423137679696
","x: 176.41061401367188
y: 264.83154296875
z: -0.00370083749294281
","x: 178.21978759765625
y: 263.8002014160156
z: -0.0046345568262040615
","x: 172.70668029785156
y: 255.9394073486328
z: 0.0009815532248467207
","x: 174.07070922851562
y: 249.212158203125
z: -0.00043951772386208177
","x: 174.98870849609375
y: 245.05276489257812
z: -0.001582291559316218
","x: 175.6853485107422
y: 241.53338623046875
z: -0.002187814097851515
","x: 171.6122589111328
y: 253.78082275390625
z: 0.00034699763637036085
","x: 172.481201171875
y: 246.00320434570312
z: -0.0006886342889629304
","x: 173.29830932617188
y: 241.37315368652344
z: -0.0015551549149677157
","x: 173.9202423095703
y: 237.2634735107422
z: -0.0021752570755779743
","x: 170.73397827148438
y: 252.64540100097656
z: -0.0008631249656900764
","x: 171.29734802246094
y: 245.2620849609375
z: -0.0023011178709566593
","x: 171.82720947265625
y: 240.7187042236328
z: -0.0033018668182194233
","x: 172.26980590820312
y: 236.61497497558594
z: -0.00386573513969779
","x: 170.18023681640625
y: 252.42051696777344
z: -0.0024547805078327656
","x: 170.24496459960938
y: 245.74493408203125
z: -0.003626127727329731
","x: 170.3250732421875
y: 241.623046875
z: -0.004336492158472538
","x: 170.4607696533203
y: 238.0988311767578
z: -0.004782245960086584
",,,,,,,,,,,,,,,,,,,,,
9,"x: 220.15414428710938
y: 245.25485229492188
z: -0.14092901349067688
visibility: 0.9998983144760132
","x: 222.6605682373047
y: 238.6297607421875
z: -0.1410093605518341
visibility: 0.999783456325531
","x: 223.94447326660156
y: 238.6569061279297
z: -0.14100316166877747
visibility: 0.9998153448104858
","x: 225.36288452148438
y: 238.67462158203125
z: -0.14093106985092163
visibility: 0.999790608882904
","x: 219.1988067626953
y: 238.87353515625
z: -0.12310691177845001
visibility: 0.9996780753135681
","x: 217.88380432128906
y: 239.12225341796875
z: -0.12313586473464966
visibility: 0.9995926022529602
","x: 216.6125946044922
y: 239.27740478515625
z: -0.12314073741436005
visibility: 0.9994471669197083
","x: 228.5736846923828
y: 243.05177307128906
z: -0.10522099584341049
visibility: 0.9997925162315369
","x: 215.36639404296875
y: 243.3013153076172
z: -0.02317369356751442
visibility: 0.9988726377487183
","x: 222.67652893066406
y: 252.78717041015625
z: -0.12633028626441956
visibility: 0.999853253364563
","x: 218.22789001464844
y: 253.10955810546875
z: -0.10261170566082001
visibility: 0.9997788071632385
","x: 240.32232666015625
y: 277.80694580078125
z: -0.12157118320465088
visibility: 0.9998014569282532
","x: 205.3933868408203
y: 291.27044677734375
z: 0.057088010013103485
visibility: 0.999512255191803
","x: 216.5769500732422
y: 282.77020263671875
z: -0.23502004146575928
visibility: 0.9833325743675232
","x: 187.7941131591797
y: 323.3262939453125
z: -0.006050459109246731
visibility: 0.6595213413238525
","x: 180.96810913085938
y: 260.4064636230469
z: -0.26930713653564453
visibility: 0.9500870108604431
","x: 171.46763610839844
y: 275.271484375
z: -0.2170964926481247
visibility: 0.6397183537483215
","x: 174.15603637695312
y: 258.68878173828125
z: -0.30326950550079346
visibility: 0.9071569442749023
","x: 165.12733459472656
y: 265.1355285644531
z: -0.25707852840423584
visibility: 0.6424411535263062
","x: 174.81344604492188
y: 255.3675994873047
z: -0.3000960946083069
visibility: 0.9089622497558594
","x: 165.49147033691406
y: 259.8084411621094
z: -0.26244375109672546
visibility: 0.6459704637527466
","x: 178.0227508544922
y: 258.02264404296875
z: -0.2676730751991272
visibility: 0.8736335039138794
","x: 168.05142211914062
y: 263.2033386230469
z: -0.22716951370239258
visibility: 0.6376038193702698
","x: 233.4107208251953
y: 398.7366027832031
z: -0.0370527021586895
visibility: 0.9998654723167419
","x: 209.53369140625
y: 398.3572692871094
z: 0.03676242753863335
visibility: 0.9998194575309753
","x: 247.66253662109375
y: 482.6397399902344
z: -0.0630793422460556
visibility: 0.9983497858047485
","x: 191.6533660888672
y: 477.3187255859375
z: -0.0016396812861785293
visibility: 0.9972769618034363
","x: 266.5871887207031
y: 559.595703125
z: 0.12813328206539154
visibility: 0.9979206323623657
","x: 177.28208923339844
y: 552.8553466796875
z: 0.15049798786640167
visibility: 0.9953261613845825
","x: 266.9285888671875
y: 570.1697998046875
z: 0.14235341548919678
visibility: 0.9329519271850586
","x: 180.96572875976562
y: 566.0802612304688
z: 0.15974022448062897
visibility: 0.9303895831108093
","x: 268.2416687011719
y: 588.1409912109375
z: 0.01271726656705141
visibility: 0.9949389100074768
","x: 166.56295776367188
y: 576.6516723632812
z: 0.06043993681669235
visibility: 0.990752100944519
",,,,,,,,,,,,,,,,,,,,,,,,,,,,,,,,,,,,,,,,,,
10,"x: 220.6737518310547
y: 249.21339416503906
z: -0.12557169795036316
visibility: 0.9998878240585327
","x: 223.63803100585938
y: 243.29713439941406
z: -0.12100405991077423
visibility: 0.9997672438621521
","x: 225.010986328125
y: 243.54673767089844
z: -0.12100102007389069
visibility: 0.9997884631156921
","x: 226.58352661132812
y: 243.73208618164062
z: -0.12095429748296738
visibility: 0.9997670650482178
","x: 220.08956909179688
y: 242.84324645996094
z: -0.10605248063802719
visibility: 0.9996727705001831
","x: 219.00234985351562
y: 242.8825225830078
z: -0.10606559365987778
visibility: 0.9995855689048767
","x: 217.8517608642578
y: 242.87564086914062
z: -0.10607060045003891
visibility: 0.9994638562202454
","x: 230.33212280273438
y: 247.87799072265625
z: -0.07155008614063263
visibility: 0.9997308254241943
","x: 217.6079864501953
y: 246.45521545410156
z: -0.0018142670160159469
visibility: 0.9987977147102356
","x: 223.54220581054688
y: 256.35968017578125
z: -0.10586632788181305
visibility: 0.999795138835907
","x: 218.56686401367188
y: 256.368896484375
z: -0.08623895049095154
visibility: 0.9997175335884094
","x: 240.3060760498047
y: 282.9010314941406
z: -0.09790319949388504
visibility: 0.9997439980506897
","x: 209.03768920898438
y: 294.0657958984375
z: 0.08407522737979889
visibility: 0.9994754791259766
","x: 219.85134887695312
y: 328.55035400390625
z: -0.1899271011352539
visibility: 0.9833354949951172
","x: 195.37887573242188
y: 342.93927001953125
z: -0.0024657114408910275
visibility: 0.6634858250617981
","x: 197.85316467285156
y: 270.47491455078125
z: -0.24833187460899353
visibility: 0.9538106322288513
","x: 187.98513793945312
y: 281.8054504394531
z: -0.22254769504070282
visibility: 0.6674798727035522
","x: 192.3645782470703
y: 268.2685241699219
z: -0.2778721749782562
visibility: 0.9138418436050415
","x: 183.06954956054688
y: 279.1741638183594
z: -0.259634792804718
visibility: 0.6645647287368774
","x: 192.41085815429688
y: 265.69158935546875
z: -0.26966214179992676
visibility: 0.9151498079299927
","x: 183.73065185546875
y: 274.654052734375
z: -0.2597775161266327
visibility: 0.666716456413269
","x: 194.33612060546875
y: 267.5225524902344
z: -0.24536077678203583
visibility: 0.8813157677650452
","x: 186.5149383544922
y: 277.22491455078125
z: -0.23040771484375
visibility: 0.6568188667297363
","x: 232.64385986328125
y: 398.8457946777344
z: -0.04187580198049545
visibility: 0.9998464584350586
","x: 209.90109252929688
y: 397.28961181640625
z: 0.04161278158426285
visibility: 0.9998112320899963
","x: 245.31629943847656
y: 483.38885498046875
z: -0.05923427268862724
visibility: 0.9984332919120789
","x: 191.66287231445312
y: 476.54833984375
z: 0.035932041704654694
visibility: 0.9973012208938599
","x: 266.3635559082031
y: 557.3303833007812
z: 0.1253156065940857
visibility: 0.9979827404022217
","x: 177.39263916015625
y: 552.7265625
z: 0.17658060789108276
visibility: 0.9955997467041016
","x: 267.5716552734375
y: 566.6135864257812
z: 0.1362995207309723
visibility: 0.9302246570587158
","x: 181.42330932617188
y: 566.1121826171875
z: 0.18838952481746674
visibility: 0.934123158454895
","x: 267.92724609375
y: 587.7422485351562
z: 0.012157260440289974
visibility: 0.9950425028800964
","x: 165.31004333496094
y: 575.6041259765625
z: 0.08503000438213348
visibility: 0.9911938309669495
",,,,,,,,,,,,,,,,,,,,,,,,,,,,,,,,,,,,,,,,,,
11,"x: 219.5152587890625
y: 250.8694305419922
z: -0.15678156912326813
visibility: 0.9998983144760132
","x: 222.72445678710938
y: 243.8839874267578
z: -0.1425410509109497
visibility: 0.9997892379760742
","x: 224.340087890625
y: 243.9072265625
z: -0.14253917336463928
visibility: 0.9998081922531128
","x: 226.122802734375
y: 243.96612548828125
z: -0.1425061821937561
visibility: 0.9997889995574951
","x: 218.32107543945312
y: 244.16567993164062
z: -0.1337316483259201
visibility: 0.9997038841247559
","x: 217.17918395996094
y: 244.37359619140625
z: -0.1337418556213379
visibility: 0.9996252059936523
","x: 215.98873901367188
y: 244.54278564453125
z: -0.13369597494602203
visibility: 0.9995157718658447
","x: 230.19851684570312
y: 247.91017150878906
z: -0.0524633452296257
visibility: 0.9997560381889343
","x: 216.04782104492188
y: 247.550048828125
z: -0.009731637313961983
visibility: 0.9989110827445984
","x: 223.35012817382812
y: 258.3166809082031
z: -0.12326680123806
visibility: 0.9998147487640381
","x: 217.62603759765625
y: 258.842041015625
z: -0.11133816093206406
visibility: 0.9997435808181763
","x: 244.39378356933594
y: 288.083251953125
z: -0.034880030900239944
visibility: 0.9997678399085999
","x: 208.49794006347656
y: 296.9000549316406
z: 0.07719187438488007
visibility: 0.999513566493988
","x: 253.9926300048828
y: 344.2077331542969
z: -0.161902517080307
visibility: 0.9848194122314453
","x: 200.35189819335938
y: 354.66082763671875
z: -0.02070031315088272
visibility: 0.6878932118415833
","x: 225.3600311279297
y: 318.6772766113281
z: -0.3085518777370453
visibility: 0.9581246376037598
","x: 200.9239959716797
y: 315.2361755371094
z: -0.22909636795520782
visibility: 0.6983208656311035
","x: 215.97862243652344
y: 306.7678527832031
z: -0.35874781012535095
visibility: 0.9213510751724243
","x: 201.43673706054688
y: 306.6251220703125
z: -0.2927554249763489
visibility: 0.6929519772529602
","x: 215.46627807617188
y: 300.4635925292969
z: -0.3187721073627472
visibility: 0.9223930239677429
","x: 203.2803497314453
y: 299.73468017578125
z: -0.27573856711387634
visibility: 0.6942875385284424
","x: 218.442626953125
y: 303.7413635253906
z: -0.24694231152534485
visibility: 0.8908553123474121
","x: 203.7011260986328
y: 302.8388671875
z: -0.24819493293762207
visibility: 0.683089554309845
","x: 235.15328979492188
y: 399.7821350097656
z: -0.03873411566019058
visibility: 0.999853253364563
","x: 210.8150177001953
y: 397.83740234375
z: 0.038521658629179
visibility: 0.999815821647644
","x: 247.35818481445312
y: 483.3349304199219
z: -0.0691090077161789
visibility: 0.9985173940658569
","x: 192.95089721679688
y: 477.7165222167969
z: 0.03127100318670273
visibility: 0.9974238872528076
","x: 267.1318664550781
y: 557.3168334960938
z: 0.12487443536520004
visibility: 0.9980696439743042
","x: 177.39747619628906
y: 553.5094604492188
z: 0.18085336685180664
visibility: 0.995914876461029
","x: 268.1996765136719
y: 567.2357788085938
z: 0.13655051589012146
visibility: 0.9303582906723022
","x: 181.18052673339844
y: 566.5778198242188
z: 0.19373281300067902
visibility: 0.9382361769676208
","x: 267.6788635253906
y: 587.6714477539062
z: 0.004924322012811899
visibility: 0.9951947927474976
","x: 164.96890258789062
y: 575.1678466796875
z: 0.0889039859175682
visibility: 0.9917410612106323
",,,,,,,,,,,,,,,,,,,,,,,,,,,,,,,,,,,,,,,,,,
12,"x: 219.41241455078125
y: 254.42434692382812
z: -0.22009804844856262
visibility: 0.999907910823822
","x: 222.43728637695312
y: 247.80992126464844
z: -0.20049206912517548
visibility: 0.999809205532074
","x: 224.3404083251953
y: 247.81578063964844
z: -0.20051196217536926
visibility: 0.999826192855835
","x: 226.24069213867188
y: 247.9191436767578
z: -0.20056560635566711
visibility: 0.9998090267181396
","x: 217.88804626464844
y: 248.11326599121094
z: -0.19075265526771545
visibility: 0.9997320771217346
","x: 216.69857788085938
y: 248.313232421875
z: -0.190792053937912
visibility: 0.9996610879898071
","x: 215.7015380859375
y: 248.49871826171875
z: -0.1906769871711731
visibility: 0.9995625019073486
","x: 230.33877563476562
y: 251.50216674804688
z: -0.09030839055776596
visibility: 0.9997796416282654
","x: 215.6273651123047
y: 252.2501220703125
z: -0.054571546614170074
visibility: 0.9990164041519165
","x: 223.69732666015625
y: 262.39129638671875
z: -0.17556479573249817
visibility: 0.9998328685760498
","x: 217.58848571777344
y: 262.5196533203125
z: -0.16085951030254364
visibility: 0.999768078327179
","x: 245.4966278076172
y: 290.41119384765625
z: -0.07250635325908661
visibility: 0.9997898936271667
","x: 207.3411865234375
y: 299.1720275878906
z: 0.03747972473502159
visibility: 0.9995443224906921
","x: 272.8379211425781
y: 328.15777587890625
z: -0.20849409699440002
visibility: 0.9862427711486816
","x: 191.34373474121094
y: 341.7249755859375
z: -0.04538162425160408
visibility: 0.7155488729476929
","x: 253.35842895507812
y: 334.7716064453125
z: -0.4421145021915436
visibility: 0.9617725610733032
","x: 182.81439208984375
y: 319.7391357421875
z: -0.3123500943183899
visibility: 0.7265060544013977
","x: 244.7788543701172
y: 336.6273498535156
z: -0.49218469858169556
visibility: 0.9272881746292114
","x: 181.17282104492188
y: 320.2317810058594
z: -0.36404791474342346
visibility: 0.7192428112030029
","x: 243.16964721679688
y: 330.8320617675781
z: -0.4827565550804138
visibility: 0.9281066656112671
","x: 184.02249145507812
y: 312.10296630859375
z: -0.37181997299194336
visibility: 0.7204945087432861
","x: 245.2865753173828
y: 329.63677978515625
z: -0.43953052163124084
visibility: 0.8982527256011963
","x: 182.64654541015625
y: 320.4913024902344
z: -0.3251155614852905
visibility: 0.70924311876297
","x: 237.28717041015625
y: 405.943603515625
z: -0.037485089153051376
visibility: 0.9998599886894226
","x: 212.00120544433594
y: 404.57861328125
z: 0.037343185395002365
visibility: 0.9998255968093872
","x: 251.63400268554688
y: 489.5306091308594
z: -0.10822491347789764
visibility: 0.9985796809196472
","x: 192.68276977539062
y: 478.30999755859375
z: -0.058051686733961105
visibility: 0.9976053833961487
","x: 267.6545715332031
y: 557.5073852539062
z: 0.123942531645298
visibility: 0.9981371760368347
","x: 177.5874786376953
y: 553.4743041992188
z: 0.14939725399017334
visibility: 0.9962422251701355
","x: 267.8481140136719
y: 567.4054565429688
z: 0.13460111618041992
visibility: 0.9316160678863525
","x: 181.65850830078125
y: 566.5057373046875
z: 0.16379298269748688
visibility: 0.9429405927658081
","x: 268.4641418457031
y: 587.3472290039062
z: 0.0018329320009797812
visibility: 0.9952937960624695
","x: 164.23658752441406
y: 574.73583984375
z: 0.05203482508659363
visibility: 0.9922846555709839
",,,,,,,,,,,,,,,,,,,,,,,,,,,,,,,,,,,,,,,,,,
13,"x: 220.7130126953125
y: 259.64251708984375
z: -0.30300453305244446
visibility: 0.999916672706604
","x: 223.9202880859375
y: 251.3402099609375
z: -0.2854405641555786
visibility: 0.9998254179954529
","x: 225.81118774414062
y: 251.2355194091797
z: -0.2854430079460144
visibility: 0.9998409748077393
","x: 227.6551513671875
y: 251.25186157226562
z: -0.28549784421920776
visibility: 0.9998250007629395
","x: 219.37582397460938
y: 251.90826416015625
z: -0.28246045112609863
visibility: 0.999755859375
","x: 218.23507690429688
y: 252.14450073242188
z: -0.28254061937332153
visibility: 0.9996923208236694
","x: 217.15000915527344
y: 252.4227752685547
z: -0.2825317084789276
visibility: 0.9996031522750854
","x: 231.41513061523438
y: 254.14129638671875
z: -0.1696498841047287
visibility: 0.9997984170913696
","x: 216.6236114501953
y: 255.19296264648438
z: -0.15432283282279968
visibility: 0.9991110563278198
","x: 224.80335998535156
y: 266.84808349609375
z: -0.258877694606781
visibility: 0.9998474717140198
","x: 218.83084106445312
y: 267.74420166015625
z: -0.2540946900844574
visibility: 0.9997885227203369
","x: 247.5052032470703
y: 292.96649169921875
z: -0.08687838912010193
visibility: 0.9998073577880859
","x: 204.98390197753906
y: 297.741455078125
z: -0.07435377687215805
visibility: 0.9995745420455933
","x: 278.7247314453125
y: 313.21343994140625
z: -0.1084560751914978
visibility: 0.9875363111495972
","x: 180.5869140625
y: 302.3394775390625
z: -0.0739365965127945
visibility: 0.743816614151001
","x: 306.3375549316406
y: 330.1770324707031
z: -0.23226387798786163
visibility: 0.9653666019439697
","x: 155.42906188964844
y: 287.01153564453125
z: -0.21904084086418152
visibility: 0.7533748745918274
","x: 311.4133605957031
y: 306.40557861328125
z: -0.26146200299263
visibility: 0.9335246086120605
","x: 148.8515625
y: 289.15411376953125
z: -0.2546176612377167
visibility: 0.7452756762504578
","x: 311.9266052246094
y: 301.335205078125
z: -0.29768532514572144
visibility: 0.9344490170478821
","x: 149.8457794189453
y: 286.0092468261719
z: -0.2843788266181946
visibility: 0.7466824650764465
","x: 310.3077392578125
y: 311.7400207519531
z: -0.25335201621055603
visibility: 0.9075048565864563
","x: 151.59744262695312
y: 286.49468994140625
z: -0.23766331374645233
visibility: 0.7364115715026855
","x: 239.15341186523438
y: 409.6363830566406
z: -0.022440895438194275
visibility: 0.999853253364563
","x: 212.48695373535156
y: 408.7554931640625
z: 0.02249499410390854
visibility: 0.9998278617858887
","x: 254.35513305664062
y: 490.0384521484375
z: -0.13750259578227997
visibility: 0.998612105846405
","x: 182.81593322753906
y: 475.6776428222656
z: -0.14053598046302795
visibility: 0.9978165030479431
","x: 267.8434143066406
y: 557.413818359375
z: 0.09241296350955963
visibility: 0.998153030872345
","x: 174.20529174804688
y: 545.1424560546875
z: 0.07415739446878433
visibility: 0.9965271353721619
","x: 267.47430419921875
y: 567.1807250976562
z: 0.10690591484308243
visibility: 0.9335430264472961
","x: 179.4645233154297
y: 551.5425415039062
z: 0.08925490081310272
visibility: 0.9470630884170532
","x: 268.79022216796875
y: 585.9618530273438
z: -0.038573674857616425
visibility: 0.9952656030654907
","x: 164.63876342773438
y: 573.0650634765625
z: -0.032736606895923615
visibility: 0.9927533864974976
",,,,,,,,,,,,,,,,,,,,,,,,,,,,,,,,,,,,,,,,,,
14,"x: 219.9285888671875
y: 257.71820068359375
z: -0.34834617376327515
visibility: 0.9999197721481323
","x: 223.0736083984375
y: 249.97030639648438
z: -0.3287138342857361
visibility: 0.9998224973678589
","x: 224.88525390625
y: 249.9754180908203
z: -0.32873639464378357
visibility: 0.9998377561569214
","x: 226.62472534179688
y: 250.09515380859375
z: -0.328817218542099
visibility: 0.9998213648796082
","x: 218.29298400878906
y: 250.3306884765625
z: -0.33087408542633057
visibility: 0.9997599124908447
","x: 217.01144409179688
y: 250.54014587402344
z: -0.3309709429740906
visibility: 0.999707043170929
","x: 215.8166046142578
y: 250.7859649658203
z: -0.3309647738933563
visibility: 0.9996242523193359
","x: 229.71290588378906
y: 253.4913330078125
z: -0.20417387783527374
visibility: 0.9997931122779846
","x: 214.5189208984375
y: 253.90911865234375
z: -0.2140698879957199
visibility: 0.9991664886474609
","x: 223.52169799804688
y: 265.2789611816406
z: -0.3015487492084503
visibility: 0.9998502731323242
","x: 217.3154296875
y: 265.9087829589844
z: -0.3046385645866394
visibility: 0.9997925758361816
","x: 243.90023803710938
y: 292.5966796875
z: -0.11531537771224976
visibility: 0.9998204708099365
","x: 204.82040405273438
y: 296.61212158203125
z: -0.13611996173858643
visibility: 0.9995766282081604
","x: 271.941650390625
y: 310.4769287109375
z: -0.12523865699768066
visibility: 0.98830246925354
","x: 176.92050170898438
y: 301.82159423828125
z: -0.22934742271900177
visibility: 0.7677109241485596
","x: 297.8196105957031
y: 318.5411682128906
z: -0.236657977104187
visibility: 0.9662228226661682
","x: 156.1922607421875
y: 294.0372314453125
z: -0.45175427198410034
visibility: 0.7717007398605347
","x: 305.439208984375
y: 317.30291748046875
z: -0.2606509327888489
visibility: 0.9322419166564941
","x: 149.3833770751953
y: 297.2864074707031
z: -0.49950331449508667
visibility: 0.7566140294075012
","x: 305.44012451171875
y: 316.0497741699219
z: -0.29459816217422485
visibility: 0.9344509840011597
","x: 147.920654296875
y: 297.4462890625
z: -0.5184302926063538
visibility: 0.7595100402832031
","x: 302.08551025390625
y: 317.8518371582031
z: -0.2552594244480133
visibility: 0.9103196859359741
","x: 151.3822479248047
y: 297.10107421875
z: -0.4678879380226135
visibility: 0.749566376209259
","x: 236.78134155273438
y: 407.90966796875
z: -0.0030157712753862143
visibility: 0.9998342394828796
","x: 210.62974548339844
y: 406.87176513671875
z: 0.0029890225268900394
visibility: 0.9998056292533875
","x: 252.0396728515625
y: 489.2327880859375
z: -0.03160892426967621
visibility: 0.9986491203308105
","x: 183.47064208984375
y: 476.52825927734375
z: -0.09909870475530624
visibility: 0.9979350566864014
","x: 267.7305908203125
y: 557.392333984375
z: 0.20306353271007538
visibility: 0.9981630444526672
","x: 164.12838745117188
y: 535.5809936523438
z: 0.09752757102251053
visibility: 0.9966899156570435
","x: 268.3840026855469
y: 567.0276489257812
z: 0.21795392036437988
visibility: 0.9303832054138184
","x: 161.42938232421875
y: 540.7991943359375
z: 0.11096497625112534
visibility: 0.9446405172348022
","x: 268.6581115722656
y: 585.7610473632812
z: 0.07125496119260788
visibility: 0.9951463937759399
","x: 162.4987030029297
y: 571.4932861328125
z: -0.026113804429769516
visibility: 0.9929946660995483
",,,,,,,,,,,,,,,,,,,,,,,,,,,,,,,,,,,,,,,,,,
15,"x: 216.8897247314453
y: 256.7017517089844
z: -0.32274648547172546
visibility: 0.9999275207519531
","x: 219.6233367919922
y: 249.40975952148438
z: -0.30632731318473816
visibility: 0.9998393654823303
","x: 221.504638671875
y: 249.58245849609375
z: -0.30633240938186646
visibility: 0.9998531937599182
","x: 223.50466918945312
y: 249.90049743652344
z: -0.306365430355072
visibility: 0.9998384714126587
","x: 215.35113525390625
y: 249.62115478515625
z: -0.30410411953926086
visibility: 0.9997824430465698
","x: 214.20059204101562
y: 249.8680877685547
z: -0.3041258454322815
visibility: 0.9997349381446838
","x: 212.669189453125
y: 250.1617431640625
z: -0.3041001558303833
visibility: 0.9996599555015564
","x: 227.52476501464844
y: 253.9442596435547
z: -0.1967737227678299
visibility: 0.9998122453689575
","x: 211.54652404785156
y: 253.71397399902344
z: -0.18796849250793457
visibility: 0.999245285987854
","x: 219.69200134277344
y: 264.5797119140625
z: -0.28149789571762085
visibility: 0.9998648166656494
","x: 214.68722534179688
y: 264.97357177734375
z: -0.27922311425209045
visibility: 0.9998125433921814
","x: 241.06192016601562
y: 303.2553405761719
z: -0.11409517377614975
visibility: 0.9998379349708557
","x: 199.07101440429688
y: 298.3265075683594
z: -0.10661113262176514
visibility: 0.9996160268783569
","x: 266.109619140625
y: 359.306884765625
z: -0.06640567630529404
visibility: 0.9885807633399963
","x: 186.3223419189453
y: 345.1325988769531
z: -0.10504461824893951
visibility: 0.7811724543571472
","x: 270.4950256347656
y: 409.6118469238281
z: -0.15895941853523254
visibility: 0.967032790184021
","x: 183.53456115722656
y: 386.8545837402344
z: -0.21399863064289093
visibility: 0.7781970500946045
","x: 276.52569580078125
y: 421.018310546875
z: -0.1822316199541092
visibility: 0.9334336519241333
","x: 182.21669006347656
y: 396.3701171875
z: -0.24657638370990753
visibility: 0.7578858137130737
","x: 276.311767578125
y: 420.76275634765625
z: -0.22004707157611847
visibility: 0.9361772537231445
","x: 179.52392578125
y: 396.771240234375
z: -0.2774527966976166
visibility: 0.7623748183250427
","x: 273.5616760253906
y: 417.8853759765625
z: -0.17590396106243134
visibility: 0.9135048985481262
","x: 181.84759521484375
y: 392.7864074707031
z: -0.23000748455524445
visibility: 0.7506791949272156
","x: 232.5677032470703
y: 411.8157958984375
z: 0.0037390596698969603
visibility: 0.9998481869697571
","x: 206.48953247070312
y: 411.4173889160156
z: -0.003906763158738613
visibility: 0.9998208284378052
","x: 250.3140411376953
y: 492.7427673339844
z: 0.0195880476385355
visibility: 0.9986836314201355
","x: 183.7987823486328
y: 490.79913330078125
z: -0.03736511617898941
visibility: 0.9980602860450745
","x: 267.3941650390625
y: 556.5701904296875
z: 0.25953519344329834
visibility: 0.9982309937477112
","x: 162.408447265625
y: 543.5514526367188
z: 0.20058885216712952
visibility: 0.9968128204345703
","x: 267.7395935058594
y: 565.3582153320312
z: 0.2764931321144104
visibility: 0.929775595664978
","x: 158.76519775390625
y: 548.4052124023438
z: 0.21782219409942627
visibility: 0.9370343685150146
","x: 268.4858703613281
y: 585.3388671875
z: 0.1452500820159912
visibility: 0.9952194690704346
","x: 162.68991088867188
y: 572.0990600585938
z: 0.09132096916437149
visibility: 0.9931586980819702
",,,,,,,,,,,,,,,,,,,,,,,,,,,,,,,,,,,,,,,,,,
16,"x: 218.18687438964844
y: 255.66220092773438
z: -0.3189760744571686
visibility: 0.9999325275421143
","x: 221.13450622558594
y: 249.23440551757812
z: -0.30628466606140137
visibility: 0.999848484992981
","x: 222.8828125
y: 249.48870849609375
z: -0.3063046932220459
visibility: 0.9998615384101868
","x: 224.68638610839844
y: 249.86135864257812
z: -0.30632033944129944
visibility: 0.9998487234115601
","x: 217.02491760253906
y: 249.25177001953125
z: -0.3000001013278961
visibility: 0.9997957348823547
","x: 215.87242126464844
y: 249.45875549316406
z: -0.3000492453575134
visibility: 0.9997534155845642
","x: 214.67002868652344
y: 249.62677001953125
z: -0.3000621795654297
visibility: 0.9996855854988098
","x: 228.37478637695312
y: 253.47891235351562
z: -0.21420319378376007
visibility: 0.999821126461029
","x: 213.86695861816406
y: 253.27880859375
z: -0.18346358835697174
visibility: 0.9992947578430176
","x: 221.3825225830078
y: 264.48297119140625
z: -0.2836221754550934
visibility: 0.9998759627342224
","x: 215.76797485351562
y: 264.18963623046875
z: -0.27504000067710876
visibility: 0.999826967716217
","x: 245.29197692871094
y: 299.67083740234375
z: -0.16295692324638367
visibility: 0.9998530745506287
","x: 202.58619689941406
y: 301.6685791015625
z: -0.08557672798633575
visibility: 0.9996468424797058
","x: 260.0733337402344
y: 352.1357421875
z: -0.1220834031701088
visibility: 0.989341139793396
","x: 195.67391967773438
y: 356.494384765625
z: -0.0237108264118433
visibility: 0.7978999614715576
","x: 251.08297729492188
y: 391.87371826171875
z: -0.23001380264759064
visibility: 0.9690350294113159
","x: 186.45680236816406
y: 401.146484375
z: -0.11807860434055328
visibility: 0.7939208745956421
","x: 246.79029846191406
y: 409.0960388183594
z: -0.22496619820594788
visibility: 0.9366913437843323
","x: 182.6440887451172
y: 414.4784851074219
z: -0.1514510065317154
visibility: 0.7708060145378113
","x: 242.46725463867188
y: 404.2935791015625
z: -0.28257662057876587
visibility: 0.9392743110656738
","x: 182.2143096923828
y: 413.3132629394531
z: -0.18466779589653015
visibility: 0.7757169008255005
","x: 242.65188598632812
y: 399.02685546875
z: -0.24160635471343994
visibility: 0.9171023368835449
","x: 184.1045379638672
y: 409.805419921875
z: -0.1345597505569458
visibility: 0.7633219957351685
","x: 238.46766662597656
y: 410.9917907714844
z: -0.0001569021405884996
visibility: 0.99985671043396
","x: 212.33531188964844
y: 410.5765075683594
z: 0.00011839808576041833
visibility: 0.9998330473899841
","x: 250.4574432373047
y: 492.8484802246094
z: -0.006214541383087635
visibility: 0.9987058639526367
","x: 188.97677612304688
y: 490.38433837890625
z: -0.005130534525960684
visibility: 0.9981456995010376
","x: 267.1010437011719
y: 558.3485107421875
z: 0.22247187793254852
visibility: 0.998263418674469
","x: 165.3215789794922
y: 541.7762451171875
z: 0.20547783374786377
visibility: 0.9970089197158813
","x: 267.28985595703125
y: 567.0543823242188
z: 0.2381802350282669
visibility: 0.9299747943878174
","x: 164.02447509765625
y: 550.0157470703125
z: 0.21965515613555908
visibility: 0.9388610124588013
","x: 268.5066833496094
y: 585.2701416015625
z: 0.1078072190284729
visibility: 0.9952865242958069
","x: 161.5219268798828
y: 570.1946411132812
z: 0.1012631431221962
visibility: 0.9935019016265869
",,,,,,,,,,,,,,,,,,,,,,,,,,,,,,,,,,,,,,,,,,
17,"x: 228.05630493164062
y: 247.78729248046875
z: -0.21569761633872986
visibility: 0.9999162554740906
","x: 230.66737365722656
y: 242.462646484375
z: -0.20301738381385803
visibility: 0.9998217225074768
","x: 232.3989715576172
y: 242.65676879882812
z: -0.20310179889202118
visibility: 0.9998341798782349
","x: 234.14947509765625
y: 242.937744140625
z: -0.20313222706317902
visibility: 0.9998259544372559
","x: 226.26739501953125
y: 243.24891662597656
z: -0.19431385397911072
visibility: 0.9997507333755493
","x: 224.8170928955078
y: 243.9368438720703
z: -0.19431562721729279
visibility: 0.9996932148933411
","x: 223.1864776611328
y: 244.63304138183594
z: -0.19431911408901215
visibility: 0.9996298551559448
","x: 237.5936737060547
y: 247.77822875976562
z: -0.12462663650512695
visibility: 0.9997857213020325
","x: 221.30416870117188
y: 250.09365844726562
z: -0.08108378201723099
visibility: 0.9992483854293823
","x: 231.2550048828125
y: 256.8578186035156
z: -0.1864490658044815
visibility: 0.9998742341995239
","x: 225.64427185058594
y: 257.756103515625
z: -0.1740526705980301
visibility: 0.9998170733451843
","x: 250.94244384765625
y: 285.7745361328125
z: -0.1389341652393341
visibility: 0.9998635053634644
","x: 209.55496215820312
y: 299.5769958496094
z: 0.011910970322787762
visibility: 0.9996469616889954
","x: 258.139892578125
y: 325.6734619140625
z: -0.28067654371261597
visibility: 0.9897227883338928
","x: 191.8113555908203
y: 343.9898986816406
z: 0.06282012909650803
visibility: 0.8158902525901794
","x: 228.57212829589844
y: 323.9556579589844
z: -0.47796130180358887
visibility: 0.9714269042015076
","x: 167.65316772460938
y: 359.4860534667969
z: -0.014842132106423378
visibility: 0.81276535987854
","x: 219.89613342285156
y: 327.1105651855469
z: -0.5253769159317017
visibility: 0.9415335059165955
","x: 159.5255889892578
y: 363.1263427734375
z: -0.03961793705821037
visibility: 0.7900643944740295
","x: 218.67562866210938
y: 323.3059387207031
z: -0.520795464515686
visibility: 0.9437108039855957
","x: 158.47279357910156
y: 361.4100341796875
z: -0.06678541749715805
visibility: 0.7948452830314636
","x: 220.91000366210938
y: 322.1423034667969
z: -0.47952818870544434
visibility: 0.9226641058921814
","x: 161.1691436767578
y: 360.705322265625
z: -0.030450453981757164
visibility: 0.783385694026947
","x: 245.80941772460938
y: 408.0423583984375
z: -0.02107565477490425
visibility: 0.9998651146888733
","x: 220.90133666992188
y: 408.68548583984375
z: 0.020902367308735847
visibility: 0.9998331069946289
","x: 253.8721923828125
y: 490.9150390625
z: -0.07383108884096146
visibility: 0.9983424544334412
","x: 206.1986541748047
y: 490.121337890625
z: -0.026297029107809067
visibility: 0.9978421926498413
","x: 266.95068359375
y: 558.1978759765625
z: 0.11852657794952393
visibility: 0.9976653456687927
","x: 208.34048461914062
y: 533.44384765625
z: 0.21186915040016174
visibility: 0.9954143762588501
","x: 267.02288818359375
y: 567.0868530273438
z: 0.13276377320289612
visibility: 0.9161921143531799
","x: 213.90988159179688
y: 540.1157836914062
z: 0.23263061046600342
visibility: 0.9279295206069946
","x: 268.415283203125
y: 585.4755249023438
z: 0.018722202628850937
visibility: 0.9940192103385925
","x: 202.12559509277344
y: 565.492431640625
z: 0.1489296704530716
visibility: 0.991055428981781
",,,,,,,,,,,,,,,,,,,,,,,,,,,,,,,,,,,,,,,,,,
18,"x: 232.1496124267578
y: 246.27294921875
z: -0.15750709176063538
visibility: 0.9998961091041565
","x: 234.55230712890625
y: 240.11117553710938
z: -0.14650896191596985
visibility: 0.9997828006744385
","x: 236.3720703125
y: 240.28237915039062
z: -0.1465650498867035
visibility: 0.999792218208313
","x: 238.1830596923828
y: 240.60858154296875
z: -0.14657968282699585
visibility: 0.9997763633728027
","x: 230.13531494140625
y: 240.66903686523438
z: -0.13803830742835999
visibility: 0.9996818900108337
","x: 228.85244750976562
y: 241.1428680419922
z: -0.13803784549236298
visibility: 0.9995940923690796
","x: 227.46517944335938
y: 241.65069580078125
z: -0.13803336024284363
visibility: 0.9995312690734863
","x: 241.52288818359375
y: 245.90147399902344
z: -0.07234472036361694
visibility: 0.9997622966766357
","x: 225.7146453857422
y: 245.81118774414062
z: -0.03186695650219917
visibility: 0.999178409576416
","x: 235.1177978515625
y: 255.06361389160156
z: -0.1286674439907074
visibility: 0.9998676776885986
","x: 230.01266479492188
y: 255.53500366210938
z: -0.11737293004989624
visibility: 0.9997979998588562
","x: 251.1910400390625
y: 280.6451110839844
z: -0.11179448664188385
visibility: 0.9998646378517151
","x: 212.53372192382812
y: 283.2058410644531
z: 0.04654945433139801
visibility: 0.9995799660682678
","x: 235.29136657714844
y: 302.4660949707031
z: -0.2443099468946457
visibility: 0.989831268787384
","x: 191.03883361816406
y: 283.6288757324219
z: 0.0212290957570076
visibility: 0.8257004618644714
","x: 198.53297424316406
y: 292.7723388671875
z: -0.3788357079029083
visibility: 0.9733114838600159
","x: 159.74539184570312
y: 270.76776123046875
z: -0.11577322334051132
visibility: 0.8252084255218506
","x: 186.2102813720703
y: 295.16729736328125
z: -0.4242047369480133
visibility: 0.9453635811805725
","x: 150.29150390625
y: 271.8382873535156
z: -0.15310950577259064
visibility: 0.8021393418312073
","x: 184.39602661132812
y: 293.73480224609375
z: -0.421171098947525
visibility: 0.9471395015716553
","x: 150.37779235839844
y: 270.50103759765625
z: -0.17534469068050385
visibility: 0.8070905208587646
","x: 186.75779724121094
y: 293.11761474609375
z: -0.38088899850845337
visibility: 0.9268015027046204
","x: 153.27789306640625
y: 272.2061767578125
z: -0.132571280002594
visibility: 0.7968093752861023
","x: 245.49440002441406
y: 398.2286071777344
z: -0.02858555316925049
visibility: 0.9998720288276672
","x: 221.21726989746094
y: 400.31805419921875
z: 0.028251389041543007
visibility: 0.9998347759246826
","x: 253.21194458007812
y: 489.0567321777344
z: -0.07645637542009354
visibility: 0.998166024684906
","x: 221.8564910888672
y: 492.32958984375
z: -0.02664830908179283
visibility: 0.9976011514663696
","x: 266.7965087890625
y: 557.3511352539062
z: 0.11765390634536743
visibility: 0.9973227977752686
","x: 243.1505584716797
y: 535.4576416015625
z: 0.23971883952617645
visibility: 0.9928691983222961
","x: 266.8529968261719
y: 565.8555908203125
z: 0.13243739306926727
visibility: 0.9049471020698547
","x: 249.0039520263672
y: 539.1454467773438
z: 0.26460570096969604
visibility: 0.9180945158004761
","x: 268.30950927734375
y: 585.7854614257812
z: 0.02088106982409954
visibility: 0.9933520555496216
","x: 239.18594360351562
y: 566.853515625
z: 0.2016308307647705
visibility: 0.9875485897064209
",,,,,,,,,,,,,,,,,,,,,,,,,,,,,,,,,,,,,,,,,,
19,"x: 227.6304931640625
y: 246.01593017578125
z: -0.25261732935905457
visibility: 0.9998719096183777
","x: 230.2512664794922
y: 240.3459930419922
z: -0.23073247075080872
visibility: 0.9997499585151672
","x: 232.0768280029297
y: 240.6910858154297
z: -0.23073390126228333
visibility: 0.9997456073760986
","x: 233.9678955078125
y: 241.077392578125
z: -0.23083022236824036
visibility: 0.9997538328170776
","x: 225.8484344482422
y: 239.57855224609375
z: -0.23356609046459198
visibility: 0.9995923042297363
","x: 224.55050659179688
y: 239.4754180908203
z: -0.23352551460266113
visibility: 0.999424159526825
","x: 223.1788787841797
y: 239.33236694335938
z: -0.2335561215877533
visibility: 0.9993738532066345
","x: 238.0547637939453
y: 246.02703857421875
z: -0.09112988412380219
visibility: 0.9997370839118958
","x: 221.68141174316406
y: 244.2169952392578
z: -0.12062473595142365
visibility: 0.9991346597671509
","x: 230.7709503173828
y: 254.13323974609375
z: -0.20540526509284973
visibility: 0.9998652338981628
","x: 225.45286560058594
y: 253.91165161132812
z: -0.21052269637584686
visibility: 0.9997899532318115
","x: 249.6810760498047
y: 282.5199279785156
z: -0.09875968843698502
visibility: 0.9998718500137329
","x: 209.45448303222656
y: 275.64556884765625
z: -0.07086852192878723
visibility: 0.9995877742767334
","x: 247.56375122070312
y: 334.5626220703125
z: -0.2281462848186493
visibility: 0.9905818104743958
","x: 193.30178833007812
y: 220.17498779296875
z: -0.11530707776546478
visibility: 0.8430374264717102
","x: 219.74728393554688
y: 313.87750244140625
z: -0.4076927602291107
visibility: 0.9747648239135742
","x: 220.0275421142578
y: 202.23379516601562
z: -0.0661383643746376
visibility: 0.8392571806907654
","x: 216.5044403076172
y: 307.7746276855469
z: -0.4500000476837158
visibility: 0.947090744972229
","x: 227.68002319335938
y: 200.4311981201172
z: -0.0846366360783577
visibility: 0.8034223914146423
","x: 215.1836700439453
y: 294.30267333984375
z: -0.43196311593055725
visibility: 0.9484726786613464
","x: 228.76657104492188
y: 200.89334106445312
z: -0.06702134758234024
visibility: 0.8052409291267395
","x: 215.64048767089844
y: 294.8760681152344
z: -0.4037092328071594
visibility: 0.9274539947509766
","x: 226.8135223388672
y: 203.264404296875
z: -0.062157630920410156
visibility: 0.7955790162086487
","x: 243.0262451171875
y: 395.36785888671875
z: -0.019491856917738914
visibility: 0.9998509287834167
","x: 217.575439453125
y: 396.8687438964844
z: 0.019435402005910873
visibility: 0.9998011589050293
","x: 236.0724639892578
y: 476.637451171875
z: -0.07346201688051224
visibility: 0.9944982528686523
","x: 224.49969482421875
y: 484.8057861328125
z: 0.018823903053998947
visibility: 0.9928222894668579
","x: 242.20962524414062
y: 546.489990234375
z: 0.06988470256328583
visibility: 0.9947783946990967
","x: 245.3112335205078
y: 537.0369873046875
z: 0.2672761082649231
visibility: 0.9854500889778137
","x: 239.46221923828125
y: 557.450927734375
z: 0.08008091896772385
visibility: 0.9017952084541321
","x: 250.7682647705078
y: 542.7855224609375
z: 0.2879987359046936
visibility: 0.9070080518722534
","x: 240.1168975830078
y: 575.4140014648438
z: -0.04730972647666931
visibility: 0.9909185171127319
","x: 245.381103515625
y: 567.035400390625
z: 0.1965281069278717
visibility: 0.9808861017227173
",,,,,,,,,,,,,,,,,,,,,,,,,,,,,,,,,,,,,,,,,,
20,"x: 222.4988555908203
y: 243.546630859375
z: -0.21278035640716553
visibility: 0.9998846054077148
","x: 224.75009155273438
y: 237.99354553222656
z: -0.18881194293498993
visibility: 0.9997748136520386
","x: 226.42567443847656
y: 238.69627380371094
z: -0.18878628313541412
visibility: 0.9997708797454834
","x: 228.16868591308594
y: 239.4180450439453
z: -0.18877515196800232
visibility: 0.9997783303260803
","x: 220.68580627441406
y: 236.6861114501953
z: -0.18438008427619934
visibility: 0.9996327757835388
","x: 219.531005859375
y: 236.5311279296875
z: -0.18445047736167908
visibility: 0.9994813203811646
","x: 218.11619567871094
y: 236.3240203857422
z: -0.18440541625022888
visibility: 0.99943608045578
","x: 231.65463256835938
y: 244.9788055419922
z: -0.05917869135737419
visibility: 0.9997632503509521
","x: 215.73394775390625
y: 241.4140625
z: -0.04277084395289421
visibility: 0.9992207288742065
","x: 225.02658081054688
y: 252.6847686767578
z: -0.16581526398658752
visibility: 0.9998786449432373
","x: 219.98516845703125
y: 252.02197265625
z: -0.16164790093898773
visibility: 0.9998106360435486
","x: 242.24703979492188
y: 284.2127685546875
z: -0.010197391733527184
visibility: 0.999884307384491
","x: 201.41871643066406
y: 274.69683837890625
z: 0.005359525792300701
visibility: 0.9996200799942017
","x: 248.83523559570312
y: 340.6829833984375
z: 0.0013798859436064959
visibility: 0.990949273109436
","x: 180.43780517578125
y: 233.10031127929688
z: -0.18065330386161804
visibility: 0.8584559559822083
","x: 261.22015380859375
y: 363.7510986328125
z: -0.03647983446717262
visibility: 0.9760504961013794
","x: 205.03518676757812
y: 220.2867889404297
z: -0.3845447897911072
visibility: 0.8530501127243042
","x: 267.4553527832031
y: 372.24774169921875
z: -0.0470932200551033
visibility: 0.9497426152229309
","x: 210.4156036376953
y: 218.10037231445312
z: -0.43720826506614685
visibility: 0.8139597773551941
","x: 267.3511962890625
y: 369.92376708984375
z: -0.07567617297172546
visibility: 0.9511397480964661
","x: 211.638916015625
y: 222.3971405029297
z: -0.40658432245254517
visibility: 0.8145639896392822
","x: 265.0714416503906
y: 366.85040283203125
z: -0.04860790818929672
visibility: 0.931406557559967
","x: 209.92111206054688
y: 224.5232391357422
z: -0.38360244035720825
visibility: 0.8050175309181213
","x: 230.99819946289062
y: 396.51806640625
z: -0.03422877565026283
visibility: 0.9998638033866882
","x: 208.2821502685547
y: 397.1458435058594
z: 0.03415419161319733
visibility: 0.9998131394386292
","x: 217.45437622070312
y: 478.62158203125
z: -0.16648106276988983
visibility: 0.9944081902503967
","x: 213.09983825683594
y: 488.18829345703125
z: 0.010488754138350487
visibility: 0.9906209707260132
","x: 206.86553955078125
y: 556.0875244140625
z: -0.04327882081270218
visibility: 0.9951180815696716
","x: 238.09005737304688
y: 533.5388793945312
z: 0.25509506464004517
visibility: 0.9847414493560791
","x: 204.6569366455078
y: 567.5878295898438
z: -0.03761505335569382
visibility: 0.9089657664299011
","x: 246.23997497558594
y: 534.209716796875
z: 0.2767474055290222
visibility: 0.9143012762069702
","x: 205.0386199951172
y: 584.7183837890625
z: -0.17214088141918182
visibility: 0.9914472103118896
","x: 239.44480895996094
y: 567.406005859375
z: 0.20035600662231445
visibility: 0.9811304807662964
",,,,,,,,,,,,,,,,,,,,,,,,,,,,,,,,,,,,,,,,,,
21,"x: 211.94522094726562
y: 240.8405303955078
z: -0.2507602274417877
visibility: 0.9998934864997864
","x: 213.97027587890625
y: 235.227783203125
z: -0.2294478863477707
visibility: 0.999791145324707
","x: 215.4912872314453
y: 235.68826293945312
z: -0.2294171154499054
visibility: 0.999788224697113
","x: 216.9066162109375
y: 236.19712829589844
z: -0.22942447662353516
visibility: 0.9997950792312622
","x: 209.4723358154297
y: 235.0007781982422
z: -0.22888830304145813
visibility: 0.9996607899665833
","x: 207.8546600341797
y: 235.32273864746094
z: -0.22894123196601868
visibility: 0.9995253086090088
","x: 206.26742553710938
y: 235.61932373046875
z: -0.22897091507911682
visibility: 0.999483585357666
","x: 219.71429443359375
y: 242.37368774414062
z: -0.09940274804830551
visibility: 0.9997804164886475
","x: 204.4332275390625
y: 241.2482452392578
z: -0.10965800285339355
visibility: 0.9992709755897522
","x: 215.05538940429688
y: 250.3208770751953
z: -0.20650462806224823
visibility: 0.9998878836631775
","x: 208.86607360839844
y: 250.57147216796875
z: -0.20694899559020996
visibility: 0.9998186230659485
","x: 233.30149841308594
y: 287.1772155761719
z: -0.05674448609352112
visibility: 0.9998925924301147
","x: 190.48681640625
y: 275.2286376953125
z: -0.04359036311507225
visibility: 0.9995659589767456
","x: 238.93231201171875
y: 351.23828125
z: -0.018455035984516144
visibility: 0.990342915058136
","x: 178.44081115722656
y: 324.5223388671875
z: -0.1897803246974945
visibility: 0.8641790151596069
","x: 258.3066711425781
y: 399.4483642578125
z: -0.06560153514146805
visibility: 0.9755312204360962
","x: 202.83157348632812
y: 297.9196472167969
z: -0.4616948962211609
visibility: 0.861981213092804
","x: 253.80503845214844
y: 415.6873779296875
z: -0.07575301826000214
visibility: 0.9487338066101074
","x: 196.83338928222656
y: 290.462158203125
z: -0.5094252824783325
visibility: 0.8230727910995483
","x: 254.3777313232422
y: 415.6798095703125
z: -0.10313085466623306
visibility: 0.9503272771835327
","x: 196.67636108398438
y: 283.7395935058594
z: -0.5139204263687134
visibility: 0.8232024908065796
","x: 258.5142822265625
y: 411.1233825683594
z: -0.07525325566530228
visibility: 0.9309796094894409
","x: 196.41171264648438
y: 288.17822265625
z: -0.4705914855003357
visibility: 0.811455249786377
","x: 222.2651824951172
y: 397.00787353515625
z: -0.03351658955216408
visibility: 0.9998732209205627
","x: 197.47486877441406
y: 397.4217224121094
z: 0.03349095582962036
visibility: 0.9998166561126709
","x: 205.11822509765625
y: 480.4300231933594
z: -0.11548726260662079
visibility: 0.9941444993019104
","x: 180.49636840820312
y: 487.93902587890625
z: 0.007663112133741379
visibility: 0.9884670972824097
","x: 200.9705810546875
y: 560.0537109375
z: 0.05181723088026047
visibility: 0.9940828084945679
","x: 191.52890014648438
y: 533.5901489257812
z: 0.3169838488101959
visibility: 0.9742792844772339
","x: 200.66954040527344
y: 570.34326171875
z: 0.062186650931835175
visibility: 0.8961117267608643
","x: 198.77330017089844
y: 538.03076171875
z: 0.3441641926765442
visibility: 0.8912662267684937
","x: 199.3333282470703
y: 585.7677612304688
z: -0.0687340646982193
visibility: 0.9901856184005737
","x: 180.5824432373047
y: 563.7113037109375
z: 0.2685544788837433
visibility: 0.9730802178382874
",,,,,,,,,,,,,,,,,,,,,,,,,,,,,,,,,,,,,,,,,,
22,"x: 201.9005889892578
y: 240.69577026367188
z: -0.37193194031715393
visibility: 0.999903678894043
","x: 203.98513793945312
y: 234.42718505859375
z: -0.3541650176048279
visibility: 0.9998104572296143
","x: 205.51730346679688
y: 234.8176727294922
z: -0.3541240096092224
visibility: 0.9998078942298889
","x: 207.0153045654297
y: 235.29147338867188
z: -0.35412123799324036
visibility: 0.9998140335083008
","x: 199.0977020263672
y: 234.5113525390625
z: -0.3601347506046295
visibility: 0.9996930360794067
","x: 197.2797393798828
y: 234.91143798828125
z: -0.3602069616317749
visibility: 0.9995715022087097
","x: 195.74520874023438
y: 235.28314208984375
z: -0.3602074980735779
visibility: 0.9995338320732117
","x: 208.77613830566406
y: 240.90843200683594
z: -0.2265959084033966
visibility: 0.999797523021698
","x: 193.92208862304688
y: 240.9310302734375
z: -0.2548193335533142
visibility: 0.9993412494659424
","x: 205.099609375
y: 250.1473846435547
z: -0.32285064458847046
visibility: 0.9998984336853027
","x: 198.43173217773438
y: 250.48220825195312
z: -0.330813467502594
visibility: 0.9998358488082886
","x: 224.04885864257812
y: 287.31683349609375
z: -0.10581020265817642
visibility: 0.999902606010437
","x: 179.44654846191406
y: 285.7867736816406
z: -0.17458781599998474
visibility: 0.9996066689491272
","x: 231.33782958984375
y: 347.1268310546875
z: -0.028155028820037842
visibility: 0.989550769329071
","x: 175.43246459960938
y: 350.2760009765625
z: -0.1410810947418213
visibility: 0.8766942620277405
","x: 236.99737548828125
y: 391.65911865234375
z: -0.1102767214179039
visibility: 0.9742534756660461
","x: 183.14450073242188
y: 398.48748779296875
z: -0.23403826355934143
visibility: 0.870982825756073
","x: 238.81039428710938
y: 406.8387451171875
z: -0.13268885016441345
visibility: 0.9457804560661316
","x: 181.08006286621094
y: 414.80859375
z: -0.2660735249519348
visibility: 0.8308907151222229
","x: 237.42373657226562
y: 405.3880615234375
z: -0.16983993351459503
visibility: 0.9481372237205505
","x: 183.49844360351562
y: 414.605712890625
z: -0.3100042939186096
visibility: 0.8315421342849731
","x: 236.17169189453125
y: 401.0169677734375
z: -0.1266673505306244
visibility: 0.9294115900993347
","x: 184.662353515625
y: 409.3127746582031
z: -0.2498338222503662
visibility: 0.8191274404525757
","x: 215.3540496826172
y: 397.564453125
z: 0.010216595605015755
visibility: 0.9998806715011597
","x: 190.0529022216797
y: 397.884521484375
z: -0.01037015113979578
visibility: 0.999824583530426
","x: 203.23033142089844
y: 483.8833312988281
z: -0.0028809078503400087
visibility: 0.9940004348754883
","x: 176.21954345703125
y: 488.0366516113281
z: -0.06155332922935486
visibility: 0.9890657067298889
","x: 200.73272705078125
y: 563.6951904296875
z: 0.1923254430294037
visibility: 0.9939672946929932
","x: 146.46731567382812
y: 532.5661010742188
z: 0.1922217160463333
visibility: 0.9748041033744812
","x: 199.34413146972656
y: 573.0437622070312
z: 0.20448198914527893
visibility: 0.8907025456428528
","x: 141.22430419921875
y: 535.552001953125
z: 0.21228885650634766
visibility: 0.8750598430633545
","x: 201.670166015625
y: 588.4461059570312
z: 0.07691109925508499
visibility: 0.9898109436035156
","x: 148.60836791992188
y: 564.4758911132812
z: 0.1063101664185524
visibility: 0.9732294678688049
",,,,,,,,,,,,,,,,,,,,,,,,,,,,,,,,,,,,,,,,,,
23,"x: 193.88369750976562
y: 237.4910125732422
z: -0.27626919746398926
visibility: 0.999913215637207
","x: 196.36734008789062
y: 230.8480682373047
z: -0.251239538192749
visibility: 0.9998289942741394
","x: 197.84815979003906
y: 231.2725067138672
z: -0.2512471079826355
visibility: 0.9998267292976379
","x: 199.3413543701172
y: 231.7564239501953
z: -0.2512461543083191
visibility: 0.9998322129249573
","x: 191.71209716796875
y: 230.5793914794922
z: -0.2552563548088074
visibility: 0.9997231364250183
","x: 189.8513641357422
y: 230.90040588378906
z: -0.2550922632217407
visibility: 0.9996136426925659
","x: 188.06861877441406
y: 231.3369598388672
z: -0.25506022572517395
visibility: 0.9995796084403992
","x: 201.7954559326172
y: 237.42648315429688
z: -0.11565810441970825
visibility: 0.9998167157173157
","x: 185.93565368652344
y: 236.84603881835938
z: -0.1259949505329132
visibility: 0.9994063973426819
","x: 196.95314025878906
y: 247.5926513671875
z: -0.22218629717826843
visibility: 0.999908447265625
","x: 190.55731201171875
y: 248.1695556640625
z: -0.22689667344093323
visibility: 0.9998520612716675
","x: 214.93008422851562
y: 283.9267272949219
z: -0.0343736857175827
visibility: 0.9999121427536011
","x: 171.38841247558594
y: 282.5018005371094
z: -0.01908678188920021
visibility: 0.9996445178985596
","x: 229.73426818847656
y: 335.21917724609375
z: -0.0885639637708664
visibility: 0.9902429580688477
","x: 165.28985595703125
y: 338.2012939453125
z: 0.05010918527841568
visibility: 0.886009156703949
","x: 236.722900390625
y: 283.9156188964844
z: -0.3501274883747101
visibility: 0.9766782522201538
","x: 166.93374633789062
y: 386.8683166503906
z: -0.02603818103671074
visibility: 0.8808302879333496
","x: 238.92196655273438
y: 269.6074523925781
z: -0.3953893482685089
visibility: 0.9507368206977844
","x: 166.5138397216797
y: 404.6203308105469
z: -0.04156496748328209
visibility: 0.8411058783531189
","x: 237.55503845214844
y: 264.55712890625
z: -0.39964792132377625
visibility: 0.9528729319572449
","x: 168.2025146484375
y: 403.90179443359375
z: -0.0718165934085846
visibility: 0.841981053352356
","x: 236.12818908691406
y: 268.2085876464844
z: -0.3579651117324829
visibility: 0.935692310333252
","x: 169.19827270507812
y: 398.8555603027344
z: -0.038631461560726166
visibility: 0.8296315670013428
","x: 207.27294921875
y: 397.70208740234375
z: -0.0016063008224591613
visibility: 0.9998908042907715
","x: 181.74819946289062
y: 397.32061767578125
z: 0.0014559197006747127
visibility: 0.9998382925987244
","x: 204.6791534423828
y: 483.9419860839844
z: -0.037424713373184204
visibility: 0.9943061470985413
","x: 164.5080108642578
y: 479.536376953125
z: -0.0634988322854042
visibility: 0.9899539351463318
","x: 200.88882446289062
y: 562.7996826171875
z: 0.18263545632362366
visibility: 0.9941146373748779
","x: 160.49468994140625
y: 532.3779907226562
z: 0.2291325330734253
visibility: 0.9760050177574158
","x: 199.19369506835938
y: 572.350341796875
z: 0.19912032783031464
visibility: 0.8884021043777466
","x: 163.73910522460938
y: 536.8126220703125
z: 0.25586414337158203
visibility: 0.8744373917579651
","x: 202.88455200195312
y: 588.0992431640625
z: 0.0780133306980133
visibility: 0.9900752305984497
","x: 152.5872344970703
y: 564.5701904296875
z: 0.16931195557117462
visibility: 0.97434401512146
",,,,,,,,,,,,,,,,,,,,,,,,,,,,,,,,,,,,,,,,,,
24,"x: 185.74888610839844
y: 231.0904541015625
z: -0.18697534501552582
visibility: 0.9999212622642517
","x: 189.02120971679688
y: 225.60626220703125
z: -0.16635411977767944
visibility: 0.9998453855514526
","x: 190.85011291503906
y: 226.2920379638672
z: -0.1663544476032257
visibility: 0.9998430609703064
","x: 192.7592010498047
y: 227.073974609375
z: -0.16635006666183472
visibility: 0.9998480677604675
","x: 184.0616455078125
y: 224.6272430419922
z: -0.16428841650485992
visibility: 0.999750018119812
","x: 182.4190216064453
y: 224.70831298828125
z: -0.1642594188451767
visibility: 0.9996512532234192
","x: 180.84506225585938
y: 224.8783721923828
z: -0.1642327904701233
visibility: 0.999620795249939
","x: 194.66067504882812
y: 233.4036102294922
z: -0.062343526631593704
visibility: 0.9998341202735901
","x: 179.07872009277344
y: 230.52090454101562
z: -0.05191471427679062
visibility: 0.9994650483131409
","x: 188.36036682128906
y: 241.62774658203125
z: -0.14969304203987122
visibility: 0.9999163746833801
","x: 182.2986602783203
y: 240.1243896484375
z: -0.14691659808158875
visibility: 0.9998659491539001
","x: 203.1813507080078
y: 278.2041015625
z: -0.04463513195514679
visibility: 0.9998564720153809
","x: 162.7009735107422
y: 275.577880859375
z: -0.018397171050310135
visibility: 0.9996520280838013
","x: 210.57325744628906
y: 268.67388916015625
z: -0.3595596253871918
visibility: 0.9859721660614014
","x: 141.83035278320312
y: 271.7648620605469
z: -0.19430996477603912
visibility: 0.895667552947998
","x: 221.8269805908203
y: 224.259033203125
z: -0.6421909332275391
visibility: 0.97347491979599
","x: 121.45560455322266
y: 231.84979248046875
z: -0.3865964114665985
visibility: 0.8897141218185425
","x: 227.53628540039062
y: 210.69398498535156
z: -0.6999117732048035
visibility: 0.9486281871795654
","x: 110.90819549560547
y: 217.99501037597656
z: -0.43059420585632324
visibility: 0.8487650752067566
","x: 226.92562866210938
y: 208.47012329101562
z: -0.6941312551498413
visibility: 0.9504374861717224
","x: 112.64222717285156
y: 215.30767822265625
z: -0.4316271245479584
visibility: 0.8497561812400818
","x: 224.08505249023438
y: 213.685791015625
z: -0.6517454981803894
visibility: 0.9337900876998901
","x: 114.67626953125
y: 222.35940551757812
z: -0.39722394943237305
visibility: 0.8388835191726685
","x: 198.41189575195312
y: 390.097900390625
z: -0.01744586043059826
visibility: 0.9998964667320251
","x: 172.56898498535156
y: 392.0067138671875
z: 0.0172587838023901
visibility: 0.9998499751091003
","x: 199.92214965820312
y: 482.2860412597656
z: -0.04540146142244339
visibility: 0.9944883584976196
","x: 153.99046325683594
y: 473.7030029296875
z: -0.0486019104719162
visibility: 0.9906238913536072
","x: 201.5526123046875
y: 563.4575805664062
z: 0.10118009895086288
visibility: 0.9942670464515686
","x: 141.87924194335938
y: 545.3607788085938
z: 0.1050664559006691
visibility: 0.9781302809715271
","x: 200.91123962402344
y: 574.9175415039062
z: 0.10507512092590332
visibility: 0.8827424645423889
","x: 146.47625732421875
y: 556.5567626953125
z: 0.11029255390167236
visibility: 0.8824716210365295
","x: 203.23439025878906
y: 587.9357299804688
z: -0.03531905263662338
visibility: 0.9901478290557861
","x: 128.57968139648438
y: 577.5444946289062
z: -0.013488700613379478
visibility: 0.9763668179512024
",,,,,,,,,,,,,,,,,,,,,,,,,,,,,,,,,,,,,,,,,,
25,"x: 173.9940185546875
y: 230.457763671875
z: -0.16670916974544525
visibility: 0.9999246001243591
","x: 178.1646270751953
y: 224.4119110107422
z: -0.15200072526931763
visibility: 0.9998562932014465
","x: 179.98643493652344
y: 224.800048828125
z: -0.1520640254020691
visibility: 0.9998531937599182
","x: 181.92877197265625
y: 225.26853942871094
z: -0.15207676589488983
visibility: 0.9998583197593689
","x: 173.95083618164062
y: 223.87367248535156
z: -0.14187400043010712
visibility: 0.9997685551643372
","x: 172.6578369140625
y: 223.97698974609375
z: -0.14184144139289856
visibility: 0.9996764659881592
","x: 171.35084533691406
y: 224.13751220703125
z: -0.14183731377124786
visibility: 0.9996501207351685
","x: 186.28810119628906
y: 231.49432373046875
z: -0.06327664852142334
visibility: 0.9998406767845154
","x: 172.05120849609375
y: 229.34523010253906
z: -0.01775740459561348
visibility: 0.9994999766349792
","x: 177.2915802001953
y: 240.44007873535156
z: -0.1348300278186798
visibility: 0.9999104738235474
","x: 171.6759033203125
y: 238.91146850585938
z: -0.12203490734100342
visibility: 0.9998670220375061
","x: 192.7705078125
y: 274.0108337402344
z: -0.053076766431331635
visibility: 0.9996230006217957
","x: 158.51805114746094
y: 274.2604675292969
z: 0.05580737069249153
visibility: 0.9995279908180237
","x: 187.02760314941406
y: 283.63800048828125
z: -0.32024699449539185
visibility: 0.9824620485305786
","x: 141.3182373046875
y: 268.7521667480469
z: -0.00020382701768539846
visibility: 0.8892215490341187
","x: 181.08523559570312
y: 241.2679443359375
z: -0.5588104724884033
visibility: 0.9730449318885803
","x: 118.34355926513672
y: 252.7242889404297
z: -0.14245091378688812
visibility: 0.884925365447998
","x: 183.09588623046875
y: 238.122802734375
z: -0.6106327772140503
visibility: 0.9495144486427307
","x: 109.87041473388672
y: 239.82115173339844
z: -0.17038191854953766
visibility: 0.8385787606239319
","x: 184.7479248046875
y: 236.5935516357422
z: -0.6080651879310608
visibility: 0.9509080648422241
","x: 113.88536071777344
y: 245.14599609375
z: -0.18392221629619598
visibility: 0.8405656814575195
","x: 184.4412841796875
y: 240.58697509765625
z: -0.5651631951332092
visibility: 0.9332398772239685
","x: 116.29839324951172
y: 249.09463500976562
z: -0.15460559725761414
visibility: 0.8302295207977295
","x: 185.12384033203125
y: 390.5236511230469
z: -0.026535889133810997
visibility: 0.9998951554298401
","x: 160.27491760253906
y: 392.0364685058594
z: 0.02633533999323845
visibility: 0.9998547434806824
","x: 190.25279235839844
y: 482.2864990234375
z: -0.011682230047881603
visibility: 0.9947775602340698
","x: 143.38648986816406
y: 474.1791076660156
z: -0.007213527802377939
visibility: 0.991435706615448
","x: 200.98329162597656
y: 563.0010375976562
z: 0.1304498016834259
visibility: 0.9946019053459167
","x: 127.89746856689453
y: 562.0252685546875
z: 0.10060723125934601
visibility: 0.9801977872848511
","x: 200.52369689941406
y: 574.1729125976562
z: 0.13590778410434723
visibility: 0.8839224576950073
","x: 130.59405517578125
y: 573.6580810546875
z: 0.10267436504364014
visibility: 0.8900777101516724
","x: 203.1774444580078
y: 588.1317749023438
z: 0.007181271910667419
visibility: 0.9905853271484375
","x: 120.73090362548828
y: 588.7178955078125
z: -0.027848239988088608
visibility: 0.9783785939216614
",,,,,,,,,,,,,,,,,,,,,,,,,,,,,,,,,,,,,,,,,,
26,"x: 169.20082092285156
y: 232.85260009765625
z: -0.1472586989402771
visibility: 0.9999271035194397
","x: 172.8500213623047
y: 226.41482543945312
z: -0.1322622448205948
visibility: 0.9998629689216614
","x: 174.88465881347656
y: 226.6958770751953
z: -0.13232670724391937
visibility: 0.9998599290847778
","x: 176.88748168945312
y: 227.05453491210938
z: -0.13231036067008972
visibility: 0.9998648762702942
","x: 168.1804962158203
y: 226.09591674804688
z: -0.12119623273611069
visibility: 0.9997808933258057
","x: 166.7583770751953
y: 226.2342529296875
z: -0.12117906659841537
visibility: 0.9996945858001709
","x: 165.31854248046875
y: 226.42637634277344
z: -0.12116052955389023
visibility: 0.999669075012207
","x: 180.3563232421875
y: 232.181884765625
z: -0.04654938727617264
visibility: 0.9998489618301392
","x: 165.3445281982422
y: 231.54966735839844
z: 0.005595679394900799
visibility: 0.9995132684707642
","x: 172.59695434570312
y: 241.7669677734375
z: -0.11593423783779144
visibility: 0.9999095797538757
","x: 166.10694885253906
y: 241.22650146484375
z: -0.10119068622589111
visibility: 0.9998582005500793
","x: 187.9933624267578
y: 268.3717041015625
z: -0.06200117990374565
visibility: 0.9996535181999207
","x: 154.22604370117188
y: 274.1165771484375
z: 0.08513999730348587
visibility: 0.9995049834251404
","x: 181.99710083007812
y: 267.2973937988281
z: -0.2928939461708069
visibility: 0.9839909076690674
","x: 136.16082763671875
y: 276.0301513671875
z: 0.027705540880560875
visibility: 0.882570743560791
","x: 150.94883728027344
y: 254.544189453125
z: -0.46227163076400757
visibility: 0.9756085872650146
","x: 113.91515350341797
y: 264.96337890625
z: -0.16015712916851044
visibility: 0.8898025155067444
","x: 140.7742156982422
y: 255.5277099609375
z: -0.5129727125167847
visibility: 0.9541319012641907
","x: 101.5592041015625
y: 265.69281005859375
z: -0.1974799782037735
visibility: 0.8452533483505249
","x: 138.84884643554688
y: 253.9604949951172
z: -0.5017440319061279
visibility: 0.9553470611572266
","x: 107.20075988769531
y: 262.56640625
z: -0.21733126044273376
visibility: 0.8476753234863281
","x: 140.93820190429688
y: 254.7872772216797
z: -0.461444228887558
visibility: 0.9389983415603638
","x: 110.32981872558594
y: 266.54571533203125
z: -0.17552019655704498
visibility: 0.8367655873298645
","x: 179.20643615722656
y: 389.95184326171875
z: -0.027070511132478714
visibility: 0.9999009966850281
","x: 154.78677368164062
y: 389.5205993652344
z: 0.026863548904657364
visibility: 0.9998635649681091
","x: 186.7652587890625
y: 482.32037353515625
z: -0.0060816495679318905
visibility: 0.9951962232589722
","x: 138.83619689941406
y: 475.89801025390625
z: -0.006370126269757748
visibility: 0.9922190308570862
","x: 199.13226318359375
y: 562.6422119140625
z: 0.13866817951202393
visibility: 0.994992733001709
","x: 126.51280212402344
y: 563.3750610351562
z: 0.08573763817548752
visibility: 0.9820747375488281
","x: 198.34945678710938
y: 573.5332641601562
z: 0.14537999033927917
visibility: 0.8886244297027588
","x: 129.1008758544922
y: 575.0409545898438
z: 0.08760212361812592
visibility: 0.8960286974906921
","x: 202.85194396972656
y: 588.3936767578125
z: 0.01391340047121048
visibility: 0.991191029548645
","x: 121.09860229492188
y: 590.7970581054688
z: -0.04258936643600464
visibility: 0.9802517294883728
",,,,,,,,,,,,,,,,,,,,,,,,,,,,,,,,,,,,,,,,,,
27,"x: 173.89561462402344
y: 230.3842010498047
z: -0.13726064562797546
visibility: 0.9999324679374695
","x: 176.59503173828125
y: 223.7978515625
z: -0.12118419259786606
visibility: 0.9998721480369568
","x: 178.2480010986328
y: 223.89483642578125
z: -0.12122072279453278
visibility: 0.999869704246521
","x: 179.80197143554688
y: 224.0740966796875
z: -0.12118333578109741
visibility: 0.9998740553855896
","x: 171.90216064453125
y: 224.35321044921875
z: -0.11175225675106049
visibility: 0.9997982978820801
","x: 170.47178649902344
y: 224.78829956054688
z: -0.111716128885746
visibility: 0.9997196197509766
","x: 169.16290283203125
y: 225.20303344726562
z: -0.11173117160797119
visibility: 0.9996963739395142
","x: 182.49465942382812
y: 228.34848022460938
z: -0.03039768896996975
visibility: 0.9998567700386047
","x: 168.4622039794922
y: 230.1029815673828
z: 0.016623659059405327
visibility: 0.9995551705360413
","x: 177.7681427001953
y: 237.8819122314453
z: -0.10333031415939331
visibility: 0.9999122619628906
","x: 170.92453002929688
y: 238.45948791503906
z: -0.09012235701084137
visibility: 0.9998660087585449
","x: 195.19337463378906
y: 264.58746337890625
z: -0.03797020763158798
visibility: 0.9996799230575562
","x: 158.43128967285156
y: 275.3797607421875
z: 0.09622230380773544
visibility: 0.9995449185371399
","x: 189.26539611816406
y: 269.773193359375
z: -0.2535487115383148
visibility: 0.9848242402076721
","x: 146.15902709960938
y: 319.6382751464844
z: 0.1435752511024475
visibility: 0.8833878636360168
","x: 166.17291259765625
y: 239.0847930908203
z: -0.47963422536849976
visibility: 0.9774743318557739
","x: 133.1861114501953
y: 364.7222595214844
z: 0.08510049432516098
visibility: 0.8864337801933289
","x: 159.86512756347656
y: 232.90773010253906
z: -0.5327423810958862
visibility: 0.9573725461959839
","x: 142.58340454101562
y: 384.5415954589844
z: 0.06794245541095734
visibility: 0.8366082310676575
","x: 159.67398071289062
y: 228.44252014160156
z: -0.5241389870643616
visibility: 0.9583351016044617
","x: 146.26461791992188
y: 384.46405029296875
z: 0.04417044669389725
visibility: 0.83903968334198
","x: 161.8959197998047
y: 230.92794799804688
z: -0.482128381729126
visibility: 0.942326009273529
","x: 145.9971923828125
y: 376.6674499511719
z: 0.07430268824100494
visibility: 0.8251189589500427
","x: 186.54150390625
y: 389.967041015625
z: -0.026348164305090904
visibility: 0.9999062418937683
","x: 161.41693115234375
y: 388.6737365722656
z: 0.02618004009127617
visibility: 0.9998713731765747
","x: 193.0810546875
y: 482.1611022949219
z: -0.03953398019075394
visibility: 0.9955283403396606
","x: 145.7932586669922
y: 476.2860107421875
z: -0.006142668891698122
visibility: 0.9929407835006714
","x: 200.16802978515625
y: 563.103759765625
z: 0.0845239982008934
visibility: 0.9953194856643677
","x: 127.78912353515625
y: 561.3814697265625
z: 0.1031150370836258
visibility: 0.9837697148323059
","x: 198.42068481445312
y: 575.0357666015625
z: 0.0900099128484726
visibility: 0.8926896452903748
","x: 129.74166870117188
y: 572.8560791015625
z: 0.10629226267337799
visibility: 0.9022639989852905
","x: 204.7052764892578
y: 588.4029541015625
z: -0.05697665736079216
visibility: 0.9916988015174866
","x: 121.26470184326172
y: 590.292236328125
z: -0.027834167703986168
visibility: 0.9819419384002686
",,,,,,,,,,,,,,,,,,,,,,,,,,,,,,,,,,,,,,,,,,
28,"x: 181.3278350830078
y: 231.20916748046875
z: -0.294449120759964
visibility: 0.9999333024024963
","x: 183.7272491455078
y: 225.19204711914062
z: -0.2782741189002991
visibility: 0.9998650550842285
","x: 185.322265625
y: 225.38522338867188
z: -0.27830570936203003
visibility: 0.999860405921936
","x: 187.01181030273438
y: 225.61251831054688
z: -0.2782713770866394
visibility: 0.9998591542243958
","x: 179.35342407226562
y: 225.26153564453125
z: -0.27519044280052185
visibility: 0.9998020529747009
","x: 177.84727478027344
y: 225.39697265625
z: -0.2752137780189514
visibility: 0.9997315406799316
","x: 176.31787109375
y: 225.39102172851562
z: -0.27525320649147034
visibility: 0.9997135400772095
","x: 190.17384338378906
y: 230.04183959960938
z: -0.1643269956111908
visibility: 0.9998010396957397
","x: 174.83360290527344
y: 230.1703643798828
z: -0.1472700536251068
visibility: 0.999569833278656
","x: 184.56468200683594
y: 238.9043426513672
z: -0.2501790225505829
visibility: 0.9998972415924072
","x: 178.80099487304688
y: 239.27642822265625
z: -0.2452276051044464
visibility: 0.9998642206192017
","x: 202.05093383789062
y: 267.83380126953125
z: -0.09643080830574036
visibility: 0.9996691346168518
","x: 163.34442138671875
y: 282.7132873535156
z: -0.03320248797535896
visibility: 0.9995817542076111
","x: 197.01068115234375
y: 312.067138671875
z: -0.13575273752212524
visibility: 0.9590672254562378
","x: 151.26268005371094
y: 333.55206298828125
z: 0.03670355677604675
visibility: 0.8921645283699036
","x: 186.47830200195312
y: 365.56695556640625
z: -0.31033411622047424
visibility: 0.9450456500053406
","x: 143.20994567871094
y: 378.89111328125
z: -0.05945172160863876
visibility: 0.8940238356590271
","x: 184.7947540283203
y: 379.6253967285156
z: -0.3529576361179352
visibility: 0.9225050806999207
","x: 150.19207763671875
y: 393.39398193359375
z: -0.08703441172838211
visibility: 0.8458698391914368
","x: 183.68328857421875
y: 380.3367919921875
z: -0.3807428479194641
visibility: 0.9238213300704956
","x: 153.3878631591797
y: 392.810546875
z: -0.11559821665287018
visibility: 0.8484986424446106
","x: 183.41697692871094
y: 375.0535888671875
z: -0.32576242089271545
visibility: 0.9029328227043152
","x: 153.8238525390625
y: 387.8726501464844
z: -0.07259856164455414
visibility: 0.8345088958740234
","x: 194.86282348632812
y: 393.2983703613281
z: -0.021858306601643562
visibility: 0.9998595118522644
","x: 170.13748168945312
y: 391.261962890625
z: 0.021767454221844673
