uscmakers/ReverseChoreography/data/4_good_4_u_olivia_rodrigo.csv
,NOSE,LEFT_EYE_INNER,LEFT_EYE,LEFT_EYE_OUTER,RIGHT_EYE_INNER,RIGHT_EYE,RIGHT_EYE_OUTER,LEFT_EAR,RIGHT_EAR,MOUTH_LEFT,MOUTH_RIGHT,LEFT_SHOULDER,RIGHT_SHOULDER,LEFT_ELBOW,RIGHT_ELBOW,LEFT_WRIST,RIGHT_WRIST,LEFT_PINKY,RIGHT_PINKY,LEFT_INDEX,RIGHT_INDEX,LEFT_THUMB,RIGHT_THUMB,LEFT_HIP,RIGHT_HIP,LEFT_KNEE,RIGHT_KNEE,LEFT_ANKLE,RIGHT_ANKLE,LEFT_HEEL,RIGHT_HEEL,LEFT_FOOT_INDEX,RIGHT_FOOT_INDEX,WRIST2,THUMB_CPC2,THUMB_MCP2,THUMB_IP2,THUMB_TIP2,INDEX_FINGER_MCP2,INDEX_FINGER_PIP2,INDEX_FINGER_DIP2,INDEX_FINGER_TIP2,MIDDLE_FINGER_MCP2,MIDDLE_FINGER_PIP2,MIDDLE_FINGER_DIP2,MIDDLE_FINGER_TIP2,RING_FINGER_PIP2,RING_FINGER_DIP2,RING_FINGER_TIP2,RING_FINGER_MCP2,PINKY_MCP2,PINKY_PIP2,PINKY_DIP2,PINKY_TIP2,WRIST,THUMB_CPC,THUMB_MCP,THUMB_IP,THUMB_TIP,INDEX_FINGER_MCP,INDEX_FINGER_PIP,INDEX_FINGER_DIP,INDEX_FINGER_TIP,MIDDLE_FINGER_MCP,MIDDLE_FINGER_PIP,MIDDLE_FINGER_DIP,MIDDLE_FINGER_TIP,RING_FINGER_PIP,RING_FINGER_DIP,RING_FINGER_TIP,RING_FINGER_MCP,PINKY_MCP,PINKY_PIP,PINKY_DIP,PINKY_TIP
0,"x: 211.76185607910156
y: 268.05078125
z: -0.2961813509464264
visibility: 0.998140811920166
","x: 211.7248077392578
y: 259.9912414550781
z: -0.2826625108718872
visibility: 0.994114100933075
","x: 212.30862426757812
y: 259.7510986328125
z: -0.2827008366584778
visibility: 0.9930556416511536
","x: 212.91259765625
y: 259.55731201171875
z: -0.28277304768562317
visibility: 0.9928892850875854
","x: 209.16741943359375
y: 260.29705810546875
z: -0.2884162962436676
visibility: 0.9969733953475952
","x: 207.81390380859375
y: 260.2547607421875
z: -0.28848546743392944
visibility: 0.9969651103019714
","x: 206.31234741210938
y: 260.25140380859375
z: -0.28856781125068665
visibility: 0.9974657297134399
","x: 212.1544647216797
y: 260.7336730957031
z: -0.1771942526102066
visibility: 0.9788722395896912
","x: 201.52899169921875
y: 262.1886901855469
z: -0.20115061104297638
visibility: 0.9972482323646545
","x: 213.01119995117188
y: 275.22723388671875
z: -0.25405922532081604
visibility: 0.9987027645111084
","x: 209.17185974121094
y: 274.521484375
z: -0.2610308825969696
visibility: 0.999030590057373
","x: 224.1778564453125
y: 305.31890869140625
z: -0.07867655903100967
visibility: 0.999618649482727
","x: 184.21116638183594
y: 297.1679382324219
z: -0.14330525696277618
visibility: 0.9999250173568726
","x: 232.3033447265625
y: 348.8984680175781
z: -0.02703188732266426
visibility: 0.7239211201667786
","x: 173.61183166503906
y: 344.584716796875
z: -0.11140414327383041
visibility: 0.9884350299835205
","x: 229.09169006347656
y: 368.8287353515625
z: -0.12442419677972794
visibility: 0.26381242275238037
","x: 174.019775390625
y: 388.25732421875
z: -0.17484964430332184
visibility: 0.8917014002799988
","x: 229.9981231689453
y: 377.86700439453125
z: -0.14774148166179657
visibility: 0.2084413319826126
","x: 173.4326171875
y: 401.42156982421875
z: -0.19879963994026184
visibility: 0.7909653186798096
","x: 226.4403076171875
y: 372.520751953125
z: -0.1736576408147812
visibility: 0.231692835688591
","x: 176.45547485351562
y: 401.60992431640625
z: -0.22428791224956512
visibility: 0.7999030947685242
","x: 226.2794189453125
y: 369.8787841796875
z: -0.13751506805419922
visibility: 0.21159332990646362
","x: 177.5556182861328
y: 397.9169006347656
z: -0.1852906048297882
visibility: 0.7541597485542297
","x: 212.9701690673828
y: 398.5271911621094
z: 0.01510735135525465
visibility: 0.9995805621147156
","x: 190.7504119873047
y: 397.599609375
z: -0.015077291056513786
visibility: 0.9993355870246887
","x: 208.93862915039062
y: 470.3006286621094
z: -0.0974910780787468
visibility: 0.9729194641113281
","x: 191.69375610351562
y: 478.7002868652344
z: -0.01566261798143387
visibility: 0.945838987827301
","x: 199.20533752441406
y: 551.380615234375
z: -0.020816100761294365
visibility: 0.9662212133407593
","x: 191.91615295410156
y: 527.6580810546875
z: 0.2363967001438141
visibility: 0.6697379946708679
","x: 196.6871795654297
y: 562.19970703125
z: -0.018590020015835762
visibility: 0.7956217527389526
","x: 194.19802856445312
y: 526.555419921875
z: 0.257632315158844
visibility: 0.35896778106689453
","x: 204.65231323242188
y: 571.9884033203125
z: -0.13907146453857422
visibility: 0.9550988078117371
","x: 191.05206298828125
y: 548.40966796875
z: 0.1758793592453003
visibility: 0.7304683923721313
",,,,,,,,,,,,,,,,,,,,,,,,,,,,,,,,,,,,,,,,,,
1,"x: 212.8790740966797
y: 266.6121826171875
z: -0.1575559675693512
visibility: 0.9982270002365112
","x: 212.9942626953125
y: 259.3536071777344
z: -0.1447794884443283
visibility: 0.9945501685142517
","x: 213.921630859375
y: 259.0326232910156
z: -0.14486365020275116
visibility: 0.9936140775680542
","x: 214.8590087890625
y: 258.7856140136719
z: -0.1448976695537567
visibility: 0.9934532046318054
","x: 209.92828369140625
y: 260.2657165527344
z: -0.1385801136493683
visibility: 0.9971480965614319
","x: 208.536376953125
y: 260.35113525390625
z: -0.13861306011676788
visibility: 0.9971178770065308
","x: 207.06924438476562
y: 260.7492370605469
z: -0.13864192366600037
visibility: 0.997549831867218
","x: 215.7821502685547
y: 260.7291564941406
z: -0.059780579060316086
visibility: 0.9809029698371887
","x: 204.30259704589844
y: 264.1214599609375
z: -0.029629966244101524
visibility: 0.9972513914108276
","x: 215.1380615234375
y: 273.00762939453125
z: -0.12424639612436295
visibility: 0.9986708760261536
","x: 210.57781982421875
y: 274.47515869140625
z: -0.11585137993097305
visibility: 0.998826265335083
","x: 229.04666137695312
y: 298.2498474121094
z: -0.07549506425857544
visibility: 0.9996119737625122
","x: 194.77325439453125
y: 301.43414306640625
z: 0.051295120269060135
visibility: 0.9996839165687561
","x: 216.31683349609375
y: 334.95172119140625
z: -0.13990353047847748
visibility: 0.7486600279808044
","x: 188.8057098388672
y: 342.3022766113281
z: -0.07023118436336517
visibility: 0.9392527341842651
","x: 189.16143798828125
y: 333.527099609375
z: -0.18410354852676392
visibility: 0.327321857213974
","x: 195.7884063720703
y: 341.31195068359375
z: -0.2578737735748291
visibility: 0.839123547077179
","x: 181.31729125976562
y: 331.2178039550781
z: -0.21648454666137695
visibility: 0.2699986696243286
","x: 197.93154907226562
y: 341.9683532714844
z: -0.2960889935493469
visibility: 0.7416690587997437
","x: 180.87063598632812
y: 327.6066589355469
z: -0.21547262370586395
visibility: 0.2904040515422821
","x: 198.8642120361328
y: 337.3385925292969
z: -0.2947576344013214
visibility: 0.7480378746986389
","x: 183.1984405517578
y: 328.67242431640625
z: -0.18397250771522522
visibility: 0.2647494077682495
","x: 198.97329711914062
y: 337.2116394042969
z: -0.26403337717056274
visibility: 0.704347550868988
","x: 224.56407165527344
y: 398.5693664550781
z: -0.041012056171894073
visibility: 0.9994461536407471
","x: 203.89306640625
y: 397.7019958496094
z: 0.04113713651895523
visibility: 0.999302089214325
","x: 214.0644073486328
y: 471.03155517578125
z: -0.06462055444717407
visibility: 0.9749106168746948
","x: 193.553955078125
y: 467.42425537109375
z: 0.013654095120728016
visibility: 0.9494418501853943
","x: 217.4866485595703
y: 540.5943603515625
z: 0.04954863339662552
visibility: 0.9685936570167542
","x: 199.85633850097656
y: 536.66064453125
z: 0.1364448368549347
visibility: 0.7015161514282227
","x: 217.7256317138672
y: 552.7448120117188
z: 0.05394434928894043
visibility: 0.804621696472168
","x: 205.04937744140625
y: 550.7871704101562
z: 0.14115110039710999
visibility: 0.4165043532848358
","x: 217.2377471923828
y: 559.3258056640625
z: -0.05630994588136673
visibility: 0.958153486251831
","x: 189.10731506347656
y: 551.6383666992188
z: 0.04435516521334648
visibility: 0.7555172443389893
",,,,,,,,,,,,,,,,,,,,,,,,,,,,,,,,,,,,,,,,,,
2,"x: 208.1278839111328
y: 247.88104248046875
z: -0.2951876223087311
visibility: 0.9984035491943359
","x: 210.6903839111328
y: 240.095703125
z: -0.28019675612449646
visibility: 0.9950907826423645
","x: 212.28492736816406
y: 240.1172637939453
z: -0.28023815155029297
visibility: 0.9942489266395569
","x: 213.6053009033203
y: 240.31576538085938
z: -0.28025349974632263
visibility: 0.9941034317016602
","x: 206.42135620117188
y: 240.4302978515625
z: -0.26924198865890503
visibility: 0.9974291920661926
","x: 205.21548461914062
y: 240.65478515625
z: -0.269266813993454
visibility: 0.9974022507667542
","x: 204.01507568359375
y: 240.9646759033203
z: -0.2692749798297882
visibility: 0.997791051864624
","x: 215.37197875976562
y: 243.83934020996094
z: -0.1727888584136963
visibility: 0.9828051328659058
","x: 203.58265686035156
y: 244.5558319091797
z: -0.1256876140832901
visibility: 0.9975234866142273
","x: 211.56039428710938
y: 255.4043731689453
z: -0.2544791102409363
visibility: 0.9988029599189758
","x: 206.10272216796875
y: 255.45925903320312
z: -0.23948541283607483
visibility: 0.9989429116249084
","x: 228.74549865722656
y: 283.6893615722656
z: -0.12278151512145996
visibility: 0.9996481537818909
","x: 191.57032775878906
y: 285.1193542480469
z: -0.046332698315382004
visibility: 0.9997138381004333
","x: 241.2943572998047
y: 325.6530456542969
z: -0.2448677122592926
visibility: 0.7730233073234558
","x: 187.4348602294922
y: 327.66302490234375
z: -0.035000432282686234
visibility: 0.9434977173805237
","x: 231.86654663085938
y: 320.17230224609375
z: -0.47609561681747437
visibility: 0.3918383717536926
","x: 167.04188537597656
y: 353.7170104980469
z: -0.1765928715467453
visibility: 0.8515163064002991
","x: 228.96197509765625
y: 319.8203430175781
z: -0.5234709978103638
visibility: 0.33723902702331543
","x: 162.0603485107422
y: 361.7806396484375
z: -0.20951783657073975
visibility: 0.7592897415161133
","x: 225.24449157714844
y: 312.33184814453125
z: -0.5270066857337952
visibility: 0.35583531856536865
","x: 162.27650451660156
y: 359.70379638671875
z: -0.2380710393190384
visibility: 0.7657250165939331
","x: 225.06668090820312
y: 312.571044921875
z: -0.4823291301727295
visibility: 0.32857275009155273
","x: 164.12457275390625
y: 357.44488525390625
z: -0.19274339079856873
visibility: 0.7248813509941101
","x: 221.99310302734375
y: 385.45660400390625
z: -0.027485301718115807
visibility: 0.9994750022888184
","x: 200.9348602294922
y: 383.6239929199219
z: 0.027558645233511925
visibility: 0.9993646740913391
","x: 214.58050537109375
y: 460.4437255859375
z: -0.06037897989153862
visibility: 0.9765658974647522
","x: 187.071533203125
y: 441.1004638671875
z: -0.20275132358074188
visibility: 0.95432448387146
","x: 217.27903747558594
y: 530.88720703125
z: 0.1320803165435791
visibility: 0.9713215231895447
","x: 196.82492065429688
y: 518.63232421875
z: -0.009946106001734734
visibility: 0.7311078906059265
","x: 217.13523864746094
y: 541.3798828125
z: 0.14285823702812195
visibility: 0.8106557726860046
","x: 201.85276794433594
y: 534.9451293945312
z: 0.001676830230280757
visibility: 0.47168755531311035
","x: 215.73934936523438
y: 555.1693115234375
z: -0.0005575905088335276
visibility: 0.9615329504013062
","x: 185.72447204589844
y: 544.7706298828125
z: -0.13123714923858643
visibility: 0.7796185612678528
",,,,,,,,,,,,,,,,,,,,,,,,,,,,,,,,,,,,,,,,,,
3,"x: 203.2693634033203
y: 249.828369140625
z: -0.27830180525779724
visibility: 0.9985511898994446
","x: 205.83123779296875
y: 243.85154724121094
z: -0.26417475938796997
visibility: 0.9955272078514099
","x: 207.4882049560547
y: 243.92376708984375
z: -0.2642020583152771
visibility: 0.9947758316993713
","x: 209.07559204101562
y: 244.1031036376953
z: -0.26424795389175415
visibility: 0.9946373701095581
","x: 201.92489624023438
y: 244.11180114746094
z: -0.25921839475631714
visibility: 0.9976291060447693
","x: 200.91659545898438
y: 244.33663940429688
z: -0.25927260518074036
visibility: 0.9976182579994202
","x: 199.89002990722656
y: 244.6118927001953
z: -0.25928711891174316
visibility: 0.9979569911956787
","x: 212.32742309570312
y: 247.83761596679688
z: -0.1722303330898285
visibility: 0.9844276309013367
","x: 199.59243774414062
y: 248.77976989746094
z: -0.15109726786613464
visibility: 0.9976757168769836
","x: 206.6497802734375
y: 257.15533447265625
z: -0.24550195038318634
visibility: 0.9988964200019836
","x: 201.20880126953125
y: 257.40765380859375
z: -0.2367931306362152
visibility: 0.9990124702453613
","x: 228.22903442382812
y: 288.2689208984375
z: -0.10800202190876007
visibility: 0.9996746182441711
","x: 189.1468048095703
y: 288.02752685546875
z: -0.05956794694066048
visibility: 0.9997035264968872
","x: 249.91310119628906
y: 317.2040100097656
z: -0.14849190413951874
visibility: 0.7955388426780701
","x: 167.16993713378906
y: 314.88604736328125
z: -0.15321287512779236
visibility: 0.9483504295349121
","x: 274.1609802246094
y: 310.9984130859375
z: -0.2671067416667938
visibility: 0.45246559381484985
","x: 144.15736389160156
y: 314.5022888183594
z: -0.35027894377708435
visibility: 0.8655962944030762
","x: 281.69464111328125
y: 310.03460693359375
z: -0.27208518981933594
visibility: 0.4027843475341797
","x: 136.3555450439453
y: 317.5155944824219
z: -0.3864644467830658
visibility: 0.7814986109733582
","x: 282.40380859375
y: 307.06976318359375
z: -0.33607932925224304
visibility: 0.4196934700012207
","x: 136.55010986328125
y: 313.13116455078125
z: -0.40995997190475464
visibility: 0.7875958681106567
","x: 279.375732421875
y: 307.3459167480469
z: -0.3178379237651825
visibility: 0.39510899782180786
","x: 138.8363800048828
y: 312.5619201660156
z: -0.3666539788246155
visibility: 0.7505506277084351
","x: 220.2056427001953
y: 388.36370849609375
z: -0.012036075815558434
visibility: 0.999431848526001
","x: 198.77841186523438
y: 386.6769104003906
z: 0.011842812411487103
visibility: 0.9993228912353516
","x: 212.11289978027344
y: 461.54290771484375
z: 0.012005014345049858
visibility: 0.9774704575538635
","x: 187.91465759277344
y: 454.52130126953125
z: -0.08054688572883606
visibility: 0.957409143447876
","x: 212.53421020507812
y: 533.696533203125
z: 0.19157487154006958
visibility: 0.9725920557975769
","x: 184.44155883789062
y: 520.0240478515625
z: 0.11400767415761948
visibility: 0.7558740377426147
","x: 212.51747131347656
y: 542.7637939453125
z: 0.20279519259929657
visibility: 0.8154832720756531
","x: 184.7457275390625
y: 533.8228759765625
z: 0.1258230358362198
visibility: 0.4979201555252075
","x: 207.0792694091797
y: 557.5941162109375
z: 0.09278465062379837
visibility: 0.9633625745773315
","x: 185.34768676757812
y: 549.001953125
z: 0.014423434622585773
visibility: 0.799552321434021
",,,,,,,,,,,,,,,,,,,,,,,,,,,,,,,,,,,,,,,,,,
4,"x: 199.62379455566406
y: 251.55892944335938
z: -0.2782522439956665
visibility: 0.9986604452133179
","x: 202.2705078125
y: 246.00332641601562
z: -0.26501017808914185
visibility: 0.9957276582717896
","x: 203.8063201904297
y: 246.06100463867188
z: -0.26503825187683105
visibility: 0.9951074719429016
","x: 205.43893432617188
y: 246.2027130126953
z: -0.2650797963142395
visibility: 0.9949854612350464
","x: 199.0575714111328
y: 246.282958984375
z: -0.2608676254749298
visibility: 0.9975712895393372
","x: 198.1822967529297
y: 246.51548767089844
z: -0.26091474294662476
visibility: 0.9975987672805786
","x: 197.26785278320312
y: 246.784912109375
z: -0.26093795895576477
visibility: 0.9978528022766113
","x: 209.1838836669922
y: 249.81472778320312
z: -0.18484553694725037
visibility: 0.9856836199760437
","x: 197.3179168701172
y: 250.74603271484375
z: -0.1569119244813919
visibility: 0.9970697164535522
","x: 202.45933532714844
y: 258.64605712890625
z: -0.24650153517723083
visibility: 0.9989177584648132
","x: 198.1121063232422
y: 259.0630798339844
z: -0.23772823810577393
visibility: 0.9989193081855774
","x: 225.8164520263672
y: 288.2652893066406
z: -0.12213236093521118
visibility: 0.9996950626373291
","x: 186.36529541015625
y: 287.1162109375
z: -0.07587064802646637
visibility: 0.9996443390846252
","x: 248.28598022460938
y: 312.1343994140625
z: -0.1191818118095398
visibility: 0.815841019153595
","x: 162.828857421875
y: 301.5343322753906
z: -0.05291260406374931
visibility: 0.9527985453605652
","x: 271.7536315917969
y: 326.89056396484375
z: -0.2261197566986084
visibility: 0.5068538188934326
","x: 141.29574584960938
y: 312.0550842285156
z: -0.14909552037715912
visibility: 0.8778755068778992
","x: 279.34796142578125
y: 331.1766052246094
z: -0.24745449423789978
visibility: 0.46108266711235046
","x: 133.983154296875
y: 317.2359619140625
z: -0.1715724766254425
visibility: 0.7997386455535889
","x: 279.07330322265625
y: 328.1411437988281
z: -0.28073346614837646
visibility: 0.47661277651786804
","x: 133.76614379882812
y: 317.19769287109375
z: -0.20410671830177307
visibility: 0.8058781027793884
","x: 276.22265625
y: 327.3836669921875
z: -0.24656815826892853
visibility: 0.4544520974159241
","x: 136.19366455078125
y: 316.5181579589844
z: -0.16743358969688416
visibility: 0.7724296450614929
","x: 218.9116973876953
y: 388.8448791503906
z: -0.013592635281383991
visibility: 0.9992936253547668
","x: 198.38136291503906
y: 386.91357421875
z: 0.01355742383748293
visibility: 0.9991392493247986
","x: 208.35772705078125
y: 463.05615234375
z: -0.01945684105157852
visibility: 0.9780975580215454
","x: 188.22909545898438
y: 459.25848388671875
z: -0.013480255380272865
visibility: 0.9603023529052734
","x: 208.5169677734375
y: 534.1763916015625
z: 0.11870844662189484
visibility: 0.9739760756492615
","x: 185.22373962402344
y: 521.6639404296875
z: 0.12351112067699432
visibility: 0.7789087891578674
","x: 209.4326934814453
y: 542.8575439453125
z: 0.12544235587120056
visibility: 0.8186042308807373
","x: 185.6851043701172
y: 534.0778198242188
z: 0.13034729659557343
visibility: 0.5323790907859802
","x: 203.00067138671875
y: 558.0537109375
z: 0.005963531788438559
visibility: 0.9653983116149902
","x: 185.52740478515625
y: 550.3107299804688
z: 0.017096294090151787
visibility: 0.8182744383811951
",,,,,,,,,,,,,,,,,,,,,,,,,,,,,,,,,,,,,,,,,,
5,"x: 199.51004028320312
y: 239.60470581054688
z: -0.3779234290122986
visibility: 0.9987942576408386
","x: 201.81869506835938
y: 232.79519653320312
z: -0.3646777868270874
visibility: 0.9961543083190918
","x: 203.48294067382812
y: 232.67723083496094
z: -0.36467236280441284
visibility: 0.995596170425415
","x: 205.16615295410156
y: 232.6585235595703
z: -0.3646966814994812
visibility: 0.9954863786697388
","x: 197.98370361328125
y: 233.37303161621094
z: -0.36266306042671204
visibility: 0.9978134632110596
","x: 196.6698760986328
y: 233.7860107421875
z: -0.3627294600009918
visibility: 0.9978381991386414
","x: 195.48184204101562
y: 234.30921936035156
z: -0.36273130774497986
visibility: 0.9980667233467102
","x: 208.328369140625
y: 234.96920776367188
z: -0.25411608815193176
visibility: 0.9871145486831665
","x: 194.39068603515625
y: 237.82907104492188
z: -0.24528416991233826
visibility: 0.9973610639572144
","x: 202.562255859375
y: 246.8218994140625
z: -0.3341415524482727
visibility: 0.9990257024765015
","x: 197.8181915283203
y: 247.60861206054688
z: -0.3317079544067383
visibility: 0.999026894569397
","x: 224.64337158203125
y: 274.08587646484375
z: -0.1611504703760147
visibility: 0.9997250437736511
","x: 184.3051300048828
y: 275.8434143066406
z: -0.13839465379714966
visibility: 0.9996746182441711
","x: 247.1664581298828
y: 317.38397216796875
z: -0.11848331987857819
visibility: 0.8340857028961182
","x: 165.37979125976562
y: 309.4757995605469
z: -0.12810936570167542
visibility: 0.9562422633171082
","x: 253.88658142089844
y: 355.5693359375
z: -0.21534709632396698
visibility: 0.5557567477226257
","x: 151.2738494873047
y: 335.47186279296875
z: -0.27484413981437683
visibility: 0.8884685039520264
","x: 257.851806640625
y: 368.4823913574219
z: -0.24043786525726318
visibility: 0.5136497020721436
","x: 146.26885986328125
y: 343.4805603027344
z: -0.3082486689090729
visibility: 0.8162322044372559
","x: 256.50360107421875
y: 369.21502685546875
z: -0.2687831521034241
visibility: 0.5278046131134033
","x: 146.52296447753906
y: 342.72332763671875
z: -0.34308481216430664
visibility: 0.8222021460533142
","x: 254.99427795410156
y: 365.6334228515625
z: -0.23040704429149628
visibility: 0.5075479745864868
","x: 148.6036376953125
y: 340.7662353515625
z: -0.29305821657180786
visibility: 0.7915188670158386
","x: 217.6268310546875
y: 372.8763122558594
z: -0.014527030289173126
visibility: 0.9993406534194946
","x: 197.81687927246094
y: 371.0905456542969
z: 0.014447209425270557
visibility: 0.9991886615753174
","x: 207.3609161376953
y: 451.34173583984375
z: -0.03131023794412613
visibility: 0.9787055850028992
","x: 190.0094757080078
y: 449.8622131347656
z: -0.009915994480252266
visibility: 0.9616219997406006
","x: 207.28305053710938
y: 524.5699462890625
z: 0.12469074875116348
visibility: 0.975098729133606
","x: 189.0659942626953
y: 519.7907104492188
z: 0.14172840118408203
visibility: 0.7986335754394531
","x: 209.31549072265625
y: 534.42919921875
z: 0.1327640414237976
visibility: 0.8165294528007507
","x: 188.97909545898438
y: 532.6746215820312
z: 0.152335524559021
visibility: 0.5607696771621704
","x: 200.93756103515625
y: 551.9102783203125
z: 0.0074599930085241795
visibility: 0.9670488834381104
","x: 189.45216369628906
y: 548.9268798828125
z: 0.03897474706172943
visibility: 0.8339749574661255
",,,,,,,,,,,,,,,,,,,,,,,,,,,,,,,,,,,,,,,,,,
6,"x: 199.02590942382812
y: 244.51458740234375
z: -0.3008840084075928
visibility: 0.9988874197006226
","x: 201.1456298828125
y: 237.8000030517578
z: -0.29155534505844116
visibility: 0.9964651465415955
","x: 202.7196502685547
y: 237.63851928710938
z: -0.2915896475315094
visibility: 0.9959668517112732
","x: 204.37416076660156
y: 237.57017517089844
z: -0.29163652658462524
visibility: 0.9958752989768982
","x: 197.54132080078125
y: 238.48416137695312
z: -0.28327280282974243
visibility: 0.9979672431945801
","x: 196.2396240234375
y: 238.84498596191406
z: -0.283313512802124
visibility: 0.9979780316352844
","x: 195.03524780273438
y: 239.26837158203125
z: -0.28337085247039795
visibility: 0.9981813430786133
","x: 207.3326416015625
y: 240.32554626464844
z: -0.23653900623321533
visibility: 0.9882871508598328
","x: 193.88392639160156
y: 242.7464141845703
z: -0.18225377798080444
visibility: 0.997390866279602
","x: 201.88519287109375
y: 252.10157775878906
z: -0.2742587625980377
visibility: 0.9990829825401306
","x: 197.35061645507812
y: 252.56948852539062
z: -0.2622382938861847
visibility: 0.9990618228912354
","x: 222.54893493652344
y: 280.3753967285156
z: -0.15381023287773132
visibility: 0.9997246265411377
","x: 183.38722229003906
y: 278.3031921386719
z: -0.09227466583251953
visibility: 0.9996656179428101
","x: 223.1907196044922
y: 334.52996826171875
z: -0.1587686538696289
visibility: 0.8479311466217041
","x: 180.119384765625
y: 335.172607421875
z: -0.06955119967460632
visibility: 0.9482327699661255
","x: 216.77098083496094
y: 379.0426940917969
z: -0.24985620379447937
visibility: 0.5894137620925903
","x: 182.94674682617188
y: 381.83331298828125
z: -0.15734639763832092
visibility: 0.8745879530906677
","x: 216.88307189941406
y: 393.9901428222656
z: -0.28568151593208313
visibility: 0.5446969270706177
","x: 183.7086181640625
y: 395.1062316894531
z: -0.18070992827415466
visibility: 0.8012359142303467
","x: 213.3951416015625
y: 393.0023193359375
z: -0.30526211857795715
visibility: 0.5579215884208679
","x: 185.12765502929688
y: 394.45062255859375
z: -0.2067863643169403
visibility: 0.8070451021194458
","x: 212.6117706298828
y: 388.60845947265625
z: -0.259351521730423
visibility: 0.5351489782333374
","x: 185.31565856933594
y: 389.74609375
z: -0.16938263177871704
visibility: 0.776128888130188
","x: 217.46383666992188
y: 378.89605712890625
z: -0.02662312053143978
visibility: 0.9993056058883667
","x: 197.13665771484375
y: 377.0022277832031
z: 0.02669629454612732
visibility: 0.999137282371521
","x: 207.42640686035156
y: 451.5257568359375
z: -0.14479385316371918
visibility: 0.9749450087547302
","x: 191.96713256835938
y: 452.0455627441406
z: 0.026273179799318314
visibility: 0.946540355682373
","x: 202.26287841796875
y: 523.8335571289062
z: -0.08061304688453674
visibility: 0.9712970852851868
","x: 198.14108276367188
y: 520.518798828125
z: 0.1302609145641327
visibility: 0.8033447265625
","x: 203.8163299560547
y: 536.489501953125
z: -0.08056509494781494
visibility: 0.822388768196106
","x: 201.29425048828125
y: 534.5914916992188
z: 0.13357803225517273
visibility: 0.5758370757102966
","x: 198.37542724609375
y: 541.899169921875
z: -0.19069892168045044
visibility: 0.9635855555534363
","x: 191.96286010742188
y: 544.228271484375
z: 0.03685200959444046
visibility: 0.8325669169425964
",,,,,,,,,,,,,,,,,,,,,,,,,,,,,,,,,,,,,,,,,,
7,"x: 202.98825073242188
y: 238.52752685546875
z: -0.2879806160926819
visibility: 0.9989966154098511
","x: 203.02830505371094
y: 232.65109252929688
z: -0.27250710129737854
visibility: 0.9968132376670837
","x: 203.70326232910156
y: 232.6033935546875
z: -0.27250662446022034
visibility: 0.9963643550872803
","x: 204.5029754638672
y: 232.661376953125
z: -0.27251768112182617
visibility: 0.9962818026542664
","x: 199.85769653320312
y: 233.23316955566406
z: -0.2740360498428345
visibility: 0.998165488243103
","x: 198.31634521484375
y: 233.64993286132812
z: -0.2740776538848877
visibility: 0.9981751441955566
","x: 196.62371826171875
y: 234.1187744140625
z: -0.27409684658050537
visibility: 0.9983586072921753
","x: 207.9550323486328
y: 235.94947814941406
z: -0.16600915789604187
visibility: 0.9894487261772156
","x: 194.93548583984375
y: 237.89743041992188
z: -0.174423485994339
visibility: 0.9976435303688049
","x: 204.51446533203125
y: 245.7849884033203
z: -0.246863454580307
visibility: 0.9991727471351624
","x: 200.51345825195312
y: 247.0152587890625
z: -0.24954941868782043
visibility: 0.9991537928581238
","x: 222.84375
y: 277.11236572265625
z: -0.087516188621521
visibility: 0.9997486472129822
","x: 183.56346130371094
y: 276.7291259765625
z: -0.08822441101074219
visibility: 0.9996870756149292
","x: 228.15321350097656
y: 322.7499694824219
z: -0.08301632851362228
visibility: 0.8622153401374817
","x: 177.5120391845703
y: 324.15155029296875
z: -0.07677354663610458
visibility: 0.9520349502563477
","x: 223.3432159423828
y: 356.89794921875
z: -0.23359933495521545
visibility: 0.6283264756202698
","x: 186.30502319335938
y: 348.3084411621094
z: -0.23037569224834442
visibility: 0.8831877708435059
","x: 220.5406951904297
y: 371.7645568847656
z: -0.2611444592475891
visibility: 0.5852625370025635
","x: 189.7216033935547
y: 358.9841003417969
z: -0.26984867453575134
visibility: 0.8136050701141357
","x: 217.7991943359375
y: 364.7280578613281
z: -0.3016287684440613
visibility: 0.5972952842712402
","x: 191.83917236328125
y: 353.2740783691406
z: -0.2811712324619293
visibility: 0.818898618221283
","x: 217.9395751953125
y: 359.31536865234375
z: -0.23433080315589905
visibility: 0.5741977095603943
","x: 191.31683349609375
y: 349.29217529296875
z: -0.23643746972084045
visibility: 0.7880459427833557
","x: 217.94183349609375
y: 373.6990966796875
z: -0.020625039935112
visibility: 0.9993000030517578
","x: 197.4046630859375
y: 376.5904541015625
z: 0.02067359909415245
visibility: 0.9991543889045715
","x: 214.9729461669922
y: 446.5438232421875
z: -0.01869121380150318
visibility: 0.9770981073379517
","x: 191.92144775390625
y: 452.4010925292969
z: 0.004523199982941151
visibility: 0.9513434171676636
","x: 221.20724487304688
y: 516.54443359375
z: 0.13037380576133728
visibility: 0.9737365245819092
","x: 196.4412384033203
y: 519.5408325195312
z: 0.13850490748882294
visibility: 0.8225225806236267
","x: 221.4741668701172
y: 526.3573608398438
z: 0.13840001821517944
visibility: 0.8314229249954224
","x: 199.21694946289062
y: 530.4838256835938
z: 0.14557461440563202
visibility: 0.60951828956604
","x: 220.87847900390625
y: 542.21044921875
z: 0.01827036216855049
visibility: 0.9665449261665344
","x: 197.15638732910156
y: 544.7307739257812
z: 0.03241948038339615
visibility: 0.8484218716621399
",,,,,,,,,,,,,,,,,,,,,,,,,,,,,,,,,,,,,,,,,,
8,"x: 207.09266662597656
y: 237.50405883789062
z: -0.2460002899169922
visibility: 0.9990965723991394
","x: 207.62594604492188
y: 230.41395568847656
z: -0.2304759919643402
visibility: 0.9971311688423157
","x: 208.45713806152344
y: 230.36343383789062
z: -0.2304832637310028
visibility: 0.9967270493507385
","x: 209.2777862548828
y: 230.38954162597656
z: -0.23050518333911896
visibility: 0.9966527223587036
","x: 203.66734313964844
y: 230.81808471679688
z: -0.23181989789009094
visibility: 0.9983479976654053
","x: 201.71630859375
y: 231.11917114257812
z: -0.23185262084007263
visibility: 0.9983565807342529
","x: 199.40963745117188
y: 231.53688049316406
z: -0.23182788491249084
visibility: 0.9985218048095703
","x: 210.1709442138672
y: 233.5260009765625
z: -0.12410541623830795
visibility: 0.9905027747154236
","x: 195.5273895263672
y: 235.20916748046875
z: -0.12985505163669586
visibility: 0.9978775978088379
","x: 208.3443603515625
y: 244.96282958984375
z: -0.2049178183078766
visibility: 0.9992551207542419
","x: 203.91091918945312
y: 246.11175537109375
z: -0.2070273905992508
visibility: 0.9992379546165466
","x: 222.97860717773438
y: 272.4658203125
z: -0.062459103763103485
visibility: 0.9997729063034058
","x: 184.0305633544922
y: 272.80926513671875
z: -0.0396006815135479
visibility: 0.9997139573097229
","x: 244.47549438476562
y: 306.9405822753906
z: -0.1473766565322876
visibility: 0.8757736682891846
","x: 170.44790649414062
y: 307.2046813964844
z: -0.0916169062256813
visibility: 0.9558888077735901
","x: 245.37832641601562
y: 285.2121276855469
z: -0.3464411497116089
visibility: 0.6649050116539001
","x: 163.48110961914062
y: 282.932373046875
z: -0.2918831706047058
visibility: 0.8938039541244507
","x: 246.64181518554688
y: 275.8419189453125
z: -0.38446950912475586
visibility: 0.6246993541717529
","x: 158.59974670410156
y: 275.5526123046875
z: -0.32834795117378235
visibility: 0.829014241695404
","x: 244.32861328125
y: 270.5247802734375
z: -0.383350670337677
visibility: 0.6355530023574829
","x: 159.73390197753906
y: 270.3677673339844
z: -0.3335796594619751
visibility: 0.8337975144386292
","x: 242.86972045898438
y: 274.4195251464844
z: -0.3501071333885193
visibility: 0.6139141917228699
","x: 162.29747009277344
y: 273.5821838378906
z: -0.298733115196228
visibility: 0.8051214218139648
","x: 218.9380340576172
y: 373.5732727050781
z: -0.020494403317570686
visibility: 0.9993568062782288
","x: 197.85446166992188
y: 375.8714294433594
z: 0.02044275589287281
visibility: 0.9992173910140991
","x: 220.81658935546875
y: 450.9486389160156
z: -0.029600882902741432
visibility: 0.9791259765625
","x: 188.59197998046875
y: 450.1702575683594
z: 0.023873677477240562
visibility: 0.9553279280662537
","x: 242.4561309814453
y: 515.2818603515625
z: 0.15388543903827667
visibility: 0.9760071635246277
","x: 175.9840087890625
y: 517.3048706054688
z: 0.18660475313663483
visibility: 0.8397350907325745
","x: 246.7343292236328
y: 522.4951171875
z: 0.1671011745929718
visibility: 0.8336187601089478
","x: 177.38372802734375
y: 527.8428344726562
z: 0.1977001130580902
visibility: 0.6407127380371094
","x: 241.96435546875
y: 546.694091796875
z: 0.054657526314258575
visibility: 0.9692034721374512
","x: 171.99473571777344
y: 545.3204956054688
z: 0.0877935066819191
visibility: 0.8626797199249268
",,,,,,,,,,,,,,,,,,,,,,,,,,,,,,,,,,,,,,,,,,
9,"x: 212.84542846679688
y: 241.2776336669922
z: -0.23563054203987122
visibility: 0.9991865158081055
","x: 212.0580596923828
y: 234.2971954345703
z: -0.21432292461395264
visibility: 0.9974169135093689
","x: 212.6480255126953
y: 234.2109832763672
z: -0.21432042121887207
visibility: 0.9970529675483704
","x: 213.18186950683594
y: 234.1875457763672
z: -0.214349627494812
visibility: 0.996985912322998
","x: 208.94676208496094
y: 234.62240600585938
z: -0.22262310981750488
visibility: 0.9985120892524719
","x: 207.30825805664062
y: 234.8127899169922
z: -0.22265617549419403
visibility: 0.9985198974609375
","x: 205.4839630126953
y: 235.06094360351562
z: -0.2226528376340866
visibility: 0.9986686706542969
","x: 211.4316864013672
y: 236.67398071289062
z: -0.09556852281093597
visibility: 0.9914495944976807
","x: 200.07125854492188
y: 238.84417724609375
z: -0.133182555437088
visibility: 0.9980885982513428
","x: 213.6547088623047
y: 248.61788940429688
z: -0.1911601424217224
visibility: 0.9993287324905396
","x: 209.72193908691406
y: 249.45004272460938
z: -0.20236817002296448
visibility: 0.999313473701477
","x: 224.52301025390625
y: 276.85284423828125
z: -0.012925934977829456
visibility: 0.9997940063476562
","x: 185.88926696777344
y: 276.49432373046875
z: -0.062230657786130905
visibility: 0.9997303485870361
","x: 253.2601776123047
y: 290.3438720703125
z: -0.033082328736782074
visibility: 0.888099730014801
","x: 160.75807189941406
y: 294.4859619140625
z: -0.12914124131202698
visibility: 0.9601955413818359
","x: 264.10784912109375
y: 251.0408935546875
z: -0.15533915162086487
visibility: 0.6982612013816833
","x: 151.69798278808594
y: 256.87933349609375
z: -0.29539787769317627
visibility: 0.9042369723320007
","x: 268.8792724609375
y: 242.02406311035156
z: -0.1781322956085205
visibility: 0.6613595485687256
","x: 146.9142303466797
y: 245.616943359375
z: -0.33168065547943115
visibility: 0.8452194929122925
","x: 267.0779113769531
y: 239.24696350097656
z: -0.18513134121894836
visibility: 0.6711903810501099
","x: 147.95684814453125
y: 241.70501708984375
z: -0.33853211998939514
visibility: 0.8495212197303772
","x: 265.16253662109375
y: 242.25393676757812
z: -0.16276779770851135
visibility: 0.6514617204666138
","x: 149.91368103027344
y: 245.86328125
z: -0.3027316629886627
visibility: 0.8233528137207031
","x: 219.31259155273438
y: 375.53143310546875
z: 0.0001964393595699221
visibility: 0.9994091987609863
","x: 198.51324462890625
y: 376.5385437011719
z: -0.00030033529037609696
visibility: 0.9992702007293701
","x: 222.5606231689453
y: 461.61138916015625
z: -0.02497369609773159
visibility: 0.9810166954994202
","x: 188.34378051757812
y: 457.13916015625
z: -0.0209987573325634
visibility: 0.9592194557189941
","x: 249.94577026367188
y: 520.2219848632812
z: 0.13542744517326355
visibility: 0.9781806468963623
","x: 165.6466522216797
y: 518.184814453125
z: 0.1453266739845276
visibility: 0.8550521731376648
","x: 256.30609130859375
y: 528.9356079101562
z: 0.14528611302375793
visibility: 0.8402051329612732
","x: 160.7664337158203
y: 527.8636474609375
z: 0.15679803490638733
visibility: 0.662912130355835
","x: 244.57887268066406
y: 548.9407958984375
z: 0.022986862808465958
visibility: 0.9717335104942322
","x: 168.31422424316406
y: 550.5921630859375
z: 0.036760762333869934
visibility: 0.8750048875808716
",,,,,,,,,,,,,,,,,,,,,,,,,,,,,,,,,,,,,,,,,,
10,"x: 211.89967346191406
y: 242.3731689453125
z: -0.24950115382671356
visibility: 0.9992669820785522
","x: 212.38796997070312
y: 236.01345825195312
z: -0.23403342068195343
visibility: 0.9976711869239807
","x: 213.41641235351562
y: 235.73448181152344
z: -0.2340349704027176
visibility: 0.9973437190055847
","x: 214.49635314941406
y: 235.40724182128906
z: -0.23404455184936523
visibility: 0.9972825646400452
","x: 208.77420043945312
y: 236.3513946533203
z: -0.2336721122264862
visibility: 0.9986563324928284
","x: 207.24853515625
y: 236.39523315429688
z: -0.2337096631526947
visibility: 0.9986638426780701
","x: 205.69622802734375
y: 236.4468994140625
z: -0.2337181121110916
visibility: 0.9987978935241699
","x: 215.7465362548828
y: 240.36878967285156
z: -0.1329382210969925
visibility: 0.9922983050346375
","x: 202.79042053222656
y: 240.9689483642578
z: -0.1322976052761078
visibility: 0.9982735514640808
","x: 213.79701232910156
y: 250.0231170654297
z: -0.21248269081115723
visibility: 0.9993935823440552
","x: 209.17518615722656
y: 250.96885681152344
z: -0.2120433747768402
visibility: 0.9993795156478882
","x: 228.92799377441406
y: 278.2108154296875
z: -0.07275636494159698
visibility: 0.9998034834861755
","x: 191.0465087890625
y: 278.22515869140625
z: -0.06561238318681717
visibility: 0.999734103679657
","x: 256.7547912597656
y: 272.1873779296875
z: -0.1955842673778534
visibility: 0.8990812301635742
","x: 163.76490783691406
y: 278.419921875
z: -0.09736999124288559
visibility: 0.9640242457389832
","x: 268.24761962890625
y: 243.24766540527344
z: -0.37846988439559937
visibility: 0.7276249527931213
","x: 147.35836791992188
y: 262.84814453125
z: -0.2091849148273468
visibility: 0.9133003354072571
","x: 272.22021484375
y: 234.33546447753906
z: -0.41665753722190857
visibility: 0.6923052668571472
","x: 140.15484619140625
y: 259.66778564453125
z: -0.24023810029029846
visibility: 0.8585272431373596
","x: 270.69903564453125
y: 233.325927734375
z: -0.42904868721961975
visibility: 0.7013704180717468
","x: 139.6479949951172
y: 257.11456298828125
z: -0.2589385509490967
visibility: 0.8625789284706116
","x: 269.3118896484375
y: 237.41366577148438
z: -0.391276478767395
visibility: 0.6833970546722412
","x: 142.46249389648438
y: 258.7627258300781
z: -0.22298257052898407
visibility: 0.8388426899909973
","x: 222.26181030273438
y: 381.74017333984375
z: -0.009957293048501015
visibility: 0.9994486570358276
","x: 200.49224853515625
y: 379.9462890625
z: 0.00977728608995676
visibility: 0.9993157982826233
","x: 228.3110809326172
y: 464.9111633300781
z: -0.03010847233235836
visibility: 0.982588529586792
","x: 188.69833374023438
y: 458.914306640625
z: 0.0011597353732213378
visibility: 0.9630736708641052
","x: 250.48641967773438
y: 522.4573974609375
z: 0.12805375456809998
visibility: 0.9800153374671936
","x: 167.62445068359375
y: 518.7562866210938
z: 0.14705124497413635
visibility: 0.8691620230674744
","x: 255.7472381591797
y: 531.3453369140625
z: 0.13697820901870728
visibility: 0.841319739818573
","x: 164.3121337890625
y: 527.9656372070312
z: 0.1565828025341034
visibility: 0.6878745555877686
","x: 245.5950164794922
y: 549.6704711914062
z: 0.0044499775394797325
visibility: 0.9738405346870422
","x: 166.8624267578125
y: 551.4447631835938
z: 0.0358535535633564
visibility: 0.8867251873016357
",,,,,,,,,,,,,,,,,,,,,,,,,,,,,,,,,,,,,,,,,,
11,"x: 213.73687744140625
y: 231.35092163085938
z: -0.42026573419570923
visibility: 0.9993399381637573
","x: 215.53306579589844
y: 225.45469665527344
z: -0.4067017436027527
visibility: 0.9979031085968018
","x: 216.92794799804688
y: 225.65603637695312
z: -0.406647264957428
visibility: 0.9976080656051636
","x: 218.2916259765625
y: 225.85916137695312
z: -0.4066776633262634
visibility: 0.9975528717041016
","x: 211.11106872558594
y: 225.36170959472656
z: -0.4067060351371765
visibility: 0.9987901449203491
","x: 209.51889038085938
y: 225.55508422851562
z: -0.4067699909210205
visibility: 0.9987968802452087
","x: 207.90931701660156
y: 225.7779083251953
z: -0.40679845213890076
visibility: 0.9989176988601685
","x: 220.20510864257812
y: 230.23802185058594
z: -0.28730088472366333
visibility: 0.9930663108825684
","x: 205.75408935546875
y: 229.9893798828125
z: -0.28727635741233826
visibility: 0.998445987701416
","x: 216.13162231445312
y: 239.7357177734375
z: -0.3727470934391022
visibility: 0.9994539618492126
","x: 211.0526580810547
y: 240.01852416992188
z: -0.3729003667831421
visibility: 0.9994414448738098
","x: 232.5023193359375
y: 265.03955078125
z: -0.1905505508184433
visibility: 0.9998164176940918
","x: 192.52288818359375
y: 267.0423278808594
z: -0.1885451227426529
visibility: 0.9997600317001343
","x: 262.35894775390625
y: 272.38836669921875
z: -0.33601340651512146
visibility: 0.9088454842567444
","x: 165.6386260986328
y: 293.0303955078125
z: -0.22639909386634827
visibility: 0.9674258828163147
","x: 250.89454650878906
y: 261.7724304199219
z: -0.56588214635849
visibility: 0.7508438229560852
","x: 170.34376525878906
y: 327.4002685546875
z: -0.3557717800140381
visibility: 0.9197725653648376
","x: 238.28208923339844
y: 258.5128173828125
z: -0.6170993447303772
visibility: 0.7098998427391052
","x: 170.7283477783203
y: 339.25677490234375
z: -0.3887973427772522
visibility: 0.8657855987548828
","x: 235.36227416992188
y: 257.1673889160156
z: -0.6084030866622925
visibility: 0.7173166275024414
","x: 175.4803924560547
y: 336.87957763671875
z: -0.4029783606529236
visibility: 0.8692370057106018
","x: 236.92762756347656
y: 259.02734375
z: -0.56865394115448
visibility: 0.695311427116394
","x: 176.2537078857422
y: 332.215087890625
z: -0.3634205758571625
visibility: 0.8454344868659973
","x: 224.8402862548828
y: 369.0967102050781
z: 0.0018915770342573524
visibility: 0.9994757771492004
","x: 203.5306854248047
y: 368.635009765625
z: -0.0021668763365596533
visibility: 0.9993600845336914
","x: 228.95008850097656
y: 456.40460205078125
z: -0.019015885889530182
visibility: 0.983402669429779
","x: 200.27931213378906
y: 453.2838439941406
z: -0.024102110415697098
visibility: 0.9658849239349365
","x: 235.8482666015625
y: 522.6636962890625
z: 0.15073968470096588
visibility: 0.9811937212944031
","x: 198.4291534423828
y: 522.693115234375
z: 0.14123007655143738
visibility: 0.8813594579696655
","x: 247.31448364257812
y: 531.5418090820312
z: 0.1595710813999176
visibility: 0.8447561860084534
","x: 198.39320373535156
y: 531.4782104492188
z: 0.15029707551002502
visibility: 0.7023866176605225
","x: 233.54058837890625
y: 549.7655639648438
z: 0.016822848469018936
visibility: 0.9752275943756104
","x: 203.58494567871094
y: 554.0166015625
z: 0.007797947619110346
visibility: 0.8968290090560913
",,,,,,,,,,,,,,,,,,,,,,,,,,,,,,,,,,,,,,,,,,
12,"x: 214.01564025878906
y: 235.24209594726562
z: -0.25303685665130615
visibility: 0.9994052648544312
","x: 216.0128631591797
y: 228.34384155273438
z: -0.23485715687274933
visibility: 0.9981099367141724
","x: 217.33937072753906
y: 228.26974487304688
z: -0.2348359078168869
visibility: 0.9978441596031189
","x: 218.8660430908203
y: 227.9690399169922
z: -0.23484103381633759
visibility: 0.9977940917015076
","x: 212.0308380126953
y: 228.37608337402344
z: -0.2343723326921463
visibility: 0.9989091157913208
","x: 210.65155029296875
y: 228.47694396972656
z: -0.23436561226844788
visibility: 0.9989151954650879
","x: 209.17037963867188
y: 228.5136260986328
z: -0.23434898257255554
visibility: 0.9990240931510925
","x: 221.87721252441406
y: 231.18345642089844
z: -0.12508496642112732
visibility: 0.9937530159950256
","x: 207.96144104003906
y: 231.45391845703125
z: -0.12340612709522247
visibility: 0.9985995292663574
","x: 216.63185119628906
y: 243.05015563964844
z: -0.2121276557445526
visibility: 0.9995074272155762
","x: 211.90231323242188
y: 243.88113403320312
z: -0.2116786539554596
visibility: 0.9994965195655823
","x: 233.99583435058594
y: 266.8762512207031
z: -0.06361852586269379
visibility: 0.9998257756233215
","x: 195.44598388671875
y: 279.8283996582031
z: -0.04020005092024803
visibility: 0.9997799396514893
","x: 260.1028747558594
y: 285.74407958984375
z: -0.3315417468547821
visibility: 0.9177021980285645
","x: 185.3567657470703
y: 328.6015625
z: -0.01269594393670559
visibility: 0.9692779779434204
","x: 235.3834228515625
y: 265.0531311035156
z: -0.3759625256061554
visibility: 0.7740092277526855
","x: 189.26446533203125
y: 374.08502197265625
z: -0.07888820022344589
visibility: 0.9229372143745422
","x: 227.2794647216797
y: 257.47064208984375
z: -0.41135716438293457
visibility: 0.730791449546814
","x: 189.8853759765625
y: 385.6176452636719
z: -0.10023993253707886
visibility: 0.8672003746032715
","x: 226.12554931640625
y: 258.46978759765625
z: -0.4671946167945862
visibility: 0.736839771270752
","x: 191.73085021972656
y: 385.1643371582031
z: -0.11868556588888168
visibility: 0.8701072931289673
","x: 227.93495178222656
y: 262.04412841796875
z: -0.39537233114242554
visibility: 0.7137039303779602
","x: 192.23159790039062
y: 381.6314697265625
z: -0.08650635182857513
visibility: 0.8453071713447571
","x: 226.2018585205078
y: 371.2682800292969
z: 0.000737002759706229
visibility: 0.9995045065879822
","x: 205.06539916992188
y: 369.3005065917969
z: -0.0009333696216344833
visibility: 0.999396562576294
","x: 226.36634826660156
y: 457.86688232421875
z: -0.018251702189445496
visibility: 0.9837426543235779
","x: 208.1289825439453
y: 459.062255859375
z: -0.00041603908175602555
visibility: 0.9683603048324585
","x: 234.9394989013672
y: 528.9638671875
z: 0.1279515027999878
visibility: 0.9820221066474915
","x: 210.8788299560547
y: 530.7218017578125
z: 0.14066758751869202
visibility: 0.8921791911125183
","x: 234.15911865234375
y: 540.291259765625
z: 0.13618972897529602
visibility: 0.8503118753433228
","x: 212.38681030273438
y: 540.0059204101562
z: 0.14740444719791412
visibility: 0.7186893224716187
","x: 229.75469970703125
y: 553.7035522460938
z: 0.0048894924111664295
visibility: 0.9764007925987244
","x: 208.6025390625
y: 557.2706298828125
z: 0.020378226414322853
visibility: 0.9056218862533569
",,,,,,,,,,,,,,,,,,,,,,,,,,,,,,,,,,,,,,,,,,
13,"x: 213.03382873535156
y: 226.54563903808594
z: -0.23408496379852295
visibility: 0.9994570016860962
","x: 214.84364318847656
y: 221.16065979003906
z: -0.2163390815258026
visibility: 0.9982521533966064
","x: 216.14486694335938
y: 221.27130126953125
z: -0.21634869277477264
visibility: 0.99802166223526
","x: 217.5747528076172
y: 221.3942108154297
z: -0.21635547280311584
visibility: 0.9979682564735413
","x: 211.0667266845703
y: 221.58016967773438
z: -0.21355827152729034
visibility: 0.9989818930625916
","x: 209.77371215820312
y: 221.95120239257812
z: -0.2135542929172516
visibility: 0.998995840549469
","x: 208.5183563232422
y: 222.3028564453125
z: -0.21357659995555878
visibility: 0.9990931153297424
","x: 220.51974487304688
y: 226.61672973632812
z: -0.11418183892965317
visibility: 0.9942907094955444
","x: 207.19793701171875
y: 227.73545837402344
z: -0.10056440532207489
visibility: 0.9987097978591919
","x: 215.67189025878906
y: 234.93316650390625
z: -0.19629178941249847
visibility: 0.9995372891426086
","x: 210.9154510498047
y: 235.38023376464844
z: -0.1924363225698471
visibility: 0.9995261430740356
","x: 233.47427368164062
y: 259.6341857910156
z: -0.06989148259162903
visibility: 0.999830424785614
","x: 197.23019409179688
y: 274.4786376953125
z: -0.011995607987046242
visibility: 0.999767005443573
","x: 256.06646728515625
y: 249.3660888671875
z: -0.21025285124778748
visibility: 0.9254216551780701
","x: 192.10450744628906
y: 323.42364501953125
z: 0.04607416316866875
visibility: 0.9599615931510925
","x: 237.10433959960938
y: 220.63026428222656
z: -0.3430868983268738
visibility: 0.7901922464370728
","x: 189.2781982421875
y: 366.8935546875
z: -0.018718557432293892
visibility: 0.9159252047538757
","x: 231.78515625
y: 214.7760772705078
z: -0.37879860401153564
visibility: 0.7354773283004761
","x: 187.19447326660156
y: 376.6591796875
z: -0.03364158049225807
visibility: 0.857607364654541
","x: 229.52679443359375
y: 216.5025177001953
z: -0.42360177636146545
visibility: 0.7394445538520813
","x: 187.0484619140625
y: 376.9285583496094
z: -0.05937451124191284
visibility: 0.8608925938606262
","x: 230.9223175048828
y: 221.03553771972656
z: -0.3542044758796692
visibility: 0.7144556045532227
","x: 188.68154907226562
y: 374.1105651855469
z: -0.029821524396538734
visibility: 0.8335018157958984
","x: 226.2275390625
y: 368.7752685546875
z: -0.014047193340957165
visibility: 0.9995449185371399
","x: 204.8252410888672
y: 367.183837890625
z: 0.01381058432161808
visibility: 0.9994282722473145
","x: 224.76707458496094
y: 452.76715087890625
z: -0.041947923600673676
visibility: 0.9842531681060791
","x: 202.5400848388672
y: 447.8155517578125
z: -0.01211126521229744
visibility: 0.9705701470375061
","x: 234.6972198486328
y: 529.0201416015625
z: 0.09576951712369919
visibility: 0.9831910133361816
","x: 202.4834442138672
y: 519.5333251953125
z: 0.15728424489498138
visibility: 0.9014962911605835
","x: 229.87510681152344
y: 540.236328125
z: 0.10315738618373871
visibility: 0.8513602614402771
","x: 204.5492706298828
y: 528.114501953125
z: 0.16957560181617737
visibility: 0.7304071187973022
","x: 229.12432861328125
y: 555.2396240234375
z: -0.02528194524347782
visibility: 0.9777117371559143
","x: 201.5460205078125
y: 548.7867431640625
z: 0.0654185563325882
visibility: 0.9133439660072327
",,,,,,,,,,,,,,,,,,,,,,,,,,,,,,,,,,,,,,,,,,
14,"x: 213.00369262695312
y: 226.8779754638672
z: -0.12201149761676788
visibility: 0.999510645866394
","x: 214.21963500976562
y: 222.14007568359375
z: -0.10514678806066513
visibility: 0.9984249472618103
","x: 215.48936462402344
y: 222.3904571533203
z: -0.10524161159992218
visibility: 0.9982178807258606
","x: 216.87977600097656
y: 222.6888885498047
z: -0.10525164753198624
visibility: 0.9981697201728821
","x: 210.4468536376953
y: 222.57545471191406
z: -0.09877277165651321
visibility: 0.9990823864936829
","x: 209.13319396972656
y: 223.08335876464844
z: -0.09877097606658936
visibility: 0.9990949630737305
","x: 207.89520263671875
y: 223.55926513671875
z: -0.09878294169902802
visibility: 0.9991824626922607
","x: 219.2856903076172
y: 228.68592834472656
z: -0.02076026238501072
visibility: 0.9948580265045166
","x: 206.77162170410156
y: 229.50721740722656
z: 0.00890332367271185
visibility: 0.9988369941711426
","x: 215.35092163085938
y: 234.82290649414062
z: -0.09195482730865479
visibility: 0.999579131603241
","x: 210.8529052734375
y: 235.36245727539062
z: -0.08355629444122314
visibility: 0.9995702505111694
","x: 232.66354370117188
y: 258.3684997558594
z: -0.03781883418560028
visibility: 0.9998456835746765
","x: 199.2103729248047
y: 278.31329345703125
z: 0.10104139894247055
visibility: 0.9997753500938416
","x: 246.06576538085938
y: 214.92613220214844
z: -0.1904345154762268
visibility: 0.9327473044395447
","x: 192.1360321044922
y: 328.7965087890625
z: 0.15904560685157776
visibility: 0.9440099596977234
","x: 245.5714111328125
y: 173.00790405273438
z: -0.33281210064888
visibility: 0.8107349276542664
","x: 181.66358947753906
y: 362.39141845703125
z: 0.09244760870933533
visibility: 0.9132300019264221
","x: 248.89984130859375
y: 164.19107055664062
z: -0.37510940432548523
visibility: 0.7606688737869263
","x: 178.2569580078125
y: 370.4598388671875
z: 0.08798069506883621
visibility: 0.8553386330604553
","x: 247.5808563232422
y: 163.09603881835938
z: -0.4224392771720886
visibility: 0.7640596032142639
","x: 179.56149291992188
y: 369.81219482421875
z: 0.05410121753811836
visibility: 0.8596857190132141
","x: 246.09182739257812
y: 166.5859375
z: -0.3476688861846924
visibility: 0.7412029504776001
","x: 180.84356689453125
y: 368.0798034667969
z: 0.07698088884353638
visibility: 0.8337523341178894
","x: 226.16015625
y: 370.8748779296875
z: -0.04985159635543823
visibility: 0.9995899200439453
","x: 206.95423889160156
y: 370.4057312011719
z: 0.04994054138660431
visibility: 0.999481737613678
","x: 224.55062866210938
y: 449.0019226074219
z: -0.23253273963928223
visibility: 0.9853190779685974
","x: 200.7001190185547
y: 433.68182373046875
z: -0.033374033868312836
visibility: 0.9691715836524963
","x: 228.34591674804688
y: 530.484375
z: -0.2879596948623657
visibility: 0.9842886328697205
","x: 198.5705108642578
y: 500.97613525390625
z: 0.02591448649764061
visibility: 0.9061053395271301
","x: 228.59466552734375
y: 547.2122802734375
z: -0.3004181385040283
visibility: 0.8627361059188843
","x: 199.99806213378906
y: 518.348388671875
z: 0.025483623147010803
visibility: 0.7447302341461182
","x: 215.82244873046875
y: 551.9103393554688
z: -0.4396321773529053
visibility: 0.9794926643371582
","x: 186.1359100341797
y: 490.4019775390625
z: -0.07222778350114822
visibility: 0.9191453456878662
",,,,,,,,,,,,,,,,,,,,,,,,,,,,,,,,,,,,,,,,,,
15,"x: 212.3018341064453
y: 228.9341583251953
z: -0.11374020576477051
visibility: 0.9995588660240173
","x: 214.0114288330078
y: 223.46942138671875
z: -0.09225299954414368
visibility: 0.9985805749893188
","x: 215.19932556152344
y: 224.06427001953125
z: -0.09235632419586182
visibility: 0.9983944296836853
","x: 216.48098754882812
y: 224.59442138671875
z: -0.09237048029899597
visibility: 0.9983511567115784
","x: 210.1325225830078
y: 224.2576904296875
z: -0.0871797651052475
visibility: 0.9991727471351624
","x: 208.7523651123047
y: 225.42645263671875
z: -0.08721529692411423
visibility: 0.999184250831604
","x: 207.51693725585938
y: 226.33070373535156
z: -0.08721144497394562
visibility: 0.9992631673812866
","x: 218.7083740234375
y: 233.33457946777344
z: 0.005914852023124695
visibility: 0.9953675270080566
","x: 206.83837890625
y: 234.5219268798828
z: 0.029016640037298203
visibility: 0.9989514946937561
","x: 215.11587524414062
y: 236.391845703125
z: -0.07952262461185455
visibility: 0.9996175169944763
","x: 210.65048217773438
y: 236.39019775390625
z: -0.0730811059474945
visibility: 0.9996109008789062
","x: 231.9187774658203
y: 263.863037109375
z: -0.009855282492935658
visibility: 0.9998580813407898
","x: 200.66400146484375
y: 289.13116455078125
z: 0.11164487898349762
visibility: 0.999788224697113
","x: 242.72610473632812
y: 225.71372985839844
z: -0.18010346591472626
visibility: 0.9393864870071411
","x: 190.43606567382812
y: 336.01214599609375
z: 0.15175636112689972
visibility: 0.9290663599967957
","x: 232.80885314941406
y: 181.14190673828125
z: -0.3282005190849304
visibility: 0.8293685913085938
","x: 178.33798217773438
y: 362.7658386230469
z: 0.051797620952129364
visibility: 0.9081237316131592
","x: 232.50924682617188
y: 168.4080352783203
z: -0.36826464533805847
visibility: 0.7835041880607605
","x: 175.52464294433594
y: 369.0921325683594
z: 0.03577966243028641
visibility: 0.8506657481193542
","x: 229.88037109375
y: 166.94769287109375
z: -0.4021659791469574
visibility: 0.7862573266029358
","x: 173.3461151123047
y: 368.608642578125
z: 0.003067828482016921
visibility: 0.856098473072052
","x: 229.24131774902344
y: 171.84693908691406
z: -0.3426818549633026
visibility: 0.765132486820221
","x: 175.61056518554688
y: 367.4195861816406
z: 0.03588937222957611
visibility: 0.8302040696144104
","x: 226.08653259277344
y: 375.04656982421875
z: -0.0417587086558342
visibility: 0.9996302127838135
","x: 207.03353881835938
y: 374.7653503417969
z: 0.041824374347925186
visibility: 0.9995322823524475
","x: 223.62474060058594
y: 450.4246826171875
z: -0.219318225979805
visibility: 0.985680878162384
","x: 199.23497009277344
y: 419.16302490234375
z: -0.3100894093513489
visibility: 0.9706952571868896
","x: 223.95167541503906
y: 531.4312133789062
z: -0.23684725165367126
visibility: 0.9843478798866272
","x: 197.05032348632812
y: 502.81927490234375
z: -0.33989933133125305
visibility: 0.9127959609031677
","x: 225.834228515625
y: 548.9332275390625
z: -0.24615590274333954
visibility: 0.8701196312904358
","x: 197.80494689941406
y: 519.394287109375
z: -0.3495641350746155
visibility: 0.762472927570343
","x: 212.6311798095703
y: 550.786865234375
z: -0.3961922526359558
visibility: 0.9806954264640808
","x: 186.4760284423828
y: 504.30316162109375
z: -0.4903941750526428
visibility: 0.9262226223945618
",,,,,,,,,,,,,,,,,,,,,,,,,,,,,,,,,,,,,,,,,,
16,"x: 209.20513916015625
y: 231.8004150390625
z: -0.16910305619239807
visibility: 0.9996005892753601
","x: 211.14935302734375
y: 226.21092224121094
z: -0.14447453618049622
visibility: 0.9987101554870605
","x: 212.59475708007812
y: 226.48048400878906
z: -0.1448148936033249
visibility: 0.9985451102256775
","x: 214.041015625
y: 226.7281951904297
z: -0.14495502412319183
visibility: 0.9985055327415466
","x: 207.37815856933594
y: 226.7736053466797
z: -0.15847916901111603
visibility: 0.9992431402206421
","x: 206.26341247558594
y: 227.45901489257812
z: -0.15864405035972595
visibility: 0.9992545247077942
","x: 205.42869567871094
y: 228.01687622070312
z: -0.15868619084358215
visibility: 0.999325692653656
","x: 217.54664611816406
y: 232.12686157226562
z: -0.015592968091368675
visibility: 0.9958150386810303
","x: 205.39283752441406
y: 233.8817138671875
z: -0.05759785696864128
visibility: 0.9990405440330505
","x: 212.65414428710938
y: 239.05093383789062
z: -0.1228293925523758
visibility: 0.9996498823165894
","x: 207.9976043701172
y: 239.52674865722656
z: -0.14132079482078552
visibility: 0.999642550945282
","x: 230.09091186523438
y: 262.3952331542969
z: -0.06630204617977142
visibility: 0.9998687505722046
","x: 199.10926818847656
y: 282.7254638671875
z: 0.03739257901906967
visibility: 0.9997915625572205
","x: 243.06463623046875
y: 246.8986358642578
z: -0.2227984368801117
visibility: 0.9453476667404175
","x: 189.41119384765625
y: 330.9019775390625
z: 0.10448559373617172
visibility: 0.9290603399276733
","x: 231.06097412109375
y: 208.080078125
z: -0.4007117748260498
visibility: 0.8459709882736206
","x: 182.9906005859375
y: 370.3765869140625
z: 0.036881223320961
visibility: 0.9115707874298096
","x: 227.81399536132812
y: 197.2628936767578
z: -0.44302067160606384
visibility: 0.8031614422798157
","x: 179.74331665039062
y: 381.75830078125
z: 0.02508053556084633
visibility: 0.8542172312736511
","x: 225.52207946777344
y: 197.366455078125
z: -0.4308156967163086
visibility: 0.8054139018058777
","x: 179.9248046875
y: 382.02191162109375
z: -0.0014649129007011652
visibility: 0.8593356609344482
","x: 225.65170288085938
y: 202.0045623779297
z: -0.40087375044822693
visibility: 0.78538978099823
","x: 181.90060424804688
y: 379.4505310058594
z: 0.02529767155647278
visibility: 0.8334354758262634
","x: 223.0242919921875
y: 370.23883056640625
z: -0.039080675691366196
visibility: 0.9996564388275146
","x: 204.24069213867188
y: 368.8943176269531
z: 0.03895249217748642
visibility: 0.9995536804199219
","x: 213.568359375
y: 449.4306640625
z: -0.12272931635379791
visibility: 0.9862720370292664
","x: 199.09689331054688
y: 429.6319580078125
z: -0.035964615643024445
visibility: 0.9721776247024536
","x: 217.32337951660156
y: 513.84912109375
z: 0.09344039857387543
visibility: 0.9846664667129517
","x: 198.01699829101562
y: 505.50738525390625
z: 0.15580813586711884
visibility: 0.918907105922699
","x: 219.23057556152344
y: 520.790283203125
z: 0.10852024704217911
visibility: 0.8586233854293823
","x: 200.53079223632812
y: 520.0540771484375
z: 0.16927988827228546
visibility: 0.768315851688385
","x: 209.1042022705078
y: 548.8568115234375
z: -0.01095558051019907
visibility: 0.9810866117477417
","x: 197.84266662597656
y: 543.8345947265625
z: 0.06527041643857956
visibility: 0.930708110332489
",,,,,,,,,,,,,,,,,,,,,,,,,,,,,,,,,,,,,,,,,,
17,"x: 204.95193481445312
y: 250.09921264648438
z: -0.15728522837162018
visibility: 0.9996386766433716
","x: 207.2968292236328
y: 243.3401641845703
z: -0.13860660791397095
visibility: 0.9988334774971008
","x: 208.81922912597656
y: 243.44810485839844
z: -0.13868173956871033
visibility: 0.9986858367919922
","x: 210.40858459472656
y: 243.59596252441406
z: -0.1387227326631546
visibility: 0.9986494779586792
","x: 203.9209747314453
y: 243.80105590820312
z: -0.1351282149553299
visibility: 0.9993146061897278
","x: 202.910888671875
y: 244.15525817871094
z: -0.13513368368148804
visibility: 0.9993243217468262
","x: 201.9929962158203
y: 244.5060577392578
z: -0.1351138800382614
visibility: 0.9993880987167358
","x: 213.7294464111328
y: 248.8604736328125
z: -0.04007270932197571
visibility: 0.9962282776832581
","x: 201.83529663085938
y: 249.7528839111328
z: -0.02185031771659851
visibility: 0.9991313815116882
","x: 207.7552032470703
y: 257.29022216796875
z: -0.12175828218460083
visibility: 0.9996803402900696
","x: 203.45370483398438
y: 256.9896240234375
z: -0.11690163612365723
visibility: 0.9996735453605652
","x: 226.33291625976562
y: 282.29168701171875
z: -0.02405248023569584
visibility: 0.9998791813850403
","x: 193.63645935058594
y: 298.248779296875
z: 0.07567199319601059
visibility: 0.9998035430908203
","x: 246.94256591796875
y: 279.66748046875
z: -0.13421760499477386
visibility: 0.9507275223731995
","x: 187.92910766601562
y: 348.62982177734375
z: 0.16988427937030792
visibility: 0.927237868309021
","x: 255.33436584472656
y: 221.82196044921875
z: -0.2875094711780548
visibility: 0.8607672452926636
","x: 177.0282440185547
y: 380.1078796386719
z: 0.13668689131736755
visibility: 0.9169909358024597
","x: 258.8512878417969
y: 211.31591796875
z: -0.3268882930278778
visibility: 0.8203081488609314
","x: 171.59857177734375
y: 388.67144775390625
z: 0.13404276967048645
visibility: 0.8617770075798035
","x: 257.0102844238281
y: 212.37728881835938
z: -0.32647210359573364
visibility: 0.8222100734710693
","x: 169.8333740234375
y: 387.922607421875
z: 0.09918943792581558
visibility: 0.8670567870140076
","x: 255.1473388671875
y: 214.2605438232422
z: -0.29414382576942444
visibility: 0.8038083910942078
","x: 171.94259643554688
y: 385.4596252441406
z: 0.12169225513935089
visibility: 0.8435992002487183
","x: 221.04049682617188
y: 383.6082458496094
z: -0.04882520064711571
visibility: 0.9996778964996338
","x: 202.42550659179688
y: 387.252197265625
z: 0.04905812069773674
visibility: 0.9995707869529724
","x: 210.99490356445312
y: 454.888916015625
z: -0.15456311404705048
visibility: 0.9803456664085388
","x: 198.9416046142578
y: 460.2568054199219
z: -0.008116431534290314
visibility: 0.935981035232544
","x: 202.24002075195312
y: 527.1568603515625
z: -0.09733253717422485
visibility: 0.9754217863082886
","x: 201.41673278808594
y: 529.420654296875
z: 0.08182935416698456
visibility: 0.8979413509368896
","x: 202.72854614257812
y: 539.8646850585938
z: -0.0972442552447319
visibility: 0.8517016172409058
","x: 206.64730834960938
y: 544.3497314453125
z: 0.0867939218878746
visibility: 0.7644779682159424
","x: 195.5689239501953
y: 548.9788818359375
z: -0.2081158459186554
visibility: 0.974297046661377
","x: 195.14865112304688
y: 548.6275634765625
z: -0.020868340507149696
visibility: 0.9151872396469116
",,,,,,,,,,,,,,,,,,,,,,,,,,,,,,,,,,,,,,,,,,
18,"x: 204.62461853027344
y: 247.74964904785156
z: -0.13736312091350555
visibility: 0.9996743202209473
","x: 206.8403778076172
y: 241.9170379638672
z: -0.1175074577331543
visibility: 0.9989485144615173
","x: 208.30889892578125
y: 242.06033325195312
z: -0.1175423413515091
visibility: 0.9988159537315369
","x: 209.84226989746094
y: 242.29949951171875
z: -0.11757093667984009
visibility: 0.9987829327583313
","x: 203.2983856201172
y: 242.255859375
z: -0.11321866512298584
visibility: 0.9993816614151001
","x: 202.33740234375
y: 242.57388305664062
z: -0.11323745548725128
visibility: 0.9993903636932373
","x: 201.33480834960938
y: 242.94944763183594
z: -0.11323368549346924
visibility: 0.9994475245475769
","x: 212.68154907226562
y: 247.24069213867188
z: -0.021649930626153946
visibility: 0.9966039061546326
","x: 200.64913940429688
y: 248.55960083007812
z: -0.0018600508337840438
visibility: 0.9992160797119141
","x: 207.51358032226562
y: 255.0161895751953
z: -0.10386928170919418
visibility: 0.9997115731239319
","x: 202.64279174804688
y: 255.14808654785156
z: -0.09819035232067108
visibility: 0.9997050166130066
","x: 225.93089294433594
y: 283.97711181640625
z: -0.002373708877712488
visibility: 0.9998903274536133
","x: 191.612548828125
y: 296.77349853515625
z: 0.08024246990680695
visibility: 0.9998160004615784
","x: 251.6091766357422
y: 293.72100830078125
z: -0.11900967359542847
visibility: 0.9555557370185852
","x: 187.0496368408203
y: 344.68182373046875
z: 0.12226730585098267
visibility: 0.9308584332466125
","x: 257.1178894042969
y: 242.4276123046875
z: -0.290613055229187
visibility: 0.8741437196731567
","x: 166.00335693359375
y: 369.9229431152344
z: 0.04670972749590874
visibility: 0.9235526919364929
","x: 259.328369140625
y: 228.4314727783203
z: -0.3303214907646179
visibility: 0.8361353278160095
","x: 160.73538208007812
y: 377.5610046386719
z: 0.03644353896379471
visibility: 0.8716916441917419
","x: 257.11810302734375
y: 225.17286682128906
z: -0.32608991861343384
visibility: 0.8378240466117859
","x: 159.15875244140625
y: 377.4112548828125
z: 0.005748276598751545
visibility: 0.8768623471260071
","x: 255.58897399902344
y: 228.18504333496094
z: -0.29497241973876953
visibility: 0.8207969665527344
","x: 160.6868133544922
y: 375.22845458984375
z: 0.03220594674348831
visibility: 0.8552969694137573
","x: 221.12582397460938
y: 384.375732421875
z: -0.04569340497255325
visibility: 0.9997080564498901
","x: 202.40771484375
y: 387.2205810546875
z: 0.04584876447916031
visibility: 0.999602198600769
","x: 205.43746948242188
y: 449.8575134277344
z: -0.22985386848449707
visibility: 0.9797197580337524
","x: 199.213134765625
y: 461.6351623535156
z: 0.045415494590997696
visibility: 0.9105191230773926
","x: 201.05429077148438
y: 525.6327514648438
z: -0.14169828593730927
visibility: 0.9735573530197144
","x: 202.9163818359375
y: 526.8941650390625
z: 0.1987641155719757
visibility: 0.880444347858429
","x: 202.3120880126953
y: 537.98974609375
z: -0.13666564226150513
visibility: 0.8516977429389954
","x: 206.74761962890625
y: 539.4452514648438
z: 0.20827488601207733
visibility: 0.7515286803245544
","x: 195.3265380859375
y: 549.3544921875
z: -0.2531145513057709
visibility: 0.9736546874046326
","x: 196.1765899658203
y: 548.3794555664062
z: 0.11745522916316986
visibility: 0.9019994139671326
",,,,,,,,,,,,,,,,,,,,,,,,,,,,,,,,,,,,,,,,,,
19,"x: 206.9699249267578
y: 236.4927978515625
z: -0.153634712100029
visibility: 0.9997068047523499
","x: 209.78182983398438
y: 230.03155517578125
z: -0.13804283738136292
visibility: 0.9990532398223877
","x: 211.19822692871094
y: 230.26670837402344
z: -0.13809819519519806
visibility: 0.9989339709281921
","x: 212.73138427734375
y: 230.6856689453125
z: -0.13811253011226654
visibility: 0.9989042282104492
","x: 205.123291015625
y: 229.94581604003906
z: -0.1336592584848404
visibility: 0.9994430541992188
","x: 203.59181213378906
y: 230.13247680664062
z: -0.13366560637950897
visibility: 0.9994509220123291
","x: 202.34536743164062
y: 230.31735229492188
z: -0.13362844288349152
visibility: 0.9995023608207703
","x: 215.31491088867188
y: 234.89279174804688
z: -0.0456419512629509
visibility: 0.9969430565834045
","x: 200.99661254882812
y: 233.99465942382812
z: -0.023958642035722733
visibility: 0.9992936253547668
","x: 210.27972412109375
y: 244.3269500732422
z: -0.11949180066585541
visibility: 0.9997402429580688
","x: 204.18502807617188
y: 244.46047973632812
z: -0.11319991201162338
visibility: 0.9997342228889465
","x: 227.72181701660156
y: 273.44195556640625
z: -0.025678541511297226
visibility: 0.9999011754989624
","x: 191.7147674560547
y: 277.788330078125
z: 0.071012482047081
visibility: 0.9998326897621155
","x: 252.58546447753906
y: 293.4811096191406
z: -0.1123153418302536
visibility: 0.9598846435546875
","x: 184.58859252929688
y: 325.4858703613281
z: 0.08632580935955048
visibility: 0.9356808662414551
","x: 266.0983581542969
y: 302.78521728515625
z: -0.29913610219955444
visibility: 0.8863338828086853
","x: 162.94126892089844
y: 346.8518371582031
z: -0.07708372175693512
visibility: 0.9307310581207275
","x: 272.8401184082031
y: 310.9078674316406
z: -0.34067201614379883
visibility: 0.8515123724937439
","x: 157.07467651367188
y: 352.3826904296875
z: -0.10741342604160309
visibility: 0.8834975957870483
","x: 269.2463684082031
y: 308.30706787109375
z: -0.3432568907737732
visibility: 0.853152334690094
","x: 156.042724609375
y: 349.66741943359375
z: -0.13962237536907196
visibility: 0.8883036971092224
","x: 266.2511901855469
y: 305.7877502441406
z: -0.30823463201522827
visibility: 0.8375640511512756
","x: 158.02349853515625
y: 348.15069580078125
z: -0.09503160417079926
visibility: 0.8687120676040649
","x: 221.48666381835938
y: 374.2296142578125
z: -0.05435032770037651
visibility: 0.9997335076332092
","x: 202.3206787109375
y: 372.91632080078125
z: 0.05436115711927414
visibility: 0.9996359348297119
","x: 209.10618591308594
y: 449.3415832519531
z: -0.11829230934381485
visibility: 0.9813255071640015
","x: 193.09414672851562
y: 451.6728515625
z: -0.0036104910541325808
visibility: 0.91766357421875
","x: 215.88665771484375
y: 518.0640258789062
z: 0.014664431102573872
visibility: 0.9758424162864685
","x: 194.56314086914062
y: 526.3726196289062
z: 0.12033356726169586
visibility: 0.8916501402854919
","x: 220.2207489013672
y: 525.84716796875
z: 0.022320931777358055
visibility: 0.8572011590003967
","x: 198.39306640625
y: 537.2108154296875
z: 0.126374751329422
visibility: 0.7719402313232422
","x: 208.4010009765625
y: 549.4588012695312
z: -0.07895506918430328
visibility: 0.9757925271987915
","x: 178.65664672851562
y: 545.4866943359375
z: 0.029995352029800415
visibility: 0.9110238552093506
",,,,,,,,,,,,,,,,,,,,,,,,,,,,,,,,,,,,,,,,,,
20,"x: 207.7720947265625
y: 237.06329345703125
z: -0.2013843059539795
visibility: 0.999735951423645
","x: 210.68797302246094
y: 230.4055633544922
z: -0.19369995594024658
visibility: 0.9991474747657776
","x: 212.10946655273438
y: 230.431884765625
z: -0.19376972317695618
visibility: 0.9990401864051819
","x: 213.5687255859375
y: 230.7904815673828
z: -0.19379347562789917
visibility: 0.9990134239196777
","x: 206.33619689941406
y: 230.58697509765625
z: -0.18253228068351746
visibility: 0.9994983077049255
","x: 204.93746948242188
y: 230.8134765625
z: -0.18257829546928406
visibility: 0.9995054006576538
","x: 203.77565002441406
y: 231.07530212402344
z: -0.18255715072155
visibility: 0.9995516538619995
","x: 216.82098388671875
y: 236.41909790039062
z: -0.12719663977622986
visibility: 0.9972484111785889
","x: 203.15284729003906
y: 234.43617248535156
z: -0.08089059591293335
visibility: 0.9993627071380615
","x: 211.23204040527344
y: 244.44012451171875
z: -0.1778499186038971
visibility: 0.9997658729553223
","x: 204.99061584472656
y: 244.85055541992188
z: -0.16361625492572784
visibility: 0.9997602105140686
","x: 230.48504638671875
y: 281.4689025878906
z: -0.13240700960159302
visibility: 0.999910831451416
","x: 192.74560546875
y: 282.1521301269531
z: 0.06570925563573837
visibility: 0.9998438954353333
","x: 251.58001708984375
y: 323.1270751953125
z: -0.12019942700862885
visibility: 0.9638656377792358
","x: 186.31533813476562
y: 330.9009094238281
z: 0.07704247534275055
visibility: 0.936186671257019
","x: 259.1048889160156
y: 359.8939208984375
z: -0.23678788542747498
visibility: 0.8975210785865784
","x: 162.8923797607422
y: 347.2513427734375
z: -0.07453258335590363
visibility: 0.9366090297698975
","x: 262.0612487792969
y: 373.1859130859375
z: -0.26554444432258606
visibility: 0.8657700419425964
","x: 156.7429962158203
y: 351.77508544921875
z: -0.09589622169733047
visibility: 0.8931037783622742
","x: 259.0693664550781
y: 373.217041015625
z: -0.2888002395629883
visibility: 0.8673056960105896
","x: 155.67120361328125
y: 347.94366455078125
z: -0.12914681434631348
visibility: 0.8977317810058594
","x: 257.3639831542969
y: 369.5956115722656
z: -0.24712789058685303
visibility: 0.8530799746513367
","x: 157.93118286132812
y: 346.8681335449219
z: -0.09280528128147125
visibility: 0.8798196911811829
","x: 221.87088012695312
y: 379.6465759277344
z: -0.0650624930858612
visibility: 0.9997516870498657
","x: 202.39215087890625
y: 377.65338134765625
z: 0.06506462395191193
visibility: 0.999657928943634
","x: 216.92115783691406
y: 456.48138427734375
z: -0.11974899470806122
visibility: 0.9824726581573486
","x: 192.83802795410156
y: 450.1859130859375
z: 0.022349350154399872
visibility: 0.9224918484687805
","x: 223.8707275390625
y: 526.244384765625
z: -0.06886477768421173
visibility: 0.9777573943138123
","x: 180.79078674316406
y: 522.1671142578125
z: 0.11185629665851593
visibility: 0.9011548757553101
","x: 227.40585327148438
y: 538.8082275390625
z: -0.07123617827892303
visibility: 0.8664738535881042
","x: 183.24534606933594
y: 536.8079833984375
z: 0.11477949470281601
visibility: 0.7905978560447693
","x: 214.0452880859375
y: 551.5926513671875
z: -0.17047207057476044
visibility: 0.9775597453117371
","x: 162.55838012695312
y: 519.0409545898438
z: 0.035364966839551926
visibility: 0.9185543060302734
",,,,,,,,,,,,,,,,,,,,,,,,,,,,,,,,,,,,,,,,,,
21,"x: 208.9295196533203
y: 231.897705078125
z: -0.18166640400886536
visibility: 0.9997611045837402
","x: 211.66053771972656
y: 227.5886688232422
z: -0.17039082944393158
visibility: 0.9992285966873169
","x: 213.00755310058594
y: 227.82701110839844
z: -0.17045989632606506
visibility: 0.999132513999939
","x: 214.37631225585938
y: 228.26133728027344
z: -0.17046959698200226
visibility: 0.9991092681884766
","x: 207.67962646484375
y: 227.7414093017578
z: -0.16220946609973907
visibility: 0.999544084072113
","x: 206.44955444335938
y: 228.08815002441406
z: -0.16225557029247284
visibility: 0.9995501637458801
","x: 205.36582946777344
y: 228.4242401123047
z: -0.16227427124977112
visibility: 0.9995927810668945
","x: 217.56259155273438
y: 234.1614990234375
z: -0.11852673441171646
visibility: 0.9975184798240662
","x: 204.84637451171875
y: 233.42807006835938
z: -0.06240830942988396
visibility: 0.999412477016449
","x: 212.1502685546875
y: 239.26571655273438
z: -0.15574948489665985
visibility: 0.999786376953125
","x: 206.4188232421875
y: 239.7171173095703
z: -0.1446406990289688
visibility: 0.9997795224189758
","x: 231.73521423339844
y: 280.7745056152344
z: -0.09371645748615265
visibility: 0.9999179244041443
","x: 194.88406372070312
y: 278.0711975097656
z: 0.04899433255195618
visibility: 0.9998461008071899
","x: 245.29818725585938
y: 324.50146484375
z: -0.08098038285970688
visibility: 0.9672528505325317
","x: 189.75515747070312
y: 324.09521484375
z: 0.09229829162359238
visibility: 0.9272871017456055
","x: 238.07180786132812
y: 359.4125671386719
z: -0.15317614376544952
visibility: 0.9068107008934021
","x: 164.78395080566406
y: 336.37811279296875
z: -0.03992782160639763
visibility: 0.9385539293289185
","x: 236.63363647460938
y: 373.99969482421875
z: -0.17569664120674133
visibility: 0.8766703605651855
","x: 159.4912567138672
y: 339.88775634765625
z: -0.06881681829690933
visibility: 0.8970219492912292
","x: 233.68087768554688
y: 369.702392578125
z: -0.19556674361228943
visibility: 0.8781012296676636
","x: 158.55152893066406
y: 336.6534118652344
z: -0.11198340356349945
visibility: 0.9021459817886353
","x: 233.62220764160156
y: 365.1327819824219
z: -0.16109803318977356
visibility: 0.8639541268348694
","x: 160.91387939453125
y: 336.2007141113281
z: -0.06097136065363884
visibility: 0.8852908611297607
","x: 221.88143920898438
y: 378.1129150390625
z: -0.06082244962453842
visibility: 0.9997667074203491
","x: 202.38043212890625
y: 376.0599060058594
z: 0.060906361788511276
visibility: 0.9996886253356934
","x: 219.8253173828125
y: 453.03204345703125
z: -0.08719725906848907
visibility: 0.9838080406188965
","x: 190.4073028564453
y: 435.4661560058594
z: -0.19798235595226288
visibility: 0.9296931624412537
","x: 224.15725708007812
y: 526.4964599609375
z: -0.025036010891199112
visibility: 0.9795970320701599
","x: 184.64434814453125
y: 519.3439331054688
z: -0.14646612107753754
visibility: 0.9105647802352905
","x: 227.0269012451172
y: 538.75048828125
z: -0.027949854731559753
visibility: 0.8654754161834717
","x: 185.27444458007812
y: 532.8300170898438
z: -0.14788798987865448
visibility: 0.8071648478507996
","x: 215.670166015625
y: 552.2933349609375
z: -0.14361566305160522
visibility: 0.9791699647903442
","x: 174.2780303955078
y: 519.2815551757812
z: -0.259979248046875
visibility: 0.9262641668319702
",,,,,,,,,,,,,,,,,,,,,,,,,,,,,,,,,,,,,,,,,,
22,"x: 208.40936279296875
y: 225.7402801513672
z: -0.24979302287101746
visibility: 0.9997836351394653
","x: 211.25355529785156
y: 220.04486083984375
z: -0.2367153912782669
visibility: 0.9993018507957458
","x: 212.77435302734375
y: 220.28125
z: -0.23672053217887878
visibility: 0.9992150664329529
","x: 214.27066040039062
y: 220.76153564453125
z: -0.23672273755073547
visibility: 0.9991944432258606
","x: 206.61549377441406
y: 220.23248291015625
z: -0.2336951196193695
visibility: 0.9995851516723633
","x: 205.28709411621094
y: 220.58038330078125
z: -0.23373441398143768
visibility: 0.9995906949043274
","x: 204.24554443359375
y: 220.98989868164062
z: -0.23377886414527893
visibility: 0.9996297955513
","x: 217.1506805419922
y: 224.83563232421875
z: -0.1361490935087204
visibility: 0.9977595210075378
","x: 203.22021484375
y: 225.17555236816406
z: -0.12064719200134277
visibility: 0.9994632601737976
","x: 211.8538055419922
y: 233.6973419189453
z: -0.20956137776374817
visibility: 0.9998067021369934
","x: 205.6182403564453
y: 233.99009704589844
z: -0.20577311515808105
visibility: 0.9998000860214233
","x: 231.5163116455078
y: 266.366943359375
z: -0.07493828237056732
visibility: 0.9999248385429382
","x: 191.35693359375
y: 266.7518310546875
z: -0.03134724870324135
visibility: 0.9998533129692078
","x: 243.80413818359375
y: 310.6854248046875
z: -0.03686147183179855
visibility: 0.9692784547805786
","x: 184.73817443847656
y: 312.85211181640625
z: -0.017244305461645126
visibility: 0.9298656582832336
","x: 231.22718811035156
y: 337.8939514160156
z: -0.15672627091407776
visibility: 0.9118491411209106
","x: 183.91696166992188
y: 336.4273681640625
z: -0.16485823690891266
visibility: 0.9342513084411621
","x: 227.6836395263672
y: 349.2387390136719
z: -0.18994998931884766
visibility: 0.8802808523178101
","x: 186.92724609375
y: 345.41143798828125
z: -0.2016136646270752
visibility: 0.891081690788269
","x: 225.27359008789062
y: 343.447021484375
z: -0.21124546229839325
visibility: 0.8819519877433777
","x: 187.67294311523438
y: 340.9942626953125
z: -0.22393667697906494
visibility: 0.896245539188385
","x: 225.72581481933594
y: 340.0484924316406
z: -0.16627834737300873
visibility: 0.8655529618263245
","x: 187.3411407470703
y: 337.86083984375
z: -0.1764727383852005
visibility: 0.8772993087768555
","x: 221.72447204589844
y: 367.6663818359375
z: -0.016218284144997597
visibility: 0.9997625350952148
","x: 200.5769805908203
y: 365.81439208984375
z: 0.016154535114765167
visibility: 0.9996808767318726
","x: 217.15155029296875
y: 449.076171875
z: -0.052976615726947784
visibility: 0.9838694334030151
","x: 192.56739807128906
y: 438.1390075683594
z: -0.0801219791173935
visibility: 0.9348358511924744
","x: 213.9402313232422
y: 526.6282348632812
z: 0.09780866652727127
visibility: 0.9805934429168701
","x: 190.72506713867188
y: 517.5261840820312
z: 0.10449918359518051
visibility: 0.9176093339920044
","x: 213.55667114257812
y: 537.9368286132812
z: 0.1052628606557846
visibility: 0.8599427342414856
","x: 188.1224822998047
y: 522.2377319335938
z: 0.11457601934671402
visibility: 0.8059107065200806
","x: 208.67457580566406
y: 552.3406982421875
z: -0.030483271926641464
visibility: 0.979725182056427
","x: 193.3930206298828
y: 540.4317626953125
z: -0.011138493195176125
visibility: 0.9315652251243591
",,,,,,,,,,,,,,,,,,,,,,,,,,,,,,,,,,,,,,,,,,
23,"x: 205.77662658691406
y: 246.2513885498047
z: -0.24119624495506287
visibility: 0.999801516532898
","x: 208.29922485351562
y: 240.36294555664062
z: -0.22543427348136902
visibility: 0.9993622899055481
","x: 209.84202575683594
y: 240.64329528808594
z: -0.22545507550239563
visibility: 0.9992830753326416
","x: 211.43797302246094
y: 241.0620880126953
z: -0.2254672795534134
visibility: 0.9992654323577881
","x: 204.12620544433594
y: 240.10107421875
z: -0.22476713359355927
visibility: 0.9996183514595032
","x: 202.76431274414062
y: 240.36529541015625
z: -0.22479262948036194
visibility: 0.9996219277381897
","x: 201.53627014160156
y: 240.67327880859375
z: -0.22481460869312286
visibility: 0.9996572136878967
","x: 213.74142456054688
y: 245.3915252685547
z: -0.1262979954481125
visibility: 0.997963011264801
","x: 200.46115112304688
y: 245.34588623046875
z: -0.12570923566818237
visibility: 0.999496340751648
","x: 208.9548797607422
y: 254.96885681152344
z: -0.20386633276939392
visibility: 0.9998213648796082
","x: 203.4944610595703
y: 254.0552520751953
z: -0.20370176434516907
visibility: 0.9998136758804321
","x: 227.88414001464844
y: 288.7377624511719
z: -0.0722036138176918
visibility: 0.9999226927757263
","x: 187.9560546875
y: 288.2843322753906
z: -0.05181683972477913
visibility: 0.9998583197593689
","x: 233.79405212402344
y: 341.57830810546875
z: -0.08335541933774948
visibility: 0.9712342023849487
","x: 184.38693237304688
y: 335.40765380859375
z: -0.029201427474617958
visibility: 0.931903600692749
","x: 218.10479736328125
y: 356.91278076171875
z: -0.1990709751844406
visibility: 0.9176265001296997
","x: 190.43077087402344
y: 370.2916259765625
z: -0.1326712667942047
visibility: 0.9269420504570007
","x: 212.4700469970703
y: 363.7800598144531
z: -0.23154929280281067
visibility: 0.8856629133224487
","x: 192.163818359375
y: 380.7213134765625
z: -0.16107778251171112
visibility: 0.8805626034736633
","x: 209.82785034179688
y: 356.5851135253906
z: -0.25770998001098633
visibility: 0.8874570727348328
","x: 194.07427978515625
y: 378.40576171875
z: -0.1846369504928589
visibility: 0.8853887319564819
","x: 211.38381958007812
y: 354.24066162109375
z: -0.2076989710330963
visibility: 0.869634211063385
","x: 194.01612854003906
y: 374.2747802734375
z: -0.14350278675556183
visibility: 0.863571286201477
","x: 221.31210327148438
y: 382.33258056640625
z: -0.006723471917212009
visibility: 0.9997114539146423
","x: 200.18133544921875
y: 382.7035217285156
z: 0.006737205199897289
visibility: 0.999629557132721
","x: 214.77882385253906
y: 458.8272705078125
z: -0.07666948437690735
visibility: 0.980931282043457
","x: 195.44845581054688
y: 460.3412170410156
z: -0.0398736335337162
visibility: 0.935331404209137
","x: 204.22946166992188
y: 538.8324584960938
z: -0.01251151692122221
visibility: 0.9775640368461609
","x: 195.31173706054688
y: 533.8602294921875
z: 0.08058757334947586
visibility: 0.9166840314865112
","x: 202.02960205078125
y: 552.1220703125
z: -0.013328807428479195
visibility: 0.8593906760215759
","x: 193.61203002929688
y: 544.484619140625
z: 0.07832450419664383
visibility: 0.7898574471473694
","x: 208.2021026611328
y: 556.95849609375
z: -0.13020539283752441
visibility: 0.9766136407852173
","x: 195.6642608642578
y: 551.559814453125
z: -0.03912791609764099
visibility: 0.9275258183479309
",,,,,,,,,,,,,,,,,,,,,,,,,,,,,,,,,,,,,,,,,,
24,"x: 205.88999938964844
y: 244.0127716064453
z: -0.16985443234443665
visibility: 0.9997358918190002
","x: 208.46450805664062
y: 238.34022521972656
z: -0.15126290917396545
visibility: 0.9992488622665405
","x: 210.00082397460938
y: 238.5699462890625
z: -0.15128330886363983
visibility: 0.9991645216941833
","x: 211.56951904296875
y: 238.95986938476562
z: -0.1512732058763504
visibility: 0.9991350173950195
","x: 204.12103271484375
y: 238.2099151611328
z: -0.1516888290643692
visibility: 0.9994893670082092
","x: 202.6897430419922
y: 238.50450134277344
z: -0.15171749889850616
visibility: 0.9995062351226807
","x: 201.51612854003906
y: 238.86654663085938
z: -0.15175649523735046
visibility: 0.9995531439781189
","x: 213.91079711914062
y: 243.37188720703125
z: -0.05289483815431595
visibility: 0.997945249080658
","x: 200.3289794921875
y: 243.51611328125
z: -0.0547805055975914
visibility: 0.9993062019348145
","x: 209.09495544433594
y: 252.48915100097656
z: -0.13337013125419617
visibility: 0.9997581243515015
","x: 203.24395751953125
y: 251.8907928466797
z: -0.1341143101453781
visibility: 0.9997361898422241
","x: 227.26260375976562
y: 284.5313720703125
z: -0.03371857851743698
visibility: 0.9998679161071777
","x: 188.1675262451172
y: 287.2430114746094
z: -0.02105458453297615
visibility: 0.9997866749763489
","x: 227.942626953125
y: 330.49212646484375
z: -0.09151569753885269
visibility: 0.9685468673706055
","x: 185.9641571044922
y: 335.52667236328125
z: -0.09330802410840988
visibility: 0.934625506401062
","x: 201.4531707763672
y: 332.710693359375
z: -0.2270280420780182
visibility: 0.9147650599479675
","x: 210.28367614746094
y: 339.411865234375
z: -0.22473783791065216
visibility: 0.9237054586410522
","x: 193.6721649169922
y: 335.3343505859375
z: -0.2607420086860657
visibility: 0.8794639706611633
","x: 216.2490234375
y: 338.01605224609375
z: -0.26040929555892944
visibility: 0.874678373336792
","x: 193.02650451660156
y: 330.8008117675781
z: -0.27356594800949097
visibility: 0.8807601928710938
","x: 217.8523406982422
y: 331.8887023925781
z: -0.2558795213699341
visibility: 0.8777999877929688
","x: 195.69229125976562
y: 329.89111328125
z: -0.2354460209608078
visibility: 0.8585734963417053
","x: 215.9013671875
y: 332.346435546875
z: -0.22517581284046173
visibility: 0.8511912822723389
","x: 221.6736602783203
y: 381.6053466796875
z: -0.01203063316643238
visibility: 0.9996637105941772
","x: 200.16268920898438
y: 382.87847900390625
z: 0.012025618925690651
visibility: 0.9995417594909668
","x: 216.23927307128906
y: 455.1681823730469
z: -0.11598391830921173
visibility: 0.9813487529754639
","x: 194.13075256347656
y: 459.671875
z: -0.041424207389354706
visibility: 0.9395822286605835
","x: 210.6561737060547
y: 535.0723876953125
z: 0.026595402508974075
visibility: 0.9777905344963074
","x: 195.2734375
y: 529.9348754882812
z: 0.0851246565580368
visibility: 0.9221728444099426
","x: 205.00108337402344
y: 546.0552368164062
z: 0.036204881966114044
visibility: 0.8510091304779053
","x: 194.06719970703125
y: 540.7593383789062
z: 0.09068063646554947
visibility: 0.7843559384346008
","x: 215.01736450195312
y: 556.8287963867188
z: -0.08367285132408142
visibility: 0.9762970805168152
","x: 197.31979370117188
y: 555.1082763671875
z: -0.022027140483260155
visibility: 0.9303561449050903
",,,,,,,,,,,,,,,,,,,,,,,,,,,,,,,,,,,,,,,,,,
25,"x: 208.86279296875
y: 242.810302734375
z: -0.17722927033901215
visibility: 0.9997619986534119
","x: 211.3646697998047
y: 237.87265014648438
z: -0.15573391318321228
visibility: 0.999323308467865
","x: 212.8267822265625
y: 238.36679077148438
z: -0.15571030974388123
visibility: 0.9992471933364868
","x: 214.3399658203125
y: 238.97169494628906
z: -0.1556665003299713
visibility: 0.9992204904556274
","x: 207.40708923339844
y: 237.42459106445312
z: -0.16059087216854095
visibility: 0.9995399117469788
","x: 206.0955047607422
y: 237.66661071777344
z: -0.1606263965368271
visibility: 0.999555230140686
","x: 204.87399291992188
y: 237.95098876953125
z: -0.16064825654029846
visibility: 0.9995975494384766
","x: 216.1849365234375
y: 244.46511840820312
z: -0.03882872313261032
visibility: 0.9981486797332764
","x: 203.0745849609375
y: 243.34242248535156
z: -0.06265050917863846
visibility: 0.9993754029273987
","x: 212.0833740234375
y: 251.2608642578125
z: -0.13473393023014069
visibility: 0.9997817873954773
","x: 205.99534606933594
y: 250.77383422851562
z: -0.14167092740535736
visibility: 0.9997623562812805
","x: 227.9663848876953
y: 282.8882141113281
z: 0.005111921578645706
visibility: 0.9998716115951538
","x: 189.73512268066406
y: 288.3910217285156
z: -0.027728568762540817
visibility: 0.9998018741607666
","x: 240.39859008789062
y: 273.55584716796875
z: -0.13327756524085999
visibility: 0.9707427024841309
","x: 185.07574462890625
y: 333.63226318359375
z: -0.13529320061206818
visibility: 0.9399695992469788
","x: 225.30906677246094
y: 233.7327423095703
z: -0.3341214060783386
visibility: 0.920890212059021
","x: 197.8201904296875
y: 340.3697509765625
z: -0.3084332346916199
visibility: 0.9278917908668518
","x: 226.08169555664062
y: 221.86746215820312
z: -0.3792310357093811
visibility: 0.8850789666175842
","x: 200.82179260253906
y: 342.3426513671875
z: -0.3474472761154175
visibility: 0.8796215653419495
","x: 224.97958374023438
y: 220.39010620117188
z: -0.3708590865135193
visibility: 0.8857181072235107
","x: 202.6333465576172
y: 337.6519470214844
z: -0.3525499403476715
visibility: 0.8823941349983215
","x: 224.20443725585938
y: 225.6782684326172
z: -0.3378435969352722
visibility: 0.8637616634368896
","x: 201.96656799316406
y: 338.2067565917969
z: -0.31306949257850647
visibility: 0.855518102645874
","x: 222.65383911132812
y: 385.3700256347656
z: -0.002572486875578761
visibility: 0.9996931552886963
","x: 200.1781005859375
y: 384.65777587890625
z: 0.0023654380347579718
visibility: 0.9995792508125305
","x: 222.81253051757812
y: 468.6318359375
z: -0.033677052706480026
visibility: 0.9826992154121399
","x: 194.13800048828125
y: 460.4389953613281
z: -0.029505029320716858
visibility: 0.9448711276054382
","x: 237.02850341796875
y: 539.4105834960938
z: 0.11569313704967499
visibility: 0.9794681072235107
","x: 171.61805725097656
y: 526.9896240234375
z: 0.13142673671245575
visibility: 0.9291231036186218
","x: 241.29498291015625
y: 549.7113037109375
z: 0.12283980846405029
visibility: 0.8420798182487488
","x: 165.84039306640625
y: 532.902099609375
z: 0.1417921632528305
visibility: 0.7895019054412842
","x: 227.54507446289062
y: 562.9013671875
z: -0.011793996207416058
visibility: 0.9774916768074036
","x: 177.9834442138672
y: 555.7446899414062
z: 0.01807311363518238
visibility: 0.9361177682876587
",,,,,,,,,,,,,,,,,,,,,,,,,,,,,,,,,,,,,,,,,,
26,"x: 208.9219970703125
y: 238.79849243164062
z: -0.1872248649597168
visibility: 0.9997615814208984
","x: 211.38768005371094
y: 235.13108825683594
z: -0.1679850071668625
visibility: 0.9993557929992676
","x: 212.82066345214844
y: 235.79896545410156
z: -0.16796627640724182
visibility: 0.9992812275886536
","x: 214.2912139892578
y: 236.5062713623047
z: -0.16791069507598877
visibility: 0.9992567300796509
","x: 207.40196228027344
y: 234.6504364013672
z: -0.16886527836322784
visibility: 0.9995476007461548
","x: 206.08053588867188
y: 234.99948120117188
z: -0.16890020668506622
visibility: 0.9995604753494263
","x: 204.8485565185547
y: 235.41253662109375
z: -0.16890889406204224
visibility: 0.9996065497398376
","x: 216.4988250732422
y: 243.5238800048828
z: -0.06321732699871063
visibility: 0.9982741475105286
","x: 203.08265686035156
y: 241.79507446289062
z: -0.0682242140173912
visibility: 0.9993966221809387
","x: 212.15359497070312
y: 247.88719177246094
z: -0.14838626980781555
visibility: 0.9997925162315369
","x: 206.0850830078125
y: 247.5442352294922
z: -0.150166317820549
visibility: 0.9997764229774475
","x: 228.6997833251953
y: 282.62945556640625
z: -0.005880667362362146
visibility: 0.999858021736145
","x: 189.95912170410156
y: 281.4609375
z: -0.018208954483270645
visibility: 0.9997950792312622
","x: 240.12339782714844
y: 321.6055908203125
z: -0.08756064623594284
visibility: 0.96701580286026
","x: 178.22193908691406
y: 321.7767333984375
z: -0.0842835083603859
visibility: 0.9420715570449829
","x: 229.99786376953125
y: 314.15179443359375
z: -0.29615601897239685
visibility: 0.9089363217353821
","x: 192.78067016601562
y: 329.15179443359375
z: -0.27541741728782654
visibility: 0.9227471947669983
","x: 228.43643188476562
y: 311.17864990234375
z: -0.33861416578292847
visibility: 0.8671308755874634
","x: 192.479736328125
y: 332.80621337890625
z: -0.31813663244247437
visibility: 0.8713259100914001
","x: 226.38461303710938
y: 303.3419494628906
z: -0.34250199794769287
visibility: 0.8687332272529602
","x: 193.36520385742188
y: 328.61083984375
z: -0.32590651512145996
visibility: 0.8739596009254456
","x: 225.93955993652344
y: 303.50152587890625
z: -0.30234426259994507
visibility: 0.8420751690864563
","x: 193.48895263671875
y: 327.29754638671875
z: -0.2827360928058624
visibility: 0.8448243737220764
","x: 222.06954956054688
y: 381.2031555175781
z: 0.0023641041480004787
visibility: 0.9996287226676941
","x: 199.57720947265625
y: 380.9873046875
z: -0.002397534903138876
visibility: 0.9994962215423584
","x: 220.7772674560547
y: 459.94793701171875
z: -0.03628639876842499
visibility: 0.9829402565956116
","x: 196.70361328125
y: 458.5501403808594
z: -0.02698293700814247
visibility: 0.9488939046859741
","x: 229.3507080078125
y: 532.1351928710938
z: 0.13748301565647125
visibility: 0.9801841378211975
","x: 192.71949768066406
y: 526.8326416015625
z: 0.1360129415988922
visibility: 0.9345304369926453
","x: 237.09860229492188
y: 541.55517578125
z: 0.1481778621673584
visibility: 0.8421926498413086
","x: 191.979248046875
y: 530.5201416015625
z: 0.14561043679714203
visibility: 0.7887179255485535
","x: 223.94642639160156
y: 556.5072021484375
z: 0.021017249673604965
visibility: 0.9775923490524292
","x: 198.19007873535156
y: 554.170654296875
z: 0.018998267129063606
visibility: 0.9398893117904663
",,,,,,,,,,,,,,,,,,,,,,,,,,,,,,,,,,,,,,,,,,
27,"x: 207.43655395507812
y: 239.77413940429688
z: -0.16064873337745667
visibility: 0.9997787475585938
","x: 209.58689880371094
y: 235.72052001953125
z: -0.1480119377374649
visibility: 0.9994089007377625
","x: 211.0228271484375
y: 236.293701171875
z: -0.14796695113182068
visibility: 0.9993417859077454
","x: 212.41810607910156
y: 236.86402893066406
z: -0.14794553816318512
visibility: 0.999321699142456
","x: 205.5753936767578
y: 235.21812438964844
z: -0.13753101229667664
visibility: 0.9995769262313843
","x: 204.39488220214844
y: 235.4913330078125
z: -0.13759730756282806
visibility: 0.9995858669281006
","x: 203.17367553710938
y: 235.82794189453125
z: -0.13762632012367249
visibility: 0.9996287822723389
","x: 214.4805450439453
y: 243.03631591796875
z: -0.0693250373005867
visibility: 0.9984381794929504
","x: 201.6067657470703
y: 242.11351013183594
z: -0.03617886081337929
visibility: 0.999376118183136
","x: 210.626708984375
y: 248.0862274169922
z: -0.1374569684267044
visibility: 0.9997975826263428
","x: 204.95384216308594
y: 247.94271850585938
z: -0.12510541081428528
visibility: 0.9997371435165405
","x: 226.97059631347656
y: 289.13092041015625
z: -0.05296645686030388
visibility: 0.9998237490653992
","x: 190.09991455078125
y: 281.4794616699219
z: -0.007428786717355251
visibility: 0.9997032284736633
","x: 231.7962646484375
y: 345.1141052246094
z: -0.06836938112974167
visibility: 0.9686976671218872
","x: 178.82867431640625
y: 300.7210693359375
z: -0.13643833994865417
visibility: 0.9470136165618896
","x: 227.30401611328125
y: 392.2161560058594
z: -0.07080355286598206
visibility: 0.9093342423439026
","x: 192.06906127929688
y: 252.18397521972656
z: -0.2941787838935852
visibility: 0.9291093349456787
","x: 227.40252685546875
y: 405.703369140625
z: -0.07691704481840134
visibility: 0.8589303493499756
","x: 193.3380126953125
y: 237.80169677734375
z: -0.3241637945175171
visibility: 0.8793442249298096
","x: 224.89068603515625
y: 405.64288330078125
z: -0.08989781886339188
visibility: 0.8607234954833984
","x: 193.99449157714844
y: 236.4390411376953
z: -0.3067986071109772
visibility: 0.8810449838638306
","x: 223.9756622314453
y: 401.0846252441406
z: -0.07399611920118332
visibility: 0.8325161337852478
","x: 194.27182006835938
y: 241.0718994140625
z: -0.2929828464984894
visibility: 0.8520877957344055
","x: 217.2447509765625
y: 382.18988037109375
z: -0.013654479756951332
visibility: 0.999660849571228
","x: 195.9616241455078
y: 380.83056640625
z: 0.013482548296451569
visibility: 0.9995364546775818
","x: 206.53424072265625
y: 447.8038024902344
z: -0.31077656149864197
visibility: 0.9767223000526428
","x: 196.66717529296875
y: 457.5179748535156
z: 0.027136031538248062
visibility: 0.9191151857376099
","x: 199.3413543701172
y: 529.2926635742188
z: -0.33984318375587463
visibility: 0.9764039516448975
","x: 197.94418334960938
y: 526.2310180664062
z: 0.11226264387369156
visibility: 0.9159561395645142
","x: 197.12173461914062
y: 541.542724609375
z: -0.3472849726676941
visibility: 0.8448862433433533
","x: 200.38726806640625
y: 533.6004638671875
z: 0.1225297600030899
visibility: 0.7700494527816772
","x: 199.06939697265625
y: 546.1889038085938
z: -0.47583919763565063
visibility: 0.976880669593811
","x: 195.54653930664062
y: 545.0162963867188
z: 0.014992709271609783
visibility: 0.926488995552063
",,,,,,,,,,,,,,,,,,,,,,,,,,,,,,,,,,,,,,,,,,
28,"x: 206.4847412109375
y: 239.6653594970703
z: -0.16262254118919373
visibility: 0.9997992515563965
","x: 208.6509246826172
y: 235.51388549804688
z: -0.14514794945716858
visibility: 0.9994649291038513
","x: 210.1947479248047
y: 236.0433807373047
z: -0.1450893133878708
visibility: 0.9994044899940491
","x: 211.67308044433594
y: 236.58670043945312
z: -0.1451006829738617
visibility: 0.9993869662284851
","x: 204.33815002441406
y: 235.1248321533203
z: -0.14323274791240692
visibility: 0.9996142387390137
","x: 203.11715698242188
y: 235.4351806640625
z: -0.14328588545322418
visibility: 0.999621570110321
","x: 201.96788024902344
y: 235.80691528320312
z: -0.14332732558250427
visibility: 0.9996600151062012
","x: 213.80735778808594
y: 242.51010131835938
z: -0.04903533309698105
visibility: 0.9985927939414978
","x: 200.7147216796875
y: 242.03677368164062
z: -0.04215189814567566
visibility: 0.9994189143180847
","x: 209.94247436523438
y: 247.9679718017578
z: -0.12758614122867584
visibility: 0.999815821647644
","x: 203.85374450683594
y: 247.8629150390625
z: -0.12570104002952576
visibility: 0.9997555613517761
","x: 226.97865295410156
y: 289.113525390625
z: -0.004977134056389332
visibility: 0.9998331665992737
","x: 189.28330993652344
y: 280.54150390625
z: -0.012873748317360878
visibility: 0.9996928572654724
","x: 234.73236083984375
y: 338.0060119628906
z: 0.005182970780879259
visibility: 0.9683703780174255
","x: 181.05911254882812
y: 298.58770751953125
z: -0.15386006236076355
visibility: 0.9490376114845276
","x: 229.21694946289062
y: 375.65179443359375
z: -0.037951864302158356
visibility: 0.9031391143798828
","x: 199.42958068847656
y: 282.05755615234375
z: -0.32537299394607544
visibility: 0.9252981543540955
","x: 228.22604370117188
y: 388.91619873046875
z: -0.046355534344911575
visibility: 0.8483507633209229
","x: 205.09132385253906
y: 280.03045654296875
z: -0.35954755544662476
visibility: 0.8696367144584656
","x: 225.8355712890625
y: 386.7532043457031
z: -0.06408552080392838
visibility: 0.8511574864387512
","x: 206.58087158203125
y: 279.41278076171875
z: -0.3439258635044098
visibility: 0.868977427482605
","x: 225.35641479492188
y: 382.6308898925781
z: -0.0436614565551281
visibility: 0.8212118148803711
","x: 205.15365600585938
y: 279.8571472167969
z: -0.32368314266204834
visibility: 0.8348917961120605
","x: 215.5008087158203
y: 380.6384582519531
z: -0.013998918235301971
visibility: 0.9996928572654724
","x: 193.6739044189453
y: 380.13916015625
z: 0.013850410468876362
visibility: 0.9995796084403992
","x: 197.14306640625
y: 431.13934326171875
z: -0.3282880187034607
visibility: 0.9781317114830017
","x: 196.6471710205078
y: 458.5096740722656
z: -0.022105535492300987
visibility: 0.9184858798980713
","x: 207.66314697265625
y: 478.9073486328125
z: -0.17767134308815002
visibility: 0.9758439064025879
","x: 199.954345703125
y: 530.61376953125
z: 0.08504743874073029
visibility: 0.9212197065353394
","x: 206.58580017089844
y: 480.0849609375
z: -0.16504111886024475
visibility: 0.8475885987281799
","x: 202.80299377441406
y: 539.7725830078125
z: 0.0922362208366394
visibility: 0.7806639075279236
","x: 204.36268615722656
y: 512.546142578125
z: -0.25703614950180054
visibility: 0.9771767258644104
","x: 197.52212524414062
y: 552.1447143554688
z: -0.009012246504426003
visibility: 0.9304261803627014
",,,,,,,,,,,,,,,,,,,,,,,,,,,,,,,,,,,,,,,,,,
29,"x: 205.73333740234375
y: 239.57069396972656
z: -0.17046919465065002
visibility: 0.9998185038566589
","x: 208.0108184814453
y: 235.2120361328125
z: -0.15292111039161682
visibility: 0.9995160102844238
","x: 209.49156188964844
y: 235.65345764160156
z: -0.15287895500659943
visibility: 0.9994614720344543
","x: 210.89892578125
y: 236.09466552734375
z: -0.15287594497203827
visibility: 0.9994456171989441
","x: 203.84597778320312
y: 234.89138793945312
z: -0.15067540109157562
visibility: 0.9996494650840759
","x: 202.6165771484375
y: 235.15017700195312
z: -0.15071579813957214
visibility: 0.999656081199646
","x: 201.54141235351562
y: 235.44496154785156
z: -0.15075388550758362
visibility: 0.9996906518936157
","x: 212.87118530273438
y: 241.73133850097656
z: -0.056757230311632156
visibility: 0.9987321496009827
","x: 200.13394165039062
y: 241.85140991210938
z: -0.04602306708693504
visibility: 0.9994664788246155
","x: 208.94454956054688
y: 247.87823486328125
z: -0.13493376970291138
visibility: 0.9998331665992737
","x: 203.05943298339844
y: 247.59613037109375
z: -0.13237705826759338
visibility: 0.9997772574424744
","x: 226.39141845703125
y: 287.53118896484375
z: -0.017447255551815033
visibility: 0.9998476505279541
","x: 188.2244415283203
y: 279.479248046875
z: -0.011969578452408314
visibility: 0.9997117519378662
","x: 236.08627319335938
y: 332.22412109375
z: -0.01723894104361534
visibility: 0.9711155295372009
","x: 181.0929412841797
y: 301.1715393066406
z: -0.15535250306129456
visibility: 0.9519850611686707
","x: 230.11988830566406
y: 365.8463134765625
z: -0.04842383787035942
visibility: 0.9104766249656677
","x: 202.04257202148438
y: 279.60552978515625
z: -0.34556230902671814
visibility: 0.9307116270065308
","x: 228.73684692382812
y: 379.011962890625
z: -0.05731670930981636
visibility: 0.8570761680603027
","x: 207.7843017578125
y: 275.686767578125
z: -0.38048285245895386
