uscmakers/ReverseChoreography/data/4_humble_kendrick_lamar.csv
,NOSE,LEFT_EYE_INNER,LEFT_EYE,LEFT_EYE_OUTER,RIGHT_EYE_INNER,RIGHT_EYE,RIGHT_EYE_OUTER,LEFT_EAR,RIGHT_EAR,MOUTH_LEFT,MOUTH_RIGHT,LEFT_SHOULDER,RIGHT_SHOULDER,LEFT_ELBOW,RIGHT_ELBOW,LEFT_WRIST,RIGHT_WRIST,LEFT_PINKY,RIGHT_PINKY,LEFT_INDEX,RIGHT_INDEX,LEFT_THUMB,RIGHT_THUMB,LEFT_HIP,RIGHT_HIP,LEFT_KNEE,RIGHT_KNEE,LEFT_ANKLE,RIGHT_ANKLE,LEFT_HEEL,RIGHT_HEEL,LEFT_FOOT_INDEX,RIGHT_FOOT_INDEX,WRIST2,THUMB_CPC2,THUMB_MCP2,THUMB_IP2,THUMB_TIP2,INDEX_FINGER_MCP2,INDEX_FINGER_PIP2,INDEX_FINGER_DIP2,INDEX_FINGER_TIP2,MIDDLE_FINGER_MCP2,MIDDLE_FINGER_PIP2,MIDDLE_FINGER_DIP2,MIDDLE_FINGER_TIP2,RING_FINGER_PIP2,RING_FINGER_DIP2,RING_FINGER_TIP2,RING_FINGER_MCP2,PINKY_MCP2,PINKY_PIP2,PINKY_DIP2,PINKY_TIP2,WRIST,THUMB_CPC,THUMB_MCP,THUMB_IP,THUMB_TIP,INDEX_FINGER_MCP,INDEX_FINGER_PIP,INDEX_FINGER_DIP,INDEX_FINGER_TIP,MIDDLE_FINGER_MCP,MIDDLE_FINGER_PIP,MIDDLE_FINGER_DIP,MIDDLE_FINGER_TIP,RING_FINGER_PIP,RING_FINGER_DIP,RING_FINGER_TIP,RING_FINGER_MCP,PINKY_MCP,PINKY_PIP,PINKY_DIP,PINKY_TIP
0,"x: 206.98651123046875
y: 233.81655883789062
z: -0.32399752736091614
visibility: 0.9999884366989136
","x: 209.0949249267578
y: 228.05874633789062
z: -0.31056785583496094
visibility: 0.9999650716781616
","x: 210.85055541992188
y: 228.19406127929688
z: -0.31057602167129517
visibility: 0.9999644756317139
","x: 212.5501708984375
y: 228.4229736328125
z: -0.3105981945991516
visibility: 0.9999676942825317
","x: 204.9813995361328
y: 228.84112548828125
z: -0.308384507894516
visibility: 0.999964714050293
","x: 203.80642700195312
y: 229.4644775390625
z: -0.30843907594680786
visibility: 0.9999603033065796
","x: 202.52308654785156
y: 230.11959838867188
z: -0.3084815740585327
visibility: 0.9999582767486572
","x: 215.73406982421875
y: 233.83807373046875
z: -0.21281500160694122
visibility: 0.9998985528945923
","x: 201.6151123046875
y: 236.59478759765625
z: -0.20372381806373596
visibility: 0.9998958110809326
","x: 211.17733764648438
y: 242.6370086669922
z: -0.28667765855789185
visibility: 0.9999841451644897
","x: 204.97401428222656
y: 243.22573852539062
z: -0.2840753197669983
visibility: 0.9999819993972778
","x: 232.48046875
y: 282.83001708984375
z: -0.13256068527698517
visibility: 0.9999572038650513
","x: 190.71112060546875
y: 285.4226379394531
z: -0.13611364364624023
visibility: 0.9999630451202393
","x: 234.6792755126953
y: 339.637451171875
z: -0.09869183599948883
visibility: 0.9846541881561279
","x: 186.142578125
y: 345.82818603515625
z: -0.09131957590579987
visibility: 0.9744660258293152
","x: 231.76463317871094
y: 387.77142333984375
z: -0.1878403127193451
visibility: 0.9677083492279053
","x: 184.0079345703125
y: 395.500244140625
z: -0.16069276630878448
visibility: 0.9333545565605164
","x: 231.15042114257812
y: 402.27056884765625
z: -0.21711032092571259
visibility: 0.9282093048095703
","x: 181.93234252929688
y: 411.70947265625
z: -0.1864863485097885
visibility: 0.8833604454994202
","x: 228.1432342529297
y: 399.9014587402344
z: -0.24469199776649475
visibility: 0.9324907064437866
","x: 183.1495819091797
y: 412.1275329589844
z: -0.21674737334251404
visibility: 0.8874608874320984
","x: 227.59707641601562
y: 395.50128173828125
z: -0.1997678577899933
visibility: 0.9115867614746094
","x: 184.2764892578125
y: 406.026123046875
z: -0.17383620142936707
visibility: 0.8672647476196289
","x: 222.13380432128906
y: 383.7275390625
z: 0.018935756757855415
visibility: 0.9996505975723267
","x: 199.97579956054688
y: 384.94671630859375
z: -0.019076289609074593
visibility: 0.9997374415397644
","x: 225.43240356445312
y: 468.8729248046875
z: -0.02260206826031208
visibility: 0.9552517533302307
","x: 206.4479522705078
y: 469.9349365234375
z: -0.054686568677425385
visibility: 0.9768341183662415
","x: 217.16941833496094
y: 542.7435302734375
z: 0.11187396198511124
visibility: 0.9694337248802185
","x: 205.20266723632812
y: 547.3531494140625
z: 0.08549782633781433
visibility: 0.9783321022987366
","x: 212.13137817382812
y: 556.8822021484375
z: 0.11835362762212753
visibility: 0.9107103943824768
","x: 203.55642700195312
y: 560.7938232421875
z: 0.09213446825742722
visibility: 0.7868349552154541
","x: 229.7902374267578
y: 565.4544677734375
z: 0.00417722575366497
visibility: 0.9673869609832764
","x: 208.14601135253906
y: 573.0960693359375
z: -0.03436700254678726
visibility: 0.9715264439582825
",,,,,,,,,,,,,,,,,,,,,,,,,,,,,,,,,,,,,,,,,,
1,"x: 198.52740478515625
y: 232.31295776367188
z: -0.3284775912761688
visibility: 0.9999884963035583
","x: 199.67774963378906
y: 224.951416015625
z: -0.313632071018219
visibility: 0.9999662041664124
","x: 201.29249572753906
y: 224.5565643310547
z: -0.31364092230796814
visibility: 0.9999653697013855
","x: 202.83309936523438
y: 224.1629180908203
z: -0.3136739134788513
visibility: 0.9999681115150452
","x: 195.16390991210938
y: 226.6624755859375
z: -0.31316500902175903
visibility: 0.9999657869338989
","x: 193.57089233398438
y: 227.54295349121094
z: -0.3132096529006958
visibility: 0.9999617338180542
","x: 192.06578063964844
y: 228.39227294921875
z: -0.31326162815093994
visibility: 0.9999595880508423
","x: 205.97470092773438
y: 226.81826782226562
z: -0.20136046409606934
visibility: 0.9999047517776489
","x: 191.44561767578125
y: 233.376220703125
z: -0.20012164115905762
visibility: 0.9999023675918579
","x: 202.4413604736328
y: 239.5759735107422
z: -0.28593653440475464
visibility: 0.999984622001648
","x: 197.4468231201172
y: 242.44161987304688
z: -0.2840937077999115
visibility: 0.9999821186065674
","x: 224.80433654785156
y: 273.6478271484375
z: -0.0836489349603653
visibility: 0.9999585151672363
","x: 182.77337646484375
y: 274.4809265136719
z: -0.14139696955680847
visibility: 0.9999576210975647
","x: 237.60406494140625
y: 321.2672119140625
z: -0.03130268305540085
visibility: 0.9852445125579834
","x: 182.5035400390625
y: 330.2406005859375
z: -0.2017124891281128
visibility: 0.9757145047187805
","x: 241.14224243164062
y: 365.7391357421875
z: -0.12498728930950165
visibility: 0.9694987535476685
","x: 203.01971435546875
y: 341.22760009765625
z: -0.36856940388679504
visibility: 0.938769519329071
","x: 242.73553466796875
y: 380.7081604003906
z: -0.15091124176979065
visibility: 0.932006299495697
","x: 209.76475524902344
y: 349.5053405761719
z: -0.41100621223449707
visibility: 0.892473578453064
","x: 240.245849609375
y: 379.9564208984375
z: -0.18062159419059753
visibility: 0.9361567497253418
","x: 211.9530792236328
y: 343.419677734375
z: -0.424663782119751
visibility: 0.8960828185081482
","x: 238.82794189453125
y: 374.78131103515625
z: -0.1376800388097763
visibility: 0.9165269136428833
","x: 210.54965209960938
y: 340.7421875
z: -0.3756125569343567
visibility: 0.8761408925056458
","x: 214.78285217285156
y: 382.4517822265625
z: 0.011567546054720879
visibility: 0.9996678829193115
","x: 192.547607421875
y: 381.44287109375
z: -0.011639492586255074
visibility: 0.999733567237854
","x: 208.55332946777344
y: 467.3374938964844
z: -0.03347384184598923
visibility: 0.9536156058311462
","x: 196.33909606933594
y: 468.96551513671875
z: -0.028470581397414207
visibility: 0.9739364981651306
","x: 199.7742462158203
y: 545.6774291992188
z: 0.10405097156763077
visibility: 0.9682609438896179
","x: 201.79730224609375
y: 544.1471557617188
z: 0.14862528443336487
visibility: 0.9748479723930359
","x: 196.89224243164062
y: 557.4837646484375
z: 0.11013923585414886
visibility: 0.9075728058815002
","x: 201.84249877929688
y: 552.78857421875
z: 0.16060224175453186
visibility: 0.7854931950569153
","x: 205.16455078125
y: 571.0411376953125
z: -0.009134724736213684
visibility: 0.965734601020813
","x: 199.35910034179688
y: 570.9953002929688
z: 0.0512874610722065
visibility: 0.9684135913848877
",,,,,,,,,,,,,,,,,,,,,,,,,,,,,,,,,,,,,,,,,,
2,"x: 199.19468688964844
y: 243.8772430419922
z: -0.23648622632026672
visibility: 0.999985933303833
","x: 201.0167999267578
y: 236.6033172607422
z: -0.21475791931152344
visibility: 0.9999611377716064
","x: 202.63902282714844
y: 237.00331115722656
z: -0.21474000811576843
visibility: 0.999959409236908
","x: 204.21212768554688
y: 237.4107666015625
z: -0.2147294580936432
visibility: 0.999962329864502
","x: 196.7169189453125
y: 235.89633178710938
z: -0.2187824249267578
visibility: 0.9999604225158691
","x: 195.1995849609375
y: 236.08786010742188
z: -0.21882791817188263
visibility: 0.9999562501907349
","x: 193.71844482421875
y: 236.3691864013672
z: -0.21888883411884308
visibility: 0.9999552965164185
","x: 206.04904174804688
y: 240.78302001953125
z: -0.09381338208913803
visibility: 0.9998980164527893
","x: 191.56260681152344
y: 241.37179565429688
z: -0.11158549785614014
visibility: 0.9998995065689087
","x: 201.9535675048828
y: 252.332763671875
z: -0.19031603634357452
visibility: 0.999983012676239
","x: 197.02044677734375
y: 252.9208526611328
z: -0.19566500186920166
visibility: 0.99997878074646
","x: 219.45663452148438
y: 285.9312744140625
z: -0.023139959201216698
visibility: 0.9999587535858154
","x: 178.7429962158203
y: 283.95428466796875
z: -0.08054940402507782
visibility: 0.9999444484710693
","x: 228.10302734375
y: 333.46868896484375
z: -0.0063880207017064095
visibility: 0.9804293513298035
","x: 182.88746643066406
y: 333.1886291503906
z: -0.17282745242118835
visibility: 0.9768839478492737
","x: 225.29339599609375
y: 372.14337158203125
z: -0.0967470183968544
visibility: 0.9616193771362305
","x: 215.01499938964844
y: 339.8718566894531
z: -0.32348597049713135
visibility: 0.9431867599487305
","x: 226.70228576660156
y: 384.4308776855469
z: -0.12095377594232559
visibility: 0.9248386025428772
","x: 221.40818786621094
y: 337.5179748535156
z: -0.36679404973983765
visibility: 0.8998898267745972
","x: 224.8504638671875
y: 380.78875732421875
z: -0.14250990748405457
visibility: 0.9286767244338989
","x: 222.01087951660156
y: 333.8110656738281
z: -0.3681880831718445
visibility: 0.9029531478881836
","x: 223.8175048828125
y: 378.61993408203125
z: -0.10647477954626083
visibility: 0.9088152050971985
","x: 219.31483459472656
y: 335.13592529296875
z: -0.326041579246521
visibility: 0.8827484846115112
","x: 210.32608032226562
y: 395.9602355957031
z: -0.009050356224179268
visibility: 0.9996994137763977
","x: 186.623779296875
y: 396.81463623046875
z: 0.009119094349443913
visibility: 0.9997522830963135
","x: 200.35906982421875
y: 472.9394836425781
z: -0.1338210254907608
visibility: 0.9575451016426086
","x: 176.8514862060547
y: 479.9679870605469
z: 0.0020817057229578495
visibility: 0.974717915058136
","x: 191.75733947753906
y: 550.6348266601562
z: 0.0017942361300811172
visibility: 0.9705239534378052
","x: 196.17347717285156
y: 523.0596313476562
z: 0.34413936734199524
visibility: 0.9639406204223633
","x: 190.45181274414062
y: 561.406005859375
z: 0.009163260459899902
visibility: 0.9032662510871887
","x: 200.5615997314453
y: 523.5101928710938
z: 0.3762902319431305
visibility: 0.7790670394897461
","x: 191.3575439453125
y: 577.683349609375
z: -0.11411534249782562
visibility: 0.9678666591644287
","x: 192.63665771484375
y: 559.6245727539062
z: 0.3196752369403839
visibility: 0.9609930515289307
",,,,,,,,,,,,,,,,,,,,,,,,,,,,,,,,,,,,,,,,,,
3,"x: 199.80323791503906
y: 231.52166748046875
z: -0.345319539308548
visibility: 0.9999862313270569
","x: 201.84414672851562
y: 224.21481323242188
z: -0.32688701152801514
visibility: 0.9999608397483826
","x: 203.42552185058594
y: 224.7024688720703
z: -0.32685673236846924
visibility: 0.9999586343765259
","x: 204.84107971191406
y: 225.22804260253906
z: -0.3268408179283142
visibility: 0.9999607801437378
","x: 197.27374267578125
y: 223.48509216308594
z: -0.3310934901237488
visibility: 0.999961256980896
","x: 195.80126953125
y: 223.6337890625
z: -0.3311237394809723
visibility: 0.9999577403068542
","x: 194.3402862548828
y: 223.8932647705078
z: -0.3311575651168823
visibility: 0.9999573230743408
","x: 206.40476989746094
y: 229.12071228027344
z: -0.19666440784931183
visibility: 0.9998929500579834
","x: 191.5865936279297
y: 228.02890014648438
z: -0.21851888298988342
visibility: 0.999906063079834
","x: 202.5511932373047
y: 240.30572509765625
z: -0.29510360956192017
visibility: 0.9999821782112122
","x: 196.93064880371094
y: 240.37725830078125
z: -0.30080658197402954
visibility: 0.9999793767929077
","x: 218.8166046142578
y: 274.6444091796875
z: -0.06205356866121292
visibility: 0.9999597668647766
","x: 176.372314453125
y: 273.36883544921875
z: -0.11467181146144867
visibility: 0.9999454021453857
","x: 224.63180541992188
y: 321.1473388671875
z: -0.04134947806596756
visibility: 0.9787624478340149
","x: 167.54713439941406
y: 327.3883361816406
z: -0.12785649299621582
visibility: 0.9784032106399536
","x: 224.17019653320312
y: 354.13531494140625
z: -0.16916115581989288
visibility: 0.9595046639442444
","x: 193.34048461914062
y: 353.1336975097656
z: -0.3037413954734802
visibility: 0.9468140006065369
","x: 224.5606231689453
y: 365.8833312988281
z: -0.20619890093803406
visibility: 0.9226300120353699
","x: 205.53077697753906
y: 362.0556640625
z: -0.32433974742889404
visibility: 0.9049575328826904
","x: 222.50045776367188
y: 362.8089599609375
z: -0.23949117958545685
visibility: 0.926744282245636
","x: 214.05738830566406
y: 358.0140380859375
z: -0.3446478545665741
visibility: 0.9076808094978333
","x: 221.4361572265625
y: 359.0155029296875
z: -0.18600264191627502
visibility: 0.9056977033615112
","x: 208.55670166015625
y: 354.1895751953125
z: -0.29026859998703003
visibility: 0.8872013092041016
","x: 209.7825164794922
y: 382.6766357421875
z: -0.007874323055148125
visibility: 0.9997128248214722
","x: 187.14523315429688
y: 381.6815490722656
z: 0.007876472547650337
visibility: 0.9997549057006836
","x: 204.0552978515625
y: 466.6910400390625
z: -0.0760938748717308
visibility: 0.9613087177276611
","x: 178.21945190429688
y: 464.19921875
z: 0.012656928971409798
visibility: 0.9766278266906738
","x: 194.7510223388672
y: 549.7138061523438
z: 0.014513274654746056
visibility: 0.9731490015983582
","x: 177.1516876220703
y: 526.2571411132812
z: 0.21811720728874207
visibility: 0.9669150710105896
","x: 192.72128295898438
y: 561.0657348632812
z: 0.035993482917547226
visibility: 0.9056081771850586
","x: 180.18272399902344
y: 533.925048828125
z: 0.2314111739397049
visibility: 0.7934308648109436
","x: 190.59765625
y: 577.397705078125
z: -0.05976182967424393
visibility: 0.9705467820167542
","x: 169.77871704101562
y: 557.0924072265625
z: 0.11917904764413834
visibility: 0.9641385078430176
",,,,,,,,,,,,,,,,,,,,,,,,,,,,,,,,,,,,,,,,,,
4,"x: 199.98756408691406
y: 222.61709594726562
z: -0.09958125650882721
visibility: 0.9999875426292419
","x: 202.15298461914062
y: 215.48422241210938
z: -0.07978097349405289
visibility: 0.9999646544456482
","x: 203.6591033935547
y: 215.78561401367188
z: -0.07981796562671661
visibility: 0.9999626278877258
","x: 205.0218505859375
y: 216.11695861816406
z: -0.07981574535369873
visibility: 0.9999645948410034
","x: 197.3954315185547
y: 214.62747192382812
z: -0.08418501913547516
visibility: 0.9999649524688721
","x: 195.7220458984375
y: 214.50111389160156
z: -0.08419099450111389
visibility: 0.999961793422699
","x: 194.09991455078125
y: 214.5175018310547
z: -0.08412612229585648
visibility: 0.9999614357948303
","x: 206.22134399414062
y: 218.965087890625
z: 0.03764666989445686
visibility: 0.9999034404754639
","x: 190.9365234375
y: 217.984130859375
z: 0.017468418926000595
visibility: 0.9999151229858398
","x: 202.62875366210938
y: 231.18873596191406
z: -0.055166952311992645
visibility: 0.9999839067459106
","x: 196.53775024414062
y: 231.0828857421875
z: -0.061137259006500244
visibility: 0.9999813437461853
","x: 217.74810791015625
y: 261.8944091796875
z: 0.08140134066343307
visibility: 0.9999637603759766
","x: 175.24024963378906
y: 260.74346923828125
z: 0.07250867038965225
visibility: 0.9999496340751648
","x: 227.01470947265625
y: 296.49786376953125
z: -0.021178273484110832
visibility: 0.9800522327423096
","x: 155.95660400390625
y: 297.98052978515625
z: -0.0027212908025830984
visibility: 0.9793243408203125
","x: 239.88650512695312
y: 326.2847595214844
z: -0.27532392740249634
visibility: 0.9632502198219299
","x: 149.7759246826172
y: 332.98590087890625
z: -0.2320132553577423
visibility: 0.9506811499595642
","x: 243.75303649902344
y: 335.89752197265625
z: -0.3306766152381897
visibility: 0.9298233389854431
","x: 146.7028350830078
y: 347.8028869628906
z: -0.31364521384239197
visibility: 0.9116730690002441
","x: 242.3256072998047
y: 333.9895324707031
z: -0.35529768466949463
visibility: 0.9336112141609192
","x: 150.21701049804688
y: 346.1256408691406
z: -0.33955803513526917
visibility: 0.9144486784934998
","x: 240.73719787597656
y: 331.5540771484375
z: -0.2918381989002228
visibility: 0.9143974184989929
","x: 152.36868286132812
y: 341.6281433105469
z: -0.24367566406726837
visibility: 0.8953925967216492
","x: 209.8061065673828
y: 371.61920166015625
z: -0.002604641020298004
visibility: 0.9997395277023315
","x: 186.55055236816406
y: 370.3952331542969
z: 0.0025673501659184694
visibility: 0.9997730255126953
","x: 208.3380126953125
y: 461.7852783203125
z: -0.041068729013204575
visibility: 0.964870810508728
","x: 175.13790893554688
y: 456.1390380859375
z: -0.023537222295999527
visibility: 0.9782320857048035
","x: 213.0178985595703
y: 548.0248413085938
z: 0.06966231018304825
visibility: 0.9754456281661987
","x: 156.78805541992188
y: 523.3851928710938
z: 0.11524921655654907
visibility: 0.9691405296325684
","x: 216.0613250732422
y: 558.7008056640625
z: 0.07901889085769653
visibility: 0.8920076489448547
","x: 153.068359375
y: 531.095458984375
z: 0.1228075623512268
visibility: 0.7865474820137024
","x: 202.41024780273438
y: 577.1380004882812
z: -0.04374367743730545
visibility: 0.9725802540779114
","x: 158.4093475341797
y: 559.6070556640625
z: -0.0033065832685679197
visibility: 0.9661003351211548
",,,,,,,,,,,,,,,,,,,,,,,,,,,,,,,,,,,,,,,,,,
5,"x: 199.20753479003906
y: 231.38812255859375
z: -0.2189793586730957
visibility: 0.9999884366989136
","x: 200.7792205810547
y: 224.24371337890625
z: -0.20123668015003204
visibility: 0.9999666810035706
","x: 202.00450134277344
y: 224.4678955078125
z: -0.20125257968902588
visibility: 0.9999650120735168
","x: 203.1531524658203
y: 224.69268798828125
z: -0.20125940442085266
visibility: 0.9999665021896362
","x: 196.88870239257812
y: 223.5403594970703
z: -0.2035120278596878
visibility: 0.9999664425849915
","x: 195.42071533203125
y: 223.42674255371094
z: -0.20354631543159485
visibility: 0.9999638795852661
","x: 193.93373107910156
y: 223.39662170410156
z: -0.20355525612831116
visibility: 0.9999631643295288
","x: 203.81350708007812
y: 227.89447021484375
z: -0.08913831412792206
visibility: 0.9999094009399414
","x: 190.25338745117188
y: 226.8626251220703
z: -0.05767945200204849
visibility: 0.9999199509620667
","x: 201.58016967773438
y: 239.03054809570312
z: -0.17650136351585388
visibility: 0.9999846816062927
","x: 196.02978515625
y: 239.3934783935547
z: -0.17655110359191895
visibility: 0.9999822378158569
","x: 217.27627563476562
y: 270.98248291015625
z: -0.018152322620153427
visibility: 0.999967098236084
","x: 174.45639038085938
y: 265.5426025390625
z: 0.0033260348718613386
visibility: 0.9999525547027588
","x: 233.96331787109375
y: 304.6006164550781
z: -0.07128246128559113
visibility: 0.981676459312439
","x: 149.0155792236328
y: 299.42401123046875
z: -0.07489749044179916
visibility: 0.9812716841697693
","x: 259.7620544433594
y: 312.15313720703125
z: -0.27438458800315857
visibility: 0.9667943120002747
","x: 125.46051788330078
y: 327.6196594238281
z: -0.22847315669059753
visibility: 0.9553967118263245
","x: 268.1029968261719
y: 315.1639404296875
z: -0.31293612718582153
visibility: 0.9364718794822693
","x: 117.77175903320312
y: 337.24798583984375
z: -0.2829686999320984
visibility: 0.9197815656661987
","x: 268.0831298828125
y: 311.9937744140625
z: -0.3492022752761841
visibility: 0.9399622082710266
","x: 119.20539855957031
y: 335.4617919921875
z: -0.30404162406921387
visibility: 0.9224070310592651
","x: 265.1250305175781
y: 311.39202880859375
z: -0.29605764150619507
visibility: 0.9226114153862
","x: 121.88143920898438
y: 333.3380432128906
z: -0.24223022162914276
visibility: 0.9051247835159302
","x: 208.62484741210938
y: 380.0293273925781
z: 0.0014116630190983415
visibility: 0.999758243560791
","x: 185.3406219482422
y: 376.26763916015625
z: -0.0014734683791175485
visibility: 0.9997873902320862
","x: 209.66366577148438
y: 469.18438720703125
z: 0.03551043942570686
visibility: 0.9681495428085327
","x: 173.66001892089844
y: 459.7362060546875
z: -0.0748295709490776
visibility: 0.9802629351615906
","x: 227.6282501220703
y: 540.345458984375
z: 0.2473205327987671
visibility: 0.9775587916374207
","x: 148.59376525878906
y: 527.43212890625
z: 0.09408452361822128
visibility: 0.9717896580696106
","x: 229.79293823242188
y: 545.0281372070312
z: 0.2623806595802307
visibility: 0.8873637318611145
","x: 143.91229248046875
y: 535.9981689453125
z: 0.10577981173992157
visibility: 0.789068341255188
","x: 226.49856567382812
y: 575.1881103515625
z: 0.14338243007659912
visibility: 0.974597692489624
","x: 154.3959503173828
y: 560.849365234375
z: -0.015779374167323112
visibility: 0.9687907695770264
",,,,,,,,,,,,,,,,,,,,,,,,,,,,,,,,,,,,,,,,,,
6,"x: 199.47276306152344
y: 242.90956115722656
z: -0.23045547306537628
visibility: 0.9999877214431763
","x: 201.13525390625
y: 239.97943115234375
z: -0.21436747908592224
visibility: 0.9999600648880005
","x: 202.4036102294922
y: 240.4390106201172
z: -0.21435780823230743
visibility: 0.9999606013298035
","x: 203.6781463623047
y: 240.9239501953125
z: -0.21435502171516418
visibility: 0.9999590516090393
","x: 197.39646911621094
y: 239.94261169433594
z: -0.2155035436153412
visibility: 0.9999592304229736
","x: 195.93441772460938
y: 240.39022827148438
z: -0.2155466079711914
visibility: 0.9999600648880005
","x: 194.26748657226562
y: 240.80938720703125
z: -0.21554049849510193
visibility: 0.9999574422836304
","x: 205.17164611816406
y: 246.89334106445312
z: -0.11375643312931061
visibility: 0.9998932480812073
","x: 190.65985107421875
y: 246.27163696289062
z: -0.11243672668933868
visibility: 0.999912440776825
","x: 202.22740173339844
y: 250.54415893554688
z: -0.19474217295646667
visibility: 0.9999760985374451
","x: 196.72584533691406
y: 250.60015869140625
z: -0.19621196389198303
visibility: 0.9999744892120361
","x: 217.93026733398438
y: 290.18505859375
z: -0.037146903574466705
visibility: 0.9999682307243347
","x: 176.14422607421875
y: 286.063720703125
z: -0.05451475828886032
visibility: 0.9999485611915588
","x: 246.55889892578125
y: 310.79443359375
z: -0.0625123456120491
visibility: 0.9833036661148071
","x: 152.90428161621094
y: 309.0023498535156
z: -0.10815123468637466
visibility: 0.9825723767280579
","x: 273.07537841796875
y: 296.98858642578125
z: -0.1691516637802124
visibility: 0.9699863791465759
","x: 126.32835388183594
y: 313.1894226074219
z: -0.23172494769096375
visibility: 0.9591889381408691
","x: 281.04010009765625
y: 291.8702392578125
z: -0.1900087296962738
visibility: 0.942322313785553
","x: 117.75013732910156
y: 315.0435485839844
z: -0.27109965682029724
visibility: 0.9258922934532166
","x: 280.9863586425781
y: 287.719970703125
z: -0.21976029872894287
visibility: 0.9455578923225403
","x: 117.86709594726562
y: 310.8721923828125
z: -0.29483562707901
visibility: 0.9286469221115112
","x: 278.0081787109375
y: 289.12060546875
z: -0.18771371245384216
visibility: 0.929908037185669
","x: 120.60143280029297
y: 311.1205749511719
z: -0.24817915260791779
visibility: 0.9129756689071655
","x: 209.06231689453125
y: 394.25885009765625
z: 0.004193720407783985
visibility: 0.9997608065605164
","x: 186.8128662109375
y: 391.5002136230469
z: -0.004337219521403313
visibility: 0.9997951984405518
","x: 210.41461181640625
y: 479.3567199707031
z: 0.08468551933765411
visibility: 0.9710009694099426
","x: 175.8697967529297
y: 468.10614013671875
z: -0.08202309161424637
visibility: 0.9820749759674072
","x: 230.5494384765625
y: 540.8201904296875
z: 0.28978925943374634
visibility: 0.9795787334442139
","x: 148.76910400390625
y: 528.446044921875
z: 0.026171714067459106
visibility: 0.9744046330451965
","x: 232.82699584960938
y: 546.8639526367188
z: 0.3036695122718811
visibility: 0.8901805281639099
","x: 144.7600555419922
y: 537.5072021484375
z: 0.031741730868816376
visibility: 0.8020117878913879
","x: 228.5755157470703
y: 574.536376953125
z: 0.1875249594449997
visibility: 0.9766961932182312
","x: 153.8988037109375
y: 561.677978515625
z: -0.09363953769207001
visibility: 0.9715814590454102
",,,,,,,,,,,,,,,,,,,,,,,,,,,,,,,,,,,,,,,,,,
7,"x: 203.2509307861328
y: 234.85467529296875
z: -0.3385283350944519
visibility: 0.9999880194664001
","x: 205.33226013183594
y: 228.63467407226562
z: -0.32318800687789917
visibility: 0.9999603033065796
","x: 206.95887756347656
y: 228.50335693359375
z: -0.3232213258743286
visibility: 0.9999610781669617
","x: 208.4546356201172
y: 228.47894287109375
z: -0.323253333568573
visibility: 0.9999593496322632
","x: 200.84727478027344
y: 229.30841064453125
z: -0.32448166608810425
visibility: 0.9999589323997498
","x: 199.21200561523438
y: 229.485595703125
z: -0.3245469927787781
visibility: 0.9999603629112244
","x: 197.43182373046875
y: 229.58309936523438
z: -0.324554979801178
visibility: 0.9999577403068542
","x: 210.75860595703125
y: 232.9244842529297
z: -0.20877328515052795
visibility: 0.9998962879180908
","x: 194.54953002929688
y: 233.044189453125
z: -0.21372202038764954
visibility: 0.9999132752418518
","x: 205.92181396484375
y: 242.91372680664062
z: -0.29434552788734436
visibility: 0.9999757409095764
","x: 200.69537353515625
y: 242.9486846923828
z: -0.2958528697490692
visibility: 0.9999738931655884
","x: 224.10052490234375
y: 276.2606201171875
z: -0.10267225652933121
visibility: 0.9999701976776123
","x: 181.96311950683594
y: 272.4273376464844
z: -0.12087011337280273
visibility: 0.9999478459358215
","x: 248.6685333251953
y: 311.6734619140625
z: -0.0676637515425682
visibility: 0.9845660924911499
","x: 158.0380096435547
y: 307.3338623046875
z: -0.12103942781686783
visibility: 0.9836577773094177
","x: 273.3646545410156
y: 320.2207946777344
z: -0.17519056797027588
visibility: 0.9725817441940308
","x: 143.566650390625
y: 329.3410949707031
z: -0.2705754041671753
visibility: 0.962498128414154
","x: 280.5902099609375
y: 324.5263366699219
z: -0.20800967514514923
visibility: 0.946882426738739
","x: 135.8386688232422
y: 338.3563537597656
z: -0.3057954013347626
visibility: 0.9312413930892944
","x: 281.0395202636719
y: 321.59600830078125
z: -0.2529095709323883
visibility: 0.9501005411148071
","x: 135.69056701660156
y: 335.61712646484375
z: -0.3427380323410034
visibility: 0.9340975880622864
","x: 278.0931701660156
y: 320.329833984375
z: -0.2081330567598343
visibility: 0.9358410239219666
","x: 138.6894073486328
y: 332.80291748046875
z: -0.2901873290538788
visibility: 0.9197078943252563
","x: 214.48672485351562
y: 376.8970031738281
z: 0.004035773687064648
visibility: 0.99971604347229
","x: 192.25318908691406
y: 374.4064025878906
z: -0.0041082617826759815
visibility: 0.9997442960739136
","x: 215.1202850341797
y: 463.156005859375
z: 0.02648089826107025
visibility: 0.9731828570365906
","x: 181.71368408203125
y: 453.83203125
z: -0.06667203456163406
visibility: 0.9833356738090515
","x: 227.21653747558594
y: 535.2747802734375
z: 0.20918312668800354
visibility: 0.9810914993286133
","x: 163.4386444091797
y: 527.573974609375
z: 0.04747353121638298
visibility: 0.9763318300247192
","x: 227.7916259765625
y: 543.0079345703125
z: 0.19625893235206604
visibility: 0.8825178146362305
","x: 161.40463256835938
y: 537.9050903320312
z: 0.05073096230626106
visibility: 0.8039894104003906
","x: 224.9512939453125
y: 570.0206909179688
z: 0.026103530079126358
visibility: 0.9779259562492371
","x: 166.98037719726562
y: 559.8717041015625
z: -0.09070585668087006
visibility: 0.9734999537467957
",,,,,,,,,,,,,,,,,,,,,,,,,,,,,,,,,,,,,,,,,,
8,"x: 207.01254272460938
y: 234.281982421875
z: -0.35165855288505554
visibility: 0.9999851584434509
","x: 209.2793426513672
y: 228.53411865234375
z: -0.33688458800315857
visibility: 0.9999469518661499
","x: 210.7696533203125
y: 228.39755249023438
z: -0.3369244635105133
visibility: 0.9999486207962036
","x: 212.31002807617188
y: 228.42454528808594
z: -0.3369559645652771
visibility: 0.9999445080757141
","x: 205.35702514648438
y: 229.19259643554688
z: -0.33689603209495544
visibility: 0.9999477863311768
","x: 203.9458465576172
y: 229.34170532226562
z: -0.33695241808891296
visibility: 0.9999485015869141
","x: 202.52023315429688
y: 229.42735290527344
z: -0.337001770734787
visibility: 0.9999437928199768
","x: 215.2195587158203
y: 233.27822875976562
z: -0.2342759072780609
visibility: 0.9998694062232971
","x: 201.06259155273438
y: 233.06005859375
z: -0.23578564822673798
visibility: 0.9998827576637268
","x: 209.4862518310547
y: 242.8132781982422
z: -0.3119816482067108
visibility: 0.9999645352363586
","x: 204.88462829589844
y: 242.27743530273438
z: -0.3124036192893982
visibility: 0.9999622702598572
","x: 228.22494506835938
y: 277.99456787109375
z: -0.14860865473747253
visibility: 0.9999585151672363
","x: 188.078369140625
y: 274.154296875
z: -0.1515524834394455
visibility: 0.9999464154243469
","x: 246.6237030029297
y: 326.54742431640625
z: -0.10471280664205551
visibility: 0.9848887920379639
","x: 178.5606689453125
y: 326.211181640625
z: -0.1154257282614708
visibility: 0.9839917421340942
","x: 263.9351501464844
y: 358.53460693359375
z: -0.1803707629442215
visibility: 0.97398841381073
","x: 153.81398010253906
y: 359.77532958984375
z: -0.20144502818584442
visibility: 0.9654533863067627
","x: 271.5316162109375
y: 369.329833984375
z: -0.21654506027698517
visibility: 0.9490236043930054
","x: 140.84458923339844
y: 373.1658630371094
z: -0.22496958076953888
visibility: 0.9362924098968506
","x: 268.72625732421875
y: 366.8702392578125
z: -0.25214046239852905
visibility: 0.9522972702980042
","x: 141.37098693847656
y: 371.15557861328125
z: -0.26188424229621887
visibility: 0.9390950202941895
","x: 265.8263244628906
y: 363.3260498046875
z: -0.20996300876140594
visibility: 0.9391813278198242
","x: 143.26878356933594
y: 366.70208740234375
z: -0.21916215121746063
visibility: 0.9259434342384338
","x: 219.18380737304688
y: 376.21478271484375
z: -0.0002563268644735217
visibility: 0.9995973110198975
","x: 197.26171875
y: 374.677734375
z: 0.00023534180945716798
visibility: 0.9996960163116455
","x: 217.47760009765625
y: 456.3542175292969
z: -0.026435306295752525
visibility: 0.9434237480163574
","x: 203.8037872314453
y: 454.9362487792969
z: -0.06388663500547409
visibility: 0.9549971222877502
","x: 221.15069580078125
y: 528.78173828125
z: 0.05194472149014473
visibility: 0.9514229893684387
","x: 212.51141357421875
y: 531.2964477539062
z: 0.03328261524438858
visibility: 0.95615154504776
","x: 218.6881561279297
y: 544.374267578125
z: 0.052782732993364334
visibility: 0.8486061692237854
","x: 214.36166381835938
y: 548.1917114257812
z: 0.03518499806523323
visibility: 0.7814717888832092
","x: 224.19607543945312
y: 551.8749389648438
z: -0.05489722639322281
visibility: 0.9540300369262695
","x: 212.17799377441406
y: 554.6946411132812
z: -0.08556341379880905
visibility: 0.9553211331367493
",,,,,,,,,,,,,,,,,,,,,,,,,,,,,,,,,,,,,,,,,,
9,"x: 210.56976318359375
y: 239.20880126953125
z: -0.3302227258682251
visibility: 0.9999722838401794
","x: 213.4393310546875
y: 235.72109985351562
z: -0.30645284056663513
visibility: 0.9998900890350342
","x: 214.83984375
y: 236.31776428222656
z: -0.3064756393432617
visibility: 0.9998964071273804
","x: 216.36627197265625
y: 236.96717834472656
z: -0.3065195679664612
visibility: 0.9998878836631775
","x: 210.1316375732422
y: 235.0730743408203
z: -0.32271111011505127
visibility: 0.9999012351036072
","x: 209.1803741455078
y: 235.1717529296875
z: -0.32266002893447876
visibility: 0.9999049305915833
","x: 208.17108154296875
y: 235.1990509033203
z: -0.32245030999183655
visibility: 0.999900758266449
","x: 219.68055725097656
y: 243.54409790039062
z: -0.19845007359981537
visibility: 0.999744176864624
","x: 208.2937774658203
y: 239.9162139892578
z: -0.20800991356372833
visibility: 0.9997488260269165
","x: 212.4519805908203
y: 247.80027770996094
z: -0.2772971987724304
visibility: 0.9999334216117859
","x: 208.37489318847656
y: 246.2104949951172
z: -0.2855604290962219
visibility: 0.9999316334724426
","x: 232.18646240234375
y: 289.0225830078125
z: -0.12843893468379974
visibility: 0.9999242424964905
","x: 193.45883178710938
y: 283.37811279296875
z: -0.15004242956638336
visibility: 0.9999449849128723
","x: 246.0586700439453
y: 341.88592529296875
z: -0.09329082816839218
visibility: 0.9844440221786499
","x: 186.0048065185547
y: 337.214599609375
z: -0.05950715392827988
visibility: 0.9837881326675415
","x: 243.82266235351562
y: 381.58917236328125
z: -0.16731564700603485
visibility: 0.9717921018600464
","x: 171.19741821289062
y: 373.75006103515625
z: -0.1323748230934143
visibility: 0.966838538646698
","x: 245.46060180664062
y: 394.8733215332031
z: -0.1904270350933075
visibility: 0.9437563419342041
","x: 163.1507110595703
y: 387.1537780761719
z: -0.1549900472164154
visibility: 0.9384374022483826
","x: 242.78375244140625
y: 392.6953430175781
z: -0.21663789451122284
visibility: 0.9473519921302795
","x: 163.2264862060547
y: 386.8393249511719
z: -0.18640480935573578
visibility: 0.9414323568344116
","x: 241.5900421142578
y: 388.3896179199219
z: -0.18108835816383362
visibility: 0.9339587092399597
","x: 165.99725341796875
y: 383.311279296875
z: -0.1475336253643036
visibility: 0.929032027721405
","x: 224.91015625
y: 381.61907958984375
z: -8.242952026193962e-05
visibility: 0.9994577169418335
","x: 202.2584991455078
y: 383.5312194824219
z: 3.9567476051161066e-05
visibility: 0.9996517300605774
","x: 221.9536590576172
y: 455.3470153808594
z: -0.05249635502696037
visibility: 0.939129114151001
","x: 210.0946807861328
y: 456.45001220703125
z: -0.08312863111495972
visibility: 0.9513824582099915
","x: 220.4062957763672
y: 531.2236938476562
z: 0.040397126227617264
visibility: 0.9442193508148193
","x: 216.71099853515625
y: 537.8511962890625
z: -0.009093141183257103
visibility: 0.9505761861801147
","x: 218.33160400390625
y: 544.4319458007812
z: 0.044214989989995956
visibility: 0.8292502760887146
","x: 217.94354248046875
y: 553.298095703125
z: -0.008459777571260929
visibility: 0.7611426711082458
","x: 223.24044799804688
y: 554.1728515625
z: -0.06967580318450928
visibility: 0.9483208656311035
","x: 218.58961486816406
y: 556.01953125
z: -0.13637226819992065
visibility: 0.9502893090248108
",,,,,,,,,,,,,,,,,,,,,,,,,,,,,,,,,,,,,,,,,,
10,"x: 214.89552307128906
y: 237.8807830810547
z: -0.37823909521102905
visibility: 0.9999747276306152
","x: 217.2562713623047
y: 232.81556701660156
z: -0.3659662902355194
visibility: 0.9998999834060669
","x: 218.69529724121094
y: 233.66433715820312
z: -0.365925133228302
visibility: 0.9999055862426758
","x: 220.2185821533203
y: 234.5718231201172
z: -0.3659166693687439
visibility: 0.9998979568481445
","x: 213.08837890625
y: 231.2374267578125
z: -0.3656788766384125
visibility: 0.9999099373817444
","x: 211.63531494140625
y: 230.9636688232422
z: -0.36571788787841797
visibility: 0.999913215637207
","x: 210.24505615234375
y: 230.71136474609375
z: -0.36569929122924805
visibility: 0.999909520149231
","x: 222.59579467773438
y: 239.53042602539062
z: -0.25499436259269714
visibility: 0.9997680187225342
","x: 209.07911682128906
y: 233.96978759765625
z: -0.2506861388683319
visibility: 0.999770998954773
","x: 217.09945678710938
y: 245.708740234375
z: -0.33301836252212524
visibility: 0.9999396204948425
","x: 212.43812561035156
y: 243.51950073242188
z: -0.3322705924510956
visibility: 0.9999380111694336
","x: 235.02149963378906
y: 278.0866394042969
z: -0.15823319554328918
visibility: 0.9999307990074158
","x: 194.98355102539062
y: 275.0665283203125
z: -0.13532854616641998
visibility: 0.9999486207962036
","x: 246.468994140625
y: 338.2604675292969
z: -0.10892897844314575
visibility: 0.9856759309768677
","x: 185.5348663330078
y: 329.18646240234375
z: -0.05392966419458389
visibility: 0.9847176671028137
","x: 237.6198272705078
y: 369.51092529296875
z: -0.21570134162902832
visibility: 0.9739083647727966
","x: 177.0128173828125
y: 366.609130859375
z: -0.1513570100069046
visibility: 0.9690752029418945
","x: 235.80027770996094
y: 382.39892578125
z: -0.24759919941425323
visibility: 0.9473227262496948
","x: 172.99554443359375
y: 379.65313720703125
z: -0.1803067922592163
visibility: 0.9421660900115967
","x: 233.1212615966797
y: 377.9052429199219
z: -0.27854177355766296
visibility: 0.9506380558013916
","x: 174.81097412109375
y: 379.26751708984375
z: -0.21451565623283386
visibility: 0.9451145529747009
","x: 232.9024658203125
y: 373.9209289550781
z: -0.2283659428358078
visibility: 0.9375648498535156
","x: 176.54550170898438
y: 375.0556640625
z: -0.16684553027153015
visibility: 0.9332890510559082
","x: 226.84544372558594
y: 373.2790832519531
z: -0.0011345550883561373
visibility: 0.9994657635688782
","x: 203.994140625
y: 374.75726318359375
z: 0.0010667999740689993
visibility: 0.9996590614318848
","x: 229.40135192871094
y: 454.8397521972656
z: -0.04098893702030182
visibility: 0.9448338150978088
","x: 206.15806579589844
y: 455.1929931640625
z: -0.04230686277151108
visibility: 0.9557712078094482
","x: 225.412353515625
y: 528.8452758789062
z: 0.08981269598007202
visibility: 0.9491311311721802
","x: 204.1735076904297
y: 537.7550048828125
z: 0.08047889173030853
visibility: 0.9549886584281921
","x: 222.4640655517578
y: 538.7278442382812
z: 0.10138742625713348
visibility: 0.8322485089302063
","x: 205.54949951171875
y: 552.83251953125
z: 0.08361826092004776
visibility: 0.7721409797668457
","x: 226.13987731933594
y: 556.6071166992188
z: -0.05265895649790764
visibility: 0.9525027871131897
","x: 203.20228576660156
y: 560.6859741210938
z: -0.07225191593170166
visibility: 0.9543898105621338
",,,,,,,,,,,,,,,,,,,,,,,,,,,,,,,,,,,,,,,,,,
11,"x: 216.65322875976562
y: 249.71871948242188
z: -0.35345715284347534
visibility: 0.9999769926071167
","x: 218.7489013671875
y: 244.96258544921875
z: -0.3364521861076355
visibility: 0.9999091625213623
","x: 220.2332763671875
y: 245.58396911621094
z: -0.3366512954235077
visibility: 0.9999142289161682
","x: 221.7509307861328
y: 246.28187561035156
z: -0.3369090259075165
visibility: 0.9999072551727295
","x: 214.6879119873047
y: 244.38697814941406
z: -0.3341596722602844
visibility: 0.9999181032180786
","x: 213.2632598876953
y: 244.67044067382812
z: -0.33410778641700745
visibility: 0.9999212026596069
","x: 211.8354949951172
y: 244.8796844482422
z: -0.3340972065925598
visibility: 0.9999178051948547
","x: 224.47682189941406
y: 252.22171020507812
z: -0.2166297435760498
visibility: 0.9997884035110474
","x: 210.58377075195312
y: 249.22821044921875
z: -0.217947319149971
visibility: 0.9997923374176025
","x: 219.2145233154297
y: 259.7686462402344
z: -0.2996552586555481
visibility: 0.9999451041221619
","x: 214.47731018066406
y: 258.3266906738281
z: -0.2981179356575012
visibility: 0.9999436736106873
","x: 238.54144287109375
y: 296.7380676269531
z: -0.1318511962890625
visibility: 0.9999363422393799
","x: 197.20530700683594
y: 295.5110778808594
z: -0.14040473103523254
visibility: 0.9999529719352722
","x: 244.51455688476562
y: 352.1236572265625
z: -0.08918586373329163
visibility: 0.9853062629699707
","x: 189.43368530273438
y: 348.02801513671875
z: -0.07759649306535721
visibility: 0.9857262372970581
","x: 232.4248504638672
y: 393.7741394042969
z: -0.16972145438194275
visibility: 0.9739364385604858
","x: 187.8511505126953
y: 390.720947265625
z: -0.16036151349544525
visibility: 0.9703909158706665
","x: 230.04177856445312
y: 408.14984130859375
z: -0.19768503308296204
visibility: 0.9467793703079224
","x: 186.41189575195312
y: 405.3448486328125
z: -0.18999148905277252
visibility: 0.9438989758491516
","x: 226.31564331054688
y: 405.3728942871094
z: -0.22580817341804504
visibility: 0.9500501155853271
","x: 188.44363403320312
y: 404.6535949707031
z: -0.21421857178211212
visibility: 0.9467180967330933
","x: 226.28164672851562
y: 400.965576171875
z: -0.18142914772033691
visibility: 0.9361217021942139
","x: 189.8296661376953
y: 399.8415832519531
z: -0.1715002954006195
visibility: 0.9348609447479248
","x: 229.9847869873047
y: 398.31683349609375
z: 0.009647276252508163
visibility: 0.9995126724243164
","x: 206.79782104492188
y: 398.0131530761719
z: -0.009850967675447464
visibility: 0.9996904134750366
","x: 235.45025634765625
y: 473.487060546875
z: 0.06478039920330048
visibility: 0.9499185085296631
","x: 202.16873168945312
y: 470.6900634765625
z: -0.018823856487870216
visibility: 0.9600528478622437
","x: 243.22488403320312
y: 531.2218627929688
z: 0.2585884630680084
visibility: 0.9539129137992859
","x: 186.27349853515625
y: 539.313232421875
z: 0.14028695225715637
visibility: 0.9592435956001282
","x: 241.83712768554688
y: 539.9490966796875
z: 0.27197474241256714
visibility: 0.8434140682220459
","x: 185.54420471191406
y: 551.5794677734375
z: 0.15028062462806702
visibility: 0.7804531455039978
","x: 248.83709716796875
y: 557.6378784179688
z: 0.15760917961597443
visibility: 0.9566287398338318
","x: 185.6626739501953
y: 564.0926513671875
z: 0.025899117812514305
visibility: 0.9583531618118286
",,,,,,,,,,,,,,,,,,,,,,,,,,,,,,,,,,,,,,,,,,
12,"x: 220.68321228027344
y: 262.38629150390625
z: -0.27354696393013
visibility: 0.9999765157699585
","x: 223.19061279296875
y: 255.6322021484375
z: -0.25449779629707336
visibility: 0.9999123215675354
","x: 224.80181884765625
y: 255.91207885742188
z: -0.2545473277568817
visibility: 0.9999163150787354
","x: 226.41029357910156
y: 256.26849365234375
z: -0.25460174679756165
visibility: 0.9999094009399414
","x: 218.85243225097656
y: 255.22390747070312
z: -0.2542962431907654
visibility: 0.9999197125434875
","x: 217.4041748046875
y: 255.40931701660156
z: -0.2543594539165497
visibility: 0.9999232292175293
","x: 215.98814392089844
y: 255.63536071777344
z: -0.25434762239456177
visibility: 0.9999205470085144
","x: 228.8161163330078
y: 259.33770751953125
z: -0.1375466287136078
visibility: 0.999796986579895
","x: 214.90936279296875
y: 258.162109375
z: -0.13761010766029358
visibility: 0.9998028874397278
","x: 223.37374877929688
y: 269.9728698730469
z: -0.22884687781333923
visibility: 0.9999465942382812
","x: 218.23594665527344
y: 268.9298400878906
z: -0.22893068194389343
visibility: 0.9999461770057678
","x: 242.04637145996094
y: 300.3537292480469
z: -0.08618896454572678
visibility: 0.9999228119850159
","x: 202.5636749267578
y: 298.8321533203125
z: -0.07314397394657135
visibility: 0.9999385476112366
","x: 243.68362426757812
y: 353.4162902832031
z: -0.1649831384420395
visibility: 0.9825465083122253
","x: 196.74441528320312
y: 351.0210876464844
z: -0.15979509055614471
visibility: 0.9844422936439514
","x: 223.6881866455078
y: 384.93023681640625
z: -0.34775787591934204
visibility: 0.9696663618087769
","x: 198.80963134765625
y: 359.533447265625
z: -0.3901958763599396
visibility: 0.9686492085456848
","x: 218.3430633544922
y: 385.0072021484375
z: -0.39632081985473633
visibility: 0.9414812922477722
","x: 199.05227661132812
y: 361.5014343261719
z: -0.4454728960990906
visibility: 0.9423142075538635
","x: 215.98484802246094
y: 374.55810546875
z: -0.40403422713279724
visibility: 0.9446719288825989
","x: 199.66030883789062
y: 353.7139587402344
z: -0.44955578446388245
visibility: 0.9448349475860596
","x: 217.4846649169922
y: 373.041015625
z: -0.35467833280563354
visibility: 0.9266679883003235
","x: 200.2967529296875
y: 352.910888671875
z: -0.3974217176437378
visibility: 0.9305811524391174
","x: 236.26190185546875
y: 400.8951416015625
z: 0.00721385981887579
visibility: 0.9995322227478027
","x: 212.75390625
y: 402.0399169921875
z: -0.0072897253558039665
visibility: 0.9997032284736633
","x: 253.53012084960938
y: 474.28485107421875
z: -0.10369577258825302
visibility: 0.9546023607254028
","x: 193.82708740234375
y: 470.0473327636719
z: -0.17719410359859467
visibility: 0.9639279842376709
","x: 250.908935546875
y: 530.111572265625
z: 0.16739299893379211
visibility: 0.9579175114631653
","x: 179.4535675048828
y: 538.519287109375
z: 0.019640378654003143
visibility: 0.9631408452987671
","x: 246.62965393066406
y: 540.1074829101562
z: 0.23138916492462158
visibility: 0.8500871062278748
","x: 178.77194213867188
y: 548.890625
z: 0.03372317552566528
visibility: 0.7958731055259705
","x: 256.2633361816406
y: 556.1455078125
z: 0.10315769910812378
visibility: 0.9596284031867981
","x: 180.80337524414062
y: 564.646728515625
z: -0.09451590478420258
visibility: 0.9619520902633667
",,,,,,,,,,,,,,,,,,,,,,,,,,,,,,,,,,,,,,,,,,
13,"x: 227.3430633544922
y: 272.76593017578125
z: -0.16661030054092407
visibility: 0.9999520182609558
","x: 229.80560302734375
y: 266.148681640625
z: -0.149126335978508
visibility: 0.9998779892921448
","x: 231.41929626464844
y: 266.1977844238281
z: -0.14914219081401825
visibility: 0.9998738169670105
","x: 233.00527954101562
y: 266.4283142089844
z: -0.1491030752658844
visibility: 0.999860942363739
","x: 225.5255126953125
y: 266.8225402832031
z: -0.14660502970218658
visibility: 0.9998776912689209
","x: 224.23052978515625
y: 267.2506103515625
z: -0.14665216207504272
visibility: 0.9998862147331238
","x: 223.11630249023438
y: 267.57281494140625
z: -0.14665809273719788
visibility: 0.9998851418495178
","x: 235.640625
y: 270.2593994140625
z: -0.04867567867040634
visibility: 0.999720573425293
","x: 222.72244262695312
y: 269.5950927734375
z: -0.034661222249269485
visibility: 0.9997161030769348
","x: 230.6658172607422
y: 279.94671630859375
z: -0.12901785969734192
visibility: 0.9999170899391174
","x: 225.47084045410156
y: 280.54296875
z: -0.1254195272922516
visibility: 0.9999156594276428
","x: 247.6027069091797
y: 306.1807861328125
z: -0.03726096451282501
visibility: 0.9999110102653503
","x: 211.58267211914062
y: 303.0874938964844
z: 0.0029593603685498238
visibility: 0.9999111294746399
","x: 243.69444274902344
y: 339.4109802246094
z: -0.20261076092720032
visibility: 0.97682124376297
","x: 202.81692504882812
y: 344.39459228515625
z: -0.15551970899105072
visibility: 0.9837032556533813
","x: 226.3205108642578
y: 342.1890563964844
z: -0.4009697437286377
visibility: 0.9663547873497009
","x: 213.07408142089844
y: 328.73675537109375
z: -0.3573397696018219
visibility: 0.9685360789299011
","x: 221.40505981445312
y: 339.2744445800781
z: -0.44575634598731995
visibility: 0.938687801361084
","x: 217.1343994140625
y: 322.9739990234375
z: -0.4043194651603699
visibility: 0.9417349100112915
","x: 219.11761474609375
y: 336.118896484375
z: -0.4425521790981293
visibility: 0.9411712288856506
","x: 217.7354736328125
y: 316.7319030761719
z: -0.39252084493637085
visibility: 0.9435938596725464
","x: 221.0874481201172
y: 337.0045166015625
z: -0.4039173722267151
visibility: 0.9207738637924194
","x: 216.6778106689453
y: 319.52679443359375
z: -0.3573916256427765
visibility: 0.9274739623069763
","x: 241.68414306640625
y: 405.75982666015625
z: -0.00688971346244216
visibility: 0.9995738863945007
","x: 219.52883911132812
y: 406.6246032714844
z: 0.006717662326991558
visibility: 0.9997267127037048
","x: 252.82350158691406
y: 484.0577697753906
z: -0.05407276749610901
visibility: 0.9589437246322632
","x: 202.1703338623047
y: 478.169921875
z: -0.05517049506306648
visibility: 0.9673990607261658
","x: 273.9362487792969
y: 530.351806640625
z: 0.20126128196716309
visibility: 0.9614924788475037
","x: 168.90196228027344
y: 528.5791015625
z: 0.08842337131500244
visibility: 0.9664865732192993
","x: 277.4154968261719
y: 535.4758911132812
z: 0.22381357848644257
visibility: 0.8378483653068542
","x: 164.21035766601562
y: 531.7363891601562
z: 0.10087106376886368
visibility: 0.8030853271484375
","x: 274.159423828125
y: 557.1581420898438
z: 0.12109963595867157
visibility: 0.9616025686264038
","x: 164.15220642089844
y: 561.2828979492188
z: 0.003811666276305914
visibility: 0.9647138118743896
",,,,,,,,,,,,,,,,,,,,,,,,,,,,,,,,,,,,,,,,,,
14,"x: 235.46640014648438
y: 280.0616760253906
z: -0.24159879982471466
visibility: 0.9999539256095886
","x: 238.0492706298828
y: 274.7933044433594
z: -0.22473976016044617
visibility: 0.9998869299888611
","x: 239.48648071289062
y: 275.3501281738281
z: -0.22476212680339813
visibility: 0.9998824596405029
","x: 240.76715087890625
y: 276.03643798828125
z: -0.22476255893707275
visibility: 0.9998711347579956
","x: 233.2299346923828
y: 274.1505126953125
z: -0.22417882084846497
visibility: 0.9998842477798462
","x: 231.58154296875
y: 274.2462463378906
z: -0.2242201566696167
visibility: 0.9998907446861267
","x: 230.27723693847656
y: 274.3556823730469
z: -0.22421523928642273
visibility: 0.9998900890350342
","x: 241.57447814941406
y: 280.7361755371094
z: -0.12136993557214737
visibility: 0.9997414946556091
","x: 227.91781616210938
y: 277.12646484375
z: -0.11856887489557266
visibility: 0.9997314214706421
","x: 237.69085693359375
y: 287.72625732421875
z: -0.20233933627605438
visibility: 0.999921441078186
","x: 231.8507080078125
y: 287.9574890136719
z: -0.20178420841693878
visibility: 0.9999192953109741
","x: 248.62753295898438
y: 315.7079772949219
z: -0.12708228826522827
visibility: 0.9999067783355713
","x: 212.64065551757812
y: 312.80908203125
z: -0.055248282849788666
visibility: 0.999832272529602
","x: 249.3728485107422
y: 332.1702880859375
z: -0.3038996160030365
visibility: 0.9762222170829773
","x: 194.93807983398438
y: 341.8245849609375
z: -0.13401411473751068
visibility: 0.9826191663742065
","x: 228.00828552246094
y: 316.5812072753906
z: -0.5087134838104248
visibility: 0.9667002558708191
","x: 178.33026123046875
y: 314.85723876953125
z: -0.2851758301258087
visibility: 0.9634332060813904
","x: 221.5924072265625
y: 316.6669006347656
z: -0.5598827600479126
visibility: 0.9401012659072876
","x: 169.9898223876953
y: 309.35955810546875
z: -0.32449233531951904
visibility: 0.9338247776031494
","x: 219.01844787597656
y: 316.6077575683594
z: -0.5562764406204224
visibility: 0.9420311450958252
","x: 172.79443359375
y: 305.51953125
z: -0.33641189336776733
visibility: 0.9364221096038818
","x: 221.170166015625
y: 316.9949645996094
z: -0.5130852460861206
visibility: 0.9209535121917725
","x: 175.38868713378906
y: 309.01995849609375
z: -0.29360973834991455
visibility: 0.9205533266067505
","x: 241.10821533203125
y: 418.5326843261719
z: -0.0081257876008749
visibility: 0.999612033367157
","x: 218.193359375
y: 417.0657043457031
z: 0.007933068089187145
visibility: 0.9997438788414001
","x: 251.41763305664062
y: 492.716552734375
z: -0.05347385257482529
visibility: 0.9629465937614441
","x: 203.40138244628906
y: 487.2306823730469
z: -0.04214128479361534
visibility: 0.9705430269241333
","x: 272.3726501464844
y: 534.1658325195312
z: 0.18130211532115936
visibility: 0.965067446231842
","x: 167.9532470703125
y: 529.8472900390625
z: 0.12012378871440887
visibility: 0.9695472121238708
","x: 274.6796569824219
y: 537.3081665039062
z: 0.19940635561943054
visibility: 0.8408159613609314
","x: 163.80899047851562
y: 533.1727294921875
z: 0.13277986645698547
visibility: 0.8084645867347717
","x: 276.25830078125
y: 557.5653686523438
z: 0.09618690609931946
visibility: 0.9646132588386536
","x: 163.07505798339844
y: 561.3799438476562
z: 0.035165946930646896
visibility: 0.9673542976379395
",,,,,,,,,,,,,,,,,,,,,,,,,,,,,,,,,,,,,,,,,,
15,"x: 227.1717529296875
y: 283.34661865234375
z: -0.3339555859565735
visibility: 0.9999570250511169
","x: 229.52320861816406
y: 276.1177978515625
z: -0.3186795115470886
visibility: 0.9998958706855774
","x: 230.98306274414062
y: 276.25885009765625
z: -0.3186345100402832
visibility: 0.9998910427093506
","x: 232.38250732421875
y: 276.5076904296875
z: -0.3186832070350647
visibility: 0.9998813271522522
","x: 225.0952606201172
y: 275.70721435546875
z: -0.31865307688713074
visibility: 0.9998935461044312
","x: 223.54095458984375
y: 275.61358642578125
z: -0.3187323808670044
visibility: 0.9998992085456848
","x: 222.20062255859375
y: 275.5846862792969
z: -0.3187168538570404
visibility: 0.9998993873596191
","x: 234.08718872070312
y: 279.2520751953125
z: -0.22283139824867249
visibility: 0.9997614026069641
","x: 220.37196350097656
y: 278.4143981933594
z: -0.2221258580684662
visibility: 0.9997545480728149
","x: 229.61227416992188
y: 290.9718933105469
z: -0.29799994826316833
visibility: 0.9999274015426636
","x: 224.18772888183594
y: 290.5492858886719
z: -0.2982516586780548
visibility: 0.9999255537986755
","x: 244.64283752441406
y: 316.0390625
z: -0.18024687469005585
visibility: 0.9999069571495056
","x: 206.37832641601562
y: 313.17498779296875
z: -0.15701720118522644
visibility: 0.9998382329940796
","x: 269.39276123046875
y: 336.4452819824219
z: -0.33870255947113037
visibility: 0.9782914519309998
","x: 175.16714477539062
y: 328.97625732421875
z: -0.2686392366886139
visibility: 0.9839661717414856
","x: 245.7460174560547
y: 322.1058654785156
z: -0.5034053921699524
visibility: 0.9655986428260803
","x: 156.78125
y: 285.3358154296875
z: -0.425609290599823
visibility: 0.9629297852516174
","x: 237.88612365722656
y: 318.75042724609375
z: -0.5369424223899841
visibility: 0.9295164346694946
","x: 150.60525512695312
y: 276.05657958984375
z: -0.46424928307533264
visibility: 0.927006185054779
","x: 235.60643005371094
y: 318.6459045410156
z: -0.5155697464942932
visibility: 0.929366409778595
","x: 152.375732421875
y: 272.9248352050781
z: -0.45752471685409546
visibility: 0.9287114143371582
","x: 238.30801391601562
y: 321.3624267578125
z: -0.4981236457824707
visibility: 0.9037097692489624
","x: 156.37388610839844
y: 280.3218994140625
z: -0.428333580493927
visibility: 0.9112892746925354
","x: 237.99205017089844
y: 417.2178649902344
z: -0.006138681899756193
visibility: 0.9996277689933777
","x: 215.9143829345703
y: 414.14910888671875
z: 0.005943725351244211
visibility: 0.999757707118988
","x: 244.62335205078125
y: 492.4021911621094
z: 0.01275517325848341
visibility: 0.9660785794258118
","x: 186.0234375
y: 481.35400390625
z: -0.0964585393667221
visibility: 0.9732479453086853
","x: 269.597900390625
y: 534.091064453125
z: 0.2627979516983032
visibility: 0.9681838750839233
","x: 161.47560119628906
y: 529.9752197265625
z: 0.05818784236907959
visibility: 0.9723272323608398
","x: 271.53564453125
y: 538.0635986328125
z: 0.2826193869113922
visibility: 0.8376327157020569
","x: 158.18919372558594
y: 535.4509887695312
z: 0.06967975199222565
visibility: 0.8147730231285095
","x: 274.16815185546875
y: 557.3125610351562
z: 0.17252182960510254
visibility: 0.966847836971283
","x: 161.44439697265625
y: 560.19970703125
z: -0.04271889850497246
visibility: 0.9698390364646912
","x: 245.01405334472656
y: 323.51361083984375
z: 0.0
","x: 240.22947692871094
y: 312.0140075683594
z: -0.004369208123534918
","x: 232.1637420654297
y: 306.482666015625
z: -0.008190233260393143
","x: 224.9818572998047
y: 305.8373718261719
z: -0.010962121188640594
","x: 218.85655212402344
y: 305.5572814941406
z: -0.013814547099173069
","x: 235.78085327148438
y: 313.1097717285156
z: -0.011269615963101387
","x: 229.25808715820312
y: 316.2763366699219
z: -0.014787745662033558
","x: 225.3099365234375
y: 317.07177734375
z: -0.015116408467292786
","x: 222.16371154785156
y: 317.4340515136719
z: -0.014737042598426342
","x: 235.78890991210938
y: 322.70050048828125
z: -0.010349621996283531
","x: 227.13389587402344
y: 324.39599609375
z: -0.013705799356102943
","x: 221.0027618408203
y: 322.7029724121094
z: -0.013598855584859848
","x: 215.99456787109375
y: 320.95562744140625
z: -0.013343031518161297
","x: 235.2613983154297
y: 330.7275695800781
z: -0.00922454334795475
","x: 226.2027587890625
y: 331.405517578125
z: -0.012193520553410053
","x: 220.0709228515625
y: 328.9992980957031
z: -0.011480544693768024
","x: 215.5474395751953
y: 326.7696533203125
z: -0.01097041741013527
","x: 234.40838623046875
y: 336.841796875
z: -0.008197587914764881
","x: 226.72900390625
y: 336.86688232421875
z: -0.010346452705562115
","x: 221.54205322265625
y: 335.05718994140625
z: -0.01003248244524002
","x: 217.36305236816406
y: 333.27178955078125
z: -0.00972049217671156
",,,,,,,,,,,,,,,,,,,,,
16,"x: 227.1717529296875
y: 283.34661865234375
z: -0.3339555859565735
visibility: 0.9999570250511169
","x: 229.52320861816406
y: 276.1177978515625
z: -0.3186795115470886
visibility: 0.9998958706855774
","x: 230.98306274414062
y: 276.25885009765625
z: -0.3186345100402832
visibility: 0.9998910427093506
","x: 232.38250732421875
y: 276.5076904296875
z: -0.3186832070350647
visibility: 0.9998813271522522
","x: 225.0952606201172
y: 275.70721435546875
z: -0.31865307688713074
visibility: 0.9998935461044312
","x: 223.54095458984375
y: 275.61358642578125
z: -0.3187323808670044
visibility: 0.9998992085456848
","x: 222.20062255859375
y: 275.5846862792969
z: -0.3187168538570404
visibility: 0.9998993873596191
","x: 234.08718872070312
y: 279.2520751953125
z: -0.22283139824867249
visibility: 0.9997614026069641
","x: 220.37196350097656
y: 278.4143981933594
z: -0.2221258580684662
visibility: 0.9997545480728149
","x: 229.61227416992188
y: 290.9718933105469
z: -0.29799994826316833
visibility: 0.9999274015426636
","x: 224.18772888183594
y: 290.5492858886719
z: -0.2982516586780548
visibility: 0.9999255537986755
","x: 244.64283752441406
y: 316.0390625
z: -0.18024687469005585
visibility: 0.9999069571495056
","x: 206.37832641601562
y: 313.17498779296875
z: -0.15701720118522644
visibility: 0.9998382329940796
","x: 269.39276123046875
y: 336.4452819824219
z: -0.33870255947113037
visibility: 0.9782914519309998
","x: 175.16714477539062
y: 328.97625732421875
z: -0.2686392366886139
visibility: 0.9839661717414856
","x: 245.7460174560547
y: 322.1058654785156
z: -0.5034053921699524
visibility: 0.9655986428260803
","x: 156.78125
y: 285.3358154296875
z: -0.425609290599823
visibility: 0.9629297852516174
","x: 237.88612365722656
y: 318.75042724609375
z: -0.5369424223899841
visibility: 0.9295164346694946
","x: 150.60525512695312
y: 276.05657958984375
z: -0.46424928307533264
visibility: 0.927006185054779
","x: 235.60643005371094
y: 318.6459045410156
z: -0.5155697464942932
visibility: 0.929366409778595
","x: 152.375732421875
y: 272.9248352050781
z: -0.45752471685409546
visibility: 0.9287114143371582
","x: 238.30801391601562
y: 321.3624267578125
z: -0.4981236457824707
visibility: 0.9037097692489624
","x: 156.37388610839844
y: 280.3218994140625
z: -0.428333580493927
visibility: 0.9112892746925354
","x: 237.99205017089844
y: 417.2178649902344
z: -0.006138681899756193
visibility: 0.9996277689933777
","x: 215.9143829345703
y: 414.14910888671875
z: 0.005943725351244211
visibility: 0.999757707118988
","x: 244.62335205078125
y: 492.4021911621094
z: 0.01275517325848341
visibility: 0.9660785794258118
","x: 186.0234375
y: 481.35400390625
z: -0.0964585393667221
visibility: 0.9732479453086853
","x: 269.597900390625
y: 534.091064453125
z: 0.2627979516983032
visibility: 0.9681838750839233
","x: 161.47560119628906
y: 529.9752197265625
z: 0.05818784236907959
visibility: 0.9723272323608398
","x: 271.53564453125
y: 538.0635986328125
z: 0.2826193869113922
visibility: 0.8376327157020569
","x: 158.18919372558594
y: 535.4509887695312
z: 0.06967975199222565
visibility: 0.8147730231285095
","x: 274.16815185546875
y: 557.3125610351562
z: 0.17252182960510254
visibility: 0.966847836971283
","x: 161.44439697265625
y: 560.19970703125
z: -0.04271889850497246
visibility: 0.9698390364646912
","x: 245.01405334472656
y: 323.51361083984375
z: 0.0
","x: 240.22947692871094
y: 312.0140075683594
z: -0.004369208123534918
","x: 232.1637420654297
y: 306.482666015625
z: -0.008190233260393143
","x: 224.9818572998047
y: 305.8373718261719
z: -0.010962121188640594
","x: 218.85655212402344
y: 305.5572814941406
z: -0.013814547099173069
","x: 235.78085327148438
y: 313.1097717285156
z: -0.011269615963101387
","x: 229.25808715820312
y: 316.2763366699219
z: -0.014787745662033558
","x: 225.3099365234375
y: 317.07177734375
z: -0.015116408467292786
","x: 222.16371154785156
y: 317.4340515136719
z: -0.014737042598426342
","x: 235.78890991210938
y: 322.70050048828125
z: -0.010349621996283531
","x: 227.13389587402344
y: 324.39599609375
z: -0.013705799356102943
","x: 221.0027618408203
y: 322.7029724121094
z: -0.013598855584859848
","x: 215.99456787109375
y: 320.95562744140625
z: -0.013343031518161297
","x: 235.2613983154297
y: 330.7275695800781
z: -0.00922454334795475
","x: 226.2027587890625
y: 331.405517578125
z: -0.012193520553410053
","x: 220.0709228515625
y: 328.9992980957031
z: -0.011480544693768024
","x: 215.5474395751953
y: 326.7696533203125
z: -0.01097041741013527
","x: 234.40838623046875
y: 336.841796875
z: -0.008197587914764881
","x: 226.72900390625
y: 336.86688232421875
z: -0.010346452705562115
","x: 221.54205322265625
y: 335.05718994140625
z: -0.01003248244524002
","x: 217.36305236816406
y: 333.27178955078125
z: -0.00972049217671156
",,,,,,,,,,,,,,,,,,,,,
17,"x: 210.09597778320312
y: 288.114013671875
z: -0.333227276802063
visibility: 0.9999604225158691
","x: 212.48703002929688
y: 280.45068359375
z: -0.3237989842891693
visibility: 0.9999037981033325
","x: 213.97227478027344
y: 280.23602294921875
z: -0.32373446226119995
visibility: 0.9998997449874878
","x: 215.44769287109375
y: 280.16259765625
z: -0.32373934984207153
visibility: 0.999890923500061
","x: 208.06716918945312
y: 281.1778564453125
z: -0.321127712726593
visibility: 0.9999020099639893
","x: 206.62692260742188
y: 281.46563720703125
z: -0.3212035894393921
visibility: 0.9999074935913086
","x: 205.55279541015625
y: 281.71929931640625
z: -0.32118549942970276
visibility: 0.9999076724052429
","x: 218.02650451660156
y: 282.28021240234375
z: -0.23557572066783905
visibility: 0.9997809529304504
","x: 204.4265899658203
y: 283.38385009765625
z: -0.22267992794513702
visibility: 0.9997754096984863
","x: 213.27452087402344
y: 294.72027587890625
z: -0.29767072200775146
visibility: 0.9999336004257202
","x: 207.91256713867188
y: 295.2619323730469
z: -0.2945522665977478
visibility: 0.9999317526817322
","x: 234.19235229492188
y: 323.8467102050781
z: -0.15403543412685394
visibility: 0.9999142289161682
","x: 191.58016967773438
y: 319.599853515625
z: -0.12995557487010956
visibility: 0.9998526573181152
","x: 256.33099365234375
y: 359.7674255371094
z: -0.06877624988555908
visibility: 0.9791874289512634
","x: 175.86729431152344
y: 351.599853515625
z: -0.010564086027443409
visibility: 0.9819477200508118
","x: 243.3844757080078
y: 400.7099609375
z: -0.06111134961247444
visibility: 0.9566545486450195
","x: 172.95895385742188
y: 391.5188293457031
z: 0.018794363364577293
visibility: 0.9462834596633911
","x: 240.56637573242188
y: 416.6377258300781
z: -0.06399450451135635
visibility: 0.911636471748352
","x: 172.30238342285156
y: 405.6466369628906
z: 0.013802235014736652
visibility: 0.8997853398323059
","x: 238.65115356445312
y: 416.5489196777344
z: -0.08715793490409851
visibility: 0.9124137759208679
","x: 176.58482360839844
y: 405.416748046875
z: -0.005211607087403536
visibility: 0.9022539854049683
","x: 238.26962280273438
y: 411.247802734375
z: -0.06787683069705963
visibility: 0.8841295838356018
","x: 178.1728057861328
y: 400.73101806640625
z: 0.013085627928376198
visibility: 0.883074939250946
","x: 225.57864379882812
y: 418.54376220703125
z: -0.007547351066023111
visibility: 0.9996496438980103
","x: 201.76544189453125
y: 417.33294677734375
z: 0.007375751622021198
visibility: 0.9997714757919312
","x: 234.18711853027344
y: 491.1929931640625
z: 0.0256650447845459
visibility: 0.9693013429641724
","x: 180.0906982421875
y: 482.5001220703125
z: -0.025538310408592224
visibility: 0.9758247137069702
","x: 258.6965637207031
y: 529.7479248046875
z: 0.23671023547649384
visibility: 0.9712191820144653
","x: 161.25230407714844
y: 536.751220703125
z: 0.14353427290916443
visibility: 0.9749515056610107
","x: 260.49261474609375
y: 533.931640625
z: 0.252191960811615
visibility: 0.8450285196304321
","x: 160.7666015625
y: 545.8086547851562
z: 0.15501059591770172
visibility: 0.8260690569877625
","x: 262.2440490722656
y: 554.7015991210938
z: 0.13797298073768616
visibility: 0.9697536826133728
","x: 159.6650848388672
y: 559.8351440429688
z: 0.03802117705345154
visibility: 0.9725016355514526
",,,,,,,,,,,,,,,,,,,,,,,,,,,,,,,,,,,,,,,,,,
18,"x: 209.3795928955078
y: 286.9259948730469
z: -0.3926120698451996
visibility: 0.9999632835388184
","x: 211.16664123535156
y: 279.29815673828125
z: -0.3828452229499817
visibility: 0.9999098181724548
","x: 212.59841918945312
y: 278.86212158203125
z: -0.3828193247318268
visibility: 0.9999066591262817
","x: 214.13433837890625
y: 278.4949035644531
z: -0.3828521966934204
visibility: 0.9998986721038818
","x: 207.52354431152344
y: 280.07781982421875
z: -0.3787856698036194
visibility: 0.9999079704284668
","x: 206.2868194580078
y: 280.09283447265625
z: -0.37887340784072876
visibility: 0.9999135136604309
","x: 205.16197204589844
y: 280.0664978027344
z: -0.3788986802101135
visibility: 0.9999132752418518
","x: 218.0363006591797
y: 280.3381652832031
z: -0.28881293535232544
visibility: 0.9997946619987488
","x: 204.25601196289062
y: 281.6741027832031
z: -0.27199429273605347
visibility: 0.9997892379760742
","x: 212.25428771972656
y: 292.7584228515625
z: -0.35518619418144226
visibility: 0.9999385476112366
","x: 207.89215087890625
y: 292.9322204589844
z: -0.35060951113700867
visibility: 0.9999366998672485
","x: 234.24197387695312
y: 321.74224853515625
z: -0.2020573914051056
visibility: 0.9999211430549622
","x: 192.53170776367188
y: 321.03662109375
z: -0.17066268622875214
visibility: 0.9998663663864136
","x: 241.521240234375
y: 371.81378173828125
z: -0.12340018898248672
visibility: 0.9804355502128601
","x: 184.31932067871094
y: 368.38055419921875
z: -0.0806783139705658
visibility: 0.9822618961334229
","x: 237.57028198242188
y: 417.7293701171875
z: -0.2101670205593109
visibility: 0.9573178887367249
","x: 179.77456665039062
y: 415.0657958984375
z: -0.15881837904453278
visibility: 0.9461677074432373
","x: 239.4928436279297
y: 434.6246643066406
z: -0.2343844473361969
visibility: 0.9117401838302612
","x: 178.0224151611328
y: 428.41778564453125
z: -0.1837678700685501
visibility: 0.8990600109100342
","x: 236.32492065429688
y: 433.918212890625
z: -0.2585170567035675
visibility: 0.9127505421638489
","x: 179.6998748779297
y: 428.2786560058594
z: -0.2080678939819336
visibility: 0.9017666578292847
","x: 234.32643127441406
y: 427.47332763671875
z: -0.2199583798646927
visibility: 0.8843525052070618
","x: 181.07965087890625
y: 424.6587829589844
z: -0.17038094997406006
visibility: 0.8815613389015198
","x: 226.2469940185547
y: 414.57086181640625
z: -0.005933993961662054
visibility: 0.9996791481971741
","x: 202.5916290283203
y: 413.5615539550781
z: 0.0058298660442233086
visibility: 0.9997919797897339
","x: 235.13587951660156
y: 490.39666748046875
z: 0.03198292478919029
visibility: 0.9721618294715881
","x: 183.87765502929688
y: 480.32342529296875
z: -0.036679960787296295
visibility: 0.9781715869903564
","x: 247.87184143066406
y: 530.9483032226562
z: 0.2540649473667145
visibility: 0.9738801121711731
","x: 162.31642150878906
y: 536.5810546875
z: 0.12037589401006699
visibility: 0.977357804775238
","x: 244.12161254882812
y: 540.3716430664062
z: 0.27039676904678345
visibility: 0.8562090396881104
","x: 161.75869750976562
y: 545.2943725585938
z: 0.13019070029258728
visibility: 0.8371784090995789
","x: 259.0818176269531
y: 554.1675415039062
z: 0.16463454067707062
visibility: 0.9722620248794556
","x: 158.96441650390625
y: 559.3732299804688
z: 0.011717556044459343
visibility: 0.9749709367752075
",,,,,,,,,,,,,,,,,,,,,,,,,,,,,,,,,,,,,,,,,,
19,"x: 211.1029510498047
y: 255.87149047851562
z: -0.3476185202598572
visibility: 0.999966025352478
","x: 214.01023864746094
y: 248.3833465576172
z: -0.33508554100990295
visibility: 0.9999168515205383
","x: 215.62466430664062
y: 248.2600555419922
z: -0.33510106801986694
visibility: 0.9999141693115234
","x: 216.826904296875
y: 248.2813720703125
z: -0.3351415991783142
visibility: 0.9999067187309265
","x: 209.5753173828125
y: 249.4542236328125
z: -0.33078330755233765
visibility: 0.999914288520813
","x: 208.4508056640625
y: 249.92356872558594
z: -0.3308223485946655
visibility: 0.9999189972877502
","x: 207.34242248535156
y: 250.33721923828125
z: -0.33081281185150146
visibility: 0.9999185800552368
","x: 220.67840576171875
y: 251.1182861328125
z: -0.23252055048942566
visibility: 0.9998133182525635
","x: 207.47280883789062
y: 252.32476806640625
z: -0.22675463557243347
visibility: 0.9998071789741516
","x: 215.2594757080078
y: 262.29345703125
z: -0.30695801973342896
visibility: 0.9999441504478455
","x: 209.8151397705078
y: 264.1582946777344
z: -0.3032129406929016
visibility: 0.9999420046806335
","x: 235.96926879882812
y: 289.5556335449219
z: -0.16529084742069244
visibility: 0.9999285936355591
","x: 197.33615112304688
y: 286.0488586425781
z: -0.0717201977968216
visibility: 0.9998772740364075
","x: 250.27688598632812
y: 334.21917724609375
z: -0.21001765131950378
visibility: 0.9822849631309509
","x: 192.23782348632812
y: 327.7867126464844
z: 0.02961920201778412
visibility: 0.981612503528595
","x: 236.75961303710938
y: 340.88275146484375
z: -0.422768771648407
visibility: 0.9611955881118774
","x: 192.7716064453125
y: 378.4153747558594
z: -0.0526476725935936
visibility: 0.9495365619659424
","x: 232.39955139160156
y: 342.9431457519531
z: -0.47118085622787476
visibility: 0.9192643165588379
","x: 191.38856506347656
y: 410.57244873046875
z: -0.07558281719684601
visibility: 0.9048870205879211
","x: 230.48638916015625
y: 336.0453796386719
z: -0.48129624128341675
visibility: 0.9201939105987549
","x: 193.4740753173828
y: 412.7009582519531
z: -0.1053200364112854
visibility: 0.9075621962547302
","x: 231.2230682373047
y: 334.28973388671875
z: -0.4301466941833496
visibility: 0.8934191465377808
","x: 194.3822021484375
y: 407.5497741699219
z: -0.06522687524557114
visibility: 0.8878882527351379
","x: 227.58554077148438
y: 385.101806640625
z: -0.02154235914349556
visibility: 0.9997043013572693
","x: 205.07151794433594
y: 385.5611877441406
z: 0.02147684060037136
visibility: 0.9998052716255188
","x: 235.2392120361328
y: 463.86517333984375
z: -0.05226504057645798
visibility: 0.9746510982513428
","x: 188.451416015625
y: 460.7779235839844
z: -0.023863060399889946
visibility: 0.9801985025405884
","x: 247.94552612304688
y: 526.251220703125
z: 0.12497837841510773
visibility: 0.9762166738510132
","x: 191.7124786376953
y: 523.712158203125
z: 0.16769744455814362
visibility: 0.9793866276741028
","x: 245.247802734375
y: 534.892333984375
z: 0.1359081268310547
visibility: 0.8626573085784912
","x: 197.1280517578125
y: 533.1006469726562
z: 0.18039855360984802
visibility: 0.8500590920448303
","x: 256.9325256347656
y: 551.8964233398438
z: 0.0114381592720747
visibility: 0.9744118452072144
","x: 184.89781188964844
y: 551.2706909179688
z: 0.07335667312145233
visibility: 0.97695392370224
",,,,,,,,,,,,,,,,,,,,,,,,,,,,,,,,,,,,,,,,,,
20,"x: 220.30393981933594
y: 250.50576782226562
z: -0.24527287483215332
visibility: 0.9999397397041321
","x: 222.85504150390625
y: 243.3456268310547
z: -0.23294146358966827
visibility: 0.9998527765274048
","x: 224.548095703125
y: 243.57177734375
z: -0.23300306499004364
visibility: 0.9998353719711304
","x: 226.21009826660156
y: 243.9501953125
z: -0.2330355942249298
visibility: 0.9998266100883484
","x: 218.72442626953125
y: 243.25624084472656
z: -0.22688062489032745
visibility: 0.9998576045036316
","x: 217.4208526611328
y: 243.34756469726562
z: -0.2268981635570526
visibility: 0.9998319745063782
","x: 216.13824462890625
y: 243.544189453125
z: -0.22699081897735596
visibility: 0.9998484253883362
","x: 229.94358825683594
y: 247.2779541015625
z: -0.14508791267871857
visibility: 0.9997089505195618
","x: 215.45301818847656
y: 246.3212890625
z: -0.1174369677901268
visibility: 0.9996009469032288
","x: 223.47027587890625
y: 258.3215637207031
z: -0.21067428588867188
visibility: 0.9999135136604309
","x: 218.7234649658203
y: 258.572998046875
z: -0.202884703874588
visibility: 0.9999156594276428
","x: 239.82884216308594
y: 287.4215087890625
z: -0.12244530022144318
visibility: 0.9998806118965149
","x: 203.36514282226562
y: 284.7835693359375
z: -0.027444591745734215
visibility: 0.9998588562011719
","x: 224.5696258544922
y: 325.27630615234375
z: -0.18905802071094513
visibility: 0.9816460013389587
","x: 199.1285400390625
y: 331.273193359375
z: -0.0012924975017085671
visibility: 0.966063380241394
","x: 196.558837890625
y: 331.39385986328125
z: -0.3203229308128357
visibility: 0.9621289372444153
","x: 199.51072692871094
y: 377.253173828125
z: -0.10516735166311264
visibility: 0.93390953540802
","x: 188.11000061035156
y: 333.7633972167969
z: -0.37608903646469116
visibility: 0.9225910305976868
","x: 198.39047241210938
y: 392.1395568847656
z: -0.1331641674041748
visibility: 0.8890272974967957
","x: 186.79196166992188
y: 329.29364013671875
z: -0.3626926839351654
visibility: 0.9235662817955017
","x: 198.9973907470703
y: 393.17010498046875
z: -0.15385350584983826
visibility: 0.8918058276176453
","x: 189.2224884033203
y: 328.49609375
z: -0.317985475063324
visibility: 0.8959999680519104
","x: 200.30860900878906
y: 389.03118896484375
z: -0.11565635353326797
visibility: 0.8694444894790649
","x: 231.43589782714844
y: 378.25201416015625
z: -0.018480192869901657
visibility: 0.9997112154960632
","x: 210.2355194091797
y: 380.8699035644531
z: 0.018428601324558258
visibility: 0.9998032450675964
","x: 232.38059997558594
y: 440.6258850097656
z: -0.2207796573638916
visibility: 0.9753450155258179
","x: 213.388916015625
y: 458.6954040527344
z: -0.04979565739631653
visibility: 0.9758607149124146
","x: 237.33755493164062
y: 496.1797790527344
z: -0.03891735151410103
visibility: 0.9677432179450989
","x: 226.1974639892578
y: 526.1712036132812
z: 0.07369902729988098
visibility: 0.9767761826515198
","x: 236.80160522460938
y: 496.83709716796875
z: -0.022625865414738655
visibility: 0.8443462252616882
","x: 229.40904235839844
y: 534.9161376953125
z: 0.08104873448610306
visibility: 0.8420567512512207
","x: 238.70054626464844
y: 524.029296875
z: -0.10926403105258942
visibility: 0.969153106212616
","x: 225.1416778564453
y: 553.3560791015625
z: -0.025538349524140358
visibility: 0.9713830351829529
",,,,,,,,,,,,,,,,,,,,,,,,,,,,,,,,,,,,,,,,,,
21,"x: 219.83106994628906
y: 252.28890991210938
z: -0.2133626639842987
visibility: 0.9999415874481201
","x: 222.5603790283203
y: 246.24871826171875
z: -0.19952189922332764
visibility: 0.9998562932014465
","x: 224.11196899414062
y: 246.54945373535156
z: -0.19952262938022614
visibility: 0.9998423457145691
","x: 225.57005310058594
y: 246.95982360839844
z: -0.19954067468643188
visibility: 0.9998283982276917
","x: 218.29116821289062
y: 245.94638061523438
z: -0.19306634366512299
visibility: 0.9998621344566345
","x: 216.97166442871094
y: 246.04469299316406
z: -0.1930975615978241
visibility: 0.9998385310173035
","x: 215.7469024658203
y: 246.2044677734375
z: -0.19311007857322693
visibility: 0.9998515248298645
","x: 228.88018798828125
y: 251.0626220703125
z: -0.10683505237102509
visibility: 0.9997279047966003
","x: 215.10604858398438
y: 250.08465576171875
z: -0.07630681991577148
visibility: 0.9996303915977478
","x: 223.04095458984375
y: 260.6749572753906
z: -0.1780088245868683
visibility: 0.9999185800552368
","x: 217.81480407714844
y: 260.5826110839844
z: -0.16970369219779968
visibility: 0.9999206066131592
","x: 240.6155242919922
y: 288.21795654296875
z: -0.08794523030519485
visibility: 0.9998889565467834
","x: 203.79910278320312
y: 289.5412292480469
z: 0.03221355378627777
visibility: 0.9998706579208374
","x: 246.37796020507812
y: 329.5884704589844
z: -0.22174890339374542
visibility: 0.9830660223960876
","x: 196.9408721923828
y: 332.56982421875
z: 0.03741434961557388
visibility: 0.9625165462493896
","x: 229.6259002685547
y: 295.829833984375
z: -0.40978527069091797
visibility: 0.9621564745903015
","x: 199.08787536621094
y: 374.8466796875
z: -0.0903720110654831
visibility: 0.9340715408325195
","x: 220.28231811523438
y: 286.11602783203125
z: -0.45415323972702026
visibility: 0.9225181937217712
","x: 199.72201538085938
y: 381.51544189453125
z: -0.10862978547811508
visibility: 0.890089213848114
","x: 219.7803497314453
y: 282.1015625
z: -0.4383624196052551
visibility: 0.9227460622787476
","x: 201.7129669189453
y: 381.60205078125
z: -0.12523822486400604
visibility: 0.8925517797470093
","x: 222.46568298339844
y: 287.0216064453125
z: -0.4073631763458252
visibility: 0.8924670815467834
","x: 202.15512084960938
y: 383.29632568359375
z: -0.09849684685468674
visibility: 0.8691561222076416
","x: 235.2962188720703
y: 380.5276184082031
z: -0.05964794009923935
visibility: 0.999736487865448
","x: 216.10572814941406
y: 383.64251708984375
z: 0.05970797687768936
visibility: 0.9998178482055664
","x: 221.21351623535156
y: 433.588623046875
z: -0.2676578164100647
visibility: 0.9774742126464844
","x: 217.37747192382812
y: 452.69537353515625
z: 0.055444709956645966
visibility: 0.9636907577514648
","x: 240.9346160888672
y: 499.43701171875
z: -0.19003163278102875
visibility: 0.9705452919006348
","x: 230.122802734375
y: 527.16015625
z: 0.18069404363632202
visibility: 0.9756518006324768
","x: 245.27792358398438
y: 503.99224853515625
z: -0.18538053333759308
visibility: 0.8562912940979004
","x: 234.70748901367188
y: 535.56298828125
z: 0.18557506799697876
visibility: 0.8512095808982849
","x: 238.88027954101562
y: 527.6978149414062
z: -0.2841647267341614
visibility: 0.9718424081802368
","x: 224.22848510742188
y: 553.2042236328125
z: 0.09283928573131561
visibility: 0.9702526330947876
",,,,,,,,,,,,,,,,,,,,,,,,,,,,,,,,,,,,,,,,,,
22,"x: 221.15281677246094
y: 254.56875610351562
z: -0.2388092577457428
visibility: 0.9999473690986633
","x: 223.55772399902344
y: 247.8973388671875
z: -0.21511146426200867
visibility: 0.9998704791069031
","x: 225.02572631835938
y: 247.97242736816406
z: -0.21537527441978455
visibility: 0.9998579025268555
","x: 226.4788818359375
y: 248.15866088867188
z: -0.2153017818927765
visibility: 0.9998452663421631
","x: 219.3636932373047
y: 247.96267700195312
z: -0.22360487282276154
visibility: 0.9998757839202881
","x: 218.01605224609375
y: 248.1392822265625
z: -0.22370460629463196
visibility: 0.999854564666748
","x: 216.82322692871094
y: 248.34710693359375
z: -0.22383813560009003
visibility: 0.9998661875724792
","x: 229.71762084960938
y: 251.91915893554688
z: -0.150681272149086
visibility: 0.9997549653053284
","x: 215.8931121826172
y: 252.14300537109375
z: -0.10997569561004639
visibility: 0.9996671676635742
","x: 224.47689819335938
y: 262.2835388183594
z: -0.18079020082950592
visibility: 0.9999266862869263
","x: 219.25320434570312
y: 262.5363464355469
z: -0.19524537026882172
visibility: 0.9999285340309143
","x: 243.79188537597656
y: 289.4284362792969
z: -0.13397648930549622
visibility: 0.999899685382843
","x: 205.12037658691406
y: 291.2890625
z: -0.03428930789232254
visibility: 0.9998834133148193
","x: 267.39324951171875
y: 324.51251220703125
z: -0.2649998962879181
visibility: 0.9846968650817871
","x: 195.62767028808594
y: 332.8039855957031
z: -0.11277496814727783
visibility: 0.9638737440109253
","x: 258.60107421875
y: 298.531005859375
z: -0.43491363525390625
visibility: 0.9651082158088684
","x: 197.4759521484375
y: 364.12060546875
z: -0.3103887438774109
visibility: 0.9392295479774475
","x: 256.3985290527344
y: 295.0704040527344
z: -0.4780040681362152
visibility: 0.9277719259262085
","x: 197.20608520507812
y: 377.6646423339844
z: -0.33724215626716614
visibility: 0.8988230228424072
","x: 252.80633544921875
y: 292.24609375
z: -0.4605540335178375
visibility: 0.9276814460754395
","x: 200.39710998535156
y: 375.9481201171875
z: -0.35295432806015015
visibility: 0.9010621309280396
","x: 253.02069091796875
y: 293.9867858886719
z: -0.4313235282897949
visibility: 0.899067759513855
","x: 201.2604217529297
y: 371.69659423828125
z: -0.31931206583976746
visibility: 0.8792197704315186
","x: 236.36431884765625
y: 385.63702392578125
z: -0.058895766735076904
visibility: 0.9997618794441223
","x: 217.84637451171875
y: 387.4208984375
z: 0.05882266163825989
visibility: 0.9998354911804199
","x: 219.3018341064453
y: 447.25750732421875
z: -0.2178467959165573
visibility: 0.9792328476905823
","x: 221.25564575195312
y: 453.04144287109375
z: 0.08735081553459167
visibility: 0.9591406583786011
","x: 242.48931884765625
y: 442.4351501464844
z: 0.003645573975518346
visibility: 0.9710059762001038
","x: 230.88714599609375
y: 527.853759765625
z: 0.23773153126239777
visibility: 0.9766021966934204
","x: 246.42642211914062
y: 434.7144775390625
z: 0.022834228351712227
visibility: 0.8593908548355103
","x: 236.09786987304688
y: 536.511962890625
z: 0.24691081047058105
visibility: 0.8623777627944946
","x: 246.2354278564453
y: 473.51361083984375
z: -0.0676470473408699
visibility: 0.9724975228309631
","x: 224.6190185546875
y: 554.0194091796875
z: 0.18723949790000916
visibility: 0.9712138175964355
",,,,,,,,,,,,,,,,,,,,,,,,,,,,,,,,,,,,,,,,,,
23,"x: 223.61843872070312
y: 255.44894409179688
z: -0.4442997872829437
visibility: 0.9999487996101379
","x: 225.52281188964844
y: 249.08819580078125
z: -0.4324977993965149
visibility: 0.9998739361763
","x: 226.9029541015625
y: 249.23255920410156
z: -0.4325106739997864
visibility: 0.9998628497123718
","x: 228.2848358154297
y: 249.4757080078125
z: -0.4325512945652008
visibility: 0.9998530149459839
","x: 222.01229858398438
y: 248.88429260253906
z: -0.42749089002609253
visibility: 0.9998773336410522
","x: 220.73570251464844
y: 248.94761657714844
z: -0.4275815486907959
visibility: 0.9998549818992615
","x: 219.50143432617188
y: 249.07232666015625
z: -0.42763638496398926
visibility: 0.9998659491539001
","x: 231.37677001953125
y: 253.23373413085938
z: -0.33929410576820374
visibility: 0.999769389629364
","x: 218.0564422607422
y: 253.12384033203125
z: -0.31246596574783325
visibility: 0.9996483325958252
","x: 226.3729248046875
y: 263.5375671386719
z: -0.40698546171188354
visibility: 0.9999300837516785
","x: 221.5496368408203
y: 263.4452209472656
z: -0.400258868932724
visibility: 0.9999275207519531
","x: 246.39793395996094
y: 295.6582336425781
z: -0.2717992663383484
visibility: 0.9999061822891235
","x: 205.9989471435547
y: 292.262451171875
z: -0.19572585821151733
visibility: 0.9998867511749268
","x: 258.4466247558594
y: 349.6644287109375
z: -0.2532017230987549
visibility: 0.9858490228652954
","x: 200.33306884765625
y: 347.1009826660156
z: -0.1375996172428131
visibility: 0.9646236896514893
","x: 259.265625
y: 397.64111328125
z: -0.3349533677101135
visibility: 0.9644516706466675
","x: 202.93299865722656
y: 394.43072509765625
z: -0.2668047547340393
visibility: 0.9400028586387634
","x: 261.4653625488281
y: 412.23046875
z: -0.35887402296066284
visibility: 0.926040530204773
","x: 202.7410888671875
y: 409.66131591796875
z: -0.24908824265003204
visibility: 0.8979640007019043
","x: 259.49481201171875
y: 412.64532470703125
z: -0.3931567072868347
visibility: 0.9265532493591309
","x: 205.19728088378906
y: 409.38775634765625
z: -0.2916031777858734
visibility: 0.9009533524513245
","x: 258.28448486328125
y: 408.29046630859375
z: -0.3475549817085266
visibility: 0.8991823792457581
","x: 206.3133544921875
y: 404.0934753417969
z: -0.2535540461540222
visibility: 0.8798689842224121
","x: 237.69073486328125
y: 383.8455505371094
z: -0.04271811619400978
visibility: 0.9997671246528625
","x: 217.27098083496094
y: 387.0137023925781
z: 0.04267849400639534
visibility: 0.9998077154159546
","x: 227.25003051757812
y: 448.90460205078125
z: -0.2374415099620819
visibility: 0.9798362255096436
","x: 221.65542602539062
y: 457.1766662597656
z: 0.03151252493262291
visibility: 0.9478678107261658
","x: 241.3556671142578
y: 502.6710510253906
z: -0.1231682300567627
visibility: 0.9729247093200684
","x: 231.7010498046875
y: 527.9142456054688
z: 0.17485716938972473
visibility: 0.9715262055397034
","x: 244.6397247314453
y: 516.2274780273438
z: -0.11852377653121948
visibility: 0.8611478209495544
","x: 236.85726928710938
y: 538.28955078125
z: 0.18324387073516846
visibility: 0.8608608245849609
","x: 240.61624145507812
y: 525.6517944335938
z: -0.2451123744249344
visibility: 0.9735223650932312
","x: 226.2124786376953
y: 554.2415771484375
z: 0.1116466075181961
visibility: 0.9653541445732117
",,,,,,,,,,,,,,,,,,,,,,,,,,,,,,,,,,,,,,,,,,
24,"x: 231.7939453125
y: 283.559326171875
z: -0.4502744674682617
visibility: 0.999952495098114
","x: 233.79473876953125
y: 275.362548828125
z: -0.43946853280067444
visibility: 0.9998829960823059
","x: 235.29849243164062
y: 275.089599609375
z: -0.439465194940567
visibility: 0.9998728036880493
","x: 236.52676391601562
y: 274.9354248046875
z: -0.4395114779472351
visibility: 0.9998641014099121
","x: 229.69020080566406
y: 275.58258056640625
z: -0.43751198053359985
visibility: 0.9998854398727417
","x: 228.4202880859375
y: 275.38372802734375
z: -0.43760761618614197
visibility: 0.999864935874939
","x: 226.90017700195312
y: 275.24560546875
z: -0.4376527667045593
visibility: 0.9998753070831299
","x: 238.48431396484375
y: 276.46368408203125
z: -0.3418761193752289
visibility: 0.9997856020927429
","x: 225.08567810058594
y: 275.9972229003906
z: -0.33201470971107483
visibility: 0.9996728897094727
","x: 233.94456481933594
y: 289.00897216796875
z: -0.41093745827674866
visibility: 0.9999350309371948
","x: 229.31369018554688
y: 289.6972351074219
z: -0.40838494896888733
visibility: 0.9999321699142456
","x: 249.81393432617188
y: 319.91363525390625
z: -0.2579759359359741
visibility: 0.999912440776825
","x: 211.22116088867188
y: 312.7493591308594
z: -0.23703829944133759
visibility: 0.9998927116394043
","x: 256.7333984375
y: 378.0970458984375
z: -0.23550572991371155
visibility: 0.9855638742446899
","x: 211.1062774658203
y: 372.2388916015625
z: -0.21186451613903046
visibility: 0.966938316822052
","x: 252.4571533203125
y: 426.8240661621094
z: -0.30567699670791626
visibility: 0.9605593085289001
","x: 220.32717895507812
y: 421.7410583496094
z: -0.28346914052963257
visibility: 0.9422729015350342
","x: 252.8067169189453
y: 442.9464416503906
z: -0.3341774046421051
visibility: 0.920049786567688
","x: 222.09901428222656
y: 437.14031982421875
z: -0.3061741590499878
visibility: 0.9002233147621155
","x: 250.8560333251953
y: 442.610595703125
z: -0.36101052165031433
visibility: 0.9208952784538269
","x: 225.5584716796875
y: 435.687255859375
z: -0.3320770263671875
visibility: 0.9033032059669495
","x: 249.85585021972656
y: 437.40069580078125
z: -0.3170308470726013
visibility: 0.8939340710639954
","x: 225.93203735351562
y: 429.8492736816406
z: -0.29244890809059143
visibility: 0.8825896382331848
","x: 237.4038848876953
y: 400.21600341796875
z: -0.029070939868688583
visibility: 0.9997802376747131
","x: 216.06935119628906
y: 401.3769836425781
z: 0.029037296772003174
visibility: 0.9997938871383667
","x: 233.95611572265625
y: 464.48931884765625
z: -0.17300404608249664
visibility: 0.9806134104728699
","x: 217.11444091796875
y: 475.2868347167969
z: 0.025833850726485252
visibility: 0.9491040706634521
","x: 241.22119140625
y: 533.9825439453125
z: -0.028433214873075485
visibility: 0.9748009443283081
","x: 229.52732849121094
y: 530.0261840820312
z: 0.1899356245994568
visibility: 0.9700896143913269
","x: 242.7843475341797
y: 546.1328735351562
z: -0.020735353231430054
visibility: 0.865432620048523
","x: 233.46603393554688
y: 538.3505859375
z: 0.2009439915418625
visibility: 0.8607844710350037
","x: 239.12283325195312
y: 557.02978515625
z: -0.1402357965707779
visibility: 0.9746901392936707
","x: 228.15162658691406
y: 554.5153198242188
z: 0.1039697527885437
visibility: 0.9638423919677734
",,,,,,,,,,,,,,,,,,,,,,,,,,,,,,,,,,,,,,,,,,
25,"x: 236.34117126464844
y: 275.9566955566406
z: -0.3791436553001404
visibility: 0.9999570250511169
","x: 238.42803955078125
y: 268.2351989746094
z: -0.36742278933525085
visibility: 0.9998937845230103
","x: 239.94915771484375
y: 268.1838684082031
z: -0.3674215078353882
visibility: 0.9998846650123596
","x: 241.16534423828125
y: 268.22900390625
z: -0.3674497604370117
visibility: 0.9998763203620911
","x: 234.17884826660156
y: 268.25396728515625
z: -0.36423254013061523
visibility: 0.9998959898948669
","x: 232.90960693359375
y: 268.19573974609375
z: -0.3642924129962921
visibility: 0.9998775124549866
","x: 231.44888305664062
y: 268.215087890625
z: -0.3643309772014618
visibility: 0.999886691570282
","x: 242.38864135742188
y: 270.7203063964844
z: -0.2902194857597351
visibility: 0.9998037815093994
","x: 228.98623657226562
y: 270.38006591796875
z: -0.25736841559410095
visibility: 0.9997049570083618
","x: 238.38368225097656
y: 282.51763916015625
z: -0.34622877836227417
visibility: 0.9999404549598694
","x: 233.65673828125
y: 282.872314453125
z: -0.3370918333530426
visibility: 0.9999382495880127
","x: 249.196533203125
y: 312.89385986328125
z: -0.12907564640045166
visibility: 0.9999158382415771
","x: 216.79629516601562
y: 308.8613586425781
z: -0.17073293030261993
visibility: 0.9998999238014221
","x: 249.81565856933594
y: 364.229736328125
z: -0.1683529168367386
visibility: 0.95591139793396
","x: 214.94488525390625
y: 367.16534423828125
z: -0.1517973393201828
visibility: 0.9673680067062378
","x: 261.4082336425781
y: 350.99163818359375
z: -0.35451066493988037
visibility: 0.9480423927307129
","x: 224.12228393554688
y: 416.33740234375
z: -0.2319423407316208
visibility: 0.9435861706733704
","x: 266.4071044921875
y: 339.86883544921875
z: -0.38776329159736633
visibility: 0.910451352596283
","x: 225.12721252441406
y: 429.3507080078125
z: -0.23755817115306854
visibility: 0.9008212089538574
","x: 267.42620849609375
y: 335.0411682128906
z: -0.4041314125061035
visibility: 0.9122334122657776
","x: 229.12261962890625
y: 430.8871154785156
z: -0.2605145275592804
visibility: 0.9036129117012024
","x: 265.5902099609375
y: 337.28985595703125
z: -0.3662952780723572
visibility: 0.8815956115722656
","x: 229.10365295410156
y: 425.69158935546875
z: -0.23353080451488495
visibility: 0.8819884657859802
","x: 236.5251922607422
y: 399.5028076171875
z: -0.009383821859955788
visibility: 0.9997949600219727
","x: 215.13514709472656
y: 400.0047302246094
z: 0.00926487147808075
visibility: 0.9998026490211487
","x: 238.3700408935547
y: 469.09832763671875
z: -0.10200242698192596
visibility: 0.9819672107696533
","x: 199.0272674560547
y: 473.5284729003906
z: -0.029553985223174095
visibility: 0.9537763595581055
","x: 240.4444580078125
y: 537.3993530273438
z: 0.04878341406583786
visibility: 0.9768652319908142
","x: 200.7056884765625
y: 523.0654296875
z: 0.19231833517551422
visibility: 0.971983790397644
","x: 240.35894775390625
y: 547.7918090820312
z: 0.05639679357409477
visibility: 0.861190915107727
","x: 205.95767211914062
y: 531.6397705078125
z: 0.20984497666358948
visibility: 0.8657383918762207
","x: 239.37774658203125
y: 562.1192016601562
z: -0.0686827301979065
visibility: 0.9759775996208191
","x: 190.95831298828125
y: 548.2291870117188
z: 0.12542371451854706
visibility: 0.9657456278800964
",,,,,,,,,,,,,,,,,,,,,,,,,,,,,,,,,,,,,,,,,,
26,"x: 234.52862548828125
y: 275.54833984375
z: -0.3075804114341736
visibility: 0.9999613165855408
","x: 235.8214874267578
y: 267.5882568359375
z: -0.29283031821250916
visibility: 0.9999043345451355
","x: 237.10382080078125
y: 267.24212646484375
z: -0.29282641410827637
visibility: 0.9998961091041565
","x: 238.31329345703125
y: 267.018310546875
z: -0.29285770654678345
visibility: 0.99988853931427
","x: 231.7126922607422
y: 268.15826416015625
z: -0.3013747036457062
visibility: 0.9999063014984131
","x: 230.27752685546875
y: 268.15771484375
z: -0.3013926148414612
visibility: 0.9998896718025208
","x: 228.97125244140625
y: 268.24700927734375
z: -0.301422119140625
visibility: 0.999897837638855
","x: 239.49630737304688
y: 268.9892883300781
z: -0.1794898808002472
visibility: 0.9998229742050171
","x: 226.15699768066406
y: 269.895263671875
z: -0.21792423725128174
visibility: 0.9997344017028809
","x: 236.62664794921875
y: 282.0977478027344
z: -0.2619767487049103
visibility: 0.9999463558197021
","x: 232.1934356689453
y: 282.59503173828125
z: -0.27237817645072937
visibility: 0.9999443888664246
","x: 248.20616149902344
y: 310.08416748046875
z: -0.052031271159648895
visibility: 0.9999240040779114
","x: 214.27101135253906
y: 310.0519104003906
z: -0.15161779522895813
visibility: 0.9999091625213623
","x: 251.50514221191406
y: 359.0713195800781
z: -0.10271890461444855
visibility: 0.957513153553009
","x: 210.50625610351562
y: 370.50250244140625
z: -0.13623888790607452
visibility: 0.9696319103240967
","x: 266.6946105957031
y: 335.558837890625
z: -0.3239712119102478
visibility: 0.9526767730712891
","x: 217.4376983642578
y: 420.0727844238281
z: -0.19076013565063477
visibility: 0.9474765062332153
","x: 271.2146301269531
y: 324.5985107421875
z: -0.36317095160484314
visibility: 0.9181929230690002
","x: 217.96844482421875
y: 434.1738586425781
z: -0.20683899521827698
visibility: 0.9064194560050964
","x: 270.77783203125
y: 318.5000915527344
z: -0.37825465202331543
visibility: 0.9199109673500061
","x: 222.0391845703125
y: 434.1051025390625
z: -0.22709567844867706
visibility: 0.908980131149292
","x: 269.0991516113281
y: 321.55474853515625
z: -0.3366886377334595
visibility: 0.8916727304458618
","x: 222.4785919189453
y: 429.0890808105469
z: -0.19517387449741364
visibility: 0.887610673904419
","x: 236.224365234375
y: 403.7706298828125
z: 0.025941243395209312
visibility: 0.9998123049736023
","x: 214.4051055908203
y: 401.05450439453125
z: -0.026114214211702347
visibility: 0.9998160600662231
","x: 239.09324645996094
y: 477.25994873046875
z: -0.005081046838313341
visibility: 0.9834057688713074
","x: 195.3439178466797
y: 474.3365173339844
z: -0.0653933435678482
visibility: 0.9582691788673401
","x: 239.38827514648438
y: 542.9900512695312
z: 0.16348080337047577
visibility: 0.9789327383041382
","x: 168.61721801757812
y: 524.6968383789062
z: 0.12901104986667633
visibility: 0.9745242595672607
","x: 236.56524658203125
y: 555.6607666015625
z: 0.17431983351707458
visibility: 0.8708289861679077
","x: 165.46249389648438
y: 531.8988647460938
z: 0.14503633975982666
visibility: 0.8705422282218933
","x: 240.7028350830078
y: 565.4495849609375
z: 0.0762295201420784
visibility: 0.9776648283004761
","x: 162.94808959960938
y: 552.3106079101562
z: 0.055782485753297806
visibility: 0.9685347080230713
",,,,,,,,,,,,,,,,,,,,,,,,,,,,,,,,,,,,,,,,,,
27,"x: 220.9241180419922
y: 283.9219970703125
z: -0.494506299495697
visibility: 0.9999650716781616
","x: 222.45216369628906
y: 275.2784118652344
z: -0.4825032353401184
visibility: 0.9999135732650757
","x: 223.79513549804688
y: 274.9369201660156
z: -0.4824560582637787
visibility: 0.9999062418937683
","x: 225.04031372070312
y: 274.69610595703125
z: -0.48250317573547363
visibility: 0.9998994469642639
","x: 217.90927124023438
y: 276.1887512207031
z: -0.48181360960006714
visibility: 0.9999153017997742
","x: 216.36744689941406
y: 276.537353515625
z: -0.4819137454032898
visibility: 0.9999004006385803
","x: 214.91329956054688
y: 276.82879638671875
z: -0.4818941056728363
visibility: 0.9999076724052429
","x: 227.2227783203125
y: 276.3240966796875
z: -0.3795831799507141
visibility: 0.9998401403427124
","x: 213.46615600585938
y: 279.08624267578125
z: -0.3765711784362793
visibility: 0.9997602105140686
","x: 223.6295928955078
y: 290.6085510253906
z: -0.454138845205307
visibility: 0.9999515414237976
","x: 219.08583068847656
y: 292.069580078125
z: -0.4535205364227295
visibility: 0.9999497532844543
","x: 242.83029174804688
y: 321.22003173828125
z: -0.27326148748397827
visibility: 0.9999311566352844
","x: 200.77476501464844
y: 325.2711486816406
z: -0.2547775208950043
visibility: 0.9999156594276428
","x: 249.50205993652344
y: 375.61639404296875
z: -0.1951894760131836
visibility: 0.9606561660766602
","x: 199.62002563476562
y: 376.97332763671875
z: -0.14691831171512604
visibility: 0.9694394469261169
","x: 258.8481140136719
y: 415.2043151855469
z: -0.23944923281669617
visibility: 0.9520002007484436
","x: 208.6874542236328
y: 423.41265869140625
z: -0.12072042375802994
visibility: 0.9262441396713257
","x: 260.5535583496094
y: 426.1293029785156
z: -0.25384050607681274
visibility: 0.9139347076416016
","x: 207.9326171875
y: 439.7068786621094
z: -0.12450675666332245
visibility: 0.8711272478103638
","x: 259.4779357910156
y: 425.8562927246094
z: -0.28202298283576965
visibility: 0.916249692440033
","x: 209.5977783203125
y: 439.68328857421875
z: -0.14835378527641296
visibility: 0.8743084073066711
","x: 258.6824035644531
y: 422.03350830078125
z: -0.24984371662139893
visibility: 0.8881921768188477
","x: 209.9782257080078
y: 433.457275390625
z: -0.12800881266593933
visibility: 0.8525131344795227
","x: 235.88999938964844
y: 404.6090087890625
z: 0.006411182228475809
visibility: 0.9998236298561096
","x: 212.61712646484375
y: 404.3205261230469
z: -0.006538046058267355
visibility: 0.9998265504837036
","x: 238.28387451171875
y: 479.26129150390625
z: -0.031157707795500755
visibility: 0.9847624897956848
","x: 197.21694946289062
y: 474.21807861328125
z: -0.06546729058027267
visibility: 0.962148904800415
","x: 239.16053771972656
y: 542.5768432617188
z: 0.14210636913776398
visibility: 0.9807785749435425
","x: 165.96774291992188
y: 532.0191040039062
z: 0.05147186666727066
visibility: 0.9767786264419556
","x: 237.02000427246094
y: 553.0684814453125
z: 0.15257686376571655
visibility: 0.8730208873748779
","x: 161.84832763671875
y: 538.26416015625
z: 0.0565258152782917
visibility: 0.8696256279945374
","x: 239.62939453125
y: 565.0535278320312
z: 0.031206239014863968
visibility: 0.9792245626449585
","x: 161.62722778320312
y: 563.1671752929688
z: -0.07427199184894562
visibility: 0.9710806012153625
",,,,,,,,,,,,,,,,,,,,,,,,,,,,,,,,,,,,,,,,,,
28,"x: 217.88661193847656
y: 281.5011291503906
z: -0.4234936237335205
visibility: 0.9999676942825317
","x: 219.83152770996094
y: 273.81976318359375
z: -0.4070051610469818
visibility: 0.9999203085899353
","x: 221.35635375976562
y: 273.84051513671875
z: -0.4070281386375427
visibility: 0.9999138712882996
","x: 222.95199584960938
y: 273.9642333984375
z: -0.40707582235336304
visibility: 0.9999072551727295
","x: 215.54119873046875
y: 273.8564453125
z: -0.40510764718055725
visibility: 0.999921977519989
","x: 213.942138671875
y: 273.9363708496094
z: -0.4051656723022461
visibility: 0.9999083876609802
","x: 212.3759765625
y: 274.045654296875
z: -0.40516939759254456
visibility: 0.9999144673347473
","x: 225.30873107910156
y: 275.8312683105469
z: -0.28961795568466187
visibility: 0.9998491406440735
","x: 209.92401123046875
y: 276.19915771484375
z: -0.28499835729599
visibility: 0.9997796416282654
","x: 220.48907470703125
y: 288.736083984375
z: -0.37636229395866394
visibility: 0.999953031539917
","x: 215.52371215820312
y: 288.9936218261719
z: -0.3741918206214905
visibility: 0.9999521970748901
","x: 236.18540954589844
y: 316.81402587890625
z: -0.202001690864563
visibility: 0.999933660030365
","x: 197.25979614257812
y: 317.788330078125
z: -0.20206764340400696
visibility: 0.9999198913574219
","x: 225.20632934570312
y: 367.3105163574219
z: -0.19890321791172028
visibility: 0.9567744731903076
","x: 191.50332641601562
y: 372.63018798828125
z: -0.07678043097257614
visibility: 0.9669436812400818
","x: 208.9318084716797
y: 393.63909912109375
z: -0.311165988445282
visibility: 0.9377731084823608
","x: 190.07098388671875
y: 412.0032958984375
z: -0.13299483060836792
visibility: 0.9022542834281921
","x: 205.6648406982422
y: 403.5818786621094
z: -0.35146909952163696
visibility: 0.8960688710212708
","x: 189.26675415039062
y: 427.5344543457031
z: -0.15584586560726166
visibility: 0.8416730761528015
","x: 204.65945434570312
y: 403.738525390625
z: -0.37658923864364624
visibility: 0.8991066217422485
","x: 189.97915649414062
y: 427.83636474609375
z: -0.1839054822921753
visibility: 0.8457879424095154
","x: 203.61228942871094
y: 395.6227111816406
z: -0.3236769139766693
visibility: 0.8650645613670349
","x: 190.73451232910156
y: 421.55157470703125
z: -0.14478370547294617
visibility: 0.8194088339805603
","x: 226.84097290039062
y: 407.10736083984375
z: 0.0051755052991211414
visibility: 0.9998354315757751
","x: 202.833740234375
y: 407.0361633300781
z: -0.005272628273814917
visibility: 0.9998409152030945
","x: 231.89501953125
y: 487.0438232421875
z: 0.04707010090351105
