uscmakers/ReverseChoreography/data/4_knife_talk_drake.csv
,NOSE,LEFT_EYE_INNER,LEFT_EYE,LEFT_EYE_OUTER,RIGHT_EYE_INNER,RIGHT_EYE,RIGHT_EYE_OUTER,LEFT_EAR,RIGHT_EAR,MOUTH_LEFT,MOUTH_RIGHT,LEFT_SHOULDER,RIGHT_SHOULDER,LEFT_ELBOW,RIGHT_ELBOW,LEFT_WRIST,RIGHT_WRIST,LEFT_PINKY,RIGHT_PINKY,LEFT_INDEX,RIGHT_INDEX,LEFT_THUMB,RIGHT_THUMB,LEFT_HIP,RIGHT_HIP,LEFT_KNEE,RIGHT_KNEE,LEFT_ANKLE,RIGHT_ANKLE,LEFT_HEEL,RIGHT_HEEL,LEFT_FOOT_INDEX,RIGHT_FOOT_INDEX,WRIST,THUMB_CPC,THUMB_MCP,THUMB_IP,THUMB_TIP,INDEX_FINGER_MCP,INDEX_FINGER_PIP,INDEX_FINGER_DIP,INDEX_FINGER_TIP,MIDDLE_FINGER_MCP,MIDDLE_FINGER_PIP,MIDDLE_FINGER_DIP,MIDDLE_FINGER_TIP,RING_FINGER_PIP,RING_FINGER_DIP,RING_FINGER_TIP,RING_FINGER_MCP,PINKY_MCP,PINKY_PIP,PINKY_DIP,PINKY_TIP,WRIST2,THUMB_CPC2,THUMB_MCP2,THUMB_IP2,THUMB_TIP2,INDEX_FINGER_MCP2,INDEX_FINGER_PIP2,INDEX_FINGER_DIP2,INDEX_FINGER_TIP2,MIDDLE_FINGER_MCP2,MIDDLE_FINGER_PIP2,MIDDLE_FINGER_DIP2,MIDDLE_FINGER_TIP2,RING_FINGER_PIP2,RING_FINGER_DIP2,RING_FINGER_TIP2,RING_FINGER_MCP2,PINKY_MCP2,PINKY_PIP2,PINKY_DIP2,PINKY_TIP2
0,"x: 226.5259246826172
y: 301.2259216308594
z: -0.51361083984375
visibility: 0.9999972581863403
","x: 228.25045776367188
y: 293.1698913574219
z: -0.5030034780502319
visibility: 0.9999897480010986
","x: 229.30398559570312
y: 292.914794921875
z: -0.5028998851776123
visibility: 0.9999899864196777
","x: 230.27197265625
y: 292.5372314453125
z: -0.5029363036155701
visibility: 0.9999866485595703
","x: 224.60838317871094
y: 293.0252380371094
z: -0.5046815276145935
visibility: 0.9999936819076538
","x: 223.10348510742188
y: 292.75311279296875
z: -0.5048332810401917
visibility: 0.9999948740005493
","x: 221.6540069580078
y: 292.358642578125
z: -0.5048384070396423
visibility: 0.999995231628418
","x: 230.51571655273438
y: 292.5849609375
z: -0.39484450221061707
visibility: 0.9999792575836182
","x: 218.02720642089844
y: 292.80169677734375
z: -0.4023180902004242
visibility: 0.9999911785125732
","x: 228.381591796875
y: 306.1458740234375
z: -0.4686633050441742
visibility: 0.9999898672103882
","x: 223.15493774414062
y: 307.8210144042969
z: -0.4713616967201233
visibility: 0.9999949932098389
","x: 243.72576904296875
y: 332.89935302734375
z: -0.2896153926849365
visibility: 0.999953031539917
","x: 202.7543182373047
y: 325.18536376953125
z: -0.29825443029403687
visibility: 0.9999834299087524
","x: 255.34423828125
y: 384.5954895019531
z: -0.296084463596344
visibility: 0.9951411485671997
","x: 181.6131591796875
y: 359.8897705078125
z: -0.4280034005641937
visibility: 0.9982342720031738
","x: 260.4526672363281
y: 434.0682678222656
z: -0.36906734108924866
visibility: 0.9708212018013
","x: 206.47239685058594
y: 351.9903564453125
z: -0.6207022070884705
visibility: 0.995314359664917
","x: 262.1278381347656
y: 448.0178527832031
z: -0.39195874333381653
visibility: 0.9204716682434082
","x: 213.20408630371094
y: 348.0859069824219
z: -0.6636194586753845
visibility: 0.9825606942176819
","x: 259.4622497558594
y: 447.95892333984375
z: -0.4100264608860016
visibility: 0.921400785446167
","x: 214.37319946289062
y: 344.1452331542969
z: -0.6530182957649231
visibility: 0.9796196818351746
","x: 258.25103759765625
y: 444.1354064941406
z: -0.37699398398399353
visibility: 0.8880323171615601
","x: 212.96421813964844
y: 345.2632141113281
z: -0.6194659471511841
visibility: 0.9617637395858765
","x: 240.2390899658203
y: 406.9198913574219
z: -0.006602409295737743
visibility: 0.9997767806053162
","x: 216.2696075439453
y: 413.7928466796875
z: 0.006317582912743092
visibility: 0.9998971223831177
","x: 258.1136169433594
y: 472.33233642578125
z: -0.05080682784318924
visibility: 0.9991427659988403
","x: 206.37213134765625
y: 478.95556640625
z: -0.04080892726778984
visibility: 0.99642014503479
","x: 277.6369934082031
y: 538.3736572265625
z: 0.0963776484131813
visibility: 0.9991180300712585
","x: 204.1494598388672
y: 545.6007080078125
z: 0.13835757970809937
visibility: 0.9984096884727478
","x: 277.4510498046875
y: 547.6136474609375
z: 0.10319708287715912
visibility: 0.9467430114746094
","x: 208.06951904296875
y: 556.1408081054688
z: 0.15018005669116974
visibility: 0.9646404385566711
","x: 280.3031311035156
y: 559.201171875
z: -0.025151852518320084
visibility: 0.9972367286682129
","x: 195.42861938476562
y: 567.02490234375
z: 0.030222605913877487
visibility: 0.9960097074508667
",,,,,,,,,,,,,,,,,,,,,,,,,,,,,,,,,,,,,,,,,,
1,"x: 239.86279296875
y: 262.817626953125
z: -0.24819210171699524
visibility: 0.999997079372406
","x: 241.4676513671875
y: 254.73365783691406
z: -0.23602049052715302
visibility: 0.9999897480010986
","x: 243.1039276123047
y: 254.72232055664062
z: -0.23608338832855225
visibility: 0.9999899864196777
","x: 244.63983154296875
y: 254.7769317626953
z: -0.23610436916351318
visibility: 0.9999865889549255
","x: 237.3314208984375
y: 255.58355712890625
z: -0.2343415766954422
visibility: 0.999992311000824
","x: 235.91754150390625
y: 256.12744140625
z: -0.23436757922172546
visibility: 0.9999930262565613
","x: 234.40370178222656
y: 256.7227478027344
z: -0.23436693847179413
visibility: 0.9999926686286926
","x: 246.5847930908203
y: 258.1929931640625
z: -0.13480506837368011
visibility: 0.9999786615371704
","x: 231.95562744140625
y: 261.2575988769531
z: -0.12658461928367615
visibility: 0.9999898076057434
","x: 242.8910369873047
y: 270.5484313964844
z: -0.20827123522758484
visibility: 0.9999897480010986
","x: 237.88172912597656
y: 271.47802734375
z: -0.2058795690536499
visibility: 0.9999940395355225
","x: 258.61114501953125
y: 301.98992919921875
z: -0.051204483956098557
visibility: 0.9999552369117737
","x: 219.8325653076172
y: 298.1584777832031
z: -0.050062309950590134
visibility: 0.9999825358390808
","x: 267.9755554199219
y: 343.9373779296875
z: -0.1251830756664276
visibility: 0.9912247061729431
","x: 202.079345703125
y: 332.76422119140625
z: -0.02490748092532158
visibility: 0.9980652332305908
","x: 286.31219482421875
y: 334.00250244140625
z: -0.3502512574195862
visibility: 0.9725521802902222
","x: 181.1297607421875
y: 333.8725280761719
z: -0.107364222407341
visibility: 0.9955117106437683
","x: 292.12689208984375
y: 328.5595397949219
z: -0.3858723044395447
visibility: 0.9265063405036926
","x: 173.08763122558594
y: 332.8077697753906
z: -0.1267002671957016
visibility: 0.9835198521614075
","x: 292.1788330078125
y: 324.0151672363281
z: -0.40953516960144043
visibility: 0.9276894330978394
","x: 172.2635955810547
y: 330.2301330566406
z: -0.15384289622306824
visibility: 0.9809978008270264
","x: 290.08636474609375
y: 325.2485656738281
z: -0.36623823642730713
visibility: 0.8973183631896973
","x: 175.02088928222656
y: 330.95208740234375
z: -0.1207999438047409
visibility: 0.9648000001907349
","x: 250.77792358398438
y: 401.8685607910156
z: 0.009285489097237587
visibility: 0.9997816681861877
","x: 227.4597930908203
y: 403.0352783203125
z: -0.009342308156192303
visibility: 0.9998874068260193
","x: 265.38018798828125
y: 472.3302917480469
z: 0.0034041423350572586
visibility: 0.9985048770904541
","x: 210.4536895751953
y: 473.1535339355469
z: -0.04592135176062584
visibility: 0.9967221617698669
","x: 277.9194641113281
y: 538.3361206054688
z: 0.15388354659080505
visibility: 0.9988934397697449
","x: 200.196044921875
y: 541.6737060546875
z: 0.08094815909862518
visibility: 0.9984737634658813
","x: 276.8622741699219
y: 549.6123657226562
z: 0.16283541917800903
visibility: 0.9491425156593323
","x: 200.515869140625
y: 551.3873291015625
z: 0.08883490413427353
visibility: 0.9650372862815857
","x: 284.55694580078125
y: 559.2685546875
z: 0.062182895839214325
visibility: 0.9967324733734131
","x: 197.38037109375
y: 564.5068969726562
z: -0.016873814165592194
visibility: 0.9961112141609192
",,,,,,,,,,,,,,,,,,,,,,,,,,,,,,,,,,,,,,,,,,
2,"x: 235.40748596191406
y: 255.95437622070312
z: -0.24750074744224548
visibility: 0.9999971985816956
","x: 237.05906677246094
y: 247.87051391601562
z: -0.23362115025520325
visibility: 0.9999901652336121
","x: 238.41567993164062
y: 247.69065856933594
z: -0.23367348313331604
visibility: 0.9999901652336121
","x: 239.66769409179688
y: 247.63638305664062
z: -0.23372384905815125
visibility: 0.999987006187439
","x: 233.29737854003906
y: 248.51739501953125
z: -0.23302170634269714
visibility: 0.9999926090240479
","x: 231.85092163085938
y: 248.75592041015625
z: -0.23306402564048767
visibility: 0.9999932050704956
","x: 230.36419677734375
y: 249.06619262695312
z: -0.23303750157356262
visibility: 0.999992847442627
","x: 240.99729919433594
y: 250.875732421875
z: -0.13024036586284637
visibility: 0.9999793767929077
","x: 227.19876098632812
y: 252.82962036132812
z: -0.12759466469287872
visibility: 0.999989926815033
","x: 237.9004669189453
y: 264.08795166015625
z: -0.20736649632453918
visibility: 0.9999900460243225
","x: 232.73487854003906
y: 264.45489501953125
z: -0.20664921402931213
visibility: 0.9999940395355225
","x: 254.46218872070312
y: 293.62384033203125
z: -0.047022413462400436
visibility: 0.9999576807022095
","x: 214.012451171875
y: 291.4895935058594
z: -0.05882936716079712
visibility: 0.9999833106994629
","x: 272.35174560546875
y: 331.4623718261719
z: -0.043297138065099716
visibility: 0.9914765954017639
","x: 195.05250549316406
y: 323.927978515625
z: -0.1154155507683754
visibility: 0.9980448484420776
","x: 297.6808166503906
y: 327.68157958984375
z: -0.1691211611032486
visibility: 0.9745654463768005
","x: 173.34730529785156
y: 301.27618408203125
z: -0.300965815782547
visibility: 0.9958059787750244
","x: 304.9891662597656
y: 323.41949462890625
z: -0.19219574332237244
visibility: 0.9315894246101379
","x: 166.7305145263672
y: 293.65521240234375
z: -0.3360760509967804
visibility: 0.9846480488777161
","x: 305.7104187011719
y: 319.3206787109375
z: -0.22091789543628693
visibility: 0.9330365657806396
","x: 167.43348693847656
y: 288.07568359375
z: -0.3507750630378723
visibility: 0.9824122786521912
","x: 302.5665283203125
y: 321.433837890625
z: -0.18513531982898712
visibility: 0.9054351449012756
","x: 169.8064422607422
y: 290.4159851074219
z: -0.3123655319213867
visibility: 0.9676324725151062
","x: 251.6960906982422
y: 396.2620849609375
z: 0.009281271137297153
visibility: 0.9997799396514893
","x: 227.93812561035156
y: 400.9883117675781
z: -0.009318618103861809
visibility: 0.9998867511749268
","x: 267.0812683105469
y: 471.6528625488281
z: 0.005507095716893673
visibility: 0.9983146786689758
","x: 213.79635620117188
y: 472.82171630859375
z: -0.036963365972042084
visibility: 0.9969229102134705
","x: 277.9385070800781
y: 538.3513793945312
z: 0.17577281594276428
visibility: 0.9986101984977722
","x: 200.67189025878906
y: 541.53076171875
z: 0.09702463448047638
visibility: 0.9984822273254395
","x: 276.100341796875
y: 549.513427734375
z: 0.1866186112165451
visibility: 0.9508970379829407
","x: 201.18392944335938
y: 551.0426025390625
z: 0.10506310313940048
visibility: 0.9645740389823914
","x: 285.6110534667969
y: 559.26904296875
z: 0.08481410145759583
visibility: 0.9962452054023743
","x: 197.7554168701172
y: 564.0239868164062
z: -0.005456557031720877
visibility: 0.9961022734642029
",,,,,,,,,,,,,,,,,,,,,,,,,,,,,,,,,,,,,,,,,,
3,"x: 241.5738525390625
y: 268.64239501953125
z: -0.3305692672729492
visibility: 0.9999964833259583
","x: 243.2673797607422
y: 261.0869140625
z: -0.3204158842563629
visibility: 0.9999879002571106
","x: 244.4068603515625
y: 260.93182373046875
z: -0.32040685415267944
visibility: 0.9999873042106628
","x: 245.38873291015625
y: 260.86529541015625
z: -0.3204805552959442
visibility: 0.9999837875366211
","x: 239.32528686523438
y: 261.1617126464844
z: -0.32193484902381897
visibility: 0.9999901056289673
","x: 237.82017517089844
y: 260.98529052734375
z: -0.32199960947036743
visibility: 0.9999906420707703
","x: 236.32533264160156
y: 260.85211181640625
z: -0.322001188993454
visibility: 0.9999901652336121
","x: 245.82095336914062
y: 262.4356689453125
z: -0.2133692502975464
visibility: 0.9999746084213257
","x: 232.75062561035156
y: 261.9943542480469
z: -0.22115571796894073
visibility: 0.9999865293502808
","x: 243.17190551757812
y: 275.2469482421875
z: -0.28611478209495544
visibility: 0.999988317489624
","x: 238.56631469726562
y: 275.85723876953125
z: -0.2886413335800171
visibility: 0.9999924898147583
","x: 256.6128234863281
y: 299.76123046875
z: -0.1086362823843956
visibility: 0.99996018409729
","x: 217.098388671875
y: 289.88519287109375
z: -0.1371861696243286
visibility: 0.9999831318855286
","x: 274.26544189453125
y: 340.3390197753906
z: -0.09903644770383835
visibility: 0.9917389750480652
","x: 197.06301879882812
y: 315.07879638671875
z: -0.22753503918647766
visibility: 0.9980061650276184
","x: 299.5815124511719
y: 330.51995849609375
z: -0.22515854239463806
visibility: 0.9767235517501831
","x: 185.44778442382812
y: 288.0899963378906
z: -0.4310113489627838
visibility: 0.9960583448410034
","x: 306.3272705078125
y: 323.5203552246094
z: -0.24963951110839844
visibility: 0.9372133612632751
","x: 182.99839782714844
y: 278.3924560546875
z: -0.47166576981544495
visibility: 0.9856252074241638
","x: 306.68170166015625
y: 319.0084533691406
z: -0.2754995822906494
visibility: 0.9387317299842834
","x: 184.30218505859375
y: 274.1727294921875
z: -0.47713541984558105
visibility: 0.9836292266845703
","x: 304.2449951171875
y: 321.2236328125
z: -0.23971405625343323
visibility: 0.9135042428970337
","x: 185.57818603515625
y: 277.2095947265625
z: -0.4386425018310547
visibility: 0.9700368046760559
","x: 250.23199462890625
y: 395.2554626464844
z: 0.007779133506119251
visibility: 0.99977707862854
","x: 226.0543212890625
y: 398.2267761230469
z: -0.00785405095666647
visibility: 0.9998871088027954
","x: 269.0494384765625
y: 469.2261047363281
z: -0.012259447947144508
visibility: 0.9983247518539429
","x: 213.5087890625
y: 471.78076171875
z: -0.08210793882608414
visibility: 0.9971665740013123
","x: 278.7100524902344
y: 536.849365234375
z: 0.17097601294517517
visibility: 0.9986012578010559
","x: 200.883056640625
y: 541.017578125
z: 0.07746435701847076
visibility: 0.9985323548316956
","x: 276.155029296875
y: 548.1453857421875
z: 0.1833914816379547
visibility: 0.9518259763717651
","x: 201.93560791015625
y: 550.9901733398438
z: 0.08866624534130096
visibility: 0.9647406339645386
","x: 285.7646179199219
y: 559.294677734375
z: 0.07744410634040833
visibility: 0.9961431622505188
","x: 197.6396942138672
y: 564.0560302734375
z: -0.01879172772169113
visibility: 0.9961791634559631
","x: 187.67564392089844
y: 284.78619384765625
z: 0.0
","x: 189.19285583496094
y: 277.0036315917969
z: -0.000251073477556929
","x: 190.07762145996094
y: 271.1998291015625
z: -0.0027640555053949356
","x: 191.97215270996094
y: 268.8773498535156
z: -0.006151039618998766
","x: 194.3721923828125
y: 268.59185791015625
z: -0.00930754467844963
","x: 182.81182861328125
y: 265.44024658203125
z: -0.0034728997852653265
","x: 187.04376220703125
y: 265.29119873046875
z: -0.007784969173371792
","x: 189.5831756591797
y: 266.3837890625
z: -0.010400942526757717
","x: 191.24468994140625
y: 266.5613708496094
z: -0.011970053426921368
","x: 181.78038024902344
y: 270.0130920410156
z: -0.006512421183288097
","x: 185.84042358398438
y: 269.3826904296875
z: -0.010551364161074162
","x: 188.71482849121094
y: 269.98944091796875
z: -0.011346532963216305
","x: 190.7216339111328
y: 270.3573913574219
z: -0.011998217552900314
","x: 181.6871337890625
y: 275.849365234375
z: -0.009740627370774746
","x: 185.02804565429688
y: 274.8788146972656
z: -0.013196691870689392
","x: 187.5531768798828
y: 275.2764587402344
z: -0.012347264215350151
","x: 189.1425323486328
y: 275.78167724609375
z: -0.011677163653075695
","x: 182.43740844726562
y: 282.0833740234375
z: -0.013222075998783112
","x: 184.39022827148438
y: 281.55804443359375
z: -0.015762800350785255
","x: 185.9867401123047
y: 281.6571960449219
z: -0.01493836846202612
","x: 187.01954650878906
y: 282.02874755859375
z: -0.014106662012636662
",,,,,,,,,,,,,,,,,,,,,
4,"x: 241.5738525390625
y: 268.64239501953125
z: -0.3305692672729492
visibility: 0.9999964833259583
","x: 243.2673797607422
y: 261.0869140625
z: -0.3204158842563629
visibility: 0.9999879002571106
","x: 244.4068603515625
y: 260.93182373046875
z: -0.32040685415267944
visibility: 0.9999873042106628
","x: 245.38873291015625
y: 260.86529541015625
z: -0.3204805552959442
visibility: 0.9999837875366211
","x: 239.32528686523438
y: 261.1617126464844
z: -0.32193484902381897
visibility: 0.9999901056289673
","x: 237.82017517089844
y: 260.98529052734375
z: -0.32199960947036743
visibility: 0.9999906420707703
","x: 236.32533264160156
y: 260.85211181640625
z: -0.322001188993454
visibility: 0.9999901652336121
","x: 245.82095336914062
y: 262.4356689453125
z: -0.2133692502975464
visibility: 0.9999746084213257
","x: 232.75062561035156
y: 261.9943542480469
z: -0.22115571796894073
visibility: 0.9999865293502808
","x: 243.17190551757812
y: 275.2469482421875
z: -0.28611478209495544
visibility: 0.999988317489624
","x: 238.56631469726562
y: 275.85723876953125
z: -0.2886413335800171
visibility: 0.9999924898147583
","x: 256.6128234863281
y: 299.76123046875
z: -0.1086362823843956
visibility: 0.99996018409729
","x: 217.098388671875
y: 289.88519287109375
z: -0.1371861696243286
visibility: 0.9999831318855286
","x: 274.26544189453125
y: 340.3390197753906
z: -0.09903644770383835
visibility: 0.9917389750480652
","x: 197.06301879882812
y: 315.07879638671875
z: -0.22753503918647766
visibility: 0.9980061650276184
","x: 299.5815124511719
y: 330.51995849609375
z: -0.22515854239463806
visibility: 0.9767235517501831
","x: 185.44778442382812
y: 288.0899963378906
z: -0.4310113489627838
visibility: 0.9960583448410034
","x: 306.3272705078125
y: 323.5203552246094
z: -0.24963951110839844
visibility: 0.9372133612632751
","x: 182.99839782714844
y: 278.3924560546875
z: -0.47166576981544495
visibility: 0.9856252074241638
","x: 306.68170166015625
y: 319.0084533691406
z: -0.2754995822906494
visibility: 0.9387317299842834
","x: 184.30218505859375
y: 274.1727294921875
z: -0.47713541984558105
visibility: 0.9836292266845703
","x: 304.2449951171875
y: 321.2236328125
z: -0.23971405625343323
visibility: 0.9135042428970337
","x: 185.57818603515625
y: 277.2095947265625
z: -0.4386425018310547
visibility: 0.9700368046760559
","x: 250.23199462890625
y: 395.2554626464844
z: 0.007779133506119251
visibility: 0.99977707862854
","x: 226.0543212890625
y: 398.2267761230469
z: -0.00785405095666647
visibility: 0.9998871088027954
","x: 269.0494384765625
y: 469.2261047363281
z: -0.012259447947144508
visibility: 0.9983247518539429
","x: 213.5087890625
y: 471.78076171875
z: -0.08210793882608414
visibility: 0.9971665740013123
","x: 278.7100524902344
y: 536.849365234375
z: 0.17097601294517517
visibility: 0.9986012578010559
","x: 200.883056640625
y: 541.017578125
z: 0.07746435701847076
visibility: 0.9985323548316956
","x: 276.155029296875
y: 548.1453857421875
z: 0.1833914816379547
visibility: 0.9518259763717651
","x: 201.93560791015625
y: 550.9901733398438
z: 0.08866624534130096
visibility: 0.9647406339645386
","x: 285.7646179199219
y: 559.294677734375
z: 0.07744410634040833
visibility: 0.9961431622505188
","x: 197.6396942138672
y: 564.0560302734375
z: -0.01879172772169113
visibility: 0.9961791634559631
","x: 187.67564392089844
y: 284.78619384765625
z: 0.0
","x: 189.19285583496094
y: 277.0036315917969
z: -0.000251073477556929
","x: 190.07762145996094
y: 271.1998291015625
z: -0.0027640555053949356
","x: 191.97215270996094
y: 268.8773498535156
z: -0.006151039618998766
","x: 194.3721923828125
y: 268.59185791015625
z: -0.00930754467844963
","x: 182.81182861328125
y: 265.44024658203125
z: -0.0034728997852653265
","x: 187.04376220703125
y: 265.29119873046875
z: -0.007784969173371792
","x: 189.5831756591797
y: 266.3837890625
z: -0.010400942526757717
","x: 191.24468994140625
y: 266.5613708496094
z: -0.011970053426921368
","x: 181.78038024902344
y: 270.0130920410156
z: -0.006512421183288097
","x: 185.84042358398438
y: 269.3826904296875
z: -0.010551364161074162
","x: 188.71482849121094
y: 269.98944091796875
z: -0.011346532963216305
","x: 190.7216339111328
y: 270.3573913574219
z: -0.011998217552900314
","x: 181.6871337890625
y: 275.849365234375
z: -0.009740627370774746
","x: 185.02804565429688
y: 274.8788146972656
z: -0.013196691870689392
","x: 187.5531768798828
y: 275.2764587402344
z: -0.012347264215350151
","x: 189.1425323486328
y: 275.78167724609375
z: -0.011677163653075695
","x: 182.43740844726562
y: 282.0833740234375
z: -0.013222075998783112
","x: 184.39022827148438
y: 281.55804443359375
z: -0.015762800350785255
","x: 185.9867401123047
y: 281.6571960449219
z: -0.01493836846202612
","x: 187.01954650878906
y: 282.02874755859375
z: -0.014106662012636662
",,,,,,,,,,,,,,,,,,,,,
5,"x: 240.51968383789062
y: 279.0006408691406
z: -0.46011772751808167
visibility: 0.9999960064888
","x: 242.31753540039062
y: 270.304931640625
z: -0.4487546384334564
visibility: 0.9999854564666748
","x: 243.6965789794922
y: 269.1395263671875
z: -0.4487132132053375
visibility: 0.9999843239784241
","x: 245.08827209472656
y: 268.1979675292969
z: -0.4488285183906555
visibility: 0.9999815225601196
","x: 238.07980346679688
y: 273.19989013671875
z: -0.45276695489883423
visibility: 0.9999874830245972
","x: 236.5175323486328
y: 273.601806640625
z: -0.4528956413269043
visibility: 0.9999880194664001
","x: 235.02842712402344
y: 273.9620666503906
z: -0.45285242795944214
visibility: 0.9999872446060181
","x: 246.77810668945312
y: 267.3645324707031
z: -0.3269155025482178
visibility: 0.9999732375144958
","x: 232.2567901611328
y: 272.5425109863281
z: -0.346396803855896
visibility: 0.9999827742576599
","x: 243.15850830078125
y: 285.25537109375
z: -0.41008442640304565
visibility: 0.9999876618385315
","x: 238.67401123046875
y: 285.6129150390625
z: -0.4158453047275543
visibility: 0.9999907612800598
","x: 260.0528259277344
y: 306.16827392578125
z: -0.22478780150413513
visibility: 0.9999631643295288
","x: 219.37564086914062
y: 295.1822509765625
z: -0.2499164640903473
visibility: 0.9999726414680481
","x: 284.9684753417969
y: 318.6798400878906
z: -0.2557680904865265
visibility: 0.9924795031547546
","x: 198.2332305908203
y: 317.77239990234375
z: -0.3600693941116333
visibility: 0.9976462125778198
","x: 288.6043701171875
y: 356.0953369140625
z: -0.37459617853164673
visibility: 0.9785746932029724
","x: 189.3265380859375
y: 294.0468444824219
z: -0.5569720268249512
visibility: 0.9924570322036743
","x: 291.5908203125
y: 365.511474609375
z: -0.40999835729599
visibility: 0.9415759444236755
","x: 186.9499053955078
y: 319.02593994140625
z: -0.6023087501525879
visibility: 0.9775689840316772
","x: 292.7073059082031
y: 364.14935302734375
z: -0.42695102095603943
visibility: 0.9431309700012207
","x: 189.3538818359375
y: 318.5418395996094
z: -0.6179255247116089
visibility: 0.9758908748626709
","x: 289.52935791015625
y: 362.2984619140625
z: -0.3841323256492615
visibility: 0.9195441603660583
","x: 190.7576446533203
y: 317.2768859863281
z: -0.5694869756698608
visibility: 0.9612578749656677
","x: 252.16632080078125
y: 402.2546691894531
z: 0.006144682411104441
visibility: 0.9997713565826416
","x: 226.70091247558594
y: 401.63531494140625
z: -0.006247480865567923
visibility: 0.9998629093170166
","x: 269.9721374511719
y: 470.68914794921875
z: -0.1448046714067459
visibility: 0.9982718229293823
","x: 212.40328979492188
y: 472.3873291015625
z: -0.1711207926273346
visibility: 0.9973239898681641
","x: 278.509033203125
y: 538.208251953125
z: 0.047730617225170135
visibility: 0.9984221458435059
","x: 200.0726776123047
y: 540.188232421875
z: 0.026025885716080666
visibility: 0.9985496997833252
","x: 274.9161071777344
y: 549.8250732421875
z: 0.05882857367396355
visibility: 0.9528353810310364
","x: 201.5476531982422
y: 550.90380859375
z: 0.038530316203832626
visibility: 0.9654592871665955
","x: 286.3141784667969
y: 560.5687866210938
z: -0.07005256414413452
visibility: 0.9955963492393494
","x: 196.3123321533203
y: 563.09619140625
z: -0.08774350583553314
visibility: 0.9961084127426147
",,,,,,,,,,,,,,,,,,,,,,,,,,,,,,,,,,,,,,,,,,
6,"x: 226.8691864013672
y: 281.0345153808594
z: -0.4062637686729431
visibility: 0.9999948143959045
","x: 229.7960205078125
y: 273.1747741699219
z: -0.39949244260787964
visibility: 0.9999775290489197
","x: 231.3591766357422
y: 272.61328125
z: -0.3994593024253845
visibility: 0.9999793171882629
","x: 233.04954528808594
y: 272.3406066894531
z: -0.39955586194992065
visibility: 0.9999759197235107
","x: 226.0785369873047
y: 275.04998779296875
z: -0.39345529675483704
visibility: 0.9999802708625793
","x: 224.7895050048828
y: 275.4193115234375
z: -0.3935231864452362
visibility: 0.9999823570251465
","x: 223.57717895507812
y: 275.7593078613281
z: -0.3934286832809448
visibility: 0.9999809265136719
","x: 236.8828887939453
y: 273.9561767578125
z: -0.31124311685562134
visibility: 0.9999693036079407
","x: 223.16162109375
y: 275.54583740234375
z: -0.27929097414016724
visibility: 0.9999765157699585
","x: 229.27749633789062
y: 287.4635009765625
z: -0.36915650963783264
visibility: 0.9999846816062927
","x: 225.1786651611328
y: 286.9980163574219
z: -0.3605634570121765
visibility: 0.9999837279319763
","x: 252.18275451660156
y: 308.43316650390625
z: -0.22268684208393097
visibility: 0.9999663829803467
","x: 217.2521514892578
y: 304.7262268066406
z: -0.15082010626792908
visibility: 0.9999669194221497
","x: 280.03302001953125
y: 309.57012939453125
z: -0.24730606377124786
visibility: 0.9932057857513428
","x: 206.25460815429688
y: 324.35504150390625
z: 0.02680213376879692
visibility: 0.9849727153778076
","x: 295.485107421875
y: 348.4024658203125
z: -0.2890668511390686
visibility: 0.9804123640060425
","x: 205.15773010253906
y: 377.4920349121094
z: 0.13997744023799896
visibility: 0.97165846824646
","x: 304.5194396972656
y: 356.27825927734375
z: -0.30518820881843567
visibility: 0.9456869959831238
","x: 205.74749755859375
y: 394.4278259277344
z: 0.15333864092826843
visibility: 0.9405805468559265
","x: 303.6046142578125
y: 359.2117004394531
z: -0.33214330673217773
visibility: 0.9472876191139221
","x: 207.72732543945312
y: 395.1716613769531
z: 0.12938272953033447
visibility: 0.9413886070251465
","x: 299.6331481933594
y: 358.2207946777344
z: -0.3016887605190277
visibility: 0.9254627823829651
","x: 208.6298828125
y: 390.11053466796875
z: 0.13432329893112183
visibility: 0.9299476146697998
","x: 252.21725463867188
y: 405.0326843261719
z: -0.025288691744208336
visibility: 0.9997720122337341
","x: 228.90805053710938
y: 404.7818298339844
z: 0.02527293562889099
visibility: 0.9998692870140076
","x: 270.943115234375
y: 472.94415283203125
z: -0.0959276482462883
visibility: 0.9983764886856079
","x: 211.53121948242188
y: 472.19403076171875
z: -0.10879147052764893
visibility: 0.9975273609161377
","x: 281.2432861328125
y: 535.885498046875
z: 0.15598870813846588
visibility: 0.9984444975852966
","x: 199.6201171875
y: 540.81689453125
z: 0.06908229738473892
visibility: 0.9986287355422974
","x: 279.9410095214844
y: 544.3538818359375
z: 0.17157989740371704
visibility: 0.9500892162322998
","x: 202.070068359375
y: 552.1721801757812
z: 0.08054769039154053
visibility: 0.967613697052002
","x: 285.75164794921875
y: 560.8113403320312
z: 0.048525579273700714
visibility: 0.9956285953521729
","x: 190.74179077148438
y: 562.409423828125
z: -0.05422435328364372
visibility: 0.9963129758834839
",,,,,,,,,,,,,,,,,,,,,,,,,,,,,,,,,,,,,,,,,,
7,"x: 226.7845916748047
y: 273.7019958496094
z: -0.1393081098794937
visibility: 0.9999757409095764
","x: 229.77810668945312
y: 266.97882080078125
z: -0.1305418759584427
visibility: 0.9999476075172424
","x: 231.3561248779297
y: 266.9924621582031
z: -0.13061638176441193
visibility: 0.9999486804008484
","x: 233.0382080078125
y: 267.1427001953125
z: -0.13068661093711853
visibility: 0.9999566674232483
","x: 226.14015197753906
y: 267.0742492675781
z: -0.11663371324539185
visibility: 0.9999390244483948
","x: 225.03811645507812
y: 267.03912353515625
z: -0.11659932136535645
visibility: 0.9999158382415771
","x: 223.93252563476562
y: 267.0151062011719
z: -0.116543248295784
visibility: 0.9999212026596069
","x: 236.55743408203125
y: 270.4388427734375
z: -0.05990271642804146
visibility: 0.9999576210975647
","x: 223.19302368164062
y: 269.509033203125
z: 0.007518609520047903
visibility: 0.9998438954353333
","x: 229.4271240234375
y: 281.2570495605469
z: -0.11176814883947372
visibility: 0.9999715685844421
","x: 224.82070922851562
y: 280.63372802734375
z: -0.09278588742017746
visibility: 0.9999552965164185
","x: 247.29080200195312
y: 302.34033203125
z: -0.10504232347011566
visibility: 0.9999681115150452
","x: 219.1661834716797
y: 306.00262451171875
z: 0.11252941191196442
visibility: 0.9999083280563354
","x: 257.2125549316406
y: 318.04791259765625
z: -0.2999756336212158
visibility: 0.99293452501297
","x: 222.9082489013672
y: 331.1462097167969
z: 0.09504050761461258
visibility: 0.8933624029159546
","x: 245.04579162597656
y: 339.1470947265625
z: -0.5021312832832336
visibility: 0.9800407886505127
","x: 222.79962158203125
y: 365.9942321777344
z: -0.04149964079260826
visibility: 0.8837288022041321
","x: 242.53404235839844
y: 347.0921325683594
z: -0.5552954077720642
visibility: 0.9481792449951172
","x: 222.6533660888672
y: 376.97369384765625
z: -0.07067307084798813
visibility: 0.857649028301239
","x: 239.22463989257812
y: 348.6578063964844
z: -0.5516884922981262
visibility: 0.9495465755462646
","x: 223.12413024902344
y: 375.303955078125
z: -0.08781607449054718
visibility: 0.8590205311775208
","x: 238.72303771972656
y: 342.2264404296875
z: -0.5047830939292908
visibility: 0.9265736937522888
","x: 223.3587646484375
y: 371.9283752441406
z: -0.05414380878210068
visibility: 0.8477877378463745
","x: 251.24742126464844
y: 405.0484619140625
z: -0.05771554261445999
visibility: 0.9997921586036682
","x: 229.7520751953125
y: 405.30517578125
z: 0.05779372900724411
visibility: 0.9998804926872253
","x: 265.33477783203125
y: 476.47113037109375
z: -0.07468388974666595
visibility: 0.9984577894210815
","x: 209.0546417236328
y: 472.4682312011719
z: -0.1259392648935318
visibility: 0.9976856112480164
","x: 282.94561767578125
y: 534.267578125
z: 0.1479518860578537
visibility: 0.9984987378120422
","x: 199.20721435546875
y: 540.876953125
z: 0.022406142204999924
visibility: 0.9986925721168518
","x: 286.1269226074219
y: 542.257080078125
z: 0.16379773616790771
visibility: 0.9464702606201172
","x: 202.37649536132812
y: 552.6538696289062
z: 0.030639592558145523
visibility: 0.9696329236030579
","x: 284.693115234375
y: 562.322021484375
z: 0.041582658886909485
visibility: 0.9957225918769836
","x: 189.01974487304688
y: 562.45068359375
z: -0.07997378706932068
visibility: 0.9964799284934998
",,,,,,,,,,,,,,,,,,,,,,,,,,,,,,,,,,,,,,,,,,
8,"x: 241.63307189941406
y: 269.15667724609375
z: -0.29388362169265747
visibility: 0.9999771118164062
","x: 244.77810668945312
y: 263.2364807128906
z: -0.28169432282447815
visibility: 0.9999503493309021
","x: 246.4688262939453
y: 263.73858642578125
z: -0.2817269265651703
visibility: 0.9999504685401917
","x: 248.1045684814453
y: 264.2991943359375
z: -0.2817322313785553
visibility: 0.9999578595161438
","x: 240.32876586914062
y: 262.02008056640625
z: -0.2715527415275574
visibility: 0.9999432563781738
","x: 239.0727996826172
y: 261.7342529296875
z: -0.271581768989563
visibility: 0.9999216198921204
","x: 237.9529571533203
y: 261.5027770996094
z: -0.27158111333847046
visibility: 0.9999271035194397
","x: 250.7109832763672
y: 268.3909912109375
z: -0.1948843151330948
visibility: 0.9999557733535767
","x: 237.0355224609375
y: 265.51885986328125
z: -0.1463315188884735
visibility: 0.9998545050621033
","x: 244.37680053710938
y: 277.3377685546875
z: -0.2602403163909912
visibility: 0.9999707341194153
","x: 238.84617614746094
y: 276.1419372558594
z: -0.24705442786216736
visibility: 0.9999577403068542
","x: 255.74278259277344
y: 303.6103210449219
z: -0.20635469257831573
visibility: 0.9999523162841797
","x: 228.02023315429688
y: 306.82232666015625
z: -0.02828771434724331
visibility: 0.9999018907546997
","x: 233.02838134765625
y: 321.52349853515625
z: -0.3478763699531555
visibility: 0.993236243724823
","x: 218.18148803710938
y: 344.28155517578125
z: -0.03468068689107895
visibility: 0.8649819493293762
","x: 200.14508056640625
y: 329.13568115234375
z: -0.4761318266391754
visibility: 0.9812557101249695
","x: 221.5397186279297
y: 392.9941101074219
z: -0.1734929084777832
visibility: 0.8415349125862122
","x: 192.81101989746094
y: 334.3563232421875
z: -0.5272346138954163
visibility: 0.9518570303916931
","x: 220.4010009765625
y: 404.8559265136719
z: -0.20815005898475647
visibility: 0.810727596282959
","x: 191.55812072753906
y: 332.12481689453125
z: -0.5228074789047241
visibility: 0.9530181884765625
","x: 215.7286376953125
y: 397.57916259765625
z: -0.23074403405189514
visibility: 0.8122198581695557
","x: 193.84564208984375
y: 331.1752624511719
z: -0.4774683117866516
visibility: 0.9301387667655945
","x: 216.68875122070312
y: 393.5192565917969
z: -0.18751439452171326
visibility: 0.7981700897216797
","x: 253.2193603515625
y: 407.8421630859375
z: -0.04480525478720665
visibility: 0.9998065233230591
","x: 231.18954467773438
y: 405.7574768066406
z: 0.04461140185594559
visibility: 0.9998911619186401
","x: 265.54571533203125
y: 478.16351318359375
z: -0.04026291146874428
visibility: 0.998486340045929
","x: 207.64425659179688
y: 471.35882568359375
z: -0.15211941301822662
visibility: 0.9978822469711304
","x: 284.0870666503906
y: 534.6284790039062
z: 0.23784813284873962
visibility: 0.9984734654426575
","x: 199.3351593017578
y: 541.0302734375
z: 0.01633366011083126
visibility: 0.9987696409225464
","x: 285.8884582519531
y: 542.9007568359375
z: 0.2582007050514221
visibility: 0.9364314079284668
","x: 202.51336669921875
y: 552.6956787109375
z: 0.02670624852180481
visibility: 0.9712175726890564
","x: 284.76318359375
y: 562.446533203125
z: 0.13393071293830872
visibility: 0.9956366419792175
","x: 188.34458923339844
y: 562.5673217773438
z: -0.0941767767071724
visibility: 0.9966943264007568
",,,,,,,,,,,,,,,,,,,,,,"x: 196.23971557617188
y: 331.68267822265625
z: 0.0
","x: 196.3311309814453
y: 334.0412902832031
z: -0.008425630629062653
","x: 194.4433135986328
y: 336.9349670410156
z: -0.014729373157024384
","x: 191.5003662109375
y: 337.8469543457031
z: -0.01950383558869362
","x: 188.52699279785156
y: 336.59112548828125
z: -0.023617791011929512
","x: 187.02301025390625
y: 325.4173278808594
z: -0.015185778960585594
","x: 182.7321319580078
y: 318.689697265625
z: -0.02101314812898636
","x: 179.01617431640625
y: 314.92315673828125
z: -0.02427566982805729
","x: 176.5840606689453
y: 312.18402099609375
z: -0.02635810896754265
","x: 184.93846130371094
y: 327.0657043457031
z: -0.013182609342038631
","x: 183.39422607421875
y: 334.5399475097656
z: -0.019167736172676086
","x: 185.8474578857422
y: 339.4039306640625
z: -0.01918496936559677
","x: 188.1442108154297
y: 340.6518249511719
z: -0.018594330176711082
","x: 184.34962463378906
y: 330.214599609375
z: -0.011575507000088692
","x: 184.2678680419922
y: 337.798828125
z: -0.01683277264237404
","x: 186.51312255859375
y: 341.2197570800781
z: -0.016358522698283195
","x: 188.37872314453125
y: 341.9566345214844
z: -0.015605074353516102
","x: 184.55599975585938
y: 333.47393798828125
z: -0.010729714296758175
","x: 184.95986938476562
y: 339.1577453613281
z: -0.01405821181833744
","x: 187.03013610839844
y: 341.4738464355469
z: -0.014044520445168018
","x: 188.61013793945312
y: 341.851806640625
z: -0.01374649628996849
"
9,"x: 241.63307189941406
y: 269.15667724609375
z: -0.29388362169265747
visibility: 0.9999771118164062
","x: 244.77810668945312
y: 263.2364807128906
z: -0.28169432282447815
visibility: 0.9999503493309021
","x: 246.4688262939453
y: 263.73858642578125
z: -0.2817269265651703
visibility: 0.9999504685401917
","x: 248.1045684814453
y: 264.2991943359375
z: -0.2817322313785553
visibility: 0.9999578595161438
","x: 240.32876586914062
y: 262.02008056640625
z: -0.2715527415275574
visibility: 0.9999432563781738
","x: 239.0727996826172
y: 261.7342529296875
z: -0.271581768989563
visibility: 0.9999216198921204
","x: 237.9529571533203
y: 261.5027770996094
z: -0.27158111333847046
visibility: 0.9999271035194397
","x: 250.7109832763672
y: 268.3909912109375
z: -0.1948843151330948
visibility: 0.9999557733535767
","x: 237.0355224609375
y: 265.51885986328125
z: -0.1463315188884735
visibility: 0.9998545050621033
","x: 244.37680053710938
y: 277.3377685546875
z: -0.2602403163909912
visibility: 0.9999707341194153
","x: 238.84617614746094
y: 276.1419372558594
z: -0.24705442786216736
visibility: 0.9999577403068542
","x: 255.74278259277344
y: 303.6103210449219
z: -0.20635469257831573
visibility: 0.9999523162841797
","x: 228.02023315429688
y: 306.82232666015625
z: -0.02828771434724331
visibility: 0.9999018907546997
","x: 233.02838134765625
y: 321.52349853515625
z: -0.3478763699531555
visibility: 0.993236243724823
","x: 218.18148803710938
y: 344.28155517578125
z: -0.03468068689107895
visibility: 0.8649819493293762
","x: 200.14508056640625
y: 329.13568115234375
z: -0.4761318266391754
visibility: 0.9812557101249695
","x: 221.5397186279297
y: 392.9941101074219
z: -0.1734929084777832
visibility: 0.8415349125862122
","x: 192.81101989746094
y: 334.3563232421875
z: -0.5272346138954163
visibility: 0.9518570303916931
","x: 220.4010009765625
y: 404.8559265136719
z: -0.20815005898475647
visibility: 0.810727596282959
","x: 191.55812072753906
y: 332.12481689453125
z: -0.5228074789047241
visibility: 0.9530181884765625
","x: 215.7286376953125
y: 397.57916259765625
z: -0.23074403405189514
visibility: 0.8122198581695557
","x: 193.84564208984375
y: 331.1752624511719
z: -0.4774683117866516
visibility: 0.9301387667655945
","x: 216.68875122070312
y: 393.5192565917969
z: -0.18751439452171326
visibility: 0.7981700897216797
","x: 253.2193603515625
y: 407.8421630859375
z: -0.04480525478720665
visibility: 0.9998065233230591
","x: 231.18954467773438
y: 405.7574768066406
z: 0.04461140185594559
visibility: 0.9998911619186401
","x: 265.54571533203125
y: 478.16351318359375
z: -0.04026291146874428
visibility: 0.998486340045929
","x: 207.64425659179688
y: 471.35882568359375
z: -0.15211941301822662
visibility: 0.9978822469711304
","x: 284.0870666503906
y: 534.6284790039062
z: 0.23784813284873962
visibility: 0.9984734654426575
","x: 199.3351593017578
y: 541.0302734375
z: 0.01633366011083126
visibility: 0.9987696409225464
","x: 285.8884582519531
y: 542.9007568359375
z: 0.2582007050514221
visibility: 0.9364314079284668
","x: 202.51336669921875
y: 552.6956787109375
z: 0.02670624852180481
visibility: 0.9712175726890564
","x: 284.76318359375
y: 562.446533203125
z: 0.13393071293830872
visibility: 0.9956366419792175
","x: 188.34458923339844
y: 562.5673217773438
z: -0.0941767767071724
visibility: 0.9966943264007568
",,,,,,,,,,,,,,,,,,,,,,"x: 196.23971557617188
y: 331.68267822265625
z: 0.0
","x: 196.3311309814453
y: 334.0412902832031
z: -0.008425630629062653
","x: 194.4433135986328
y: 336.9349670410156
z: -0.014729373157024384
","x: 191.5003662109375
y: 337.8469543457031
z: -0.01950383558869362
","x: 188.52699279785156
y: 336.59112548828125
z: -0.023617791011929512
","x: 187.02301025390625
y: 325.4173278808594
z: -0.015185778960585594
","x: 182.7321319580078
y: 318.689697265625
z: -0.02101314812898636
","x: 179.01617431640625
y: 314.92315673828125
z: -0.02427566982805729
","x: 176.5840606689453
y: 312.18402099609375
z: -0.02635810896754265
","x: 184.93846130371094
y: 327.0657043457031
z: -0.013182609342038631
","x: 183.39422607421875
y: 334.5399475097656
z: -0.019167736172676086
","x: 185.8474578857422
y: 339.4039306640625
z: -0.01918496936559677
","x: 188.1442108154297
y: 340.6518249511719
z: -0.018594330176711082
","x: 184.34962463378906
y: 330.214599609375
z: -0.011575507000088692
","x: 184.2678680419922
y: 337.798828125
z: -0.01683277264237404
","x: 186.51312255859375
y: 341.2197570800781
z: -0.016358522698283195
","x: 188.37872314453125
y: 341.9566345214844
z: -0.015605074353516102
","x: 184.55599975585938
y: 333.47393798828125
z: -0.010729714296758175
","x: 184.95986938476562
y: 339.1577453613281
z: -0.01405821181833744
","x: 187.03013610839844
y: 341.4738464355469
z: -0.014044520445168018
","x: 188.61013793945312
y: 341.851806640625
z: -0.01374649628996849
"
10,"x: 238.723388671875
y: 265.8386535644531
z: -0.2451055943965912
visibility: 0.9999784827232361
","x: 241.06141662597656
y: 259.1854553222656
z: -0.23531976342201233
visibility: 0.9999520778656006
","x: 242.5643310546875
y: 259.8451843261719
z: -0.23536130785942078
visibility: 0.9999521970748901
","x: 244.05224609375
y: 260.6068115234375
z: -0.23536312580108643
visibility: 0.9999586343765259
","x: 236.88221740722656
y: 258.40228271484375
z: -0.22286781668663025
visibility: 0.9999452829360962
","x: 235.5455780029297
y: 258.5086364746094
z: -0.22285287082195282
visibility: 0.9999250173568726
","x: 234.33010864257812
y: 258.6422119140625
z: -0.22283272445201874
visibility: 0.9999298453330994
","x: 246.44517517089844
y: 266.2969665527344
z: -0.16060863435268402
visibility: 0.9999541640281677
","x: 232.9985809326172
y: 263.3249206542969
z: -0.1009286418557167
visibility: 0.9998617768287659
","x: 240.9632568359375
y: 275.1784362792969
z: -0.21607539057731628
visibility: 0.9999713897705078
","x: 235.98440551757812
y: 274.14202880859375
z: -0.1992989480495453
visibility: 0.9999599456787109
","x: 256.2600402832031
y: 300.6532897949219
z: -0.17425325512886047
visibility: 0.9999551773071289
","x: 223.68502807617188
y: 305.51666259765625
z: 0.008136567659676075
visibility: 0.999909520149231
","x: 243.22213745117188
y: 328.38543701171875
z: -0.3283369243144989
visibility: 0.9937153458595276
","x: 215.89833068847656
y: 344.5962219238281
z: 0.07452269643545151
visibility: 0.8691900968551636
","x: 215.6905517578125
y: 311.3149719238281
z: -0.516530454158783
visibility: 0.9830256104469299
","x: 213.58982849121094
y: 377.7042236328125
z: -0.007261945400387049
visibility: 0.8510289788246155
","x: 209.61865234375
y: 309.6694641113281
z: -0.5689886808395386
visibility: 0.9564487338066101
","x: 214.98248291015625
y: 390.2374572753906
z: -0.03214532881975174
visibility: 0.8188014626502991
","x: 209.03262329101562
y: 306.7813720703125
z: -0.563826858997345
visibility: 0.9574765563011169
","x: 213.91659545898438
y: 389.0575866699219
z: -0.06232258677482605
visibility: 0.8208715915679932
","x: 211.4626922607422
y: 307.80255126953125
z: -0.5180167555809021
visibility: 0.93650221824646
","x: 213.89793395996094
y: 385.2384033203125
z: -0.02259892411530018
visibility: 0.8054491877555847
","x: 253.31964111328125
y: 408.2253723144531
z: -0.039422325789928436
visibility: 0.9998244047164917
","x: 230.47901916503906
y: 406.7785949707031
z: 0.03928634896874428
visibility: 0.9999017119407654
","x: 266.3941345214844
y: 478.95135498046875
z: 0.0010938887717202306
visibility: 0.9985808730125427
","x: 205.16038513183594
y: 469.4311218261719
z: -0.1457938551902771
visibility: 0.9980765581130981
","x: 284.3057861328125
y: 534.8113403320312
z: 0.2802980840206146
visibility: 0.9985215067863464
","x: 197.87628173828125
y: 538.44580078125
z: 0.018166813999414444
visibility: 0.9988542199134827
","x: 285.669189453125
y: 543.1267700195312
z: 0.30183395743370056
visibility: 0.9313083291053772
","x: 202.1235809326172
y: 549.31689453125
z: 0.0281521026045084
visibility: 0.9725226163864136
","x: 284.87066650390625
y: 562.39111328125
z: 0.18215331435203552
visibility: 0.9957760572433472
","x: 188.77110290527344
y: 562.129638671875
z: -0.08767719566822052
visibility: 0.9969357252120972
",,,,,,,,,,,,,,,,,,,,,,,,,,,,,,,,,,,,,,,,,,
11,"x: 225.16192626953125
y: 255.9725341796875
z: -0.2158358097076416
visibility: 0.9999797344207764
","x: 227.80052185058594
y: 249.8599090576172
z: -0.20053713023662567
visibility: 0.9999547004699707
","x: 229.21734619140625
y: 250.04454040527344
z: -0.20056931674480438
visibility: 0.9999547004699707
","x: 230.7440948486328
y: 250.27581787109375
z: -0.20059439539909363
visibility: 0.9999607801437378
","x: 223.8958282470703
y: 249.8172607421875
z: -0.1941339075565338
visibility: 0.9999482035636902
","x: 222.49232482910156
y: 250.02450561523438
z: -0.19413726031780243
visibility: 0.9999294877052307
","x: 221.1914825439453
y: 250.19970703125
z: -0.1941145360469818
visibility: 0.9999339580535889
","x: 234.8730926513672
y: 255.0914306640625
z: -0.09860680997371674
visibility: 0.9999567866325378
","x: 221.5290069580078
y: 254.2225799560547
z: -0.06717203557491302
visibility: 0.9998701214790344
","x: 228.2625732421875
y: 263.60589599609375
z: -0.17707489430904388
visibility: 0.9999737739562988
","x: 223.29661560058594
y: 263.9333190917969
z: -0.1685967892408371
visibility: 0.9999631643295288
","x: 247.8398895263672
y: 291.36712646484375
z: -0.061830222606658936
visibility: 0.9999585151672363
","x: 215.073486328125
y: 297.792236328125
z: 0.030520061030983925
visibility: 0.999911904335022
","x: 253.5423583984375
y: 330.22711181640625
z: -0.18658679723739624
visibility: 0.9942222237586975
","x: 210.87994384765625
y: 341.3495178222656
z: -0.0069038174115121365
visibility: 0.8690361976623535
","x: 232.70602416992188
y: 321.0657958984375
z: -0.41804319620132446
visibility: 0.9843998551368713
","x: 209.2327880859375
y: 353.0297546386719
z: -0.1918187290430069
visibility: 0.8583330512046814
","x: 226.1022491455078
y: 318.2604675292969
z: -0.5385391712188721
visibility: 0.9599285125732422
","x: 205.11935424804688
y: 361.05413818359375
z: -0.08517107367515564
visibility: 0.8265184760093689
","x: 224.96371459960938
y: 312.229736328125
z: -0.45870646834373474
visibility: 0.9608078002929688
","x: 206.3642578125
y: 357.3291320800781
z: -0.07258635014295578
visibility: 0.8287526369094849
","x: 226.52769470214844
y: 313.0594482421875
z: -0.40872135758399963
visibility: 0.9409376382827759
","x: 208.58584594726562
y: 354.23193359375
z: -0.19836878776550293
visibility: 0.8117906451225281
","x: 248.75413513183594
y: 401.44891357421875
z: -0.03403925150632858
visibility: 0.9998356699943542
","x: 225.807373046875
y: 402.64056396484375
z: 0.03389216214418411
visibility: 0.9999067783355713
","x: 265.0606689453125
y: 473.0404357910156
z: -0.03777408227324486
visibility: 0.9986827373504639
","x: 204.52194213867188
y: 468.9275817871094
z: -0.11595753580331802
visibility: 0.9982222318649292
","x: 284.6935729980469
y: 532.1484985351562
z: 0.2781256437301636
visibility: 0.9985931515693665
","x: 197.90631103515625
y: 539.5933227539062
z: 0.07516173273324966
visibility: 0.9989131689071655
","x: 286.7211608886719
y: 539.7981567382812
z: 0.2810536324977875
visibility: 0.928667426109314
","x: 202.22084045410156
y: 550.9718627929688
z: 0.08736667782068253
visibility: 0.9732455015182495
","x: 284.9136047363281
y: 562.2657470703125
z: 0.07051453739404678
visibility: 0.9959565997123718
","x: 189.54342651367188
y: 564.8411865234375
z: -0.04313699156045914
visibility: 0.9970686435699463
",,,,,,,,,,,,,,,,,,,,,,,,,,,,,,,,,,,,,,,,,,
12,"x: 212.62469482421875
y: 250.84927368164062
z: -0.23601408302783966
visibility: 0.9999799132347107
","x: 214.8943328857422
y: 244.75938415527344
z: -0.22300855815410614
visibility: 0.9999550580978394
","x: 216.41500854492188
y: 244.87384033203125
z: -0.2230190485715866
visibility: 0.9999551773071289
","x: 217.93243408203125
y: 245.0706329345703
z: -0.2230309695005417
visibility: 0.9999608397483826
","x: 210.94070434570312
y: 245.21893310546875
z: -0.2157495766878128
visibility: 0.9999490976333618
","x: 209.7136688232422
y: 245.7150115966797
z: -0.21577754616737366
visibility: 0.9999318718910217
","x: 208.4703826904297
y: 246.28042602539062
z: -0.21571847796440125
visibility: 0.9999353885650635
","x: 221.03134155273438
y: 250.36978149414062
z: -0.13323074579238892
visibility: 0.9999586939811707
","x: 208.3418426513672
y: 251.4490509033203
z: -0.09747598320245743
visibility: 0.999865710735321
","x: 215.73519897460938
y: 258.5442810058594
z: -0.20198695361614227
visibility: 0.9999749660491943
","x: 210.3626708984375
y: 259.2417297363281
z: -0.19214369356632233
visibility: 0.9999635815620422
","x: 235.77171325683594
y: 288.8764343261719
z: -0.1108013391494751
visibility: 0.9999613761901855
","x: 202.927734375
y: 295.6971130371094
z: 0.01196479331701994
visibility: 0.9998884201049805
","x: 255.57920837402344
y: 318.7817077636719
z: -0.16805580258369446
visibility: 0.9947028160095215
","x: 201.38531494140625
y: 341.1839294433594
z: -0.0444747731089592
visibility: 0.8564075231552124
","x: 240.86099243164062
y: 322.1087341308594
z: -0.2818659245967865
visibility: 0.9851852059364319
","x: 196.306640625
y: 347.00384521484375
z: -0.27527937293052673
visibility: 0.862676739692688
","x: 235.77735900878906
y: 337.7871398925781
z: -0.3239881098270416
visibility: 0.9616330862045288
","x: 192.9580078125
y: 352.55364990234375
z: -0.3077607750892639
visibility: 0.8319388628005981
","x: 233.86463928222656
y: 327.3007507324219
z: -0.3239990472793579
visibility: 0.9624152779579163
","x: 193.35690307617188
y: 349.13043212890625
z: -0.32316213846206665
visibility: 0.8343366384506226
","x: 235.2752685546875
y: 315.4158935546875
z: -0.2827996611595154
visibility: 0.9430392384529114
","x: 194.62889099121094
y: 345.0536804199219
z: -0.28866830468177795
visibility: 0.8165169954299927
","x: 236.2103271484375
y: 394.81280517578125
z: -0.05059586092829704
visibility: 0.9998329281806946
","x: 215.95828247070312
y: 399.92230224609375
z: 0.0504634790122509
visibility: 0.9998968839645386
","x: 250.3250274658203
y: 466.7516784667969
z: -0.05314192920923233
visibility: 0.998752772808075
","x: 201.9207305908203
y: 469.07818603515625
z: 0.03595313802361488
visibility: 0.9979344010353088
","x: 279.1568908691406
y: 524.6137084960938
z: 0.07465973496437073
visibility: 0.9986649751663208
","x: 197.92959594726562
y: 543.616455078125
z: 0.18216586112976074
visibility: 0.9988285303115845
","x: 283.88201904296875
y: 532.5113525390625
z: 0.07902795821428299
visibility: 0.9283904433250427
","x: 203.44032287597656
y: 555.33984375
z: 0.1896781623363495
visibility: 0.9731575846672058
","x: 279.41705322265625
y: 556.0234375
z: -0.0498368926346302
visibility: 0.9961766600608826
","x: 189.22003173828125
y: 567.3272705078125
z: 0.08783696591854095
visibility: 0.996947169303894
",,,,,,,,,,,,,,,,,,,,,,,,,,,,,,,,,,,,,,,,,,
13,"x: 202.3089141845703
y: 249.5114288330078
z: -0.27582496404647827
visibility: 0.9999814629554749
","x: 204.5927734375
y: 242.9774627685547
z: -0.26364219188690186
visibility: 0.9999578595161438
","x: 206.3016357421875
y: 243.06321716308594
z: -0.26364395022392273
visibility: 0.9999580383300781
","x: 207.86773681640625
y: 243.27645874023438
z: -0.26367634534835815
visibility: 0.9999632835388184
","x: 200.43490600585938
y: 243.2066192626953
z: -0.25772932171821594
visibility: 0.9999522566795349
","x: 199.40234375
y: 243.42440795898438
z: -0.2577647566795349
visibility: 0.9999363422393799
","x: 198.3010711669922
y: 243.7815704345703
z: -0.25772926211357117
visibility: 0.9999391436576843
","x: 210.9296875
y: 247.17398071289062
z: -0.15025532245635986
visibility: 0.9999608397483826
","x: 198.37188720703125
y: 248.30975341796875
z: -0.1409631222486496
visibility: 0.9998674988746643
","x: 205.70401000976562
y: 257.75567626953125
z: -0.23641431331634521
visibility: 0.9999767541885376
","x: 200.34466552734375
y: 257.809326171875
z: -0.23109927773475647
visibility: 0.9999654293060303
","x: 226.75247192382812
y: 289.6575622558594
z: -0.16870033740997314
visibility: 0.9999648928642273
","x: 191.16207885742188
y: 297.4339904785156
z: -0.02933008037507534
visibility: 0.9998936057090759
","x: 242.0252685546875
y: 340.2569885253906
z: -0.17522656917572021
visibility: 0.9951638579368591
","x: 189.21327209472656
y: 345.6686706542969
z: 0.024386145174503326
visibility: 0.8570179343223572
","x: 243.51248168945312
y: 389.05218505859375
z: -0.25144797563552856
visibility: 0.9862589836120605
","x: 186.1940155029297
y: 387.8907775878906
z: -0.06628405302762985
visibility: 0.8697481155395508
","x: 237.91900634765625
y: 402.63177490234375
z: -0.2831449806690216
visibility: 0.9643449187278748
","x: 182.2404327392578
y: 401.88494873046875
z: -0.08321741968393326
visibility: 0.8380590677261353
","x: 238.3982391357422
y: 403.22406005859375
z: -0.30526965856552124
visibility: 0.9651613831520081
","x: 182.7853240966797
y: 402.13720703125
z: -0.12301673740148544
visibility: 0.8412529230117798
","x: 239.8278045654297
y: 400.03961181640625
z: -0.26073193550109863
visibility: 0.9472466111183167
","x: 185.2227325439453
y: 397.339111328125
z: -0.08446964621543884
visibility: 0.8241386413574219
","x: 226.04664611816406
y: 394.0043640136719
z: -0.06480970233678818
visibility: 0.9998377561569214
","x: 206.17034912109375
y: 398.0346374511719
z: 0.0647105872631073
visibility: 0.9998859167098999
","x: 218.29833984375
y: 466.9541931152344
z: -0.08215047419071198
visibility: 0.9983853101730347
","x: 199.18673706054688
y: 469.080810546875
z: 0.09954116493463516
visibility: 0.992933988571167
","x: 240.01416015625
y: 529.0114135742188
z: 0.0008525980520062149
visibility: 0.9985522031784058
","x: 198.19825744628906
y: 544.314697265625
z: 0.21426662802696228
visibility: 0.9976491332054138
","x: 247.5684356689453
y: 538.9735107421875
z: 0.001926389173604548
visibility: 0.9278421998023987
","x: 203.33316040039062
y: 556.4402465820312
z: 0.2181047946214676
visibility: 0.9711753129959106
","x: 228.48243713378906
y: 556.0648193359375
z: -0.10419602692127228
visibility: 0.996068000793457
","x: 187.79861450195312
y: 567.245849609375
z: 0.13104656338691711
visibility: 0.99604731798172
",,,,,,,,,,,,,,,,,,,,,,,,,,,,,,,,,,,,,,,,,,
14,"x: 201.91383361816406
y: 249.34140014648438
z: -0.349942147731781
visibility: 0.999981701374054
","x: 204.01535034179688
y: 241.523681640625
z: -0.3383019268512726
visibility: 0.999957263469696
","x: 205.68539428710938
y: 241.4923858642578
z: -0.3383030295372009
visibility: 0.9999574422836304
","x: 207.44410705566406
y: 241.5679931640625
z: -0.3383461833000183
visibility: 0.999962329864502
","x: 199.87338256835938
y: 241.74424743652344
z: -0.33148738741874695
visibility: 0.9999530911445618
","x: 198.51219177246094
y: 241.97674560546875
z: -0.33155274391174316
visibility: 0.9999379515647888
","x: 197.03379821777344
y: 242.4239501953125
z: -0.33158543705940247
visibility: 0.9999400973320007
","x: 210.5059051513672
y: 244.537353515625
z: -0.24809157848358154
visibility: 0.9999592304229736
","x: 196.0217742919922
y: 246.21673583984375
z: -0.21982240676879883
visibility: 0.999861478805542
","x: 204.9181671142578
y: 257.5369873046875
z: -0.3152458369731903
visibility: 0.9999768733978271
","x: 200.38543701171875
y: 257.5350036621094
z: -0.30694717168807983
visibility: 0.9999651908874512
","x: 226.24855041503906
y: 290.5718688964844
z: -0.20935209095478058
visibility: 0.9999645352363586
","x: 185.76910400390625
y: 296.85748291015625
z: -0.10871803760528564
visibility: 0.9999001622200012
","x: 236.1984100341797
y: 346.9493103027344
z: -0.1990300714969635
visibility: 0.9954926371574402
","x: 182.7317352294922
y: 350.62506103515625
z: -0.0017278483137488365
visibility: 0.8681291341781616
","x: 241.60374450683594
y: 400.7057189941406
z: -0.27975669503211975
visibility: 0.9862303137779236
","x: 182.80836486816406
y: 400.5693054199219
z: -0.1603357493877411
visibility: 0.8787234425544739
","x: 241.87875366210938
y: 413.7576599121094
z: -0.31166383624076843
visibility: 0.9640483260154724
","x: 179.18020629882812
y: 414.06573486328125
z: -0.17884011566638947
visibility: 0.8464703559875488
","x: 240.56776428222656
y: 414.44268798828125
z: -0.3329254984855652
visibility: 0.9651032090187073
","x: 180.54205322265625
y: 414.0655212402344
z: -0.21294288337230682
visibility: 0.849969744682312
","x: 239.7548370361328
y: 410.7947082519531
z: -0.2888762354850769
visibility: 0.9478964805603027
","x: 182.8040313720703
y: 410.1950378417969
z: -0.1752844899892807
visibility: 0.8333020806312561
","x: 222.45909118652344
y: 390.908203125
z: -0.052172571420669556
visibility: 0.9998175501823425
","x: 201.37095642089844
y: 393.7506103515625
z: 0.05212262272834778
visibility: 0.9998468160629272
","x: 205.36563110351562
y: 460.917236328125
z: -0.22608637809753418
visibility: 0.9935569763183594
","x: 198.39511108398438
y: 467.29296875
z: 0.04036156088113785
visibility: 0.9609935879707336
","x: 207.84854125976562
y: 525.1114501953125
z: -0.12724770605564117
visibility: 0.9907499551773071
","x: 200.42617797851562
y: 544.9680786132812
z: 0.1494940221309662
visibility: 0.9781754612922668
","x: 212.8693084716797
y: 531.2432250976562
z: -0.12328066676855087
visibility: 0.9185848832130432
","x: 206.28790283203125
y: 558.497802734375
z: 0.15472105145454407
visibility: 0.9457054734230042
","x: 205.06411743164062
y: 535.6969604492188
z: -0.22568544745445251
visibility: 0.9895781874656677
","x: 188.35963439941406
y: 567.219482421875
z: 0.049604419618844986
visibility: 0.9751793742179871
","x: 182.5031280517578
y: 402.42791748046875
z: 0.0
","x: 184.64686584472656
y: 408.07989501953125
z: -0.00052983732894063
","x: 185.34127807617188
y: 414.7626037597656
z: -0.0011358465999364853
","x: 185.55117797851562
y: 420.5383605957031
z: -0.0018086603377014399
","x: 186.17703247070312
y: 424.85406494140625
z: -0.002348830923438072
","x: 180.46383666992188
y: 415.9964599609375
z: -0.0002937293902505189
","x: 179.25308227539062
y: 420.6054382324219
z: -0.0011243599001318216
","x: 178.58641052246094
y: 423.33154296875
z: -0.001271184184588492
","x: 178.01559448242188
y: 425.5212707519531
z: -0.0012588881654664874
","x: 178.38995361328125
y: 414.7463684082031
z: -0.0009390687337145209
","x: 176.26954650878906
y: 419.38525390625
z: -0.001704817172139883
","x: 174.951171875
y: 422.43878173828125
z: -0.0017512693302705884
","x: 173.8217010498047
y: 425.0152282714844
z: -0.0018584607169032097
","x: 176.97128295898438
y: 413.25250244140625
z: -0.0017749459948390722
","x: 174.65823364257812
y: 417.51885986328125
z: -0.002806746633723378
","x: 173.2350311279297
y: 420.6273193359375
z: -0.0030618885066360235
","x: 172.03062438964844
y: 423.36444091796875
z: -0.003234450239688158
","x: 176.1336669921875
y: 411.571044921875
z: -0.0027252465952187777
","x: 173.75830078125
y: 414.7236633300781
z: -0.0037202041130512953
","x: 172.27761840820312
y: 417.06036376953125
z: -0.004133427049964666
","x: 171.06263732910156
y: 419.291259765625
z: -0.004348051734268665
",,,,,,,,,,,,,,,,,,,,,
15,"x: 201.91383361816406
y: 249.34140014648438
z: -0.349942147731781
visibility: 0.999981701374054
","x: 204.01535034179688
y: 241.523681640625
z: -0.3383019268512726
visibility: 0.999957263469696
","x: 205.68539428710938
y: 241.4923858642578
z: -0.3383030295372009
visibility: 0.9999574422836304
","x: 207.44410705566406
y: 241.5679931640625
z: -0.3383461833000183
visibility: 0.999962329864502
","x: 199.87338256835938
y: 241.74424743652344
z: -0.33148738741874695
visibility: 0.9999530911445618
","x: 198.51219177246094
y: 241.97674560546875
z: -0.33155274391174316
visibility: 0.9999379515647888
","x: 197.03379821777344
y: 242.4239501953125
z: -0.33158543705940247
visibility: 0.9999400973320007
","x: 210.5059051513672
y: 244.537353515625
z: -0.24809157848358154
visibility: 0.9999592304229736
","x: 196.0217742919922
y: 246.21673583984375
z: -0.21982240676879883
visibility: 0.999861478805542
","x: 204.9181671142578
y: 257.5369873046875
z: -0.3152458369731903
visibility: 0.9999768733978271
","x: 200.38543701171875
y: 257.5350036621094
z: -0.30694717168807983
visibility: 0.9999651908874512
","x: 226.24855041503906
y: 290.5718688964844
z: -0.20935209095478058
visibility: 0.9999645352363586
","x: 185.76910400390625
y: 296.85748291015625
z: -0.10871803760528564
visibility: 0.9999001622200012
","x: 236.1984100341797
y: 346.9493103027344
z: -0.1990300714969635
visibility: 0.9954926371574402
","x: 182.7317352294922
y: 350.62506103515625
z: -0.0017278483137488365
visibility: 0.8681291341781616
","x: 241.60374450683594
y: 400.7057189941406
z: -0.27975669503211975
visibility: 0.9862303137779236
","x: 182.80836486816406
y: 400.5693054199219
z: -0.1603357493877411
visibility: 0.8787234425544739
","x: 241.87875366210938
y: 413.7576599121094
z: -0.31166383624076843
visibility: 0.9640483260154724
","x: 179.18020629882812
y: 414.06573486328125
z: -0.17884011566638947
visibility: 0.8464703559875488
","x: 240.56776428222656
y: 414.44268798828125
z: -0.3329254984855652
visibility: 0.9651032090187073
","x: 180.54205322265625
y: 414.0655212402344
z: -0.21294288337230682
visibility: 0.849969744682312
","x: 239.7548370361328
y: 410.7947082519531
z: -0.2888762354850769
visibility: 0.9478964805603027
","x: 182.8040313720703
y: 410.1950378417969
z: -0.1752844899892807
visibility: 0.8333020806312561
","x: 222.45909118652344
y: 390.908203125
z: -0.052172571420669556
visibility: 0.9998175501823425
","x: 201.37095642089844
y: 393.7506103515625
z: 0.05212262272834778
visibility: 0.9998468160629272
","x: 205.36563110351562
y: 460.917236328125
z: -0.22608637809753418
visibility: 0.9935569763183594
","x: 198.39511108398438
y: 467.29296875
z: 0.04036156088113785
visibility: 0.9609935879707336
","x: 207.84854125976562
y: 525.1114501953125
z: -0.12724770605564117
visibility: 0.9907499551773071
","x: 200.42617797851562
y: 544.9680786132812
z: 0.1494940221309662
visibility: 0.9781754612922668
","x: 212.8693084716797
y: 531.2432250976562
z: -0.12328066676855087
visibility: 0.9185848832130432
","x: 206.28790283203125
y: 558.497802734375
z: 0.15472105145454407
visibility: 0.9457054734230042
","x: 205.06411743164062
y: 535.6969604492188
z: -0.22568544745445251
visibility: 0.9895781874656677
","x: 188.35963439941406
y: 567.219482421875
z: 0.049604419618844986
visibility: 0.9751793742179871
","x: 182.5031280517578
y: 402.42791748046875
z: 0.0
","x: 184.64686584472656
y: 408.07989501953125
z: -0.00052983732894063
","x: 185.34127807617188
y: 414.7626037597656
z: -0.0011358465999364853
","x: 185.55117797851562
y: 420.5383605957031
z: -0.0018086603377014399
","x: 186.17703247070312
y: 424.85406494140625
z: -0.002348830923438072
","x: 180.46383666992188
y: 415.9964599609375
z: -0.0002937293902505189
","x: 179.25308227539062
y: 420.6054382324219
z: -0.0011243599001318216
","x: 178.58641052246094
y: 423.33154296875
z: -0.001271184184588492
","x: 178.01559448242188
y: 425.5212707519531
z: -0.0012588881654664874
","x: 178.38995361328125
y: 414.7463684082031
z: -0.0009390687337145209
","x: 176.26954650878906
y: 419.38525390625
z: -0.001704817172139883
","x: 174.951171875
y: 422.43878173828125
z: -0.0017512693302705884
","x: 173.8217010498047
y: 425.0152282714844
z: -0.0018584607169032097
","x: 176.97128295898438
y: 413.25250244140625
z: -0.0017749459948390722
","x: 174.65823364257812
y: 417.51885986328125
z: -0.002806746633723378
","x: 173.2350311279297
y: 420.6273193359375
z: -0.0030618885066360235
","x: 172.03062438964844
y: 423.36444091796875
z: -0.003234450239688158
","x: 176.1336669921875
y: 411.571044921875
z: -0.0027252465952187777
","x: 173.75830078125
y: 414.7236633300781
z: -0.0037202041130512953
","x: 172.27761840820312
y: 417.06036376953125
z: -0.004133427049964666
","x: 171.06263732910156
y: 419.291259765625
z: -0.004348051734268665
",,,,,,,,,,,,,,,,,,,,,
16,"x: 202.04306030273438
y: 243.8981475830078
z: -0.29828184843063354
visibility: 0.9999823570251465
","x: 204.59779357910156
y: 236.33262634277344
z: -0.2845862805843353
visibility: 0.9999589920043945
","x: 206.41925048828125
y: 236.46424865722656
z: -0.28455567359924316
visibility: 0.9999589323997498
","x: 208.1281280517578
y: 236.68515014648438
z: -0.28457918763160706
visibility: 0.999963104724884
","x: 199.3890380859375
y: 236.47723388671875
z: -0.2777642011642456
visibility: 0.9999555349349976
","x: 198.07666015625
y: 236.65029907226562
z: -0.2777980864048004
visibility: 0.999941349029541
","x: 196.6695556640625
y: 236.97000122070312
z: -0.2778562009334564
visibility: 0.999943196773529
","x: 210.71156311035156
y: 239.6527099609375
z: -0.19190135598182678
visibility: 0.9999600648880005
","x: 195.17674255371094
y: 241.1262664794922
z: -0.1615530252456665
visibility: 0.9998649954795837
","x: 205.633056640625
y: 252.3986053466797
z: -0.2630307674407959
visibility: 0.9999775886535645
","x: 199.55763244628906
y: 252.26321411132812
z: -0.2544320225715637
visibility: 0.9999655485153198
","x: 225.1012420654297
y: 284.9022216796875
z: -0.16236382722854614
visibility: 0.9999597072601318
","x: 183.24929809570312
y: 289.5412902832031
z: -0.060955096036195755
visibility: 0.9999043345451355
","x: 232.51698303222656
y: 344.6701354980469
z: -0.12640361487865448
visibility: 0.9940902590751648
","x: 178.82640075683594
y: 349.294921875
z: -0.022559532895684242
visibility: 0.8750597238540649
","x: 231.48101806640625
y: 388.2800598144531
z: -0.1743871420621872
visibility: 0.9716005325317383
","x: 179.28677368164062
y: 393.3245849609375
z: -0.12086845934391022
visibility: 0.8786022067070007
","x: 233.4095458984375
y: 399.49853515625
z: -0.19614668190479279
visibility: 0.9426940083503723
","x: 176.8813018798828
y: 406.12060546875
z: -0.13430777192115784
visibility: 0.8430630564689636
","x: 230.39920043945312
y: 398.7906188964844
z: -0.21501508355140686
visibility: 0.945519745349884
","x: 178.4301300048828
y: 406.8042297363281
z: -0.16645894944667816
visibility: 0.8474653363227844
","x: 228.83621215820312
y: 395.546875
z: -0.1813601404428482
visibility: 0.925661027431488
","x: 180.1588897705078
y: 402.4159240722656
z: -0.1345663219690323
visibility: 0.8285907506942749
","x: 217.71038818359375
y: 385.5617980957031
z: -0.05734509229660034
visibility: 0.9998189210891724
","x: 195.87420654296875
y: 386.16314697265625
z: 0.057247161865234375
visibility: 0.9998344779014587
","x: 189.1890106201172
y: 410.9428405761719
z: -0.37168484926223755
visibility: 0.9934587478637695
","x: 194.54873657226562
y: 467.5498962402344
z: 0.05920583754777908
visibility: 0.9559774398803711
","x: 191.4449005126953
y: 483.827392578125
z: -0.23900055885314941
visibility: 0.9902709126472473
","x: 200.3088836669922
y: 546.5305786132812
z: 0.17655189335346222
visibility: 0.9752187132835388
","x: 194.78622436523438
y: 491.61358642578125
z: -0.22932979464530945
visibility: 0.9203696846961975
","x: 206.05885314941406
y: 559.0526123046875
z: 0.18138863146305084
visibility: 0.9410905838012695
","x: 180.58596801757812
y: 502.3577575683594
z: -0.32445889711380005
visibility: 0.9890394806861877
","x: 187.8536376953125
y: 567.1846923828125
z: 0.08317451924085617
visibility: 0.9713934063911438
",,,,,,,,,,,,,,,,,,,,,,"x: 230.64183044433594
y: 384.1378479003906
z: 0.0
","x: 227.98045349121094
y: 387.4961853027344
z: -0.0005525769665837288
","x: 226.12454223632812
y: 392.0065612792969
z: -0.0015468016499653459
","x: 224.97994995117188
y: 395.9033508300781
z: -0.002644940512254834
","x: 224.44168090820312
y: 398.66900634765625
z: -0.0034834658727049828
","x: 228.91085815429688
y: 396.3995056152344
z: -0.0024051107466220856
","x: 229.30368041992188
y: 402.1532897949219
z: -0.0035950287710875273
","x: 229.48687744140625
y: 403.4880065917969
z: -0.0034961162600666285
","x: 229.7242431640625
y: 403.39288330078125
z: -0.0031942592468112707
","x: 231.0557403564453
y: 396.7863464355469
z: -0.0030129863880574703
","x: 231.88314819335938
y: 402.43499755859375
z: -0.003974076360464096
","x: 232.19056701660156
y: 403.13153076171875
z: -0.0032217837870121002
","x: 232.66433715820312
y: 402.9065246582031
z: -0.0025876869913190603
","x: 232.95957946777344
y: 396.5167236328125
z: -0.0036305775865912437
","x: 234.21112060546875
y: 401.48516845703125
z: -0.004839168395847082
","x: 234.9099884033203
y: 402.779296875
z: -0.004384797066450119
","x: 235.63307189941406
y: 403.298095703125
z: -0.003938009962439537
","x: 234.53402709960938
y: 395.66705322265625
z: -0.00432854937389493
","x: 236.244384765625
y: 399.30572509765625
z: -0.00553145119920373
","x: 237.3451385498047
y: 400.6007080078125
z: -0.005538592580705881
","x: 238.23672485351562
y: 401.37933349609375
z: -0.005340488161891699
"
17,"x: 202.04306030273438
y: 243.8981475830078
z: -0.29828184843063354
visibility: 0.9999823570251465
","x: 204.59779357910156
y: 236.33262634277344
z: -0.2845862805843353
visibility: 0.9999589920043945
","x: 206.41925048828125
y: 236.46424865722656
z: -0.28455567359924316
visibility: 0.9999589323997498
","x: 208.1281280517578
y: 236.68515014648438
z: -0.28457918763160706
visibility: 0.999963104724884
","x: 199.3890380859375
y: 236.47723388671875
z: -0.2777642011642456
visibility: 0.9999555349349976
","x: 198.07666015625
y: 236.65029907226562
z: -0.2777980864048004
visibility: 0.999941349029541
","x: 196.6695556640625
y: 236.97000122070312
z: -0.2778562009334564
visibility: 0.999943196773529
","x: 210.71156311035156
y: 239.6527099609375
z: -0.19190135598182678
visibility: 0.9999600648880005
","x: 195.17674255371094
y: 241.1262664794922
z: -0.1615530252456665
visibility: 0.9998649954795837
","x: 205.633056640625
y: 252.3986053466797
z: -0.2630307674407959
visibility: 0.9999775886535645
","x: 199.55763244628906
y: 252.26321411132812
z: -0.2544320225715637
visibility: 0.9999655485153198
","x: 225.1012420654297
y: 284.9022216796875
z: -0.16236382722854614
visibility: 0.9999597072601318
","x: 183.24929809570312
y: 289.5412902832031
z: -0.060955096036195755
visibility: 0.9999043345451355
","x: 232.51698303222656
y: 344.6701354980469
z: -0.12640361487865448
visibility: 0.9940902590751648
","x: 178.82640075683594
y: 349.294921875
z: -0.022559532895684242
visibility: 0.8750597238540649
","x: 231.48101806640625
y: 388.2800598144531
z: -0.1743871420621872
visibility: 0.9716005325317383
","x: 179.28677368164062
y: 393.3245849609375
z: -0.12086845934391022
visibility: 0.8786022067070007
","x: 233.4095458984375
y: 399.49853515625
z: -0.19614668190479279
visibility: 0.9426940083503723
","x: 176.8813018798828
y: 406.12060546875
z: -0.13430777192115784
visibility: 0.8430630564689636
","x: 230.39920043945312
y: 398.7906188964844
z: -0.21501508355140686
visibility: 0.945519745349884
","x: 178.4301300048828
y: 406.8042297363281
z: -0.16645894944667816
visibility: 0.8474653363227844
","x: 228.83621215820312
y: 395.546875
z: -0.1813601404428482
visibility: 0.925661027431488
","x: 180.1588897705078
y: 402.4159240722656
z: -0.1345663219690323
visibility: 0.8285907506942749
","x: 217.71038818359375
y: 385.5617980957031
z: -0.05734509229660034
visibility: 0.9998189210891724
","x: 195.87420654296875
y: 386.16314697265625
z: 0.057247161865234375
visibility: 0.9998344779014587
","x: 189.1890106201172
y: 410.9428405761719
z: -0.37168484926223755
visibility: 0.9934587478637695
","x: 194.54873657226562
y: 467.5498962402344
z: 0.05920583754777908
visibility: 0.9559774398803711
","x: 191.4449005126953
y: 483.827392578125
z: -0.23900055885314941
visibility: 0.9902709126472473
","x: 200.3088836669922
y: 546.5305786132812
z: 0.17655189335346222
visibility: 0.9752187132835388
","x: 194.78622436523438
y: 491.61358642578125
z: -0.22932979464530945
visibility: 0.9203696846961975
","x: 206.05885314941406
y: 559.0526123046875
z: 0.18138863146305084
visibility: 0.9410905838012695
","x: 180.58596801757812
y: 502.3577575683594
z: -0.32445889711380005
visibility: 0.9890394806861877
","x: 187.8536376953125
y: 567.1846923828125
z: 0.08317451924085617
visibility: 0.9713934063911438
",,,,,,,,,,,,,,,,,,,,,,"x: 230.64183044433594
y: 384.1378479003906
z: 0.0
","x: 227.98045349121094
y: 387.4961853027344
z: -0.0005525769665837288
","x: 226.12454223632812
y: 392.0065612792969
z: -0.0015468016499653459
","x: 224.97994995117188
y: 395.9033508300781
z: -0.002644940512254834
","x: 224.44168090820312
y: 398.66900634765625
z: -0.0034834658727049828
","x: 228.91085815429688
y: 396.3995056152344
z: -0.0024051107466220856
","x: 229.30368041992188
y: 402.1532897949219
z: -0.0035950287710875273
","x: 229.48687744140625
y: 403.4880065917969
z: -0.0034961162600666285
","x: 229.7242431640625
y: 403.39288330078125
z: -0.0031942592468112707
","x: 231.0557403564453
y: 396.7863464355469
z: -0.0030129863880574703
","x: 231.88314819335938
y: 402.43499755859375
z: -0.003974076360464096
","x: 232.19056701660156
y: 403.13153076171875
z: -0.0032217837870121002
","x: 232.66433715820312
y: 402.9065246582031
z: -0.0025876869913190603
","x: 232.95957946777344
y: 396.5167236328125
z: -0.0036305775865912437
","x: 234.21112060546875
y: 401.48516845703125
z: -0.004839168395847082
","x: 234.9099884033203
y: 402.779296875
z: -0.004384797066450119
","x: 235.63307189941406
y: 403.298095703125
z: -0.003938009962439537
","x: 234.53402709960938
y: 395.66705322265625
z: -0.00432854937389493
","x: 236.244384765625
y: 399.30572509765625
z: -0.00553145119920373
","x: 237.3451385498047
y: 400.6007080078125
z: -0.005538592580705881
","x: 238.23672485351562
y: 401.37933349609375
z: -0.005340488161891699
"
18,"x: 200.07257080078125
y: 240.10647583007812
z: -0.3005671799182892
visibility: 0.9999815225601196
","x: 202.64755249023438
y: 233.09571838378906
z: -0.28761687874794006
visibility: 0.9999533891677856
","x: 204.38641357421875
y: 233.42596435546875
z: -0.28759530186653137
visibility: 0.9999516606330872
","x: 205.98870849609375
y: 233.8820037841797
z: -0.28761959075927734
visibility: 0.9999534487724304
","x: 197.6746368408203
y: 232.68453979492188
z: -0.2790014445781708
visibility: 0.9999533891677856
","x: 196.4267120361328
y: 232.6894989013672
z: -0.2790040373802185
visibility: 0.9999399781227112
","x: 195.3173065185547
y: 232.82025146484375
z: -0.2789555490016937
visibility: 0.9999427795410156
","x: 208.17642211914062
y: 236.95355224609375
z: -0.19122405350208282
visibility: 0.9999502897262573
","x: 193.29931640625
y: 236.62326049804688
z: -0.1721101552248001
visibility: 0.9998627305030823
","x: 203.26385498046875
y: 248.72860717773438
z: -0.26361364126205444
visibility: 0.9999758005142212
","x: 197.33798217773438
y: 248.32327270507812
z: -0.2563439607620239
visibility: 0.9999653697013855
","x: 221.46913146972656
y: 283.041748046875
z: -0.1352006047964096
visibility: 0.9999460577964783
","x: 179.60659790039062
y: 280.04071044921875
z: -0.07673734426498413
visibility: 0.999912679195404
","x: 229.83837890625
y: 339.10418701171875
z: -0.09944208711385727
visibility: 0.9907562136650085
","x: 177.81712341308594
y: 334.8023986816406
z: -0.041259367018938065
visibility: 0.8843006491661072
","x: 228.821533203125
y: 379.66595458984375
z: -0.1834453046321869
visibility: 0.9407687783241272
","x: 179.7938690185547
y: 383.8735656738281
z: -0.13614431023597717
visibility: 0.8845386505126953
","x: 229.822265625
y: 389.87872314453125
z: -0.20959198474884033
visibility: 0.9046791195869446
","x: 177.48690795898438
y: 395.4183654785156
z: -0.15535300970077515
visibility: 0.8483926057815552
","x: 227.51234436035156
y: 389.0313720703125
z: -0.23415395617485046
visibility: 0.9097532033920288
","x: 179.2038116455078
y: 395.2989196777344
z: -0.18713290989398956
visibility: 0.8532015085220337
","x: 226.4918975830078
y: 385.4837646484375
z: -0.1947716325521469
visibility: 0.888764500617981
","x: 181.16107177734375
y: 391.04473876953125
z: -0.1495739221572876
visibility: 0.8340281248092651
","x: 216.71405029296875
y: 377.7886657714844
z: -0.05637329816818237
visibility: 0.9998229742050171
","x: 194.7197265625
y: 380.6555480957031
z: 0.05615004152059555
visibility: 0.9998461604118347
","x: 194.13368225097656
y: 422.0476989746094
z: -0.2906356453895569
visibility: 0.9934759736061096
","x: 192.7135009765625
y: 462.94061279296875
z: 0.016726668924093246
visibility: 0.9550899863243103
","x: 215.8665771484375
y: 461.1509704589844
z: -0.0723789855837822
visibility: 0.9848811626434326
","x: 200.14602661132812
y: 546.22998046875
z: 0.13945850729942322
visibility: 0.9758892059326172
","x: 221.5235137939453
y: 458.600341796875
z: -0.05365429073572159
visibility: 0.9070156812667847
","x: 205.9010009765625
y: 558.6676025390625
z: 0.13824114203453064
visibility: 0.9398463368415833
","x: 213.53086853027344
y: 496.4598388671875
z: -0.1399477869272232
visibility: 0.9853880405426025
","x: 188.09329223632812
y: 568.2649536132812
z: 0.07546411454677582
visibility: 0.9712628126144409
",,,,,,,,,,,,,,,,,,,,,,,,,,,,,,,,,,,,,,,,,,
19,"x: 199.8808135986328
y: 239.88156127929688
z: -0.24482083320617676
visibility: 0.999983012676239
","x: 201.9730224609375
y: 233.079345703125
z: -0.22946903109550476
visibility: 0.9999570846557617
","x: 203.44491577148438
y: 233.47181701660156
z: -0.22944951057434082
visibility: 0.9999553561210632
","x: 204.580810546875
y: 233.96615600585938
z: -0.22944048047065735
visibility: 0.9999565482139587
","x: 197.31968688964844
y: 232.68333435058594
z: -0.22982534766197205
visibility: 0.9999569654464722
","x: 195.76197814941406
y: 232.8997039794922
z: -0.2298389971256256
visibility: 0.9999447464942932
","x: 194.17616271972656
y: 233.2578125
z: -0.2297975718975067
visibility: 0.9999474287033081
","x: 206.1468505859375
y: 237.8675537109375
z: -0.11249883472919464
visibility: 0.9999544024467468
","x: 192.01820373535156
y: 236.75576782226562
z: -0.11600977182388306
visibility: 0.9998748898506165
","x: 202.84872436523438
y: 248.3232879638672
z: -0.19849911332130432
visibility: 0.9999778866767883
","x: 196.77322387695312
y: 248.60125732421875
z: -0.19976983964443207
visibility: 0.9999685287475586
","x: 218.17169189453125
y: 282.248779296875
z: -0.03694848716259003
visibility: 0.9999510645866394
","x: 178.79061889648438
y: 269.826416015625
z: -0.024542856961488724
visibility: 0.9999209642410278
","x: 228.7645263671875
y: 330.689208984375
z: -0.002830419223755598
visibility: 0.9910985231399536
","x: 171.8472137451172
y: 310.3494873046875
z: -0.03966687247157097
visibility: 0.8939259052276611
","x: 223.9580841064453
y: 363.1640625
z: -0.0920037180185318
visibility: 0.9447600841522217
","x: 182.10499572753906
y: 336.48065185546875
z: -0.19346152245998383
visibility: 0.8947888612747192
","x: 222.4570770263672
y: 373.2994384765625
z: -0.12073658406734467
visibility: 0.9091808795928955
","x: 182.40219116210938
y: 345.19171142578125
z: -0.23392470180988312
visibility: 0.8612059354782104
","x: 220.680419921875
y: 369.1558532714844
z: -0.14177560806274414
visibility: 0.9138781428337097
","x: 183.89990234375
y: 340.8978271484375
z: -0.24701039493083954
visibility: 0.8655849099159241
","x: 220.5852508544922
y: 365.6302185058594
z: -0.10150949656963348
visibility: 0.8931813836097717
","x: 184.93821716308594
y: 337.3282470703125
z: -0.19925662875175476
visibility: 0.8474013209342957
","x: 211.0227813720703
y: 378.5060119628906
z: -0.03862524405121803
visibility: 0.9998382925987244
","x: 189.39881896972656
y: 380.9735107421875
z: 0.03865259140729904
visibility: 0.9998610019683838
","x: 215.79153442382812
y: 440.2226257324219
z: -0.06836630403995514
visibility: 0.9939195513725281
","x: 192.967529296875
y: 463.3825378417969
z: 0.004937308374792337
visibility: 0.9587727785110474
","x: 242.0999298095703
y: 485.96636962890625
z: 0.17780660092830658
visibility: 0.9857967495918274
","x: 199.7278289794922
y: 545.2153930664062
z: 0.1342633217573166
visibility: 0.9781216979026794
","x: 243.2686004638672
y: 483.41180419921875
z: 0.19896051287651062
visibility: 0.9077848792076111
","x: 205.83531188964844
y: 558.4486083984375
z: 0.1371190845966339
visibility: 0.9438913464546204
","x: 258.6649169921875
y: 516.6854248046875
z: 0.12496384233236313
visibility: 0.9862000346183777
","x: 188.20938110351562
y: 568.46142578125
z: 0.07033059746026993
visibility: 0.9738028645515442
",,,,,,,,,,,,,,,,,,,,,,,,,,,,,,,,,,,,,,,,,,
20,"x: 197.65216064453125
y: 240.88381958007812
z: -0.09850572794675827
visibility: 0.9999767541885376
","x: 199.7430877685547
y: 233.8998260498047
z: -0.08181648701429367
visibility: 0.9999393820762634
","x: 201.22337341308594
y: 234.17300415039062
z: -0.08178047835826874
visibility: 0.9999349117279053
","x: 202.58877563476562
y: 234.48263549804688
z: -0.08171902596950531
visibility: 0.9999333620071411
","x: 195.20042419433594
y: 233.92446899414062
z: -0.08227624744176865
visibility: 0.9999430179595947
","x: 193.66915893554688
y: 234.2367401123047
z: -0.08230404555797577
visibility: 0.9999307990074158
","x: 192.20635986328125
y: 234.6562957763672
z: -0.08230367302894592
visibility: 0.9999334812164307
","x: 204.30941772460938
y: 238.5321044921875
z: 0.010672281496226788
visibility: 0.999936580657959
","x: 190.4426727294922
y: 238.9612579345703
z: 0.009058555588126183
visibility: 0.9998620748519897
","x: 200.7510223388672
y: 249.1770782470703
z: -0.06323173642158508
visibility: 0.9999607801437378
","x: 194.7222900390625
y: 249.92149353027344
z: -0.06413517892360687
visibility: 0.9999539852142334
","x: 215.27114868164062
y: 281.3016662597656
z: 0.011280442588031292
visibility: 0.9999452829360962
","x: 180.1768341064453
y: 273.0528564453125
z: 0.02733597531914711
visibility: 0.9999212026596069
","x: 201.72447204589844
y: 331.5417175292969
z: -0.04921518266201019
visibility: 0.9903180003166199
","x: 177.23890686035156
y: 296.28216552734375
z: -0.13118000328540802
visibility: 0.9038400650024414
","x: 167.1486053466797
y: 347.1572570800781
z: -0.10218316316604614
visibility: 0.9482260942459106
","x: 203.8829345703125
y: 275.58331298828125
z: -0.2845659554004669
visibility: 0.9034672379493713
","x: 160.5445556640625
y: 353.5732421875
z: -0.12888769805431366
visibility: 0.9131935834884644
","x: 210.8440704345703
y: 272.9522399902344
z: -0.32648250460624695
visibility: 0.8698979020118713
","x: 157.98443603515625
y: 348.5367431640625
z: -0.12722142040729523
visibility: 0.9170600175857544
","x: 211.9906768798828
y: 271.4658508300781
z: -0.3047097325325012
visibility: 0.8730838894844055
","x: 159.8426513671875
y: 346.42205810546875
z: -0.10164813697338104
visibility: 0.8953102827072144
","x: 209.4475555419922
y: 272.6592102050781
z: -0.2799585461616516
visibility: 0.854057252407074
","x: 217.5794677734375
y: 377.1038513183594
z: -0.01083110086619854
visibility: 0.9998283982276917
","x: 195.88906860351562
y: 382.6805419921875
z: 0.010782601311802864
visibility: 0.9998614192008972
","x: 224.45787048339844
y: 442.5689697265625
z: -0.028841042891144753
visibility: 0.9943200945854187
","x: 194.90452575683594
y: 464.06134033203125
z: -0.00043270885362289846
visibility: 0.9625217914581299
","x: 241.6134490966797
y: 524.1520385742188
z: 0.08942551910877228
visibility: 0.9868656396865845
","x: 199.72918701171875
y: 544.5120849609375
z: 0.10121820122003555
visibility: 0.9798647165298462
","x: 241.269775390625
y: 537.19189453125
z: 0.09989854693412781
visibility: 0.9062280058860779
","x: 205.73313903808594
y: 557.9502563476562
z: 0.1034233570098877
visibility: 0.9395932555198669
","x: 252.3845672607422
y: 547.5673217773438
z: 0.09414640069007874
visibility: 0.9868929386138916
","x: 190.426513671875
y: 568.390869140625
z: -0.004489789716899395
visibility: 0.975485622882843
",,,,,,,,,,,,,,,,,,,,,,,,,,,,,,,,,,,,,,,,,,
21,"x: 200.61351013183594
y: 243.41183471679688
z: -0.3223366141319275
visibility: 0.9999779462814331
","x: 202.6689910888672
y: 236.96092224121094
z: -0.29929155111312866
visibility: 0.9999436140060425
","x: 203.76953125
y: 237.2370147705078
z: -0.2992035746574402
visibility: 0.9999381303787231
","x: 204.78607177734375
y: 237.58319091796875
z: -0.29921990633010864
visibility: 0.9999371767044067
","x: 196.92713928222656
y: 236.9877471923828
z: -0.30336105823516846
visibility: 0.9999474287033081
","x: 194.12246704101562
y: 237.30490112304688
z: -0.3033868074417114
visibility: 0.9999361634254456
","x: 192.83518981933594
y: 237.7162322998047
z: -0.3033902943134308
visibility: 0.9999391436576843
","x: 204.7239532470703
y: 241.48873901367188
z: -0.16580379009246826
visibility: 0.9999374747276306
","x: 193.0843048095703
y: 241.845458984375
z: -0.1895788013935089
visibility: 0.9998750686645508
","x: 202.6574249267578
y: 251.66021728515625
z: -0.274565726518631
visibility: 0.9999634623527527
","x: 195.05548095703125
y: 252.53591918945312
z: -0.28069618344306946
visibility: 0.9999579787254333
","x: 220.20291137695312
y: 283.6661682128906
z: -0.06672195345163345
visibility: 0.9998853206634521
","x: 185.22183227539062
y: 278.362548828125
z: -0.15170322358608246
visibility: 0.9999203085899353
","x: 247.60568237304688
y: 317.87969970703125
z: -0.2691078782081604
visibility: 0.9897385239601135
","x: 158.2318115234375
y: 277.290771484375
z: -0.34598618745803833
visibility: 0.9133688807487488
","x: 236.38128662109375
y: 307.0361328125
z: -0.4763038754463196
visibility: 0.9421735405921936
","x: 189.95315551757812
y: 258.68548583984375
z: -0.5158966779708862
visibility: 0.9116266369819641
","x: 232.7112274169922
y: 304.3388671875
z: -0.5161155462265015
visibility: 0.8914883732795715
","x: 201.76312255859375
y: 255.8704833984375
z: -0.5553370714187622
visibility: 0.8759319186210632
","x: 226.91741943359375
y: 299.99993896484375
z: -0.49897900223731995
visibility: 0.8931572437286377
","x: 206.76882934570312
y: 255.6868896484375
z: -0.5321647524833679
visibility: 0.8773148655891418
","x: 227.76942443847656
y: 301.835693359375
z: -0.4750702977180481
visibility: 0.8662840127944946
","x: 201.60923767089844
y: 258.50177001953125
z: -0.5106815099716187
visibility: 0.8570354580879211
","x: 220.85986328125
y: 377.59442138671875
z: 0.00577175710350275
visibility: 0.9998157620429993
","x: 198.32736206054688
y: 384.4040222167969
z: -0.0059961844235658646
visibility: 0.999862015247345
","x: 227.08908081054688
y: 459.5284729003906
z: -0.053287286311388016
visibility: 0.9943267107009888
","x: 192.81661987304688
y: 469.4787902832031
z: -0.08009980618953705
visibility: 0.9661232829093933
","x: 233.14266967773438
y: 539.2100830078125
z: 0.11879662424325943
visibility: 0.9877598285675049
","x: 197.5048065185547
y: 543.445556640625
z: 0.09879762679338455
visibility: 0.9816604852676392
","x: 228.7321014404297
y: 554.43212890625
z: 0.12908677756786346
visibility: 0.9116525053977966
","x: 202.26394653320312
y: 552.0820922851562
z: 0.10768486559391022
visibility: 0.9406556487083435
","x: 247.15853881835938
y: 564.0186157226562
z: 0.01197977177798748
visibility: 0.987459659576416
","x: 190.7798614501953
y: 569.268310546875
z: -0.015284193679690361
visibility: 0.9774227142333984
",,,,,,,,,,,,,,,,,,,,,,,,,,,,,,,,,,,,,,,,,,
22,"x: 211.0005340576172
y: 245.0714874267578
z: -0.4129806458950043
visibility: 0.9999799728393555
","x: 213.12710571289062
y: 237.91329956054688
z: -0.39259833097457886
visibility: 0.9999487996101379
","x: 214.12322998046875
y: 237.88626098632812
z: -0.3925338387489319
visibility: 0.9999437928199768
","x: 215.0910186767578
y: 237.9417266845703
z: -0.3925327956676483
visibility: 0.9999428391456604
","x: 208.71725463867188
y: 238.4974822998047
z: -0.40025296807289124
visibility: 0.9999521970748901
","x: 206.6131591796875
y: 238.84759521484375
z: -0.4003770351409912
visibility: 0.9999421238899231
","x: 204.9341278076172
y: 239.23509216308594
z: -0.40037330985069275
visibility: 0.9999447464942932
","x: 215.6470489501953
y: 242.783203125
z: -0.2550171911716461
visibility: 0.9999416470527649
","x: 202.94091796875
y: 243.260986328125
z: -0.2962602972984314
visibility: 0.9998870491981506
","x: 211.8757781982422
y: 252.61412048339844
z: -0.360939085483551
visibility: 0.9999665021896362
","x: 206.40383911132812
y: 253.92935180664062
z: -0.3728848695755005
visibility: 0.9999618530273438
","x: 227.247802734375
y: 291.456787109375
z: -0.12175627052783966
visibility: 0.9998956322669983
","x: 187.08876037597656
y: 280.84967041015625
z: -0.2304454743862152
visibility: 0.9999277591705322
","x: 247.7841796875
y: 334.7630615234375
z: -0.12974514067173004
visibility: 0.9895401000976562
","x: 168.23870849609375
y: 280.8121032714844
z: -0.28932321071624756
visibility: 0.9218976497650146
","x: 257.8045349121094
y: 368.50665283203125
z: -0.3015564978122711
visibility: 0.9468342661857605
","x: 168.47454833984375
y: 337.12396240234375
z: -0.44690102338790894
visibility: 0.9198929071426392
","x: 260.28826904296875
y: 382.98944091796875
z: -0.3294004797935486
visibility: 0.8994665145874023
","x: 167.86962890625
y: 348.42572021484375
z: -0.49033012986183167
visibility: 0.8867282271385193
","x: 258.2590026855469
y: 383.19940185546875
z: -0.39108040928840637
visibility: 0.90135258436203
","x: 171.58779907226562
y: 348.8236999511719
z: -0.5077317953109741
visibility: 0.8880608081817627
","x: 257.0408935546875
y: 378.93798828125
z: -0.36865076422691345
visibility: 0.8765915632247925
","x: 172.52471923828125
y: 345.5386962890625
z: -0.45726218819618225
visibility: 0.8691373467445374
","x: 222.14488220214844
y: 383.8693542480469
z: 0.040555439889431
visibility: 0.99983149766922
","x: 199.6898651123047
y: 386.20745849609375
z: -0.04068399965763092
visibility: 0.9998724460601807
","x: 229.79217529296875
y: 461.6851501464844
z: -0.00901542603969574
visibility: 0.9939367771148682
","x: 191.06703186035156
y: 466.3197021484375
z: -0.09642966091632843
visibility: 0.9693936705589294
","x: 232.6624298095703
y: 541.1714477539062
z: 0.11002570390701294
visibility: 0.9885300993919373
","x: 169.83065795898438
y: 532.0375366210938
z: 0.03731103613972664
visibility: 0.9833552837371826
","x: 228.65322875976562
y: 557.3985595703125
z: 0.11460493505001068
visibility: 0.9171996116638184
","x: 166.87942504882812
y: 537.4075927734375
z: 0.04400334134697914
visibility: 0.9401225447654724
","x: 247.1097869873047
y: 564.77099609375
z: -0.00350828911177814
visibility: 0.9880608916282654
","x: 170.13356018066406
y: 567.0363159179688
z: -0.08021281659603119
visibility: 0.9794003963470459
",,,,,,,,,,,,,,,,,,,,,,,,,,,,,,,,,,,,,,,,,,
23,"x: 213.65447998046875
y: 252.1272430419922
z: -0.3685266077518463
visibility: 0.9999819397926331
","x: 215.85995483398438
y: 246.3087615966797
z: -0.34936437010765076
visibility: 0.9999537467956543
","x: 217.1396484375
y: 246.76658630371094
z: -0.34932976961135864
visibility: 0.9999492168426514
","x: 218.3207244873047
y: 247.222412109375
z: -0.34930187463760376
visibility: 0.9999483227729797
","x: 211.44920349121094
y: 245.62818908691406
z: -0.3556620478630066
visibility: 0.9999567866325378
","x: 209.60028076171875
y: 245.63917541503906
z: -0.3557532727718353
visibility: 0.999947726726532
","x: 208.08108520507812
y: 245.5537567138672
z: -0.35576120018959045
visibility: 0.999950110912323
","x: 218.9556121826172
y: 251.9834747314453
z: -0.22307081520557404
visibility: 0.999946653842926
","x: 206.0015106201172
y: 248.653076171875
z: -0.25551578402519226
visibility: 0.9998980760574341
","x: 215.07119750976562
y: 261.0473937988281
z: -0.3205811381340027
visibility: 0.9999696612358093
","x: 209.87216186523438
y: 260.26531982421875
z: -0.33002936840057373
visibility: 0.9999655485153198
","x: 229.17506408691406
y: 299.91998291015625
z: -0.11261628568172455
visibility: 0.9999057054519653
","x: 188.05029296875
y: 288.6230163574219
z: -0.18377593159675598
visibility: 0.999934732913971
","x: 245.19862365722656
y: 351.29534912109375
z: -0.05513303354382515
visibility: 0.9896989464759827
","x: 172.150146484375
y: 343.6605529785156
z: -0.18219758570194244
visibility: 0.9295434951782227
","x: 248.7291259765625
y: 392.2044677734375
z: -0.1762637197971344
visibility: 0.9511721134185791
","x: 171.2913818359375
y: 397.16290283203125
z: -0.2404015064239502
visibility: 0.9274979829788208
","x: 249.6122589111328
y: 407.8316955566406
z: -0.20479252934455872
visibility: 0.9070303440093994
","x: 169.05271911621094
y: 411.83203125
z: -0.2726413607597351
visibility: 0.896956741809845
","x: 247.2635040283203
y: 407.4811096191406
z: -0.24272367358207703
visibility: 0.9089949131011963
","x: 171.69699096679688
y: 413.58197021484375
z: -0.3090672194957733
visibility: 0.8982671499252319
","x: 246.3722686767578
y: 402.3186950683594
z: -0.1959795504808426
visibility: 0.8861075639724731
","x: 173.55335998535156
y: 408.66656494140625
z: -0.2555084824562073
visibility: 0.8808466792106628
","x: 221.75926208496094
y: 395.6120300292969
z: 0.038709890097379684
visibility: 0.9998468160629272
","x: 198.50494384765625
y: 394.95751953125
z: -0.038887228816747665
visibility: 0.9998829960823059
","x: 230.8931121826172
y: 469.76739501953125
z: -0.015002796426415443
visibility: 0.9941375255584717
","x: 187.3681640625
y: 473.0509948730469
z: -0.09860114753246307
visibility: 0.9723467826843262
","x: 232.74517822265625
y: 543.3820190429688
z: 0.1436501294374466
visibility: 0.989446759223938
","x: 162.60104370117188
y: 534.369384765625
z: 0.058974653482437134
visibility: 0.98482745885849
","x: 228.31251525878906
y: 558.3248291015625
z: 0.15274521708488464
visibility: 0.9226474165916443
","x: 158.3367919921875
y: 541.339599609375
z: 0.06861763447523117
visibility: 0.9362432360649109
","x: 246.60330200195312
y: 567.01220703125
z: 0.04166518896818161
visibility: 0.9888437986373901
","x: 167.65478515625
y: 568.005859375
z: -0.04804741591215134
visibility: 0.9810751080513
","x: 171.62046813964844
y: 403.4899597167969
z: 0.0
","x: 173.4561004638672
y: 407.8308410644531
z: -0.000823409587610513
","x: 174.32546997070312
y: 414.13616943359375
z: -0.0010915611637756228
","x: 173.80157470703125
y: 419.3111877441406
z: -0.001676701009273529
","x: 172.81927490234375
y: 423.60479736328125
z: -0.0020704420749098063
","x: 173.9822998046875
y: 420.00177001953125
z: 0.0016821157187223434
","x: 174.1678924560547
y: 426.5969543457031
z: 0.0006157744210213423
","x: 174.24945068359375
y: 430.8583984375
z: -0.0001958078210009262
","x: 174.36456298828125
y: 434.13092041015625
z: -0.0006264131516218185
","x: 172.2615966796875
y: 420.311279296875
z: 0.0008991381619125605
","x: 171.76576232910156
y: 426.9047546386719
z: 0.00027213257271796465
","x: 171.37232971191406
y: 431.1358642578125
z: -0.0002664181520231068
","x: 171.15992736816406
y: 434.678466796875
z: -0.0006832231883890927
","x: 170.60565185546875
y: 419.4710693359375
z: -0.0003956820582970977
","x: 169.76332092285156
y: 425.2343444824219
z: -0.0014619037974625826
","x: 169.30252075195312
y: 429.12109375
z: -0.002158892108127475
","x: 168.99131774902344
y: 432.20465087890625
z: -0.0025351836811751127
","x: 168.89761352539062
y: 417.5696105957031
z: -0.00197464507073164
","x: 167.98143005371094
y: 421.7134094238281
z: -0.002882651286199689
","x: 167.38037109375
y: 424.14990234375
z: -0.0033150441013276577
","x: 166.88558959960938
y: 426.0494689941406
z: -0.0034960045013576746
",,,,,,,,,,,,,,,,,,,,,
24,"x: 213.65447998046875
y: 252.1272430419922
z: -0.3685266077518463
visibility: 0.9999819397926331
","x: 215.85995483398438
y: 246.3087615966797
z: -0.34936437010765076
visibility: 0.9999537467956543
","x: 217.1396484375
y: 246.76658630371094
z: -0.34932976961135864
visibility: 0.9999492168426514
","x: 218.3207244873047
y: 247.222412109375
z: -0.34930187463760376
visibility: 0.9999483227729797
","x: 211.44920349121094
y: 245.62818908691406
z: -0.3556620478630066
visibility: 0.9999567866325378
","x: 209.60028076171875
y: 245.63917541503906
z: -0.3557532727718353
visibility: 0.999947726726532
","x: 208.08108520507812
y: 245.5537567138672
z: -0.35576120018959045
visibility: 0.999950110912323
","x: 218.9556121826172
y: 251.9834747314453
z: -0.22307081520557404
visibility: 0.999946653842926
","x: 206.0015106201172
y: 248.653076171875
z: -0.25551578402519226
visibility: 0.9998980760574341
","x: 215.07119750976562
y: 261.0473937988281
z: -0.3205811381340027
visibility: 0.9999696612358093
","x: 209.87216186523438
y: 260.26531982421875
z: -0.33002936840057373
visibility: 0.9999655485153198
","x: 229.17506408691406
y: 299.91998291015625
z: -0.11261628568172455
visibility: 0.9999057054519653
","x: 188.05029296875
y: 288.6230163574219
z: -0.18377593159675598
visibility: 0.999934732913971
","x: 245.19862365722656
y: 351.29534912109375
z: -0.05513303354382515
visibility: 0.9896989464759827
","x: 172.150146484375
y: 343.6605529785156
z: -0.18219758570194244
visibility: 0.9295434951782227
","x: 248.7291259765625
y: 392.2044677734375
z: -0.1762637197971344
visibility: 0.9511721134185791
","x: 171.2913818359375
y: 397.16290283203125
z: -0.2404015064239502
visibility: 0.9274979829788208
","x: 249.6122589111328
y: 407.8316955566406
z: -0.20479252934455872
visibility: 0.9070303440093994
","x: 169.05271911621094
y: 411.83203125
z: -0.2726413607597351
visibility: 0.896956741809845
","x: 247.2635040283203
y: 407.4811096191406
z: -0.24272367358207703
visibility: 0.9089949131011963
","x: 171.69699096679688
y: 413.58197021484375
z: -0.3090672194957733
visibility: 0.8982671499252319
","x: 246.3722686767578
y: 402.3186950683594
z: -0.1959795504808426
visibility: 0.8861075639724731
","x: 173.55335998535156
y: 408.66656494140625
z: -0.2555084824562073
visibility: 0.8808466792106628
","x: 221.75926208496094
y: 395.6120300292969
z: 0.038709890097379684
visibility: 0.9998468160629272
","x: 198.50494384765625
y: 394.95751953125
z: -0.038887228816747665
visibility: 0.9998829960823059
","x: 230.8931121826172
y: 469.76739501953125
z: -0.015002796426415443
visibility: 0.9941375255584717
","x: 187.3681640625
y: 473.0509948730469
z: -0.09860114753246307
visibility: 0.9723467826843262
","x: 232.74517822265625
y: 543.3820190429688
z: 0.1436501294374466
visibility: 0.989446759223938
","x: 162.60104370117188
y: 534.369384765625
z: 0.058974653482437134
visibility: 0.98482745885849
","x: 228.31251525878906
y: 558.3248291015625
z: 0.15274521708488464
visibility: 0.9226474165916443
","x: 158.3367919921875
y: 541.339599609375
z: 0.06861763447523117
visibility: 0.9362432360649109
","x: 246.60330200195312
y: 567.01220703125
z: 0.04166518896818161
visibility: 0.9888437986373901
","x: 167.65478515625
y: 568.005859375
z: -0.04804741591215134
visibility: 0.9810751080513
","x: 171.62046813964844
y: 403.4899597167969
z: 0.0
","x: 173.4561004638672
y: 407.8308410644531
z: -0.000823409587610513
","x: 174.32546997070312
y: 414.13616943359375
z: -0.0010915611637756228
","x: 173.80157470703125
y: 419.3111877441406
z: -0.001676701009273529
","x: 172.81927490234375
y: 423.60479736328125
z: -0.0020704420749098063
","x: 173.9822998046875
y: 420.00177001953125
z: 0.0016821157187223434
","x: 174.1678924560547
y: 426.5969543457031
z: 0.0006157744210213423
","x: 174.24945068359375
y: 430.8583984375
z: -0.0001958078210009262
","x: 174.36456298828125
y: 434.13092041015625
z: -0.0006264131516218185
","x: 172.2615966796875
y: 420.311279296875
z: 0.0008991381619125605
","x: 171.76576232910156
y: 426.9047546386719
z: 0.00027213257271796465
","x: 171.37232971191406
y: 431.1358642578125
z: -0.0002664181520231068
","x: 171.15992736816406
y: 434.678466796875
z: -0.0006832231883890927
","x: 170.60565185546875
y: 419.4710693359375
z: -0.0003956820582970977
","x: 169.76332092285156
y: 425.2343444824219
z: -0.0014619037974625826
","x: 169.30252075195312
y: 429.12109375
z: -0.002158892108127475
","x: 168.99131774902344
y: 432.20465087890625
z: -0.0025351836811751127
","x: 168.89761352539062
y: 417.5696105957031
z: -0.00197464507073164
","x: 167.98143005371094
y: 421.7134094238281
z: -0.002882651286199689
","x: 167.38037109375
y: 424.14990234375
z: -0.0033150441013276577
","x: 166.88558959960938
y: 426.0494689941406
z: -0.0034960045013576746
",,,,,,,,,,,,,,,,,,,,,
25,"x: 213.91940307617188
y: 253.47726440429688
z: -0.33273500204086304
visibility: 0.9999837279319763
","x: 216.344482421875
y: 247.64923095703125
z: -0.29937538504600525
visibility: 0.9999582767486572
","x: 217.69175720214844
y: 248.17874145507812
z: -0.29938435554504395
visibility: 0.9999542236328125
","x: 218.94342041015625
y: 248.71701049804688
z: -0.2993803024291992
visibility: 0.9999533891677856
","x: 212.12879943847656
y: 246.42605590820312
z: -0.3280501365661621
visibility: 0.9999610781669617
","x: 210.6874237060547
y: 246.1204833984375
z: -0.32791489362716675
visibility: 0.9999529123306274
","x: 209.2365264892578
y: 245.77423095703125
z: -0.32789236307144165
visibility: 0.9999549984931946
","x: 219.77059936523438
y: 252.597412109375
z: -0.14713504910469055
visibility: 0.9999516010284424
","x: 206.69410705566406
y: 248.63955688476562
z: -0.24913212656974792
visibility: 0.9999082684516907
","x: 215.24342346191406
y: 262.5187072753906
z: -0.2657163441181183
visibility: 0.9999726414680481
","x: 210.65467834472656
y: 260.949951171875
z: -0.2977537512779236
visibility: 0.999968945980072
