uscmakers/ReverseChoreography/data/4_levitating_dua_lipa.csv
,NOSE,LEFT_EYE_INNER,LEFT_EYE,LEFT_EYE_OUTER,RIGHT_EYE_INNER,RIGHT_EYE,RIGHT_EYE_OUTER,LEFT_EAR,RIGHT_EAR,MOUTH_LEFT,MOUTH_RIGHT,LEFT_SHOULDER,RIGHT_SHOULDER,LEFT_ELBOW,RIGHT_ELBOW,LEFT_WRIST,RIGHT_WRIST,LEFT_PINKY,RIGHT_PINKY,LEFT_INDEX,RIGHT_INDEX,LEFT_THUMB,RIGHT_THUMB,LEFT_HIP,RIGHT_HIP,LEFT_KNEE,RIGHT_KNEE,LEFT_ANKLE,RIGHT_ANKLE,LEFT_HEEL,RIGHT_HEEL,LEFT_FOOT_INDEX,RIGHT_FOOT_INDEX,WRIST,THUMB_CPC,THUMB_MCP,THUMB_IP,THUMB_TIP,INDEX_FINGER_MCP,INDEX_FINGER_PIP,INDEX_FINGER_DIP,INDEX_FINGER_TIP,MIDDLE_FINGER_MCP,MIDDLE_FINGER_PIP,MIDDLE_FINGER_DIP,MIDDLE_FINGER_TIP,RING_FINGER_PIP,RING_FINGER_DIP,RING_FINGER_TIP,RING_FINGER_MCP,PINKY_MCP,PINKY_PIP,PINKY_DIP,PINKY_TIP,WRIST2,THUMB_CPC2,THUMB_MCP2,THUMB_IP2,THUMB_TIP2,INDEX_FINGER_MCP2,INDEX_FINGER_PIP2,INDEX_FINGER_DIP2,INDEX_FINGER_TIP2,MIDDLE_FINGER_MCP2,MIDDLE_FINGER_PIP2,MIDDLE_FINGER_DIP2,MIDDLE_FINGER_TIP2,RING_FINGER_PIP2,RING_FINGER_DIP2,RING_FINGER_TIP2,RING_FINGER_MCP2,PINKY_MCP2,PINKY_PIP2,PINKY_DIP2,PINKY_TIP2
0,"x: 256.4613037109375
y: 259.03790283203125
z: -0.207512766122818
visibility: 0.9999785423278809
","x: 254.89170837402344
y: 252.95138549804688
z: -0.18896037340164185
visibility: 0.9999550580978394
","x: 254.8367156982422
y: 252.87579345703125
z: -0.18889367580413818
visibility: 0.9999327659606934
","x: 254.70751953125
y: 252.80551147460938
z: -0.18887092173099518
visibility: 0.9999266862869263
","x: 253.3632049560547
y: 252.86924743652344
z: -0.20916566252708435
visibility: 0.9999791383743286
","x: 252.37985229492188
y: 252.7354278564453
z: -0.20921340584754944
visibility: 0.9999791383743286
","x: 251.3545684814453
y: 252.6115264892578
z: -0.20926325023174286
visibility: 0.9999804496765137
","x: 250.9115753173828
y: 256.1770324707031
z: -0.07995020598173141
visibility: 0.9997389912605286
","x: 245.3986053466797
y: 257.03546142578125
z: -0.17557036876678467
visibility: 0.999984622001648
","x: 255.9565887451172
y: 266.1683044433594
z: -0.16545462608337402
visibility: 0.9999394416809082
","x: 253.8763885498047
y: 266.501220703125
z: -0.19315959513187408
visibility: 0.999981164932251
","x: 261.0550842285156
y: 298.54962158203125
z: 0.025987941771745682
visibility: 0.999721348285675
","x: 230.6719970703125
y: 296.4671630859375
z: -0.16889144480228424
visibility: 0.9999511241912842
","x: 285.8985290527344
y: 315.8821716308594
z: -0.007934622466564178
visibility: 0.9910706281661987
","x: 214.04322814941406
y: 334.4252014160156
z: -0.30426397919654846
visibility: 0.9995216131210327
","x: 284.85101318359375
y: 269.304931640625
z: -0.13895569741725922
visibility: 0.993614673614502
","x: 223.9015655517578
y: 282.8725280761719
z: -0.42355838418006897
visibility: 0.9992855191230774
","x: 286.29803466796875
y: 257.8976745605469
z: -0.16021855175495148
visibility: 0.9707431197166443
","x: 223.65426635742188
y: 267.9541931152344
z: -0.45731526613235474
visibility: 0.9962406158447266
","x: 283.4608459472656
y: 257.2940368652344
z: -0.15221291780471802
visibility: 0.9705179929733276
","x: 225.92642211914062
y: 268.0777587890625
z: -0.4429745674133301
visibility: 0.9955539107322693
","x: 282.5269775390625
y: 261.4150695800781
z: -0.1405331790447235
visibility: 0.9620188474655151
","x: 227.16558837890625
y: 273.06561279296875
z: -0.4189653992652893
visibility: 0.9914656281471252
","x: 268.3798828125
y: 397.4505920410156
z: 0.06103184074163437
visibility: 0.9998353719711304
","x: 247.6870574951172
y: 403.9339599609375
z: -0.06113892048597336
visibility: 0.9998341798782349
","x: 280.1766662597656
y: 465.63897705078125
z: 0.07781986892223358
visibility: 0.9886461496353149
","x: 244.53428649902344
y: 475.27020263671875
z: -0.025619858875870705
visibility: 0.9960713386535645
","x: 284.7331848144531
y: 535.2429809570312
z: 0.20113131403923035
visibility: 0.9935328960418701
","x: 229.75804138183594
y: 533.7100830078125
z: 0.14217165112495422
visibility: 0.9956904053688049
","x: 281.61126708984375
y: 546.583740234375
z: 0.20856866240501404
visibility: 0.9814557433128357
","x: 227.69989013671875
y: 541.2271728515625
z: 0.15445901453495026
visibility: 0.9310757517814636
","x: 295.54669189453125
y: 554.6873779296875
z: 0.12510046362876892
visibility: 0.9923520684242249
","x: 229.49940490722656
y: 555.5670776367188
z: 0.058705754578113556
visibility: 0.991450846195221
",,,,,,,,,,,,,,,,,,,,,,,,,,,,,,,,,,,,,,,,,,
1,"x: 231.71859741210938
y: 246.95603942871094
z: -0.27126291394233704
visibility: 0.9999788403511047
","x: 233.9678192138672
y: 241.52915954589844
z: -0.2501477599143982
visibility: 0.9999521970748901
","x: 235.80767822265625
y: 242.36907958984375
z: -0.2501475214958191
visibility: 0.9999293088912964
","x: 237.54397583007812
y: 243.14059448242188
z: -0.2502114474773407
visibility: 0.99992436170578
","x: 229.57064819335938
y: 239.8728790283203
z: -0.251415878534317
visibility: 0.999974250793457
","x: 228.30303955078125
y: 239.76815795898438
z: -0.2514517605304718
visibility: 0.999973475933075
","x: 227.02877807617188
y: 239.75582885742188
z: -0.25149521231651306
visibility: 0.999977171421051
","x: 239.70140075683594
y: 248.00726318359375
z: -0.13808216154575348
visibility: 0.9997488260269165
","x: 225.25843811035156
y: 246.49508666992188
z: -0.1522921770811081
visibility: 0.9999818801879883
","x: 234.8632049560547
y: 255.99058532714844
z: -0.23028381168842316
visibility: 0.999940812587738
","x: 229.86241149902344
y: 255.2039337158203
z: -0.23206913471221924
visibility: 0.9999794960021973
","x: 250.81524658203125
y: 285.1092834472656
z: -0.06541217863559723
visibility: 0.9997107982635498
","x: 210.2930908203125
y: 282.885009765625
z: -0.08700758218765259
visibility: 0.9999250769615173
","x: 279.915771484375
y: 282.1038818359375
z: -0.12026363611221313
visibility: 0.9917466044425964
","x: 180.97674560546875
y: 279.7894592285156
z: -0.11231040954589844
visibility: 0.9994337558746338
","x: 283.8949279785156
y: 234.60752868652344
z: -0.24727141857147217
visibility: 0.9929806590080261
","x: 164.84902954101562
y: 242.3170623779297
z: -0.2120685577392578
visibility: 0.998867392539978
","x: 286.32470703125
y: 221.10128784179688
z: -0.27467623353004456
visibility: 0.9683887958526611
","x: 161.3674774169922
y: 230.0517578125
z: -0.24330778419971466
visibility: 0.9940973520278931
","x: 283.9168395996094
y: 218.20208740234375
z: -0.2771420478820801
visibility: 0.9681565761566162
","x: 163.2273406982422
y: 225.87954711914062
z: -0.2561100423336029
visibility: 0.9934218525886536
","x: 282.54742431640625
y: 223.56045532226562
z: -0.25477635860443115
visibility: 0.9601110219955444
","x: 164.6796417236328
y: 228.5557861328125
z: -0.22334623336791992
visibility: 0.9896172285079956
","x: 242.7815704345703
y: 389.82952880859375
z: -0.006960137281566858
visibility: 0.9998235702514648
","x: 219.8968505859375
y: 389.447265625
z: 0.007041793316602707
visibility: 0.9998286366462708
","x: 241.21490478515625
y: 464.0845947265625
z: -0.0934213176369667
visibility: 0.9887501001358032
","x: 203.01876831054688
y: 456.90728759765625
z: -0.13946452736854553
visibility: 0.9962010383605957
","x: 240.53750610351562
y: 535.9453125
z: 0.05117151886224747
visibility: 0.9933725595474243
","x: 204.79879760742188
y: 523.8262329101562
z: 0.0313422866165638
visibility: 0.9956369400024414
","x: 239.07992553710938
y: 546.744384765625
z: 0.0580204539000988
visibility: 0.9722163677215576
","x: 211.04136657714844
y: 534.8430786132812
z: 0.041505955159664154
visibility: 0.9342801570892334
","x: 241.64840698242188
y: 558.9486083984375
z: -0.068498894572258
visibility: 0.9918872117996216
","x: 194.81491088867188
y: 554.1686401367188
z: -0.07107527554035187
visibility: 0.9916207194328308
",,,,,,,,,,,,,,,,,,,,,,,,,,,,,,,,,,,,,,,,,,
2,"x: 216.6863555908203
y: 236.06590270996094
z: -0.2881908118724823
visibility: 0.9999747276306152
","x: 219.84112548828125
y: 231.34909057617188
z: -0.2734713852405548
visibility: 0.99993497133255
","x: 221.51104736328125
y: 232.13497924804688
z: -0.27350130677223206
visibility: 0.9999127388000488
","x: 223.078125
y: 233.02401733398438
z: -0.2735263705253601
visibility: 0.9999105334281921
","x: 215.6799774169922
y: 231.18109130859375
z: -0.2688058614730835
visibility: 0.9999555945396423
","x: 214.48361206054688
y: 231.71807861328125
z: -0.2688278555870056
visibility: 0.9999535083770752
","x: 213.39381408691406
y: 232.222900390625
z: -0.2688158452510834
visibility: 0.9999575018882751
","x: 226.890380859375
y: 239.65829467773438
z: -0.17455144226551056
visibility: 0.9997255802154541
","x: 213.29302978515625
y: 238.922607421875
z: -0.15575048327445984
visibility: 0.999937891960144
","x: 220.14573669433594
y: 245.85415649414062
z: -0.25208359956741333
visibility: 0.9999398589134216
","x: 214.54013061523438
y: 245.5403289794922
z: -0.24632009863853455
visibility: 0.9999751448631287
","x: 240.27207946777344
y: 279.5200500488281
z: -0.11491155624389648
visibility: 0.9997327923774719
","x: 199.94375610351562
y: 278.1221618652344
z: -0.07652415335178375
visibility: 0.9999231696128845
","x: 267.7586364746094
y: 294.8340148925781
z: -0.17708353698253632
visibility: 0.9918819665908813
","x: 175.03469848632812
y: 296.7133483886719
z: -0.10436298698186874
visibility: 0.9988598823547363
","x: 273.73358154296875
y: 322.7220458984375
z: -0.3428512513637543
visibility: 0.9907904267311096
","x: 162.2963409423828
y: 328.44647216796875
z: -0.25449320673942566
visibility: 0.9970803260803223
","x: 275.7594299316406
y: 339.9070739746094
z: -0.3791313171386719
visibility: 0.9649162292480469
","x: 157.8448028564453
y: 341.53948974609375
z: -0.2875548005104065
visibility: 0.9897298812866211
","x: 271.43310546875
y: 339.85052490234375
z: -0.40237775444984436
visibility: 0.965553879737854
","x: 162.2725067138672
y: 345.3881530761719
z: -0.3098457455635071
visibility: 0.9896053671836853
","x: 269.6337585449219
y: 336.1967468261719
z: -0.35539939999580383
visibility: 0.9570260047912598
","x: 164.49200439453125
y: 342.4345703125
z: -0.2677314579486847
visibility: 0.9854977130889893
","x: 230.69615173339844
y: 385.99237060546875
z: -0.0007697729743085802
visibility: 0.9998277425765991
","x: 209.04132080078125
y: 385.2354736328125
z: 0.0007093109888955951
visibility: 0.9998266100883484
","x: 234.688232421875
y: 464.2884521484375
z: -0.020326903089880943
visibility: 0.9892131090164185
","x: 193.69944763183594
y: 459.6146240234375
z: -0.09357685595750809
visibility: 0.9963500499725342
","x: 237.98272705078125
y: 536.6524047851562
z: 0.1211342066526413
visibility: 0.9936469793319702
","x: 180.8119659423828
y: 525.7701416015625
z: 0.07776743918657303
visibility: 0.9958416223526001
","x: 235.55392456054688
y: 547.68310546875
z: 0.12773020565509796
visibility: 0.9665663838386536
","x: 182.25811767578125
y: 535.2664794921875
z: 0.08494436740875244
visibility: 0.9327226281166077
","x: 243.32391357421875
y: 560.4228515625
z: 0.0035629435442388058
visibility: 0.9918719530105591
","x: 176.0402069091797
y: 556.9828491210938
z: -0.0367136225104332
visibility: 0.9920417666435242
",,,,,,,,,,,,,,,,,,,,,,,,,,,,,,,,,,,,,,,,,,
3,"x: 206.5606689453125
y: 241.66184997558594
z: -0.3607321083545685
visibility: 0.9999768137931824
","x: 208.93331909179688
y: 236.53302001953125
z: -0.3454743027687073
visibility: 0.9999397993087769
","x: 210.47122192382812
y: 237.04885864257812
z: -0.34546008706092834
visibility: 0.9999199509620667
","x: 211.95423889160156
y: 237.6311492919922
z: -0.34545761346817017
visibility: 0.9999178647994995
","x: 204.95530700683594
y: 236.28451538085938
z: -0.3431473672389984
visibility: 0.999958336353302
","x: 203.71307373046875
y: 236.5721435546875
z: -0.3431919515132904
visibility: 0.9999565482139587
","x: 202.67611694335938
y: 236.85011291503906
z: -0.3431888818740845
visibility: 0.9999600052833557
","x: 214.79177856445312
y: 243.14578247070312
z: -0.240141361951828
visibility: 0.9997490048408508
","x: 202.29339599609375
y: 242.7181854248047
z: -0.23004591464996338
visibility: 0.9999396204948425
","x: 209.43885803222656
y: 250.5215301513672
z: -0.32120591402053833
visibility: 0.9999450445175171
","x: 203.93643188476562
y: 250.24981689453125
z: -0.3187505304813385
visibility: 0.9999768137931824
","x: 229.06805419921875
y: 280.4078369140625
z: -0.15992173552513123
visibility: 0.9997581243515015
","x: 189.6045684814453
y: 284.474609375
z: -0.11232433468103409
visibility: 0.9999290704727173
","x: 240.19422912597656
y: 339.4308166503906
z: -0.12506629526615143
visibility: 0.9922884702682495
","x: 177.83497619628906
y: 336.383544921875
z: -0.09266349673271179
visibility: 0.9981040358543396
","x: 237.0604248046875
y: 389.6590881347656
z: -0.24592360854148865
visibility: 0.9904993772506714
","x: 173.2532196044922
y: 386.87109375
z: -0.1805766522884369
visibility: 0.9951890707015991
","x: 238.39749145507812
y: 403.83984375
z: -0.2710556387901306
visibility: 0.9648839831352234
","x: 171.35496520996094
y: 402.1018981933594
z: -0.21105727553367615
visibility: 0.9855273962020874
","x: 234.63795471191406
y: 402.47967529296875
z: -0.2831870913505554
visibility: 0.9656873345375061
","x: 174.39306640625
y: 402.1588134765625
z: -0.2414884865283966
visibility: 0.985741913318634
","x: 233.38909912109375
y: 398.1515197753906
z: -0.24829038977622986
visibility: 0.9567225575447083
","x: 176.1562042236328
y: 398.1954650878906
z: -0.1948099136352539
visibility: 0.9808351993560791
","x: 220.88162231445312
y: 387.115478515625
z: 8.032814548641909e-06
visibility: 0.9998356699943542
","x: 197.62069702148438
y: 389.134765625
z: -0.00013870358816348016
visibility: 0.9998387098312378
","x: 227.02903747558594
y: 467.855712890625
z: 0.0033830986358225346
visibility: 0.989982008934021
","x: 189.04074096679688
y: 462.4657897949219
z: -0.0406465157866478
visibility: 0.9965253472328186
","x: 235.81375122070312
y: 536.8882446289062
z: 0.19508743286132812
visibility: 0.9939978122711182
","x: 179.82069396972656
y: 533.3953857421875
z: 0.10832532495260239
visibility: 0.9960328340530396
","x: 233.92166137695312
y: 547.406982421875
z: 0.20500321686267853
visibility: 0.9622315764427185
","x: 181.60409545898438
y: 543.09521484375
z: 0.11068721115589142
visibility: 0.9307130575180054
","x: 240.2285614013672
y: 562.115966796875
z: 0.06315676867961884
visibility: 0.9921107888221741
","x: 176.35231018066406
y: 561.660400390625
z: -0.006493025459349155
visibility: 0.9923745393753052
",,,,,,,,,,,,,,,,,,,,,,,,,,,,,,,,,,,,,,,,,,
4,"x: 199.3341827392578
y: 241.46426391601562
z: -0.3151217997074127
visibility: 0.9999785423278809
","x: 201.99546813964844
y: 236.99777221679688
z: -0.30013778805732727
visibility: 0.999943196773529
","x: 203.55262756347656
y: 237.6976776123047
z: -0.3001297116279602
visibility: 0.9999250173568726
","x: 204.93214416503906
y: 238.40980529785156
z: -0.30010783672332764
visibility: 0.9999222159385681
","x: 197.4480438232422
y: 236.2459716796875
z: -0.29605838656425476
visibility: 0.9999610185623169
","x: 195.9327392578125
y: 236.4919891357422
z: -0.29609084129333496
visibility: 0.9999591112136841
","x: 194.52801513671875
y: 236.7796630859375
z: -0.29610466957092285
visibility: 0.999962329864502
","x: 207.43008422851562
y: 244.3096923828125
z: -0.20364005863666534
visibility: 0.9997648000717163
","x: 193.0467987060547
y: 243.1074676513672
z: -0.2028695046901703
visibility: 0.9999409317970276
","x: 202.51513671875
y: 251.06423950195312
z: -0.2785714566707611
visibility: 0.9999475479125977
","x: 196.00881958007812
y: 250.2978515625
z: -0.27337053418159485
visibility: 0.9999776482582092
","x: 218.65496826171875
y: 283.90545654296875
z: -0.17679201066493988
visibility: 0.9997618198394775
","x: 182.39321899414062
y: 287.525146484375
z: -0.07943237572908401
visibility: 0.9999344944953918
","x: 202.89329528808594
y: 336.12713623046875
z: -0.24251334369182587
visibility: 0.9909579157829285
","x: 177.43307495117188
y: 345.91168212890625
z: -0.03464316204190254
visibility: 0.9932699203491211
","x: 178.4153594970703
y: 328.29473876953125
z: -0.3799581527709961
visibility: 0.988227128982544
","x: 180.8639373779297
y: 391.6984558105469
z: -0.11662083864212036
visibility: 0.982386589050293
","x: 171.97080993652344
y: 329.24639892578125
z: -0.42318081855773926
visibility: 0.9625658392906189
","x: 180.1349639892578
y: 405.5758056640625
z: -0.14272956550121307
visibility: 0.9646164178848267
","x: 173.12057495117188
y: 333.49176025390625
z: -0.42648404836654663
visibility: 0.9633835554122925
","x: 182.8684539794922
y: 405.0723571777344
z: -0.16602559387683868
visibility: 0.9656844735145569
","x: 175.53994750976562
y: 334.36090087890625
z: -0.38422891497612
visibility: 0.9512283802032471
","x: 183.88710021972656
y: 401.07952880859375
z: -0.12767082452774048
visibility: 0.9588973522186279
","x: 216.4593048095703
y: 388.44287109375
z: -0.024810701608657837
visibility: 0.99983811378479
","x: 194.17538452148438
y: 390.2535705566406
z: 0.024606188759207726
visibility: 0.9998535513877869
","x: 217.35939025878906
y: 468.65093994140625
z: 0.0062693641521036625
visibility: 0.9907448291778564
","x: 186.24008178710938
y: 463.3236999511719
z: -0.04081413522362709
visibility: 0.9966239929199219
","x: 234.05484008789062
y: 514.78271484375
z: 0.29025089740753174
visibility: 0.9931997060775757
","x: 180.8644561767578
y: 537.18896484375
z: 0.06875554472208023
visibility: 0.9961607456207275
","x: 235.98744201660156
y: 514.2808837890625
z: 0.31548041105270386
visibility: 0.9387465715408325
","x: 182.61488342285156
y: 546.3330688476562
z: 0.07228802144527435
visibility: 0.9283044338226318
","x: 238.90621948242188
y: 547.4356689453125
z: 0.2355162650346756
visibility: 0.9911131262779236
","x: 176.5453338623047
y: 564.9915771484375
z: -0.04670284688472748
visibility: 0.9925587773323059
",,,,,,,,,,,,,,,,,,,,,,,,,,,,,,,,,,,,,,,,,,
5,"x: 198.16249084472656
y: 241.48324584960938
z: -0.11754492670297623
visibility: 0.9999802708625793
","x: 200.4228973388672
y: 236.06716918945312
z: -0.10348496586084366
visibility: 0.999947726726532
","x: 201.88824462890625
y: 236.50460815429688
z: -0.10349267721176147
visibility: 0.9999311566352844
","x: 203.30960083007812
y: 237.10366821289062
z: -0.1034698486328125
visibility: 0.9999287128448486
","x: 196.54525756835938
y: 235.7395782470703
z: -0.09895867854356766
visibility: 0.9999637007713318
","x: 195.33016967773438
y: 235.93153381347656
z: -0.09893160313367844
visibility: 0.9999616742134094
","x: 194.16371154785156
y: 236.21849060058594
z: -0.09895236790180206
visibility: 0.9999647736549377
","x: 205.78746032714844
y: 243.0564727783203
z: -0.018693571910262108
visibility: 0.9997849464416504
","x: 192.3817138671875
y: 241.44371032714844
z: 0.00014187039050739259
visibility: 0.9999451041221619
","x: 201.18545532226562
y: 249.87911987304688
z: -0.0855318158864975
visibility: 0.999951183795929
","x: 195.99822998046875
y: 249.36769104003906
z: -0.08037586510181427
visibility: 0.9999789595603943
","x: 216.58767700195312
y: 279.9813232421875
z: -0.01998332515358925
visibility: 0.9997779130935669
","x: 180.07830810546875
y: 283.09716796875
z: 0.05598125606775284
visibility: 0.9999385476112366
","x: 205.70144653320312
y: 320.79620361328125
z: -0.16083601117134094
visibility: 0.9894158840179443
","x: 174.36044311523438
y: 336.57550048828125
z: 0.014135901816189289
visibility: 0.9884905219078064
","x: 201.7395782470703
y: 275.66461181640625
z: -0.351222425699234
visibility: 0.9887025356292725
","x: 181.9134063720703
y: 352.67095947265625
z: -0.11067163944244385
visibility: 0.9795675277709961
","x: 200.50730895996094
y: 262.93536376953125
z: -0.39501824975013733
visibility: 0.9652395248413086
","x: 183.65313720703125
y: 361.997314453125
z: -0.13968662917613983
visibility: 0.9600161910057068
","x: 202.12168884277344
y: 260.2251281738281
z: -0.39640748500823975
visibility: 0.9659386277198792
","x: 185.97232055664062
y: 358.68017578125
z: -0.1493876576423645
visibility: 0.9610684514045715
","x: 202.67417907714844
y: 264.0729064941406
z: -0.35715451836586
visibility: 0.9541743993759155
","x: 185.9853057861328
y: 355.8782653808594
z: -0.11779160797595978
visibility: 0.9533087015151978
","x: 215.6476593017578
y: 385.2764892578125
z: -0.017981700599193573
visibility: 0.9998512268066406
","x: 192.6584014892578
y: 387.9232482910156
z: 0.017823392525315285
visibility: 0.9998661279678345
","x: 222.65965270996094
y: 467.208251953125
z: -0.024577902629971504
visibility: 0.9915711283683777
","x: 185.338134765625
y: 464.3984375
z: -0.011316655203700066
visibility: 0.9968870878219604
","x: 234.9834442138672
y: 516.4099731445312
z: 0.12234543263912201
visibility: 0.9937655925750732
","x: 180.82867431640625
y: 537.223388671875
z: 0.09041855484247208
visibility: 0.9964708089828491
","x: 235.2891082763672
y: 516.361328125
z: 0.1309700608253479
visibility: 0.9385157227516174
","x: 184.0443115234375
y: 547.0521240234375
z: 0.08099281042814255
visibility: 0.9327630400657654
","x: 237.99485778808594
y: 557.4413452148438
z: 0.013347379863262177
visibility: 0.9917833805084229
","x: 175.31430053710938
y: 564.6636352539062
z: -0.006755721755325794
visibility: 0.9931191802024841
",,,,,,,,,,,,,,,,,,,,,,,,,,,,,,,,,,,,,,,,,,
6,"x: 199.31423950195312
y: 239.3672332763672
z: -0.15511561930179596
visibility: 0.9999816417694092
","x: 201.5823211669922
y: 234.7957000732422
z: -0.13741591572761536
visibility: 0.9999517202377319
","x: 202.92141723632812
y: 235.34463500976562
z: -0.13744118809700012
visibility: 0.9999366998672485
","x: 204.34954833984375
y: 235.96322631835938
z: -0.13743114471435547
visibility: 0.9999345541000366
","x: 197.6317138671875
y: 234.28988647460938
z: -0.13535095751285553
visibility: 0.9999657869338989
","x: 196.198974609375
y: 234.5524444580078
z: -0.13534167408943176
visibility: 0.999963641166687
","x: 194.78314208984375
y: 234.87966918945312
z: -0.13535413146018982
visibility: 0.9999664425849915
","x: 206.82945251464844
y: 242.08848571777344
z: -0.03831189498305321
visibility: 0.9998041391372681
","x: 192.27272033691406
y: 241.03158569335938
z: -0.029694760218262672
visibility: 0.9999473094940186
","x: 202.15939331054688
y: 248.09869384765625
z: -0.1187574490904808
visibility: 0.9999551773071289
","x: 196.5048065185547
y: 247.567138671875
z: -0.11681945621967316
visibility: 0.9999799728393555
","x: 217.68931579589844
y: 280.83856201171875
z: -0.022160857915878296
visibility: 0.9997954964637756
","x: 180.99502563476562
y: 284.3701477050781
z: 0.038388270884752274
visibility: 0.9999321103096008
","x: 221.81698608398438
y: 333.784423828125
z: -0.1560298353433609
visibility: 0.9888389110565186
","x: 178.66009521484375
y: 333.63897705078125
z: -0.025473136454820633
visibility: 0.9674595594406128
","x: 208.61679077148438
y: 287.1478271484375
z: -0.3618690073490143
visibility: 0.9888395071029663
","x: 181.45216369628906
y: 342.74359130859375
z: -0.20704464614391327
visibility: 0.9692063927650452
","x: 206.21414184570312
y: 271.4654846191406
z: -0.4065398573875427
visibility: 0.9669707417488098
","x: 182.9371795654297
y: 349.9618835449219
z: -0.24284546077251434
visibility: 0.947772741317749
","x: 206.96739196777344
y: 270.85052490234375
z: -0.4044731557369232
visibility: 0.9675778150558472
","x: 184.19747924804688
y: 347.4129943847656
z: -0.25240427255630493
visibility: 0.9491757154464722
","x: 207.06719970703125
y: 272.1773986816406
z: -0.3655434250831604
visibility: 0.9556635022163391
","x: 184.30880737304688
y: 344.37213134765625
z: -0.21564443409442902
visibility: 0.9396601319313049
","x: 216.58184814453125
y: 386.07342529296875
z: -0.01918908767402172
visibility: 0.9998583793640137
","x: 194.3767547607422
y: 389.1246337890625
z: 0.01900523528456688
visibility: 0.9998704791069031
","x: 223.05459594726562
y: 468.8937072753906
z: -0.028084758669137955
visibility: 0.9922994375228882
","x: 186.63661193847656
y: 466.87640380859375
z: -0.009172545745968819
visibility: 0.9970508217811584
","x: 237.020751953125
y: 527.3296508789062
z: 0.145807683467865
visibility: 0.9942499399185181
","x: 180.51072692871094
y: 538.5843505859375
z: 0.1698184311389923
visibility: 0.9966849684715271
","x: 237.9326629638672
y: 528.188720703125
z: 0.1560574173927307
visibility: 0.9353058338165283
","x: 183.45040893554688
y: 548.1622924804688
z: 0.18073958158493042
visibility: 0.9353466033935547
","x: 238.5322723388672
y: 563.665771484375
z: 0.031797394156455994
visibility: 0.9922792315483093
","x: 174.93820190429688
y: 564.7406005859375
z: 0.07208211719989777
visibility: 0.9934985637664795
",,,,,,,,,,,,,,,,,,,,,,,,,,,,,,,,,,,,,,,,,,
7,"x: 205.22035217285156
y: 245.82374572753906
z: -0.25132647156715393
visibility: 0.9999825358390808
","x: 207.466552734375
y: 240.999755859375
z: -0.2349483072757721
visibility: 0.9999547004699707
","x: 209.04727172851562
y: 241.64894104003906
z: -0.23498699069023132
visibility: 0.9999411106109619
","x: 210.6309356689453
y: 242.26585388183594
z: -0.2349698841571808
visibility: 0.9999392628669739
","x: 203.38389587402344
y: 240.37208557128906
z: -0.23141875863075256
visibility: 0.9999663233757019
","x: 202.02122497558594
y: 240.6930694580078
z: -0.23145413398742676
visibility: 0.9999638795852661
","x: 200.72189331054688
y: 241.09803771972656
z: -0.2314547747373581
visibility: 0.999966025352478
","x: 213.04054260253906
y: 247.49127197265625
z: -0.1330176740884781
visibility: 0.9998209476470947
","x: 198.83578491210938
y: 247.529052734375
z: -0.10514745861291885
visibility: 0.9999409914016724
","x: 208.1401824951172
y: 255.33694458007812
z: -0.21358585357666016
visibility: 0.9999586939811707
","x: 202.9241485595703
y: 254.7832489013672
z: -0.20887072384357452
visibility: 0.9999794363975525
","x: 226.17115783691406
y: 293.46630859375
z: -0.09134244173765182
visibility: 0.9998121857643127
","x: 186.35595703125
y: 293.857421875
z: -0.031081348657608032
visibility: 0.9999004602432251
","x: 235.0592041015625
y: 349.64434814453125
z: -0.15808621048927307
visibility: 0.9889163374900818
","x: 182.2554931640625
y: 347.0240478515625
z: -0.08615171909332275
visibility: 0.9492560029029846
","x: 225.60523986816406
y: 351.49114990234375
z: -0.34017878770828247
visibility: 0.9882972836494446
","x: 180.70936584472656
y: 352.9442138671875
z: -0.30435362458229065
visibility: 0.9607627987861633
","x: 222.59524536132812
y: 352.83514404296875
z: -0.3810909390449524
visibility: 0.9670416116714478
","x: 178.86448669433594
y: 355.3912353515625
z: -0.35049721598625183
visibility: 0.9394345283508301
","x: 221.94102478027344
y: 343.940185546875
z: -0.39255639910697937
visibility: 0.9676766395568848
","x: 178.5548553466797
y: 351.3926696777344
z: -0.3717584013938904
visibility: 0.9416005611419678
","x: 222.04220581054688
y: 342.7431640625
z: -0.3476100564002991
visibility: 0.955267608165741
","x: 179.683349609375
y: 349.6581726074219
z: -0.31984344124794006
visibility: 0.9309733510017395
","x: 220.0553741455078
y: 396.5665283203125
z: -0.014768269844353199
visibility: 0.999859094619751
","x: 196.0873260498047
y: 396.0203857421875
z: 0.014590198174118996
visibility: 0.9998613595962524
","x: 227.28713989257812
y: 474.12176513671875
z: -0.03836692124605179
visibility: 0.9929822683334351
","x: 184.9535369873047
y: 471.97698974609375
z: 0.012375017628073692
visibility: 0.9972302913665771
","x: 239.20321655273438
y: 534.884765625
z: 0.15057304501533508
visibility: 0.9947072863578796
","x: 180.34091186523438
y: 538.1395874023438
z: 0.2344333678483963
visibility: 0.996863067150116
","x: 239.91485595703125
y: 539.9646606445312
z: 0.16171756386756897
visibility: 0.9346312284469604
","x: 183.8787078857422
y: 547.3662109375
z: 0.25016164779663086
visibility: 0.9380666017532349
","x: 239.08734130859375
y: 565.5291137695312
z: 0.03453852981328964
visibility: 0.9927651882171631
","x: 174.83790588378906
y: 564.046875
z: 0.14606177806854248
visibility: 0.9938308000564575
",,,,,,,,,,,,,,,,,,,,,,,,,,,,,,,,,,,,,,,,,,
8,"x: 210.96046447753906
y: 236.20306396484375
z: -0.20834951102733612
visibility: 0.9999839663505554
","x: 212.1731414794922
y: 230.49465942382812
z: -0.1884451061487198
visibility: 0.9999588131904602
","x: 213.34658813476562
y: 230.7217254638672
z: -0.1884467601776123
visibility: 0.9999465346336365
","x: 214.46826171875
y: 231.035888671875
z: -0.1884378045797348
visibility: 0.9999448657035828
","x: 208.46961975097656
y: 230.7777557373047
z: -0.19672711193561554
visibility: 0.9999690055847168
","x: 207.01870727539062
y: 231.2399444580078
z: -0.19673456251621246
visibility: 0.9999667406082153
","x: 205.59759521484375
y: 231.7678680419922
z: -0.19675539433956146
visibility: 0.9999687075614929
","x: 215.11508178710938
y: 236.17861938476562
z: -0.07007819414138794
visibility: 0.9998382329940796
","x: 202.37338256835938
y: 237.0723114013672
z: -0.10307331383228302
visibility: 0.999946117401123
","x: 213.2393341064453
y: 245.02032470703125
z: -0.1628771722316742
visibility: 0.9999625086784363
","x: 208.2560577392578
y: 245.54205322265625
z: -0.17389526963233948
visibility: 0.9999809861183167
","x: 226.50779724121094
y: 284.84503173828125
z: 0.006866103503853083
visibility: 0.9998296499252319
","x: 189.17665100097656
y: 277.0193786621094
z: -0.06018822640180588
visibility: 0.9999017715454102
","x: 239.01113891601562
y: 338.73699951171875
z: -0.08425584435462952
visibility: 0.9879966974258423
","x: 189.42340087890625
y: 333.0299072265625
z: -0.22911396622657776
visibility: 0.9527719020843506
","x: 246.63966369628906
y: 302.249267578125
z: -0.28871363401412964
visibility: 0.9887822270393372
","x: 212.29159545898438
y: 286.83258056640625
z: -0.4248586595058441
visibility: 0.9638184309005737
","x: 250.21084594726562
y: 289.1632385253906
z: -0.320394903421402
visibility: 0.9685512781143188
","x: 216.85023498535156
y: 276.7388610839844
z: -0.46761542558670044
visibility: 0.9430907368659973
","x: 250.47689819335938
y: 283.24237060546875
z: -0.3164641261100769
visibility: 0.9690997004508972
","x: 216.39254760742188
y: 271.1065673828125
z: -0.45449477434158325
visibility: 0.9447003602981567
","x: 248.82925415039062
y: 286.5493469238281
z: -0.29230034351348877
visibility: 0.9568711519241333
","x: 215.08242797851562
y: 274.3466796875
z: -0.42347007989883423
visibility: 0.9334529042243958
","x: 221.57933044433594
y: 387.3371887207031
z: -0.008832654915750027
visibility: 0.9998672008514404
","x: 198.3362579345703
y: 386.5548095703125
z: 0.00886209961026907
visibility: 0.9998644590377808
","x: 232.14971923828125
y: 467.4720764160156
z: -0.017478715628385544
visibility: 0.9936119914054871
","x: 182.2390594482422
y: 463.40167236328125
z: -0.025118812918663025
visibility: 0.9974310994148254
","x: 241.21591186523438
y: 534.0557250976562
z: 0.15586324036121368
visibility: 0.9951522946357727
","x: 169.23367309570312
y: 530.47265625
z: 0.17460866272449493
visibility: 0.9970113635063171
","x: 244.82437133789062
y: 540.357177734375
z: 0.16659390926361084
visibility: 0.9339633584022522
","x: 170.3968963623047
y: 539.4340209960938
z: 0.1857704520225525
visibility: 0.9373880624771118
","x: 245.58477783203125
y: 564.727294921875
z: 0.044419065117836
visibility: 0.9932342171669006
","x: 166.50758361816406
y: 561.3819580078125
z: 0.07903962582349777
visibility: 0.9940933585166931
",,,,,,,,,,,,,,,,,,,,,,,,,,,,,,,,,,,,,,,,,,
9,"x: 212.6549835205078
y: 240.8333740234375
z: -0.17164234817028046
visibility: 0.9999836087226868
","x: 212.8461456298828
y: 232.85678100585938
z: -0.14999303221702576
visibility: 0.9999609589576721
","x: 213.618896484375
y: 232.6962890625
z: -0.14997906982898712
visibility: 0.9999491572380066
","x: 214.3607940673828
y: 232.70204162597656
z: -0.14996257424354553
visibility: 0.9999479651451111
","x: 209.81117248535156
y: 233.77877807617188
z: -0.1639985740184784
visibility: 0.999969482421875
","x: 208.50692749023438
y: 234.15902709960938
z: -0.1639859825372696
visibility: 0.9999675750732422
","x: 207.11659240722656
y: 234.4020233154297
z: -0.16401506960391998
visibility: 0.9999695420265198
","x: 213.046142578125
y: 239.5087890625
z: -0.03650875389575958
visibility: 0.9998499751091003
","x: 203.3546905517578
y: 238.9415283203125
z: -0.09605675935745239
visibility: 0.9999499320983887
","x: 214.2362823486328
y: 249.4174041748047
z: -0.12855032086372375
visibility: 0.9999644756317139
","x: 210.00100708007812
y: 250.0599822998047
z: -0.14683914184570312
visibility: 0.9999804496765137
","x: 226.4867706298828
y: 291.8655090332031
z: 0.034364692866802216
visibility: 0.9998142719268799
","x: 191.9673614501953
y: 278.40704345703125
z: -0.14206233620643616
visibility: 0.999886155128479
","x: 246.4831085205078
y: 314.5852966308594
z: -0.09179419279098511
visibility: 0.983293354511261
","x: 211.07876586914062
y: 279.26019287109375
z: -0.32546061277389526
visibility: 0.957291305065155
","x: 251.17434692382812
y: 264.43023681640625
z: -0.28687164187431335
visibility: 0.9827080368995667
","x: 239.03887939453125
y: 248.01605224609375
z: -0.3923422396183014
visibility: 0.9666603207588196
","x: 252.69064331054688
y: 250.81356811523438
z: -0.31790024042129517
visibility: 0.9575700759887695
","x: 246.60552978515625
y: 238.31387329101562
z: -0.431849867105484
visibility: 0.9456884860992432
","x: 251.61558532714844
y: 247.28424072265625
z: -0.30829477310180664
visibility: 0.9576824903488159
","x: 246.2550811767578
y: 236.04623413085938
z: -0.41212230920791626
visibility: 0.9465734958648682
","x: 250.42654418945312
y: 251.597900390625
z: -0.2920530438423157
visibility: 0.9442144632339478
","x: 244.3275604248047
y: 240.3080596923828
z: -0.386819988489151
visibility: 0.9341921210289001
","x: 221.9517059326172
y: 393.4681701660156
z: 0.024053046479821205
visibility: 0.9998776316642761
","x: 199.33786010742188
y: 390.9876708984375
z: -0.0241868756711483
visibility: 0.999873161315918
","x: 231.3749542236328
y: 473.9064025878906
z: 0.02127784863114357
visibility: 0.9941500425338745
","x: 184.43553161621094
y: 469.9778747558594
z: -0.019321171566843987
visibility: 0.9976257681846619
","x: 242.1461181640625
y: 535.1055297851562
z: 0.1924811154603958
visibility: 0.9954937696456909
","x: 164.02110290527344
y: 530.8917846679688
z: 0.18438124656677246
visibility: 0.9971213936805725
","x: 248.97508239746094
y: 542.03564453125
z: 0.20457372069358826
visibility: 0.9348335266113281
","x: 161.1756591796875
y: 539.8685302734375
z: 0.20004335045814514
visibility: 0.932816743850708
","x: 247.97525024414062
y: 564.51611328125
z: 0.08901282399892807
visibility: 0.9934933185577393
","x: 164.16262817382812
y: 561.3314208984375
z: 0.09153775870800018
visibility: 0.9941646456718445
",,,,,,,,,,,,,,,,,,,,,,,,,,,,,,,,,,,,,,,,,,
10,"x: 213.3819122314453
y: 236.50633239746094
z: -0.1733494997024536
visibility: 0.9999838471412659
","x: 213.95155334472656
y: 229.12139892578125
z: -0.16893020272254944
visibility: 0.9999637603759766
","x: 214.84837341308594
y: 229.14999389648438
z: -0.16895802319049835
visibility: 0.9999526739120483
","x: 215.7294464111328
y: 229.26547241210938
z: -0.16895630955696106
visibility: 0.9999516010284424
","x: 210.83888244628906
y: 229.47486877441406
z: -0.17456726729869843
visibility: 0.9999709129333496
","x: 209.56459045410156
y: 229.746826171875
z: -0.17448309063911438
visibility: 0.9999691843986511
","x: 208.21229553222656
y: 229.9796142578125
z: -0.17444314062595367
visibility: 0.9999709725379944
","x: 215.4587860107422
y: 234.25840759277344
z: -0.062002766877412796
visibility: 0.9998624324798584
","x: 204.84707641601562
y: 233.914306640625
z: -0.10985906422138214
visibility: 0.9999540448188782
","x: 215.2899169921875
y: 244.19151306152344
z: -0.14957474172115326
visibility: 0.9999663233757019
","x: 211.04969787597656
y: 244.4993438720703
z: -0.15446323156356812
visibility: 0.999980628490448
","x: 227.47634887695312
y: 274.98785400390625
z: 0.006567790172994137
visibility: 0.9998075366020203
","x: 193.09906005859375
y: 266.6676025390625
z: -0.1530918926000595
visibility: 0.999870777130127
","x: 249.79437255859375
y: 275.1026611328125
z: -0.14757034182548523
visibility: 0.982945442199707
","x: 202.4978485107422
y: 247.79605102539062
z: -0.334320992231369
visibility: 0.9614385962486267
","x: 252.0455322265625
y: 230.07859802246094
z: -0.3492000997066498
visibility: 0.9824746251106262
","x: 221.8983154296875
y: 202.13743591308594
z: -0.41096359491348267
visibility: 0.9697537422180176
","x: 255.02334594726562
y: 216.8107452392578
z: -0.38713952898979187
visibility: 0.9564471244812012
","x: 227.43820190429688
y: 188.66595458984375
z: -0.45048952102661133
visibility: 0.9499714970588684
","x: 253.1215057373047
y: 215.28216552734375
z: -0.37936481833457947
visibility: 0.9564458131790161
","x: 227.97251892089844
y: 186.00973510742188
z: -0.4326779842376709
visibility: 0.9505637288093567
","x: 251.27684020996094
y: 220.3221435546875
z: -0.3541173040866852
visibility: 0.9430322051048279
","x: 226.49472045898438
y: 191.7816925048828
z: -0.4067418575286865
visibility: 0.9385401010513306
","x: 221.43992614746094
y: 378.4654541015625
z: 0.026528406888246536
visibility: 0.9998868703842163
","x: 199.55328369140625
y: 376.1373291015625
z: -0.026666317135095596
visibility: 0.9998815655708313
","x: 228.0182342529297
y: 459.5998840332031
z: 0.02629377320408821
visibility: 0.9942952990531921
","x: 188.09817504882812
y: 460.4365234375
z: -0.023806042969226837
visibility: 0.9976219534873962
","x: 241.050048828125
y: 532.9340209960938
z: 0.14453436434268951
visibility: 0.9956851601600647
","x: 172.67816162109375
y: 529.99462890625
z: 0.10544557869434357
visibility: 0.9971769452095032
","x: 241.0037841796875
y: 541.9410400390625
z: 0.1485476940870285
visibility: 0.9360807538032532
","x: 173.06854248046875
y: 539.1834106445312
z: 0.11117680370807648
visibility: 0.9298524856567383
","x: 244.74972534179688
y: 562.1559448242188
z: 0.025161808356642723
visibility: 0.9935372471809387
","x: 168.43336486816406
y: 558.56591796875
z: -0.013861402869224548
visibility: 0.9942150712013245
",,,,,,,,,,,,,,,,,,,,,,,,,,,,,,,,,,,,,,,,,,
11,"x: 213.4889373779297
y: 231.49842834472656
z: -0.13493269681930542
visibility: 0.9999698996543884
","x: 214.4793701171875
y: 227.211669921875
z: -0.10886796563863754
visibility: 0.9999487996101379
","x: 215.51980590820312
y: 227.56753540039062
z: -0.10883547365665436
visibility: 0.9999296069145203
","x: 216.5282440185547
y: 227.98837280273438
z: -0.10882045328617096
visibility: 0.999932050704956
","x: 211.14596557617188
y: 226.8431854248047
z: -0.11500108242034912
visibility: 0.9999489784240723
","x: 209.85423278808594
y: 226.9764862060547
z: -0.11498131603002548
visibility: 0.999944806098938
","x: 208.54074096679688
y: 227.07882690429688
z: -0.11500023305416107
visibility: 0.9999527931213379
","x: 216.39617919921875
y: 234.2758026123047
z: 0.008982302621006966
visibility: 0.9998486042022705
","x: 205.74014282226562
y: 232.62149047851562
z: -0.017501655966043472
visibility: 0.9999443292617798
","x: 215.61685180664062
y: 240.25357055664062
z: -0.09430388361215591
visibility: 0.9999529719352722
","x: 211.23260498046875
y: 240.00579833984375
z: -0.1019069105386734
visibility: 0.9999645948410034
","x: 227.34072875976562
y: 270.88623046875
z: 0.035937078297138214
visibility: 0.9997132420539856
","x: 193.6082000732422
y: 266.13995361328125
z: -0.06491194665431976
visibility: 0.9997173547744751
","x: 249.1738739013672
y: 250.7392578125
z: -0.1448475420475006
visibility: 0.9831381440162659
","x: 199.4040985107422
y: 225.7103729248047
z: -0.250302791595459
visibility: 0.9649896621704102
","x: 246.4130401611328
y: 205.8299102783203
z: -0.26639002561569214
visibility: 0.980952799320221
","x: 214.9129180908203
y: 185.462158203125
z: -0.3645239472389221
visibility: 0.9719323515892029
","x: 247.657470703125
y: 193.059326171875
z: -0.30268359184265137
visibility: 0.9517322778701782
","x: 218.5540313720703
y: 168.76417541503906
z: -0.39305949211120605
visibility: 0.9516035914421082
","x: 245.22845458984375
y: 191.7794189453125
z: -0.2840101420879364
visibility: 0.9507570862770081
","x: 219.36451721191406
y: 168.239501953125
z: -0.38520920276641846
visibility: 0.9515843391418457
","x: 243.47222900390625
y: 196.13511657714844
z: -0.26608386635780334
visibility: 0.9375796318054199
","x: 218.8294219970703
y: 174.1438446044922
z: -0.39100998640060425
visibility: 0.9398608207702637
","x: 221.02183532714844
y: 378.7803955078125
z: 0.026277676224708557
visibility: 0.9998897910118103
","x: 199.27655029296875
y: 378.0511779785156
z: -0.02646152675151825
visibility: 0.9998818635940552
","x: 220.77392578125
y: 458.8111572265625
z: -0.011426083743572235
visibility: 0.9942107796669006
","x: 190.00946044921875
y: 462.1781921386719
z: -0.04375087097287178
visibility: 0.9971857070922852
","x: 220.49545288085938
y: 533.87060546875
z: 0.14908353984355927
visibility: 0.9952341318130493
","x: 200.07896423339844
y: 530.4969482421875
z: 0.1350289285182953
visibility: 0.9962068796157837
","x: 219.5247344970703
y: 542.3653564453125
z: 0.15415522456169128
visibility: 0.9254454970359802
","x: 202.31114196777344
y: 539.4954833984375
z: 0.14801564812660217
visibility: 0.9174062609672546
","x: 221.20448303222656
y: 563.7151489257812
z: 0.04262947663664818
visibility: 0.9926792979240417
","x: 201.64224243164062
y: 560.901123046875
z: 0.006474897265434265
visibility: 0.992952823638916
",,,,,,,,,,,,,,,,,,,,,,,,,,,,,,,,,,,,,,,,,,
12,"x: 213.44113159179688
y: 229.57833862304688
z: -0.14339913427829742
visibility: 0.9998610019683838
","x: 214.80140686035156
y: 225.63294982910156
z: -0.11868911981582642
visibility: 0.9998348355293274
","x: 215.9063720703125
y: 226.1624755859375
z: -0.11867491155862808
visibility: 0.9997895956039429
","x: 216.9783477783203
y: 226.6312255859375
z: -0.11864900588989258
visibility: 0.9998013377189636
","x: 211.31520080566406
y: 224.65066528320312
z: -0.12270752340555191
visibility: 0.9997851252555847
","x: 209.98516845703125
y: 224.61122131347656
z: -0.12269452959299088
visibility: 0.999762237071991
","x: 208.63682556152344
y: 224.48988342285156
z: -0.1227300763130188
visibility: 0.9997796416282654
","x: 216.970947265625
y: 232.22738647460938
z: -0.008068675175309181
visibility: 0.9997471570968628
","x: 206.22943115234375
y: 230.1641845703125
z: -0.023957327008247375
visibility: 0.9998241066932678
","x: 215.50457763671875
y: 238.25852966308594
z: -0.1038186326622963
visibility: 0.9998460412025452
","x: 211.1572723388672
y: 237.87879943847656
z: -0.1086297407746315
visibility: 0.9998122453689575
","x: 227.30018615722656
y: 269.2313537597656
z: 0.023255040869116783
visibility: 0.9994072914123535
","x: 193.98138427734375
y: 266.23919677734375
z: -0.06336881220340729
visibility: 0.9993392825126648
","x: 239.6964569091797
y: 236.151611328125
z: -0.21792864799499512
visibility: 0.982471227645874
","x: 194.89833068847656
y: 227.57147216796875
z: -0.2869999408721924
visibility: 0.9676040410995483
","x: 221.48143005371094
y: 193.6773681640625
z: -0.35504382848739624
visibility: 0.9786921739578247
","x: 211.94728088378906
y: 191.35012817382812
z: -0.4026755392551422
visibility: 0.9720828533172607
","x: 219.88204956054688
y: 180.0476837158203
z: -0.3983653485774994
visibility: 0.9461489319801331
","x: 215.7201690673828
y: 178.3540496826172
z: -0.4454032778739929
visibility: 0.9490567445755005
","x: 218.516357421875
y: 181.58987426757812
z: -0.3795298933982849
visibility: 0.9444921612739563
","x: 215.8125457763672
y: 179.4261474609375
z: -0.4280460476875305
visibility: 0.948032557964325
","x: 218.50643920898438
y: 186.91006469726562
z: -0.3550240397453308
visibility: 0.9317250847816467
","x: 215.20767211914062
y: 185.23370361328125
z: -0.40362295508384705
visibility: 0.935981035232544
","x: 221.045654296875
y: 377.93463134765625
z: 0.025494154542684555
visibility: 0.9998880624771118
","x: 199.1852569580078
y: 376.52850341796875
z: -0.02568681165575981
visibility: 0.999877393245697
","x: 219.68905639648438
y: 460.3984375
z: -0.007551704999059439
visibility: 0.9937721490859985
","x: 196.35372924804688
y: 461.79510498046875
z: -0.014656643383204937
visibility: 0.9964452981948853
","x: 217.45822143554688
y: 535.91650390625
z: 0.15555636584758759
visibility: 0.9944469928741455
","x: 204.85556030273438
y: 533.2518310546875
z: 0.14642754197120667
visibility: 0.9947373867034912
","x: 216.3551025390625
y: 545.080078125
z: 0.1633748859167099
visibility: 0.9168869256973267
","x: 206.4622039794922
y: 542.5931396484375
z: 0.15435561537742615
visibility: 0.8992239832878113
","x: 220.4977569580078
y: 564.7816772460938
z: 0.03867170587182045
visibility: 0.9912518858909607
","x: 205.3255157470703
y: 562.6346435546875
z: 0.023503577336668968
visibility: 0.9909921288490295
",,,,,,,,,,,,,,,,,,,,,,,,,,,,,,,,,,,,,,,,,,
13,"x: 212.85992431640625
y: 235.307373046875
z: -0.16613373160362244
visibility: 0.9998658299446106
","x: 214.62612915039062
y: 229.0125274658203
z: -0.1429210901260376
visibility: 0.9998394846916199
","x: 215.88633728027344
y: 228.8144073486328
z: -0.14288663864135742
visibility: 0.9997926354408264
","x: 217.09849548339844
y: 228.61117553710938
z: -0.1428711861371994
visibility: 0.9998020529747009
","x: 210.6517791748047
y: 229.01815795898438
z: -0.14785008132457733
visibility: 0.9997950196266174
","x: 209.2240447998047
y: 229.03533935546875
z: -0.14786265790462494
visibility: 0.9997729659080505
","x: 207.754638671875
y: 229.09130859375
z: -0.147867351770401
visibility: 0.9997918009757996
","x: 217.33717346191406
y: 234.03594970703125
z: -0.025641214102506638
visibility: 0.9997613430023193
","x: 205.5768280029297
y: 231.64923095703125
z: -0.04616320878267288
visibility: 0.9998375773429871
","x: 214.77603149414062
y: 240.8617401123047
z: -0.12480027973651886
visibility: 0.9998515248298645
","x: 210.363037109375
y: 240.81504821777344
z: -0.1311880201101303
visibility: 0.9998239278793335
","x: 227.3202667236328
y: 267.2412109375
z: 0.0008082990534603596
visibility: 0.9994181394577026
","x: 193.62940979003906
y: 267.2970886230469
z: -0.060590960085392
visibility: 0.9993753433227539
","x: 237.60415649414062
y: 227.89166259765625
z: -0.19704878330230713
visibility: 0.9834696650505066
","x: 184.1658477783203
y: 226.13677978515625
z: -0.2886805534362793
visibility: 0.9706858992576599
","x: 216.18328857421875
y: 191.18980407714844
z: -0.3275168538093567
visibility: 0.9784409403800964
","x: 207.3785858154297
y: 189.3051300048828
z: -0.4137861132621765
visibility: 0.9742124080657959
","x: 213.60064697265625
y: 178.51731872558594
z: -0.3594072461128235
visibility: 0.94368976354599
","x: 215.32994079589844
y: 176.62240600585938
z: -0.4621671736240387
visibility: 0.9514402151107788
","x: 212.39247131347656
y: 179.7368621826172
z: -0.3597933053970337
visibility: 0.9411713480949402
","x: 215.40245056152344
y: 178.9097900390625
z: -0.4383980333805084
visibility: 0.9499590992927551
","x: 212.52227783203125
y: 185.33164978027344
z: -0.34861451387405396
visibility: 0.9285898208618164
","x: 213.4765167236328
y: 185.15733337402344
z: -0.41154175996780396
visibility: 0.9383376240730286
","x: 221.56507873535156
y: 378.80572509765625
z: 0.00760626932606101
visibility: 0.9998912215232849
","x: 199.93896484375
y: 379.20220947265625
z: -0.007666110992431641
visibility: 0.9998787045478821
","x: 219.5953369140625
y: 461.0134582519531
z: -0.006273950450122356
visibility: 0.9938976168632507
","x: 200.01585388183594
y: 463.0610656738281
z: -0.0012726555578410625
visibility: 0.9957340359687805
","x: 218.70297241210938
y: 537.0054931640625
z: 0.18132954835891724
visibility: 0.9938508868217468
","x: 207.47264099121094
y: 536.9439086914062
z: 0.1918952316045761
visibility: 0.9929932951927185
","x: 218.5004425048828
y: 546.4800415039062
z: 0.19357185065746307
visibility: 0.912675678730011
","x: 209.15870666503906
y: 547.4529418945312
z: 0.20390136539936066
visibility: 0.8875488042831421
","x: 220.26226806640625
y: 564.8253784179688
z: 0.06566440314054489
visibility: 0.9898875951766968
","x: 206.99473571777344
y: 563.7803955078125
z: 0.07542448490858078
visibility: 0.9880886077880859
",,,,,,,,,,,,,,,,,,,,,,,,,,,,,,,,,,,,,,,,,,
14,"x: 211.78982543945312
y: 235.38229370117188
z: -0.12560145556926727
visibility: 0.9998777508735657
","x: 214.0098876953125
y: 229.29856872558594
z: -0.09939344227313995
visibility: 0.999853253364563
","x: 215.30345153808594
y: 229.16073608398438
z: -0.09929560124874115
visibility: 0.9998095631599426
","x: 216.6396026611328
y: 229.02188110351562
z: -0.09928037971258163
visibility: 0.9998186826705933
","x: 209.9688720703125
y: 229.27264404296875
z: -0.1020335704088211
visibility: 0.9998134970664978
","x: 208.41183471679688
y: 229.38687133789062
z: -0.10208407789468765
visibility: 0.9997931122779846
","x: 206.79298400878906
y: 229.43136596679688
z: -0.1020573228597641
visibility: 0.9998111128807068
","x: 217.67132568359375
y: 234.58883666992188
z: 0.020463434979319572
visibility: 0.9997818470001221
","x: 204.60780334472656
y: 233.46107482910156
z: 0.007392559200525284
visibility: 0.9998525381088257
","x: 213.50816345214844
y: 241.742431640625
z: -0.08315134793519974
visibility: 0.9998620748519897
","x: 209.01937866210938
y: 242.31736755371094
z: -0.08725960552692413
visibility: 0.9998390674591064
","x: 226.77149963378906
y: 267.7723083496094
z: 0.0407538041472435
visibility: 0.9994441270828247
","x: 192.7301483154297
y: 266.99969482421875
z: 0.031250856816768646
visibility: 0.9994122385978699
","x: 238.32522583007812
y: 226.53469848632812
z: -0.0506405308842659
visibility: 0.9847033619880676
","x: 173.69891357421875
y: 231.55015563964844
z: -0.11216940730810165
visibility: 0.9734777212142944
","x: 221.80625915527344
y: 197.647216796875
z: -0.07338432967662811
visibility: 0.9786165952682495
","x: 195.16888427734375
y: 197.40277099609375
z: -0.1979207843542099
visibility: 0.97591632604599
","x: 218.41053771972656
y: 186.89852905273438
z: -0.10080365091562271
visibility: 0.9402245879173279
","x: 200.3230743408203
y: 186.3717041015625
z: -0.2354736030101776
visibility: 0.9519563317298889
","x: 216.53643798828125
y: 189.48300170898438
z: -0.08570180833339691
visibility: 0.9365854263305664
","x: 202.6717529296875
y: 188.80429077148438
z: -0.21310873329639435
visibility: 0.9498705267906189
","x: 216.9109344482422
y: 194.5692596435547
z: -0.07179360091686249
visibility: 0.9242042303085327
","x: 201.54217529296875
y: 193.9756622314453
z: -0.19578230381011963
visibility: 0.9388551115989685
","x: 222.49961853027344
y: 379.304931640625
z: -0.0036986724007874727
visibility: 0.9998827576637268
","x: 200.71531677246094
y: 380.5902404785156
z: 0.003666082862764597
visibility: 0.9998670220375061
","x: 220.82412719726562
y: 461.30755615234375
z: -0.006748410873115063
visibility: 0.9940172433853149
","x: 201.73727416992188
y: 463.32086181640625
z: 0.005060149356722832
visibility: 0.9950891733169556
","x: 217.8790740966797
y: 537.716796875
z: 0.13073644042015076
visibility: 0.9936736226081848
","x: 207.29031372070312
y: 538.3070678710938
z: 0.1566246598958969
visibility: 0.9923843741416931
","x: 217.37672424316406
y: 548.3392944335938
z: 0.1369582712650299
visibility: 0.9130088090896606
","x: 208.61004638671875
y: 549.5924072265625
z: 0.16145853698253632
visibility: 0.8832294940948486
","x: 220.1396026611328
y: 564.6690063476562
z: 0.008627922274172306
visibility: 0.9897492527961731
","x: 206.34259033203125
y: 563.8121337890625
z: 0.033699192106723785
visibility: 0.9874405860900879
",,,,,,,,,,,,,,,,,,,,,,,,,,,,,,,,,,,,,,,,,,
15,"x: 208.816650390625
y: 226.3675537109375
z: -0.2692778706550598
visibility: 0.9998548030853271
","x: 210.98341369628906
y: 222.4525604248047
z: -0.25467413663864136
visibility: 0.9997974634170532
","x: 212.36473083496094
y: 223.17111206054688
z: -0.2545512318611145
visibility: 0.9997466206550598
","x: 213.83775329589844
y: 223.9523468017578
z: -0.2545739412307739
visibility: 0.9997846484184265
","x: 206.80718994140625
y: 221.92430114746094
z: -0.25230830907821655
visibility: 0.9997560977935791
","x: 205.2720947265625
y: 222.3031768798828
z: -0.2523433566093445
visibility: 0.9997190237045288
","x: 203.71815490722656
y: 222.6484832763672
z: -0.25235193967819214
visibility: 0.9997789263725281
","x: 215.8046417236328
y: 231.79090881347656
z: -0.16021959483623505
visibility: 0.9997629523277283
","x: 201.1353759765625
y: 229.04995727539062
z: -0.14691969752311707
visibility: 0.9998210072517395
","x: 211.39686584472656
y: 235.97039794921875
z: -0.23418660461902618
visibility: 0.9998206496238708
","x: 205.63641357421875
y: 235.747802734375
z: -0.23064203560352325
visibility: 0.9997805953025818
","x: 225.49046325683594
y: 265.2682800292969
z: -0.11116782575845718
visibility: 0.9993959665298462
","x: 190.28504943847656
y: 268.16552734375
z: -0.07888436317443848
visibility: 0.9991991519927979
","x: 238.45883178710938
y: 222.11343383789062
z: -0.09362665563821793
visibility: 0.9844035506248474
","x: 167.55319213867188
y: 230.62744140625
z: -0.07850603014230728
visibility: 0.974907398223877
","x: 221.42840576171875
y: 215.23489379882812
z: 0.008680122904479504
visibility: 0.9094309210777283
","x: 194.6541290283203
y: 218.69174194335938
z: 0.008425812236964703
visibility: 0.9182637929916382
","x: 216.3817138671875
y: 229.94625854492188
z: 0.006293635815382004
visibility: 0.8555393815040588
","x: 200.8098602294922
y: 204.4137420654297
z: 0.0010702030267566442
visibility: 0.8718081116676331
","x: 215.2012481689453
y: 233.97744750976562
z: 0.012489402666687965
visibility: 0.8521989583969116
","x: 202.63206481933594
y: 190.56222534179688
z: 0.016830813139677048
visibility: 0.8698110580444336
","x: 215.9488983154297
y: 231.71539306640625
z: 0.009833211079239845
visibility: 0.8417531847953796
","x: 200.76441955566406
y: 208.79153442382812
z: 0.01110030896961689
visibility: 0.8610125184059143
","x: 224.861328125
y: 377.4582214355469
z: -0.018125470727682114
visibility: 0.9997518658638
","x: 202.76902770996094
y: 380.6627197265625
z: 0.01796555519104004
visibility: 0.999740719795227
","x: 222.33425903320312
y: 461.0177001953125
z: -0.005622119642794132
visibility: 0.9934871792793274
","x: 203.11619567871094
y: 463.62237548828125
z: 0.04237070307135582
visibility: 0.9936917424201965
","x: 223.467529296875
y: 539.7078857421875
z: 0.11918514966964722
visibility: 0.9937409162521362
","x: 208.69732666015625
y: 538.667724609375
z: 0.1702338010072708
visibility: 0.9918550252914429
","x: 223.1365203857422
y: 550.1446533203125
z: 0.12453143298625946
visibility: 0.9084197282791138
","x: 212.38943481445312
y: 549.3944091796875
z: 0.17669962346553802
visibility: 0.8832442164421082
","x: 219.7532501220703
y: 565.2631225585938
z: -0.003232474671676755
visibility: 0.9898499250411987
","x: 205.28399658203125
y: 565.525390625
z: 0.06857912987470627
visibility: 0.9872340559959412
",,,,,,,,,,,,,,,,,,,,,,,,,,,,,,,,,,,,,,,,,,
16,"x: 208.09130859375
y: 226.6591796875
z: -0.04824481159448624
visibility: 0.9998639822006226
","x: 209.98031616210938
y: 222.77163696289062
z: -0.021606214344501495
visibility: 0.999810516834259
","x: 211.2353515625
y: 223.5251007080078
z: -0.02149244025349617
visibility: 0.9997608661651611
","x: 212.5206756591797
y: 224.13034057617188
z: -0.021486330777406693
visibility: 0.9997991919517517
","x: 206.13238525390625
y: 222.02572631835938
z: -0.029610777273774147
visibility: 0.9997746348381042
","x: 204.6887664794922
y: 222.505615234375
z: -0.02963654138147831
visibility: 0.9997396469116211
","x: 203.2654266357422
y: 222.90792846679688
z: -0.02966276742517948
visibility: 0.9997969269752502
","x: 213.714111328125
y: 231.9145965576172
z: 0.09664146602153778
visibility: 0.9997774958610535
","x: 200.89947509765625
y: 229.95111083984375
z: 0.06052354723215103
visibility: 0.9998355507850647
","x: 210.43931579589844
y: 236.3475799560547
z: -0.005446156021207571
visibility: 0.9998149871826172
","x: 205.18577575683594
y: 236.7303466796875
z: -0.0163529422134161
visibility: 0.9997898936271667
","x: 223.33468627929688
y: 267.64532470703125
z: 0.13009652495384216
visibility: 0.9993743300437927
","x: 188.31971740722656
y: 270.7445373535156
z: 0.06548889726400375
visibility: 0.999203622341156
","x: 236.24343872070312
y: 236.32118225097656
z: 0.11149410158395767
visibility: 0.9823068976402283
","x: 170.57998657226562
y: 232.98333740234375
z: -0.013931652531027794
visibility: 0.9770203232765198
","x: 230.7098388671875
y: 216.89878845214844
z: 0.13254299759864807
visibility: 0.9040533900260925
","x: 195.07408142089844
y: 218.39256286621094
z: 0.024590875953435898
visibility: 0.9117915630340576
","x: 230.18630981445312
y: 210.27976989746094
z: 0.12325115501880646
visibility: 0.8375203013420105
","x: 200.99545288085938
y: 213.37127685546875
z: 0.010550735518336296
visibility: 0.838324248790741
","x: 228.03550720214844
y: 213.3102569580078
z: 0.12902963161468506
visibility: 0.8329294323921204
","x: 203.01168823242188
y: 210.97262573242188
z: 0.031234581023454666
visibility: 0.833196759223938
","x: 227.19024658203125
y: 216.56301879882812
z: 0.1315307915210724
visibility: 0.8223388195037842
","x: 201.54124450683594
y: 217.93966674804688
z: 0.02914009429514408
visibility: 0.8274558782577515
","x: 226.27317810058594
y: 378.15728759765625
z: -0.016583528369665146
visibility: 0.9996970295906067
","x: 203.66258239746094
y: 381.2119140625
z: 0.015704352408647537
visibility: 0.9996950626373291
","x: 224.7540283203125
y: 460.27490234375
z: -0.01614220440387726
visibility: 0.9935804009437561
","x: 204.74911499023438
y: 463.80535888671875
z: -0.010287118144333363
visibility: 0.9924064874649048
","x: 225.04086303710938
y: 539.3974609375
z: 0.062136463820934296
visibility: 0.9933820962905884
","x: 207.78289794921875
y: 539.7537841796875
z: 0.06681768596172333
visibility: 0.9906980395317078
","x: 224.55006408691406
y: 549.9861450195312
z: 0.06268356740474701
visibility: 0.9042301774024963
","x: 210.71202087402344
y: 549.9649658203125
z: 0.06736406683921814
visibility: 0.8746742606163025
","x: 221.3855743408203
y: 563.7091674804688
z: -0.06453128159046173
visibility: 0.9895627498626709
","x: 205.16970825195312
y: 566.1871948242188
z: -0.05481278896331787
visibility: 0.9862622618675232
",,,,,,,,,,,,,,,,,,,,,,,,,,,,,,,,,,,,,,,,,,
17,"x: 206.20358276367188
y: 228.55772399902344
z: -0.08973471820354462
visibility: 0.9998756647109985
","x: 207.68763732910156
y: 224.52928161621094
z: -0.06251807510852814
visibility: 0.9998266696929932
","x: 208.9317626953125
y: 225.0594940185547
z: -0.06243528053164482
visibility: 0.9997801184654236
","x: 210.2782440185547
y: 225.55650329589844
z: -0.06242567300796509
visibility: 0.999815821647644
","x: 204.3610076904297
y: 224.29510498046875
z: -0.0639428049325943
visibility: 0.9997941255569458
","x: 203.17941284179688
y: 224.74456787109375
z: -0.0639716386795044
visibility: 0.9997618198394775
","x: 202.02044677734375
y: 225.142333984375
z: -0.06396229565143585
visibility: 0.9998151659965515
","x: 212.9300994873047
y: 232.42623901367188
z: 0.04731416702270508
visibility: 0.9997945427894592
","x: 200.59303283691406
y: 231.41282653808594
z: 0.0430046021938324
visibility: 0.9998494386672974
","x: 209.239990234375
y: 237.30111694335938
z: -0.0520959198474884
visibility: 0.9998281598091125
","x: 204.43997192382812
y: 237.72723388671875
z: -0.053711384534835815
visibility: 0.9998066425323486
","x: 224.4480743408203
y: 263.714111328125
z: 0.0716281309723854
visibility: 0.9994087815284729
","x: 189.5455322265625
y: 270.86358642578125
z: 0.05450515076518059
visibility: 0.9992296695709229
","x: 236.05215454101562
y: 215.72055053710938
z: 0.03518889471888542
visibility: 0.9837489724159241
","x: 171.84542846679688
y: 233.80953979492188
z: -0.008979531936347485
visibility: 0.9791403412818909
","x: 226.29666137695312
y: 168.88162231445312
z: 0.027713725343346596
visibility: 0.9126821160316467
","x: 178.28729248046875
y: 187.275390625
z: -0.039357442408800125
visibility: 0.9199979901313782
","x: 225.27401733398438
y: 156.68040466308594
z: 0.0024295032490044832
visibility: 0.8496888875961304
","x: 177.74732971191406
y: 179.38296508789062
z: -0.07603290677070618
visibility: 0.851303219795227
","x: 222.83470153808594
y: 156.57101440429688
z: 0.007257722318172455
visibility: 0.8449175357818604
","x: 180.2397918701172
y: 178.3525848388672
z: -0.06560502201318741
visibility: 0.8461520075798035
","x: 222.47593688964844
y: 161.4656982421875
z: 0.025031501427292824
visibility: 0.8349771499633789
","x: 181.35464477539062
y: 181.0787811279297
z: -0.0415598526597023
visibility: 0.8408361077308655
","x: 225.603515625
y: 377.1226806640625
z: -0.011742409318685532
visibility: 0.9997187256813049
","x: 203.17108154296875
y: 378.0752258300781
z: 0.011037974618375301
visibility: 0.9997100234031677
","x: 224.4115753173828
y: 459.48345947265625
z: -0.0028739303816109896
visibility: 0.9936710000038147
","x: 203.7430877685547
y: 461.2903137207031
z: 0.002283815760165453
visibility: 0.992064893245697
","x: 222.8262176513672
y: 538.7840576171875
z: 0.16010233759880066
visibility: 0.993254542350769
","x: 205.07464599609375
y: 538.413330078125
z: 0.1629653424024582
visibility: 0.990571141242981
","x: 222.01504516601562
y: 549.4614868164062
z: 0.16922627389431
visibility: 0.8992587924003601
","x: 207.43116760253906
y: 547.3815307617188
z: 0.17218580842018127
visibility: 0.8721849322319031
","x: 219.19635009765625
y: 564.354248046875
z: 0.026670310646295547
visibility: 0.9891743063926697
","x: 205.4681396484375
y: 566.12255859375
z: 0.03890367969870567
visibility: 0.9861798286437988
",,,,,,,,,,,,,,,,,,,,,,,,,,,,,,,,,,,,,,,,,,
18,"x: 206.12864685058594
y: 234.2896728515625
z: -0.12931694090366364
visibility: 0.9998815655708313
","x: 207.39959716796875
y: 228.2286376953125
z: -0.10633794218301773
visibility: 0.999832272529602
","x: 208.68614196777344
y: 227.55455017089844
z: -0.10627461969852448
visibility: 0.9997835755348206
","x: 210.0849609375
y: 226.8333740234375
z: -0.10626908391714096
visibility: 0.9998197555541992
","x: 204.05258178710938
y: 230.8087158203125
z: -0.10570511966943741
visibility: 0.9998040199279785
","x: 202.9727783203125
y: 231.91062927246094
z: -0.10574276745319366
visibility: 0.9997720718383789
","x: 201.94232177734375
y: 232.9593505859375
z: -0.10573051869869232
visibility: 0.9998263120651245
","x: 213.30841064453125
y: 233.24703979492188
z: 0.006014927290380001
visibility: 0.9997947812080383
","x: 201.4112548828125
y: 237.04461669921875
z: 0.001976650906726718
visibility: 0.9998509883880615
","x: 209.76303100585938
y: 238.04022216796875
z: -0.09232717752456665
visibility: 0.9998277425765991
","x: 205.26927185058594
y: 242.494140625
z: -0.0921350046992302
visibility: 0.9998098611831665
","x: 227.310302734375
y: 262.6180114746094
z: 0.04375811666250229
visibility: 0.9994215965270996
","x: 192.61410522460938
y: 272.60369873046875
z: 0.03581054508686066
visibility: 0.9992108345031738
","x: 237.42129516601562
y: 213.195556640625
z: -0.023078439757227898
visibility: 0.9851614832878113
","x: 169.48159790039062
y: 237.54733276367188
z: -0.05579749494791031
visibility: 0.980986475944519
","x: 218.11050415039062
y: 181.02291870117188
z: -0.08145864307880402
visibility: 0.9207237958908081
","x: 167.98403930664062
y: 199.75205993652344
z: -0.14831066131591797
visibility: 0.9272886514663696
","x: 214.08338928222656
y: 171.76536560058594
z: -0.1092698946595192
visibility: 0.8610978126525879
","x: 166.23406982421875
y: 190.9384307861328
z: -0.1768624484539032
visibility: 0.8629530668258667
","x: 211.84458923339844
y: 173.28565979003906
z: -0.09864121675491333
visibility: 0.8561965227127075
","x: 168.17198181152344
y: 189.72369384765625
z: -0.16596387326717377
visibility: 0.8578145503997803
","x: 212.31417846679688
y: 177.62086486816406
z: -0.08129553496837616
visibility: 0.8464189171791077
","x: 169.49435424804688
y: 192.9631805419922
z: -0.1483069807291031
visibility: 0.8525474071502686
","x: 224.3040008544922
y: 377.1684265136719
z: -0.009425172582268715
visibility: 0.9997120499610901
","x: 202.6211700439453
y: 376.3450927734375
z: 0.009078873321413994
visibility: 0.9996803998947144
","x: 222.4988250732422
y: 459.6519470214844
z: -0.019114727154374123
visibility: 0.9933120608329773
","x: 203.26385498046875
y: 457.6327819824219
z: -0.0041921078227460384
visibility: 0.9915210604667664
","x: 221.46746826171875
y: 538.41943359375
z: 0.12390468269586563
visibility: 0.992430567741394
","x: 203.8579559326172
y: 537.809326171875
z: 0.12869879603385925
visibility: 0.9896277785301208
","x: 220.2379150390625
y: 549.4135131835938
z: 0.13176226615905762
visibility: 0.8918879628181458
","x: 205.94775390625
y: 546.40966796875
z: 0.1362745612859726
visibility: 0.8657230734825134
","x: 219.1499786376953
y: 564.3089599609375
z: 0.006538984831422567
visibility: 0.9878638982772827
","x: 206.30506896972656
y: 565.8592529296875
z: 0.019194213673472404
visibility: 0.9848867654800415
","x: 167.8397216796875
y: 204.46652221679688
z: 0.0
","x: 170.00228881835938
y: 197.7011260986328
z: -0.0002076501987176016
","x: 170.40338134765625
y: 190.52398681640625
z: -0.0009327572188340127
","x: 169.78463745117188
y: 185.513671875
z: -0.0023996925447136164
","x: 168.49563598632812
y: 182.4321746826172
z: -0.0032240301370620728
","x: 166.45570373535156
y: 185.65243530273438
z: 0.0014737277524545789
","x: 165.0810546875
y: 180.35104370117188
z: -0.001352763269096613
","x: 166.96209716796875
y: 182.6000213623047
z: -0.0024030341301113367
","x: 168.01416015625
y: 185.38638305664062
z: -0.0025707825552672148
","x: 164.98883056640625
y: 187.35830688476562
z: -0.0003026818740181625
","x: 163.3830108642578
y: 182.1256866455078
z: -0.003145297057926655
","x: 165.73529052734375
y: 184.97055053710938
z: -0.003381378948688507
","x: 166.8679962158203
y: 187.7920684814453
z: -0.0028722072020173073
","x: 163.60064697265625
y: 189.9657440185547
z: -0.0026855927426368
","x: 162.03839111328125
y: 185.34039306640625
z: -0.005366905592381954
","x: 164.44390869140625
y: 187.60018920898438
z: -0.004369720816612244
","x: 165.6788330078125
y: 190.05984497070312
z: -0.003006455022841692
","x: 162.38720703125
y: 193.52923583984375
z: -0.005353566724807024
","x: 161.3581085205078
y: 189.60914611816406
z: -0.007001618389040232
","x: 163.10543823242188
y: 190.60342407226562
z: -0.006179385352879763
","x: 164.20260620117188
y: 192.33639526367188
z: -0.004971195477992296
",,,,,,,,,,,,,,,,,,,,,
19,"x: 206.12864685058594
y: 234.2896728515625
z: -0.12931694090366364
visibility: 0.9998815655708313
","x: 207.39959716796875
y: 228.2286376953125
z: -0.10633794218301773
visibility: 0.999832272529602
","x: 208.68614196777344
y: 227.55455017089844
z: -0.10627461969852448
visibility: 0.9997835755348206
","x: 210.0849609375
y: 226.8333740234375
z: -0.10626908391714096
visibility: 0.9998197555541992
","x: 204.05258178710938
y: 230.8087158203125
z: -0.10570511966943741
visibility: 0.9998040199279785
","x: 202.9727783203125
y: 231.91062927246094
z: -0.10574276745319366
visibility: 0.9997720718383789
","x: 201.94232177734375
y: 232.9593505859375
z: -0.10573051869869232
visibility: 0.9998263120651245
","x: 213.30841064453125
y: 233.24703979492188
z: 0.006014927290380001
visibility: 0.9997947812080383
","x: 201.4112548828125
y: 237.04461669921875
z: 0.001976650906726718
visibility: 0.9998509883880615
","x: 209.76303100585938
y: 238.04022216796875
z: -0.09232717752456665
visibility: 0.9998277425765991
","x: 205.26927185058594
y: 242.494140625
z: -0.0921350046992302
visibility: 0.9998098611831665
","x: 227.310302734375
y: 262.6180114746094
z: 0.04375811666250229
visibility: 0.9994215965270996
","x: 192.61410522460938
y: 272.60369873046875
z: 0.03581054508686066
visibility: 0.9992108345031738
","x: 237.42129516601562
y: 213.195556640625
z: -0.023078439757227898
visibility: 0.9851614832878113
","x: 169.48159790039062
y: 237.54733276367188
z: -0.05579749494791031
visibility: 0.980986475944519
","x: 218.11050415039062
y: 181.02291870117188
z: -0.08145864307880402
visibility: 0.9207237958908081
","x: 167.98403930664062
y: 199.75205993652344
z: -0.14831066131591797
visibility: 0.9272886514663696
","x: 214.08338928222656
y: 171.76536560058594
z: -0.1092698946595192
visibility: 0.8610978126525879
","x: 166.23406982421875
y: 190.9384307861328
z: -0.1768624484539032
visibility: 0.8629530668258667
","x: 211.84458923339844
y: 173.28565979003906
z: -0.09864121675491333
visibility: 0.8561965227127075
","x: 168.17198181152344
y: 189.72369384765625
z: -0.16596387326717377
visibility: 0.8578145503997803
","x: 212.31417846679688
y: 177.62086486816406
z: -0.08129553496837616
visibility: 0.8464189171791077
","x: 169.49435424804688
y: 192.9631805419922
z: -0.1483069807291031
visibility: 0.8525474071502686
","x: 224.3040008544922
y: 377.1684265136719
z: -0.009425172582268715
visibility: 0.9997120499610901
","x: 202.6211700439453
y: 376.3450927734375
z: 0.009078873321413994
visibility: 0.9996803998947144
","x: 222.4988250732422
y: 459.6519470214844
z: -0.019114727154374123
visibility: 0.9933120608329773
","x: 203.26385498046875
y: 457.6327819824219
z: -0.0041921078227460384
visibility: 0.9915210604667664
","x: 221.46746826171875
y: 538.41943359375
z: 0.12390468269586563
visibility: 0.992430567741394
","x: 203.8579559326172
y: 537.809326171875
z: 0.12869879603385925
visibility: 0.9896277785301208
","x: 220.2379150390625
y: 549.4135131835938
z: 0.13176226615905762
visibility: 0.8918879628181458
","x: 205.94775390625
y: 546.40966796875
z: 0.1362745612859726
visibility: 0.8657230734825134
","x: 219.1499786376953
y: 564.3089599609375
z: 0.006538984831422567
visibility: 0.9878638982772827
","x: 206.30506896972656
y: 565.8592529296875
z: 0.019194213673472404
visibility: 0.9848867654800415
","x: 167.8397216796875
y: 204.46652221679688
z: 0.0
","x: 170.00228881835938
y: 197.7011260986328
z: -0.0002076501987176016
","x: 170.40338134765625
y: 190.52398681640625
z: -0.0009327572188340127
","x: 169.78463745117188
y: 185.513671875
z: -0.0023996925447136164
","x: 168.49563598632812
y: 182.4321746826172
z: -0.0032240301370620728
","x: 166.45570373535156
y: 185.65243530273438
z: 0.0014737277524545789
","x: 165.0810546875
y: 180.35104370117188
z: -0.001352763269096613
","x: 166.96209716796875
y: 182.6000213623047
z: -0.0024030341301113367
","x: 168.01416015625
y: 185.38638305664062
z: -0.0025707825552672148
","x: 164.98883056640625
y: 187.35830688476562
z: -0.0003026818740181625
","x: 163.3830108642578
y: 182.1256866455078
z: -0.003145297057926655
","x: 165.73529052734375
y: 184.97055053710938
z: -0.003381378948688507
","x: 166.8679962158203
y: 187.7920684814453
z: -0.0028722072020173073
","x: 163.60064697265625
y: 189.9657440185547
z: -0.0026855927426368
","x: 162.03839111328125
y: 185.34039306640625
z: -0.005366905592381954
","x: 164.44390869140625
y: 187.60018920898438
z: -0.004369720816612244
","x: 165.6788330078125
y: 190.05984497070312
z: -0.003006455022841692
","x: 162.38720703125
y: 193.52923583984375
z: -0.005353566724807024
","x: 161.3581085205078
y: 189.60914611816406
z: -0.007001618389040232
","x: 163.10543823242188
y: 190.60342407226562
z: -0.006179385352879763
","x: 164.20260620117188
y: 192.33639526367188
z: -0.004971195477992296
",,,,,,,,,,,,,,,,,,,,,
20,"x: 206.76292419433594
y: 237.32643127441406
z: -0.17555049061775208
visibility: 0.9998450875282288
","x: 207.93507385253906
y: 231.49017333984375
z: -0.15810538828372955
visibility: 0.9997369050979614
","x: 209.20062255859375
y: 230.82806396484375
z: -0.15808627009391785
visibility: 0.9996602535247803
","x: 210.56983947753906
y: 229.91485595703125
z: -0.1580948680639267
visibility: 0.9997198581695557
","x: 204.64686584472656
y: 233.8550567626953
z: -0.14739006757736206
visibility: 0.9997153878211975
","x: 203.62515258789062
y: 234.9442901611328
z: -0.14743457734584808
visibility: 0.9996656179428101
","x: 202.61045837402344
y: 235.9017333984375
z: -0.1474534273147583
visibility: 0.9997703433036804
","x: 213.5980224609375
y: 234.35086059570312
z: -0.0744900107383728
visibility: 0.9996857643127441
","x: 201.8779296875
y: 240.94842529296875
z: -0.01721915975213051
visibility: 0.9997150301933289
","x: 210.2651824951172
y: 241.30581665039062
z: -0.14760629832744598
visibility: 0.9997396469116211
","x: 205.83401489257812
y: 245.22390747070312
z: -0.133659228682518
visibility: 0.9997218251228333
","x: 229.44915771484375
y: 264.1549072265625
z: -0.06388392299413681
visibility: 0.9993550777435303
","x: 194.07020568847656
y: 281.2808837890625
z: 0.02615564689040184
visibility: 0.9990129470825195
","x: 240.62913513183594
y: 219.5127716064453
z: -0.14873771369457245
visibility: 0.9860228896141052
","x: 167.5173797607422
y: 270.0320739746094
z: -0.04978284239768982
visibility: 0.9824929237365723
","x: 221.03939819335938
y: 195.48292541503906
z: -0.16777929663658142
visibility: 0.922978401184082
","x: 175.21627807617188
y: 223.668701171875
z: -0.1677800714969635
visibility: 0.9327930212020874
","x: 216.8785858154297
y: 199.27931213378906
z: -0.1904933750629425
visibility: 0.8540146946907043
","x: 176.2061767578125
y: 215.08273315429688
z: -0.2014361321926117
visibility: 0.8691278100013733
","x: 214.77618408203125
y: 204.787841796875
z: -0.17889167368412018
visibility: 0.847072422504425
","x: 177.57864379882812
y: 213.76519775390625
z: -0.18647509813308716
visibility: 0.8636683225631714
","x: 215.57583618164062
y: 206.4824676513672
z: -0.16608822345733643
visibility: 0.8369153738021851
","x: 177.91075134277344
y: 216.61761474609375
z: -0.16859248280525208
visibility: 0.8581070899963379
","x: 224.2737274169922
y: 385.89947509765625
z: -0.027216410264372826
visibility: 0.9996589422225952
","x: 202.6073455810547
y: 385.1469421386719
z: 0.026992062106728554
visibility: 0.9995697140693665
","x: 221.5553741455078
y: 468.24810791015625
z: -0.03204048424959183
visibility: 0.992743730545044
","x: 202.70606994628906
y: 466.573974609375
z: 0.04072532802820206
visibility: 0.9905243515968323
","x: 220.9582061767578
y: 539.813720703125
z: 0.12014206498861313
visibility: 0.9915278553962708
","x: 206.00982666015625
y: 538.6658935546875
z: 0.17976504564285278
visibility: 0.988384485244751
","x: 220.94662475585938
y: 549.3696899414062
z: 0.1283418834209442
visibility: 0.8824045658111572
","x: 208.55557250976562
y: 546.9359741210938
z: 0.18859270215034485
visibility: 0.8643938899040222
","x: 218.7133331298828
y: 565.1122436523438
z: 0.002001319546252489
visibility: 0.986690104007721
","x: 205.53065490722656
y: 565.808349609375
z: 0.08234469592571259
visibility: 0.9840551018714905
",,,,,,,,,,,,,,,,,,,,,,,,,,,,,,,,,,,,,,,,,,
21,"x: 207.2659149169922
y: 243.08584594726562
z: -0.1716669499874115
visibility: 0.9998588562011719
","x: 208.53421020507812
y: 236.46360778808594
z: -0.15179263055324554
visibility: 0.9997610449790955
","x: 209.77413940429688
y: 235.69558715820312
z: -0.15176507830619812
visibility: 0.9996912479400635
","x: 211.14382934570312
y: 234.76698303222656
z: -0.15176740288734436
visibility: 0.9997451305389404
","x: 205.19247436523438
y: 239.49893188476562
z: -0.1461057960987091
visibility: 0.9997413158416748
","x: 204.1007537841797
y: 240.71954345703125
z: -0.146147683262825
visibility: 0.9996954202651978
","x: 203.00848388671875
y: 241.74554443359375
z: -0.14618295431137085
visibility: 0.9997903108596802
","x: 213.92367553710938
y: 238.15304565429688
z: -0.061423409730196
visibility: 0.9997144937515259
","x: 202.83998107910156
y: 244.6676483154297
z: -0.023921120911836624
visibility: 0.9997386932373047
","x: 210.46234130859375
y: 246.96002197265625
z: -0.13834038376808167
visibility: 0.9997623562812805
","x: 206.31777954101562
y: 250.9400177001953
z: -0.13147518038749695
visibility: 0.9997451305389404
","x: 230.66104125976562
y: 265.1355285644531
z: -0.05838952586054802
visibility: 0.9993897676467896
","x: 196.7168731689453
y: 280.7437438964844
z: 0.019236687570810318
visibility: 0.9990352392196655
","x: 239.60281372070312
y: 222.12196350097656
z: -0.19824105501174927
visibility: 0.9871624708175659
","x: 169.5048828125
y: 248.91485595703125
z: -0.07944389432668686
visibility: 0.9829955697059631
","x: 219.006591796875
y: 184.20339965820312
z: -0.3032839000225067
visibility: 0.9301442503929138
","x: 162.5538330078125
y: 206.10328674316406
z: -0.2573925852775574
visibility: 0.9381190538406372
","x: 214.12562561035156
y: 176.45016479492188
z: -0.34580540657043457
visibility: 0.8665924668312073
","x: 157.8880615234375
y: 195.92897033691406
z: -0.3017946481704712
visibility: 0.8785555958747864
","x: 211.71661376953125
y: 176.59375
z: -0.3372752070426941
visibility: 0.8601087331771851
","x: 158.52001953125
y: 192.82403564453125
z: -0.3055093586444855
visibility: 0.8734298348426819
","x: 212.7264404296875
y: 179.6471405029297
z: -0.304969847202301
visibility: 0.8503755927085876
","x: 160.16795349121094
y: 196.57501220703125
z: -0.26777416467666626
visibility: 0.8683228492736816
","x: 224.41909790039062
y: 385.77392578125
z: -0.020795078948140144
visibility: 0.999676525592804
","x: 203.98402404785156
y: 383.4983825683594
z: 0.020642928779125214
visibility: 0.9995867013931274
","x: 222.25717163085938
y: 467.05670166015625
z: -0.02927674725651741
visibility: 0.9925161600112915
","x: 203.68710327148438
y: 465.8877868652344
z: 0.030451888218522072
visibility: 0.9904518723487854
","x: 221.50991821289062
y: 539.6103515625
z: 0.11508284509181976
visibility: 0.9912926554679871
","x: 206.3696746826172
y: 539.0247802734375
z: 0.16199882328510284
visibility: 0.9882575273513794
","x: 221.19859313964844
y: 549.387451171875
z: 0.12067285925149918
visibility: 0.8819361329078674
","x: 208.6369171142578
y: 548.4854736328125
z: 0.16467174887657166
visibility: 0.8646190762519836
","x: 219.56597900390625
y: 563.10693359375
z: -0.0032059303484857082
visibility: 0.9863325953483582
","x: 205.04489135742188
y: 566.0543212890625
z: 0.0552547462284565
visibility: 0.9836013317108154
","x: 159.99667358398438
y: 202.02838134765625
z: 0.0
","x: 160.93014526367188
y: 195.04623413085938
z: -0.0004539273213595152
","x: 160.55673217773438
y: 187.97259521484375
z: -0.0009996125008910894
","x: 159.9112091064453
y: 183.19345092773438
z: -0.0020963677670806646
","x: 159.60263061523438
y: 179.5777130126953
z: -0.0029757998418062925
","x: 156.8334503173828
y: 185.01075744628906
z: 0.001248369924724102
","x: 155.32093811035156
y: 180.03652954101562
z: -0.0007202555425465107
","x: 154.7476348876953
y: 177.5273895263672
z: -0.0020442332606762648
","x: 154.5689697265625
y: 176.29718017578125
z: -0.002709604101255536
","x: 155.42945861816406
y: 187.372314453125
z: -7.998017099453136e-05
","x: 152.9780731201172
y: 182.66754150390625
z: -0.002270269440487027
","x: 152.50885009765625
y: 181.47756958007812
z: -0.0032662886660546064
","x: 152.6595458984375
y: 181.8035888671875
z: -0.0035025200340896845
","x: 154.5172576904297
y: 190.4056396484375
z: -0.0018456585239619017
","x: 152.16624450683594
y: 186.80557250976562
z: -0.003930300008505583
","x: 151.5960235595703
y: 185.77069091796875
z: -0.004232923034578562
","x: 151.611572265625
y: 185.71966552734375
z: -0.003989434335380793
","x: 154.0839080810547
y: 194.23574829101562
z: -0.0038899732753634453
","x: 152.07460021972656
y: 191.84857177734375
z: -0.005357104819267988
","x: 151.41795349121094
y: 191.05369567871094
z: -0.005458873696625233
","x: 151.23802185058594
y: 190.8807373046875
z: -0.005179555155336857
",,,,,,,,,,,,,,,,,,,,,
22,"x: 207.2659149169922
y: 243.08584594726562
z: -0.1716669499874115
visibility: 0.9998588562011719
","x: 208.53421020507812
y: 236.46360778808594
z: -0.15179263055324554
visibility: 0.9997610449790955
","x: 209.77413940429688
y: 235.69558715820312
z: -0.15176507830619812
visibility: 0.9996912479400635
","x: 211.14382934570312
y: 234.76698303222656
z: -0.15176740288734436
visibility: 0.9997451305389404
","x: 205.19247436523438
y: 239.49893188476562
z: -0.1461057960987091
visibility: 0.9997413158416748
","x: 204.1007537841797
y: 240.71954345703125
z: -0.146147683262825
visibility: 0.9996954202651978
","x: 203.00848388671875
y: 241.74554443359375
z: -0.14618295431137085
visibility: 0.9997903108596802
","x: 213.92367553710938
y: 238.15304565429688
z: -0.061423409730196
visibility: 0.9997144937515259
","x: 202.83998107910156
y: 244.6676483154297
z: -0.023921120911836624
visibility: 0.9997386932373047
","x: 210.46234130859375
y: 246.96002197265625
z: -0.13834038376808167
visibility: 0.9997623562812805
","x: 206.31777954101562
y: 250.9400177001953
z: -0.13147518038749695
visibility: 0.9997451305389404
","x: 230.66104125976562
y: 265.1355285644531
z: -0.05838952586054802
visibility: 0.9993897676467896
","x: 196.7168731689453
y: 280.7437438964844
z: 0.019236687570810318
visibility: 0.9990352392196655
","x: 239.60281372070312
y: 222.12196350097656
z: -0.19824105501174927
visibility: 0.9871624708175659
","x: 169.5048828125
y: 248.91485595703125
z: -0.07944389432668686
visibility: 0.9829955697059631
","x: 219.006591796875
y: 184.20339965820312
z: -0.3032839000225067
visibility: 0.9301442503929138
","x: 162.5538330078125
y: 206.10328674316406
z: -0.2573925852775574
visibility: 0.9381190538406372
","x: 214.12562561035156
y: 176.45016479492188
z: -0.34580540657043457
visibility: 0.8665924668312073
","x: 157.8880615234375
y: 195.92897033691406
z: -0.3017946481704712
visibility: 0.8785555958747864
","x: 211.71661376953125
y: 176.59375
z: -0.3372752070426941
visibility: 0.8601087331771851
","x: 158.52001953125
y: 192.82403564453125
z: -0.3055093586444855
visibility: 0.8734298348426819
","x: 212.7264404296875
y: 179.6471405029297
z: -0.304969847202301
visibility: 0.8503755927085876
","x: 160.16795349121094
y: 196.57501220703125
z: -0.26777416467666626
visibility: 0.8683228492736816
","x: 224.41909790039062
y: 385.77392578125
z: -0.020795078948140144
visibility: 0.999676525592804
","x: 203.98402404785156
y: 383.4983825683594
z: 0.020642928779125214
visibility: 0.9995867013931274
","x: 222.25717163085938
y: 467.05670166015625
z: -0.02927674725651741
visibility: 0.9925161600112915
","x: 203.68710327148438
y: 465.8877868652344
z: 0.030451888218522072
visibility: 0.9904518723487854
","x: 221.50991821289062
y: 539.6103515625
z: 0.11508284509181976
visibility: 0.9912926554679871
","x: 206.3696746826172
y: 539.0247802734375
z: 0.16199882328510284
visibility: 0.9882575273513794
","x: 221.19859313964844
y: 549.387451171875
z: 0.12067285925149918
visibility: 0.8819361329078674
","x: 208.6369171142578
y: 548.4854736328125
z: 0.16467174887657166
visibility: 0.8646190762519836
","x: 219.56597900390625
y: 563.10693359375
z: -0.0032059303484857082
visibility: 0.9863325953483582
","x: 205.04489135742188
y: 566.0543212890625
z: 0.0552547462284565
visibility: 0.9836013317108154
","x: 159.99667358398438
y: 202.02838134765625
z: 0.0
","x: 160.93014526367188
y: 195.04623413085938
z: -0.0004539273213595152
","x: 160.55673217773438
y: 187.97259521484375
z: -0.0009996125008910894
","x: 159.9112091064453
y: 183.19345092773438
z: -0.0020963677670806646
","x: 159.60263061523438
y: 179.5777130126953
z: -0.0029757998418062925
","x: 156.8334503173828
y: 185.01075744628906
z: 0.001248369924724102
","x: 155.32093811035156
y: 180.03652954101562
z: -0.0007202555425465107
","x: 154.7476348876953
y: 177.5273895263672
z: -0.0020442332606762648
","x: 154.5689697265625
y: 176.29718017578125
z: -0.002709604101255536
","x: 155.42945861816406
y: 187.372314453125
z: -7.998017099453136e-05
","x: 152.9780731201172
y: 182.66754150390625
z: -0.002270269440487027
","x: 152.50885009765625
y: 181.47756958007812
z: -0.0032662886660546064
","x: 152.6595458984375
y: 181.8035888671875
z: -0.0035025200340896845
","x: 154.5172576904297
y: 190.4056396484375
z: -0.0018456585239619017
","x: 152.16624450683594
y: 186.80557250976562
z: -0.003930300008505583
","x: 151.5960235595703
y: 185.77069091796875
z: -0.004232923034578562
","x: 151.611572265625
y: 185.71966552734375
z: -0.003989434335380793
","x: 154.0839080810547
y: 194.23574829101562
z: -0.0038899732753634453
","x: 152.07460021972656
y: 191.84857177734375
z: -0.005357104819267988
","x: 151.41795349121094
y: 191.05369567871094
z: -0.005458873696625233
","x: 151.23802185058594
y: 190.8807373046875
z: -0.005179555155336857
",,,,,,,,,,,,,,,,,,,,,
23,"x: 208.59823608398438
y: 247.01332092285156
z: -0.10602086782455444
visibility: 0.999872624874115
","x: 209.8769073486328
y: 241.51678466796875
z: -0.08619971573352814
visibility: 0.9997844696044922
","x: 211.10096740722656
y: 241.41445922851562
z: -0.08617216348648071
visibility: 0.9997214078903198
","x: 212.4395751953125
y: 241.29107666015625
z: -0.08615000545978546
visibility: 0.9997700452804565
","x: 206.84310913085938
y: 242.83155822753906
z: -0.08243361860513687
visibility: 0.9997667670249939
","x: 205.91574096679688
y: 243.60073852539062
z: -0.08245589584112167
visibility: 0.999725341796875
","x: 204.9993133544922
y: 244.26268005371094
z: -0.08245997130870819
visibility: 0.9998108744621277
","x: 215.56329345703125
y: 245.12742614746094
z: 0.006842407397925854
visibility: 0.9997421503067017
","x: 204.40975952148438
y: 247.67462158203125
z: 0.02308170683681965
visibility: 0.999764084815979
","x: 211.67373657226562
y: 253.38214111328125
z: -0.07291087508201599
visibility: 0.9997847080230713
","x: 207.75875854492188
y: 254.98678588867188
z: -0.06883317977190018
visibility: 0.9997692108154297
","x: 230.882080078125
y: 272.46875
z: -0.001626242883503437
visibility: 0.9994009733200073
","x: 197.4470672607422
y: 280.0211181640625
z: 0.028742456808686256
visibility: 0.9990976452827454
","x: 239.09474182128906
y: 225.7261962890625
z: -0.14430800080299377
visibility: 0.9871087670326233
","x: 177.8585662841797
y: 248.97683715820312
z: -0.15950915217399597
visibility: 0.9833109378814697
","x: 232.55844116210938
y: 187.8965606689453
z: -0.2532801926136017
visibility: 0.9362320303916931
","x: 172.03350830078125
y: 209.08531188964844
z: -0.3965899348258972
visibility: 0.9429205060005188
","x: 233.28414916992188
y: 176.13182067871094
z: -0.29022905230522156
visibility: 0.877734899520874
","x: 169.13665771484375
y: 196.8075408935547
z: -0.4466094970703125
visibility: 0.8871074318885803
","x: 230.49765014648438
y: 174.7711944580078
z: -0.29054003953933716
visibility: 0.8718039989471436
","x: 170.80911254882812
y: 195.73341369628906
z: -0.4418739378452301
visibility: 0.8822691440582275
","x: 229.4152069091797
y: 178.88653564453125
z: -0.2593553364276886
visibility: 0.8625150322914124
","x: 172.22142028808594
y: 200.853759765625
z: -0.40453171730041504
visibility: 0.8774688839912415
","x: 225.1984405517578
y: 385.1141662597656
z: -0.018813740462064743
visibility: 0.9997004866600037
","x: 204.5874786376953
y: 383.3848876953125
z: 0.018783872947096825
visibility: 0.9996199607849121
","x: 222.6673583984375
y: 465.85284423828125
z: -0.03203597292304039
visibility: 0.9924749732017517
","x: 203.7420654296875
y: 465.6537170410156
z: -0.012607189826667309
visibility: 0.9905586242675781
","x: 221.9322052001953
y: 539.4713134765625
z: 0.08311127126216888
visibility: 0.9908266067504883
","x: 207.1507568359375
y: 539.3419189453125
z: 0.09163060039281845
visibility: 0.9883407950401306
","x: 221.16567993164062
y: 549.2505493164062
z: 0.0872403234243393
visibility: 0.8803761005401611
","x: 209.6739959716797
y: 549.6723022460938
z: 0.09506182372570038
visibility: 0.8666130304336548
","x: 220.4069366455078
y: 562.3810424804688
z: -0.031674329191446304
visibility: 0.986129879951477
","x: 204.85057067871094
y: 566.7763061523438
z: -0.016776548698544502
visibility: 0.9837586283683777
",,,,,,,,,,,,,,,,,,,,,,,,,,,,,,,,,,,,,,,,,,
24,"x: 210.9888916015625
y: 246.87979125976562
z: -0.1395457684993744
visibility: 0.9998849630355835
","x: 213.01309204101562
y: 242.34674072265625
z: -0.10741956532001495
visibility: 0.9998055100440979
","x: 214.18634033203125
y: 242.76559448242188
z: -0.10728634893894196
visibility: 0.9997484087944031
","x: 215.45697021484375
y: 243.18231201171875
z: -0.10725213587284088
visibility: 0.9997923374176025
","x: 209.64715576171875
y: 242.2388916015625
z: -0.11566432565450668
visibility: 0.9997897148132324
","x: 208.4722900390625
y: 242.654052734375
z: -0.11561453342437744
visibility: 0.9997522234916687
","x: 207.28274536132812
y: 243.0384063720703
z: -0.11555956304073334
visibility: 0.9998294115066528
","x: 217.0977020263672
y: 247.95928955078125
z: -0.006721985526382923
visibility: 0.9997671246528625
","x: 205.3687744140625
y: 246.7123260498047
z: -0.0014333863509818912
visibility: 0.9997873902320862
","x: 212.92904663085938
y: 253.90042114257812
z: -0.08378323167562485
visibility: 0.9998051524162292
","x: 208.6200714111328
y: 254.07090759277344
z: -0.09966834634542465
visibility: 0.9997917413711548
","x: 230.51380920410156
y: 281.3284912109375
z: 0.0005735856248065829
visibility: 0.9994217753410339
","x: 196.3648681640625
y: 279.5227355957031
z: 0.0010860245674848557
visibility: 0.9991682767868042
","x: 248.20237731933594
y: 264.32373046875
z: -0.1747095286846161
visibility: 0.9878437519073486
","x: 173.58433532714844
y: 246.49659729003906
z: -0.2070854902267456
visibility: 0.9848585724830627
","x: 248.37557983398438
y: 217.61441040039062
z: -0.33741652965545654
visibility: 0.9411724805831909
","x: 192.86485290527344
y: 213.69680786132812
z: -0.36599135398864746
visibility: 0.9477251172065735
","x: 250.93832397460938
y: 204.8322296142578
z: -0.38053908944129944
visibility: 0.8850852251052856
","x: 197.9517059326172
y: 207.24923706054688
z: -0.4072181284427643
visibility: 0.8935573101043701
","x: 249.0992889404297
y: 203.0522003173828
z: -0.36818236112594604
visibility: 0.8792338371276855
","x: 200.75271606445312
y: 211.01173400878906
z: -0.386155903339386
visibility: 0.8883700370788574
","x: 247.7400360107422
y: 207.3877716064453
z: -0.34000903367996216
visibility: 0.8699386119842529
","x: 199.296875
y: 215.1195526123047
z: -0.3642503619194031
visibility: 0.8835353255271912
","x: 227.4208526611328
y: 385.6341857910156
z: -0.018000328913331032
visibility: 0.9996890425682068
","x: 205.52037048339844
y: 387.6345520019531
z: 0.018018849194049835
visibility: 0.9996328353881836
","x: 223.94412231445312
y: 466.6638488769531
z: -0.03149046376347542
visibility: 0.9922669529914856
","x: 202.68101501464844
y: 467.5202941894531
z: -0.011383208446204662
visibility: 0.9903673529624939
","x: 221.99810791015625
y: 539.3261108398438
z: 0.09673348814249039
visibility: 0.990131676197052
","x: 207.7681427001953
y: 539.6515502929688
z: 0.11297788470983505
visibility: 0.9880763292312622
","x: 221.47900390625
y: 549.2020874023438
z: 0.10172276198863983
visibility: 0.8795938491821289
","x: 211.3765869140625
y: 550.1647338867188
z: 0.11783196032047272
visibility: 0.8717889785766602
","x: 221.03945922851562
y: 562.1590576171875
z: -0.021086957305669785
visibility: 0.985484778881073
","x: 204.75970458984375
y: 566.65625
z: 0.004987782333046198
visibility: 0.9832546710968018
","x: 193.82284545898438
y: 225.2277374267578
z: 0.0
","x: 198.69801330566406
y: 225.67660522460938
z: 0.0001849047257564962
","x: 202.62158203125
y: 223.90866088867188
z: -0.000979686970822513
","x: 205.4801788330078
y: 222.41012573242188
z: -0.0030973507091403008
","x: 207.80638122558594
y: 221.52450561523438
z: -0.004823328927159309
","x: 203.4810791015625
y: 214.010498046875
z: 0.0006310261087492108
","x: 206.7078857421875
y: 209.8600616455078
z: -0.0024501890875399113
","x: 208.68392944335938
y: 211.322998046875
z: -0.0043751150369644165
","x: 209.9022216796875
y: 213.2706298828125
z: -0.005391662009060383
","x: 201.93235778808594
y: 213.03738403320312
z: -0.0018803076818585396
","x: 205.621826171875
y: 210.0147247314453
z: -0.004765679594129324
","x: 207.6831512451172
y: 213.20533752441406
z: -0.005997811444103718
","x: 208.73583984375
y: 216.47926330566406
z: -0.006600562948733568
","x: 199.98521423339844
y: 213.12322998046875
z: -0.004876268561929464
","x: 203.43716430664062
y: 211.7262420654297
z: -0.007696714252233505
","x: 205.36636352539062
y: 215.11019897460938
z: -0.007991733960807323
","x: 206.22564697265625
y: 218.54132080078125
z: -0.007866780273616314
","x: 197.83322143554688
y: 214.50439453125
z: -0.008128870278596878
","x: 200.50831604003906
y: 214.30946350097656
z: -0.010163391008973122
","x: 202.02084350585938
y: 217.08926391601562
z: -0.010146819055080414
","x: 202.71005249023438
y: 220.02806091308594
z: -0.009822193533182144
",,,,,,,,,,,,,,,,,,,,,
25,"x: 210.9888916015625
y: 246.87979125976562
z: -0.1395457684993744
visibility: 0.9998849630355835
","x: 213.01309204101562
y: 242.34674072265625
z: -0.10741956532001495
visibility: 0.9998055100440979
","x: 214.18634033203125
y: 242.76559448242188
z: -0.10728634893894196
visibility: 0.9997484087944031
","x: 215.45697021484375
y: 243.18231201171875
z: -0.10725213587284088
visibility: 0.9997923374176025
","x: 209.64715576171875
y: 242.2388916015625
z: -0.11566432565450668
visibility: 0.9997897148132324
","x: 208.4722900390625
y: 242.654052734375
z: -0.11561453342437744
visibility: 0.9997522234916687
","x: 207.28274536132812
y: 243.0384063720703
z: -0.11555956304073334
visibility: 0.9998294115066528
","x: 217.0977020263672
y: 247.95928955078125
z: -0.006721985526382923
visibility: 0.9997671246528625
","x: 205.3687744140625
y: 246.7123260498047
z: -0.0014333863509818912
visibility: 0.9997873902320862
","x: 212.92904663085938
y: 253.90042114257812
z: -0.08378323167562485
visibility: 0.9998051524162292
","x: 208.6200714111328
y: 254.07090759277344
z: -0.09966834634542465
visibility: 0.9997917413711548
","x: 230.51380920410156
y: 281.3284912109375
z: 0.0005735856248065829
visibility: 0.9994217753410339
","x: 196.3648681640625
y: 279.5227355957031
z: 0.0010860245674848557
visibility: 0.9991682767868042
","x: 248.20237731933594
y: 264.32373046875
z: -0.1747095286846161
visibility: 0.9878437519073486
","x: 173.58433532714844
y: 246.49659729003906
z: -0.2070854902267456
visibility: 0.9848585724830627
","x: 248.37557983398438
y: 217.61441040039062
z: -0.33741652965545654
visibility: 0.9411724805831909
","x: 192.86485290527344
y: 213.69680786132812
z: -0.36599135398864746
visibility: 0.9477251172065735
","x: 250.93832397460938
y: 204.8322296142578
z: -0.38053908944129944
visibility: 0.8850852251052856
","x: 197.9517059326172
y: 207.24923706054688
z: -0.4072181284427643
visibility: 0.8935573101043701
","x: 249.0992889404297
y: 203.0522003173828
z: -0.36818236112594604
visibility: 0.8792338371276855
","x: 200.75271606445312
y: 211.01173400878906
z: -0.386155903339386
visibility: 0.8883700370788574
","x: 247.7400360107422
y: 207.3877716064453
z: -0.34000903367996216
visibility: 0.8699386119842529
","x: 199.296875
y: 215.1195526123047
z: -0.3642503619194031
visibility: 0.8835353255271912
","x: 227.4208526611328
y: 385.6341857910156
z: -0.018000328913331032
visibility: 0.9996890425682068
","x: 205.52037048339844
y: 387.6345520019531
z: 0.018018849194049835
visibility: 0.9996328353881836
","x: 223.94412231445312
y: 466.6638488769531
z: -0.03149046376347542
visibility: 0.9922669529914856
","x: 202.68101501464844
y: 467.5202941894531
z: -0.011383208446204662
visibility: 0.9903673529624939
","x: 221.99810791015625
y: 539.3261108398438
z: 0.09673348814249039
visibility: 0.990131676197052
","x: 207.7681427001953
y: 539.6515502929688
z: 0.11297788470983505
visibility: 0.9880763292312622
","x: 221.47900390625
y: 549.2020874023438
z: 0.10172276198863983
visibility: 0.8795938491821289
","x: 211.3765869140625
y: 550.1647338867188
z: 0.11783196032047272
visibility: 0.8717889785766602
","x: 221.03945922851562
y: 562.1590576171875
z: -0.021086957305669785
visibility: 0.985484778881073
","x: 204.75970458984375
y: 566.65625
z: 0.004987782333046198
visibility: 0.9832546710968018
","x: 193.82284545898438
y: 225.2277374267578
z: 0.0
","x: 198.69801330566406
y: 225.67660522460938
z: 0.0001849047257564962
","x: 202.62158203125
y: 223.90866088867188
z: -0.000979686970822513
","x: 205.4801788330078
y: 222.41012573242188
z: -0.0030973507091403008
","x: 207.80638122558594
y: 221.52450561523438
z: -0.004823328927159309
","x: 203.4810791015625
y: 214.010498046875
z: 0.0006310261087492108
","x: 206.7078857421875
y: 209.8600616455078
z: -0.0024501890875399113
","x: 208.68392944335938
y: 211.322998046875
z: -0.0043751150369644165
","x: 209.9022216796875
y: 213.2706298828125
z: -0.005391662009060383
","x: 201.93235778808594
y: 213.03738403320312
z: -0.0018803076818585396
","x: 205.621826171875
y: 210.0147247314453
z: -0.004765679594129324
","x: 207.6831512451172
y: 213.20533752441406
z: -0.005997811444103718
","x: 208.73583984375
y: 216.47926330566406
z: -0.006600562948733568
","x: 199.98521423339844
y: 213.12322998046875
z: -0.004876268561929464
","x: 203.43716430664062
y: 211.7262420654297
z: -0.007696714252233505
","x: 205.36636352539062
y: 215.11019897460938
z: -0.007991733960807323
","x: 206.22564697265625
y: 218.54132080078125
z: -0.007866780273616314
","x: 197.83322143554688
y: 214.50439453125
z: -0.008128870278596878
","x: 200.50831604003906
y: 214.30946350097656
z: -0.010163391008973122
","x: 202.02084350585938
y: 217.08926391601562
z: -0.010146819055080414
","x: 202.71005249023438
y: 220.02806091308594
z: -0.009822193533182144
",,,,,,,,,,,,,,,,,,,,,
26,"x: 215.13153076171875
y: 248.94761657714844
z: -0.26497727632522583
visibility: 0.9998961091041565
","x: 217.68580627441406
y: 244.9136199951172
z: -0.2380588948726654
visibility: 0.9998242855072021
","x: 219.0269775390625
y: 245.9265899658203
z: -0.23796696960926056
visibility: 0.9997723698616028
","x: 220.50221252441406
y: 246.9935760498047
z: -0.23797352612018585
visibility: 0.9998120665550232
","x: 213.88595581054688
y: 242.90347290039062
z: -0.2431238889694214
visibility: 0.9998101592063904
","x: 212.59849548339844
y: 242.66397094726562
z: -0.24310871958732605
visibility: 0.9997761845588684
","x: 211.17721557617188
y: 242.53907775878906
z: -0.2430773228406906
visibility: 0.9998458623886108
","x: 221.63302612304688
y: 253.32937622070312
z: -0.10287918895483017
visibility: 0.9997889399528503
","x: 207.368896484375
y: 246.06932067871094
z: -0.12808652222156525
visibility: 0.999808132648468
","x: 215.98019409179688
y: 258.2372131347656
z: -0.21537141501903534
visibility: 0.9998239874839783
","x: 211.39984130859375
y: 255.7913360595703
z: -0.22370417416095734
visibility: 0.999812126159668
","x: 230.48385620117188
y: 289.781982421875
z: -0.05439125373959541
visibility: 0.9994632601737976
","x: 195.056884765625
y: 279.17730712890625
z: -0.08638907223939896
visibility: 0.9992377758026123
","x: 253.37094116210938
y: 293.8992004394531
z: -0.2052314579486847
visibility: 0.9887924790382385
","x: 168.5766143798828
y: 247.415283203125
z: -0.27685457468032837
visibility: 0.9862983822822571
","x: 253.0728759765625
y: 247.85643005371094
z: -0.37699905037879944
visibility: 0.9458579421043396
","x: 192.96524047851562
y: 220.9487762451172
z: -0.4262303411960602
visibility: 0.9519176483154297
","x: 254.6797332763672
y: 236.11227416992188
z: -0.41727280616760254
visibility: 0.8908618688583374
","x: 197.82614135742188
y: 216.11294555664062
z: -0.46254006028175354
visibility: 0.8981781005859375
","x: 251.8188018798828
y: 234.30337524414062
z: -0.3994511365890503
visibility: 0.8849759697914124
","x: 199.74917602539062
y: 219.7052764892578
z: -0.4392380118370056
visibility: 0.8923952579498291
","x: 250.81387329101562
y: 238.6404571533203
z: -0.37616217136383057
visibility: 0.8748886585235596
","x: 198.7947235107422
y: 223.4593963623047
z: -0.42244306206703186
visibility: 0.8866996765136719
","x: 228.6927032470703
y: 386.86712646484375
z: -0.012024661526083946
visibility: 0.9996981620788574
","x: 206.08465576171875
y: 391.1559753417969
z: 0.011984351091086864
visibility: 0.9996458292007446
","x: 225.6617431640625
y: 467.4298400878906
z: -0.1235017403960228
visibility: 0.9924066662788391
","x: 201.9409942626953
y: 471.1758117675781
z: -0.023165369406342506
visibility: 0.9901682138442993
","x: 222.0813446044922
y: 539.252197265625
z: 0.031234458088874817
visibility: 0.9899063110351562
","x: 208.10374450683594
y: 539.4475708007812
z: 0.11886171251535416
visibility: 0.9874857068061829
","x: 221.2095184326172
y: 548.5582275390625
z: 0.04030385985970497
visibility: 0.885965883731842
","x: 211.12435913085938
y: 549.415771484375
z: 0.12232667207717896
visibility: 0.8733794093132019
","x: 221.1186981201172
y: 562.240234375
z: -0.09000559151172638
