uscmakers/ReverseChoreography/data/4_lite_spots_kaytranada.csv
,NOSE,LEFT_EYE_INNER,LEFT_EYE,LEFT_EYE_OUTER,RIGHT_EYE_INNER,RIGHT_EYE,RIGHT_EYE_OUTER,LEFT_EAR,RIGHT_EAR,MOUTH_LEFT,MOUTH_RIGHT,LEFT_SHOULDER,RIGHT_SHOULDER,LEFT_ELBOW,RIGHT_ELBOW,LEFT_WRIST,RIGHT_WRIST,LEFT_PINKY,RIGHT_PINKY,LEFT_INDEX,RIGHT_INDEX,LEFT_THUMB,RIGHT_THUMB,LEFT_HIP,RIGHT_HIP,LEFT_KNEE,RIGHT_KNEE,LEFT_ANKLE,RIGHT_ANKLE,LEFT_HEEL,RIGHT_HEEL,LEFT_FOOT_INDEX,RIGHT_FOOT_INDEX,WRIST,THUMB_CPC,THUMB_MCP,THUMB_IP,THUMB_TIP,INDEX_FINGER_MCP,INDEX_FINGER_PIP,INDEX_FINGER_DIP,INDEX_FINGER_TIP,MIDDLE_FINGER_MCP,MIDDLE_FINGER_PIP,MIDDLE_FINGER_DIP,MIDDLE_FINGER_TIP,RING_FINGER_PIP,RING_FINGER_DIP,RING_FINGER_TIP,RING_FINGER_MCP,PINKY_MCP,PINKY_PIP,PINKY_DIP,PINKY_TIP,WRIST2,THUMB_CPC2,THUMB_MCP2,THUMB_IP2,THUMB_TIP2,INDEX_FINGER_MCP2,INDEX_FINGER_PIP2,INDEX_FINGER_DIP2,INDEX_FINGER_TIP2,MIDDLE_FINGER_MCP2,MIDDLE_FINGER_PIP2,MIDDLE_FINGER_DIP2,MIDDLE_FINGER_TIP2,RING_FINGER_PIP2,RING_FINGER_DIP2,RING_FINGER_TIP2,RING_FINGER_MCP2,PINKY_MCP2,PINKY_PIP2,PINKY_DIP2,PINKY_TIP2
0,"x: 212.72994995117188
y: 247.1006622314453
z: -0.32625842094421387
visibility: 0.9999977350234985
","x: 215.31529235839844
y: 242.37857055664062
z: -0.3130389451980591
visibility: 0.9999877214431763
","x: 216.930908203125
y: 242.80931091308594
z: -0.3130154013633728
visibility: 0.9999897480010986
","x: 218.47691345214844
y: 243.33099365234375
z: -0.31301432847976685
visibility: 0.9999896287918091
","x: 211.09373474121094
y: 242.26930236816406
z: -0.3110214173793793
visibility: 0.9999828338623047
","x: 210.01902770996094
y: 242.6016845703125
z: -0.3110745847225189
visibility: 0.9999849796295166
","x: 208.85723876953125
y: 242.94186401367188
z: -0.31106865406036377
visibility: 0.9999812841415405
","x: 221.37867736816406
y: 248.196533203125
z: -0.21247370541095734
visibility: 0.9999842643737793
","x: 207.7804412841797
y: 247.8608856201172
z: -0.20165693759918213
visibility: 0.9999544620513916
","x: 216.22055053710938
y: 255.83526611328125
z: -0.28705668449401855
visibility: 0.9999967813491821
","x: 210.31622314453125
y: 255.3467559814453
z: -0.28414660692214966
visibility: 0.9999911785125732
","x: 234.82752990722656
y: 291.953125
z: -0.13095112144947052
visibility: 0.9999973773956299
","x: 196.31130981445312
y: 288.1282958984375
z: -0.11054795980453491
visibility: 0.9999637603759766
","x: 246.0946044921875
y: 336.9959716796875
z: -0.07655096054077148
visibility: 0.9984493255615234
","x: 191.2053680419922
y: 333.8250732421875
z: -0.06565109640359879
visibility: 0.9747297167778015
","x: 257.30755615234375
y: 371.2322692871094
z: -0.16650336980819702
visibility: 0.9966390132904053
","x: 181.69073486328125
y: 362.7366638183594
z: -0.17967592179775238
visibility: 0.9797124862670898
","x: 260.8348083496094
y: 382.4552917480469
z: -0.18927253782749176
visibility: 0.9902509450912476
","x: 176.03518676757812
y: 369.7724914550781
z: -0.21187281608581543
visibility: 0.9618122577667236
","x: 260.28546142578125
y: 381.7305908203125
z: -0.2228240668773651
visibility: 0.9916396737098694
","x: 175.2711944580078
y: 369.5299072265625
z: -0.2468140870332718
visibility: 0.9658761024475098
","x: 258.7977600097656
y: 378.0774230957031
z: -0.1812218874692917
visibility: 0.9883936047554016
","x: 177.43960571289062
y: 367.51177978515625
z: -0.19745604693889618
visibility: 0.9575177431106567
","x: 226.388671875
y: 391.8381042480469
z: -0.012045245617628098
visibility: 0.9999517202377319
","x: 203.2342071533203
y: 390.431396484375
z: 0.011893713846802711
visibility: 0.999915599822998
","x: 230.3196258544922
y: 466.4794616699219
z: -0.07273248583078384
visibility: 0.9986391663551331
","x: 184.05958557128906
y: 459.40985107421875
z: -0.08098387718200684
visibility: 0.9988923668861389
","x: 234.64073181152344
y: 538.6823120117188
z: 0.12190797179937363
visibility: 0.9983925223350525
","x: 179.96629333496094
y: 516.8255615234375
z: 0.16300398111343384
visibility: 0.9966251850128174
","x: 234.9718017578125
y: 548.2866821289062
z: 0.1341860443353653
visibility: 0.8972671627998352
","x: 181.6858673095703
y: 519.4825439453125
z: 0.18162395060062408
visibility: 0.9376054406166077
","x: 228.39572143554688
y: 561.8896484375
z: 0.0018826499581336975
visibility: 0.9967119693756104
","x: 179.17210388183594
y: 553.7740478515625
z: 0.07904937863349915
visibility: 0.9947729706764221
",,,,,,,,,,,,,,,,,,,,,,,,,,,,,,,,,,,,,,,,,,
1,"x: 201.35069274902344
y: 252.72482299804688
z: -0.30148595571517944
visibility: 0.9999977946281433
","x: 203.746826171875
y: 246.13314819335938
z: -0.2948783040046692
visibility: 0.9999884366989136
","x: 205.26217651367188
y: 246.27235412597656
z: -0.2948843240737915
visibility: 0.9999903440475464
","x: 206.88174438476562
y: 246.5398406982422
z: -0.29492661356925964
visibility: 0.9999902844429016
","x: 199.6566925048828
y: 246.5745391845703
z: -0.2880852222442627
visibility: 0.9999837279319763
","x: 198.3277130126953
y: 246.94317626953125
z: -0.2881057858467102
visibility: 0.9999855160713196
","x: 197.08065795898438
y: 247.37451171875
z: -0.28805825114250183
visibility: 0.9999818801879883
","x: 210.9404754638672
y: 250.89805603027344
z: -0.21310937404632568
visibility: 0.9999853372573853
","x: 197.0145263671875
y: 251.41900634765625
z: -0.18551591038703918
visibility: 0.9999566674232483
","x: 204.72735595703125
y: 259.9810485839844
z: -0.27033931016921997
visibility: 0.9999969005584717
","x: 199.47509765625
y: 260.2469177246094
z: -0.2612280249595642
visibility: 0.9999915361404419
","x: 225.73513793945312
y: 295.8105163574219
z: -0.13781490921974182
visibility: 0.9999971389770508
","x: 187.98182678222656
y: 289.7474365234375
z: -0.09838138520717621
visibility: 0.9999647736549377
","x: 243.6366729736328
y: 338.7048034667969
z: -0.10122066736221313
visibility: 0.9982483386993408
","x: 186.92909240722656
y: 333.01495361328125
z: -0.0022627864964306355
visibility: 0.967756450176239
","x: 263.3710632324219
y: 370.7986755371094
z: -0.18285974860191345
visibility: 0.9958153963088989
","x: 175.8381805419922
y: 357.1934509277344
z: -0.030773261561989784
visibility: 0.9750298261642456
","x: 270.09393310546875
y: 380.0361328125
z: -0.19894352555274963
visibility: 0.9884820580482483
","x: 171.95858764648438
y: 361.73992919921875
z: -0.04085078090429306
visibility: 0.9552008509635925
","x: 270.7803039550781
y: 379.2303771972656
z: -0.2343689203262329
visibility: 0.9901841282844543
","x: 171.07077026367188
y: 360.73687744140625
z: -0.06921341270208359
visibility: 0.9600904583930969
","x: 268.08935546875
y: 376.6036682128906
z: -0.1987055093050003
visibility: 0.9869059324264526
","x: 172.88055419921875
y: 359.5152587890625
z: -0.04379851371049881
visibility: 0.9521094560623169
","x: 214.1880340576172
y: 395.6927490234375
z: -0.012062327936291695
visibility: 0.999946653842926
","x: 192.09552001953125
y: 392.51153564453125
z: 0.011911732144653797
visibility: 0.9999085068702698
","x: 218.4391326904297
y: 470.2554626464844
z: -0.0036704610101878643
visibility: 0.9986023306846619
","x: 184.17941284179688
y: 470.3946228027344
z: 0.007905406877398491
visibility: 0.9988689422607422
","x: 231.75198364257812
y: 536.2593994140625
z: 0.15929986536502838
visibility: 0.9983712434768677
","x: 180.65200805664062
y: 529.838134765625
z: 0.21527616679668427
visibility: 0.9964593052864075
","x: 233.28326416015625
y: 542.6250610351562
z: 0.16995462775230408
visibility: 0.8975197672843933
","x: 182.92971801757812
y: 537.7435302734375
z: 0.23111538589000702
visibility: 0.9331769943237305
","x: 228.07154846191406
y: 562.548095703125
z: 0.05688069015741348
visibility: 0.9965757131576538
","x: 178.0211181640625
y: 554.6640625
z: 0.13949720561504364
visibility: 0.9944755434989929
",,,,,,,,,,,,,,,,,,,,,,,,,,,,,,,,,,,,,,,,,,
2,"x: 196.4443817138672
y: 258.8359375
z: -0.3090395927429199
visibility: 0.9999954700469971
","x: 198.63540649414062
y: 252.43585205078125
z: -0.29958900809288025
visibility: 0.9999794960021973
","x: 200.05081176757812
y: 252.584228515625
z: -0.2995813190937042
visibility: 0.9999833703041077
","x: 201.58787536621094
y: 252.80996704101562
z: -0.2996044456958771
visibility: 0.9999842643737793
","x: 195.11703491210938
y: 252.5572967529297
z: -0.2946151793003082
visibility: 0.9999686479568481
","x: 193.9349365234375
y: 252.82879638671875
z: -0.2946341633796692
visibility: 0.999968409538269
","x: 192.80880737304688
y: 253.15000915527344
z: -0.2946076989173889
visibility: 0.9999549388885498
","x: 205.19442749023438
y: 256.4883728027344
z: -0.21525557339191437
visibility: 0.9999765753746033
","x: 192.5220489501953
y: 256.73541259765625
z: -0.1868903934955597
visibility: 0.9998803734779358
","x: 199.32052612304688
y: 265.78656005859375
z: -0.27450114488601685
visibility: 0.9999938607215881
","x: 194.7706298828125
y: 265.0908203125
z: -0.2674606740474701
visibility: 0.9999802708625793
","x: 219.64141845703125
y: 300.8226623535156
z: -0.14168843626976013
visibility: 0.9999962449073792
","x: 184.99330139160156
y: 295.09490966796875
z: -0.09507372230291367
visibility: 0.9999140501022339
","x: 233.0093536376953
y: 348.5255432128906
z: -0.09893818199634552
visibility: 0.9977129101753235
","x: 188.15023803710938
y: 340.3343505859375
z: -0.023095089942216873
visibility: 0.9043115973472595
","x: 248.1953125
y: 395.1109313964844
z: -0.16225875914096832
visibility: 0.9929525256156921
","x: 191.9739990234375
y: 382.37255859375
z: -0.11067412793636322
visibility: 0.8990276455879211
","x: 252.69140625
y: 409.68121337890625
z: -0.1768273264169693
visibility: 0.981650710105896
","x: 191.53372192382812
y: 391.40997314453125
z: -0.13742586970329285
visibility: 0.8797040581703186
","x: 251.11038208007812
y: 410.04046630859375
z: -0.2079913318157196
visibility: 0.9841762781143188
","x: 191.22332763671875
y: 391.6470031738281
z: -0.17036521434783936
visibility: 0.885353147983551
","x: 249.27938842773438
y: 405.6460266113281
z: -0.1747591644525528
visibility: 0.979767382144928
","x: 193.18026733398438
y: 389.1561279296875
z: -0.12787041068077087
visibility: 0.8774315118789673
","x: 216.56643676757812
y: 396.06207275390625
z: -0.011604496277868748
visibility: 0.9999412298202515
","x: 194.27146911621094
y: 396.3972473144531
z: 0.011491739191114902
visibility: 0.9998844265937805
","x: 222.04234313964844
y: 470.2492980957031
z: -0.028404435142874718
visibility: 0.9985400438308716
","x: 183.90280151367188
y: 469.5650634765625
z: 0.0013790681259706616
visibility: 0.9987213611602783
","x: 232.3334503173828
y: 536.943115234375
z: 0.1575063169002533
visibility: 0.9983319044113159
","x: 180.04295349121094
y: 526.7711181640625
z: 0.21671852469444275
visibility: 0.9962693452835083
","x: 234.24212646484375
y: 546.5338745117188
z: 0.1569630652666092
visibility: 0.8979486227035522
","x: 182.53541564941406
y: 532.52490234375
z: 0.2320215404033661
visibility: 0.9291333556175232
","x: 228.16250610351562
y: 562.5418701171875
z: 0.024686191231012344
visibility: 0.9964409470558167
","x: 178.0556640625
y: 555.3362426757812
z: 0.12990154325962067
visibility: 0.9940505027770996
",,,,,,,,,,,,,,,,,,,,,,,,,,,,,,,,,,,,,,,,,,
3,"x: 195.99142456054688
y: 257.2543640136719
z: -0.26548951864242554
visibility: 0.9999957084655762
","x: 198.00526428222656
y: 252.02206420898438
z: -0.25790682435035706
visibility: 0.9999805092811584
","x: 199.4627685546875
y: 252.10472106933594
z: -0.2579077482223511
visibility: 0.9999842047691345
","x: 201.08497619628906
y: 251.68017578125
z: -0.25790151953697205
visibility: 0.9999850988388062
","x: 194.50106811523438
y: 251.21786499023438
z: -0.24755433201789856
visibility: 0.9999699592590332
","x: 193.55751037597656
y: 251.41314697265625
z: -0.24753884971141815
visibility: 0.9999695420265198
","x: 192.4064483642578
y: 251.61871337890625
z: -0.24751102924346924
visibility: 0.9999570846557617
","x: 205.18190002441406
y: 255.082275390625
z: -0.1876590996980667
visibility: 0.999978244304657
","x: 192.40415954589844
y: 255.43865966796875
z: -0.13698989152908325
visibility: 0.9998859763145447
","x: 199.41751098632812
y: 265.3665771484375
z: -0.23784737288951874
visibility: 0.9999942779541016
","x: 194.70652770996094
y: 263.8426513671875
z: -0.22358794510364532
visibility: 0.9999814629554749
","x: 220.3531494140625
y: 299.59881591796875
z: -0.1427084505558014
visibility: 0.9999964237213135
","x: 185.4198455810547
y: 294.4527893066406
z: -0.03453671187162399
visibility: 0.9999168515205383
","x: 232.47525024414062
y: 346.9105224609375
z: -0.11628232151269913
visibility: 0.9978548884391785
","x: 186.36483764648438
y: 341.20709228515625
z: 0.038300998508930206
visibility: 0.894850492477417
","x: 241.65896606445312
y: 393.0685119628906
z: -0.18249158561229706
visibility: 0.9933769702911377
","x: 181.59207153320312
y: 379.35528564453125
z: -0.05188146233558655
visibility: 0.9033308625221252
","x: 243.64637756347656
y: 408.3773193359375
z: -0.2048790454864502
visibility: 0.9826530814170837
","x: 179.82449340820312
y: 391.8597717285156
z: -0.07368836551904678
visibility: 0.882762610912323
","x: 241.52752685546875
y: 408.5195617675781
z: -0.2305944710969925
visibility: 0.9850122928619385
","x: 179.57699584960938
y: 390.8540344238281
z: -0.11027637869119644
visibility: 0.888640284538269
","x: 240.36009216308594
y: 403.9739685058594
z: -0.19309373199939728
visibility: 0.9807322025299072
","x: 181.09271240234375
y: 386.8570251464844
z: -0.06992501020431519
visibility: 0.8802341818809509
","x: 212.419189453125
y: 396.1397705078125
z: -0.03378399461507797
visibility: 0.9999434351921082
","x: 191.2410430908203
y: 395.7168273925781
z: 0.03364969789981842
visibility: 0.999890148639679
","x: 214.83172607421875
y: 470.9457092285156
z: -0.05751604586839676
visibility: 0.9985669851303101
","x: 176.2847137451172
y: 468.2429504394531
z: -0.009483780711889267
visibility: 0.9987363815307617
","x: 230.08811950683594
y: 536.8483276367188
z: 0.12768706679344177
visibility: 0.9984190464019775
","x: 180.07350158691406
y: 526.3272705078125
z: 0.20009693503379822
visibility: 0.9965091943740845
","x: 233.38145446777344
y: 545.1751098632812
z: 0.13534201681613922
visibility: 0.9003394842147827
","x: 185.28152465820312
y: 535.1268920898438
z: 0.21590754389762878
visibility: 0.9342665076255798
","x: 226.81361389160156
y: 562.7877197265625
z: 0.00938158854842186
visibility: 0.9966075420379639
","x: 176.0534210205078
y: 554.0064697265625
z: 0.1170898899435997
visibility: 0.9944266080856323
",,,,,,,,,,,,,,,,,,,,,,,,,,,,,,,,,,,,,,,,,,
4,"x: 195.07196044921875
y: 256.61212158203125
z: -0.28524094820022583
visibility: 0.9999958872795105
","x: 197.06820678710938
y: 250.84402465820312
z: -0.2783869206905365
visibility: 0.9999812245368958
","x: 198.41270446777344
y: 250.83377075195312
z: -0.27837905287742615
visibility: 0.9999847412109375
","x: 199.99850463867188
y: 250.64894104003906
z: -0.2783864140510559
visibility: 0.9999855756759644
","x: 193.7678985595703
y: 251.07989501953125
z: -0.2694399356842041
visibility: 0.9999710917472839
","x: 192.8843536376953
y: 251.48458862304688
z: -0.26945024728775024
visibility: 0.999970555305481
","x: 191.7765655517578
y: 251.92605590820312
z: -0.2694232761859894
visibility: 0.9999589920043945
","x: 204.31884765625
y: 254.41091918945312
z: -0.21011753380298615
visibility: 0.9999794363975525
","x: 191.87413024902344
y: 255.82666015625
z: -0.16114212572574615
visibility: 0.9998910427093506
","x: 198.46334838867188
y: 264.02069091796875
z: -0.25552839040756226
visibility: 0.9999945759773254
","x: 194.0515899658203
y: 263.41937255859375
z: -0.24329379200935364
visibility: 0.9999825358390808
","x: 220.076416015625
y: 299.4423522949219
z: -0.16467329859733582
visibility: 0.9999964833259583
","x: 184.0196075439453
y: 295.2440185546875
z: -0.06240683048963547
visibility: 0.9999235272407532
","x: 232.3686981201172
y: 346.45806884765625
z: -0.13633961975574493
visibility: 0.99798184633255
","x: 181.80270385742188
y: 341.24334716796875
z: 0.0029913729522377253
visibility: 0.8981553316116333
","x: 241.75291442871094
y: 392.2454528808594
z: -0.1957690268754959
visibility: 0.993615448474884
","x: 170.15870666503906
y: 377.1076965332031
z: -0.08516047894954681
visibility: 0.9095481634140015
","x: 243.77174377441406
y: 406.1077880859375
z: -0.21889838576316833
visibility: 0.9831137657165527
","x: 165.8400421142578
y: 389.1803283691406
z: -0.10581289231777191
visibility: 0.88836270570755
","x: 241.59811401367188
y: 405.7845764160156
z: -0.24402646720409393
visibility: 0.9853949546813965
","x: 165.9445037841797
y: 388.19403076171875
z: -0.14361807703971863
visibility: 0.8943231105804443
","x: 240.7001495361328
y: 402.218505859375
z: -0.20638123154640198
visibility: 0.9812240600585938
","x: 167.86993408203125
y: 384.0559387207031
z: -0.10348769277334213
visibility: 0.8860615491867065
","x: 210.50747680664062
y: 396.8655090332031
z: -0.035123810172080994
visibility: 0.9999445676803589
","x: 189.29412841796875
y: 395.3113098144531
z: 0.03500175103545189
visibility: 0.999895453453064
","x: 205.58880615234375
y: 471.4271240234375
z: -0.05772634223103523
visibility: 0.9985393285751343
","x: 177.3922119140625
y: 468.9306335449219
z: 0.01825287751853466
visibility: 0.9985482692718506
","x: 225.6175537109375
y: 533.7731323242188
z: 0.12485723197460175
visibility: 0.9984565377235413
","x: 182.50559997558594
y: 533.011962890625
z: 0.19584129750728607
visibility: 0.996647298336029
","x: 228.31005859375
y: 537.805908203125
z: 0.1348150670528412
visibility: 0.9050655364990234
","x: 187.78482055664062
y: 541.289794921875
z: 0.21031053364276886
visibility: 0.9378675222396851
","x: 226.8536834716797
y: 562.7568969726562
z: 0.025815850123763084
visibility: 0.9967139959335327
","x: 175.9302978515625
y: 555.17138671875
z: 0.11186192184686661
visibility: 0.9946613311767578
","x: 167.75572204589844
y: 374.98895263671875
z: 0.0
","x: 166.15426635742188
y: 379.3874816894531
z: -0.0013170227175578475
","x: 164.25440979003906
y: 384.242919921875
z: -0.002010482596233487
","x: 163.13465881347656
y: 389.53814697265625
z: -0.0027649258263409138
","x: 162.704345703125
y: 394.2254638671875
z: -0.003038135590031743
","x: 161.36569213867188
y: 387.9660339355469
z: 0.00011404744873289019
","x: 160.3837432861328
y: 395.41046142578125
z: -0.0008515494409948587
","x: 161.71568298339844
y: 398.51446533203125
z: -0.001403961912728846
","x: 163.312744140625
y: 399.48016357421875
z: -0.001502445200458169
","x: 162.02130126953125
y: 389.06427001953125
z: -2.5109473426709883e-05
","x: 161.05076599121094
y: 396.52886962890625
z: -0.0010568412253633142
","x: 162.44692993164062
y: 399.52301025390625
z: -0.0017699555028229952
","x: 163.92088317871094
y: 400.2657775878906
z: -0.0020168519113212824
","x: 162.93057250976562
y: 389.7634582519531
z: -0.00048044303548522294
","x: 161.94363403320312
y: 396.3717041015625
z: -0.0009092786931432784
","x: 163.11302185058594
y: 399.1546325683594
z: -0.001103023299947381
","x: 164.3199462890625
y: 399.9136047363281
z: -0.0011737288441509008
","x: 164.0699462890625
y: 390.0639343261719
z: -0.0012485007755458355
","x: 163.16897583007812
y: 395.33770751953125
z: -0.0012633490841835737
","x: 163.65438842773438
y: 397.70281982421875
z: -0.0012351361801847816
","x: 164.3274383544922
y: 398.6251220703125
z: -0.0011413272004574537
",,,,,,,,,,,,,,,,,,,,,
5,"x: 195.07196044921875
y: 256.61212158203125
z: -0.28524094820022583
visibility: 0.9999958872795105
","x: 197.06820678710938
y: 250.84402465820312
z: -0.2783869206905365
visibility: 0.9999812245368958
","x: 198.41270446777344
y: 250.83377075195312
z: -0.27837905287742615
visibility: 0.9999847412109375
","x: 199.99850463867188
y: 250.64894104003906
z: -0.2783864140510559
visibility: 0.9999855756759644
","x: 193.7678985595703
y: 251.07989501953125
z: -0.2694399356842041
visibility: 0.9999710917472839
","x: 192.8843536376953
y: 251.48458862304688
z: -0.26945024728775024
visibility: 0.999970555305481
","x: 191.7765655517578
y: 251.92605590820312
z: -0.2694232761859894
visibility: 0.9999589920043945
","x: 204.31884765625
y: 254.41091918945312
z: -0.21011753380298615
visibility: 0.9999794363975525
","x: 191.87413024902344
y: 255.82666015625
z: -0.16114212572574615
visibility: 0.9998910427093506
","x: 198.46334838867188
y: 264.02069091796875
z: -0.25552839040756226
visibility: 0.9999945759773254
","x: 194.0515899658203
y: 263.41937255859375
z: -0.24329379200935364
visibility: 0.9999825358390808
","x: 220.076416015625
y: 299.4423522949219
z: -0.16467329859733582
visibility: 0.9999964833259583
","x: 184.0196075439453
y: 295.2440185546875
z: -0.06240683048963547
visibility: 0.9999235272407532
","x: 232.3686981201172
y: 346.45806884765625
z: -0.13633961975574493
visibility: 0.99798184633255
","x: 181.80270385742188
y: 341.24334716796875
z: 0.0029913729522377253
visibility: 0.8981553316116333
","x: 241.75291442871094
y: 392.2454528808594
z: -0.1957690268754959
visibility: 0.993615448474884
","x: 170.15870666503906
y: 377.1076965332031
z: -0.08516047894954681
visibility: 0.9095481634140015
","x: 243.77174377441406
y: 406.1077880859375
z: -0.21889838576316833
visibility: 0.9831137657165527
","x: 165.8400421142578
y: 389.1803283691406
z: -0.10581289231777191
visibility: 0.88836270570755
","x: 241.59811401367188
y: 405.7845764160156
z: -0.24402646720409393
visibility: 0.9853949546813965
","x: 165.9445037841797
y: 388.19403076171875
z: -0.14361807703971863
visibility: 0.8943231105804443
","x: 240.7001495361328
y: 402.218505859375
z: -0.20638123154640198
visibility: 0.9812240600585938
","x: 167.86993408203125
y: 384.0559387207031
z: -0.10348769277334213
visibility: 0.8860615491867065
","x: 210.50747680664062
y: 396.8655090332031
z: -0.035123810172080994
visibility: 0.9999445676803589
","x: 189.29412841796875
y: 395.3113098144531
z: 0.03500175103545189
visibility: 0.999895453453064
","x: 205.58880615234375
y: 471.4271240234375
z: -0.05772634223103523
visibility: 0.9985393285751343
","x: 177.3922119140625
y: 468.9306335449219
z: 0.01825287751853466
visibility: 0.9985482692718506
","x: 225.6175537109375
y: 533.7731323242188
z: 0.12485723197460175
visibility: 0.9984565377235413
","x: 182.50559997558594
y: 533.011962890625
z: 0.19584129750728607
visibility: 0.996647298336029
","x: 228.31005859375
y: 537.805908203125
z: 0.1348150670528412
visibility: 0.9050655364990234
","x: 187.78482055664062
y: 541.289794921875
z: 0.21031053364276886
visibility: 0.9378675222396851
","x: 226.8536834716797
y: 562.7568969726562
z: 0.025815850123763084
visibility: 0.9967139959335327
","x: 175.9302978515625
y: 555.17138671875
z: 0.11186192184686661
visibility: 0.9946613311767578
","x: 167.75572204589844
y: 374.98895263671875
z: 0.0
","x: 166.15426635742188
y: 379.3874816894531
z: -0.0013170227175578475
","x: 164.25440979003906
y: 384.242919921875
z: -0.002010482596233487
","x: 163.13465881347656
y: 389.53814697265625
z: -0.0027649258263409138
","x: 162.704345703125
y: 394.2254638671875
z: -0.003038135590031743
","x: 161.36569213867188
y: 387.9660339355469
z: 0.00011404744873289019
","x: 160.3837432861328
y: 395.41046142578125
z: -0.0008515494409948587
","x: 161.71568298339844
y: 398.51446533203125
z: -0.001403961912728846
","x: 163.312744140625
y: 399.48016357421875
z: -0.001502445200458169
","x: 162.02130126953125
y: 389.06427001953125
z: -2.5109473426709883e-05
","x: 161.05076599121094
y: 396.52886962890625
z: -0.0010568412253633142
","x: 162.44692993164062
y: 399.52301025390625
z: -0.0017699555028229952
","x: 163.92088317871094
y: 400.2657775878906
z: -0.0020168519113212824
","x: 162.93057250976562
y: 389.7634582519531
z: -0.00048044303548522294
","x: 161.94363403320312
y: 396.3717041015625
z: -0.0009092786931432784
","x: 163.11302185058594
y: 399.1546325683594
z: -0.001103023299947381
","x: 164.3199462890625
y: 399.9136047363281
z: -0.0011737288441509008
","x: 164.0699462890625
y: 390.0639343261719
z: -0.0012485007755458355
","x: 163.16897583007812
y: 395.33770751953125
z: -0.0012633490841835737
","x: 163.65438842773438
y: 397.70281982421875
z: -0.0012351361801847816
","x: 164.3274383544922
y: 398.6251220703125
z: -0.0011413272004574537
",,,,,,,,,,,,,,,,,,,,,
6,"x: 195.62721252441406
y: 256.8298645019531
z: -0.29062989354133606
visibility: 0.9999960660934448
","x: 197.41456604003906
y: 251.2677001953125
z: -0.28410524129867554
visibility: 0.9999821186065674
","x: 198.8299560546875
y: 251.29385375976562
z: -0.28403183817863464
visibility: 0.9999854564666748
","x: 200.35311889648438
y: 251.3314666748047
z: -0.28397414088249207
visibility: 0.9999861717224121
","x: 193.85293579101562
y: 251.86184692382812
z: -0.27002987265586853
visibility: 0.9999728798866272
","x: 192.80853271484375
y: 252.3768310546875
z: -0.2700996696949005
visibility: 0.9999725222587585
","x: 191.64694213867188
y: 252.94696044921875
z: -0.2700897753238678
visibility: 0.9999617338180542
","x: 203.8234405517578
y: 255.5565643310547
z: -0.22613850235939026
visibility: 0.9999803304672241
","x: 190.96115112304688
y: 257.48272705078125
z: -0.1847434639930725
visibility: 0.9998993277549744
","x: 198.98011779785156
y: 264.1620178222656
z: -0.26653629541397095
visibility: 0.9999948143959045
","x: 194.08135986328125
y: 263.9981994628906
z: -0.252108633518219
visibility: 0.9999836683273315
","x: 218.9910125732422
y: 302.3975524902344
z: -0.16944313049316406
visibility: 0.999995768070221
","x: 182.3149871826172
y: 297.26788330078125
z: -0.094449482858181
visibility: 0.9999297261238098
","x: 232.5079803466797
y: 350.5061340332031
z: -0.13115522265434265
visibility: 0.9979633688926697
","x: 179.64303588867188
y: 342.5239562988281
z: -0.007627125829458237
visibility: 0.9056047201156616
","x: 243.53514099121094
y: 396.9278259277344
z: -0.18922215700149536
visibility: 0.993390679359436
","x: 168.59616088867188
y: 377.58416748046875
z: -0.09366213530302048
visibility: 0.9170913696289062
","x: 246.4286651611328
y: 411.552490234375
z: -0.21024322509765625
visibility: 0.9825579524040222
","x: 164.28207397460938
y: 390.11029052734375
z: -0.11062683910131454
visibility: 0.8964888453483582
","x: 244.7299346923828
y: 411.3655090332031
z: -0.23857340216636658
visibility: 0.9848707318305969
","x: 164.74813842773438
y: 388.73614501953125
z: -0.14398156106472015
visibility: 0.9022032618522644
","x: 243.3115997314453
y: 406.85040283203125
z: -0.2014612853527069
visibility: 0.9805607199668884
","x: 166.4275665283203
y: 384.7964172363281
z: -0.10932181775569916
visibility: 0.8942983746528625
","x: 213.5854034423828
y: 398.1970520019531
z: -0.030975621193647385
visibility: 0.9999347925186157
","x: 191.49310302734375
y: 399.0095520019531
z: 0.030843418091535568
visibility: 0.9998924732208252
","x: 219.3047637939453
y: 471.5779113769531
z: -0.006792175117880106
visibility: 0.9986133575439453
","x: 183.7543487548828
y: 472.7557373046875
z: 0.05697387456893921
visibility: 0.9985835552215576
","x: 228.5386962890625
y: 534.461669921875
z: 0.12241865694522858
visibility: 0.9985477924346924
","x: 183.0094757080078
y: 534.4947509765625
z: 0.20646221935749054
visibility: 0.9968560934066772
","x: 229.71420288085938
y: 541.105224609375
z: 0.1273745447397232
visibility: 0.9097442030906677
","x: 187.14431762695312
y: 542.7872924804688
z: 0.21511432528495789
visibility: 0.9408765435218811
","x: 228.15357971191406
y: 562.7256469726562
z: 0.007775900419801474
visibility: 0.9968773126602173
","x: 175.95626831054688
y: 555.4068603515625
z: 0.11668942123651505
visibility: 0.994970977306366
",,,,,,,,,,,,,,,,,,,,,,,,,,,,,,,,,,,,,,,,,,
7,"x: 195.06459045410156
y: 263.1183776855469
z: -0.3697749972343445
visibility: 0.9999961853027344
","x: 197.0384521484375
y: 256.0372009277344
z: -0.36420097947120667
visibility: 0.9999826550483704
","x: 198.53359985351562
y: 255.98782348632812
z: -0.36414867639541626
visibility: 0.9999860525131226
","x: 200.0789794921875
y: 255.98321533203125
z: -0.3641339838504791
visibility: 0.999986469745636
","x: 193.44729614257812
y: 256.4898986816406
z: -0.35669928789138794
visibility: 0.999973714351654
","x: 192.32846069335938
y: 256.77008056640625
z: -0.3567546010017395
visibility: 0.999973714351654
","x: 191.18829345703125
y: 257.12457275390625
z: -0.35672885179519653
visibility: 0.9999634623527527
","x: 203.29872131347656
y: 258.95562744140625
z: -0.2841767966747284
visibility: 0.9999809265136719
","x: 190.4958038330078
y: 260.5130615234375
z: -0.2511283755302429
visibility: 0.9999063611030579
","x: 198.48141479492188
y: 269.4034118652344
z: -0.3369573950767517
visibility: 0.9999949932098389
","x: 193.51528930664062
y: 269.8960266113281
z: -0.32738715410232544
visibility: 0.9999845623970032
","x: 218.0436248779297
y: 304.1727294921875
z: -0.20362523198127747
visibility: 0.9999960064888
","x: 182.4605255126953
y: 299.451416015625
z: -0.13707199692726135
visibility: 0.9999352693557739
","x: 231.7242431640625
y: 350.7279052734375
z: -0.15438051521778107
visibility: 0.9980530738830566
","x: 180.68841552734375
y: 342.1417236328125
z: -0.009117895737290382
visibility: 0.9120842218399048
","x: 245.02755737304688
y: 397.7120361328125
z: -0.2208264321088791
visibility: 0.9937466382980347
","x: 171.3722686767578
y: 376.20068359375
z: -0.012843266129493713
visibility: 0.9239175915718079
","x: 248.1699981689453
y: 412.24932861328125
z: -0.23759841918945312
visibility: 0.9832749366760254
","x: 167.26327514648438
y: 387.7244567871094
z: -0.019661778584122658
visibility: 0.9038387537002563
","x: 246.37307739257812
y: 412.3324279785156
z: -0.2731439173221588
visibility: 0.9854851961135864
","x: 167.3485870361328
y: 386.852783203125
z: -0.053239692002534866
visibility: 0.9092767238616943
","x: 244.90480041503906
y: 407.8780822753906
z: -0.2353093922138214
visibility: 0.9812495708465576
","x: 169.07144165039062
y: 383.23101806640625
z: -0.025794226676225662
visibility: 0.9015238285064697
","x: 214.8120880126953
y: 397.9462890625
z: -0.024067465215921402
visibility: 0.9999375343322754
","x: 192.6214599609375
y: 399.4311218261719
z: 0.023948034271597862
visibility: 0.9998972415924072
","x: 224.96951293945312
y: 471.42437744140625
z: -0.0283237062394619
visibility: 0.9986911416053772
","x: 184.89944458007812
y: 472.3750305175781
z: 0.02161525934934616
visibility: 0.9986488223075867
","x: 232.07095336914062
y: 535.2987060546875
z: 0.12275536358356476
visibility: 0.998631477355957
","x: 181.6303253173828
y: 532.306396484375
z: 0.2320437878370285
visibility: 0.9970163106918335
","x: 232.20492553710938
y: 544.8021850585938
z: 0.12940123677253723
visibility: 0.9145947098731995
","x: 184.5727996826172
y: 540.4472045898438
z: 0.24669954180717468
visibility: 0.9429447054862976
","x: 230.0156707763672
y: 562.7185668945312
z: 0.005945625714957714
visibility: 0.9970362186431885
","x: 176.01840209960938
y: 555.9996337890625
z: 0.15096734464168549
visibility: 0.9952130913734436
",,,,,,,,,,,,,,,,,,,,,,,,,,,,,,,,,,,,,,,,,,
8,"x: 195.6004638671875
y: 261.056884765625
z: -0.34290096163749695
visibility: 0.9999962449073792
","x: 197.66342163085938
y: 254.40713500976562
z: -0.33486345410346985
visibility: 0.9999826550483704
","x: 199.10784912109375
y: 254.40988159179688
z: -0.3348374366760254
visibility: 0.9999861121177673
","x: 200.59835815429688
y: 254.49404907226562
z: -0.3348359167575836
visibility: 0.999986469745636
","x: 194.1107635498047
y: 254.92727661132812
z: -0.32793471217155457
visibility: 0.9999732375144958
","x: 193.06912231445312
y: 255.29371643066406
z: -0.3279726505279541
visibility: 0.9999735355377197
","x: 192.06451416015625
y: 255.75830078125
z: -0.327957421541214
visibility: 0.999963641166687
","x: 203.67050170898438
y: 257.89910888671875
z: -0.2515982985496521
visibility: 0.9999814629554749
","x: 191.55001831054688
y: 259.325927734375
z: -0.22306962311267853
visibility: 0.9999089241027832
","x: 199.16160583496094
y: 267.8506164550781
z: -0.3090601861476898
visibility: 0.999995231628418
","x: 193.9142303466797
y: 268.073974609375
z: -0.2999218702316284
visibility: 0.9999852180480957
","x: 219.2022705078125
y: 303.1234130859375
z: -0.18043169379234314
visibility: 0.9999962449073792
","x: 183.00067138671875
y: 298.3698425292969
z: -0.12646397948265076
visibility: 0.9999392032623291
","x: 232.83128356933594
y: 349.7889709472656
z: -0.13379772007465363
visibility: 0.9981725215911865
","x: 181.4528045654297
y: 341.57879638671875
z: -0.039733827114105225
visibility: 0.9168535470962524
","x: 246.18707275390625
y: 394.0622253417969
z: -0.2144773304462433
visibility: 0.9941585063934326
","x: 172.93515014648438
y: 375.3454895019531
z: -0.15298739075660706
visibility: 0.9295819997787476
","x: 249.43251037597656
y: 407.9422607421875
z: -0.23749597370624542
visibility: 0.9842886328697205
","x: 168.5614013671875
y: 386.21868896484375
z: -0.1833568811416626
visibility: 0.9098437428474426
","x: 247.85691833496094
y: 407.7591247558594
z: -0.27152860164642334
visibility: 0.9863691329956055
","x: 167.7938232421875
y: 385.4925842285156
z: -0.21872207522392273
visibility: 0.9151365160942078
","x: 246.40927124023438
y: 403.4997253417969
z: -0.2290182113647461
visibility: 0.9823182225227356
","x: 169.9619140625
y: 382.05426025390625
z: -0.17081120610237122
visibility: 0.9073284268379211
","x: 213.671875
y: 397.8011474609375
z: -0.02326345257461071
visibility: 0.9999407529830933
","x: 191.9873046875
y: 398.6599426269531
z: 0.023141300305724144
visibility: 0.9999028444290161
","x: 219.15249633789062
y: 471.3229064941406
z: -0.06066262722015381
visibility: 0.9987369179725647
","x: 176.510498046875
y: 472.1100158691406
z: -0.06601833552122116
visibility: 0.9987310767173767
","x: 231.3648223876953
y: 535.6537475585938
z: 0.1286604106426239
visibility: 0.998699963092804
","x: 178.73231506347656
y: 532.0574340820312
z: 0.1695573627948761
visibility: 0.9971877336502075
","x: 232.2475128173828
y: 544.8319091796875
z: 0.13957665860652924
visibility: 0.9160232543945312
","x: 183.04763793945312
y: 539.53564453125
z: 0.18671198189258575
visibility: 0.9459822773933411
","x: 228.5175323486328
y: 562.9761962890625
z: 0.00660120090469718
visibility: 0.9971730709075928
","x: 175.82872009277344
y: 555.659912109375
z: 0.08048360049724579
visibility: 0.9954830408096313
",,,,,,,,,,,,,,,,,,,,,,,,,,,,,,,,,,,,,,,,,,
9,"x: 195.51512145996094
y: 260.16290283203125
z: -0.3332684636116028
visibility: 0.9999964237213135
","x: 197.59402465820312
y: 253.49325561523438
z: -0.3279288709163666
visibility: 0.9999833106994629
","x: 199.0904998779297
y: 253.4866943359375
z: -0.327889621257782
visibility: 0.9999865889549255
","x: 200.63572692871094
y: 253.57296752929688
z: -0.32784757018089294
visibility: 0.9999869465827942
","x: 194.153564453125
y: 254.0170440673828
z: -0.31859689950942993
visibility: 0.9999741911888123
","x: 193.2223663330078
y: 254.35751342773438
z: -0.3186291456222534
visibility: 0.9999743103981018
","x: 192.33848571777344
y: 254.76234436035156
z: -0.318615198135376
visibility: 0.999965250492096
","x: 204.15219116210938
y: 257.1711120605469
z: -0.25193050503730774
visibility: 0.999982476234436
","x: 192.30618286132812
y: 258.6477355957031
z: -0.21082787215709686
visibility: 0.9999135136604309
","x: 199.35679626464844
y: 267.086669921875
z: -0.3012674152851105
visibility: 0.9999954700469971
","x: 194.07073974609375
y: 267.52142333984375
z: -0.2886510491371155
visibility: 0.999985933303833
","x: 220.3290252685547
y: 302.3514709472656
z: -0.18903730809688568
visibility: 0.9999964833259583
","x: 183.74365234375
y: 298.89813232421875
z: -0.104322150349617
visibility: 0.999944269657135
","x: 233.68731689453125
y: 349.0536193847656
z: -0.16112889349460602
visibility: 0.9982814788818359
","x: 180.76687622070312
y: 344.16546630859375
z: -0.03726768121123314
visibility: 0.9190323352813721
","x: 247.97140502929688
y: 393.44183349609375
z: -0.22606702148914337
visibility: 0.994402289390564
","x: 172.3096923828125
y: 379.8974304199219
z: -0.1350376158952713
visibility: 0.9339609742164612
","x: 252.87557983398438
y: 405.8167724609375
z: -0.24989846348762512
visibility: 0.9849045276641846
","x: 168.44601440429688
y: 393.1066589355469
z: -0.1593146175146103
visibility: 0.9137258529663086
","x: 251.33782958984375
y: 405.5804443359375
z: -0.27794161438941956
visibility: 0.9869168400764465
","x: 168.11642456054688
y: 392.4525451660156
z: -0.19650909304618835
visibility: 0.9190456867218018
","x: 249.51193237304688
y: 401.50762939453125
z: -0.23834538459777832
visibility: 0.9829986095428467
","x: 170.09213256835938
y: 388.3751220703125
z: -0.15319152176380157
visibility: 0.9113468527793884
","x: 209.68280029296875
y: 397.049072265625
z: -0.03799940645694733
visibility: 0.9999447464942932
","x: 188.75155639648438
y: 394.6199951171875
z: 0.03792183846235275
visibility: 0.9999098181724548
","x: 203.066162109375
y: 471.2115173339844
z: -0.09670226275920868
visibility: 0.9987503290176392
","x: 175.06988525390625
y: 465.53125
z: -0.014912200160324574
visibility: 0.9986201524734497
","x: 228.73040771484375
y: 532.9141845703125
z: 0.05279189348220825
visibility: 0.9987802505493164
","x: 178.78868103027344
y: 530.9557495117188
z: 0.17308983206748962
visibility: 0.9973255395889282
","x: 232.3362579345703
y: 537.14453125
z: 0.06104778125882149
visibility: 0.9195975661277771
","x: 184.1971435546875
y: 539.3828125
z: 0.1855321228504181
visibility: 0.9493276476860046
","x: 227.93284606933594
y: 563.3101196289062
z: -0.05322245508432388
visibility: 0.9973148703575134
","x: 173.53512573242188
y: 555.6583251953125
z: 0.08547259867191315
visibility: 0.995703399181366
",,,,,,,,,,,,,,,,,,,,,,,,,,,,,,,,,,,,,,,,,,
10,"x: 195.15280151367188
y: 266.6191711425781
z: -0.35709503293037415
visibility: 0.9999964237213135
","x: 197.29713439941406
y: 258.60614013671875
z: -0.3555496037006378
visibility: 0.9999831914901733
","x: 198.86459350585938
y: 258.1348571777344
z: -0.35553961992263794
visibility: 0.9999863505363464
","x: 200.5137176513672
y: 257.7767028808594
z: -0.3555952310562134
visibility: 0.9999865889549255
","x: 193.87843322753906
y: 259.6999206542969
z: -0.34306198358535767
visibility: 0.9999741911888123
","x: 193.01687622070312
y: 259.8467712402344
z: -0.34310799837112427
visibility: 0.9999741911888123
","x: 192.16644287109375
y: 259.97601318359375
z: -0.3430924713611603
visibility: 0.9999658465385437
","x: 204.24392700195312
y: 259.9586181640625
z: -0.29026180505752563
visibility: 0.9999827742576599
","x: 192.42733764648438
y: 262.5515441894531
z: -0.22950851917266846
visibility: 0.9999162554740906
","x: 199.0257110595703
y: 271.86322021484375
z: -0.3283435106277466
visibility: 0.9999955296516418
","x: 194.03973388671875
y: 272.7042236328125
z: -0.31095895171165466
visibility: 0.9999864101409912
","x: 220.86940002441406
y: 305.6707458496094
z: -0.22105224430561066
visibility: 0.9999966621398926
","x: 183.55938720703125
y: 302.2398681640625
z: -0.11772410571575165
visibility: 0.9999493360519409
","x: 234.15890502929688
y: 352.89508056640625
z: -0.19495472311973572
visibility: 0.9983420372009277
","x: 179.59169006347656
y: 351.4324645996094
z: -0.06201513484120369
visibility: 0.9233745336532593
","x: 249.47862243652344
y: 396.1240234375
z: -0.25344622135162354
visibility: 0.9942880272865295
","x: 170.0977325439453
y: 388.8102722167969
z: -0.1567138135433197
visibility: 0.9385493993759155
","x: 255.38729858398438
y: 408.86334228515625
z: -0.27856770157814026
visibility: 0.9847499132156372
","x: 166.328857421875
y: 402.99176025390625
z: -0.17864811420440674
visibility: 0.9180936217308044
","x: 254.4842987060547
y: 409.1556396484375
z: -0.30537816882133484
visibility: 0.9868074059486389
","x: 166.63290405273438
y: 402.7500915527344
z: -0.21778611838817596
visibility: 0.9233692288398743
","x: 252.38999938964844
y: 405.1554870605469
z: -0.26555535197257996
visibility: 0.9828891158103943
","x: 168.5718231201172
y: 398.6795349121094
z: -0.1753055602312088
visibility: 0.916037380695343
","x: 209.42926025390625
y: 399.714599609375
z: -0.04482629522681236
visibility: 0.9999476671218872
","x: 188.73574829101562
y: 395.5948181152344
z: 0.04479852318763733
visibility: 0.9999160170555115
","x: 201.57208251953125
y: 473.77252197265625
z: -0.11076470464468002
visibility: 0.9987642765045166
","x: 176.1404571533203
y: 468.486083984375
z: -0.000585754809435457
visibility: 0.9984040260314941
","x: 228.42037963867188
y: 532.5087890625
z: 0.05621805787086487
visibility: 0.9988542795181274
","x: 181.74398803710938
y: 533.94580078125
z: 0.17804168164730072
visibility: 0.9974573850631714
","x: 232.1190643310547
y: 535.88671875
z: 0.06619765609502792
visibility: 0.9234243035316467
","x: 187.6173095703125
y: 542.4041137695312
z: 0.19134952127933502
visibility: 0.9528239369392395
","x: 227.77047729492188
y: 563.3281860351562
z: -0.04280918464064598
visibility: 0.9974433779716492
","x: 172.9598388671875
y: 557.5369873046875
z: 0.09110213816165924
visibility: 0.9959144592285156
",,,,,,,,,,,,,,,,,,,,,,,,,,,,,,,,,,,,,,,,,,
11,"x: 198.14373779296875
y: 262.1383056640625
z: -0.34553471207618713
visibility: 0.9999963045120239
","x: 200.15841674804688
y: 258.3437194824219
z: -0.341877281665802
visibility: 0.9999823570251465
","x: 201.34039306640625
y: 257.2228088378906
z: -0.3417489528656006
visibility: 0.99998539686203
","x: 202.52670288085938
y: 256.60040283203125
z: -0.34165874123573303
visibility: 0.9999852776527405
","x: 196.73634338378906
y: 258.1641845703125
z: -0.3314318358898163
visibility: 0.9999743700027466
","x: 195.54478454589844
y: 258.4213562011719
z: -0.3314328193664551
visibility: 0.9999748468399048
","x: 194.4651336669922
y: 258.70062255859375
z: -0.33137160539627075
visibility: 0.9999669790267944
","x: 204.83724975585938
y: 259.7572021484375
z: -0.24364295601844788
visibility: 0.9999791383743286
","x: 193.03863525390625
y: 261.32257080078125
z: -0.22157534956932068
visibility: 0.9999188780784607
","x: 200.75515747070312
y: 271.6533203125
z: -0.3212640881538391
visibility: 0.9999949932098389
","x: 195.2583770751953
y: 271.8762512207031
z: -0.3001021146774292
visibility: 0.999986469745636
","x: 221.14512634277344
y: 307.9970703125
z: -0.17321500182151794
visibility: 0.999994158744812
","x: 183.51560974121094
y: 304.76922607421875
z: -0.14026246964931488
visibility: 0.9999526739120483
","x: 231.78952026367188
y: 363.8038330078125
z: -0.11582740396261215
visibility: 0.9978421330451965
","x: 179.8406982421875
y: 356.1932678222656
z: -0.09480370581150055
visibility: 0.9288881421089172
","x: 242.04843139648438
y: 412.0346374511719
z: -0.17258387804031372
visibility: 0.9916204810142517
","x: 175.64161682128906
y: 396.04833984375
z: -0.16104468703269958
visibility: 0.9410998225212097
","x: 247.22828674316406
y: 424.05859375
z: -0.19207775592803955
visibility: 0.9790510535240173
","x: 174.0149383544922
y: 408.8475341796875
z: -0.18327856063842773
visibility: 0.9188439846038818
","x: 246.12464904785156
y: 424.836669921875
z: -0.22383412718772888
visibility: 0.9816274642944336
","x: 175.53268432617188
y: 407.6639404296875
z: -0.216499924659729
visibility: 0.9241539835929871
","x: 243.6439666748047
y: 420.922607421875
z: -0.1865551769733429
visibility: 0.9771820902824402
","x: 176.6996612548828
y: 403.92901611328125
z: -0.17615953087806702
visibility: 0.9164767265319824
","x: 218.06971740722656
y: 400.64935302734375
z: -0.019158203154802322
visibility: 0.9999426603317261
","x: 195.48634338378906
y: 401.5453796386719
z: 0.019023053348064423
visibility: 0.9999167919158936
","x: 225.09805297851562
y: 474.9182434082031
z: -0.03231033682823181
visibility: 0.9987462162971497
","x: 185.6766815185547
y: 471.47528076171875
z: 0.019845442846417427
visibility: 0.9983859658241272
","x: 228.7514190673828
y: 534.8402099609375
z: 0.14399752020835876
visibility: 0.9988022446632385
","x: 182.9979705810547
y: 533.945068359375
z: 0.1907006949186325
visibility: 0.9975602030754089
","x: 230.56622314453125
y: 542.875
z: 0.1537913829088211
visibility: 0.9244517683982849
","x: 187.5095672607422
y: 542.5460205078125
z: 0.20028862357139587
visibility: 0.9541596174240112
","x: 229.330322265625
y: 563.2337036132812
z: 0.037504322826862335
visibility: 0.9973538517951965
","x: 173.14981079101562
y: 556.8717041015625
z: 0.09656600654125214
visibility: 0.9960490465164185
",,,,,,,,,,,,,,,,,,,,,,"x: 240.8827362060547
y: 416.32275390625
z: 0.0
","x: 241.31619262695312
y: 423.6095886230469
z: 0.001218827674165368
","x: 243.44956970214844
y: 429.5104675292969
z: 0.0015062447637319565
","x: 244.5902862548828
y: 434.39019775390625
z: 0.0009040075819939375
","x: 245.2127227783203
y: 438.30279541015625
z: 0.0007242053980007768
","x: 248.3499298095703
y: 428.5633544921875
z: 0.00345301884226501
","x: 249.00607299804688
y: 436.5519714355469
z: 0.002051565097644925
","x: 247.16046142578125
y: 440.05682373046875
z: 0.001183466287329793
","x: 245.5268096923828
y: 441.0821533203125
z: 0.0009071931126527488
","x: 248.4377899169922
y: 428.06109619140625
z: 0.001541951671242714
","x: 249.20680236816406
y: 436.6141052246094
z: -0.00040520133916288614
","x: 247.2403106689453
y: 439.9552917480469
z: -0.0013501083012670279
","x: 245.48211669921875
y: 440.62677001953125
z: -0.001465840032324195
","x: 247.8956298828125
y: 427.8113098144531
z: -0.0006668890709988773
","x: 248.6470947265625
y: 435.7691650390625
z: -0.0022121628280729055
","x: 246.93408203125
y: 439.007080078125
z: -0.0019902721978724003
","x: 245.35337829589844
y: 439.88385009765625
z: -0.0014121534768491983
","x: 246.64064025878906
y: 427.87298583984375
z: -0.003046589670702815
","x: 247.52923583984375
y: 434.50970458984375
z: -0.003960729576647282
","x: 246.8693389892578
y: 437.9129333496094
z: -0.003622169606387615
","x: 246.01513671875
y: 439.5404052734375
z: -0.0030166632495820522
"
12,"x: 198.14373779296875
y: 262.1383056640625
z: -0.34553471207618713
visibility: 0.9999963045120239
","x: 200.15841674804688
y: 258.3437194824219
z: -0.341877281665802
visibility: 0.9999823570251465
","x: 201.34039306640625
y: 257.2228088378906
z: -0.3417489528656006
visibility: 0.99998539686203
","x: 202.52670288085938
y: 256.60040283203125
z: -0.34165874123573303
visibility: 0.9999852776527405
","x: 196.73634338378906
y: 258.1641845703125
z: -0.3314318358898163
visibility: 0.9999743700027466
","x: 195.54478454589844
y: 258.4213562011719
z: -0.3314328193664551
visibility: 0.9999748468399048
","x: 194.4651336669922
y: 258.70062255859375
z: -0.33137160539627075
visibility: 0.9999669790267944
","x: 204.83724975585938
y: 259.7572021484375
z: -0.24364295601844788
visibility: 0.9999791383743286
","x: 193.03863525390625
y: 261.32257080078125
z: -0.22157534956932068
visibility: 0.9999188780784607
","x: 200.75515747070312
y: 271.6533203125
z: -0.3212640881538391
visibility: 0.9999949932098389
","x: 195.2583770751953
y: 271.8762512207031
z: -0.3001021146774292
visibility: 0.999986469745636
","x: 221.14512634277344
y: 307.9970703125
z: -0.17321500182151794
visibility: 0.999994158744812
","x: 183.51560974121094
y: 304.76922607421875
z: -0.14026246964931488
visibility: 0.9999526739120483
","x: 231.78952026367188
y: 363.8038330078125
z: -0.11582740396261215
visibility: 0.9978421330451965
","x: 179.8406982421875
y: 356.1932678222656
z: -0.09480370581150055
visibility: 0.9288881421089172
","x: 242.04843139648438
y: 412.0346374511719
z: -0.17258387804031372
visibility: 0.9916204810142517
","x: 175.64161682128906
y: 396.04833984375
z: -0.16104468703269958
visibility: 0.9410998225212097
","x: 247.22828674316406
y: 424.05859375
z: -0.19207775592803955
visibility: 0.9790510535240173
","x: 174.0149383544922
y: 408.8475341796875
z: -0.18327856063842773
visibility: 0.9188439846038818
","x: 246.12464904785156
y: 424.836669921875
z: -0.22383412718772888
visibility: 0.9816274642944336
","x: 175.53268432617188
y: 407.6639404296875
z: -0.216499924659729
visibility: 0.9241539835929871
","x: 243.6439666748047
y: 420.922607421875
z: -0.1865551769733429
visibility: 0.9771820902824402
","x: 176.6996612548828
y: 403.92901611328125
z: -0.17615953087806702
visibility: 0.9164767265319824
","x: 218.06971740722656
y: 400.64935302734375
z: -0.019158203154802322
visibility: 0.9999426603317261
","x: 195.48634338378906
y: 401.5453796386719
z: 0.019023053348064423
visibility: 0.9999167919158936
","x: 225.09805297851562
y: 474.9182434082031
z: -0.03231033682823181
visibility: 0.9987462162971497
","x: 185.6766815185547
y: 471.47528076171875
z: 0.019845442846417427
visibility: 0.9983859658241272
","x: 228.7514190673828
y: 534.8402099609375
z: 0.14399752020835876
visibility: 0.9988022446632385
","x: 182.9979705810547
y: 533.945068359375
z: 0.1907006949186325
visibility: 0.9975602030754089
","x: 230.56622314453125
y: 542.875
z: 0.1537913829088211
visibility: 0.9244517683982849
","x: 187.5095672607422
y: 542.5460205078125
z: 0.20028862357139587
visibility: 0.9541596174240112
","x: 229.330322265625
y: 563.2337036132812
z: 0.037504322826862335
visibility: 0.9973538517951965
","x: 173.14981079101562
y: 556.8717041015625
z: 0.09656600654125214
visibility: 0.9960490465164185
",,,,,,,,,,,,,,,,,,,,,,"x: 240.8827362060547
y: 416.32275390625
z: 0.0
","x: 241.31619262695312
y: 423.6095886230469
z: 0.001218827674165368
","x: 243.44956970214844
y: 429.5104675292969
z: 0.0015062447637319565
","x: 244.5902862548828
y: 434.39019775390625
z: 0.0009040075819939375
","x: 245.2127227783203
y: 438.30279541015625
z: 0.0007242053980007768
","x: 248.3499298095703
y: 428.5633544921875
z: 0.00345301884226501
","x: 249.00607299804688
y: 436.5519714355469
z: 0.002051565097644925
","x: 247.16046142578125
y: 440.05682373046875
z: 0.001183466287329793
","x: 245.5268096923828
y: 441.0821533203125
z: 0.0009071931126527488
","x: 248.4377899169922
y: 428.06109619140625
z: 0.001541951671242714
","x: 249.20680236816406
y: 436.6141052246094
z: -0.00040520133916288614
","x: 247.2403106689453
y: 439.9552917480469
z: -0.0013501083012670279
","x: 245.48211669921875
y: 440.62677001953125
z: -0.001465840032324195
","x: 247.8956298828125
y: 427.8113098144531
z: -0.0006668890709988773
","x: 248.6470947265625
y: 435.7691650390625
z: -0.0022121628280729055
","x: 246.93408203125
y: 439.007080078125
z: -0.0019902721978724003
","x: 245.35337829589844
y: 439.88385009765625
z: -0.0014121534768491983
","x: 246.64064025878906
y: 427.87298583984375
z: -0.003046589670702815
","x: 247.52923583984375
y: 434.50970458984375
z: -0.003960729576647282
","x: 246.8693389892578
y: 437.9129333496094
z: -0.003622169606387615
","x: 246.01513671875
y: 439.5404052734375
z: -0.0030166632495820522
"
13,"x: 203.08946228027344
y: 257.6280517578125
z: -0.34522730112075806
visibility: 0.9999955892562866
","x: 204.85267639160156
y: 255.27268981933594
z: -0.33395230770111084
visibility: 0.9999809265136719
","x: 206.1767578125
y: 255.0862274169922
z: -0.3338852524757385
visibility: 0.9999836087226868
","x: 207.6053466796875
y: 255.19522094726562
z: -0.33385080099105835
visibility: 0.9999832510948181
","x: 201.30239868164062
y: 254.63262939453125
z: -0.3312790095806122
visibility: 0.9999738335609436
","x: 200.0067901611328
y: 255.07565307617188
z: -0.3313446640968323
visibility: 0.9999746084213257
","x: 198.72935485839844
y: 255.5815887451172
z: -0.3313648998737335
visibility: 0.9999672174453735
","x: 210.26023864746094
y: 259.2437744140625
z: -0.22866018116474152
visibility: 0.9999698996543884
","x: 196.85386657714844
y: 261.06683349609375
z: -0.23128323256969452
visibility: 0.9999204874038696
","x: 206.04916381835938
y: 268.3666687011719
z: -0.3108840584754944
visibility: 0.999993622303009
","x: 201.15745544433594
y: 268.29669189453125
z: -0.3064814507961273
visibility: 0.9999859929084778
","x: 225.810546875
y: 306.67230224609375
z: -0.14484903216362
visibility: 0.9999908208847046
","x: 186.54953002929688
y: 304.1734619140625
z: -0.15646611154079437
visibility: 0.9999533295631409
","x: 229.50289916992188
y: 360.740478515625
z: -0.10158877074718475
visibility: 0.9953044056892395
","x: 183.3584747314453
y: 352.966064453125
z: -0.15366807579994202
visibility: 0.9334278106689453
","x: 224.52525329589844
y: 404.67474365234375
z: -0.1850532442331314
visibility: 0.9875955581665039
","x: 192.1464385986328
y: 392.02471923828125
z: -0.2789348363876343
visibility: 0.941338062286377
","x: 225.14520263671875
y: 418.6142272949219
z: -0.19629570841789246
visibility: 0.972050666809082
","x: 192.53570556640625
y: 403.89141845703125
z: -0.31371623277664185
visibility: 0.9174131155014038
","x: 221.68429565429688
y: 418.6187744140625
z: -0.23572158813476562
visibility: 0.9749549627304077
","x: 194.7162322998047
y: 396.40728759765625
z: -0.33667320013046265
visibility: 0.9223569631576538
","x: 220.58837890625
y: 413.957275390625
z: -0.19817979633808136
visibility: 0.9677271842956543
","x: 195.6395263671875
y: 392.4481201171875
z: -0.28994065523147583
visibility: 0.9125464558601379
","x: 226.78060913085938
y: 397.41839599609375
z: 0.006271963473409414
visibility: 0.9999399185180664
","x: 205.052978515625
y: 400.750732421875
z: -0.006410946603864431
visibility: 0.9999182224273682
","x: 230.93521118164062
y: 474.5272216796875
z: -0.0064348927699029446
visibility: 0.9982598423957825
","x: 206.36256408691406
y: 472.82110595703125
z: 0.0024791001342236996
visibility: 0.997689425945282
","x: 230.35809326171875
y: 536.794189453125
z: 0.1495995819568634
visibility: 0.9982032775878906
","x: 189.47328186035156
y: 531.6513671875
z: 0.18892428278923035
visibility: 0.9965004324913025
","x: 230.2337646484375
y: 547.1876220703125
z: 0.15759310126304626
visibility: 0.9206284880638123
","x: 190.52706909179688
y: 537.03955078125
z: 0.19999586045742035
visibility: 0.9386224746704102
","x: 231.7078857421875
y: 563.1356201171875
z: 0.036944013088941574
visibility: 0.996283769607544
","x: 182.32118225097656
y: 554.4469604492188
z: 0.0927569791674614
visibility: 0.9946392774581909
",,,,,,,,,,,,,,,,,,,,,,,,,,,,,,,,,,,,,,,,,,
14,"x: 205.43685913085938
y: 252.76771545410156
z: -0.2686011493206024
visibility: 0.9999940991401672
","x: 207.3762969970703
y: 249.03955078125
z: -0.2532065212726593
visibility: 0.9999779462814331
","x: 208.8414306640625
y: 248.94493103027344
z: -0.25320279598236084
visibility: 0.9999799728393555
","x: 210.41943359375
y: 248.9998779296875
z: -0.2531951367855072
visibility: 0.9999794363975525
","x: 203.590087890625
y: 249.43350219726562
z: -0.2512238621711731
visibility: 0.9999712109565735
","x: 202.2428741455078
y: 250.03536987304688
z: -0.2512698769569397
visibility: 0.9999722242355347
","x: 200.88002014160156
y: 250.74072265625
z: -0.25129616260528564
visibility: 0.9999657869338989
","x: 213.4102020263672
y: 254.1163787841797
z: -0.1546032726764679
visibility: 0.9999647736549377
","x: 199.59693908691406
y: 256.23431396484375
z: -0.14670798182487488
visibility: 0.9999191164970398
","x: 208.69041442871094
y: 262.1166076660156
z: -0.23175537586212158
visibility: 0.9999920129776001
","x: 203.70423889160156
y: 262.6968688964844
z: -0.22945912182331085
visibility: 0.9999843239784241
","x: 229.2559814453125
y: 299.52471923828125
z: -0.10248006880283356
visibility: 0.9999841451644897
","x: 190.2034149169922
y: 302.2845153808594
z: -0.07726237177848816
visibility: 0.9999436140060425
","x: 230.53765869140625
y: 358.3435363769531
z: -0.10129958391189575
visibility: 0.991735577583313
","x: 187.45761108398438
y: 351.10797119140625
z: -0.11758474260568619
visibility: 0.9273764491081238
","x: 215.39007568359375
y: 380.3056640625
z: -0.19276657700538635
visibility: 0.9784301519393921
","x: 195.4563446044922
y: 359.40325927734375
z: -0.3012442886829376
visibility: 0.9300137758255005
","x: 212.33543395996094
y: 392.5982360839844
z: -0.2247457206249237
visibility: 0.9590874314308167
","x: 198.041259765625
y: 368.3446044921875
z: -0.34485340118408203
visibility: 0.9047196507453918
","x: 209.03720092773438
y: 385.84271240234375
z: -0.2401181012392044
visibility: 0.9620843529701233
","x: 199.13291931152344
y: 360.4878234863281
z: -0.3596489727497101
visibility: 0.9093923568725586
","x: 209.9769744873047
y: 381.3960266113281
z: -0.2005525827407837
visibility: 0.9503141045570374
","x: 199.1096649169922
y: 356.4559631347656
z: -0.31176501512527466
visibility: 0.8964177370071411
","x: 229.29653930664062
y: 392.44427490234375
z: -0.004808629862964153
visibility: 0.9999330043792725
","x: 207.8088836669922
y: 396.7178955078125
z: 0.004687412176281214
visibility: 0.999913215637207
","x: 231.86317443847656
y: 467.8967590332031
z: -0.022413577884435654
visibility: 0.9980875253677368
","x: 204.3970184326172
y: 471.7474670410156
z: -0.028806066140532494
visibility: 0.9974679350852966
","x: 230.6617431640625
y: 537.075927734375
z: 0.11913879960775375
visibility: 0.9980196952819824
","x: 208.02452087402344
y: 529.2614135742188
z: 0.15599963068962097
visibility: 0.9961163997650146
","x: 230.42372131347656
y: 549.1834716796875
z: 0.1255808174610138
visibility: 0.9172756671905518
","x: 210.72567749023438
y: 535.5602416992188
z: 0.16828839480876923
visibility: 0.9346475005149841
","x: 231.72808837890625
y: 563.0606689453125
z: 0.0005018350202590227
visibility: 0.9959995150566101
","x: 202.00067138671875
y: 554.103759765625
z: 0.06921177357435226
visibility: 0.9942068457603455
",,,,,,,,,,,,,,,,,,,,,,"x: 216.24253845214844
y: 378.75250244140625
z: 0.0
","x: 212.8495635986328
y: 386.67279052734375
z: 0.0008409583824686706
","x: 208.595458984375
y: 391.68133544921875
z: 0.00037362807779572904
","x: 205.36489868164062
y: 393.5709228515625
z: -0.000989780412055552
","x: 202.74290466308594
y: 393.32708740234375
z: -0.0020421973895281553
","x: 203.3403778076172
y: 386.5408020019531
z: 0.00238853320479393
","x: 199.11587524414062
y: 386.99273681640625
z: -3.097830995102413e-05
","x: 197.36087036132812
y: 389.8472595214844
z: -0.001630805665627122
","x: 196.75125122070312
y: 392.6651611328125
z: -0.0023684785701334476
","x: 203.5778350830078
y: 383.0665588378906
z: -5.941637937212363e-05
","x: 199.2861785888672
y: 384.08746337890625
z: -0.0024223800282925367
","x: 197.78094482421875
y: 387.20220947265625
z: -0.003340234747156501
","x: 197.45143127441406
y: 390.14404296875
z: -0.003740570740774274
","x: 204.34307861328125
y: 379.69012451171875
z: -0.0029816550668329
","x: 200.51918029785156
y: 381.16009521484375
z: -0.004877839703112841
","x: 199.48837280273438
y: 384.0547180175781
z: -0.004330890253186226
","x: 199.4313201904297
y: 386.9201354980469
z: -0.0037410485092550516
","x: 205.7799835205078
y: 376.51971435546875
z: -0.0062518371269106865
","x: 202.38255310058594
y: 377.56158447265625
z: -0.007449348922818899
","x: 200.8570556640625
y: 379.9339599609375
z: -0.006938668433576822
","x: 200.12979125976562
y: 382.3542785644531
z: -0.006338333711028099
"
15,"x: 205.43685913085938
y: 252.76771545410156
z: -0.2686011493206024
visibility: 0.9999940991401672
","x: 207.3762969970703
y: 249.03955078125
z: -0.2532065212726593
visibility: 0.9999779462814331
","x: 208.8414306640625
y: 248.94493103027344
z: -0.25320279598236084
visibility: 0.9999799728393555
","x: 210.41943359375
y: 248.9998779296875
z: -0.2531951367855072
visibility: 0.9999794363975525
","x: 203.590087890625
y: 249.43350219726562
z: -0.2512238621711731
visibility: 0.9999712109565735
","x: 202.2428741455078
y: 250.03536987304688
z: -0.2512698769569397
visibility: 0.9999722242355347
","x: 200.88002014160156
y: 250.74072265625
z: -0.25129616260528564
visibility: 0.9999657869338989
","x: 213.4102020263672
y: 254.1163787841797
z: -0.1546032726764679
visibility: 0.9999647736549377
","x: 199.59693908691406
y: 256.23431396484375
z: -0.14670798182487488
visibility: 0.9999191164970398
","x: 208.69041442871094
y: 262.1166076660156
z: -0.23175537586212158
visibility: 0.9999920129776001
","x: 203.70423889160156
y: 262.6968688964844
z: -0.22945912182331085
visibility: 0.9999843239784241
","x: 229.2559814453125
y: 299.52471923828125
z: -0.10248006880283356
visibility: 0.9999841451644897
","x: 190.2034149169922
y: 302.2845153808594
z: -0.07726237177848816
visibility: 0.9999436140060425
","x: 230.53765869140625
y: 358.3435363769531
z: -0.10129958391189575
visibility: 0.991735577583313
","x: 187.45761108398438
y: 351.10797119140625
z: -0.11758474260568619
visibility: 0.9273764491081238
","x: 215.39007568359375
y: 380.3056640625
z: -0.19276657700538635
visibility: 0.9784301519393921
","x: 195.4563446044922
y: 359.40325927734375
z: -0.3012442886829376
visibility: 0.9300137758255005
","x: 212.33543395996094
y: 392.5982360839844
z: -0.2247457206249237
visibility: 0.9590874314308167
","x: 198.041259765625
y: 368.3446044921875
z: -0.34485340118408203
visibility: 0.9047196507453918
","x: 209.03720092773438
y: 385.84271240234375
z: -0.2401181012392044
visibility: 0.9620843529701233
","x: 199.13291931152344
y: 360.4878234863281
z: -0.3596489727497101
visibility: 0.9093923568725586
","x: 209.9769744873047
y: 381.3960266113281
z: -0.2005525827407837
visibility: 0.9503141045570374
","x: 199.1096649169922
y: 356.4559631347656
z: -0.31176501512527466
visibility: 0.8964177370071411
","x: 229.29653930664062
y: 392.44427490234375
z: -0.004808629862964153
visibility: 0.9999330043792725
","x: 207.8088836669922
y: 396.7178955078125
z: 0.004687412176281214
visibility: 0.999913215637207
","x: 231.86317443847656
y: 467.8967590332031
z: -0.022413577884435654
visibility: 0.9980875253677368
","x: 204.3970184326172
y: 471.7474670410156
z: -0.028806066140532494
visibility: 0.9974679350852966
","x: 230.6617431640625
y: 537.075927734375
z: 0.11913879960775375
visibility: 0.9980196952819824
","x: 208.02452087402344
y: 529.2614135742188
z: 0.15599963068962097
visibility: 0.9961163997650146
","x: 230.42372131347656
y: 549.1834716796875
z: 0.1255808174610138
visibility: 0.9172756671905518
","x: 210.72567749023438
y: 535.5602416992188
z: 0.16828839480876923
visibility: 0.9346475005149841
","x: 231.72808837890625
y: 563.0606689453125
z: 0.0005018350202590227
visibility: 0.9959995150566101
","x: 202.00067138671875
y: 554.103759765625
z: 0.06921177357435226
visibility: 0.9942068457603455
",,,,,,,,,,,,,,,,,,,,,,"x: 216.24253845214844
y: 378.75250244140625
z: 0.0
","x: 212.8495635986328
y: 386.67279052734375
z: 0.0008409583824686706
","x: 208.595458984375
y: 391.68133544921875
z: 0.00037362807779572904
","x: 205.36489868164062
y: 393.5709228515625
z: -0.000989780412055552
","x: 202.74290466308594
y: 393.32708740234375
z: -0.0020421973895281553
","x: 203.3403778076172
y: 386.5408020019531
z: 0.00238853320479393
","x: 199.11587524414062
y: 386.99273681640625
z: -3.097830995102413e-05
","x: 197.36087036132812
y: 389.8472595214844
z: -0.001630805665627122
","x: 196.75125122070312
y: 392.6651611328125
z: -0.0023684785701334476
","x: 203.5778350830078
y: 383.0665588378906
z: -5.941637937212363e-05
","x: 199.2861785888672
y: 384.08746337890625
z: -0.0024223800282925367
","x: 197.78094482421875
y: 387.20220947265625
z: -0.003340234747156501
","x: 197.45143127441406
y: 390.14404296875
z: -0.003740570740774274
","x: 204.34307861328125
y: 379.69012451171875
z: -0.0029816550668329
","x: 200.51918029785156
y: 381.16009521484375
z: -0.004877839703112841
","x: 199.48837280273438
y: 384.0547180175781
z: -0.004330890253186226
","x: 199.4313201904297
y: 386.9201354980469
z: -0.0037410485092550516
","x: 205.7799835205078
y: 376.51971435546875
z: -0.0062518371269106865
","x: 202.38255310058594
y: 377.56158447265625
z: -0.007449348922818899
","x: 200.8570556640625
y: 379.9339599609375
z: -0.006938668433576822
","x: 200.12979125976562
y: 382.3542785644531
z: -0.006338333711028099
"
16,"x: 208.4502716064453
y: 250.77450561523438
z: -0.2480948269367218
visibility: 0.9999918937683105
","x: 210.333251953125
y: 245.9373321533203
z: -0.23274235427379608
visibility: 0.9999743103981018
","x: 211.92910766601562
y: 246.1379852294922
z: -0.23276552557945251
visibility: 0.9999754428863525
","x: 213.61907958984375
y: 246.51986694335938
z: -0.23280498385429382
visibility: 0.9999750256538391
","x: 206.4056396484375
y: 246.4882049560547
z: -0.22910109162330627
visibility: 0.9999678134918213
","x: 205.09963989257812
y: 247.1978759765625
z: -0.22916904091835022
visibility: 0.9999681115150452
","x: 203.79776000976562
y: 247.9774169921875
z: -0.22920218110084534
visibility: 0.9999622702598572
","x: 216.9817657470703
y: 252.815185546875
z: -0.13516300916671753
visibility: 0.9999609589576721
","x: 203.07228088378906
y: 253.63609313964844
z: -0.1198493018746376
visibility: 0.9999120831489563
","x: 211.522216796875
y: 259.9178771972656
z: -0.21173658967018127
visibility: 0.9999904632568359
","x: 206.6007843017578
y: 260.3879699707031
z: -0.20750752091407776
visibility: 0.999981164932251
","x: 232.40948486328125
y: 297.2323913574219
z: -0.08984629064798355
visibility: 0.999970555305481
","x: 192.5320587158203
y: 299.2119140625
z: -0.05130443722009659
visibility: 0.9999264478683472
","x: 236.4316864013672
y: 355.5556640625
z: -0.11195913702249527
visibility: 0.99031001329422
","x: 187.80133056640625
y: 346.95751953125
z: -0.11312158405780792
visibility: 0.9252141714096069
","x: 220.01119995117188
y: 372.4693603515625
z: -0.2516501247882843
visibility: 0.974945068359375
","x: 189.19766235351562
y: 355.28729248046875
z: -0.33058270812034607
visibility: 0.9281015396118164
","x: 215.3258056640625
y: 381.7327880859375
z: -0.28886309266090393
visibility: 0.9538868069648743
","x: 194.9695587158203
y: 361.09857177734375
z: -0.3756982386112213
visibility: 0.9038751125335693
","x: 212.56161499023438
y: 375.83349609375
z: -0.3019039034843445
visibility: 0.956972599029541
","x: 195.48289489746094
y: 357.3904724121094
z: -0.39374786615371704
visibility: 0.908638060092926
","x: 213.69387817382812
y: 372.0269470214844
z: -0.2583990693092346
visibility: 0.9425048232078552
","x: 194.3414764404297
y: 355.4504699707031
z: -0.34390243887901306
visibility: 0.8942803740501404
","x: 227.10858154296875
y: 391.60382080078125
z: -0.008914054371416569
visibility: 0.9999282360076904
","x: 205.2242431640625
y: 396.0008544921875
z: 0.008807022124528885
visibility: 0.9999069571495056
","x: 227.8404541015625
y: 464.7032470703125
z: -0.14137834310531616
visibility: 0.9974352121353149
","x: 204.34799194335938
y: 471.75274658203125
z: -0.028315987437963486
visibility: 0.9963933825492859
","x: 223.40171813964844
y: 537.6857299804688
z: -0.0006526204524561763
visibility: 0.997202455997467
","x: 215.45428466796875
y: 532.4707641601562
z: 0.1599094420671463
visibility: 0.9944166541099548
","x: 221.89137268066406
y: 550.3436279296875
z: 0.007373531814664602
visibility: 0.9175787568092346
","x: 217.99545288085938
y: 539.8724365234375
z: 0.17248858511447906
visibility: 0.9273151159286499
","x: 231.66079711914062
y: 562.7384033203125
z: -0.1106310486793518
visibility: 0.9951509237289429
","x: 208.99871826171875
y: 554.901611328125
z: 0.07413952052593231
visibility: 0.9917651414871216
",,,,,,,,,,,,,,,,,,,,,,,,,,,,,,,,,,,,,,,,,,
17,"x: 209.28662109375
y: 251.132568359375
z: -0.28184041380882263
visibility: 0.9999916553497314
","x: 211.31460571289062
y: 246.04750061035156
z: -0.26959627866744995
visibility: 0.9999746680259705
","x: 212.81069946289062
y: 246.25894165039062
z: -0.26959386467933655
visibility: 0.9999754428863525
","x: 214.4304656982422
y: 246.62545776367188
z: -0.26961514353752136
visibility: 0.999975323677063
","x: 207.63619995117188
y: 246.42572021484375
z: -0.2650216519832611
visibility: 0.9999684691429138
","x: 206.3686065673828
y: 246.9538116455078
z: -0.26508134603500366
visibility: 0.9999681115150452
","x: 205.09951782226562
y: 247.51971435546875
z: -0.265100359916687
visibility: 0.9999628663063049
","x: 218.0912322998047
y: 252.6120147705078
z: -0.1752188503742218
visibility: 0.999962568283081
","x: 204.3326873779297
y: 252.5375213623047
z: -0.1554260402917862
visibility: 0.9999117851257324
","x: 212.29344177246094
y: 260.0558776855469
z: -0.24695220589637756
visibility: 0.9999907612800598
","x: 207.47036743164062
y: 260.2434997558594
z: -0.2410992830991745
visibility: 0.9999815821647644
","x: 233.3464813232422
y: 296.94000244140625
z: -0.11768708378076553
visibility: 0.999970555305481
","x: 193.05137634277344
y: 295.499755859375
z: -0.07337398827075958
visibility: 0.9999269247055054
","x: 242.4052276611328
y: 346.9183654785156
z: -0.14819279313087463
visibility: 0.9908446669578552
","x: 184.30172729492188
y: 337.2915344238281
z: -0.10230110585689545
visibility: 0.9314885139465332
","x: 233.5224609375
y: 374.5735168457031
z: -0.2989441156387329
visibility: 0.9761286973953247
","x: 174.42355346679688
y: 358.47760009765625
z: -0.27378952503204346
visibility: 0.9338029623031616
","x: 227.7142333984375
y: 387.5440673828125
z: -0.3387671113014221
visibility: 0.95545893907547
","x: 170.49574279785156
y: 367.2689208984375
z: -0.3088011145591736
visibility: 0.9106127023696899
","x: 220.01234436035156
y: 382.7000427246094
z: -0.3584555387496948
visibility: 0.9583663940429688
","x: 172.66561889648438
y: 365.5442810058594
z: -0.3343915343284607
visibility: 0.9151749610900879
","x: 221.85122680664062
y: 378.2459716796875
z: -0.30873316526412964
visibility: 0.9437527656555176
","x: 174.695556640625
y: 362.7698974609375
z: -0.2882547378540039
visibility: 0.9013853073120117
","x: 226.24163818359375
y: 385.96905517578125
z: -0.01060260459780693
visibility: 0.9999248385429382
","x: 204.80850219726562
y: 390.5851745605469
z: 0.010452654212713242
visibility: 0.9998962879180908
","x: 226.42596435546875
y: 453.79833984375
z: -0.24618716537952423
visibility: 0.9970338940620422
","x: 204.32540893554688
y: 471.17633056640625
z: 0.004025927744805813
visibility: 0.9931208491325378
","x: 220.7694854736328
y: 528.546875
z: -0.13850566744804382
visibility: 0.996204137802124
","x: 215.6686248779297
y: 532.3441162109375
z: 0.15596802532672882
visibility: 0.991295576095581
","x: 221.1389617919922
y: 539.1947021484375
z: -0.1341957300901413
visibility: 0.914155125617981
","x: 220.24661254882812
y: 540.2266845703125
z: 0.16324763000011444
visibility: 0.9187180399894714
","x: 224.29786682128906
y: 555.8518676757812
z: -0.2685543894767761
visibility: 0.9942240118980408
","x: 208.6072998046875
y: 556.7804565429688
z: 0.04791582003235817
visibility: 0.988114058971405
",,,,,,,,,,,,,,,,,,,,,,,,,,,,,,,,,,,,,,,,,,
18,"x: 211.40560913085938
y: 251.27951049804688
z: -0.2768861651420593
visibility: 0.9999924898147583
","x: 213.40126037597656
y: 245.0379180908203
z: -0.2610786259174347
visibility: 0.999977171421051
","x: 214.82398986816406
y: 245.3170166015625
z: -0.26103541254997253
visibility: 0.9999778866767883
","x: 216.39434814453125
y: 245.75054931640625
z: -0.26106029748916626
visibility: 0.9999777674674988
","x: 209.46449279785156
y: 245.27227783203125
z: -0.2599260210990906
visibility: 0.9999715685844421
","x: 207.9473419189453
y: 245.7484588623047
z: -0.25999003648757935
visibility: 0.9999712705612183
","x: 206.4968719482422
y: 246.2461700439453
z: -0.2600022554397583
visibility: 0.999966561794281
","x: 219.50625610351562
y: 251.2840576171875
z: -0.1513024866580963
visibility: 0.9999662637710571
","x: 204.95582580566406
y: 251.32684326171875
z: -0.14810922741889954
visibility: 0.9999205470085144
","x: 214.2542724609375
y: 260.189208984375
z: -0.2349334955215454
visibility: 0.9999916553497314
","x: 209.26731872558594
y: 260.21954345703125
z: -0.2340943068265915
visibility: 0.9999834299087524
","x: 234.05030822753906
y: 294.2059631347656
z: -0.08553004264831543
visibility: 0.9999732375144958
","x: 193.0731201171875
y: 291.7983093261719
z: -0.06455754488706589
visibility: 0.9999334216117859
","x: 246.5090789794922
y: 335.4690246582031
z: -0.08462506532669067
visibility: 0.9915385842323303
","x: 179.61068725585938
y: 329.0914611816406
z: -0.13346821069717407
visibility: 0.937781810760498
","x: 251.8101348876953
y: 364.9981994628906
z: -0.24883227050304413
visibility: 0.9781520366668701
","x: 165.28659057617188
y: 346.8805236816406
z: -0.3657507598400116
visibility: 0.9401257634162903
","x: 253.00787353515625
y: 374.3441467285156
z: -0.28922557830810547
visibility: 0.9590560793876648
","x: 159.15243530273438
y: 354.4022216796875
z: -0.4076218605041504
visibility: 0.9189896583557129
","x: 248.74783325195312
y: 372.6478271484375
z: -0.32020699977874756
visibility: 0.9618008136749268
","x: 162.02256774902344
y: 353.17645263671875
z: -0.4300743043422699
visibility: 0.9231664538383484
","x: 247.65066528320312
y: 369.60443115234375
z: -0.26404252648353577
visibility: 0.9483470916748047
","x: 164.91567993164062
y: 351.15155029296875
z: -0.38049986958503723
visibility: 0.9105458855628967
","x: 227.15415954589844
y: 384.1726379394531
z: -0.012317316606640816
visibility: 0.9999300241470337
","x: 205.02288818359375
y: 388.5876770019531
z: 0.012157641351222992
visibility: 0.9999045729637146
","x: 224.24203491210938
y: 444.4716796875
z: -0.3181604743003845
visibility: 0.997190535068512
","x: 200.2075653076172
y: 469.904296875
z: -0.08320030570030212
visibility: 0.9926897287368774
","x: 222.83445739746094
y: 492.8960876464844
z: -0.06823893636465073
visibility: 0.995548665523529
","x: 214.76266479492188
y: 531.3978881835938
z: 0.10423890501260757
visibility: 0.991445779800415
","x: 225.02171325683594
y: 492.3135986328125
z: -0.046758655458688736
visibility: 0.9163239002227783
","x: 219.91127014160156
y: 537.7353515625
z: 0.11643634736537933
visibility: 0.9222753047943115
","x: 224.9834442138672
y: 523.5730590820312
z: -0.13902698457241058
visibility: 0.9938445091247559
","x: 210.2673797607422
y: 559.0910034179688
z: 0.011376387439668179
visibility: 0.9877811670303345
",,,,,,,,,,,,,,,,,,,,,,,,,,,,,,,,,,,,,,,,,,
19,"x: 212.40054321289062
y: 247.55889892578125
z: -0.27740439772605896
visibility: 0.9999867081642151
","x: 214.52252197265625
y: 242.49624633789062
z: -0.2698289155960083
visibility: 0.999955952167511
","x: 215.99212646484375
y: 242.86798095703125
z: -0.26968005299568176
visibility: 0.9999553561210632
","x: 217.62173461914062
y: 243.37985229492188
z: -0.2695516049861908
visibility: 0.9999533295631409
","x: 210.50157165527344
y: 242.5740966796875
z: -0.2642996311187744
visibility: 0.99994957447052
","x: 209.02447509765625
y: 242.97174072265625
z: -0.2643343508243561
visibility: 0.9999440908432007
","x: 207.5862579345703
y: 243.37490844726562
z: -0.264303982257843
visibility: 0.9999366402626038
","x: 220.95840454101562
y: 249.22625732421875
z: -0.17318639159202576
visibility: 0.9999530911445618
","x: 206.14791870117188
y: 248.45404052734375
z: -0.14956381916999817
visibility: 0.999851644039154
","x: 215.53660583496094
y: 257.01025390625
z: -0.2401149570941925
visibility: 0.9999832510948181
","x: 210.1824493408203
y: 256.6650695800781
z: -0.23760518431663513
visibility: 0.9999707341194153
","x: 234.32632446289062
y: 292.80218505859375
z: -0.10954950749874115
visibility: 0.9999571442604065
","x: 193.29327392578125
y: 288.5644836425781
z: -0.08380549401044846
visibility: 0.9999169111251831
","x: 253.11830139160156
y: 329.2839050292969
z: -0.09692297130823135
visibility: 0.9918843507766724
","x: 174.6408233642578
y: 316.1126708984375
z: -0.11985631287097931
visibility: 0.9433008432388306
","x: 277.7579040527344
y: 335.1299743652344
z: -0.24681393802165985
visibility: 0.9793540835380554
","x: 149.79393005371094
y: 316.0420837402344
z: -0.2898489832878113
visibility: 0.9455463290214539
","x: 285.7465515136719
y: 337.9674987792969
z: -0.2765656113624573
visibility: 0.9606766104698181
","x: 142.2578125
y: 319.5572509765625
z: -0.3226340711116791
visibility: 0.9257584810256958
","x: 286.16900634765625
y: 334.336181640625
z: -0.31050363183021545
visibility: 0.9635719656944275
","x: 141.9499053955078
y: 314.2991943359375
z: -0.3504970073699951
visibility: 0.9297637939453125
","x: 282.9172668457031
y: 333.26361083984375
z: -0.2648147940635681
visibility: 0.9514131546020508
","x: 144.45846557617188
y: 313.9608154296875
z: -0.30691778659820557
visibility: 0.9182860255241394
","x: 227.26010131835938
y: 385.6815185546875
z: -0.009906278923153877
visibility: 0.9997649192810059
","x: 204.34982299804688
y: 388.881103515625
z: 0.009867708198726177
visibility: 0.9998248219490051
","x: 231.3076629638672
y: 451.2646484375
z: -0.24033597111701965
visibility: 0.9966880083084106
","x: 206.4855499267578
y: 472.6466369628906
z: -0.02937627211213112
visibility: 0.9915288090705872
","x: 229.09207153320312
y: 506.95904541015625
z: 0.09747283905744553
visibility: 0.9912051558494568
","x: 218.69273376464844
y: 533.6238403320312
z: 0.13682135939598083
visibility: 0.9907436370849609
","x: 226.925048828125
y: 509.5979309082031
z: 0.11879302561283112
visibility: 0.9041522145271301
","x: 223.7641143798828
y: 543.8901977539062
z: 0.14936286211013794
visibility: 0.9204984903335571
","x: 233.9784393310547
y: 533.9569702148438
z: 0.029774684458971024
visibility: 0.9897435307502747
","x: 211.70654296875
y: 559.4281616210938
z: 0.04156138375401497
visibility: 0.9865173101425171
",,,,,,,,,,,,,,,,,,,,,,,,,,,,,,,,,,,,,,,,,,
20,"x: 213.74000549316406
y: 244.18997192382812
z: -0.40330997109413147
visibility: 0.999987781047821
","x: 216.13548278808594
y: 239.3327178955078
z: -0.3880004584789276
visibility: 0.9999597072601318
","x: 217.78872680664062
y: 239.57339477539062
z: -0.3880212903022766
visibility: 0.9999591112136841
","x: 219.5540313720703
y: 239.9202880859375
z: -0.3881019651889801
visibility: 0.9999573230743408
","x: 211.90357971191406
y: 239.54530334472656
z: -0.38584887981414795
visibility: 0.9999537467956543
","x: 210.35462951660156
y: 239.94314575195312
z: -0.3859335780143738
visibility: 0.9999485611915588
","x: 208.83358764648438
y: 240.37030029296875
z: -0.3859545588493347
visibility: 0.9999416470527649
","x: 222.80557250976562
y: 245.98507690429688
z: -0.27800044417381287
visibility: 0.9999569654464722
","x: 207.19143676757812
y: 245.64990234375
z: -0.26876387000083923
visibility: 0.9998637437820435
","x: 216.9722442626953
y: 254.2366180419922
z: -0.3615629971027374
visibility: 0.9999846816062927
","x: 211.4050750732422
y: 253.82569885253906
z: -0.359183132648468
visibility: 0.9999729990959167
","x: 236.239013671875
y: 293.5350341796875
z: -0.1969570368528366
visibility: 0.9999607801437378
","x: 194.23533630371094
y: 288.1064758300781
z: -0.17406348884105682
visibility: 0.9999224543571472
","x: 253.1952667236328
y: 334.947265625
z: -0.17979998886585236
visibility: 0.9923781156539917
","x: 176.70755004882812
y: 324.29400634765625
z: -0.18024837970733643
visibility: 0.9483871459960938
","x: 274.4123229980469
y: 340.2619934082031
z: -0.287122905254364
visibility: 0.9803433418273926
","x: 158.15359497070312
y: 322.9363708496094
z: -0.3172280192375183
visibility: 0.9498125314712524
","x: 281.7684020996094
y: 343.04364013671875
z: -0.3124149441719055
visibility: 0.9621435403823853
","x: 152.4884796142578
y: 325.6191711425781
z: -0.3457006812095642
visibility: 0.93043053150177
","x: 281.8005065917969
y: 336.9995422363281
z: -0.35072559118270874
visibility: 0.9651174545288086
","x: 152.60643005371094
y: 327.1086120605469
z: -0.3818628787994385
visibility: 0.9344255924224854
","x: 279.74407958984375
y: 337.2100524902344
z: -0.30494147539138794
visibility: 0.9537741541862488
","x: 154.93878173828125
y: 326.295166015625
z: -0.3360268473625183
visibility: 0.9236146807670593
","x: 229.29714965820312
y: 386.71142578125
z: -0.010916483588516712
visibility: 0.9997861981391907
","x: 205.67037963867188
y: 389.3888854980469
z: 0.010949060320854187
visibility: 0.9998331069946289
","x: 231.3094482421875
y: 457.5764465332031
z: -0.2242179661989212
visibility: 0.9965214729309082
","x: 206.0997314453125
y: 476.8859558105469
z: 0.05349887162446976
visibility: 0.990098237991333
","x: 231.89151000976562
y: 542.8966674804688
z: -0.13369432091712952
visibility: 0.9915748238563538
","x: 219.15673828125
y: 535.0463256835938
z: 0.28174635767936707
visibility: 0.9870657920837402
","x: 229.83860778808594
y: 554.5520629882812
z: -0.13348731398582458
visibility: 0.9016381502151489
","x: 223.34048461914062
y: 543.9185180664062
z: 0.2975919842720032
visibility: 0.912091851234436
","x: 234.0538330078125
y: 561.779052734375
z: -0.2840613126754761
visibility: 0.9899744987487793
","x: 211.87286376953125
y: 560.5188598632812
z: 0.19582220911979675
visibility: 0.9837990999221802
","x: 152.03396606445312
y: 332.768798828125
z: 0.0
","x: 149.66624450683594
y: 339.2524719238281
z: -0.0021579808089882135
","x: 146.19529724121094
y: 342.91717529296875
z: -0.003751897718757391
","x: 143.2161407470703
y: 341.62615966796875
z: -0.004604946821928024
","x: 141.9300537109375
y: 338.052734375
z: -0.004893286153674126
","x: 142.56149291992188
y: 336.1773376464844
z: -0.006702517159283161
","x: 142.0253448486328
y: 336.7861633300781
z: -0.008467750623822212
","x: 143.5189666748047
y: 337.09893798828125
z: -0.007748412434011698
","x: 144.86659240722656
y: 336.7435302734375
z: -0.006725791376084089
","x: 142.28009033203125
y: 330.22479248046875
z: -0.006378732621669769
","x: 142.10757446289062
y: 332.36138916015625
z: -0.007504760753363371
","x: 143.3641815185547
y: 333.7196350097656
z: -0.005266031250357628
","x: 144.67640686035156
y: 333.8594055175781
z: -0.003758271224796772
","x: 142.6818389892578
y: 325.42156982421875
z: -0.005932341795414686
","x: 142.38021850585938
y: 328.42138671875
z: -0.00694658188149333
","x: 143.58432006835938
y: 330.09027099609375
z: -0.004507351201027632
","x: 144.706298828125
y: 330.5740966796875
z: -0.002735414309427142
","x: 143.47244262695312
y: 321.5925598144531
z: -0.005695908796042204
","x: 142.97067260742188
y: 324.6423645019531
z: -0.006641588173806667
","x: 144.03456115722656
y: 326.2408447265625
z: -0.005395716521888971
","x: 144.85369873046875
y: 326.49554443359375
z: -0.004089653491973877
",,,,,,,,,,,,,,,,,,,,,
21,"x: 213.74000549316406
y: 244.18997192382812
z: -0.40330997109413147
visibility: 0.999987781047821
","x: 216.13548278808594
y: 239.3327178955078
z: -0.3880004584789276
visibility: 0.9999597072601318
","x: 217.78872680664062
y: 239.57339477539062
z: -0.3880212903022766
visibility: 0.9999591112136841
","x: 219.5540313720703
y: 239.9202880859375
z: -0.3881019651889801
visibility: 0.9999573230743408
","x: 211.90357971191406
y: 239.54530334472656
z: -0.38584887981414795
visibility: 0.9999537467956543
","x: 210.35462951660156
y: 239.94314575195312
z: -0.3859335780143738
visibility: 0.9999485611915588
","x: 208.83358764648438
y: 240.37030029296875
z: -0.3859545588493347
visibility: 0.9999416470527649
","x: 222.80557250976562
y: 245.98507690429688
z: -0.27800044417381287
visibility: 0.9999569654464722
","x: 207.19143676757812
y: 245.64990234375
z: -0.26876387000083923
visibility: 0.9998637437820435
","x: 216.9722442626953
y: 254.2366180419922
z: -0.3615629971027374
visibility: 0.9999846816062927
","x: 211.4050750732422
y: 253.82569885253906
z: -0.359183132648468
visibility: 0.9999729990959167
","x: 236.239013671875
y: 293.5350341796875
z: -0.1969570368528366
visibility: 0.9999607801437378
","x: 194.23533630371094
y: 288.1064758300781
z: -0.17406348884105682
visibility: 0.9999224543571472
","x: 253.1952667236328
y: 334.947265625
z: -0.17979998886585236
visibility: 0.9923781156539917
","x: 176.70755004882812
y: 324.29400634765625
z: -0.18024837970733643
visibility: 0.9483871459960938
","x: 274.4123229980469
y: 340.2619934082031
z: -0.287122905254364
visibility: 0.9803433418273926
","x: 158.15359497070312
y: 322.9363708496094
z: -0.3172280192375183
visibility: 0.9498125314712524
","x: 281.7684020996094
y: 343.04364013671875
z: -0.3124149441719055
visibility: 0.9621435403823853
","x: 152.4884796142578
y: 325.6191711425781
z: -0.3457006812095642
visibility: 0.93043053150177
","x: 281.8005065917969
y: 336.9995422363281
z: -0.35072559118270874
visibility: 0.9651174545288086
","x: 152.60643005371094
y: 327.1086120605469
z: -0.3818628787994385
visibility: 0.9344255924224854
","x: 279.74407958984375
y: 337.2100524902344
z: -0.30494147539138794
visibility: 0.9537741541862488
","x: 154.93878173828125
y: 326.295166015625
z: -0.3360268473625183
visibility: 0.9236146807670593
","x: 229.29714965820312
y: 386.71142578125
z: -0.010916483588516712
visibility: 0.9997861981391907
","x: 205.67037963867188
y: 389.3888854980469
z: 0.010949060320854187
visibility: 0.9998331069946289
","x: 231.3094482421875
y: 457.5764465332031
z: -0.2242179661989212
visibility: 0.9965214729309082
","x: 206.0997314453125
y: 476.8859558105469
z: 0.05349887162446976
visibility: 0.990098237991333
","x: 231.89151000976562
y: 542.8966674804688
z: -0.13369432091712952
visibility: 0.9915748238563538
","x: 219.15673828125
y: 535.0463256835938
z: 0.28174635767936707
visibility: 0.9870657920837402
","x: 229.83860778808594
y: 554.5520629882812
z: -0.13348731398582458
visibility: 0.9016381502151489
","x: 223.34048461914062
y: 543.9185180664062
z: 0.2975919842720032
visibility: 0.912091851234436
","x: 234.0538330078125
y: 561.779052734375
z: -0.2840613126754761
visibility: 0.9899744987487793
","x: 211.87286376953125
y: 560.5188598632812
z: 0.19582220911979675
visibility: 0.9837990999221802
","x: 152.03396606445312
y: 332.768798828125
z: 0.0
","x: 149.66624450683594
y: 339.2524719238281
z: -0.0021579808089882135
","x: 146.19529724121094
y: 342.91717529296875
z: -0.003751897718757391
","x: 143.2161407470703
y: 341.62615966796875
z: -0.004604946821928024
","x: 141.9300537109375
y: 338.052734375
z: -0.004893286153674126
","x: 142.56149291992188
y: 336.1773376464844
z: -0.006702517159283161
","x: 142.0253448486328
y: 336.7861633300781
z: -0.008467750623822212
","x: 143.5189666748047
y: 337.09893798828125
z: -0.007748412434011698
","x: 144.86659240722656
y: 336.7435302734375
z: -0.006725791376084089
","x: 142.28009033203125
y: 330.22479248046875
z: -0.006378732621669769
","x: 142.10757446289062
y: 332.36138916015625
z: -0.007504760753363371
","x: 143.3641815185547
y: 333.7196350097656
z: -0.005266031250357628
","x: 144.67640686035156
y: 333.8594055175781
z: -0.003758271224796772
","x: 142.6818389892578
y: 325.42156982421875
z: -0.005932341795414686
","x: 142.38021850585938
y: 328.42138671875
z: -0.00694658188149333
","x: 143.58432006835938
y: 330.09027099609375
z: -0.004507351201027632
","x: 144.706298828125
y: 330.5740966796875
z: -0.002735414309427142
","x: 143.47244262695312
y: 321.5925598144531
z: -0.005695908796042204
","x: 142.97067260742188
y: 324.6423645019531
z: -0.006641588173806667
","x: 144.03456115722656
y: 326.2408447265625
z: -0.005395716521888971
","x: 144.85369873046875
y: 326.49554443359375
z: -0.004089653491973877
",,,,,,,,,,,,,,,,,,,,,
22,"x: 216.98028564453125
y: 247.8714141845703
z: -0.4129570424556732
visibility: 0.9999855160713196
","x: 218.96034240722656
y: 241.8594970703125
z: -0.39888259768486023
visibility: 0.9999529123306274
","x: 220.57327270507812
y: 242.65017700195312
z: -0.3988713026046753
visibility: 0.9999517202377319
","x: 222.15304565429688
y: 243.4313201904297
z: -0.3988659977912903
visibility: 0.9999492168426514
","x: 214.88182067871094
y: 240.5791015625
z: -0.3977509140968323
visibility: 0.9999483227729797
","x: 213.52737426757812
y: 240.64598083496094
z: -0.3978603482246399
visibility: 0.9999450445175171
","x: 212.1067657470703
y: 240.88270568847656
z: -0.39794403314590454
visibility: 0.9999397397041321
","x: 225.00991821289062
y: 248.86322021484375
z: -0.2977089583873749
visibility: 0.9999181628227234
","x: 210.27218627929688
y: 247.1533203125
z: -0.29370707273483276
visibility: 0.9998606443405151
","x: 219.75021362304688
y: 258.45965576171875
z: -0.3748103678226471
visibility: 0.9999802708625793
","x: 214.7202606201172
y: 258.086669921875
z: -0.3737669587135315
visibility: 0.9999709725379944
","x: 238.99598693847656
y: 300.4876403808594
z: -0.21032340824604034
visibility: 0.9999476671218872
","x: 196.86676025390625
y: 293.081298828125
z: -0.21313278377056122
visibility: 0.9999279379844666
","x: 245.37168884277344
y: 359.97210693359375
z: -0.1665365844964981
visibility: 0.9848398566246033
","x: 188.7834930419922
y: 353.5830993652344
z: -0.16762542724609375
visibility: 0.9528850317001343
","x: 244.27877807617188
y: 412.3568420410156
z: -0.2524474263191223
visibility: 0.9511107802391052
","x: 183.8948516845703
y: 404.69964599609375
z: -0.24443897604942322
visibility: 0.9508357644081116
","x: 245.1873779296875
y: 427.4101257324219
z: -0.2696051597595215
visibility: 0.9215331077575684
","x: 179.772216796875
y: 419.53167724609375
z: -0.26512303948402405
visibility: 0.9281655550003052
","x: 243.60894775390625
y: 427.39263916015625
z: -0.29630517959594727
visibility: 0.9259001016616821
","x: 181.18016052246094
y: 420.31390380859375
z: -0.2996113896369934
visibility: 0.9323558807373047
","x: 242.76368713378906
y: 421.2179870605469
z: -0.26288270950317383
visibility: 0.9133340120315552
","x: 183.71258544921875
y: 415.5386962890625
z: -0.2582915425300598
visibility: 0.9212343096733093
","x: 228.8975830078125
y: 395.3349304199219
z: 0.00415162555873394
visibility: 0.9998016953468323
","x: 205.36431884765625
y: 394.8528747558594
z: -0.004218674264848232
visibility: 0.9998419880867004
","x: 231.1566925048828
y: 471.0196533203125
z: -0.0652569904923439
visibility: 0.995633602142334
","x: 197.08457946777344
y: 475.9456787109375
z: 0.02122212015092373
visibility: 0.9900318384170532
","x: 231.5232696533203
y: 550.1100463867188
z: 0.08415348827838898
visibility: 0.9914808869361877
","x: 187.65452575683594
y: 530.287841796875
z: 0.23478612303733826
visibility: 0.985583484172821
","x: 228.69915771484375
y: 562.4998168945312
z: 0.092173270881176
visibility: 0.9019991755485535
","x: 188.05679321289062
y: 543.7685546875
z: 0.2513100504875183
visibility: 0.8952782154083252
","x: 234.69981384277344
y: 570.6420288085938
z: -0.029800375923514366
visibility: 0.9894155263900757
","x: 184.51748657226562
y: 557.7247314453125
z: 0.14512556791305542
visibility: 0.9814000129699707
",,,,,,,,,,,,,,,,,,,,,,,,,,,,,,,,,,,,,,,,,,
23,"x: 215.91815185546875
y: 252.7335205078125
z: -0.37976229190826416
visibility: 0.9999862313270569
","x: 218.11627197265625
y: 244.1207733154297
z: -0.3862282633781433
visibility: 0.9999560713768005
","x: 219.61669921875
y: 244.8245849609375
z: -0.3865504264831543
visibility: 0.999954879283905
","x: 221.1147003173828
y: 245.59197998046875
z: -0.3863097131252289
visibility: 0.9999521374702454
","x: 213.9158477783203
y: 243.15219116210938
z: -0.36856135725975037
visibility: 0.999951958656311
","x: 212.48028564453125
y: 243.3369598388672
z: -0.3686627745628357
visibility: 0.9999492168426514
","x: 211.07383728027344
y: 243.67123413085938
z: -0.3687283396720886
visibility: 0.9999443292617798
","x: 224.04071044921875
y: 250.1062774658203
z: -0.20774367451667786
visibility: 0.9999204874038696
","x: 209.22286987304688
y: 248.70877075195312
z: -0.22067180275917053
visibility: 0.9998726844787598
","x: 218.9398956298828
y: 263.40496826171875
z: -0.32170823216438293
visibility: 0.9999810457229614
","x: 213.47213745117188
y: 262.5497741699219
z: -0.34030646085739136
visibility: 0.9999730587005615
","x: 237.2921905517578
y: 300.0389404296875
z: -0.11449793726205826
visibility: 0.9999498128890991
","x: 195.8850860595703
y: 293.1435852050781
z: -0.15085718035697937
visibility: 0.9999334216117859
","x: 237.11074829101562
y: 355.9990234375
z: -0.17279350757598877
visibility: 0.9815999269485474
","x: 189.59732055664062
y: 349.3743591308594
z: -0.15526644885540009
visibility: 0.9558536410331726
","x: 215.33233642578125
y: 377.9620666503906
z: -0.38442644476890564
visibility: 0.9500455260276794
","x: 200.48130798339844
y: 385.7528381347656
z: -0.33320263028144836
visibility: 0.9512410163879395
","x: 211.24951171875
y: 384.3624572753906
z: -0.43783360719680786
visibility: 0.92158442735672
","x: 201.6061248779297
y: 398.653564453125
z: -0.38362693786621094
visibility: 0.9282018542289734
","x: 209.07723999023438
y: 376.51348876953125
z: -0.4554036259651184
visibility: 0.925998866558075
","x: 204.4589080810547
y: 396.60595703125
z: -0.4012533128261566
visibility: 0.9320480227470398
","x: 209.98013305664062
y: 374.1211242675781
z: -0.3960750997066498
visibility: 0.9102864861488342
","x: 204.28451538085938
y: 392.0570068359375
z: -0.34307363629341125
visibility: 0.9180247187614441
","x: 228.2390899658203
y: 396.5284423828125
z: 0.011232370510697365
visibility: 0.999817430973053
","x: 204.4202880859375
y: 395.5279846191406
z: -0.011333322152495384
visibility: 0.9998540878295898
","x: 230.91542053222656
y: 473.02752685546875
z: 0.013822403736412525
visibility: 0.9957906007766724
","x: 189.8484649658203
y: 475.3708190917969
z: -0.06212498992681503
visibility: 0.9908701181411743
","x: 231.48719787597656
y: 547.3741455078125
z: 0.19915053248405457
visibility: 0.9921057820320129
","x: 165.99073791503906
y: 532.4219970703125
z: 0.09247548878192902
visibility: 0.9868001937866211
","x: 228.7037353515625
y: 559.67724609375
z: 0.2102716863155365
visibility: 0.9037070870399475
","x: 161.25942993164062
y: 543.8035278320312
z: 0.1015453189611435
visibility: 0.8928819894790649
","x: 234.37611389160156
y: 571.9389038085938
z: 0.0778646394610405
visibility: 0.9899490475654602
","x: 174.55845642089844
y: 560.93115234375
z: -0.03526923805475235
visibility: 0.9828477501869202
",,,,,,,,,,,,,,,,,,,,,,,,,,,,,,,,,,,,,,,,,,
24,"x: 214.56268310546875
y: 252.4501190185547
z: -0.144130140542984
visibility: 0.9999854564666748
","x: 216.80722045898438
y: 244.2809295654297
z: -0.12949703633785248
visibility: 0.9999558329582214
","x: 218.3380126953125
y: 244.92523193359375
z: -0.12950268387794495
visibility: 0.9999538660049438
","x: 219.78744506835938
y: 245.64425659179688
z: -0.12947578728199005
visibility: 0.9999505281448364
","x: 212.43991088867188
y: 243.51254272460938
z: -0.128656268119812
visibility: 0.9999520778656006
","x: 211.0057830810547
y: 243.7375030517578
z: -0.1286768764257431
visibility: 0.9999502301216125
","x: 209.61085510253906
y: 244.0866241455078
z: -0.12873557209968567
visibility: 0.999946653842926
","x: 222.7188262939453
y: 250.2430419921875
z: -0.0316818431019783
visibility: 0.9999122619628906
","x: 207.96673583984375
y: 249.1188201904297
z: -0.02946319617331028
visibility: 0.9998817443847656
","x: 217.8267059326172
y: 262.5375061035156
z: -0.10641185194253922
visibility: 0.9999790787696838
","x: 212.04971313476562
y: 261.72857666015625
z: -0.10655419528484344
visibility: 0.9999741911888123
","x: 236.22129821777344
y: 294.9626770019531
z: 0.0116116339340806
visibility: 0.9999435544013977
","x: 195.22239685058594
y: 292.7041015625
z: 0.0014869228471070528
visibility: 0.9999366998672485
","x: 231.80995178222656
y: 343.4473876953125
z: -0.10640203952789307
visibility: 0.9774938821792603
","x: 189.65267944335938
y: 347.284423828125
z: -0.07801961898803711
visibility: 0.9588962197303772
","x: 217.8876953125
y: 295.9512634277344
z: -0.3137710690498352
visibility: 0.9511113166809082
","x: 213.4507598876953
y: 351.3409118652344
z: -0.1997007429599762
visibility: 0.9528072476387024
","x: 214.21841430664062
y: 284.7367248535156
z: -0.3394052982330322
visibility: 0.9230655431747437
","x: 219.8598175048828
y: 351.56622314453125
z: -0.23407796025276184
visibility: 0.9271994233131409
","x: 215.21995544433594
y: 280.26678466796875
z: -0.3322444558143616
visibility: 0.9267411231994629
","x: 220.95712280273438
y: 345.45263671875
z: -0.22858524322509766
visibility: 0.9300610423088074
","x: 216.09796142578125
y: 284.6395568847656
z: -0.34148019552230835
visibility: 0.9094455242156982
","x: 219.15585327148438
y: 344.77606201171875
z: -0.19883115589618683
visibility: 0.9140994548797607
","x: 228.73150634765625
y: 397.04388427734375
z: 0.004490816034376621
visibility: 0.9998316764831543
","x: 204.59759521484375
y: 398.1106262207031
z: -0.004583799745887518
visibility: 0.9998647570610046
","x: 231.9029541015625
y: 474.9264221191406
z: -0.019391749054193497
visibility: 0.9957333207130432
","x: 191.2168731689453
y: 477.189453125
z: -0.05278274416923523
visibility: 0.9912829399108887
","x: 231.35865783691406
y: 544.3399658203125
z: 0.19541874527931213
visibility: 0.9921079277992249
","x: 167.25360107421875
y: 533.615478515625
z: 0.11931274086236954
visibility: 0.9873802661895752
","x: 228.05335998535156
y: 554.3012084960938
z: 0.21176442503929138
visibility: 0.8877217173576355
","x: 162.33787536621094
y: 543.2393798828125
z: 0.13235048949718475
visibility: 0.883660078048706
","x: 231.10179138183594
y: 569.8778686523438
z: 0.09403296560049057
visibility: 0.9894108772277832
","x: 174.03346252441406
y: 562.7263793945312
z: 0.01532578282058239
visibility: 0.9833983778953552
",,,,,,,,,,,,,,,,,,,,,,,,,,,,,,,,,,,,,,,,,,
25,"x: 218.1354522705078
y: 253.22247314453125
z: -0.10934971272945404
visibility: 0.99998539686203
","x: 220.06134033203125
y: 246.04209899902344
z: -0.09264808148145676
visibility: 0.9999557733535767
","x: 221.3886260986328
y: 246.68701171875
z: -0.09266643971204758
visibility: 0.9999526739120483
","x: 222.7460174560547
y: 247.41220092773438
z: -0.09265630692243576
visibility: 0.9999498128890991
","x: 216.28672790527344
y: 244.81483459472656
z: -0.09427645802497864
visibility: 0.9999533891677856
","x: 214.8831024169922
y: 244.5830078125
z: -0.09427092969417572
visibility: 0.9999516010284424
","x: 213.4198760986328
y: 244.53176879882812
z: -0.09430863708257675
visibility: 0.999949038028717
","x: 225.2563018798828
y: 252.09881591796875
z: 0.0036152482498437166
visibility: 0.9999004602432251
","x: 210.53756713867188
y: 249.3909912109375
z: -0.004259730689227581
visibility: 0.9998918175697327
","x: 220.86923217773438
y: 262.659423828125
z: -0.07249598950147629
visibility: 0.9999781847000122
","x: 216.00833129882812
y: 261.7633361816406
z: -0.07504366338253021
visibility: 0.9999759197235107
","x: 237.50511169433594
y: 292.418701171875
z: 0.03961757570505142
visibility: 0.9999468326568604
","x: 197.02496337890625
y: 292.7774353027344
z: 0.014895674772560596
visibility: 0.9999421834945679
","x: 231.88865661621094
y: 329.0754699707031
z: -0.09139178693294525
visibility: 0.9775195121765137
","x: 192.48280334472656
y: 346.96697998046875
z: -0.030465969815850258
visibility: 0.962175726890564
","x: 217.81906127929688
y: 285.41070556640625
z: -0.2875843346118927
visibility: 0.9553170800209045
","x: 212.33505249023438
y: 367.1296691894531
z: -0.11638443171977997
visibility: 0.954478919506073
","x: 213.21701049804688
y: 275.40234375
z: -0.3203071355819702
visibility: 0.9295801520347595
","x: 216.86691284179688
y: 379.9124450683594
z: -0.14524373412132263
visibility: 0.9278327822685242
","x: 214.16470336914062
y: 272.3267517089844
z: -0.31256550550460815
visibility: 0.9328322410583496
","x: 219.82546997070312
y: 373.33270263671875
z: -0.1501142382621765
visibility: 0.930169939994812
","x: 215.688720703125
y: 275.5478515625
z: -0.31786391139030457
visibility: 0.9164729118347168
","x: 218.89366149902344
y: 368.8509521484375
z: -0.1183566227555275
visibility: 0.9139056205749512
","x: 233.04664611816406
y: 396.5611267089844
z: 0.020566564053297043
visibility: 0.9998465776443481
","x: 209.28565979003906
y: 397.0943908691406
z: -0.020660413429141045
visibility: 0.9998735785484314
","x: 233.47755432128906
y: 476.9761657714844
z: -0.049220237880945206
visibility: 0.9947195649147034
","x: 217.71580505371094
y: 473.81512451171875
z: -0.12726446986198425
visibility: 0.9916107058525085
","x: 229.91514587402344
y: 545.0428466796875
z: 0.12030382454395294
visibility: 0.9909874796867371
","x: 181.8946075439453
y: 522.0694580078125
z: 0.08014973998069763
visibility: 0.9858194589614868
","x: 225.22747802734375
y: 554.2906494140625
z: 0.1324576735496521
visibility: 0.8772730827331543
","x: 176.3302459716797
y: 524.7045288085938
z: 0.0988539308309555
visibility: 0.8707224130630493
","x: 231.00697326660156
y: 570.7515869140625
z: 0.0351925827562809
visibility: 0.9878223538398743
","x: 187.2767791748047
y: 559.1080322265625
z: 0.026256829500198364
visibility: 0.9817679524421692
",,,,,,,,,,,,,,,,,,,,,,,,,,,,,,,,,,,,,,,,,,
26,"x: 223.9508056640625
y: 250.51251220703125
z: -0.19385218620300293
visibility: 0.9999486804008484
","x: 226.074951171875
y: 245.09149169921875
z: -0.17673155665397644
visibility: 0.9998299479484558
","x: 227.56732177734375
y: 245.87786865234375
z: -0.17678894102573395
visibility: 0.999800980091095
","x: 229.0009002685547
y: 246.75123596191406
z: -0.17677468061447144
visibility: 0.9997806549072266
","x: 221.88853454589844
y: 243.76040649414062
z: -0.17662039399147034
visibility: 0.9998887777328491
","x: 220.55287170410156
