uscmakers/ReverseChoreography/data/4_peaches_justin_bieber.csv
,NOSE,LEFT_EYE_INNER,LEFT_EYE,LEFT_EYE_OUTER,RIGHT_EYE_INNER,RIGHT_EYE,RIGHT_EYE_OUTER,LEFT_EAR,RIGHT_EAR,MOUTH_LEFT,MOUTH_RIGHT,LEFT_SHOULDER,RIGHT_SHOULDER,LEFT_ELBOW,RIGHT_ELBOW,LEFT_WRIST,RIGHT_WRIST,LEFT_PINKY,RIGHT_PINKY,LEFT_INDEX,RIGHT_INDEX,LEFT_THUMB,RIGHT_THUMB,LEFT_HIP,RIGHT_HIP,LEFT_KNEE,RIGHT_KNEE,LEFT_ANKLE,RIGHT_ANKLE,LEFT_HEEL,RIGHT_HEEL,LEFT_FOOT_INDEX,RIGHT_FOOT_INDEX,WRIST,THUMB_CPC,THUMB_MCP,THUMB_IP,THUMB_TIP,INDEX_FINGER_MCP,INDEX_FINGER_PIP,INDEX_FINGER_DIP,INDEX_FINGER_TIP,MIDDLE_FINGER_MCP,MIDDLE_FINGER_PIP,MIDDLE_FINGER_DIP,MIDDLE_FINGER_TIP,RING_FINGER_PIP,RING_FINGER_DIP,RING_FINGER_TIP,RING_FINGER_MCP,PINKY_MCP,PINKY_PIP,PINKY_DIP,PINKY_TIP,WRIST2,THUMB_CPC2,THUMB_MCP2,THUMB_IP2,THUMB_TIP2,INDEX_FINGER_MCP2,INDEX_FINGER_PIP2,INDEX_FINGER_DIP2,INDEX_FINGER_TIP2,MIDDLE_FINGER_MCP2,MIDDLE_FINGER_PIP2,MIDDLE_FINGER_DIP2,MIDDLE_FINGER_TIP2,RING_FINGER_PIP2,RING_FINGER_DIP2,RING_FINGER_TIP2,RING_FINGER_MCP2,PINKY_MCP2,PINKY_PIP2,PINKY_DIP2,PINKY_TIP2
0,"x: 235.4464874267578
y: 301.2586669921875
z: -0.49998483061790466
visibility: 0.999987006187439
","x: 237.75607299804688
y: 293.26605224609375
z: -0.48732322454452515
visibility: 0.9999902248382568
","x: 239.48858642578125
y: 293.2168884277344
z: -0.4874032139778137
visibility: 0.9999891519546509
","x: 241.0480194091797
y: 293.17291259765625
z: -0.4876086115837097
visibility: 0.9999916553497314
","x: 232.98245239257812
y: 293.7181396484375
z: -0.48796215653419495
visibility: 0.9999841451644897
","x: 231.4983673095703
y: 293.9244384765625
z: -0.48801136016845703
visibility: 0.9999735355377197
","x: 230.13111877441406
y: 294.10931396484375
z: -0.4879910945892334
visibility: 0.9999723434448242
","x: 243.56918334960938
y: 295.22247314453125
z: -0.377389132976532
visibility: 0.9999935626983643
","x: 228.44650268554688
y: 296.6025085449219
z: -0.3762606382369995
visibility: 0.9999759197235107
","x: 239.26937866210938
y: 309.91192626953125
z: -0.4554237425327301
visibility: 0.9999910593032837
","x: 233.00779724121094
y: 310.89605712890625
z: -0.4551759362220764
visibility: 0.9999827146530151
","x: 256.65277099609375
y: 339.38970947265625
z: -0.2513551414012909
visibility: 0.9999687671661377
","x: 215.5682830810547
y: 336.82489013671875
z: -0.2938457429409027
visibility: 0.9998168349266052
","x: 258.24566650390625
y: 392.20684814453125
z: -0.29317328333854675
visibility: 0.9575752019882202
","x: 215.6177215576172
y: 394.2642822265625
z: -0.37165141105651855
visibility: 0.9336667060852051
","x: 277.4359436035156
y: 399.91796875
z: -0.4373977780342102
visibility: 0.9283595681190491
","x: 239.43646240234375
y: 395.8193359375
z: -0.5083800554275513
visibility: 0.8758453130722046
","x: 283.9168395996094
y: 403.1392822265625
z: -0.47267061471939087
visibility: 0.8507177829742432
","x: 245.63938903808594
y: 399.2367248535156
z: -0.5461768507957458
visibility: 0.7686402797698975
","x: 286.26495361328125
y: 399.06207275390625
z: -0.49210605025291443
visibility: 0.858778178691864
","x: 247.6326904296875
y: 392.217529296875
z: -0.5444488525390625
visibility: 0.732171893119812
","x: 283.7528076171875
y: 397.6559143066406
z: -0.4494510591030121
visibility: 0.8060056567192078
","x: 246.1710205078125
y: 390.3724670410156
z: -0.5107847452163696
visibility: 0.6144305467605591
","x: 244.26080322265625
y: 400.5394287109375
z: 0.01396878995001316
visibility: 0.9991951584815979
","x: 221.3147430419922
y: 398.1485595703125
z: -0.013849146664142609
visibility: 0.9993645548820496
","x: 253.14730834960938
y: 467.2201843261719
z: -0.14875724911689758
visibility: 0.9706483483314514
","x: 216.34921264648438
y: 465.164794921875
z: -0.15700431168079376
visibility: 0.9703187942504883
","x: 246.61978149414062
y: 541.4722290039062
z: -0.04450415447354317
visibility: 0.9650496244430542
","x: 207.28834533691406
y: 541.8641967773438
z: -0.04980024695396423
visibility: 0.9865177273750305
","x: 242.4093017578125
y: 553.4256591796875
z: -0.04193701595067978
visibility: 0.8975659012794495
","x: 208.64901733398438
y: 553.6502685546875
z: -0.04608071967959404
visibility: 0.8546643853187561
","x: 255.1435089111328
y: 563.8880004882812
z: -0.16496708989143372
visibility: 0.9351086616516113
","x: 200.2457733154297
y: 564.2452392578125
z: -0.17398343980312347
visibility: 0.9651003479957581
",,,,,,,,,,,,,,,,,,,,,,,,,,,,,,,,,,,,,,,,,,
1,"x: 234.7908477783203
y: 311.88055419921875
z: -0.4929438531398773
visibility: 0.9999881386756897
","x: 237.2678680419922
y: 302.5680236816406
z: -0.4878540635108948
visibility: 0.9999903440475464
","x: 239.0511474609375
y: 302.3830871582031
z: -0.48788291215896606
visibility: 0.99998939037323
","x: 240.63861083984375
y: 302.251953125
z: -0.48805785179138184
visibility: 0.9999915361404419
","x: 232.57530212402344
y: 302.8199462890625
z: -0.48663529753685
visibility: 0.9999845623970032
","x: 231.1182098388672
y: 302.75970458984375
z: -0.4867037236690521
visibility: 0.9999747276306152
","x: 229.75181579589844
y: 302.7914123535156
z: -0.48665371537208557
visibility: 0.9999732971191406
","x: 243.2965545654297
y: 303.3419494628906
z: -0.4027268886566162
visibility: 0.9999933838844299
","x: 228.11119079589844
y: 303.0964050292969
z: -0.3815200924873352
visibility: 0.9999767541885376
","x: 238.58175659179688
y: 318.9819030761719
z: -0.4543212354183197
visibility: 0.9999909996986389
","x: 232.49258422851562
y: 319.77593994140625
z: -0.4491540789604187
visibility: 0.9999828338623047
","x: 257.15509033203125
y: 341.5734558105469
z: -0.3046647608280182
visibility: 0.9999706149101257
","x: 215.5681610107422
y: 329.5624084472656
z: -0.28328853845596313
visibility: 0.9998334050178528
","x: 280.0252990722656
y: 369.7243957519531
z: -0.36021673679351807
visibility: 0.9616379141807556
","x: 192.3409881591797
y: 323.5960388183594
z: -0.2930963635444641
visibility: 0.9401276111602783
","x: 301.5224609375
y: 368.77020263671875
z: -0.48131975531578064
visibility: 0.9345812797546387
","x: 169.01278686523438
y: 313.6798400878906
z: -0.38362205028533936
visibility: 0.8877548575401306
","x: 307.79461669921875
y: 364.0611572265625
z: -0.5115283727645874
visibility: 0.8626116514205933
","x: 161.00421142578125
y: 307.776123046875
z: -0.40437179803848267
visibility: 0.7899938225746155
","x: 307.22882080078125
y: 362.07940673828125
z: -0.5387411117553711
visibility: 0.8704375624656677
","x: 160.30508422851562
y: 307.2985534667969
z: -0.4363676607608795
visibility: 0.7574641704559326
","x: 304.7928466796875
y: 364.16119384765625
z: -0.4980089068412781
visibility: 0.8232264518737793
","x: 163.0981903076172
y: 309.9945983886719
z: -0.40062999725341797
visibility: 0.6516675353050232
","x: 247.42276000976562
y: 410.38720703125
z: -0.009423633106052876
visibility: 0.9992236495018005
","x: 224.75958251953125
y: 410.6261901855469
z: 0.009444888681173325
visibility: 0.9993858933448792
","x: 244.3429718017578
y: 480.6328125
z: -0.005008065141737461
visibility: 0.9727323055267334
","x: 218.27188110351562
y: 478.07720947265625
z: 0.02705371007323265
visibility: 0.9727144837379456
","x: 246.33038330078125
y: 544.3457641601562
z: 0.151991069316864
visibility: 0.9680376648902893
","x: 226.21707153320312
y: 541.8335571289062
z: 0.2226521223783493
visibility: 0.9873517751693726
","x: 242.35052490234375
y: 554.08251953125
z: 0.16104605793952942
visibility: 0.9034186601638794
","x: 230.03457641601562
y: 552.964111328125
z: 0.23690056800842285
visibility: 0.8657690286636353
","x: 253.7227783203125
y: 564.9280395507812
z: 0.052687447518110275
visibility: 0.9409668445587158
","x: 217.5852813720703
y: 564.2457275390625
z: 0.1458195000886917
visibility: 0.9677904844284058
",,,,,,,,,,,,,,,,,,,,,,,,,,,,,,,,,,,,,,,,,,
2,"x: 232.17677307128906
y: 314.77655029296875
z: -0.4632168710231781
visibility: 0.9999892115592957
","x: 234.84767150878906
y: 306.3446350097656
z: -0.4632435739040375
visibility: 0.9999909400939941
","x: 236.9051513671875
y: 306.0849304199219
z: -0.46323004364967346
visibility: 0.9999900460243225
","x: 238.86032104492188
y: 305.826416015625
z: -0.4633709788322449
visibility: 0.9999920725822449
","x: 230.37303161621094
y: 306.2441711425781
z: -0.4532921314239502
visibility: 0.9999852776527405
","x: 229.16636657714844
y: 305.8984069824219
z: -0.4533627927303314
visibility: 0.9999756813049316
","x: 227.9688262939453
y: 305.6493225097656
z: -0.4532965123653412
visibility: 0.9999746084213257
","x: 242.38380432128906
y: 305.9512023925781
z: -0.39861398935317993
visibility: 0.9999938607215881
","x: 227.02151489257812
y: 304.9794921875
z: -0.3383691906929016
visibility: 0.9999775290489197
","x: 236.01611328125
y: 321.23785400390625
z: -0.42952507734298706
visibility: 0.999991774559021
","x: 230.65200805664062
y: 320.6956787109375
z: -0.41505512595176697
visibility: 0.999984085559845
","x: 256.5492858886719
y: 340.8497619628906
z: -0.3231154978275299
visibility: 0.9999734163284302
","x: 216.9480743408203
y: 324.28179931640625
z: -0.22036147117614746
visibility: 0.9998489618301392
","x: 282.2861328125
y: 361.90386962890625
z: -0.4626610279083252
visibility: 0.9654244780540466
","x: 194.24502563476562
y: 310.764404296875
z: -0.23495745658874512
visibility: 0.9460273385047913
","x: 291.4639892578125
y: 367.71649169921875
z: -0.6496594548225403
visibility: 0.94061678647995
","x: 168.92626953125
y: 294.4300537109375
z: -0.32809269428253174
visibility: 0.8987084031105042
","x: 301.0923156738281
y: 370.93304443359375
z: -0.6933918595314026
visibility: 0.874902606010437
","x: 161.83892822265625
y: 290.7151184082031
z: -0.34979504346847534
visibility: 0.8098742961883545
","x: 288.8049621582031
y: 371.5120849609375
z: -0.7048191428184509
visibility: 0.8820797204971313
","x: 161.1952362060547
y: 289.1347351074219
z: -0.3799789547920227
visibility: 0.7806990146636963
","x: 288.002685546875
y: 371.00323486328125
z: -0.6592311263084412
visibility: 0.8391247987747192
","x: 163.72467041015625
y: 291.26519775390625
z: -0.34518828988075256
visibility: 0.6855452060699463
","x: 248.1283416748047
y: 414.4372863769531
z: -0.0364440456032753
visibility: 0.9992889165878296
","x: 226.23294067382812
y: 413.0575256347656
z: 0.03643003851175308
visibility: 0.9994345307350159
","x: 234.06887817382812
y: 482.8395080566406
z: -0.08456876873970032
visibility: 0.9749108552932739
","x: 218.10821533203125
y: 479.3498229980469
z: -0.03439635783433914
visibility: 0.9745396971702576
","x: 245.09390258789062
y: 544.9939575195312
z: 0.060356467962265015
visibility: 0.9707860350608826
","x: 228.11245727539062
y: 542.5891723632812
z: 0.14822110533714294
visibility: 0.9877886772155762
","x: 243.3253631591797
y: 554.0914306640625
z: 0.06973890960216522
visibility: 0.9074540138244629
","x: 233.44656372070312
y: 552.9683837890625
z: 0.16108909249305725
visibility: 0.8750333786010742
","x: 251.16171264648438
y: 565.3960571289062
z: -0.038224633783102036
visibility: 0.9459228515625
","x: 218.2642364501953
y: 566.1629638671875
z: 0.06981973350048065
visibility: 0.969700038433075
","x: 167.7996063232422
y: 294.3885803222656
z: 0.0
","x: 164.4521942138672
y: 296.2533874511719
z: -0.0007931509171612561
","x: 160.9931640625
y: 296.0265808105469
z: -0.001866523060016334
","x: 158.26734924316406
y: 295.8425598144531
z: -0.0034241077955812216
","x: 155.9873504638672
y: 296.5539245605469
z: -0.004854203667491674
","x: 158.97915649414062
y: 286.4915771484375
z: 0.0006046952912583947
","x: 155.7962188720703
y: 283.32806396484375
z: -0.0014283960917964578
","x: 153.83030700683594
y: 281.77972412109375
z: -0.0027316955383867025
","x: 152.24508666992188
y: 280.6802978515625
z: -0.003476581769064069
","x: 159.91041564941406
y: 284.1495056152344
z: -0.0009110381361097097
","x: 156.82632446289062
y: 279.4410400390625
z: -0.0026419193018227816
","x: 154.98880004882812
y: 277.64971923828125
z: -0.003459276631474495
","x: 153.4774932861328
y: 276.5364074707031
z: -0.003982911352068186
","x: 161.2879180908203
y: 282.71661376953125
z: -0.002936471253633499
","x: 158.9368438720703
y: 278.57135009765625
z: -0.0050412253476679325
","x: 157.2144775390625
y: 277.4734191894531
z: -0.005690189078450203
","x: 155.82443237304688
y: 276.9618225097656
z: -0.005902816541492939
","x: 163.126708984375
y: 282.2039489746094
z: -0.005266271997243166
","x: 161.79400634765625
y: 278.9102783203125
z: -0.006861930247396231
","x: 160.6609344482422
y: 278.17205810546875
z: -0.00717719504609704
","x: 159.76446533203125
y: 278.05224609375
z: -0.007217575330287218
",,,,,,,,,,,,,,,,,,,,,
3,"x: 232.17677307128906
y: 314.77655029296875
z: -0.4632168710231781
visibility: 0.9999892115592957
","x: 234.84767150878906
y: 306.3446350097656
z: -0.4632435739040375
visibility: 0.9999909400939941
","x: 236.9051513671875
y: 306.0849304199219
z: -0.46323004364967346
visibility: 0.9999900460243225
","x: 238.86032104492188
y: 305.826416015625
z: -0.4633709788322449
visibility: 0.9999920725822449
","x: 230.37303161621094
y: 306.2441711425781
z: -0.4532921314239502
visibility: 0.9999852776527405
","x: 229.16636657714844
y: 305.8984069824219
z: -0.4533627927303314
visibility: 0.9999756813049316
","x: 227.9688262939453
y: 305.6493225097656
z: -0.4532965123653412
visibility: 0.9999746084213257
","x: 242.38380432128906
y: 305.9512023925781
z: -0.39861398935317993
visibility: 0.9999938607215881
","x: 227.02151489257812
y: 304.9794921875
z: -0.3383691906929016
visibility: 0.9999775290489197
","x: 236.01611328125
y: 321.23785400390625
z: -0.42952507734298706
visibility: 0.999991774559021
","x: 230.65200805664062
y: 320.6956787109375
z: -0.41505512595176697
visibility: 0.999984085559845
","x: 256.5492858886719
y: 340.8497619628906
z: -0.3231154978275299
visibility: 0.9999734163284302
","x: 216.9480743408203
y: 324.28179931640625
z: -0.22036147117614746
visibility: 0.9998489618301392
","x: 282.2861328125
y: 361.90386962890625
z: -0.4626610279083252
visibility: 0.9654244780540466
","x: 194.24502563476562
y: 310.764404296875
z: -0.23495745658874512
visibility: 0.9460273385047913
","x: 291.4639892578125
y: 367.71649169921875
z: -0.6496594548225403
visibility: 0.94061678647995
","x: 168.92626953125
y: 294.4300537109375
z: -0.32809269428253174
visibility: 0.8987084031105042
","x: 301.0923156738281
y: 370.93304443359375
z: -0.6933918595314026
visibility: 0.874902606010437
","x: 161.83892822265625
y: 290.7151184082031
z: -0.34979504346847534
visibility: 0.8098742961883545
","x: 288.8049621582031
y: 371.5120849609375
z: -0.7048191428184509
visibility: 0.8820797204971313
","x: 161.1952362060547
y: 289.1347351074219
z: -0.3799789547920227
visibility: 0.7806990146636963
","x: 288.002685546875
y: 371.00323486328125
z: -0.6592311263084412
visibility: 0.8391247987747192
","x: 163.72467041015625
y: 291.26519775390625
z: -0.34518828988075256
visibility: 0.6855452060699463
","x: 248.1283416748047
y: 414.4372863769531
z: -0.0364440456032753
visibility: 0.9992889165878296
","x: 226.23294067382812
y: 413.0575256347656
z: 0.03643003851175308
visibility: 0.9994345307350159
","x: 234.06887817382812
y: 482.8395080566406
z: -0.08456876873970032
visibility: 0.9749108552932739
","x: 218.10821533203125
y: 479.3498229980469
z: -0.03439635783433914
visibility: 0.9745396971702576
","x: 245.09390258789062
y: 544.9939575195312
z: 0.060356467962265015
visibility: 0.9707860350608826
","x: 228.11245727539062
y: 542.5891723632812
z: 0.14822110533714294
visibility: 0.9877886772155762
","x: 243.3253631591797
y: 554.0914306640625
z: 0.06973890960216522
visibility: 0.9074540138244629
","x: 233.44656372070312
y: 552.9683837890625
z: 0.16108909249305725
visibility: 0.8750333786010742
","x: 251.16171264648438
y: 565.3960571289062
z: -0.038224633783102036
visibility: 0.9459228515625
","x: 218.2642364501953
y: 566.1629638671875
z: 0.06981973350048065
visibility: 0.969700038433075
","x: 167.7996063232422
y: 294.3885803222656
z: 0.0
","x: 164.4521942138672
y: 296.2533874511719
z: -0.0007931509171612561
","x: 160.9931640625
y: 296.0265808105469
z: -0.001866523060016334
","x: 158.26734924316406
y: 295.8425598144531
z: -0.0034241077955812216
","x: 155.9873504638672
y: 296.5539245605469
z: -0.004854203667491674
","x: 158.97915649414062
y: 286.4915771484375
z: 0.0006046952912583947
","x: 155.7962188720703
y: 283.32806396484375
z: -0.0014283960917964578
","x: 153.83030700683594
y: 281.77972412109375
z: -0.0027316955383867025
","x: 152.24508666992188
y: 280.6802978515625
z: -0.003476581769064069
","x: 159.91041564941406
y: 284.1495056152344
z: -0.0009110381361097097
","x: 156.82632446289062
y: 279.4410400390625
z: -0.0026419193018227816
","x: 154.98880004882812
y: 277.64971923828125
z: -0.003459276631474495
","x: 153.4774932861328
y: 276.5364074707031
z: -0.003982911352068186
","x: 161.2879180908203
y: 282.71661376953125
z: -0.002936471253633499
","x: 158.9368438720703
y: 278.57135009765625
z: -0.0050412253476679325
","x: 157.2144775390625
y: 277.4734191894531
z: -0.005690189078450203
","x: 155.82443237304688
y: 276.9618225097656
z: -0.005902816541492939
","x: 163.126708984375
y: 282.2039489746094
z: -0.005266271997243166
","x: 161.79400634765625
y: 278.9102783203125
z: -0.006861930247396231
","x: 160.6609344482422
y: 278.17205810546875
z: -0.00717719504609704
","x: 159.76446533203125
y: 278.05224609375
z: -0.007217575330287218
",,,,,,,,,,,,,,,,,,,,,
4,"x: 232.58193969726562
y: 314.6771545410156
z: -0.5489349961280823
visibility: 0.9999902844429016
","x: 235.07679748535156
y: 305.96636962890625
z: -0.5469403266906738
visibility: 0.999991774559021
","x: 237.0886688232422
y: 305.93756103515625
z: -0.546819269657135
visibility: 0.9999909996986389
","x: 239.0171356201172
y: 305.9937744140625
z: -0.5469351410865784
visibility: 0.999992847442627
","x: 230.6536102294922
y: 305.6438293457031
z: -0.5418090224266052
visibility: 0.9999866485595703
","x: 229.38937377929688
y: 305.3118591308594
z: -0.5419058203697205
visibility: 0.9999779462814331
","x: 228.1563720703125
y: 304.9767761230469
z: -0.5418637990951538
visibility: 0.9999769926071167
","x: 242.36209106445312
y: 306.7158203125
z: -0.4516329765319824
visibility: 0.9999944567680359
","x: 226.8368682861328
y: 304.1501159667969
z: -0.42625030875205994
visibility: 0.9999796748161316
","x: 236.1990509033203
y: 321.2892150878906
z: -0.5058891773223877
visibility: 0.9999926090240479
","x: 230.65460205078125
y: 320.75970458984375
z: -0.49911147356033325
visibility: 0.9999856352806091
","x: 255.62399291992188
y: 339.40716552734375
z: -0.37224656343460083
visibility: 0.9999759793281555
","x: 217.167236328125
y: 313.704345703125
z: -0.2839655578136444
visibility: 0.9998634457588196
","x: 284.9032287597656
y: 360.00653076171875
z: -0.561936616897583
visibility: 0.968863308429718
","x: 199.08169555664062
y: 292.7401428222656
z: -0.36756080389022827
visibility: 0.9507834315299988
","x: 273.5833435058594
y: 357.23028564453125
z: -0.7691668272018433
visibility: 0.9463467597961426
","x: 180.54705810546875
y: 309.7388000488281
z: -0.5047595500946045
visibility: 0.9017578959465027
","x: 268.7945251464844
y: 360.4032897949219
z: -0.8108758926391602
visibility: 0.8864709734916687
","x: 175.12850952148438
y: 314.3969421386719
z: -0.5283920168876648
visibility: 0.8090243339538574
","x: 264.6014709472656
y: 359.41827392578125
z: -0.7985248565673828
visibility: 0.8928508162498474
","x: 177.58963012695312
y: 315.8202209472656
z: -0.5377253890037537
visibility: 0.7823491096496582
","x: 265.48663330078125
y: 359.29437255859375
z: -0.7671111822128296
visibility: 0.8530475497245789
","x: 180.0873565673828
y: 315.7143859863281
z: -0.5136095285415649
visibility: 0.6971372961997986
","x: 250.98089599609375
y: 411.58062744140625
z: -0.024592973291873932
visibility: 0.99933260679245
","x: 228.9360809326172
y: 410.4760437011719
z: 0.024460848420858383
visibility: 0.9994834065437317
","x: 251.94883728027344
y: 479.6896667480469
z: -0.08388768881559372
visibility: 0.9772470593452454
","x: 218.7255859375
y: 476.9209289550781
z: -0.10772582143545151
visibility: 0.9768797159194946
","x: 258.9779968261719
y: 534.3843383789062
z: 0.12120380252599716
visibility: 0.9734721779823303
","x: 229.59681701660156
y: 542.3369140625
z: 0.07949482649564743
visibility: 0.9888815879821777
","x: 260.833984375
y: 540.12451171875
z: 0.13366368412971497
visibility: 0.903223991394043
","x: 234.7663116455078
y: 553.0341796875
z: 0.09117142111063004
visibility: 0.8855015635490417
","x: 256.8141784667969
y: 564.0747680664062
z: -0.0038757696747779846
visibility: 0.9507694244384766
","x: 219.4573211669922
y: 566.1708984375
z: -0.029402801766991615
visibility: 0.9724623560905457
",,,,,,,,,,,,,,,,,,,,,,,,,,,,,,,,,,,,,,,,,,
5,"x: 237.0091552734375
y: 306.5997619628906
z: -0.4864174425601959
visibility: 0.999990701675415
","x: 239.62115478515625
y: 298.24334716796875
z: -0.48358696699142456
visibility: 0.9999910593032837
","x: 241.20425415039062
y: 298.4203796386719
z: -0.48345455527305603
visibility: 0.9999905824661255
","x: 242.862060546875
y: 298.5815734863281
z: -0.48352479934692383
visibility: 0.9999920129776001
","x: 235.9314422607422
y: 296.75677490234375
z: -0.47798681259155273
visibility: 0.9999861121177673
","x: 234.5850372314453
y: 295.8988037109375
z: -0.4780525267124176
visibility: 0.9999779462814331
","x: 233.20166015625
y: 295.040283203125
z: -0.4779480993747711
visibility: 0.9999760389328003
","x: 245.58566284179688
y: 299.6209411621094
z: -0.384785532951355
visibility: 0.9999943375587463
","x: 231.01629638671875
y: 293.7742919921875
z: -0.35890311002731323
visibility: 0.9999774694442749
","x: 238.78887939453125
y: 312.557861328125
z: -0.44154372811317444
visibility: 0.9999927282333374
","x: 234.4888916015625
y: 311.9286804199219
z: -0.4349401891231537
visibility: 0.9999852180480957
","x: 255.66876220703125
y: 332.84564208984375
z: -0.2876095175743103
visibility: 0.9999783039093018
","x: 221.72836303710938
y: 311.206298828125
z: -0.17196956276893616
visibility: 0.9998724460601807
","x: 281.30029296875
y: 356.5438537597656
z: -0.19094327092170715
visibility: 0.9719127416610718
","x: 214.44371032714844
y: 325.991455078125
z: 0.029450541362166405
visibility: 0.9066087603569031
","x: 266.2855224609375
y: 370.2716369628906
z: -0.14938783645629883
visibility: 0.9509690999984741
","x: 208.07894897460938
y: 337.4066467285156
z: 0.11417718976736069
visibility: 0.8636276125907898
","x: 261.865478515625
y: 366.7034606933594
z: -0.15207485854625702
visibility: 0.8943445086479187
","x: 204.5928955078125
y: 358.0128479003906
z: 0.13133323192596436
visibility: 0.7707029581069946
","x: 259.42291259765625
y: 370.4975891113281
z: -0.16126491129398346
visibility: 0.9001458883285522
","x: 208.62249755859375
y: 362.426025390625
z: 0.10243412107229233
visibility: 0.7488394975662231
","x: 260.3783264160156
y: 370.23193359375
z: -0.14742831885814667
visibility: 0.8613914847373962
","x: 209.24481201171875
y: 357.2996520996094
z: 0.10754455626010895
visibility: 0.6733631491661072
","x: 255.385009765625
y: 410.3915710449219
z: -0.03370073065161705
visibility: 0.999381422996521
","x: 234.71527099609375
y: 409.80401611328125
z: 0.033643923699855804
visibility: 0.9994972944259644
","x: 272.06976318359375
y: 478.260986328125
z: -0.09498363733291626
visibility: 0.9793843626976013
","x: 221.0855712890625
y: 479.04345703125
z: -0.012834099121391773
visibility: 0.9775056838989258
","x: 297.0030212402344
y: 532.8106689453125
z: 0.06333350390195847
visibility: 0.9760559797286987
","x: 229.27676391601562
y: 543.0277099609375
z: 0.17448647320270538
visibility: 0.9896026849746704
","x: 300.91717529296875
y: 539.3859252929688
z: 0.06703689694404602
visibility: 0.9082547426223755
","x: 234.74688720703125
y: 554.369384765625
z: 0.18693587183952332
visibility: 0.8942793607711792
","x: 299.2669677734375
y: 565.0219116210938
z: -0.06186539679765701
visibility: 0.95546954870224
","x: 217.67723083496094
y: 566.1177978515625
z: 0.09079115092754364
visibility: 0.9743858575820923
",,,,,,,,,,,,,,,,,,,,,,,,,,,,,,,,,,,,,,,,,,
6,"x: 241.58277893066406
y: 296.64154052734375
z: -0.3106442987918854
visibility: 0.9999900460243225
","x: 244.324951171875
y: 290.2541198730469
z: -0.30446213483810425
visibility: 0.9999868273735046
","x: 245.87831115722656
y: 290.5458984375
z: -0.3044448792934418
visibility: 0.9999867677688599
","x: 247.38153076171875
y: 290.77081298828125
z: -0.3045164942741394
visibility: 0.9999890923500061
","x: 240.32907104492188
y: 288.79412841796875
z: -0.3019152283668518
visibility: 0.9999794363975525
","x: 239.0296630859375
y: 288.1308898925781
z: -0.301928848028183
visibility: 0.9999681711196899
","x: 237.735107421875
y: 287.4913330078125
z: -0.30186763405799866
visibility: 0.9999619126319885
","x: 249.231201171875
y: 292.65460205078125
z: -0.21785397827625275
visibility: 0.9999921321868896
","x: 235.66661071777344
y: 287.4962158203125
z: -0.20389893651008606
visibility: 0.9999502897262573
","x: 242.9683074951172
y: 303.49261474609375
z: -0.2725282311439514
visibility: 0.9999915361404419
","x: 239.01983642578125
y: 302.39849853515625
z: -0.2692081034183502
visibility: 0.9999801516532898
","x: 258.5808410644531
y: 326.1648864746094
z: -0.15541210770606995
visibility: 0.9999802708625793
","x: 226.29464721679688
y: 309.883544921875
z: -0.06970391422510147
visibility: 0.9998461008071899
","x: 280.0237121582031
y: 355.17108154296875
z: -0.11006920039653778
visibility: 0.9745074510574341
","x: 231.83639526367188
y: 328.28619384765625
z: 0.07144767045974731
visibility: 0.826823890209198
","x: 268.9087829589844
y: 372.7600402832031
z: -0.1284070909023285
visibility: 0.9544805884361267
","x: 236.65003967285156
y: 352.5129699707031
z: 0.1096019521355629
visibility: 0.7842122912406921
","x: 266.2024841308594
y: 385.9170837402344
z: -0.14436158537864685
visibility: 0.9012769460678101
","x: 238.37759399414062
y: 371.81903076171875
z: 0.11046024411916733
visibility: 0.7013397216796875
","x: 263.83673095703125
y: 381.84521484375
z: -0.1564720869064331
visibility: 0.9065592885017395
","x: 238.75167846679688
y: 373.8540954589844
z: 0.08530930429697037
visibility: 0.6820921897888184
","x: 263.95654296875
y: 378.4327392578125
z: -0.13053083419799805
visibility: 0.8687905073165894
","x: 238.32318115234375
y: 369.16265869140625
z: 0.10141243785619736
visibility: 0.6150465607643127
","x: 258.4067687988281
y: 410.87628173828125
z: -0.033415861427783966
visibility: 0.9994274973869324
","x: 237.97523498535156
y: 412.49090576171875
z: 0.03339581936597824
visibility: 0.9995123147964478
","x: 278.4203796386719
y: 480.4366760253906
z: -0.08729362487792969
visibility: 0.9813224673271179
","x: 222.7229461669922
y: 480.89239501953125
z: -0.04610487073659897
visibility: 0.9794062972068787
","x: 305.6531066894531
y: 534.0462646484375
z: 0.06051021069288254
visibility: 0.9783741235733032
","x: 229.33810424804688
y: 543.218994140625
z: 0.13787387311458588
visibility: 0.9905186295509338
","x: 311.2841796875
y: 541.1063842773438
z: 0.06839756667613983
visibility: 0.9106087684631348
","x: 234.69268798828125
y: 554.9150390625
z: 0.15081903338432312
visibility: 0.9035047888755798
","x: 303.219970703125
y: 565.741943359375
z: -0.053446680307388306
visibility: 0.9596221446990967
","x: 217.64183044433594
y: 566.1956176757812
z: 0.054911255836486816
visibility: 0.9766280055046082
",,,,,,,,,,,,,,,,,,,,,,,,,,,,,,,,,,,,,,,,,,
7,"x: 244.68128967285156
y: 291.7272644042969
z: -0.3363906741142273
visibility: 0.9999867677688599
","x: 248.11402893066406
y: 285.42437744140625
z: -0.32959142327308655
visibility: 0.9999740123748779
","x: 249.76907348632812
y: 285.8574523925781
z: -0.3295566439628601
visibility: 0.9999766945838928
","x: 251.30303955078125
y: 286.2239990234375
z: -0.3296170234680176
visibility: 0.9999800324440002
","x: 243.9857177734375
y: 283.69500732421875
z: -0.3231433928012848
visibility: 0.9999597072601318
","x: 242.76930236816406
y: 283.0556640625
z: -0.32317426800727844
visibility: 0.9999444484710693
","x: 241.5663299560547
y: 282.5181884765625
z: -0.32316574454307556
visibility: 0.9999303817749023
","x: 254.17848205566406
y: 288.1253967285156
z: -0.24318771064281464
visibility: 0.999984622001648
","x: 241.1056365966797
y: 283.88818359375
z: -0.21124263107776642
visibility: 0.9998921155929565
","x: 246.53131103515625
y: 299.1112060546875
z: -0.29930901527404785
visibility: 0.9999870657920837
","x: 242.2305450439453
y: 297.6033935546875
z: -0.2908308804035187
visibility: 0.9999680519104004
","x: 265.5312805175781
y: 327.0593566894531
z: -0.1864350289106369
visibility: 0.999981164932251
","x: 231.2391815185547
y: 308.7332458496094
z: -0.09276765584945679
visibility: 0.9998230934143066
","x: 280.0276794433594
y: 362.0239562988281
z: -0.1721828132867813
visibility: 0.9763449430465698
","x: 234.51406860351562
y: 331.94476318359375
z: -0.013454566709697247
visibility: 0.7587505578994751
","x: 270.8653259277344
y: 401.14300537109375
z: -0.20085839927196503
visibility: 0.9535928964614868
","x: 248.68975830078125
y: 360.62481689453125
z: -0.03302948176860809
visibility: 0.7133368253707886
","x: 269.56103515625
y: 414.4816589355469
z: -0.22079570591449738
visibility: 0.9010024070739746
","x: 252.74179077148438
y: 377.0301513671875
z: -0.04393824189901352
visibility: 0.6391147375106812
","x: 266.476806640625
y: 411.0835266113281
z: -0.23443174362182617
visibility: 0.9059613347053528
","x: 253.9456329345703
y: 377.2836608886719
z: -0.06334756314754486
visibility: 0.6220315098762512
","x: 266.2109375
y: 406.43206787109375
z: -0.20446808636188507
visibility: 0.8661467432975769
","x: 252.5856170654297
y: 373.0721740722656
z: -0.0406823605298996
visibility: 0.5620558261871338
","x: 262.753662109375
y: 414.760498046875
z: -0.03738497942686081
visibility: 0.999472975730896
","x: 241.52252197265625
y: 416.4985656738281
z: 0.03733012080192566
visibility: 0.9995413422584534
","x: 281.1360168457031
y: 485.4665832519531
z: -0.09090648591518402
visibility: 0.983074426651001
","x: 223.2432403564453
y: 482.3459167480469
z: -0.044173140078783035
visibility: 0.9812591075897217
","x: 307.99810791015625
y: 536.3294677734375
z: 0.05645514652132988
visibility: 0.9804932475090027
","x: 229.7918701171875
y: 543.8469848632812
z: 0.16714826226234436
visibility: 0.991357147693634
","x: 313.5208435058594
y: 543.9156494140625
z: 0.0640687346458435
visibility: 0.913083016872406
","x: 234.9773712158203
y: 554.723388671875
z: 0.1827673465013504
visibility: 0.9118538498878479
","x: 303.07073974609375
y: 567.21728515625
z: -0.06742527335882187
visibility: 0.9634697437286377
","x: 217.773193359375
y: 566.427001953125
z: 0.0856621116399765
visibility: 0.9786882400512695
",,,,,,,,,,,,,,,,,,,,,,,,,,,,,,,,,,,,,,,,,,
8,"x: 245.64219665527344
y: 290.12310791015625
z: -0.39485281705856323
visibility: 0.9999819993972778
","x: 248.7783966064453
y: 283.4154052734375
z: -0.38481006026268005
visibility: 0.9999604821205139
","x: 250.31930541992188
y: 283.8293762207031
z: -0.3847824037075043
visibility: 0.9999675154685974
","x: 251.85894775390625
y: 284.1617431640625
z: -0.38486582040786743
visibility: 0.9999727606773376
","x: 244.9759521484375
y: 281.7895812988281
z: -0.3829132914543152
visibility: 0.9999270439147949
","x: 243.67369079589844
y: 281.14093017578125
z: -0.3829806447029114
visibility: 0.9999101161956787
","x: 242.29986572265625
y: 280.51849365234375
z: -0.3829706907272339
visibility: 0.99988853931427
","x: 254.52012634277344
y: 286.7176513671875
z: -0.2849501967430115
visibility: 0.99997878074646
","x: 241.20889282226562
y: 282.7016906738281
z: -0.27498674392700195
visibility: 0.999845564365387
","x: 247.32473754882812
y: 297.97662353515625
z: -0.35386353731155396
visibility: 0.9999803900718689
","x: 243.11880493164062
y: 297.37225341796875
z: -0.351441353559494
visibility: 0.9999524354934692
","x: 266.20263671875
y: 328.8792724609375
z: -0.21305258572101593
visibility: 0.9999812841415405
","x: 228.74305725097656
y: 310.2562561035156
z: -0.15890899300575256
visibility: 0.9997552037239075
","x: 278.1562194824219
y: 375.2449951171875
z: -0.21484509110450745
visibility: 0.9778246879577637
","x: 230.37937927246094
y: 321.1199645996094
z: -0.09863612800836563
visibility: 0.745541512966156
","x: 271.5120544433594
y: 424.61859130859375
z: -0.2870631814002991
visibility: 0.9492310881614685
","x: 242.55360412597656
y: 319.9079284667969
z: -0.0714762732386589
visibility: 0.6590338945388794
","x: 271.11566162109375
y: 439.2789001464844
z: -0.3127020299434662
visibility: 0.8950316309928894
","x: 246.30239868164062
y: 322.13348388671875
z: -0.08398626744747162
visibility: 0.5867027640342712
","x: 268.0239562988281
y: 437.7334289550781
z: -0.33096370100975037
visibility: 0.9000696539878845
","x: 245.4898223876953
y: 323.7015380859375
z: -0.09407134354114532
visibility: 0.5713762640953064
","x: 267.50140380859375
y: 432.6614074707031
z: -0.2945323586463928
visibility: 0.855787456035614
","x: 244.41500854492188
y: 324.11041259765625
z: -0.0759328082203865
visibility: 0.5173106789588928
","x: 259.6833801269531
y: 414.62713623046875
z: -0.030669167637825012
visibility: 0.9995113015174866
","x: 237.64401245117188
y: 416.03692626953125
z: 0.03064553812146187
visibility: 0.9995704889297485
","x: 279.3080749511719
y: 484.7181701660156
z: -0.07884691655635834
visibility: 0.9846181273460388
","x: 222.26605224609375
y: 482.47564697265625
z: -0.1179831475019455
visibility: 0.98298579454422
","x: 305.58465576171875
y: 536.6002197265625
z: 0.0658436268568039
visibility: 0.9823816418647766
","x: 229.47421264648438
y: 543.8375244140625
z: 0.13690251111984253
visibility: 0.9920992255210876
","x: 310.9273986816406
y: 544.8063354492188
z: 0.07230133563280106
visibility: 0.913017213344574
","x: 234.9329376220703
y: 554.6866455078125
z: 0.1578996628522873
visibility: 0.9188351631164551
","x: 303.70355224609375
y: 567.3405151367188
z: -0.07369972765445709
visibility: 0.9668324589729309
","x: 217.49923706054688
y: 566.529541015625
z: 0.01909717358648777
visibility: 0.9805052876472473
",,,,,,,,,,,,,,,,,,,,,,,,,,,,,,,,,,,,,,,,,,
9,"x: 244.98782348632812
y: 287.704833984375
z: -0.5255087018013
visibility: 0.9999805688858032
","x: 247.39236450195312
y: 281.5948181152344
z: -0.5160006284713745
visibility: 0.9999560117721558
","x: 249.15158081054688
y: 282.290771484375
z: -0.5159839391708374
visibility: 0.9999616742134094
","x: 251.17449951171875
y: 282.95068359375
z: -0.5160825848579407
visibility: 0.9999684691429138
","x: 243.7283172607422
y: 279.3485107421875
z: -0.5106676816940308
visibility: 0.9999231696128845
","x: 242.52008056640625
y: 278.5718078613281
z: -0.5107771754264832
visibility: 0.9999033212661743
","x: 241.19659423828125
y: 278.00177001953125
z: -0.5108020305633545
visibility: 0.99988853931427
","x: 254.29727172851562
y: 285.69171142578125
z: -0.4221814274787903
visibility: 0.9999719262123108
","x: 240.7261505126953
y: 280.4185791015625
z: -0.39550596475601196
visibility: 0.9998192191123962
","x: 247.2694854736328
y: 295.75030517578125
z: -0.4869745671749115
visibility: 0.9999793171882629
","x: 241.768310546875
y: 294.2840270996094
z: -0.4797767698764801
visibility: 0.9999528527259827
","x: 262.12957763671875
y: 329.5336608886719
z: -0.35589084029197693
visibility: 0.9999814629554749
","x: 220.7127227783203
y: 312.6629333496094
z: -0.24894170463085175
visibility: 0.9997777342796326
","x: 264.0054931640625
y: 384.725341796875
z: -0.34756436944007874
visibility: 0.9797365069389343
","x: 207.8042449951172
y: 360.2244873046875
z: -0.1618419587612152
visibility: 0.7687408328056335
","x: 254.7423095703125
y: 438.0006408691406
z: -0.3969261050224304
visibility: 0.950343668460846
","x: 200.0211181640625
y: 406.4790344238281
z: -0.21840384602546692
visibility: 0.6898517608642578
","x: 254.05694580078125
y: 456.5091552734375
z: -0.4296503961086273
visibility: 0.8980104923248291
","x: 196.08384704589844
y: 417.81719970703125
z: -0.23596949875354767
visibility: 0.6212634444236755
","x: 250.2166290283203
y: 456.1498718261719
z: -0.44934263825416565
visibility: 0.9028180241584778
","x: 197.12222290039062
y: 418.602783203125
z: -0.28254109621047974
visibility: 0.608256995677948
","x: 249.24853515625
y: 452.299560546875
z: -0.40467166900634766
visibility: 0.8602389693260193
","x: 199.02935791015625
y: 415.9608459472656
z: -0.23907676339149475
visibility: 0.5594490766525269
","x: 250.73785400390625
y: 407.9788818359375
z: -0.04055691510438919
visibility: 0.999552309513092
","x: 228.6570281982422
y: 408.64129638671875
z: 0.04051174595952034
visibility: 0.9996055364608765
","x: 248.89451599121094
y: 478.28680419921875
z: -0.12582074105739594
visibility: 0.9858261942863464
","x: 222.16529846191406
y: 482.0437316894531
z: 0.030277665704488754
visibility: 0.9799795746803284
","x: 291.01055908203125
y: 525.0110473632812
z: 0.026459451764822006
visibility: 0.9839533567428589
","x: 229.79786682128906
y: 544.2919311523438
z: 0.21873298287391663
visibility: 0.9917548894882202
","x: 301.21685791015625
y: 529.11474609375
z: 0.035352397710084915
visibility: 0.9092410802841187
","x: 234.79525756835938
y: 555.0601806640625
z: 0.2309063971042633
visibility: 0.9205410480499268
","x: 290.8451232910156
y: 560.89306640625
z: -0.07771295309066772
visibility: 0.9696356654167175
","x: 217.62181091308594
y: 566.592041015625
z: 0.12334784120321274
visibility: 0.9807227253913879
",,,,,,,,,,,,,,,,,,,,,,,,,,,,,,,,,,,,,,,,,,
10,"x: 239.29080200195312
y: 290.29473876953125
z: -0.5488751530647278
visibility: 0.9999781250953674
","x: 241.71543884277344
y: 283.21893310546875
z: -0.540827214717865
visibility: 0.9999411702156067
","x: 243.42074584960938
y: 283.6453552246094
z: -0.5408231019973755
visibility: 0.9999465346336365
","x: 245.07843017578125
y: 284.01226806640625
z: -0.5409258604049683
visibility: 0.9999530911445618
","x: 237.7483367919922
y: 281.5523986816406
z: -0.5360103845596313
visibility: 0.9999120235443115
","x: 236.5416717529297
y: 280.9393615722656
z: -0.5361409783363342
visibility: 0.9998881220817566
","x: 235.09140014648438
y: 280.50665283203125
z: -0.5362377762794495
visibility: 0.9998775720596313
","x: 247.5584259033203
y: 285.5589904785156
z: -0.4440695345401764
visibility: 0.9999448657035828
","x: 233.5308380126953
y: 282.184814453125
z: -0.4243224561214447
visibility: 0.9997800588607788
","x: 241.4348602294922
y: 297.8857116699219
z: -0.5086376667022705
visibility: 0.9999699592590332
","x: 236.4679718017578
y: 297.0049133300781
z: -0.5031967759132385
visibility: 0.9999461770057678
","x: 256.6114196777344
y: 330.1089782714844
z: -0.37807661294937134
visibility: 0.9999690651893616
","x: 215.5616912841797
y: 312.5911560058594
z: -0.2943715751171112
visibility: 0.9997963905334473
","x: 249.6829376220703
y: 390.9273986816406
z: -0.3892529308795929
visibility: 0.9814146757125854
","x: 202.4144744873047
y: 364.4324951171875
z: -0.2555413544178009
visibility: 0.7909079194068909
","x: 232.87417602539062
y: 437.50372314453125
z: -0.442842572927475
visibility: 0.9531292915344238
","x: 190.59030151367188
y: 410.5146484375
z: -0.32922738790512085
visibility: 0.7193683981895447
","x: 231.04893493652344
y: 452.97430419921875
z: -0.47662830352783203
visibility: 0.9038614630699158
","x: 183.7421875
y: 421.9111328125
z: -0.35343223810195923
visibility: 0.6562057733535767
","x: 227.01287841796875
y: 449.74908447265625
z: -0.493492990732193
visibility: 0.9082037806510925
","x: 185.0635223388672
y: 423.37908935546875
z: -0.3877680003643036
visibility: 0.6446656584739685
","x: 226.8350830078125
y: 445.00115966796875
z: -0.4499569833278656
visibility: 0.8678320646286011
","x: 188.40084838867188
y: 420.49969482421875
z: -0.3450397551059723
visibility: 0.6000763773918152
","x: 244.9601593017578
y: 405.60797119140625
z: -0.03314980864524841
visibility: 0.999577522277832
","x: 222.2617950439453
y: 404.5224609375
z: 0.033160801976919174
visibility: 0.9996277093887329
","x: 237.0191192626953
y: 467.1377258300781
z: -0.1288144737482071
visibility: 0.9768239855766296
","x: 221.48861694335938
y: 478.3791809082031
z: -0.007189714349806309
visibility: 0.948652982711792
","x: 239.88026428222656
y: 528.8295288085938
z: 0.011648380197584629
visibility: 0.9772209525108337
","x: 231.41941833496094
y: 543.2166748046875
z: 0.1767919957637787
visibility: 0.9741345643997192
","x: 241.16415405273438
y: 535.0523071289062
z: 0.019851675257086754
visibility: 0.898005485534668
","x: 237.123291015625
y: 555.3468627929688
z: 0.18799874186515808
visibility: 0.8976951241493225
","x: 234.40090942382812
y: 556.546142578125
z: -0.08600710332393646
visibility: 0.9661293625831604
","x: 219.96212768554688
y: 564.5361938476562
z: 0.07447869330644608
visibility: 0.9642596244812012
","x: 189.72679138183594
y: 410.3265380859375
z: 0.0
","x: 190.30047607421875
y: 417.9140930175781
z: 0.0013154827756807208
","x: 188.48313903808594
y: 424.09698486328125
z: 0.0012781168334186077
","x: 185.95179748535156
y: 427.0535583496094
z: 0.0009492282406426966
","x: 184.048583984375
y: 428.3463134765625
z: 0.0005769588751718402
","x: 186.0478057861328
y: 426.976806640625
z: -0.0013634992064908147
","x: 182.54373168945312
y: 432.7249450683594
z: -0.0025364523753523827
","x: 180.32809448242188
y: 435.974853515625
z: -0.002585679991170764
","x: 178.736328125
y: 438.0902099609375
z: -0.002345278626307845
","x: 184.33905029296875
y: 424.2379150390625
z: -0.0027966469060629606
","x: 180.5421142578125
y: 430.0932312011719
z: -0.003823855658993125
","x: 178.07931518554688
y: 433.6390380859375
z: -0.0034440020099282265
","x: 176.3144989013672
y: 435.9878234863281
z: -0.0031096243765205145
","x: 183.02105712890625
y: 421.0357360839844
z: -0.004051954485476017
","x: 179.1909637451172
y: 425.9351806640625
z: -0.005383937619626522
","x: 176.80780029296875
y: 429.22857666015625
z: -0.005277153104543686
","x: 175.1670379638672
y: 431.49603271484375
z: -0.0050584361888468266
","x: 182.1395263671875
y: 417.4964599609375
z: -0.005214276257902384
","x: 179.16311645507812
y: 420.68182373046875
z: -0.006339394487440586
","x: 177.29238891601562
y: 422.9068603515625
z: -0.006391021888703108
","x: 175.80528259277344
y: 424.6223449707031
z: -0.006260789930820465
",,,,,,,,,,,,,,,,,,,,,
11,"x: 239.29080200195312
y: 290.29473876953125
z: -0.5488751530647278
visibility: 0.9999781250953674
","x: 241.71543884277344
y: 283.21893310546875
z: -0.540827214717865
visibility: 0.9999411702156067
","x: 243.42074584960938
y: 283.6453552246094
z: -0.5408231019973755
visibility: 0.9999465346336365
","x: 245.07843017578125
y: 284.01226806640625
z: -0.5409258604049683
visibility: 0.9999530911445618
","x: 237.7483367919922
y: 281.5523986816406
z: -0.5360103845596313
visibility: 0.9999120235443115
","x: 236.5416717529297
y: 280.9393615722656
z: -0.5361409783363342
visibility: 0.9998881220817566
","x: 235.09140014648438
y: 280.50665283203125
z: -0.5362377762794495
visibility: 0.9998775720596313
","x: 247.5584259033203
y: 285.5589904785156
z: -0.4440695345401764
visibility: 0.9999448657035828
","x: 233.5308380126953
y: 282.184814453125
z: -0.4243224561214447
visibility: 0.9997800588607788
","x: 241.4348602294922
y: 297.8857116699219
z: -0.5086376667022705
visibility: 0.9999699592590332
","x: 236.4679718017578
y: 297.0049133300781
z: -0.5031967759132385
visibility: 0.9999461770057678
","x: 256.6114196777344
y: 330.1089782714844
z: -0.37807661294937134
visibility: 0.9999690651893616
","x: 215.5616912841797
y: 312.5911560058594
z: -0.2943715751171112
visibility: 0.9997963905334473
","x: 249.6829376220703
y: 390.9273986816406
z: -0.3892529308795929
visibility: 0.9814146757125854
","x: 202.4144744873047
y: 364.4324951171875
z: -0.2555413544178009
visibility: 0.7909079194068909
","x: 232.87417602539062
y: 437.50372314453125
z: -0.442842572927475
visibility: 0.9531292915344238
","x: 190.59030151367188
y: 410.5146484375
z: -0.32922738790512085
visibility: 0.7193683981895447
","x: 231.04893493652344
y: 452.97430419921875
z: -0.47662830352783203
visibility: 0.9038614630699158
","x: 183.7421875
y: 421.9111328125
z: -0.35343223810195923
visibility: 0.6562057733535767
","x: 227.01287841796875
y: 449.74908447265625
z: -0.493492990732193
visibility: 0.9082037806510925
","x: 185.0635223388672
y: 423.37908935546875
z: -0.3877680003643036
visibility: 0.6446656584739685
","x: 226.8350830078125
y: 445.00115966796875
z: -0.4499569833278656
visibility: 0.8678320646286011
","x: 188.40084838867188
y: 420.49969482421875
z: -0.3450397551059723
visibility: 0.6000763773918152
","x: 244.9601593017578
y: 405.60797119140625
z: -0.03314980864524841
visibility: 0.999577522277832
","x: 222.2617950439453
y: 404.5224609375
z: 0.033160801976919174
visibility: 0.9996277093887329
","x: 237.0191192626953
y: 467.1377258300781
z: -0.1288144737482071
visibility: 0.9768239855766296
","x: 221.48861694335938
y: 478.3791809082031
z: -0.007189714349806309
visibility: 0.948652982711792
","x: 239.88026428222656
y: 528.8295288085938
z: 0.011648380197584629
visibility: 0.9772209525108337
","x: 231.41941833496094
y: 543.2166748046875
z: 0.1767919957637787
visibility: 0.9741345643997192
","x: 241.16415405273438
y: 535.0523071289062
z: 0.019851675257086754
visibility: 0.898005485534668
","x: 237.123291015625
y: 555.3468627929688
z: 0.18799874186515808
visibility: 0.8976951241493225
","x: 234.40090942382812
y: 556.546142578125
z: -0.08600710332393646
visibility: 0.9661293625831604
","x: 219.96212768554688
y: 564.5361938476562
z: 0.07447869330644608
visibility: 0.9642596244812012
","x: 189.72679138183594
y: 410.3265380859375
z: 0.0
","x: 190.30047607421875
y: 417.9140930175781
z: 0.0013154827756807208
","x: 188.48313903808594
y: 424.09698486328125
z: 0.0012781168334186077
","x: 185.95179748535156
y: 427.0535583496094
z: 0.0009492282406426966
","x: 184.048583984375
y: 428.3463134765625
z: 0.0005769588751718402
","x: 186.0478057861328
y: 426.976806640625
z: -0.0013634992064908147
","x: 182.54373168945312
y: 432.7249450683594
z: -0.0025364523753523827
","x: 180.32809448242188
y: 435.974853515625
z: -0.002585679991170764
","x: 178.736328125
y: 438.0902099609375
z: -0.002345278626307845
","x: 184.33905029296875
y: 424.2379150390625
z: -0.0027966469060629606
","x: 180.5421142578125
y: 430.0932312011719
z: -0.003823855658993125
","x: 178.07931518554688
y: 433.6390380859375
z: -0.0034440020099282265
","x: 176.3144989013672
y: 435.9878234863281
z: -0.0031096243765205145
","x: 183.02105712890625
y: 421.0357360839844
z: -0.004051954485476017
","x: 179.1909637451172
y: 425.9351806640625
z: -0.005383937619626522
","x: 176.80780029296875
y: 429.22857666015625
z: -0.005277153104543686
","x: 175.1670379638672
y: 431.49603271484375
z: -0.0050584361888468266
","x: 182.1395263671875
y: 417.4964599609375
z: -0.005214276257902384
","x: 179.16311645507812
y: 420.68182373046875
z: -0.006339394487440586
","x: 177.29238891601562
y: 422.9068603515625
z: -0.006391021888703108
","x: 175.80528259277344
y: 424.6223449707031
z: -0.006260789930820465
",,,,,,,,,,,,,,,,,,,,,
12,"x: 235.11965942382812
y: 290.65545654296875
z: -0.5149506330490112
visibility: 0.9999359846115112
","x: 237.43798828125
y: 283.1934814453125
z: -0.5071926712989807
visibility: 0.9998337030410767
","x: 239.135009765625
y: 283.39007568359375
z: -0.5072052478790283
visibility: 0.9998393654823303
","x: 240.7327117919922
y: 283.53875732421875
z: -0.5073305368423462
visibility: 0.9998674392700195
","x: 233.05348205566406
y: 281.9649658203125
z: -0.5039584636688232
visibility: 0.9998013973236084
","x: 231.52001953125
y: 281.39691162109375
z: -0.5040651559829712
visibility: 0.9997340440750122
","x: 230.06787109375
y: 280.9297790527344
z: -0.5041499733924866
visibility: 0.9997320175170898
","x: 242.99609375
y: 284.351806640625
z: -0.4121699929237366
visibility: 0.9997586011886597
","x: 227.60462951660156
y: 281.78460693359375
z: -0.39993369579315186
visibility: 0.9994723200798035
","x: 237.60421752929688
y: 297.4432373046875
z: -0.4752682149410248
visibility: 0.999906599521637
","x: 232.37673950195312
y: 297.2519226074219
z: -0.4718768000602722
visibility: 0.9998573660850525
","x: 252.58810424804688
y: 329.1888122558594
z: -0.32939720153808594
visibility: 0.9999459981918335
","x: 211.86886596679688
y: 312.205078125
z: -0.2952817678451538
visibility: 0.9997981786727905
","x: 243.04150390625
y: 388.055419921875
z: -0.33603012561798096
visibility: 0.9817655682563782
","x: 207.75851440429688
y: 364.7919006347656
z: -0.27621203660964966
visibility: 0.8076293468475342
","x: 227.46629333496094
y: 426.2286376953125
z: -0.40500426292419434
visibility: 0.9494075179100037
","x: 191.09890747070312
y: 402.8394775390625
z: -0.3361116945743561
visibility: 0.7280250787734985
","x: 223.494873046875
y: 439.4150390625
z: -0.43657535314559937
visibility: 0.8982139825820923
","x: 194.86138916015625
y: 418.676513671875
z: -0.3612145483493805
visibility: 0.6599053144454956
","x: 220.55636596679688
y: 435.9429931640625
z: -0.4523312449455261
visibility: 0.9024478793144226
","x: 199.08554077148438
y: 417.57183837890625
z: -0.3808347284793854
visibility: 0.6495478749275208
","x: 221.25450134277344
y: 431.7630615234375
z: -0.4117441177368164
visibility: 0.8607597351074219
","x: 199.46534729003906
y: 411.5135498046875
z: -0.3444751799106598
visibility: 0.6039268970489502
","x: 238.892578125
y: 400.54425048828125
z: -0.012404759414494038
visibility: 0.9996010065078735
","x: 216.65817260742188
y: 397.4419860839844
z: 0.012417132034897804
visibility: 0.9996145367622375
","x: 230.1746368408203
y: 459.315673828125
z: -0.18162962794303894
visibility: 0.9524468779563904
","x: 217.7138671875
y: 468.5128479003906
z: -0.0017677440773695707
visibility: 0.9015659093856812
","x: 222.09205627441406
y: 542.1046142578125
z: -0.1826217621564865
visibility: 0.9647164344787598
","x: 229.73753356933594
y: 538.7412109375
z: 0.1331888884305954
visibility: 0.933349072933197
","x: 217.65194702148438
y: 558.18310546875
z: -0.18904253840446472
visibility: 0.8822897672653198
","x: 232.8881072998047
y: 549.7321166992188
z: 0.131323903799057
visibility: 0.8474880456924438
","x: 222.45355224609375
y: 557.50830078125
z: -0.32027414441108704
visibility: 0.9564701914787292
","x: 223.78085327148438
y: 558.893310546875
z: 0.02445950172841549
visibility: 0.9253334403038025
",,,,,,,,,,,,,,,,,,,,,,,,,,,,,,,,,,,,,,,,,,
13,"x: 229.14942932128906
y: 283.7717590332031
z: -0.4190623164176941
visibility: 0.9999396800994873
","x: 231.27224731445312
y: 276.1907043457031
z: -0.4057249128818512
visibility: 0.9998456835746765
","x: 232.6599578857422
y: 276.2619323730469
z: -0.40568751096725464
visibility: 0.9998507499694824
","x: 234.26380920410156
y: 276.4504699707031
z: -0.4057377278804779
visibility: 0.9998769164085388
","x: 227.24636840820312
y: 275.7617492675781
z: -0.4081583023071289
visibility: 0.9998136758804321
","x: 225.6084442138672
y: 275.503662109375
z: -0.4082271158695221
visibility: 0.9997506737709045
","x: 224.06858825683594
y: 275.3843994140625
z: -0.40829819440841675
visibility: 0.9997484087944031
","x: 236.789794921875
y: 278.9071350097656
z: -0.3024887442588806
visibility: 0.9997763633728027
","x: 221.49398803710938
y: 277.2632141113281
z: -0.3143307566642761
visibility: 0.9995060563087463
","x: 231.53736877441406
y: 291.7959289550781
z: -0.37715837359428406
visibility: 0.9999138116836548
","x: 226.75621032714844
y: 291.6662902832031
z: -0.38089683651924133
visibility: 0.999865710735321
","x: 246.02865600585938
y: 324.8160095214844
z: -0.2181420773267746
visibility: 0.9999489784240723
","x: 208.63690185546875
y: 309.4407958984375
z: -0.2733220160007477
visibility: 0.9998041987419128
","x: 233.5759735107422
y: 386.4516906738281
z: -0.22320985794067383
visibility: 0.9821286797523499
","x: 215.42442321777344
y: 363.8495178222656
z: -0.30967891216278076
visibility: 0.8267218470573425
","x: 220.07611083984375
y: 433.2965393066406
z: -0.28445348143577576
visibility: 0.9508937001228333
","x: 252.50738525390625
y: 362.60186767578125
z: -0.33811622858047485
visibility: 0.7544572949409485
","x: 216.6505889892578
y: 448.839599609375
z: -0.30963197350502014
visibility: 0.9012771248817444
","x: 262.7492370605469
y: 362.2155456542969
z: -0.36563318967819214
visibility: 0.6916570663452148
","x: 213.3733367919922
y: 447.47296142578125
z: -0.32149767875671387
visibility: 0.9049012660980225
","x: 264.0815734863281
y: 357.328125
z: -0.366569459438324
visibility: 0.6821804046630859
","x: 213.75430297851562
y: 442.65203857421875
z: -0.2892370820045471
visibility: 0.8656952381134033
","x: 260.6861572265625
y: 356.81207275390625
z: -0.3377172648906708
visibility: 0.6391965746879578
","x: 229.6061553955078
y: 404.4154052734375
z: -0.0006321297260001302
visibility: 0.9996397495269775
","x: 207.5149383544922
y: 403.176513671875
z: 0.0005626567872241139
visibility: 0.9996442794799805
","x: 226.17245483398438
y: 459.7886657714844
z: -0.19573457539081573
visibility: 0.9555167555809021
","x: 207.5172882080078
y: 488.40167236328125
z: -0.004971789196133614
visibility: 0.9066838026046753
","x: 217.89280700683594
y: 552.686279296875
z: -0.10816466808319092
visibility: 0.9665274024009705
","x: 225.44215393066406
y: 535.480712890625
z: 0.2641274333000183
visibility: 0.9072458148002625
","x: 214.72018432617188
y: 566.7569580078125
z: -0.10334613174200058
visibility: 0.8820225596427917
","x: 230.40806579589844
y: 539.9234619140625
z: 0.28919926285743713
visibility: 0.8038689494132996
","x: 220.56646728515625
y: 569.3969116210938
z: -0.22271600365638733
visibility: 0.9590627551078796
","x: 221.57595825195312
y: 558.4679565429688
z: 0.22766542434692383
visibility: 0.9051647782325745
",,,,,,,,,,,,,,,,,,,,,,,,,,,,,,,,,,,,,,,,,,
14,"x: 223.6121826171875
y: 274.0595703125
z: -0.36039602756500244
visibility: 0.9999319911003113
","x: 225.46595764160156
y: 265.9466552734375
z: -0.34546083211898804
visibility: 0.9998388886451721
","x: 226.8927001953125
y: 265.784423828125
z: -0.3454507291316986
visibility: 0.9998486638069153
","x: 228.34039306640625
y: 265.8489685058594
z: -0.34550532698631287
visibility: 0.9998734593391418
","x: 221.31495666503906
y: 266.7342529296875
z: -0.34443384408950806
visibility: 0.999783992767334
","x: 219.75726318359375
y: 266.9668273925781
z: -0.3444949686527252
visibility: 0.999718964099884
","x: 218.0823974609375
y: 267.1543273925781
z: -0.3445219397544861
visibility: 0.999680757522583
","x: 231.5497589111328
y: 270.48931884765625
z: -0.241188645362854
visibility: 0.999782383441925
","x: 216.0228271484375
y: 270.443359375
z: -0.23804056644439697
visibility: 0.9993323087692261
","x: 226.1590118408203
y: 282.40472412109375
z: -0.32013756036758423
visibility: 0.9999004006385803
","x: 221.3909454345703
y: 282.60479736328125
z: -0.3195963501930237
visibility: 0.9997884631156921
","x: 242.49951171875
y: 315.9383850097656
z: -0.16892442107200623
visibility: 0.9999373555183411
","x: 204.84036254882812
y: 304.40179443359375
z: -0.2001151144504547
visibility: 0.9994527697563171
","x: 234.00416564941406
y: 379.0030517578125
z: -0.16945961117744446
visibility: 0.9802190661430359
","x: 206.9525909423828
y: 341.1705017089844
z: -0.31694716215133667
visibility: 0.838543176651001
","x: 224.58740234375
y: 428.416259765625
z: -0.2015044242143631
visibility: 0.9422418475151062
","x: 235.8042755126953
y: 312.9147033691406
z: -0.45510226488113403
visibility: 0.7575054168701172
","x: 222.97230529785156
y: 445.0553894042969
z: -0.21598145365715027
visibility: 0.8828892111778259
","x: 242.77224731445312
y: 304.78240966796875
z: -0.4885076880455017
visibility: 0.6877574324607849
","x: 218.92941284179688
y: 444.3904113769531
z: -0.23198798298835754
visibility: 0.8861984610557556
","x: 242.4291229248047
y: 302.8746337890625
z: -0.4784688949584961
visibility: 0.6756796836853027
","x: 218.52394104003906
y: 439.5767517089844
z: -0.20641544461250305
visibility: 0.8476711511611938
","x: 239.84042358398438
y: 306.38873291015625
z: -0.45430248975753784
visibility: 0.6255451440811157
","x: 226.1352996826172
y: 404.5645446777344
z: 0.009649703279137611
visibility: 0.999671459197998
","x: 203.54566955566406
y: 403.1362609863281
z: -0.00968107022345066
visibility: 0.9996599555015564
","x: 225.14439392089844
y: 464.1854248046875
z: -0.17382661998271942
visibility: 0.9577987790107727
","x: 196.04098510742188
y: 483.1515197753906
z: -0.03376942500472069
visibility: 0.9140506386756897
","x: 215.85093688964844
y: 553.1835327148438
z: -0.08108735829591751
visibility: 0.9677199125289917
","x: 201.06808471679688
y: 533.373779296875
z: 0.16161680221557617
visibility: 0.909933865070343
","x: 211.6868133544922
y: 565.7506713867188
z: -0.07733281701803207
visibility: 0.8881168365478516
","x: 202.69869995117188
y: 540.6127319335938
z: 0.17643049359321594
visibility: 0.7863874435424805
","x: 221.53355407714844
y: 572.7857666015625
z: -0.2030460387468338
visibility: 0.9608019590377808
","x: 196.90902709960938
y: 556.5064086914062
z: 0.07811950147151947
visibility: 0.9053845405578613
",,,,,,,,,,,,,,,,,,,,,,,,,,,,,,,,,,,,,,,,,,
15,"x: 216.77586364746094
y: 269.7698669433594
z: -0.29136571288108826
visibility: 0.9999337792396545
","x: 218.93521118164062
y: 261.8822937011719
z: -0.27549105882644653
visibility: 0.999844491481781
","x: 220.51904296875
y: 261.8729248046875
z: -0.2754928171634674
visibility: 0.999855637550354
","x: 221.94674682617188
y: 261.9652099609375
z: -0.27550339698791504
visibility: 0.9998777508735657
","x: 214.20809936523438
y: 262.19732666015625
z: -0.27953338623046875
visibility: 0.9997847676277161
","x: 212.64682006835938
y: 262.36248779296875
z: -0.27961045503616333
visibility: 0.9997296333312988
","x: 211.2228240966797
y: 262.5351867675781
z: -0.2796653211116791
visibility: 0.9996836185455322
","x: 224.7899169921875
y: 266.09271240234375
z: -0.16509313881397247
visibility: 0.9997899532318115
","x: 209.8887939453125
y: 266.4107360839844
z: -0.18371301889419556
visibility: 0.9993423223495483
","x: 220.046630859375
y: 278.999267578125
z: -0.24816402792930603
visibility: 0.9999023675918579
","x: 214.469482421875
y: 278.4888610839844
z: -0.25400596857070923
visibility: 0.9997894167900085
","x: 237.8642120361328
y: 311.962890625
z: -0.06551313400268555
visibility: 0.999937891960144
","x: 198.6879425048828
y: 301.7587585449219
z: -0.16071642935276031
visibility: 0.9994633197784424
","x: 232.28732299804688
y: 373.2801513671875
z: -0.039480842649936676
visibility: 0.9786925911903381
","x: 198.57220458984375
y: 339.2860412597656
z: -0.29736992716789246
visibility: 0.8511375188827515
","x: 226.43496704101562
y: 425.6026916503906
z: -0.0805305540561676
visibility: 0.9399470686912537
","x: 221.07266235351562
y: 305.8545227050781
z: -0.46090561151504517
visibility: 0.7749594449996948
","x: 227.0153350830078
y: 442.28619384765625
z: -0.09198971092700958
visibility: 0.8774956464767456
","x: 237.36236572265625
y: 292.995361328125
z: -0.49774494767189026
visibility: 0.7056766152381897
","x: 224.06341552734375
y: 441.7643737792969
z: -0.11136132478713989
visibility: 0.8812532424926758
","x: 231.14608764648438
y: 291.9253234863281
z: -0.493473619222641
visibility: 0.6933057308197021
","x: 223.0854034423828
y: 436.6656494140625
z: -0.08755214512348175
visibility: 0.8446400165557861
","x: 225.10745239257812
y: 299.6094665527344
z: -0.4623521864414215
visibility: 0.6416316628456116
","x: 220.92312622070312
y: 404.2369079589844
z: 0.03952731564640999
visibility: 0.9996948838233948
","x: 198.60028076171875
y: 400.6186218261719
z: -0.039658136665821075
visibility: 0.9996803402900696
","x: 221.3741912841797
y: 471.24139404296875
z: -0.02957458235323429
visibility: 0.959366500377655
","x: 195.66790771484375
y: 480.7919921875
z: -0.14104540646076202
visibility: 0.9219030737876892
","x: 217.29507446289062
y: 554.2967529296875
z: 0.09816551208496094
visibility: 0.9700690507888794
","x: 168.5865020751953
y: 529.520263671875
z: -0.0276159830391407
visibility: 0.9182977676391602
","x: 211.6391143798828
y: 568.8353881835938
z: 0.10394440591335297
visibility: 0.8933793902397156
","x: 162.30816650390625
y: 534.994384765625
z: -0.021935846656560898
visibility: 0.7947834730148315
","x: 222.87721252441406
y: 576.30810546875
z: -0.0027196374721825123
visibility: 0.9630311727523804
","x: 175.0502166748047
y: 559.4653930664062
z: -0.14238786697387695
visibility: 0.9137222170829773
",,,,,,,,,,,,,,,,,,,,,,,,,,,,,,,,,,,,,,,,,,
16,"x: 208.56756591796875
y: 266.8385925292969
z: -0.3086455166339874
visibility: 0.9999393820762634
","x: 210.2758026123047
y: 258.95758056640625
z: -0.29419851303100586
visibility: 0.999858021736145
","x: 211.8949432373047
y: 258.5964660644531
z: -0.294179767370224
visibility: 0.9998682141304016
","x: 213.39166259765625
y: 258.37060546875
z: -0.2941916584968567
visibility: 0.9998881220817566
","x: 205.99826049804688
y: 261.0055236816406
z: -0.2960722744464874
visibility: 0.9998025298118591
","x: 204.72445678710938
y: 261.97393798828125
z: -0.2961384952068329
visibility: 0.9997528791427612
","x: 203.5326385498047
y: 263.0233459472656
z: -0.2961593568325043
visibility: 0.9997092485427856
","x: 216.25424194335938
y: 262.0450134277344
z: -0.1930897980928421
visibility: 0.9998092651367188
","x: 202.36431884765625
y: 267.517578125
z: -0.19982019066810608
visibility: 0.9993940591812134
","x: 213.01556396484375
y: 276.228515625
z: -0.26918819546699524
visibility: 0.9999107122421265
","x: 207.18553161621094
y: 276.9811706542969
z: -0.27153921127319336
visibility: 0.9998029470443726
","x: 232.9181365966797
y: 309.48211669921875
z: -0.10623113811016083
visibility: 0.9999415278434753
","x: 193.26544189453125
y: 302.15313720703125
z: -0.1758904755115509
visibility: 0.9994967579841614
","x: 229.97621154785156
y: 371.1562805175781
z: -0.08121787011623383
visibility: 0.9797647595405579
","x: 203.59291076660156
y: 339.0496520996094
z: -0.3168827295303345
visibility: 0.8648475408554077
","x: 223.90603637695312
y: 423.718994140625
z: -0.10793337970972061
visibility: 0.9433123469352722
","x: 221.30055236816406
y: 291.98370361328125
z: -0.4748294949531555
visibility: 0.7966389060020447
","x: 223.96908569335938
y: 440.0666809082031
z: -0.11891766637563705
visibility: 0.881622850894928
","x: 232.62710571289062
y: 278.19024658203125
z: -0.5136529207229614
visibility: 0.7328268885612488
","x: 221.36868286132812
y: 439.5443420410156
z: -0.1405239999294281
visibility: 0.8852010369300842
","x: 226.91650390625
y: 275.4681091308594
z: -0.509870171546936
visibility: 0.7212703227996826
","x: 220.63796997070312
y: 434.1326599121094
z: -0.11545022577047348
visibility: 0.85100919008255
","x: 223.58212280273438
y: 280.4397277832031
z: -0.47755497694015503
visibility: 0.6727322340011597
","x: 218.30690002441406
y: 402.81671142578125
z: 0.02152063138782978
visibility: 0.9997221827507019
","x: 194.59844970703125
y: 399.3795471191406
z: -0.021670084446668625
visibility: 0.9997085332870483
","x: 221.4202117919922
y: 474.1449279785156
z: -0.0604754202067852
visibility: 0.9631316661834717
","x: 181.3925323486328
y: 478.09619140625
z: -0.06198541447520256
visibility: 0.929409384727478
","x: 216.62265014648438
y: 554.9002685546875
z: 0.07129339873790741
visibility: 0.9728147983551025
","x: 165.26837158203125
y: 531.662353515625
z: 0.06292133033275604
visibility: 0.9262480139732361
","x: 211.84310913085938
y: 569.4725341796875
z: 0.07757455855607986
visibility: 0.9017486572265625
","x: 165.9066925048828
y: 540.2510986328125
z: 0.06998419761657715
visibility: 0.8088468313217163
","x: 224.08004760742188
y: 577.6409301757812
z: -0.036384813487529755
visibility: 0.966174304485321
","x: 154.08786010742188
y: 560.9179077148438
z: -0.04539038985967636
visibility: 0.9218363165855408
",,,,,,,,,,,,,,,,,,,,,,,,,,,,,,,,,,,,,,,,,,
17,"x: 196.08428955078125
y: 271.0998840332031
z: -0.3230897784233093
visibility: 0.9999452233314514
","x: 196.131103515625
y: 262.3107604980469
z: -0.3061244785785675
visibility: 0.9998717904090881
","x: 197.63137817382812
y: 260.8401794433594
z: -0.3061034083366394
visibility: 0.9998809695243835
","x: 199.1891326904297
y: 259.3572082519531
z: -0.3060975968837738
visibility: 0.9998988509178162
","x: 192.13821411132812
y: 265.746337890625
z: -0.3071087598800659
visibility: 0.9998215436935425
","x: 190.9165802001953
y: 266.5233154296875
z: -0.3071821928024292
visibility: 0.9997768998146057
","x: 189.73025512695312
y: 267.146240234375
z: -0.3072097897529602
visibility: 0.9997372031211853
","x: 202.35446166992188
y: 259.7149963378906
z: -0.19496147334575653
visibility: 0.9998279213905334
","x: 189.17681884765625
y: 270.6784362792969
z: -0.19668488204479218
visibility: 0.9994515776634216
","x: 201.45587158203125
y: 276.9281005859375
z: -0.2802683115005493
visibility: 0.9999193549156189
","x: 196.4282989501953
y: 280.35791015625
z: -0.2812665104866028
visibility: 0.9998205304145813
","x: 225.58029174804688
y: 301.6219177246094
z: -0.09060385823249817
visibility: 0.9999465942382812
","x: 187.61294555664062
y: 303.69927978515625
z: -0.18173924088478088
visibility: 0.9995348453521729
","x: 227.0518341064453
y: 364.53533935546875
z: -0.05504938215017319
visibility: 0.9809524416923523
","x: 205.11524963378906
y: 338.4571838378906
z: -0.3398166298866272
visibility: 0.8776767253875732
","x: 219.59072875976562
y: 419.8922424316406
z: -0.059556085616350174
visibility: 0.9476011991500854
","x: 218.26095581054688
y: 285.3728332519531
z: -0.5102714896202087
visibility: 0.8166826367378235
","x: 218.97354125976562
y: 436.3278503417969
z: -0.0687936395406723
visibility: 0.8882228136062622
","x: 222.50411987304688
y: 271.250732421875
z: -0.5553416013717651
visibility: 0.758618950843811
","x: 215.72647094726562
y: 435.77374267578125
z: -0.08674012124538422
visibility: 0.8914958238601685
","x: 219.6184844970703
y: 268.52886962890625
z: -0.5500859618186951
visibility: 0.7479671835899353
","x: 215.38668823242188
y: 429.4691162109375
z: -0.06516451388597488
visibility: 0.8595208525657654
","x: 218.17105102539062
y: 273.6248779296875
z: -0.5130549669265747
visibility: 0.7030943036079407
","x: 213.37913513183594
y: 403.1128234863281
z: 0.021885454654693604
visibility: 0.9997486472129822
","x: 189.36476135253906
y: 400.02667236328125
z: -0.022083992138504982
visibility: 0.9997345805168152
","x: 217.88873291015625
y: 478.4173889160156
z: -0.08286047726869583
visibility: 0.9665594100952148
","x: 169.4523468017578
y: 477.9702453613281
z: -0.06242739409208298
visibility: 0.9362816214561462
","x: 216.04782104492188
y: 555.733154296875
z: 0.075019471347332
visibility: 0.9753056764602661
","x: 150.51832580566406
y: 536.373779296875
z: 0.05932155251502991
visibility: 0.9334469437599182
","x: 211.3271026611328
y: 569.8277587890625
z: 0.08552806079387665
visibility: 0.9098310470581055
","x: 150.09390258789062
y: 542.8479614257812
z: 0.0660756379365921
visibility: 0.820882260799408
","x: 223.5443878173828
y: 578.5045166015625
z: -0.028837677091360092
visibility: 0.9690658450126648
","x: 146.8242950439453
y: 573.2348022460938
z: -0.058593910187482834
visibility: 0.9292135834693909
",,,,,,,,,,,,,,,,,,,,,,,,,,,,,,,,,,,,,,,,,,
18,"x: 185.21812438964844
y: 271.3152770996094
z: -0.29462653398513794
visibility: 0.9999474883079529
","x: 185.29188537597656
y: 262.80340576171875
z: -0.28263527154922485
visibility: 0.9998794794082642
","x: 186.88038635253906
y: 261.4260559082031
z: -0.28263339400291443
visibility: 0.9998878836631775
","x: 188.50521850585938
y: 259.9423522949219
z: -0.2826668620109558
visibility: 0.9999037981033325
","x: 181.49681091308594
y: 265.89593505859375
z: -0.28051653504371643
visibility: 0.9998318552970886
","x: 180.4565887451172
y: 266.66937255859375
z: -0.2805875241756439
visibility: 0.9997925162315369
","x: 179.47091674804688
y: 267.3614196777344
z: -0.2806145250797272
visibility: 0.9997533559799194
","x: 192.3681182861328
y: 259.6831359863281
z: -0.1839703470468521
visibility: 0.9998406171798706
","x: 178.70301818847656
y: 269.38494873046875
z: -0.1718606799840927
visibility: 0.9994805455207825
","x: 190.11074829101562
y: 276.029296875
z: -0.2556259334087372
visibility: 0.9999239444732666
","x: 185.9604034423828
y: 279.57147216796875
z: -0.25262054800987244
visibility: 0.999819815158844
","x: 217.26890563964844
y: 293.8379211425781
z: -0.08153162896633148
visibility: 0.9999454021453857
","x: 178.75376892089844
y: 304.41363525390625
z: -0.14798617362976074
visibility: 0.9995244741439819
","x: 228.02151489257812
y: 349.8276062011719
z: -0.04592728987336159
visibility: 0.9808408617973328
","x: 192.49383544921875
y: 335.28363037109375
z: -0.3057454526424408
visibility: 0.8847370147705078
","x: 223.96954345703125
y: 400.297607421875
z: -0.05441218614578247
visibility: 0.9471027255058289
","x: 199.49017333984375
y: 292.0934753417969
z: -0.507215142250061
visibility: 0.831881582736969
","x: 222.48812866210938
y: 415.47003173828125
z: -0.06075967475771904
visibility: 0.8828710317611694
","x: 199.93435668945312
y: 274.35552978515625
z: -0.5547001957893372
visibility: 0.7760127782821655
","x: 220.03550720214844
y: 412.42132568359375
z: -0.08133398741483688
visibility: 0.8862921595573425
","x: 196.85581970214844
y: 273.00396728515625
z: -0.5508400201797485
visibility: 0.7650531530380249
","x: 219.83299255371094
y: 406.87158203125
z: -0.060894258320331573
visibility: 0.8546792268753052
","x: 197.5561065673828
y: 278.1474609375
z: -0.5117395520210266
visibility: 0.7195836305618286
","x: 209.90158081054688
y: 403.1164855957031
z: 0.01902221515774727
visibility: 0.9997636079788208
","x: 185.6284942626953
y: 400.58538818359375
z: -0.01917603239417076
visibility: 0.9997496008872986
","x: 216.13658142089844
y: 481.10894775390625
z: -0.0077358693815767765
visibility: 0.969603955745697
","x: 166.0749053955078
y: 477.884765625
z: -0.044159259647130966
visibility: 0.9425430297851562
","x: 215.45578002929688
y: 555.828369140625
z: 0.16189539432525635
visibility: 0.9775294065475464
","x: 148.99563598632812
y: 541.8323974609375
z: 0.07588933408260345
visibility: 0.9400030374526978
","x: 211.6629180908203
y: 568.9136352539062
z: 0.17238494753837585
visibility: 0.9166516661643982
","x: 149.65110778808594
y: 550.51953125
z: 0.0831562727689743
visibility: 0.8337582349777222
","x: 224.73690795898438
y: 577.4556884765625
z: 0.05841357260942459
visibility: 0.9715006351470947
","x: 145.7338409423828
y: 573.1031494140625
z: -0.04062746465206146
visibility: 0.9359385967254639
",,,,,,,,,,,,,,,,,,,,,,"x: 223.60968017578125
y: 399.9333190917969
z: 0.0
","x: 219.2979278564453
y: 401.04290771484375
z: -0.001397636253386736
","x: 216.5611572265625
y: 405.3188781738281
z: -0.0027912829536944628
","x: 215.84942626953125
y: 410.6971435546875
z: -0.0037235976196825504
","x: 215.9722900390625
y: 414.47308349609375
z: -0.004253368824720383
","x: 218.89395141601562
y: 409.9177551269531
z: -0.00725610600784421
","x: 215.9825897216797
y: 418.7120056152344
z: -0.008271664381027222
","x: 214.766845703125
y: 418.41302490234375
z: -0.0070061408914625645
","x: 214.80801391601562
y: 417.4034118652344
z: -0.005894975271075964
","x: 220.98143005371094
y: 412.1649475097656
z: -0.007235944736748934
","x: 218.08651733398438
y: 420.205078125
z: -0.007708417717367411
","x: 216.83668518066406
y: 418.8961181640625
z: -0.005228416062891483
","x: 217.03338623046875
y: 416.9966125488281
z: -0.0034729272592812777
","x: 222.56619262695312
y: 413.50555419921875
z: -0.006915735080838203
","x: 219.8585968017578
y: 420.613525390625
z: -0.0072629414498806
","x: 218.6938934326172
y: 419.24737548828125
z: -0.004884690046310425
","x: 218.86477661132812
y: 417.15118408203125
z: -0.003418188076466322
","x: 223.72471618652344
y: 414.3290710449219
z: -0.006684253457933664
","x: 221.3302459716797
y: 419.9609680175781
z: -0.007277205120772123
","x: 220.282470703125
y: 419.1235656738281
z: -0.006065101828426123
","x: 220.2549591064453
y: 417.3121643066406
z: -0.0050181057304143906
"
19,"x: 185.21812438964844
y: 271.3152770996094
z: -0.29462653398513794
visibility: 0.9999474883079529
","x: 185.29188537597656
y: 262.80340576171875
z: -0.28263527154922485
visibility: 0.9998794794082642
","x: 186.88038635253906
y: 261.4260559082031
z: -0.28263339400291443
visibility: 0.9998878836631775
","x: 188.50521850585938
y: 259.9423522949219
z: -0.2826668620109558
visibility: 0.9999037981033325
","x: 181.49681091308594
y: 265.89593505859375
z: -0.28051653504371643
visibility: 0.9998318552970886
","x: 180.4565887451172
y: 266.66937255859375
z: -0.2805875241756439
visibility: 0.9997925162315369
","x: 179.47091674804688
y: 267.3614196777344
z: -0.2806145250797272
visibility: 0.9997533559799194
","x: 192.3681182861328
y: 259.6831359863281
z: -0.1839703470468521
visibility: 0.9998406171798706
","x: 178.70301818847656
y: 269.38494873046875
z: -0.1718606799840927
visibility: 0.9994805455207825
","x: 190.11074829101562
y: 276.029296875
z: -0.2556259334087372
visibility: 0.9999239444732666
","x: 185.9604034423828
y: 279.57147216796875
z: -0.25262054800987244
visibility: 0.999819815158844
","x: 217.26890563964844
y: 293.8379211425781
z: -0.08153162896633148
visibility: 0.9999454021453857
","x: 178.75376892089844
y: 304.41363525390625
z: -0.14798617362976074
visibility: 0.9995244741439819
","x: 228.02151489257812
y: 349.8276062011719
z: -0.04592728987336159
visibility: 0.9808408617973328
","x: 192.49383544921875
y: 335.28363037109375
z: -0.3057454526424408
visibility: 0.8847370147705078
","x: 223.96954345703125
y: 400.297607421875
z: -0.05441218614578247
visibility: 0.9471027255058289
","x: 199.49017333984375
y: 292.0934753417969
z: -0.507215142250061
visibility: 0.831881582736969
","x: 222.48812866210938
y: 415.47003173828125
z: -0.06075967475771904
visibility: 0.8828710317611694
","x: 199.93435668945312
y: 274.35552978515625
z: -0.5547001957893372
visibility: 0.7760127782821655
","x: 220.03550720214844
y: 412.42132568359375
z: -0.08133398741483688
visibility: 0.8862921595573425
","x: 196.85581970214844
y: 273.00396728515625
z: -0.5508400201797485
visibility: 0.7650531530380249
","x: 219.83299255371094
y: 406.87158203125
z: -0.060894258320331573
visibility: 0.8546792268753052
","x: 197.5561065673828
y: 278.1474609375
z: -0.5117395520210266
visibility: 0.7195836305618286
","x: 209.90158081054688
y: 403.1164855957031
z: 0.01902221515774727
visibility: 0.9997636079788208
","x: 185.6284942626953
y: 400.58538818359375
z: -0.01917603239417076
visibility: 0.9997496008872986
","x: 216.13658142089844
y: 481.10894775390625
z: -0.0077358693815767765
visibility: 0.969603955745697
","x: 166.0749053955078
y: 477.884765625
z: -0.044159259647130966
visibility: 0.9425430297851562
","x: 215.45578002929688
y: 555.828369140625
z: 0.16189539432525635
visibility: 0.9775294065475464
","x: 148.99563598632812
y: 541.8323974609375
z: 0.07588933408260345
visibility: 0.9400030374526978
","x: 211.6629180908203
y: 568.9136352539062
z: 0.17238494753837585
visibility: 0.9166516661643982
","x: 149.65110778808594
y: 550.51953125
z: 0.0831562727689743
visibility: 0.8337582349777222
","x: 224.73690795898438
y: 577.4556884765625
z: 0.05841357260942459
visibility: 0.9715006351470947
","x: 145.7338409423828
y: 573.1031494140625
z: -0.04062746465206146
visibility: 0.9359385967254639
",,,,,,,,,,,,,,,,,,,,,,"x: 223.60968017578125
y: 399.9333190917969
z: 0.0
","x: 219.2979278564453
y: 401.04290771484375
z: -0.001397636253386736
","x: 216.5611572265625
y: 405.3188781738281
z: -0.0027912829536944628
","x: 215.84942626953125
y: 410.6971435546875
z: -0.0037235976196825504
","x: 215.9722900390625
y: 414.47308349609375
z: -0.004253368824720383
","x: 218.89395141601562
y: 409.9177551269531
z: -0.00725610600784421
","x: 215.9825897216797
y: 418.7120056152344
z: -0.008271664381027222
","x: 214.766845703125
y: 418.41302490234375
z: -0.0070061408914625645
","x: 214.80801391601562
y: 417.4034118652344
z: -0.005894975271075964
","x: 220.98143005371094
y: 412.1649475097656
z: -0.007235944736748934
","x: 218.08651733398438
y: 420.205078125
z: -0.007708417717367411
","x: 216.83668518066406
y: 418.8961181640625
z: -0.005228416062891483
","x: 217.03338623046875
y: 416.9966125488281
z: -0.0034729272592812777
","x: 222.56619262695312
y: 413.50555419921875
z: -0.006915735080838203
","x: 219.8585968017578
y: 420.613525390625
z: -0.0072629414498806
","x: 218.6938934326172
y: 419.24737548828125
z: -0.004884690046310425
","x: 218.86477661132812
y: 417.15118408203125
z: -0.003418188076466322
","x: 223.72471618652344
y: 414.3290710449219
z: -0.006684253457933664
","x: 221.3302459716797
y: 419.9609680175781
z: -0.007277205120772123
","x: 220.282470703125
y: 419.1235656738281
z: -0.006065101828426123
","x: 220.2549591064453
y: 417.3121643066406
z: -0.0050181057304143906
"
20,"x: 188.98260498046875
y: 263.0316162109375
z: -0.3411296606063843
visibility: 0.9999522566795349
","x: 189.5467529296875
y: 255.45407104492188
z: -0.3284458518028259
visibility: 0.9998907446861267
","x: 190.9402313232422
y: 254.36309814453125
z: -0.3284470736980438
visibility: 0.9998983144760132
","x: 192.38873291015625
y: 253.33360290527344
z: -0.328491747379303
visibility: 0.9999126195907593
","x: 185.879638671875
y: 258.7427673339844
z: -0.3257584571838379
visibility: 0.9998474717140198
","x: 184.6477813720703
y: 259.96051025390625
z: -0.32584109902381897
visibility: 0.999812126159668
","x: 183.39462280273438
y: 261.0781555175781
z: -0.3258548080921173
visibility: 0.9997763633728027
","x: 196.0193634033203
y: 255.0666046142578
z: -0.22288115322589874
visibility: 0.9998557567596436
","x: 183.0216064453125
y: 264.697021484375
z: -0.20603378117084503
visibility: 0.999528169631958
","x: 193.0835418701172
y: 268.68414306640625
z: -0.3003465533256531
visibility: 0.9999310970306396
","x: 188.51585388183594
y: 272.2729187011719
z: -0.2969893217086792
visibility: 0.9998363256454468
","x: 218.9574432373047
y: 293.64520263671875
z: -0.13031837344169617
visibility: 0.9999496936798096
","x: 178.8368377685547
y: 303.34820556640625
z: -0.12254297733306885
visibility: 0.9995506405830383
","x: 231.7034454345703
y: 346.3724060058594
z: -0.11500342935323715
visibility: 0.982315182685852
","x: 173.12474060058594
y: 341.0659484863281
z: -0.23320236802101135
visibility: 0.8883209824562073
","x: 228.46939086914062
y: 395.40582275390625
z: -0.1643463671207428
visibility: 0.9513111114501953
","x: 155.46505737304688
y: 327.582763671875
z: -0.4936066269874573
visibility: 0.8417481780052185
","x: 227.36346435546875
y: 408.4863586425781
z: -0.19998890161514282
visibility: 0.8912081718444824
","x: 149.73387145996094
y: 316.43902587890625
z: -0.5427719950675964
visibility: 0.7881618738174438
","x: 224.86424255371094
y: 405.9126281738281
z: -0.23806123435497284
visibility: 0.8945520520210266
","x: 150.08883666992188
y: 311.137939453125
z: -0.5593039989471436
visibility: 0.7783024311065674
","x: 224.60507202148438
y: 401.83935546875
z: -0.18451179563999176
visibility: 0.8648783564567566
","x: 153.1256103515625
y: 311.63470458984375
z: -0.507860541343689
visibility: 0.734147846698761
","x: 213.93910217285156
y: 402.7898864746094
z: 0.011045434512197971
visibility: 0.9997789263725281
","x: 189.47833251953125
y: 400.96453857421875
z: -0.01114859338849783
visibility: 0.9997614026069641
","x: 218.85243225097656
y: 481.22064208984375
z: -0.04459643363952637
visibility: 0.9724518656730652
","x: 171.2543487548828
y: 477.60736083984375
z: -0.04119338467717171
visibility: 0.9481333494186401
","x: 216.18701171875
y: 555.6311645507812
z: 0.1118389368057251
visibility: 0.979586660861969
","x: 149.9201202392578
y: 546.1318359375
z: 0.08240741491317749
visibility: 0.9458803534507751
","x: 212.1007080078125
y: 568.992919921875
z: 0.11927206814289093
visibility: 0.9225500822067261
","x: 150.7968292236328
y: 556.4441528320312
z: 0.09048090875148773
visibility: 0.8450309038162231
","x: 225.03041076660156
y: 576.5068969726562
z: -0.00717082479968667
visibility: 0.9739404916763306
","x: 144.30165100097656
y: 573.8697509765625
z: -0.03665400668978691
visibility: 0.9420114755630493
",,,,,,,,,,,,,,,,,,,,,,,,,,,,,,,,,,,,,,,,,,
21,"x: 199.8408966064453
y: 259.5074157714844
z: -0.35233086347579956
visibility: 0.9999567270278931
","x: 201.15042114257812
y: 250.96795654296875
z: -0.3408016860485077
visibility: 0.9999010562896729
","x: 202.67025756835938
y: 250.32855224609375
z: -0.34079647064208984
visibility: 0.9999077916145325
","x: 204.08546447753906
y: 249.7866668701172
z: -0.34085148572921753
visibility: 0.9999205470085144
","x: 196.83343505859375
y: 252.82015991210938
z: -0.33721017837524414
visibility: 0.999862015247345
","x: 195.27183532714844
y: 253.52304077148438
z: -0.33724695444107056
visibility: 0.9998303055763245
","x: 193.68263244628906
y: 254.20396423339844
z: -0.33729004859924316
visibility: 0.9997979402542114
","x: 206.96762084960938
y: 252.30050659179688
z: -0.2272678166627884
visibility: 0.9998688101768494
","x: 191.9105224609375
y: 258.22406005859375
z: -0.22618627548217773
visibility: 0.9995744228363037
","x: 203.37176513671875
y: 266.0721130371094
z: -0.3118751049041748
visibility: 0.9999373555183411
","x: 198.31100463867188
y: 268.1964111328125
z: -0.3102237284183502
visibility: 0.9998519420623779
","x: 225.12547302246094
y: 294.08856201171875
z: -0.12106762081384659
visibility: 0.9999539256095886
","x: 182.9765167236328
y: 300.17498779296875
z: -0.1469978243112564
visibility: 0.9995933771133423
","x: 234.57916259765625
y: 341.39544677734375
z: -0.11785946786403656
visibility: 0.9833067655563354
","x: 156.2434539794922
y: 327.27734375
z: -0.2416793406009674
visibility: 0.8994075655937195
","x: 248.71971130371094
y: 375.65618896484375
z: -0.24641402065753937
visibility: 0.9549652934074402
","x: 142.6101531982422
y: 283.8717956542969
z: -0.4566986560821533
visibility: 0.8573801517486572
","x: 253.17869567871094
y: 387.2705383300781
z: -0.2730666995048523
visibility: 0.898649275302887
","x: 135.10964965820312
y: 274.147216796875
z: -0.4994545876979828
visibility: 0.8085915446281433
","x: 252.10353088378906
y: 386.1877136230469
z: -0.3053034842014313
visibility: 0.9021438360214233
","x: 137.74351501464844
y: 270.515625
z: -0.5114226341247559
visibility: 0.7997310757637024
","x: 250.48138427734375
y: 383.00927734375
z: -0.26305317878723145
visibility: 0.8749502897262573
","x: 141.420654296875
y: 273.8193054199219
z: -0.4672226905822754
visibility: 0.7597247958183289
","x: 218.8018035888672
y: 402.8692932128906
z: 0.020498916506767273
visibility: 0.9997966885566711
","x: 195.02114868164062
y: 401.94635009765625
z: -0.020581547170877457
visibility: 0.9997804164886475
","x: 221.99229431152344
y: 481.55889892578125
z: 0.03765159100294113
visibility: 0.9745639562606812
","x: 178.58741760253906
y: 481.86444091796875
z: -0.027251381427049637
visibility: 0.9531698822975159
","x: 217.27603149414062
y: 555.9439697265625
z: 0.2050137221813202
visibility: 0.9812512397766113
","x: 160.39117431640625
y: 538.7471923828125
z: 0.15439774096012115
visibility: 0.9509748816490173
","x: 212.57220458984375
y: 569.983154296875
z: 0.21495600044727325
visibility: 0.9270722270011902
","x: 158.14805603027344
y: 540.3779296875
z: 0.16825725138187408
visibility: 0.8539981842041016
","x: 225.2574920654297
y: 577.3070068359375
z: 0.10640358924865723
visibility: 0.9758917093276978
","x: 151.69638061523438
y: 572.1925048828125
z: 0.06728892028331757
visibility: 0.9472113251686096
",,,,,,,,,,,,,,,,,,,,,,,,,,,,,,,,,,,,,,,,,,
22,"x: 203.7706756591797
y: 251.51710510253906
z: -0.343170702457428
visibility: 0.9999597072601318
","x: 204.7920684814453
y: 243.91851806640625
z: -0.3254537582397461
visibility: 0.9999073147773743
","x: 206.07362365722656
y: 243.88641357421875
z: -0.32546257972717285
visibility: 0.9999123811721802
","x: 207.2536163330078
y: 244.0179443359375
z: -0.32550519704818726
visibility: 0.9999234676361084
","x: 200.86524963378906
y: 244.20692443847656
z: -0.32666414976119995
visibility: 0.999872088432312
","x: 199.45944213867188
y: 244.3466796875
z: -0.32676875591278076
visibility: 0.9998433589935303
","x: 198.0370635986328
y: 244.5020294189453
z: -0.32679811120033264
visibility: 0.9998136758804321
","x: 210.48199462890625
y: 248.360595703125
z: -0.1990715116262436
visibility: 0.9998709559440613
","x: 196.4215087890625
y: 248.47109985351562
z: -0.20788753032684326
visibility: 0.9996128082275391
","x: 207.37628173828125
y: 261.12945556640625
z: -0.2955521047115326
visibility: 0.9999403953552246
","x: 202.29489135742188
y: 260.783935546875
z: -0.29787108302116394
visibility: 0.9998636245727539
","x: 228.40196228027344
y: 293.98919677734375
z: -0.09190619736909866
visibility: 0.9999547004699707
","x: 185.58984375
y: 288.39947509765625
z: -0.1417226493358612
visibility: 0.9996313452720642
","x: 239.04066467285156
y: 344.23681640625
z: -0.09957757592201233
visibility: 0.9817821383476257
","x: 157.17706298828125
y: 296.3951721191406
z: -0.23454181849956512
visibility: 0.9094182252883911
","x: 256.6198425292969
y: 373.6382751464844
z: -0.2382231056690216
visibility: 0.954944372177124
","x: 144.63446044921875
y: 254.8466339111328
z: -0.4453253149986267
visibility: 0.8714356422424316
","x: 261.162109375
y: 381.3026123046875
z: -0.26263517141342163
visibility: 0.8992384672164917
","x: 138.6266632080078
y: 244.59947204589844
z: -0.49764329195022583
visibility: 0.826873779296875
","x: 261.3963928222656
y: 379.8429870605469
z: -0.2922908663749695
visibility: 0.9037712216377258
","x: 139.72605895996094
y: 239.6871795654297
z: -0.48762211203575134
visibility: 0.8189124464988708
","x: 259.4386901855469
y: 377.3141784667969
z: -0.25391191244125366
visibility: 0.8784300088882446
","x: 142.09983825683594
y: 244.0395965576172
z: -0.45572400093078613
visibility: 0.7827180027961731
","x: 220.67422485351562
y: 398.9402770996094
z: 0.03353611379861832
visibility: 0.9998106360435486
","x: 196.68212890625
y: 398.9538269042969
z: -0.033597446978092194
visibility: 0.9997958540916443
","x: 223.6963348388672
y: 480.0990295410156
z: -0.0167755838483572
visibility: 0.9726144075393677
","x: 211.24795532226562
y: 475.5712585449219
z: -0.09434142708778381
visibility: 0.956947386264801
","x: 217.56690979003906
y: 556.4545288085938
z: 0.1224764734506607
visibility: 0.9805199503898621
","x: 188.75765991210938
y: 529.3519897460938
z: 0.13026063144207
visibility: 0.9521839618682861
","x: 212.6800079345703
y: 570.6760864257812
z: 0.13003972172737122
visibility: 0.9248440861701965
","x: 184.73509216308594
y: 530.777587890625
z: 0.1464574635028839
visibility: 0.8487383127212524
","x: 226.43902587890625
y: 578.7835083007812
z: 0.018129540607333183
visibility: 0.9753257036209106
","x: 182.97621154785156
y: 564.6090087890625
z: 0.05603886768221855
visibility: 0.9489994645118713
",,,,,,,,,,,,,,,,,,,,,,,,,,,,,,,,,,,,,,,,,,
23,"x: 204.55906677246094
y: 249.37673950195312
z: -0.331294447183609
visibility: 0.9999620914459229
","x: 206.9900665283203
y: 242.74566650390625
z: -0.31275951862335205
visibility: 0.999913215637207
","x: 208.57449340820312
y: 242.79214477539062
z: -0.31276634335517883
visibility: 0.9999168515205383
","x: 210.12767028808594
y: 242.9593048095703
z: -0.31281131505966187
visibility: 0.9999269247055054
","x: 202.52059936523438
y: 242.77581787109375
z: -0.3137740194797516
visibility: 0.9998803734779358
","x: 200.94146728515625
y: 242.8181610107422
z: -0.313859760761261
visibility: 0.9998539090156555
","x: 199.27792358398438
y: 242.82077026367188
z: -0.31386223435401917
visibility: 0.9998264908790588
","x: 212.80987548828125
y: 247.79165649414062
z: -0.1882084310054779
visibility: 0.9998769760131836
","x: 197.12045288085938
y: 246.60586547851562
z: -0.1955639123916626
visibility: 0.9996440410614014
","x: 207.8282928466797
y: 259.22564697265625
z: -0.28406521677970886
visibility: 0.9999435544013977
","x: 203.25146484375
y: 258.4390869140625
z: -0.286224901676178
visibility: 0.9998735785484314
","x: 229.90621948242188
y: 295.01751708984375
z: -0.09751413762569427
visibility: 0.9999548196792603
","x: 187.24745178222656
y: 282.6902160644531
z: -0.12032745778560638
visibility: 0.9996621012687683
","x: 240.67599487304688
y: 345.45367431640625
z: -0.10836870968341827
visibility: 0.9813876748085022
","x: 158.9417724609375
y: 281.37945556640625
z: -0.2005811184644699
visibility: 0.9182266592979431
","x: 256.0115051269531
y: 377.9237365722656
z: -0.25490471720695496
visibility: 0.9558724164962769
","x: 141.1030731201172
y: 261.0000915527344
z: -0.4044967293739319
visibility: 0.8831892013549805
","x: 259.62493896484375
y: 387.3431396484375
z: -0.2837109863758087
visibility: 0.9011278748512268
","x: 130.29176330566406
y: 254.62364196777344
z: -0.44889768958091736
visibility: 0.840691864490509
","x: 259.2439270019531
y: 385.6802062988281
z: -0.31697651743888855
visibility: 0.9064919948577881
","x: 133.3052520751953
y: 253.57293701171875
z: -0.4687930941581726
visibility: 0.833836555480957
","x: 257.6639099121094
y: 382.5767822265625
z: -0.27265775203704834
visibility: 0.8826310634613037
","x: 138.13394165039062
y: 257.1800537109375
z: -0.4221569001674652
visibility: 0.8010709285736084
","x: 221.0099334716797
y: 395.72186279296875
z: 0.02580105885863304
visibility: 0.9998072385787964
","x: 197.09628295898438
y: 396.4516906738281
z: -0.025876378640532494
visibility: 0.999798595905304
","x: 224.7037811279297
y: 479.4332275390625
z: -0.021241413429379463
visibility: 0.973024845123291
","x: 212.3021240234375
y: 474.90985107421875
z: -0.08000190556049347
visibility: 0.9596293568611145
","x: 218.6769561767578
y: 556.2908325195312
z: 0.11018745601177216
visibility: 0.980110764503479
","x: 200.50460815429688
y: 535.2063598632812
z: 0.1064707487821579
visibility: 0.9534240365028381
","x: 213.83099365234375
y: 569.5642700195312
z: 0.11627174913883209
visibility: 0.9178802967071533
","x: 199.87342834472656
y: 536.14794921875
z: 0.11845922470092773
visibility: 0.8373653888702393
","x: 225.30438232421875
y: 579.80078125
z: -0.004050772171467543
visibility: 0.9749717712402344
","x: 195.9180908203125
y: 569.1224365234375
z: 0.0005600036238320172
visibility: 0.9509217143058777
",,,,,,,,,,,,,,,,,,,,,,,,,,,,,,,,,,,,,,,,,,
24,"x: 211.0023193359375
y: 253.6210479736328
z: -0.4464852213859558
visibility: 0.999965488910675
","x: 213.89239501953125
y: 245.7105255126953
z: -0.4277801513671875
visibility: 0.9999210834503174
","x: 215.66294860839844
y: 245.61302185058594
z: -0.4277595579624176
visibility: 0.9999242424964905
","x: 217.30746459960938
y: 245.6082763671875
z: -0.4278210699558258
visibility: 0.9999333620071411
","x: 208.91871643066406
y: 246.17361450195312
z: -0.4281393587589264
visibility: 0.999890923500061
","x: 207.48060607910156
y: 246.3856201171875
z: -0.4282847046852112
visibility: 0.9998668432235718
","x: 205.90365600585938
y: 246.62945556640625
z: -0.4282938539981842
visibility: 0.9998417496681213
","x: 220.34967041015625
y: 249.6749725341797
z: -0.29146915674209595
visibility: 0.9998873472213745
","x: 204.16639709472656
y: 250.2119140625
z: -0.29723089933395386
visibility: 0.9996764659881592
","x: 214.47003173828125
y: 262.384765625
z: -0.3939943313598633
visibility: 0.999948263168335
","x: 208.66209411621094
y: 262.0084228515625
z: -0.39573174715042114
visibility: 0.999884307384491
","x: 234.5877685546875
y: 297.45263671875
z: -0.18306131660938263
visibility: 0.9999570250511169
","x: 187.95623779296875
y: 283.7215576171875
z: -0.19857379794120789
visibility: 0.9996844530105591
","x: 243.07879638671875
y: 348.8857727050781
z: -0.16404268145561218
visibility: 0.9822980165481567
","x: 159.1494140625
y: 278.2449645996094
z: -0.22255238890647888
visibility: 0.9262933731079102
","x: 251.43605041503906
y: 382.8592529296875
z: -0.2742783725261688
visibility: 0.9588555097579956
","x: 134.99070739746094
y: 269.146728515625
z: -0.3561519980430603
visibility: 0.8938207030296326
","x: 253.63043212890625
y: 388.0955505371094
z: -0.2988487184047699
visibility: 0.9069792628288269
","x: 122.15912628173828
y: 268.5442810058594
z: -0.38814905285835266
visibility: 0.8530276417732239
","x: 252.27682495117188
y: 386.40386962890625
z: -0.3311198353767395
visibility: 0.9122176766395569
","x: 122.74586486816406
y: 268.7787170410156
z: -0.42314356565475464
visibility: 0.8472883105278015
","x: 250.9774627685547
y: 383.8138427734375
z: -0.2894735634326935
visibility: 0.8898601531982422
","x: 126.57870483398438
y: 269.70263671875
z: -0.3759254217147827
visibility: 0.8176552057266235
","x: 221.39918518066406
y: 395.85675048828125
z: 0.022542942315340042
visibility: 0.9998218417167664
","x: 198.2393341064453
y: 397.16961669921875
z: -0.022615639492869377
visibility: 0.9998069405555725
","x: 224.8070068359375
y: 479.980224609375
z: -0.06800215691328049
visibility: 0.9744781851768494
","x: 200.48907470703125
y: 475.41119384765625
z: -0.0572449155151844
visibility: 0.9627304673194885
","x: 217.37557983398438
y: 557.1922607421875
z: 0.06502457708120346
visibility: 0.9801999926567078
","x: 187.267578125
y: 534.2488403320312
z: 0.18458083271980286
visibility: 0.9509981870651245
","x: 212.6092987060547
y: 570.4277954101562
z: 0.07240397483110428
visibility: 0.9164358973503113
","x: 184.69017028808594
y: 537.337890625
z: 0.20296736061573029
visibility: 0.8123891949653625
","x: 225.85464477539062
y: 582.935546875
z: -0.05257289484143257
visibility: 0.9753081798553467
","x: 188.009033203125
y: 568.1646728515625
z: 0.09441050887107849
visibility: 0.9480937719345093
",,,,,,,,,,,,,,,,,,,,,,,,,,,,,,,,,,,,,,,,,,
25,"x: 214.1807861328125
y: 251.73886108398438
z: -0.41096121072769165
visibility: 0.9999687075614929
","x: 216.75949096679688
y: 243.3077850341797
z: -0.3935001492500305
visibility: 0.9999285936355591
","x: 218.59535217285156
y: 243.0229034423828
z: -0.39350026845932007
visibility: 0.9999313950538635
","x: 220.2869110107422
y: 242.83367919921875
z: -0.39352506399154663
visibility: 0.9999395608901978
","x: 211.9691619873047
y: 244.42984008789062
z: -0.39305755496025085
visibility: 0.9999012351036072
","x: 210.56655883789062
y: 244.83726501464844
z: -0.39318591356277466
visibility: 0.9998795390129089
","x: 208.99124145507812
y: 245.24432373046875
z: -0.3931979537010193
visibility: 0.9998568892478943
","x: 223.39471435546875
y: 246.32691955566406
z: -0.2677411735057831
visibility: 0.9998976588249207
","x: 208.0048370361328
y: 248.67987060546875
z: -0.2716849446296692
visibility: 0.9997075200080872
","x: 218.15267944335938
y: 259.9425354003906
z: -0.3605407178401947
visibility: 0.9999528527259827
","x: 211.9292755126953
y: 260.0062255859375
z: -0.3607346713542938
visibility: 0.9998950362205505
","x: 239.58792114257812
y: 294.6766357421875
z: -0.15663708746433258
visibility: 0.9999597668647766
","x: 193.05340576171875
y: 285.4052429199219
z: -0.1666404902935028
visibility: 0.9997088313102722
","x: 246.41038513183594
y: 348.7079162597656
z: -0.15910610556602478
visibility: 0.9832674860954285
","x: 165.50173950195312
y: 294.62469482421875
z: -0.23023883998394012
visibility: 0.933434009552002
","x: 249.24024963378906
y: 384.977783203125
z: -0.27235785126686096
visibility: 0.9617855548858643
","x: 144.30941772460938
y: 270.330322265625
z: -0.44048872590065
visibility: 0.9039598703384399
","x: 251.2075958251953
y: 388.41363525390625
z: -0.30328935384750366
visibility: 0.9129076600074768
","x: 135.0948944091797
y: 265.99310302734375
z: -0.4873781204223633
visibility: 0.866288423538208
","x: 249.93882751464844
y: 386.8751525878906
z: -0.3318665623664856
visibility: 0.9179252982139587
","x: 135.32626342773438
y: 262.5814208984375
z: -0.5097654461860657
visibility: 0.8612112402915955
","x: 248.52235412597656
y: 384.3534851074219
z: -0.286064475774765
visibility: 0.8969245553016663
","x: 139.30517578125
y: 264.26434326171875
z: -0.45664578676223755
visibility: 0.8340917825698853
","x: 222.09765625
y: 396.1755676269531
z: 0.02334487996995449
visibility: 0.9998258352279663
","x: 198.54965209960938
y: 395.968994140625
z: -0.02347720041871071
visibility: 0.9998140931129456
","x: 219.38461303710938
y: 481.97369384765625
z: 0.04396871104836464
visibility: 0.9759659171104431
","x: 186.84365844726562
y: 475.4395751953125
z: -0.06541100889444351
visibility: 0.9662771821022034
","x: 216.62278747558594
y: 558.5521850585938
z: 0.22584843635559082
visibility: 0.981677770614624
","x: 157.73223876953125
y: 538.429931640625
z: 0.06282715499401093
visibility: 0.955595850944519
","x: 212.14846801757812
y: 570.867431640625
z: 0.23616990447044373
visibility: 0.9191100597381592
","x: 151.8732147216797
y: 546.3184814453125
z: 0.06869547069072723
visibility: 0.8210944533348083
","x: 224.866455078125
y: 582.5987548828125
z: 0.11666592210531235
visibility: 0.9768907427787781
","x: 169.596435546875
y: 572.3761596679688
z: -0.06907425820827484
visibility: 0.9526800513267517
",,,,,,,,,,,,,,,,,,,,,,,,,,,,,,,,,,,,,,,,,,
26,"x: 215.06451416015625
y: 248.2549285888672
z: -0.3737061023712158
visibility: 0.9999716281890869
","x: 217.29571533203125
y: 239.89134216308594
z: -0.3553990125656128
visibility: 0.9999353289604187
","x: 219.00100708007812
y: 239.4239501953125
z: -0.35540148615837097
visibility: 0.9999378323554993
","x: 220.65582275390625
y: 239.05355834960938
z: -0.355368435382843
visibility: 0.9999451041221619
","x: 212.7178955078125
y: 241.38601684570312
z: -0.35515549778938293
visibility: 0.9999105334281921
","x: 211.18060302734375
y: 241.8624725341797
z: -0.3552808165550232
visibility: 0.9998910427093506
","x: 209.62953186035156
y: 242.2958984375
z: -0.3552762567996979
visibility: 0.9998705387115479
","x: 224.0713348388672
y: 242.6659393310547
z: -0.2222433090209961
visibility: 0.9999068975448608
","x: 208.73814392089844
y: 245.82786560058594
z: -0.22335073351860046
visibility: 0.9997356534004211
","x: 218.87611389160156
y: 256.6824645996094
z: -0.3216232657432556
visibility: 0.9999571442604065
","x: 213.31130981445312
y: 257.384765625
z: -0.32182636857032776
visibility: 0.9999049305915833
","x: 240.40414428710938
y: 291.84381103515625
z: -0.10606430470943451
visibility: 0.9999629855155945
","x: 194.77345275878906
y: 284.4671325683594
z: -0.131164088845253
visibility: 0.9997345805168152
","x: 248.6555938720703
y: 348.21942138671875
z: -0.1003420501947403
visibility: 0.9845094084739685
","x: 167.57321166992188
y: 301.1289367675781
z: -0.20753785967826843
visibility: 0.9399413466453552
","x: 249.03543090820312
y: 388.18035888671875
z: -0.2698148190975189
visibility: 0.9650595784187317
","x: 150.62396240234375
y: 270.2315979003906
z: -0.4381803572177887
visibility: 0.9134020805358887
","x: 249.84002685546875
y: 395.24609375
z: -0.2828611731529236
visibility: 0.9198792576789856
","x: 144.0932159423828
y: 264.12286376953125
z: -0.48620954155921936
visibility: 0.8791308999061584
","x: 248.46548461914062
y: 394.2762756347656
z: -0.3095077872276306
visibility: 0.924580991268158
","x: 144.43679809570312
y: 258.52838134765625
z: -0.5054143071174622
visibility: 0.8745859861373901
","x: 247.09707641601562
y: 391.32305908203125
z: -0.279622346162796
visibility: 0.9051703214645386
","x: 147.25888061523438
y: 261.3246765136719
z: -0.4523662030696869
visibility: 0.8499525189399719
","x: 222.5091552734375
y: 396.8597412109375
z: 0.027314160019159317
visibility: 0.999835193157196
","x: 198.97178649902344
y: 395.3805847167969
z: -0.02749704383313656
visibility: 0.9998217821121216
","x: 219.4149627685547
y: 481.5752868652344
z: 0.028074681758880615
visibility: 0.9776493906974792
","x: 187.0055389404297
y: 475.708740234375
z: -0.0662015825510025
visibility: 0.9694308042526245
","x: 215.94276428222656
y: 559.2403564453125
z: 0.19405731558799744
visibility: 0.9831600785255432
","x: 160.66180419921875
y: 538.6555786132812
z: 0.08632062375545502
visibility: 0.9596152901649475
","x: 212.10838317871094
y: 571.18115234375
z: 0.20276996493339539
visibility: 0.9233574271202087
","x: 155.48138427734375
y: 546.3085327148438
z: 0.09578246623277664
visibility: 0.8269742727279663
","x: 225.49996948242188
y: 582.8304443359375
z: 0.08324049413204193
visibility: 0.9786183834075928
","x: 167.489013671875
y: 574.2205200195312
z: -0.029004594311118126
visibility: 0.9567028880119324
",,,,,,,,,,,,,,,,,,,,,,,,,,,,,,,,,,,,,,,,,,
27,"x: 215.2264404296875
y: 247.88038635253906
z: -0.3103479743003845
visibility: 0.999974250793457
","x: 217.4033660888672
y: 239.255126953125
z: -0.291918009519577
visibility: 0.9999411702156067
","x: 218.94168090820312
y: 238.77801513671875
z: -0.29191556572914124
visibility: 0.9999433159828186
","x: 220.5582275390625
