uscmakers/ReverseChoreography/data/4_power_little_mix.csv
,NOSE,LEFT_EYE_INNER,LEFT_EYE,LEFT_EYE_OUTER,RIGHT_EYE_INNER,RIGHT_EYE,RIGHT_EYE_OUTER,LEFT_EAR,RIGHT_EAR,MOUTH_LEFT,MOUTH_RIGHT,LEFT_SHOULDER,RIGHT_SHOULDER,LEFT_ELBOW,RIGHT_ELBOW,LEFT_WRIST,RIGHT_WRIST,LEFT_PINKY,RIGHT_PINKY,LEFT_INDEX,RIGHT_INDEX,LEFT_THUMB,RIGHT_THUMB,LEFT_HIP,RIGHT_HIP,LEFT_KNEE,RIGHT_KNEE,LEFT_ANKLE,RIGHT_ANKLE,LEFT_HEEL,RIGHT_HEEL,LEFT_FOOT_INDEX,RIGHT_FOOT_INDEX,WRIST,THUMB_CPC,THUMB_MCP,THUMB_IP,THUMB_TIP,INDEX_FINGER_MCP,INDEX_FINGER_PIP,INDEX_FINGER_DIP,INDEX_FINGER_TIP,MIDDLE_FINGER_MCP,MIDDLE_FINGER_PIP,MIDDLE_FINGER_DIP,MIDDLE_FINGER_TIP,RING_FINGER_PIP,RING_FINGER_DIP,RING_FINGER_TIP,RING_FINGER_MCP,PINKY_MCP,PINKY_PIP,PINKY_DIP,PINKY_TIP,WRIST2,THUMB_CPC2,THUMB_MCP2,THUMB_IP2,THUMB_TIP2,INDEX_FINGER_MCP2,INDEX_FINGER_PIP2,INDEX_FINGER_DIP2,INDEX_FINGER_TIP2,MIDDLE_FINGER_MCP2,MIDDLE_FINGER_PIP2,MIDDLE_FINGER_DIP2,MIDDLE_FINGER_TIP2,RING_FINGER_PIP2,RING_FINGER_DIP2,RING_FINGER_TIP2,RING_FINGER_MCP2,PINKY_MCP2,PINKY_PIP2,PINKY_DIP2,PINKY_TIP2
0,"x: 219.09352111816406
y: 218.56195068359375
z: -0.22060337662696838
visibility: 0.9996675252914429
","x: 222.1733856201172
y: 215.3031005859375
z: -0.1935504823923111
visibility: 0.9996404647827148
","x: 223.39297485351562
y: 216.64735412597656
z: -0.1936025321483612
visibility: 0.9993593096733093
","x: 224.55747985839844
y: 218.0152130126953
z: -0.19361189007759094
visibility: 0.9995858073234558
","x: 218.0479736328125
y: 212.63287353515625
z: -0.20169420540332794
visibility: 0.999279797077179
","x: 216.59449768066406
y: 212.10379028320312
z: -0.2017299234867096
visibility: 0.9990631937980652
","x: 215.09814453125
y: 211.62506103515625
z: -0.2017926275730133
visibility: 0.9992857575416565
","x: 226.40560913085938
y: 225.77328491210938
z: -0.06125367805361748
visibility: 0.9992340803146362
","x: 212.25343322753906
y: 217.79156494140625
z: -0.09880175441503525
visibility: 0.999365508556366
","x: 221.17135620117188
y: 229.62547302246094
z: -0.17253760993480682
visibility: 0.9997147917747498
","x: 214.7774200439453
y: 226.5618133544922
z: -0.18366773426532745
visibility: 0.9996040463447571
","x: 232.24688720703125
y: 277.56939697265625
z: 0.023699939250946045
visibility: 0.9992085099220276
","x: 197.0543670654297
y: 252.1433868408203
z: -0.08679582178592682
visibility: 0.9995909333229065
","x: 234.75120544433594
y: 334.15338134765625
z: 0.07020366936922073
visibility: 0.8060764074325562
","x: 199.97019958496094
y: 189.6190185546875
z: -0.1867072433233261
visibility: 0.9990214109420776
","x: 236.86331176757812
y: 391.3642883300781
z: 0.016255991533398628
visibility: 0.5361933708190918
","x: 201.99188232421875
y: 139.51693725585938
z: -0.2229621857404709
visibility: 0.994662344455719
","x: 237.4525146484375
y: 405.1756591796875
z: -0.0017982346471399069
visibility: 0.4757942855358124
","x: 203.28208923339844
y: 135.02569580078125
z: -0.26663973927497864
visibility: 0.9812291860580444
","x: 236.4805145263672
y: 405.31500244140625
z: -0.033961713314056396
visibility: 0.512161135673523
","x: 204.7101287841797
y: 134.5911865234375
z: -0.26144999265670776
visibility: 0.9792436957359314
","x: 235.63140869140625
y: 400.1178283691406
z: -0.0006504497723653913
visibility: 0.5343492031097412
","x: 204.3940887451172
y: 135.36837768554688
z: -0.2279861867427826
visibility: 0.9805976748466492
","x: 225.69923400878906
y: 373.3682556152344
z: 0.028220126405358315
visibility: 0.9997691512107849
","x: 203.9368438720703
y: 373.5968322753906
z: -0.028318528085947037
visibility: 0.9998414516448975
","x: 222.2240753173828
y: 466.91107177734375
z: 0.007272443268448114
visibility: 0.9834200143814087
","x: 202.0152587890625
y: 469.9211120605469
z: -0.04108726605772972
visibility: 0.979794979095459
","x: 218.8104248046875
y: 549.24267578125
z: 0.1958063691854477
visibility: 0.9780886769294739
","x: 205.80868530273438
y: 549.7069702148438
z: 0.13980591297149658
visibility: 0.9751333594322205
","x: 216.4940643310547
y: 559.218994140625
z: 0.2078876793384552
visibility: 0.8619833588600159
","x: 205.836669921875
y: 557.8770751953125
z: 0.1501050591468811
visibility: 0.80817711353302
","x: 219.845703125
y: 577.888427734375
z: 0.05712016671895981
visibility: 0.969918429851532
","x: 210.79757690429688
y: 577.2014770507812
z: -0.004434717353433371
visibility: 0.9769492745399475
",,,,,,,,,,,,,,,,,,,,,,,,,,,,,,,,,,,,,,,,,,
1,"x: 215.25546264648438
y: 226.22335815429688
z: -0.2497827112674713
visibility: 0.9996867179870605
","x: 217.776611328125
y: 221.41598510742188
z: -0.2226804792881012
visibility: 0.999660074710846
","x: 219.14431762695312
y: 222.53530883789062
z: -0.22270998358726501
visibility: 0.9993968605995178
","x: 220.57301330566406
y: 223.77073669433594
z: -0.2227240800857544
visibility: 0.9996115565299988
","x: 213.4760284423828
y: 219.36138916015625
z: -0.22409193217754364
visibility: 0.9993112087249756
","x: 211.9284210205078
y: 219.08547973632812
z: -0.2241397351026535
visibility: 0.9990904927253723
","x: 210.3622283935547
y: 218.84854125976562
z: -0.2240932434797287
visibility: 0.9992947578430176
","x: 222.1836395263672
y: 230.88568115234375
z: -0.09351740032434464
visibility: 0.9992616772651672
","x: 208.02963256835938
y: 225.4385528564453
z: -0.10159388929605484
visibility: 0.9993253946304321
","x: 217.54364013671875
y: 237.15283203125
z: -0.20417718589305878
visibility: 0.9997185468673706
","x: 211.5015106201172
y: 234.81971740722656
z: -0.20597843825817108
visibility: 0.9995990991592407
","x: 231.22085571289062
y: 279.3209228515625
z: -0.04037794843316078
visibility: 0.9992642402648926
","x: 193.3916015625
y: 259.1142578125
z: -0.08438575267791748
visibility: 0.999571681022644
","x: 232.15411376953125
y: 336.0066223144531
z: -0.070520780980587
visibility: 0.8245043754577637
","x: 193.21234130859375
y: 202.4370574951172
z: -0.13646139204502106
visibility: 0.9990502595901489
","x: 212.91744995117188
y: 370.941650390625
z: -0.15501675009727478
visibility: 0.5810598731040955
","x: 197.09498596191406
y: 148.70867919921875
z: -0.13607364892959595
visibility: 0.9948323369026184
","x: 206.4268798828125
y: 383.7021179199219
z: -0.19377180933952332
visibility: 0.5245044827461243
","x: 194.73486328125
y: 140.3016815185547
z: -0.17686150968074799
visibility: 0.9813695549964905
","x: 204.80081176757812
y: 378.51580810546875
z: -0.21377535164356232
visibility: 0.5575318932533264
","x: 195.80455017089844
y: 139.27418518066406
z: -0.176842600107193
visibility: 0.9794445037841797
","x: 206.22216796875
y: 373.5495300292969
z: -0.16625525057315826
visibility: 0.5765112042427063
","x: 197.09149169921875
y: 141.99832153320312
z: -0.143046036362648
visibility: 0.9806923270225525
","x: 219.553955078125
y: 379.09552001953125
z: 0.027350852265954018
visibility: 0.9997806549072266
","x: 197.32025146484375
y: 380.1125793457031
z: -0.027440359815955162
visibility: 0.9998452663421631
","x: 221.7740478515625
y: 470.037109375
z: 0.014537995681166649
visibility: 0.9833328127861023
","x: 194.98997497558594
y: 470.62506103515625
z: -0.043978799134492874
visibility: 0.9808290004730225
","x: 218.00450134277344
y: 550.9918823242188
z: 0.17112523317337036
visibility: 0.9790018200874329
","x: 182.763427734375
y: 545.0867919921875
z: 0.1248888373374939
visibility: 0.9762235879898071
","x: 214.54403686523438
y: 562.9374389648438
z: 0.17989954352378845
visibility: 0.8704403638839722
","x: 179.2569580078125
y: 553.7916870117188
z: 0.1347280740737915
visibility: 0.8095331192016602
","x: 222.013671875
y: 579.1456298828125
z: 0.05536298826336861
visibility: 0.9710126519203186
","x: 183.5771026611328
y: 574.893798828125
z: -0.0026173144578933716
visibility: 0.9776077270507812
",,,,,,,,,,,,,,,,,,,,,,,,,,,,,,,,,,,,,,,,,,
2,"x: 212.73765563964844
y: 230.97830200195312
z: -0.07479120045900345
visibility: 0.9996640086174011
","x: 215.5550994873047
y: 226.11846923828125
z: -0.05025668814778328
visibility: 0.999642014503479
","x: 216.94068908691406
y: 227.37652587890625
z: -0.05030376464128494
visibility: 0.9993774890899658
","x: 218.39328002929688
y: 228.75587463378906
z: -0.05034948140382767
visibility: 0.9996062517166138
","x: 211.38729858398438
y: 223.46243286132812
z: -0.050430476665496826
visibility: 0.9992541670799255
","x: 209.9547576904297
y: 222.92518615722656
z: -0.050468556582927704
visibility: 0.998969554901123
","x: 208.4919891357422
y: 222.4442901611328
z: -0.05043990537524223
visibility: 0.9991894364356995
","x: 219.99127197265625
y: 235.0583038330078
z: 0.058646418154239655
visibility: 0.9992162585258484
","x: 206.2659454345703
y: 228.59616088867188
z: 0.056956760585308075
visibility: 0.9991438388824463
","x: 214.56784057617188
y: 240.9337158203125
z: -0.03675998002290726
visibility: 0.999669075012207
","x: 209.20545959472656
y: 238.00416564941406
z: -0.03719672933220863
visibility: 0.9995066523551941
","x: 227.6664276123047
y: 280.6307373046875
z: 0.07139526307582855
visibility: 0.9993209838867188
","x: 191.83834838867188
y: 260.6054992675781
z: 0.05716722458600998
visibility: 0.999572217464447
","x: 220.38111877441406
y: 330.71209716796875
z: 0.0020791334100067616
visibility: 0.8414018750190735
","x: 194.39125061035156
y: 201.63665771484375
z: 0.021225769072771072
visibility: 0.9989539384841919
","x: 186.35476684570312
y: 320.1966552734375
z: -0.06997047364711761
visibility: 0.6222856640815735
","x: 195.3034210205078
y: 147.7705535888672
z: 0.055404823273420334
visibility: 0.9949889183044434
","x: 179.10728454589844
y: 318.8968505859375
z: -0.10478153079748154
visibility: 0.5701078176498413
","x: 191.19798278808594
y: 139.96043395996094
z: 0.02498091384768486
visibility: 0.9817611575126648
","x: 177.80670166015625
y: 313.18316650390625
z: -0.11618600785732269
visibility: 0.5998393893241882
","x: 191.68545532226562
y: 138.8791961669922
z: 0.02544696070253849
visibility: 0.9799080491065979
","x: 180.13832092285156
y: 313.4665222167969
z: -0.0782821848988533
visibility: 0.6158950924873352
","x: 193.4699249267578
y: 141.33348083496094
z: 0.05010772868990898
visibility: 0.9809707403182983
","x: 213.953369140625
y: 379.2181091308594
z: 0.03327775001525879
visibility: 0.9997820258140564
","x: 192.38790893554688
y: 379.3484802246094
z: -0.03327691927552223
visibility: 0.9998429417610168
","x: 218.93661499023438
y: 469.8611755371094
z: 0.008388059213757515
visibility: 0.9824222326278687
","x: 187.707275390625
y: 470.5621643066406
z: -0.07869330048561096
visibility: 0.9819258451461792
","x: 217.2512969970703
y: 551.35595703125
z: 0.12105169147253036
visibility: 0.9798736572265625
","x: 168.9000244140625
y: 550.4345092773438
z: 0.035322483628988266
visibility: 0.9776687622070312
","x: 213.4842987060547
y: 564.279296875
z: 0.12719081342220306
visibility: 0.8791708946228027
","x: 164.38502502441406
y: 561.8297729492188
z: 0.040091387927532196
visibility: 0.8111270666122437
","x: 224.4445037841797
y: 579.8851928710938
z: 0.01533848512917757
visibility: 0.971714198589325
","x: 178.1152801513672
y: 580.0294189453125
z: -0.0906723290681839
visibility: 0.9779224991798401
",,,,,,,,,,,,,,,,,,,,,,,,,,,,,,,,,,,,,,,,,,
3,"x: 206.43301391601562
y: 229.81988525390625
z: -0.11348237097263336
visibility: 0.9996956586837769
","x: 209.22206115722656
y: 225.10296630859375
z: -0.08404543250799179
visibility: 0.9996748566627502
","x: 210.58181762695312
y: 226.36412048339844
z: -0.08404122292995453
visibility: 0.999434769153595
","x: 211.92233276367188
y: 227.69937133789062
z: -0.08410993963479996
visibility: 0.9996421933174133
","x: 204.97096252441406
y: 222.46502685546875
z: -0.09041904658079147
visibility: 0.9993240833282471
","x: 203.44296264648438
y: 221.92660522460938
z: -0.0904097631573677
visibility: 0.9990658760070801
","x: 201.73841857910156
y: 221.3894500732422
z: -0.09037119895219803
visibility: 0.9992648959159851
","x: 212.8094940185547
y: 234.4174041748047
z: 0.042700979858636856
visibility: 0.9992865920066833
","x: 198.8695068359375
y: 227.11021423339844
z: 0.013290162198245525
visibility: 0.9992238879203796
","x: 208.1617431640625
y: 239.99717712402344
z: -0.06945860385894775
visibility: 0.9996963739395142
","x: 203.08865356445312
y: 237.10736083984375
z: -0.07802195847034454
visibility: 0.999548077583313
","x: 219.69967651367188
y: 280.58135986328125
z: 0.11388705670833588
visibility: 0.9993816018104553
","x: 183.98199462890625
y: 260.45654296875
z: -0.009473145008087158
visibility: 0.9996019005775452
","x: 241.1725616455078
y: 313.06304931640625
z: 0.08479662239551544
visibility: 0.8565825819969177
","x: 190.08981323242188
y: 201.00796508789062
z: -0.07152228057384491
visibility: 0.9989944100379944
","x: 262.8337707519531
y: 281.456787109375
z: -0.05341359227895737
visibility: 0.6595272421836853
","x: 194.65733337402344
y: 147.52064514160156
z: -0.0920192152261734
visibility: 0.9953132271766663
","x: 270.074462890625
y: 273.853515625
z: -0.07722674310207367
visibility: 0.6110177040100098
","x: 192.5450897216797
y: 138.51010131835938
z: -0.1317146122455597
visibility: 0.9824337363243103
","x: 269.4147644042969
y: 268.01239013671875
z: -0.10216494649648666
visibility: 0.638011634349823
","x: 193.29177856445312
y: 136.38291931152344
z: -0.03932441771030426
visibility: 0.9806526303291321
","x: 266.4681091308594
y: 270.3396911621094
z: -0.05945851653814316
visibility: 0.6521918773651123
","x: 194.5111541748047
y: 140.5263214111328
z: -0.08257141709327698
visibility: 0.9814943671226501
","x: 210.1141357421875
y: 379.7210998535156
z: 0.03425786271691322
visibility: 0.9997644424438477
","x: 187.2279510498047
y: 379.528076171875
z: -0.03418923169374466
visibility: 0.9998263120651245
","x: 216.10345458984375
y: 471.2492370605469
z: 0.007414241321384907
visibility: 0.9816216826438904
","x: 180.4886932373047
y: 470.52813720703125
z: -0.08812472969293594
visibility: 0.9829333424568176
","x: 217.04925537109375
y: 553.0570678710938
z: 0.11409255117177963
visibility: 0.9798051714897156
","x: 169.048828125
y: 555.42822265625
z: 0.011502559296786785
visibility: 0.9790314435958862
","x: 213.10971069335938
y: 565.199462890625
z: 0.11759330332279205
visibility: 0.8832658529281616
","x: 168.15945434570312
y: 567.4296264648438
z: 0.014163553714752197
visibility: 0.8162252306938171
","x: 224.17222595214844
y: 580.4478149414062
z: -0.0070512318052351475
visibility: 0.9712682962417603
","x: 177.40194702148438
y: 583.8591918945312
z: -0.12191390991210938
visibility: 0.9784185886383057
","x: 194.0482635498047
y: 138.69708251953125
z: 0.0
","x: 194.1009063720703
y: 134.66014099121094
z: -0.002204492688179016
","x: 193.1326904296875
y: 130.38629150390625
z: -0.0036104400642216206
","x: 191.17764282226562
y: 128.68077087402344
z: -0.00514075206592679
","x: 189.40670776367188
y: 127.9625015258789
z: -0.006636760663241148
","x: 191.40826416015625
y: 123.89328002929688
z: -0.001755052711814642
","x: 189.3415069580078
y: 118.82290649414062
z: -0.004037260077893734
","x: 187.5614471435547
y: 116.36376190185547
z: -0.005808382760733366
","x: 186.00039672851562
y: 114.71136474609375
z: -0.006865586154162884
","x: 190.04116821289062
y: 125.2944564819336
z: -0.0022201375104486942
","x: 187.04200744628906
y: 121.07661437988281
z: -0.00420745462179184
","x: 184.5861053466797
y: 119.49883270263672
z: -0.0056806583888828754
","x: 182.55078125
y: 118.59825134277344
z: -0.0067345923744142056
","x: 189.22459411621094
y: 127.52532196044922
z: -0.0030803000554442406
","x: 186.51954650878906
y: 124.89877319335938
z: -0.005158877931535244
","x: 184.7137451171875
y: 124.27696228027344
z: -0.006263866554945707
","x: 183.30807495117188
y: 124.00694274902344
z: -0.00688694603741169
","x: 188.88670349121094
y: 130.4421844482422
z: -0.0042897434905171394
","x: 187.49794006347656
y: 128.67967224121094
z: -0.00581462262198329
","x: 186.98300170898438
y: 128.7616424560547
z: -0.006259289104491472
","x: 186.67955017089844
y: 129.22166442871094
z: -0.00645977258682251
",,,,,,,,,,,,,,,,,,,,,
4,"x: 206.43301391601562
y: 229.81988525390625
z: -0.11348237097263336
visibility: 0.9996956586837769
","x: 209.22206115722656
y: 225.10296630859375
z: -0.08404543250799179
visibility: 0.9996748566627502
","x: 210.58181762695312
y: 226.36412048339844
z: -0.08404122292995453
visibility: 0.999434769153595
","x: 211.92233276367188
y: 227.69937133789062
z: -0.08410993963479996
visibility: 0.9996421933174133
","x: 204.97096252441406
y: 222.46502685546875
z: -0.09041904658079147
visibility: 0.9993240833282471
","x: 203.44296264648438
y: 221.92660522460938
z: -0.0904097631573677
visibility: 0.9990658760070801
","x: 201.73841857910156
y: 221.3894500732422
z: -0.09037119895219803
visibility: 0.9992648959159851
","x: 212.8094940185547
y: 234.4174041748047
z: 0.042700979858636856
visibility: 0.9992865920066833
","x: 198.8695068359375
y: 227.11021423339844
z: 0.013290162198245525
visibility: 0.9992238879203796
","x: 208.1617431640625
y: 239.99717712402344
z: -0.06945860385894775
visibility: 0.9996963739395142
","x: 203.08865356445312
y: 237.10736083984375
z: -0.07802195847034454
visibility: 0.999548077583313
","x: 219.69967651367188
y: 280.58135986328125
z: 0.11388705670833588
visibility: 0.9993816018104553
","x: 183.98199462890625
y: 260.45654296875
z: -0.009473145008087158
visibility: 0.9996019005775452
","x: 241.1725616455078
y: 313.06304931640625
z: 0.08479662239551544
visibility: 0.8565825819969177
","x: 190.08981323242188
y: 201.00796508789062
z: -0.07152228057384491
visibility: 0.9989944100379944
","x: 262.8337707519531
y: 281.456787109375
z: -0.05341359227895737
visibility: 0.6595272421836853
","x: 194.65733337402344
y: 147.52064514160156
z: -0.0920192152261734
visibility: 0.9953132271766663
","x: 270.074462890625
y: 273.853515625
z: -0.07722674310207367
visibility: 0.6110177040100098
","x: 192.5450897216797
y: 138.51010131835938
z: -0.1317146122455597
visibility: 0.9824337363243103
","x: 269.4147644042969
y: 268.01239013671875
z: -0.10216494649648666
visibility: 0.638011634349823
","x: 193.29177856445312
y: 136.38291931152344
z: -0.03932441771030426
visibility: 0.9806526303291321
","x: 266.4681091308594
y: 270.3396911621094
z: -0.05945851653814316
visibility: 0.6521918773651123
","x: 194.5111541748047
y: 140.5263214111328
z: -0.08257141709327698
visibility: 0.9814943671226501
","x: 210.1141357421875
y: 379.7210998535156
z: 0.03425786271691322
visibility: 0.9997644424438477
","x: 187.2279510498047
y: 379.528076171875
z: -0.03418923169374466
visibility: 0.9998263120651245
","x: 216.10345458984375
y: 471.2492370605469
z: 0.007414241321384907
visibility: 0.9816216826438904
","x: 180.4886932373047
y: 470.52813720703125
z: -0.08812472969293594
visibility: 0.9829333424568176
","x: 217.04925537109375
y: 553.0570678710938
z: 0.11409255117177963
visibility: 0.9798051714897156
","x: 169.048828125
y: 555.42822265625
z: 0.011502559296786785
visibility: 0.9790314435958862
","x: 213.10971069335938
y: 565.199462890625
z: 0.11759330332279205
visibility: 0.8832658529281616
","x: 168.15945434570312
y: 567.4296264648438
z: 0.014163553714752197
visibility: 0.8162252306938171
","x: 224.17222595214844
y: 580.4478149414062
z: -0.0070512318052351475
visibility: 0.9712682962417603
","x: 177.40194702148438
y: 583.8591918945312
z: -0.12191390991210938
visibility: 0.9784185886383057
","x: 194.0482635498047
y: 138.69708251953125
z: 0.0
","x: 194.1009063720703
y: 134.66014099121094
z: -0.002204492688179016
","x: 193.1326904296875
y: 130.38629150390625
z: -0.0036104400642216206
","x: 191.17764282226562
y: 128.68077087402344
z: -0.00514075206592679
","x: 189.40670776367188
y: 127.9625015258789
z: -0.006636760663241148
","x: 191.40826416015625
y: 123.89328002929688
z: -0.001755052711814642
","x: 189.3415069580078
y: 118.82290649414062
z: -0.004037260077893734
","x: 187.5614471435547
y: 116.36376190185547
z: -0.005808382760733366
","x: 186.00039672851562
y: 114.71136474609375
z: -0.006865586154162884
","x: 190.04116821289062
y: 125.2944564819336
z: -0.0022201375104486942
","x: 187.04200744628906
y: 121.07661437988281
z: -0.00420745462179184
","x: 184.5861053466797
y: 119.49883270263672
z: -0.0056806583888828754
","x: 182.55078125
y: 118.59825134277344
z: -0.0067345923744142056
","x: 189.22459411621094
y: 127.52532196044922
z: -0.0030803000554442406
","x: 186.51954650878906
y: 124.89877319335938
z: -0.005158877931535244
","x: 184.7137451171875
y: 124.27696228027344
z: -0.006263866554945707
","x: 183.30807495117188
y: 124.00694274902344
z: -0.00688694603741169
","x: 188.88670349121094
y: 130.4421844482422
z: -0.0042897434905171394
","x: 187.49794006347656
y: 128.67967224121094
z: -0.00581462262198329
","x: 186.98300170898438
y: 128.7616424560547
z: -0.006259289104491472
","x: 186.67955017089844
y: 129.22166442871094
z: -0.00645977258682251
",,,,,,,,,,,,,,,,,,,,,
5,"x: 202.1265106201172
y: 229.74867248535156
z: -0.16280503571033478
visibility: 0.999724805355072
","x: 204.77247619628906
y: 224.2398681640625
z: -0.13222061097621918
visibility: 0.9997043013572693
","x: 206.14163208007812
y: 225.44259643554688
z: -0.1319771707057953
visibility: 0.9994859099388123
","x: 207.32647705078125
y: 226.7555389404297
z: -0.13207538425922394
visibility: 0.9996735453605652
","x: 200.33035278320312
y: 221.84841918945312
z: -0.14522984623908997
visibility: 0.9993884563446045
","x: 198.74642944335938
y: 221.36497497558594
z: -0.14518412947654724
visibility: 0.9991552233695984
","x: 196.9141387939453
y: 220.865234375
z: -0.14503595232963562
visibility: 0.9993349313735962
","x: 207.2447509765625
y: 234.17153930664062
z: -0.004503320436924696
visibility: 0.9993473291397095
","x: 193.12640380859375
y: 226.39700317382812
z: -0.05685707926750183
visibility: 0.9992979764938354
","x: 203.57583618164062
y: 239.5951690673828
z: -0.11923839151859283
visibility: 0.999721884727478
","x: 198.4967041015625
y: 237.34158325195312
z: -0.1349974274635315
visibility: 0.9995881915092468
","x: 214.92535400390625
y: 277.60040283203125
z: 0.07083988934755325
visibility: 0.9994335770606995
","x: 178.50299072265625
y: 259.7042541503906
z: -0.10135672241449356
visibility: 0.9996345043182373
","x: 247.29953002929688
y: 284.01776123046875
z: 0.07563465088605881
visibility: 0.8704724311828613
","x: 184.27828979492188
y: 200.46560668945312
z: -0.22819383442401886
visibility: 0.9990525841712952
","x: 276.1502380371094
y: 276.1731262207031
z: -0.03227715194225311
visibility: 0.6931006908416748
","x: 191.57115173339844
y: 146.90496826171875
z: -0.2656611502170563
visibility: 0.9956507682800293
","x: 284.8681640625
y: 272.43902587890625
z: -0.04437227547168732
visibility: 0.6479545831680298
","x: 190.73187255859375
y: 135.72433471679688
z: -0.3085888922214508
visibility: 0.9833154678344727
","x: 285.8061828613281
y: 269.8174133300781
z: -0.0775986835360527
visibility: 0.6725326180458069
","x: 191.885009765625
y: 134.02517700195312
z: -0.2876582145690918
visibility: 0.9816123247146606
","x: 282.2669372558594
y: 271.4327697753906
z: -0.052151381969451904
visibility: 0.6852157711982727
","x: 192.55699157714844
y: 138.9077911376953
z: -0.2662768065929413
visibility: 0.9821885824203491
","x: 207.73348999023438
y: 380.06964111328125
z: 0.03849568963050842
visibility: 0.9997523427009583
","x: 185.00640869140625
y: 380.6026611328125
z: -0.038465678691864014
visibility: 0.9998259544372559
","x: 213.19473266601562
y: 470.8535461425781
z: 0.06647726148366928
visibility: 0.9807021617889404
","x: 176.446044921875
y: 469.7118835449219
z: -0.07676790654659271
visibility: 0.9842291474342346
","x: 216.25042724609375
y: 552.4694213867188
z: 0.2027113139629364
visibility: 0.9801760315895081
","x: 167.88218688964844
y: 555.7828369140625
z: 0.028696436434984207
visibility: 0.9807232022285461
","x: 212.0196075439453
y: 564.38720703125
z: 0.2086576521396637
visibility: 0.8897001147270203
","x: 166.67799377441406
y: 567.2508544921875
z: 0.03200938552618027
visibility: 0.8272846937179565
","x: 224.00006103515625
y: 579.2359008789062
z: 0.09441788494586945
visibility: 0.9715642333030701
","x: 175.3230743408203
y: 584.87841796875
z: -0.1011141687631607
visibility: 0.9796541333198547
",,,,,,,,,,,,,,,,,,,,,,,,,,,,,,,,,,,,,,,,,,
6,"x: 205.27796936035156
y: 228.88587951660156
z: -0.12981145083904266
visibility: 0.9997519850730896
","x: 206.9241943359375
y: 224.05953979492188
z: -0.09693646430969238
visibility: 0.999733567237854
","x: 207.85626220703125
y: 225.2477264404297
z: -0.09687238931655884
visibility: 0.9995367527008057
","x: 208.72879028320312
y: 226.25527954101562
z: -0.09692307561635971
visibility: 0.9997057318687439
","x: 203.09002685546875
y: 221.30862426757812
z: -0.10939361155033112
visibility: 0.9994491338729858
","x: 201.39710998535156
y: 220.78060913085938
z: -0.10937535762786865
visibility: 0.9992389678955078
","x: 199.39627075195312
y: 220.275634765625
z: -0.10929771512746811
visibility: 0.9994007349014282
","x: 208.14244079589844
y: 232.68470764160156
z: 0.045279476791620255
visibility: 0.9994114637374878
","x: 194.40225219726562
y: 225.8202362060547
z: -0.012538922019302845
visibility: 0.9993678331375122
","x: 206.49172973632812
y: 238.91439819335938
z: -0.07966618984937668
visibility: 0.9997487664222717
","x: 201.4539337158203
y: 236.78236389160156
z: -0.09643203020095825
visibility: 0.9996284246444702
","x: 214.4013214111328
y: 278.52545166015625
z: 0.14160068333148956
visibility: 0.9994864463806152
","x: 180.04151916503906
y: 259.64642333984375
z: -0.06694574654102325
visibility: 0.999669075012207
","x: 244.24847412109375
y: 285.00421142578125
z: 0.12713190913200378
visibility: 0.8817346096038818
","x: 177.77789306640625
y: 199.90896606445312
z: -0.19173189997673035
visibility: 0.9991267323493958
","x: 260.9803161621094
y: 278.82568359375
z: 0.007080367766320705
visibility: 0.7231316566467285
","x: 187.46304321289062
y: 146.50607299804688
z: -0.22652263939380646
visibility: 0.9960055947303772
","x: 267.7703552246094
y: 268.0994567871094
z: -0.014324056915938854
visibility: 0.6809456944465637
","x: 188.91574096679688
y: 133.98248291015625
z: -0.2469128668308258
visibility: 0.9843863844871521
","x: 267.4035339355469
y: 262.7969665527344
z: -0.03510191664099693
visibility: 0.7032838463783264
","x: 190.57327270507812
y: 132.81846618652344
z: -0.2230435162782669
visibility: 0.9827708005905151
","x: 264.5614318847656
y: 266.16802978515625
z: -0.009051065891981125
visibility: 0.7143745422363281
","x: 190.5555419921875
y: 138.2264862060547
z: -0.21540959179401398
visibility: 0.9832193851470947
","x: 207.99234008789062
y: 380.1748352050781
z: 0.059588026255369186
visibility: 0.9997640252113342
","x: 185.6002960205078
y: 380.85205078125
z: -0.059495873749256134
visibility: 0.9998354911804199
","x: 212.8361053466797
y: 470.6790771484375
z: 0.06522488594055176
visibility: 0.9796928763389587
","x: 176.4294891357422
y: 470.8847351074219
z: -0.08662734925746918
visibility: 0.9855266809463501
","x: 216.34007263183594
y: 552.9840087890625
z: 0.1785668432712555
visibility: 0.9808394312858582
","x: 167.098388671875
y: 555.8178100585938
z: 0.010394742712378502
visibility: 0.9823408722877502
","x: 212.1429901123047
y: 565.4570922851562
z: 0.17917278409004211
visibility: 0.89775151014328
","x: 165.041748046875
y: 566.945556640625
z: 0.013308706693351269
visibility: 0.8383963704109192
","x: 229.28012084960938
y: 578.525634765625
z: 0.07468046247959137
visibility: 0.9725320339202881
","x: 175.09251403808594
y: 585.4517211914062
z: -0.11652463674545288
visibility: 0.9810004830360413
",,,,,,,,,,,,,,,,,,,,,,,,,,,,,,,,,,,,,,,,,,
7,"x: 214.58522033691406
y: 230.97364807128906
z: -0.04055048152804375
visibility: 0.9997764825820923
","x: 212.5037841796875
y: 225.17544555664062
z: -0.011745255440473557
visibility: 0.9997600317001343
","x: 212.15863037109375
y: 226.02438354492188
z: -0.011709210462868214
visibility: 0.999582827091217
","x: 211.63499450683594
y: 226.80776977539062
z: -0.011757181957364082
visibility: 0.9997349381446838
","x: 211.35581970214844
y: 223.2818603515625
z: -0.029603261500597
visibility: 0.9995038509368896
","x: 210.18173217773438
y: 222.89578247070312
z: -0.029596855863928795
visibility: 0.9993144273757935
","x: 208.7183837890625
y: 222.52989196777344
z: -0.029530813917517662
visibility: 0.9994601011276245
","x: 211.31436157226562
y: 232.2811279296875
z: 0.11682838201522827
visibility: 0.9994698762893677
","x: 201.20974731445312
y: 226.11891174316406
z: 0.033469606190919876
visibility: 0.999430775642395
","x: 213.49603271484375
y: 239.77537536621094
z: 0.0061693135648965836
visibility: 0.999773383140564
","x: 211.68209838867188
y: 237.960205078125
z: -0.018177632242441177
visibility: 0.9996650218963623
","x: 216.570556640625
y: 280.5318603515625
z: 0.19380313158035278
visibility: 0.9995364546775818
","x: 181.00436401367188
y: 257.445068359375
z: -0.006946127861738205
visibility: 0.9997013807296753
","x: 229.54017639160156
y: 321.8368225097656
z: 0.13035915791988373
visibility: 0.8908208012580872
","x: 173.76512145996094
y: 199.29403686523438
z: -0.10657565295696259
visibility: 0.9991956949234009
","x: 258.6606750488281
y: 285.20684814453125
z: -0.01006987038999796
visibility: 0.7502738237380981
","x: 179.84266662597656
y: 146.39329528808594
z: -0.07794944941997528
visibility: 0.9963540434837341
","x: 258.873291015625
y: 274.6532897949219
z: -0.03813210874795914
visibility: 0.7113946080207825
","x: 180.4008026123047
y: 133.2254638671875
z: -0.10080963373184204
visibility: 0.9855743646621704
","x: 257.37322998046875
y: 269.7540283203125
z: -0.041757866740226746
visibility: 0.7316000461578369
","x: 182.58554077148438
y: 132.43881225585938
z: -0.08965010941028595
visibility: 0.9840686321258545
","x: 255.85340881347656
y: 272.83526611328125
z: -0.020117685198783875
visibility: 0.7412309050559998
","x: 182.7769317626953
y: 137.85572814941406
z: -0.07722119987010956
visibility: 0.9844345450401306
","x: 209.84371948242188
y: 381.24700927734375
z: 0.06842872500419617
visibility: 0.9997815489768982
","x: 187.44752502441406
y: 380.6456298828125
z: -0.06829942017793655
visibility: 0.9998467564582825
","x: 213.94276428222656
y: 471.6031188964844
z: 0.056027721613645554
visibility: 0.9796180725097656
","x: 177.55715942382812
y: 470.8720397949219
z: -0.1082204207777977
visibility: 0.9867695569992065
","x: 216.34722900390625
y: 553.4696044921875
z: 0.13326892256736755
visibility: 0.9817259311676025
","x: 166.68605041503906
y: 555.5147094726562
z: -0.0394318588078022
visibility: 0.9838284254074097
","x: 212.01759338378906
y: 566.185546875
z: 0.13420554995536804
visibility: 0.905575156211853
","x: 163.69937133789062
y: 566.7405395507812
z: -0.03803814575076103
visibility: 0.849260151386261
","x: 231.19908142089844
y: 578.2383422851562
z: 0.04572949558496475
visibility: 0.9738337993621826
","x: 176.52479553222656
y: 584.8795166015625
z: -0.15814939141273499
visibility: 0.982291579246521
",,,,,,,,,,,,,,,,,,,,,,,,,,,,,,,,,,,,,,,,,,
8,"x: 225.2410125732422
y: 232.06027221679688
z: -0.05655243247747421
visibility: 0.9997984766960144
","x: 223.31185913085938
y: 225.91653442382812
z: -0.029280930757522583
visibility: 0.9997837543487549
","x: 222.9586944580078
y: 226.4676513671875
z: -0.029253501445055008
visibility: 0.9996240735054016
","x: 222.4064483642578
y: 227.0272674560547
z: -0.029271598905324936
visibility: 0.9997611045837402
","x: 222.2281036376953
y: 224.4248809814453
z: -0.05313137173652649
visibility: 0.9995529651641846
","x: 221.18055725097656
y: 223.96151733398438
z: -0.05314125493168831
visibility: 0.9993822574615479
","x: 219.9439697265625
y: 223.48573303222656
z: -0.05309855937957764
visibility: 0.9995133876800537
","x: 216.59120178222656
y: 232.00967407226562
z: 0.08956493437290192
visibility: 0.9995218515396118
","x: 212.34683227539062
y: 226.1286163330078
z: -0.005543109029531479
visibility: 0.9994872808456421
","x: 223.57745361328125
y: 239.996826171875
z: -0.012791022658348083
visibility: 0.9997952580451965
","x: 222.13357543945312
y: 238.24209594726562
z: -0.04489223286509514
visibility: 0.9996976852416992
","x: 217.52688598632812
y: 282.27056884765625
z: 0.17214642465114594
visibility: 0.9995810985565186
","x: 187.13133239746094
y: 255.72042846679688
z: -0.05815073847770691
visibility: 0.9997304081916809
","x: 234.6034698486328
y: 325.7501525878906
z: 0.13613596558570862
visibility: 0.8981744050979614
","x: 174.99652099609375
y: 201.26220703125
z: -0.14701151847839355
visibility: 0.9992572665214539
","x: 261.4455871582031
y: 289.67755126953125
z: -0.015022002160549164
visibility: 0.7746037840843201
","x: 177.28872680664062
y: 146.34695434570312
z: -0.12740939855575562
visibility: 0.9966806769371033
","x: 268.3709716796875
y: 281.8765869140625
z: -0.039638958871364594
visibility: 0.7386187314987183
","x: 176.5281524658203
y: 132.78964233398438
z: -0.15863388776779175
visibility: 0.9867854714393616
","x: 268.0866394042969
y: 276.36669921875
z: -0.04711882770061493
visibility: 0.7570028901100159
","x: 178.32835388183594
y: 131.9209442138672
z: -0.15108992159366608
visibility: 0.9854021072387695
","x: 265.4419860839844
y: 278.2739562988281
z: -0.026982620358467102
visibility: 0.7654135823249817
","x: 179.08294677734375
y: 137.48486328125
z: -0.1296430230140686
visibility: 0.985666036605835
","x: 210.299560546875
y: 381.9921569824219
z: 0.08217768371105194
visibility: 0.9997948408126831
","x: 187.64614868164062
y: 379.7760314941406
z: -0.08210067451000214
visibility: 0.9998576641082764
","x: 214.45816040039062
y: 471.39453125
z: 0.10979370772838593
visibility: 0.9761508703231812
","x: 179.13734436035156
y: 469.72662353515625
z: -0.17469507455825806
visibility: 0.9878963828086853
","x: 216.69573974609375
y: 553.3975830078125
z: 0.18873819708824158
visibility: 0.9816635251045227
","x: 162.39370727539062
y: 555.3555908203125
z: -0.15341295301914215
visibility: 0.9851370453834534
","x: 212.17491149902344
y: 566.3109130859375
z: 0.1900031715631485
visibility: 0.9111733436584473
","x: 156.59278869628906
y: 566.58154296875
z: -0.15658588707447052
visibility: 0.8587285876274109
","x: 232.98110961914062
y: 578.1456298828125
z: 0.115827277302742
visibility: 0.9741204977035522
","x: 176.32748413085938
y: 584.7728271484375
z: -0.28074461221694946
visibility: 0.9834681749343872
",,,,,,,,,,,,,,,,,,,,,,,,,,,,,,,,,,,,,,,,,,
9,"x: 222.5318145751953
y: 226.43739318847656
z: -0.07729548215866089
visibility: 0.9998175501823425
","x: 222.10586547851562
y: 218.9851531982422
z: -0.054500192403793335
visibility: 0.999803364276886
","x: 222.88958740234375
y: 219.09609985351562
z: -0.05475790426135063
visibility: 0.9996583461761475
","x: 221.27932739257812
y: 219.09503173828125
z: -0.05491393804550171
visibility: 0.999782383441925
","x: 219.70962524414062
y: 218.66851806640625
z: -0.0940771996974945
visibility: 0.9995958209037781
","x: 218.5041961669922
y: 218.63787841796875
z: -0.09412770718336105
visibility: 0.9994419813156128
","x: 217.14280700683594
y: 218.44993591308594
z: -0.0940667912364006
visibility: 0.9995600581169128
","x: 213.76446533203125
y: 223.53323364257812
z: 0.07940972596406937
visibility: 0.9995630979537964
","x: 211.7144775390625
y: 220.8271026611328
z: -0.0770043283700943
visibility: 0.9995371699333191
","x: 221.7418670654297
y: 235.298828125
z: -0.0308613870292902
visibility: 0.9998128414154053
","x: 219.31861877441406
y: 234.39353942871094
z: -0.09369499236345291
visibility: 0.999725341796875
","x: 218.29470825195312
y: 280.09100341796875
z: 0.13547217845916748
visibility: 0.9996179342269897
","x: 187.2505645751953
y: 253.96583557128906
z: -0.14734020829200745
visibility: 0.9997547268867493
","x: 251.9344940185547
y: 302.2671813964844
z: 0.18314006924629211
visibility: 0.9070818424224854
","x: 174.7124786376953
y: 197.85336303710938
z: -0.3054577708244324
visibility: 0.999321699142456
","x: 280.537841796875
y: 294.3197021484375
z: 0.12710857391357422
visibility: 0.7965214848518372
","x: 191.3645782470703
y: 150.40879821777344
z: -0.33056971430778503
visibility: 0.9969701170921326
","x: 290.3707580566406
y: 289.3953857421875
z: 0.1251358687877655
visibility: 0.7626397609710693
","x: 197.6780548095703
y: 137.3684539794922
z: -0.36928027868270874
visibility: 0.9877774715423584
","x: 291.55450439453125
y: 285.21142578125
z: 0.09153460711240768
visibility: 0.7795421481132507
","x: 199.97752380371094
y: 138.30831909179688
z: -0.34531480073928833
visibility: 0.9864699840545654
","x: 288.2019958496094
y: 287.29193115234375
z: 0.10815367847681046
visibility: 0.786959707736969
","x: 198.25198364257812
y: 144.4901123046875
z: -0.3262549042701721
visibility: 0.9865450859069824
","x: 211.3940887451172
y: 381.9052429199219
z: 0.07994844019412994
visibility: 0.9998001456260681
","x: 189.11297607421875
y: 379.66790771484375
z: -0.07993175089359283
visibility: 0.9998575448989868
","x: 218.9684295654297
y: 471.245849609375
z: 0.07860226929187775
visibility: 0.9761770367622375
","x: 184.26055908203125
y: 469.4091796875
z: -0.12885986268520355
visibility: 0.9889056086540222
","x: 219.34237670898438
y: 553.3307495117188
z: 0.18687668442726135
visibility: 0.982478678226471
","x: 166.69261169433594
y: 549.463134765625
z: -0.04281311482191086
visibility: 0.986430287361145
","x: 213.37660217285156
y: 566.1165771484375
z: 0.1856408417224884
visibility: 0.9171635508537292
","x: 160.73313903808594
y: 559.1365356445312
z: -0.040340207517147064
visibility: 0.8690096139907837
","x: 232.85206604003906
y: 578.4992065429688
z: 0.09146329760551453
visibility: 0.9755682349205017
","x: 176.57533264160156
y: 583.6882934570312
z: -0.17741897702217102
visibility: 0.9847491383552551
",,,,,,,,,,,,,,,,,,,,,,,,,,,,,,,,,,,,,,,,,,
10,"x: 215.81362915039062
y: 226.1597900390625
z: -0.22734494507312775
visibility: 0.9998352527618408
","x: 215.17214965820312
y: 218.85557556152344
z: -0.19798772037029266
visibility: 0.9998219013214111
","x: 215.67572021484375
y: 219.1728515625
z: -0.19788359105587006
visibility: 0.9996908903121948
","x: 215.35487365722656
y: 219.39805603027344
z: -0.1978810578584671
visibility: 0.9998026490211487
","x: 212.84898376464844
y: 217.98892211914062
z: -0.21960783004760742
visibility: 0.9996350407600403
","x: 211.6812286376953
y: 217.75404357910156
z: -0.21963772177696228
visibility: 0.9994965195655823
","x: 210.31622314453125
y: 217.3829345703125
z: -0.21961233019828796
visibility: 0.9996026754379272
","x: 210.10789489746094
y: 224.13015747070312
z: -0.048043761402368546
visibility: 0.9996037483215332
","x: 203.52615356445312
y: 220.18603515625
z: -0.1477777063846588
visibility: 0.9995823502540588
","x: 215.1385498046875
y: 235.1814422607422
z: -0.17117933928966522
visibility: 0.9998294711112976
","x: 212.64773559570312
y: 234.0392303466797
z: -0.20163464546203613
visibility: 0.9997509121894836
","x: 216.60720825195312
y: 278.0494384765625
z: 0.06275331974029541
visibility: 0.9996543526649475
","x: 183.3439483642578
y: 251.6480712890625
z: -0.18251584470272064
visibility: 0.999776303768158
","x: 247.0199737548828
y: 308.25042724609375
z: 0.10035945475101471
visibility: 0.9156062602996826
","x: 177.18353271484375
y: 184.6311798095703
z: -0.3844917416572571
visibility: 0.9993584752082825
","x: 275.5294494628906
y: 294.05560302734375
z: 0.09085271507501602
visibility: 0.8166467547416687
","x: 209.7326202392578
y: 166.7994384765625
z: -0.46067970991134644
visibility: 0.9971410036087036
","x: 285.4122314453125
y: 289.5694580078125
z: 0.041517890989780426
visibility: 0.7855387926101685
","x: 218.18614196777344
y: 163.79736328125
z: -0.505065381526947
visibility: 0.9880852699279785
","x: 286.23065185546875
y: 284.6569519042969
z: 0.01761011965572834
visibility: 0.8008672595024109
","x: 220.2000732421875
y: 165.40977478027344
z: -0.47079387307167053
visibility: 0.986733615398407
","x: 282.5917053222656
y: 286.1949462890625
z: 0.06812985986471176
visibility: 0.8073565363883972
","x: 217.44464111328125
y: 168.22349548339844
z: -0.4524625241756439
visibility: 0.9863255023956299
","x: 211.8175048828125
y: 376.8048400878906
z: 0.07314018905162811
visibility: 0.9997875094413757
","x: 189.53713989257812
y: 377.2803955078125
z: -0.07303515821695328
visibility: 0.9998449683189392
","x: 220.12542724609375
y: 465.700439453125
z: 0.04887919872999191
visibility: 0.9774090051651001
","x: 184.89691162109375
y: 466.8826599121094
z: -0.1343756765127182
visibility: 0.9896240830421448
","x: 225.63734436035156
y: 546.28955078125
z: 0.18383260071277618
visibility: 0.9832889437675476
","x: 166.85133361816406
y: 548.24462890625
z: -0.027449045330286026
visibility: 0.9874309301376343
","x: 219.96157836914062
y: 557.650146484375
z: 0.18789902329444885
visibility: 0.9185687899589539
","x: 159.5260467529297
y: 557.6661376953125
z: -0.023003224283456802
visibility: 0.8736186623573303
","x: 231.91165161132812
y: 577.5294189453125
z: 0.08522158116102219
visibility: 0.9765335917472839
","x: 176.17005920410156
y: 583.6522216796875
z: -0.16171741485595703
visibility: 0.9855610132217407
","x: 212.9956512451172
y: 172.9627685546875
z: 0.0
","x: 216.12542724609375
y: 177.15213012695312
z: -0.001420031301677227
","x: 219.59352111816406
y: 179.5638885498047
z: -0.0034710809122771025
","x: 221.88388061523438
y: 181.8787384033203
z: -0.006217580288648605
","x: 223.67489624023438
y: 183.9852752685547
z: -0.008908701129257679
","x: 223.6643829345703
y: 170.2629852294922
z: -0.001743055647239089
","x: 227.1633758544922
y: 166.999755859375
z: -0.005340407136827707
","x: 229.01336669921875
y: 166.3173065185547
z: -0.007756673265248537
","x: 230.4326629638672
y: 166.31942749023438
z: -0.009120991453528404
","x: 222.51007080078125
y: 167.4144287109375
z: -0.0037670808378607035
","x: 225.97842407226562
y: 163.5236358642578
z: -0.006783009972423315
","x: 228.094970703125
y: 163.16317749023438
z: -0.008215430192649364
","x: 229.77597045898438
y: 163.40103149414062
z: -0.009139765985310078
","x: 220.5619659423828
y: 165.45846557617188
z: -0.006381587591022253
","x: 223.5871124267578
y: 161.92218017578125
z: -0.009387030266225338
","x: 225.4683837890625
y: 162.05519104003906
z: -0.010042964480817318
","x: 226.72889709472656
y: 162.9832305908203
z: -0.01032890286296606
","x: 218.05206298828125
y: 164.44688415527344
z: -0.009380041621625423
","x: 220.03842163085938
y: 161.47169494628906
z: -0.011613180860877037
","x: 221.34793090820312
y: 161.6358184814453
z: -0.011980259791016579
","x: 222.39657592773438
y: 162.66622924804688
z: -0.012116281315684319
",,,,,,,,,,,,,,,,,,,,,
11,"x: 215.81362915039062
y: 226.1597900390625
z: -0.22734494507312775
visibility: 0.9998352527618408
","x: 215.17214965820312
y: 218.85557556152344
z: -0.19798772037029266
visibility: 0.9998219013214111
","x: 215.67572021484375
y: 219.1728515625
z: -0.19788359105587006
visibility: 0.9996908903121948
","x: 215.35487365722656
y: 219.39805603027344
z: -0.1978810578584671
visibility: 0.9998026490211487
","x: 212.84898376464844
y: 217.98892211914062
z: -0.21960783004760742
visibility: 0.9996350407600403
","x: 211.6812286376953
y: 217.75404357910156
z: -0.21963772177696228
visibility: 0.9994965195655823
","x: 210.31622314453125
y: 217.3829345703125
z: -0.21961233019828796
visibility: 0.9996026754379272
","x: 210.10789489746094
y: 224.13015747070312
z: -0.048043761402368546
visibility: 0.9996037483215332
","x: 203.52615356445312
y: 220.18603515625
z: -0.1477777063846588
visibility: 0.9995823502540588
","x: 215.1385498046875
y: 235.1814422607422
z: -0.17117933928966522
visibility: 0.9998294711112976
","x: 212.64773559570312
y: 234.0392303466797
z: -0.20163464546203613
visibility: 0.9997509121894836
","x: 216.60720825195312
y: 278.0494384765625
z: 0.06275331974029541
visibility: 0.9996543526649475
","x: 183.3439483642578
y: 251.6480712890625
z: -0.18251584470272064
visibility: 0.999776303768158
","x: 247.0199737548828
y: 308.25042724609375
z: 0.10035945475101471
visibility: 0.9156062602996826
","x: 177.18353271484375
y: 184.6311798095703
z: -0.3844917416572571
visibility: 0.9993584752082825
","x: 275.5294494628906
y: 294.05560302734375
z: 0.09085271507501602
visibility: 0.8166467547416687
","x: 209.7326202392578
y: 166.7994384765625
z: -0.46067970991134644
visibility: 0.9971410036087036
","x: 285.4122314453125
y: 289.5694580078125
z: 0.041517890989780426
visibility: 0.7855387926101685
","x: 218.18614196777344
y: 163.79736328125
z: -0.505065381526947
visibility: 0.9880852699279785
","x: 286.23065185546875
y: 284.6569519042969
z: 0.01761011965572834
visibility: 0.8008672595024109
","x: 220.2000732421875
y: 165.40977478027344
z: -0.47079387307167053
visibility: 0.986733615398407
","x: 282.5917053222656
y: 286.1949462890625
z: 0.06812985986471176
visibility: 0.8073565363883972
","x: 217.44464111328125
y: 168.22349548339844
z: -0.4524625241756439
visibility: 0.9863255023956299
","x: 211.8175048828125
y: 376.8048400878906
z: 0.07314018905162811
visibility: 0.9997875094413757
","x: 189.53713989257812
y: 377.2803955078125
z: -0.07303515821695328
visibility: 0.9998449683189392
","x: 220.12542724609375
y: 465.700439453125
z: 0.04887919872999191
visibility: 0.9774090051651001
","x: 184.89691162109375
y: 466.8826599121094
z: -0.1343756765127182
visibility: 0.9896240830421448
","x: 225.63734436035156
y: 546.28955078125
z: 0.18383260071277618
visibility: 0.9832889437675476
","x: 166.85133361816406
y: 548.24462890625
z: -0.027449045330286026
visibility: 0.9874309301376343
","x: 219.96157836914062
y: 557.650146484375
z: 0.18789902329444885
visibility: 0.9185687899589539
","x: 159.5260467529297
y: 557.6661376953125
z: -0.023003224283456802
visibility: 0.8736186623573303
","x: 231.91165161132812
y: 577.5294189453125
z: 0.08522158116102219
visibility: 0.9765335917472839
","x: 176.17005920410156
y: 583.6522216796875
z: -0.16171741485595703
visibility: 0.9855610132217407
","x: 212.9956512451172
y: 172.9627685546875
z: 0.0
","x: 216.12542724609375
y: 177.15213012695312
z: -0.001420031301677227
","x: 219.59352111816406
y: 179.5638885498047
z: -0.0034710809122771025
","x: 221.88388061523438
y: 181.8787384033203
z: -0.006217580288648605
","x: 223.67489624023438
y: 183.9852752685547
z: -0.008908701129257679
","x: 223.6643829345703
y: 170.2629852294922
z: -0.001743055647239089
","x: 227.1633758544922
y: 166.999755859375
z: -0.005340407136827707
","x: 229.01336669921875
y: 166.3173065185547
z: -0.007756673265248537
","x: 230.4326629638672
y: 166.31942749023438
z: -0.009120991453528404
","x: 222.51007080078125
y: 167.4144287109375
z: -0.0037670808378607035
","x: 225.97842407226562
y: 163.5236358642578
z: -0.006783009972423315
","x: 228.094970703125
y: 163.16317749023438
z: -0.008215430192649364
","x: 229.77597045898438
y: 163.40103149414062
z: -0.009139765985310078
","x: 220.5619659423828
y: 165.45846557617188
z: -0.006381587591022253
","x: 223.5871124267578
y: 161.92218017578125
z: -0.009387030266225338
","x: 225.4683837890625
y: 162.05519104003906
z: -0.010042964480817318
","x: 226.72889709472656
y: 162.9832305908203
z: -0.01032890286296606
","x: 218.05206298828125
y: 164.44688415527344
z: -0.009380041621625423
","x: 220.03842163085938
y: 161.47169494628906
z: -0.011613180860877037
","x: 221.34793090820312
y: 161.6358184814453
z: -0.011980259791016579
","x: 222.39657592773438
y: 162.66622924804688
z: -0.012116281315684319
",,,,,,,,,,,,,,,,,,,,,
12,"x: 205.9599609375
y: 227.3667755126953
z: -0.21191592514514923
visibility: 0.9998465776443481
","x: 206.81629943847656
y: 220.6304168701172
z: -0.18787699937820435
visibility: 0.9998338222503662
","x: 207.5110626220703
y: 221.29803466796875
z: -0.18781119585037231
visibility: 0.9997138977050781
","x: 208.0175018310547
y: 221.86338806152344
z: -0.1877833753824234
visibility: 0.9998180270195007
","x: 203.9783935546875
y: 219.1893310546875
z: -0.20420348644256592
visibility: 0.9996616840362549
","x: 202.642822265625
y: 218.94300842285156
z: -0.20418402552604675
visibility: 0.9995349645614624
","x: 201.2102508544922
y: 218.5714569091797
z: -0.2041047066450119
visibility: 0.9996298551559448
","x: 205.39833068847656
y: 228.0630645751953
z: -0.05576710030436516
visibility: 0.9996366500854492
","x: 194.49771118164062
y: 222.1760711669922
z: -0.13115672767162323
visibility: 0.9996094703674316
","x: 206.26800537109375
y: 237.18833923339844
z: -0.16244429349899292
visibility: 0.9998427629470825
","x: 202.4507598876953
y: 235.3162384033203
z: -0.18481935560703278
visibility: 0.9997707009315491
","x: 210.4928741455078
y: 279.553466796875
z: 0.008040486834943295
visibility: 0.9996852874755859
","x: 177.6890411376953
y: 254.84132385253906
z: -0.1409403532743454
visibility: 0.9997884035110474
","x: 234.2523651123047
y: 308.4292907714844
z: -0.06384624540805817
visibility: 0.9224428534507751
","x: 189.8777618408203
y: 187.56483459472656
z: -0.2779685854911804
visibility: 0.9994065761566162
","x: 230.75238037109375
y: 337.69049072265625
z: -0.2680078148841858
visibility: 0.8320616483688354
","x: 218.96470642089844
y: 198.8720703125
z: -0.22965924441814423
visibility: 0.9963829517364502
","x: 228.1161346435547
y: 348.6739807128906
z: -0.3182062804698944
visibility: 0.8008500337600708
","x: 225.89816284179688
y: 205.66925048828125
z: -0.2704017758369446
visibility: 0.9816559553146362
","x: 224.9877166748047
y: 345.2574462890625
z: -0.3389154076576233
visibility: 0.8152104020118713
","x: 227.87554931640625
y: 207.98500061035156
z: -0.24731282889842987
visibility: 0.9793424606323242
","x: 225.0205078125
y: 341.88348388671875
z: -0.28205639123916626
visibility: 0.8188160061836243
","x: 225.47427368164062
y: 206.90277099609375
z: -0.22169797122478485
visibility: 0.9764600992202759
","x: 208.73489379882812
y: 377.94683837890625
z: 0.04921390861272812
visibility: 0.9997907280921936
","x: 186.71913146972656
y: 380.2007751464844
z: -0.04913753643631935
visibility: 0.9998432397842407
","x: 222.12757873535156
y: 465.75482177734375
z: 0.027347052469849586
visibility: 0.9793261289596558
","x: 179.48606872558594
y: 468.5200500488281
z: -0.05942296236753464
visibility: 0.990552544593811
","x: 232.0440673828125
y: 541.6509399414062
z: 0.18218430876731873
visibility: 0.9844802618026733
","x: 160.44171142578125
y: 553.178955078125
z: 0.06108707934617996
visibility: 0.98850417137146
","x: 226.70413208007812
y: 556.1124267578125
z: 0.1874985247850418
visibility: 0.9212144613265991
","x: 155.79934692382812
y: 564.6052856445312
z: 0.06647492945194244
visibility: 0.8791716694831848
","x: 239.10772705078125
y: 572.9918823242188
z: 0.0669369027018547
visibility: 0.9781320691108704
","x: 175.69464111328125
y: 583.4228515625
z: -0.07652182877063751
visibility: 0.986644446849823
",,,,,,,,,,,,,,,,,,,,,,,,,,,,,,,,,,,,,,,,,,
13,"x: 205.2267608642578
y: 235.47178649902344
z: -0.07686261087656021
visibility: 0.9994287490844727
","x: 204.2556610107422
y: 227.23736572265625
z: -0.06545712053775787
visibility: 0.9990596771240234
","x: 204.26625061035156
y: 226.95716857910156
z: -0.06550441682338715
visibility: 0.9987719058990479
","x: 204.20155334472656
y: 226.61729431152344
z: -0.06546951830387115
visibility: 0.9990131258964539
","x: 202.904541015625
y: 227.168701171875
z: -0.10033820569515228
visibility: 0.9991259574890137
","x: 201.95425415039062
y: 226.8612823486328
z: -0.10036017000675201
visibility: 0.9990305304527283
","x: 200.8963165283203
y: 226.45066833496094
z: -0.10045355558395386
visibility: 0.9991158843040466
","x: 199.14212036132812
y: 228.58273315429688
z: 0.014354050159454346
visibility: 0.9970789551734924
","x: 194.45700073242188
y: 227.1212158203125
z: -0.12742331624031067
visibility: 0.9990782737731934
","x: 204.85922241210938
y: 243.0512237548828
z: -0.041704606264829636
visibility: 0.9988060593605042
","x: 202.8271026611328
y: 242.49658203125
z: -0.08787186443805695
visibility: 0.9990143179893494
","x: 203.52850341796875
y: 272.4926452636719
z: 0.10515501350164413
visibility: 0.9992634654045105
","x: 178.90528869628906
y: 256.0220642089844
z: -0.20301076769828796
visibility: 0.9997574090957642
","x: 212.90756225585938
y: 284.7664794921875
z: 0.09314972162246704
visibility: 0.8431387543678284
","x: 204.67166137695312
y: 256.1856994628906
z: -0.3040289878845215
visibility: 0.9989968538284302
","x: 226.281005859375
y: 319.0684814453125
z: -0.0704718679189682
visibility: 0.7686246633529663
","x: 228.54904174804688
y: 283.0679931640625
z: -0.23581469058990479
visibility: 0.9931491017341614
","x: 230.44285583496094
y: 339.19415283203125
z: -0.08463506400585175
visibility: 0.7416070103645325
","x: 233.9289093017578
y: 294.1805419921875
z: -0.271251380443573
visibility: 0.9761653542518616
","x: 228.11123657226562
y: 331.2625427246094
z: -0.0974692553281784
visibility: 0.7566066980361938
","x: 235.3223114013672
y: 298.0438232421875
z: -0.2544049322605133
visibility: 0.9737208485603333
","x: 226.3297119140625
y: 332.23284912109375
z: -0.08277156949043274
visibility: 0.7599554061889648
","x: 234.29525756835938
y: 297.581298828125
z: -0.22226595878601074
visibility: 0.9665586948394775
","x: 207.0650177001953
y: 386.8099670410156
z: 0.07993323355913162
visibility: 0.9996193647384644
","x: 186.2490692138672
y: 390.1339416503906
z: -0.07993123680353165
visibility: 0.9996815323829651
","x: 222.08255004882812
y: 466.3618469238281
z: 0.09855486452579498
visibility: 0.9779684543609619
","x: 176.0154571533203
y: 472.6886291503906
z: -0.07637485861778259
visibility: 0.9912954568862915
","x: 234.51812744140625
y: 542.94970703125
z: 0.19921503961086273
visibility: 0.9848189353942871
","x: 159.0560760498047
y: 557.7417602539062
z: 0.006299441214650869
visibility: 0.9895187616348267
","x: 230.2539825439453
y: 556.9462890625
z: 0.20230527222156525
visibility: 0.9245298504829407
","x: 155.05674743652344
y: 570.2725830078125
z: 0.006657631602138281
visibility: 0.8879189491271973
","x: 248.9425811767578
y: 568.9327392578125
z: 0.10985394567251205
visibility: 0.9790685176849365
","x: 175.3319854736328
y: 585.1378784179688
z: -0.10848391056060791
visibility: 0.987666130065918
",,,,,,,,,,,,,,,,,,,,,,,,,,,,,,,,,,,,,,,,,,
14,"x: 212.25064086914062
y: 241.29464721679688
z: -0.045764483511447906
visibility: 0.9994828104972839
","x: 208.07131958007812
y: 234.1366729736328
z: -0.031356506049633026
visibility: 0.9991497993469238
","x: 206.71139526367188
y: 233.85885620117188
z: -0.03133358806371689
visibility: 0.9988901615142822
","x: 204.64401245117188
y: 233.4892120361328
z: -0.031355831772089005
visibility: 0.9991067051887512
","x: 208.73973083496094
y: 234.4762420654297
z: -0.06757107377052307
visibility: 0.9992102980613708
","x: 208.10829162597656
y: 234.49676513671875
z: -0.06764460355043411
visibility: 0.9991248846054077
","x: 207.37355041503906
y: 234.49343872070312
z: -0.06768817454576492
visibility: 0.999201774597168
","x: 203.2691192626953
y: 235.4320068359375
z: 0.04689224064350128
visibility: 0.9973516464233398
","x: 200.75714111328125
y: 237.71728515625
z: -0.1140173077583313
visibility: 0.9991687536239624
","x: 211.02523803710938
y: 248.36468505859375
z: -0.013423760421574116
visibility: 0.9988985657691956
","x: 210.91342163085938
y: 248.00106811523438
z: -0.060911793261766434
visibility: 0.9991012215614319
","x: 202.13168334960938
y: 273.1937561035156
z: 0.15312953293323517
visibility: 0.9992464184761047
","x: 193.25738525390625
y: 277.6866455078125
z: -0.1912965625524521
visibility: 0.9997769594192505
","x: 206.83956909179688
y: 291.0284729003906
z: 0.2208166867494583
visibility: 0.7688160538673401
","x: 201.376953125
y: 338.3121337890625
z: -0.17001697421073914
visibility: 0.9980169534683228
","x: 224.906494140625
y: 295.4635925292969
z: 0.19870905578136444
visibility: 0.7064639925956726
","x: 223.70022583007812
y: 321.4975280761719
z: 0.002687773434445262
visibility: 0.9902204871177673
","x: 229.5681610107422
y: 289.0431823730469
z: 0.1955992728471756
visibility: 0.6810991764068604
","x: 228.68751525878906
y: 316.49530029296875
z: 0.0025251279585063457
visibility: 0.9718681573867798
","x: 228.01869201660156
y: 288.4253234863281
z: 0.18216615915298462
visibility: 0.6962993741035461
","x: 227.6923370361328
y: 312.7014465332031
z: -0.005116734653711319
visibility: 0.9696289300918579
","x: 225.92562866210938
y: 291.7176208496094
z: 0.18775632977485657
visibility: 0.7026015520095825
","x: 226.41888427734375
y: 313.40557861328125
z: 0.006811728235334158
visibility: 0.9596895575523376
","x: 207.96377563476562
y: 393.4726257324219
z: 0.09869830310344696
visibility: 0.9996089935302734
","x: 196.11900329589844
y: 399.46295166015625
z: -0.09871716797351837
visibility: 0.999682605266571
","x: 228.79087829589844
y: 466.45806884765625
z: 0.1637921780347824
visibility: 0.9741194248199463
","x: 180.44998168945312
y: 478.19879150390625
z: -0.08303811401128769
visibility: 0.9918723106384277
","x: 236.16407775878906
y: 543.8675537109375
z: 0.25463956594467163
visibility: 0.9843997955322266
","x: 160.2646026611328
y: 557.9956665039062
z: -0.025923162698745728
visibility: 0.9903876185417175
","x: 231.58123779296875
y: 558.5477294921875
z: 0.25983601808547974
visibility: 0.9278044700622559
","x: 154.61669921875
y: 571.2442626953125
z: -0.022963983938097954
visibility: 0.8956690430641174
","x: 254.39157104492188
y: 561.8236083984375
z: 0.22445130348205566
visibility: 0.9795255661010742
","x: 176.14068603515625
y: 586.2401733398438
z: -0.1007712259888649
visibility: 0.9884953498840332
",,,,,,,,,,,,,,,,,,,,,,,,,,,,,,,,,,,,,,,,,,
15,"x: 222.35284423828125
y: 241.80015563964844
z: -0.07637826353311539
visibility: 0.9995290637016296
","x: 219.3487091064453
y: 235.03564453125
z: -0.05798379331827164
visibility: 0.9992260336875916
","x: 218.70162963867188
y: 234.84759521484375
z: -0.05795356631278992
visibility: 0.9989910125732422
","x: 217.7904815673828
y: 234.603759765625
z: -0.057909052819013596
visibility: 0.9991841912269592
","x: 218.79566955566406
y: 235.26715087890625
z: -0.08829866349697113
visibility: 0.9992830753326416
","x: 217.91180419921875
y: 235.28646850585938
z: -0.08836939930915833
visibility: 0.9992078542709351
","x: 216.95602416992188
y: 235.31146240234375
z: -0.08838707953691483
visibility: 0.9992768168449402
","x: 213.44847106933594
y: 237.24363708496094
z: 0.03942772001028061
visibility: 0.9975690245628357
","x: 211.39682006835938
y: 238.7851104736328
z: -0.10935117304325104
visibility: 0.9992493987083435
","x: 221.315185546875
y: 249.24343872070312
z: -0.03845570608973503
visibility: 0.9989851117134094
","x: 220.31150817871094
y: 249.4601287841797
z: -0.0774688869714737
visibility: 0.9991790652275085
","x: 217.53643798828125
y: 273.60906982421875
z: 0.13415421545505524
visibility: 0.9992581009864807
","x: 201.7207489013672
y: 281.768798828125
z: -0.1664532721042633
visibility: 0.9997951984405518
","x: 244.97079467773438
y: 274.0844421386719
z: 0.020497914403676987
visibility: 0.730667769908905
","x: 206.25466918945312
y: 336.31494140625
z: -0.16362646222114563
visibility: 0.9978377223014832
","x: 231.4067840576172
y: 279.09173583984375
z: -0.18505975604057312
visibility: 0.6511057019233704
","x: 226.5924072265625
y: 302.7657775878906
z: 0.0007891252753324807
visibility: 0.9888814091682434
","x: 231.62374877929688
y: 277.60699462890625
z: -0.22446918487548828
visibility: 0.6219045519828796
","x: 231.29214477539062
y: 295.9155578613281
z: -0.001066397177055478
visibility: 0.969202995300293
","x: 227.30491638183594
y: 276.2762756347656
z: -0.20830824971199036
visibility: 0.6358616948127747
","x: 230.67039489746094
y: 290.9609375
z: -0.005278404336422682
visibility: 0.966778039932251
","x: 227.51148986816406
y: 278.7950439453125
z: -0.18917492032051086
visibility: 0.6435347199440002
","x: 229.2078857421875
y: 293.3998718261719
z: 0.007205676287412643
visibility: 0.9543390870094299
","x: 221.280029296875
y: 394.34698486328125
z: 0.09883202612400055
visibility: 0.9996323585510254
","x: 208.64369201660156
y: 397.88525390625
z: -0.09891670942306519
visibility: 0.999701976776123
","x: 233.8654327392578
y: 467.0041198730469
z: 0.16400094330310822
visibility: 0.9638489484786987
","x: 206.4159393310547
y: 478.6268310546875
z: -0.10829406976699829
visibility: 0.9924108982086182
","x: 237.26406860351562
y: 544.2718505859375
z: 0.26781922578811646
visibility: 0.9836412072181702
","x: 168.50172424316406
y: 550.3179321289062
z: -0.07038410007953644
visibility: 0.9910038709640503
","x: 232.46832275390625
y: 561.4563598632812
z: 0.2737081050872803
visibility: 0.9304707050323486
","x: 157.68406677246094
y: 555.0982055664062
z: -0.06920207291841507
visibility: 0.9002876281738281
","x: 257.03375244140625
y: 562.779296875
z: 0.22100286185741425
visibility: 0.9794420599937439
","x: 176.54136657714844
y: 585.2562866210938
z: -0.14960920810699463
visibility: 0.9890085458755493
",,,,,,,,,,,,,,,,,,,,,,,,,,,,,,,,,,,,,,,,,,
16,"x: 232.98805236816406
y: 240.48092651367188
z: -0.05538199096918106
visibility: 0.9995759725570679
","x: 230.2196807861328
y: 234.16650390625
z: -0.038848452270030975
visibility: 0.9993026852607727
","x: 229.7454071044922
y: 234.52169799804688
z: -0.03877856582403183
visibility: 0.999090850353241
","x: 229.14004516601562
y: 234.28933715820312
z: -0.03876473009586334
visibility: 0.9992647767066956
","x: 229.63363647460938
y: 233.32855224609375
z: -0.07306314259767532
visibility: 0.9993546009063721
","x: 228.85556030273438
y: 233.15380859375
z: -0.07307454198598862
visibility: 0.999286949634552
","x: 228.02334594726562
y: 232.96983337402344
z: -0.07314746081829071
visibility: 0.9993489980697632
","x: 223.60459899902344
y: 236.41229248046875
z: 0.048004887998104095
visibility: 0.9978107810020447
","x: 222.38967895507812
y: 236.2057647705078
z: -0.1091623455286026
visibility: 0.9993244409561157
","x: 232.3505859375
y: 248.31381225585938
z: -0.019882265478372574
visibility: 0.9990851879119873
","x: 231.52340698242188
y: 248.54443359375
z: -0.06582001596689224
visibility: 0.9992608428001404
","x: 229.79983520507812
y: 269.3155517578125
z: 0.16473858058452606
visibility: 0.9993292689323425
","x: 210.01309204101562
y: 275.74322509765625
z: -0.17650029063224792
visibility: 0.9998149871826172
","x: 254.92515563964844
y: 247.03005981445312
z: 0.3099169433116913
visibility: 0.7472676038742065
","x: 197.0911865234375
y: 313.8101501464844
z: -0.35759028792381287
visibility: 0.9977952837944031
","x: 272.4716491699219
y: 220.36007690429688
z: 0.3892894387245178
visibility: 0.6850946545600891
","x: 207.2009735107422
y: 321.55584716796875
z: -0.5092768669128418
visibility: 0.9894850254058838
","x: 278.6368103027344
y: 215.31155395507812
z: 0.41823872923851013
visibility: 0.6578977704048157
","x: 209.37220764160156
y: 328.15264892578125
z: -0.5412565469741821
visibility: 0.9713549017906189
","x: 279.3106384277344
y: 215.0155029296875
z: 0.39980649948120117
visibility: 0.6705302000045776
","x: 212.31442260742188
y: 324.185546875
z: -0.537236213684082
visibility: 0.9690889120101929
","x: 277.4648742675781
y: 217.31439208984375
z: 0.38238686323165894
visibility: 0.677394688129425
","x: 212.0888214111328
y: 322.0638427734375
z: -0.5082601308822632
visibility: 0.9573261141777039
","x: 225.76168823242188
y: 392.4419860839844
z: 0.11419288069009781
visibility: 0.9996638894081116
","x: 221.36105346679688
y: 395.6085510253906
z: -0.11448949575424194
visibility: 0.9997189044952393
","x: 233.6474609375
y: 467.9646301269531
z: 0.13991142809391022
visibility: 0.9321205019950867
","x: 252.5711669921875
y: 459.6600341796875
z: -0.14865930378437042
visibility: 0.9922271966934204
","x: 236.2946319580078
y: 544.43212890625
z: 0.21381089091300964
visibility: 0.974625825881958
","x: 225.42666625976562
y: 523.5173950195312
z: -0.03936487436294556
visibility: 0.9899709820747375
","x: 231.13616943359375
y: 561.7774047851562
z: 0.2119024246931076
visibility: 0.9270888566970825
","x: 213.96066284179688
y: 527.7805786132812
z: -0.06807678937911987
visibility: 0.9067161679267883
","x: 255.86376953125
y: 564.2696533203125
z: 0.16838887333869934
visibility: 0.975403368473053
","x: 226.86495971679688
y: 556.48193359375
z: -0.034818701446056366
visibility: 0.9878734946250916
",,,,,,,,,,,,,,,,,,,,,,,,,,,,,,,,,,,,,,,,,,
17,"x: 237.26199340820312
y: 239.19308471679688
z: -0.051418155431747437
visibility: 0.9996183514595032
","x: 234.15927124023438
y: 232.9884033203125
z: -0.034887880086898804
visibility: 0.9993724226951599
","x: 233.75674438476562
y: 233.4835968017578
z: -0.03480565547943115
visibility: 0.9991817474365234
","x: 233.29269409179688
y: 233.5189208984375
z: -0.03474319726228714
visibility: 0.9993382692337036
","x: 233.6204833984375
y: 231.9426727294922
z: -0.06528623402118683
visibility: 0.9994191527366638
","x: 232.94349670410156
y: 231.72853088378906
z: -0.06530498713254929
visibility: 0.9993582367897034
","x: 232.1913299560547
y: 231.51512145996094
z: -0.0653025284409523
visibility: 0.9994140863418579
","x: 228.8960723876953
y: 235.79774475097656
z: 0.05271850898861885
visibility: 0.9980297088623047
","x: 227.6201171875
y: 235.00604248046875
z: -0.09219886362552643
visibility: 0.9993919730186462
","x: 236.7583770751953
y: 247.48597717285156
z: -0.01532815396785736
visibility: 0.9991766214370728
","x: 235.9529571533203
y: 247.05850219726562
z: -0.05634164810180664
visibility: 0.9993347525596619
","x: 238.1226806640625
y: 268.661376953125
z: 0.1565895974636078
visibility: 0.9993954300880432
","x: 216.9545440673828
y: 273.2109375
z: -0.15832160413265228
visibility: 0.9998332858085632
","x: 261.6751403808594
y: 249.22845458984375
z: 0.26906344294548035
visibility: 0.7701707482337952
","x: 195.7786102294922
y: 301.2474365234375
z: -0.3197018802165985
visibility: 0.9976849555969238
","x: 282.3182373046875
y: 217.56776428222656
z: 0.3155832588672638
visibility: 0.7160199880599976
","x: 191.50047302246094
y: 326.8439025878906
z: -0.47167840600013733
visibility: 0.9900306463241577
","x: 288.6900939941406
y: 213.67445373535156
z: 0.3379342555999756
visibility: 0.6906253695487976
","x: 189.65274047851562
y: 341.4395446777344
z: -0.5009673237800598
visibility: 0.9733461737632751
","x: 289.640625
y: 213.24835205078125
z: 0.31438565254211426
visibility: 0.7021125555038452
","x: 193.11068725585938
y: 340.03643798828125
z: -0.5046871900558472
visibility: 0.9712755084037781
","x: 287.25653076171875
y: 215.1033172607422
z: 0.30619877576828003
visibility: 0.7083402276039124
","x: 194.9065399169922
y: 336.1067199707031
z: -0.4747858941555023
visibility: 0.9603577852249146
","x: 225.98460388183594
y: 391.42535400390625
z: 0.10465453565120697
visibility: 0.9996950626373291
","x: 226.45352172851562
y: 394.01263427734375
z: -0.10500447452068329
visibility: 0.9997432231903076
","x: 234.7283477783203
y: 467.9250793457031
z: 0.13158464431762695
visibility: 0.9378816485404968
","x: 265.42767333984375
y: 445.2294921875
z: -0.11892364919185638
visibility: 0.9929717779159546
","x: 238.00537109375
y: 545.2924194335938
z: 0.17021216452121735
visibility: 0.9761343598365784
","x: 258.914794921875
y: 526.1463012695312
z: -0.02919662930071354
visibility: 0.9909246563911438
","x: 233.4752960205078
y: 563.9503173828125
z: 0.1699122190475464
visibility: 0.9336156249046326
","x: 255.70692443847656
y: 536.0907592773438
z: -0.04192136600613594
visibility: 0.9158149361610413
","x: 253.9755859375
y: 564.859130859375
z: 0.15141752362251282
visibility: 0.9754921793937683
","x: 279.14263916015625
y: 541.7078247070312
z: -0.03462684527039528
visibility: 0.9888424873352051
","x: 189.65174865722656
y: 325.24029541015625
z: 0.0
","x: 194.25376892089844
y: 329.44525146484375
z: -0.0011178868589922786
","x: 196.1736602783203
y: 336.8155517578125
z: -0.002629161113873124
","x: 196.00978088378906
y: 343.7607116699219
z: -0.0035567607264965773
","x: 196.0463104248047
y: 348.7464904785156
z: -0.0042859409004449844
","x: 192.4383087158203
y: 339.0316162109375
z: -0.007399962283670902
","x: 192.34295654296875
y: 349.80828857421875
z: -0.009286665357649326
","x: 192.48995971679688
y: 353.9764709472656
z: -0.008237304165959358
","x: 192.40155029296875
y: 355.6285095214844
z: -0.006932585965842009
","x: 189.09715270996094
y: 339.1299133300781
z: -0.00749217439442873
","x: 189.21917724609375
y: 350.3463439941406
z: -0.009337923489511013
","x: 189.5242156982422
y: 355.4495849609375
z: -0.007650363724678755
","x: 189.6156005859375
y: 357.96478271484375
z: -0.0061899395659565926
","x: 186.39700317382812
y: 339.07598876953125
z: -0.007249610964208841
","x: 186.30821228027344
y: 349.4205017089844
z: -0.009326661005616188
","x: 186.70333862304688
y: 355.0047607421875
z: -0.008274568244814873
","x: 186.95217895507812
y: 358.220947265625
z: -0.007223980966955423
","x: 184.2340087890625
y: 338.87908935546875
z: -0.006933867931365967
","x: 183.4808807373047
y: 346.8231201171875
z: -0.008844601921737194
","x: 183.52003479003906
y: 351.31396484375
z: -0.00873140711337328
","x: 183.59317016601562
y: 354.32366943359375
z: -0.008229599334299564
",,,,,,,,,,,,,,,,,,,,,
18,"x: 237.26199340820312
y: 239.19308471679688
z: -0.051418155431747437
visibility: 0.9996183514595032
","x: 234.15927124023438
y: 232.9884033203125
z: -0.034887880086898804
visibility: 0.9993724226951599
","x: 233.75674438476562
y: 233.4835968017578
z: -0.03480565547943115
visibility: 0.9991817474365234
","x: 233.29269409179688
y: 233.5189208984375
z: -0.03474319726228714
visibility: 0.9993382692337036
","x: 233.6204833984375
y: 231.9426727294922
z: -0.06528623402118683
visibility: 0.9994191527366638
","x: 232.94349670410156
y: 231.72853088378906
z: -0.06530498713254929
visibility: 0.9993582367897034
","x: 232.1913299560547
y: 231.51512145996094
z: -0.0653025284409523
visibility: 0.9994140863418579
","x: 228.8960723876953
y: 235.79774475097656
z: 0.05271850898861885
visibility: 0.9980297088623047
","x: 227.6201171875
y: 235.00604248046875
z: -0.09219886362552643
visibility: 0.9993919730186462
","x: 236.7583770751953
y: 247.48597717285156
z: -0.01532815396785736
visibility: 0.9991766214370728
","x: 235.9529571533203
y: 247.05850219726562
z: -0.05634164810180664
visibility: 0.9993347525596619
","x: 238.1226806640625
y: 268.661376953125
z: 0.1565895974636078
visibility: 0.9993954300880432
","x: 216.9545440673828
y: 273.2109375
z: -0.15832160413265228
visibility: 0.9998332858085632
","x: 261.6751403808594
y: 249.22845458984375
z: 0.26906344294548035
visibility: 0.7701707482337952
","x: 195.7786102294922
y: 301.2474365234375
z: -0.3197018802165985
visibility: 0.9976849555969238
","x: 282.3182373046875
y: 217.56776428222656
z: 0.3155832588672638
visibility: 0.7160199880599976
","x: 191.50047302246094
y: 326.8439025878906
z: -0.47167840600013733
visibility: 0.9900306463241577
","x: 288.6900939941406
y: 213.67445373535156
z: 0.3379342555999756
visibility: 0.6906253695487976
","x: 189.65274047851562
y: 341.4395446777344
z: -0.5009673237800598
visibility: 0.9733461737632751
","x: 289.640625
y: 213.24835205078125
z: 0.31438565254211426
visibility: 0.7021125555038452
","x: 193.11068725585938
y: 340.03643798828125
z: -0.5046871900558472
visibility: 0.9712755084037781
","x: 287.25653076171875
y: 215.1033172607422
z: 0.30619877576828003
visibility: 0.7083402276039124
","x: 194.9065399169922
y: 336.1067199707031
z: -0.4747858941555023
visibility: 0.9603577852249146
","x: 225.98460388183594
y: 391.42535400390625
z: 0.10465453565120697
visibility: 0.9996950626373291
","x: 226.45352172851562
y: 394.01263427734375
z: -0.10500447452068329
visibility: 0.9997432231903076
","x: 234.7283477783203
y: 467.9250793457031
z: 0.13158464431762695
visibility: 0.9378816485404968
","x: 265.42767333984375
y: 445.2294921875
z: -0.11892364919185638
visibility: 0.9929717779159546
","x: 238.00537109375
y: 545.2924194335938
z: 0.17021216452121735
visibility: 0.9761343598365784
","x: 258.914794921875
y: 526.1463012695312
z: -0.02919662930071354
visibility: 0.9909246563911438
","x: 233.4752960205078
y: 563.9503173828125
z: 0.1699122190475464
visibility: 0.9336156249046326
","x: 255.70692443847656
y: 536.0907592773438
z: -0.04192136600613594
visibility: 0.9158149361610413
","x: 253.9755859375
y: 564.859130859375
z: 0.15141752362251282
visibility: 0.9754921793937683
","x: 279.14263916015625
y: 541.7078247070312
z: -0.03462684527039528
visibility: 0.9888424873352051
","x: 189.65174865722656
y: 325.24029541015625
z: 0.0
","x: 194.25376892089844
y: 329.44525146484375
z: -0.0011178868589922786
","x: 196.1736602783203
y: 336.8155517578125
z: -0.002629161113873124
","x: 196.00978088378906
y: 343.7607116699219
z: -0.0035567607264965773
","x: 196.0463104248047
y: 348.7464904785156
z: -0.0042859409004449844
","x: 192.4383087158203
y: 339.0316162109375
z: -0.007399962283670902
","x: 192.34295654296875
y: 349.80828857421875
z: -0.009286665357649326
","x: 192.48995971679688
y: 353.9764709472656
z: -0.008237304165959358
","x: 192.40155029296875
y: 355.6285095214844
z: -0.006932585965842009
","x: 189.09715270996094
y: 339.1299133300781
z: -0.00749217439442873
","x: 189.21917724609375
y: 350.3463439941406
z: -0.009337923489511013
","x: 189.5242156982422
y: 355.4495849609375
z: -0.007650363724678755
","x: 189.6156005859375
y: 357.96478271484375
z: -0.0061899395659565926
","x: 186.39700317382812
y: 339.07598876953125
z: -0.007249610964208841
","x: 186.30821228027344
y: 349.4205017089844
z: -0.009326661005616188
","x: 186.70333862304688
y: 355.0047607421875
z: -0.008274568244814873
","x: 186.95217895507812
y: 358.220947265625
z: -0.007223980966955423
","x: 184.2340087890625
y: 338.87908935546875
z: -0.006933867931365967
","x: 183.4808807373047
y: 346.8231201171875
z: -0.008844601921737194
","x: 183.52003479003906
y: 351.31396484375
z: -0.00873140711337328
","x: 183.59317016601562
y: 354.32366943359375
z: -0.008229599334299564
",,,,,,,,,,,,,,,,,,,,,
19,"x: 243.3088836669922
y: 236.39590454101562
z: -0.05579117685556412
visibility: 0.9996564984321594
","x: 240.46812438964844
y: 229.80918884277344
z: -0.037467580288648605
visibility: 0.9994351863861084
","x: 240.04266357421875
y: 229.98699951171875
z: -0.03741588443517685
visibility: 0.9992635846138
","x: 239.4855499267578
y: 229.92877197265625
z: -0.03739141672849655
visibility: 0.9994044303894043
","x: 239.8896484375
y: 229.55715942382812
z: -0.07175377011299133
visibility: 0.9994772672653198
","x: 239.0970916748047
y: 229.5557861328125
z: -0.07172606885433197
visibility: 0.9994224309921265
","x: 238.15533447265625
y: 229.61708068847656
z: -0.07171935588121414
visibility: 0.9994726777076721
","x: 234.21885681152344
y: 233.54505920410156
z: 0.0549766905605793
visibility: 0.9982267022132874
","x: 232.6973876953125
y: 234.25733947753906
z: -0.10411447286605835
visibility: 0.9994527697563171
","x: 242.82456970214844
y: 244.22515869140625
z: -0.019233092665672302
visibility: 0.9992589354515076
","x: 241.80055236816406
y: 243.84768676757812
z: -0.06523043662309647
visibility: 0.9994012713432312
","x: 239.50955200195312
y: 274.9397888183594
z: 0.16592706739902496
visibility: 0.9994558691978455
","x: 220.08824157714844
y: 272.9205627441406
z: -0.1570427119731903
visibility: 0.9998499155044556
","x: 259.91314697265625
y: 306.6952209472656
z: 0.2890346944332123
visibility: 0.7909466624259949
","x: 199.8021697998047
y: 317.9873962402344
z: -0.2736855149269104
visibility: 0.9978252649307251
","x: 271.33758544921875
y: 223.16000366210938
z: 0.3377339243888855
visibility: 0.7443193793296814
","x: 196.01290893554688
y: 361.9094543457031
z: -0.342434823513031
visibility: 0.9908557534217834
","x: 274.9352111816406
y: 247.20758056640625
z: 0.35950326919555664
visibility: 0.7212287187576294
","x: 194.47613525390625
y: 377.3590393066406
z: -0.3670111298561096
visibility: 0.9755576252937317
","x: 273.7225646972656
y: 245.93072509765625
z: 0.3420291841030121
visibility: 0.7315812706947327
","x: 198.27520751953125
y: 379.4451904296875
z: -0.3703468143939972
visibility: 0.9736537933349609
","x: 271.9747314453125
y: 245.66546630859375
z: 0.3318428099155426
visibility: 0.7370795011520386
","x: 200.11566162109375
y: 374.92669677734375
z: -0.34336212277412415
visibility: 0.9634945392608643
","x: 235.49998474121094
y: 390.6785888671875
z: 0.11027834564447403
visibility: 0.9997252821922302
","x: 230.98770141601562
y: 390.03985595703125
z: -0.11042872816324234
visibility: 0.999767541885376
","x: 242.6423797607422
y: 467.723876953125
z: 0.13135069608688354
visibility: 0.9398694038391113
","x: 272.0121154785156
y: 438.50457763671875
z: -0.17552916705608368
visibility: 0.9936316013336182
","x: 239.4598388671875
y: 545.6212158203125
z: 0.16689015924930573
visibility: 0.9777931571006775
","x: 231.69650268554688
y: 451.0644836425781
z: 0.01959138922393322
visibility: 0.9905238151550293
","x: 233.32763671875
y: 564.455810546875
z: 0.16716448962688446
visibility: 0.9386135935783386
","x: 223.9824676513672
y: 445.61639404296875
z: 0.041386812925338745
visibility: 0.9191485047340393
","x: 258.1972961425781
y: 565.1879272460938
z: 0.15275025367736816
visibility: 0.977382481098175
","x: 230.22442626953125
y: 487.855712890625
z: 0.08839176595211029
visibility: 0.9886412620544434
",,,,,,,,,,,,,,,,,,,,,,,,,,,,,,,,,,,,,,,,,,
20,"x: 246.52310180664062
y: 236.27288818359375
z: -0.0007914129528217018
visibility: 0.9996846914291382
","x: 243.51321411132812
y: 229.50843811035156
z: 0.014246192760765553
visibility: 0.9994794130325317
","x: 243.02333068847656
y: 229.67648315429688
z: 0.014206444844603539
visibility: 0.999321460723877
","x: 242.41078186035156
y: 229.66004943847656
z: 0.014187635853886604
visibility: 0.999451756477356
","x: 243.02389526367188
y: 229.2960205078125
z: -0.01924448274075985
visibility: 0.9995228052139282
","x: 242.27285766601562
y: 229.31719970703125
z: -0.01927667111158371
visibility: 0.9994741082191467
","x: 241.41416931152344
y: 229.39450073242188
z: -0.019331149756908417
visibility: 0.9995203614234924
","x: 236.89964294433594
y: 233.43472290039062
z: 0.08682868629693985
visibility: 0.9983550906181335
","x: 236.30836486816406
y: 233.9807891845703
z: -0.06648553162813187
visibility: 0.9995056390762329
","x: 245.8949432373047
y: 244.09695434570312
z: 0.02896336279809475
visibility: 0.9993055462837219
","x: 245.24842834472656
y: 243.73837280273438
z: -0.015074620023369789
visibility: 0.9994509220123291
","x: 237.70916748046875
y: 275.3891296386719
z: 0.19321013987064362
visibility: 0.9994972348213196
","x: 228.0059356689453
y: 272.4916687011719
z: -0.14794060587882996
visibility: 0.999864399433136
","x: 248.26358032226562
y: 317.95123291015625
z: 0.25438278913497925
visibility: 0.7182245850563049
","x: 208.7151336669922
y: 317.44287109375
z: -0.18223047256469727
visibility: 0.9978862404823303
","x: 248.18226623535156
y: 346.157470703125
z: 0.21018338203430176
visibility: 0.6892232894897461
","x: 217.1205596923828
y: 359.8912353515625
z: -0.16476558148860931
visibility: 0.9907417893409729
","x: 248.56341552734375
y: 358.7479248046875
z: 0.2122068703174591
visibility: 0.6686707139015198
","x: 217.12527465820312
y: 373.8449401855469
z: -0.18860603868961334
visibility: 0.9755649566650391
","x: 249.32870483398438
y: 356.1231689453125
z: 0.19130650162696838
visibility: 0.6792826652526855
","x: 221.12086486816406
y: 373.2918701171875
z: -0.18076768517494202
visibility: 0.9736373424530029
","x: 248.84722900390625
y: 352.0055847167969
z: 0.19818636775016785
visibility: 0.683584451675415
","x: 222.2798309326172
y: 368.8688659667969
z: -0.15886640548706055
visibility: 0.9630417823791504
","x: 239.41738891601562
y: 388.282470703125
z: 0.1112748235464096
visibility: 0.9997433423995972
","x: 236.2401885986328
y: 386.9101257324219
z: -0.1112615093588829
visibility: 0.9997739791870117
","x: 245.56967163085938
y: 467.4601745605469
z: 0.11486919969320297
visibility: 0.9247694611549377
","x: 246.64727783203125
y: 450.1046447753906
z: -0.17089217901229858
visibility: 0.9941245913505554
","x: 240.15524291992188
y: 545.2958374023438
z: 0.15187077224254608
visibility: 0.9771052598953247
","x: 205.2003936767578
y: 472.17938232421875
z: -0.030987951904535294
visibility: 0.990908682346344
","x: 234.06741333007812
y: 563.8348999023438
z: 0.151121586561203
visibility: 0.939760148525238
","x: 197.51263427734375
y: 461.2591857910156
z: -0.014574885368347168
visibility: 0.9242475032806396
","x: 260.22613525390625
y: 565.5481567382812
z: 0.1154460534453392
visibility: 0.977146327495575
","x: 182.83792114257812
y: 511.12750244140625
z: -0.014560645446181297
visibility: 0.989005982875824
",,,,,,,,,,,,,,,,,,,,,,,,,,,,,,,,,,,,,,,,,,
21,"x: 245.99313354492188
y: 236.1436309814453
z: -0.06592825055122375
visibility: 0.9997125267982483
","x: 242.93301391601562
y: 229.30532836914062
z: -0.048850998282432556
visibility: 0.9995260238647461
","x: 242.43032836914062
y: 229.471435546875
z: -0.048908740282058716
visibility: 0.9993821382522583
","x: 241.830078125
y: 229.50244140625
z: -0.048936646431684494
visibility: 0.9995019435882568
","x: 242.4384765625
y: 229.10311889648438
z: -0.08741737902164459
visibility: 0.9995661973953247
","x: 241.68551635742188
y: 229.10116577148438
z: -0.08743465691804886
visibility: 0.9995220303535461
","x: 240.8431396484375
y: 229.1419677734375
z: -0.08752337098121643
visibility: 0.9995641112327576
","x: 236.90890502929688
y: 233.3434295654297
z: 0.03685766085982323
visibility: 0.9985029101371765
","x: 236.11239624023438
y: 233.62013244628906
z: -0.12894359230995178
visibility: 0.9995515942573547
","x: 245.3854217529297
y: 243.94105529785156
z: -0.03190876916050911
visibility: 0.9993645548820496
","x: 244.64784240722656
y: 243.5770263671875
z: -0.08234637975692749
visibility: 0.9995007514953613
","x: 241.10853576660156
y: 278.24359130859375
z: 0.15628395974636078
visibility: 0.9995315670967102
","x: 228.17678833007812
y: 274.0936584472656
z: -0.19824528694152832
visibility: 0.9998733401298523
","x: 246.88783264160156
y: 332.49200439453125
z: 0.22386951744556427
visibility: 0.6974680423736572
","x: 220.76629638671875
y: 330.918212890625
z: -0.2892223596572876
visibility: 0.9978930950164795
","x: 272.08905029296875
y: 321.7081298828125
z: 0.17974108457565308
visibility: 0.7128058671951294
","x: 250.9886474609375
y: 342.4579162597656
z: -0.3366444706916809
visibility: 0.9913598299026489
","x: 279.3724365234375
y: 319.84173583984375
z: 0.16582372784614563
visibility: 0.6922622323036194
","x: 257.22265625
y: 346.2765808105469
z: -0.3744691014289856
visibility: 0.9772683382034302
","x: 279.5390319824219
y: 315.9030456542969
z: 0.1284177005290985
visibility: 0.7032439708709717
","x: 258.5069885253906
y: 341.0975341796875
z: -0.36631470918655396
visibility: 0.975450336933136
","x: 277.16534423828125
y: 315.9058837890625
z: 0.15478262305259705
visibility: 0.7056474685668945
","x: 256.8109436035156
y: 339.7728271484375
z: -0.33272701501846313
visibility: 0.9648709297180176
","x: 239.282958984375
y: 392.0018310546875
z: 0.10592813789844513
visibility: 0.9997495412826538
","x: 227.0121307373047
y: 389.43963623046875
z: -0.10608740150928497
visibility: 0.9997438788414001
","x: 252.00839233398438
y: 466.93414306640625
z: 0.038268670439720154
visibility: 0.9291003942489624
","x: 212.10670471191406
y: 460.10247802734375
z: -0.16204619407653809
visibility: 0.9945574998855591
","x: 242.10879516601562
y: 545.4564208984375
z: 0.09759029746055603
visibility: 0.9784870147705078
","x: 178.82608032226562
y: 519.855712890625
z: -0.09543177485466003
visibility: 0.9916587471961975
","x: 234.888427734375
y: 563.25048828125
z: 0.09718497842550278
visibility: 0.9434478282928467
","x: 170.5363311767578
y: 521.2365112304688
z: -0.09289313852787018
visibility: 0.9286295771598816
","x: 259.376708984375
y: 565.6029052734375
z: 0.022056633606553078
visibility: 0.9784599542617798
","x: 182.7930145263672
y: 563.0339965820312
z: -0.18411511182785034
visibility: 0.9898147583007812
",,,,,,,,,,,,,,,,,,,,,,,,,,,,,,,,,,,,,,,,,,
22,"x: 244.8997802734375
y: 236.02342224121094
z: -0.11179143190383911
visibility: 0.9996904134750366
","x: 241.91554260253906
y: 229.16778564453125
z: -0.09927486628293991
visibility: 0.9995070695877075
","x: 241.50961303710938
y: 229.3160858154297
z: -0.09937877953052521
visibility: 0.9993820786476135
","x: 241.008056640625
y: 229.3607940673828
z: -0.09945135563611984
visibility: 0.9995052218437195
","x: 241.380615234375
y: 229.11016845703125
z: -0.13569165766239166
visibility: 0.9995396733283997
","x: 240.68128967285156
y: 229.22486877441406
z: -0.13570943474769592
visibility: 0.9995103478431702
","x: 239.8609161376953
y: 229.42303466796875
z: -0.13578388094902039
visibility: 0.999544620513916
","x: 235.7939453125
y: 233.3968505859375
z: -0.028535455465316772
visibility: 0.9985073804855347
","x: 235.13156127929688
y: 234.49346923828125
z: -0.1918620765209198
visibility: 0.9995386004447937
","x: 244.33453369140625
y: 243.9736328125
z: -0.08206047117710114
visibility: 0.9993472695350647
","x: 243.3230743408203
y: 243.97848510742188
z: -0.13009238243103027
visibility: 0.9994760751724243
","x: 240.54751586914062
y: 278.7381591796875
z: 0.0987095981836319
visibility: 0.9994938969612122
","x: 232.2069854736328
y: 276.1009521484375
z: -0.25712165236473083
visibility: 0.999864399433136
","x: 246.68687438964844
y: 329.74188232421875
z: 0.16322019696235657
visibility: 0.6428579688072205
","x: 252.86439514160156
y: 330.32952880859375
z: -0.29134050011634827
visibility: 0.9973260164260864
","x: 274.8370361328125
y: 342.0513610839844
z: 0.12374284118413925
visibility: 0.6645994186401367
","x: 284.8116149902344
y: 349.438232421875
z: -0.30312269926071167
visibility: 0.9908192753791809
","x: 279.9231262207031
y: 342.8668212890625
z: 0.12554188072681427
visibility: 0.6459606289863586
","x: 292.6261291503906
y: 353.87884521484375
z: -0.3358548581600189
visibility: 0.9771547913551331
","x: 283.6497802734375
y: 341.18768310546875
z: 0.08879685401916504
visibility: 0.6573224663734436
","x: 293.0281066894531
y: 349.96905517578125
z: -0.32747551798820496
visibility: 0.9751430153846741
","x: 282.25885009765625
y: 340.9686584472656
z: 0.1049753874540329
visibility: 0.6592679023742676
","x: 290.3711242675781
y: 348.5966796875
z: -0.3014300465583801
visibility: 0.9617900848388672
","x: 237.3599395751953
y: 392.37103271484375
z: 0.10319396108388901
visibility: 0.9997075200080872
","x: 216.30226135253906
y: 390.4214172363281
z: -0.10332558304071426
visibility: 0.9996415376663208
","x: 245.0279083251953
y: 467.0072021484375
z: 0.1308498978614807
visibility: 0.9289658069610596
","x: 192.33563232421875
y: 463.3365478515625
z: -0.11278454214334488
visibility: 0.9947651624679565
","x: 242.28781127929688
y: 545.3139038085938
z: 0.24962174892425537
visibility: 0.9798001050949097
","x: 169.75953674316406
y: 538.9612426757812
z: -0.03885451704263687
visibility: 0.9923197627067566
","x: 235.75523376464844
y: 563.02734375
z: 0.2562898099422455
visibility: 0.9471861124038696
","x: 163.35177612304688
y: 547.28662109375
z: -0.04536784440279007
visibility: 0.9329049587249756
","x: 259.1971740722656
y: 565.8283081054688
z: 0.18658800423145294
visibility: 0.9795951247215271
","x: 180.3903350830078
y: 572.0487060546875
z: -0.12341128289699554
visibility: 0.9904053211212158
",,,,,,,,,,,,,,,,,,,,,,,,,,,,,,,,,,,,,,,,,,
23,"x: 242.49517822265625
y: 241.73123168945312
z: -0.10316411405801773
visibility: 0.9996855854988098
","x: 239.73126220703125
y: 234.13710021972656
z: -0.0912424772977829
visibility: 0.9994985461235046
","x: 239.3360595703125
y: 234.09869384765625
z: -0.0913301333785057
visibility: 0.9993909001350403
","x: 238.8624267578125
y: 233.97279357910156
z: -0.09138938784599304
visibility: 0.9995107054710388
","x: 239.2596435546875
y: 234.1201934814453
z: -0.12530621886253357
visibility: 0.9995253682136536
","x: 238.5976104736328
y: 234.15382385253906
z: -0.12531360983848572
visibility: 0.9995115995407104
","x: 237.78707885742188
y: 234.21067810058594
z: -0.12536390125751495
visibility: 0.9995371699333191
","x: 233.49876403808594
y: 237.68739318847656
z: -0.024130169302225113
visibility: 0.9985319972038269
","x: 232.82249450683594
y: 238.71493530273438
z: -0.1780185103416443
visibility: 0.99953293800354
","x: 241.78099060058594
y: 250.39283752441406
z: -0.0743798017501831
visibility: 0.9993431568145752
","x: 240.72915649414062
y: 250.36508178710938
z: -0.11941216140985489
visibility: 0.9994727969169617
","x: 233.30300903320312
y: 287.5796203613281
z: 0.09638138860464096
visibility: 0.9994884133338928
","x: 227.81051635742188
y: 279.8217468261719
z: -0.24681127071380615
visibility: 0.9998651146888733
","x: 246.3720703125
y: 335.3799133300781
z: 0.16329917311668396
visibility: 0.6021897196769714
","x: 250.49122619628906
y: 331.40362548828125
z: -0.30141910910606384
visibility: 0.9968423843383789
","x: 274.5421142578125
y: 332.73004150390625
z: 0.12146566063165665
visibility: 0.647437334060669
","x: 279.4048156738281
y: 331.29278564453125
z: -0.32551664113998413
visibility: 0.9911285042762756
","x: 280.15521240234375
y: 329.20257568359375
z: 0.12231911718845367
visibility: 0.6315324306488037
","x: 286.9685974121094
y: 334.3447570800781
z: -0.3706609010696411
visibility: 0.9784099459648132
","x: 282.9005126953125
y: 325.55657958984375
z: 0.08842062950134277
visibility: 0.6437476873397827
","x: 287.0793762207031
y: 334.6148376464844
z: -0.35613852739334106
visibility: 0.9764032959938049
","x: 280.6940002441406
y: 327.11517333984375
z: 0.10431881248950958
visibility: 0.6435825824737549
","x: 284.7806701660156
y: 330.77899169921875
z: -0.3215750455856323
visibility: 0.9624491930007935
","x: 223.66961669921875
y: 395.8506774902344
z: 0.10214591026306152
visibility: 0.9996909499168396
","x: 209.18545532226562
y: 393.5751647949219
z: -0.10225223004817963
visibility: 0.9995948672294617
","x: 242.59271240234375
y: 467.1893615722656
z: 0.11998166888952255
visibility: 0.9298098683357239
","x: 188.69821166992188
y: 466.192626953125
z: -0.12417556345462799
visibility: 0.9950333833694458
","x: 241.08526611328125
y: 545.4111328125
z: 0.2158345878124237
visibility: 0.9810512065887451
","x: 166.32044982910156
y: 543.5034790039062
z: -0.07080557197332382
visibility: 0.9929696917533875
","x: 234.9499969482422
y: 563.124755859375
z: 0.22058561444282532
visibility: 0.9506902694702148
","x: 159.49313354492188
y: 555.8629150390625
z: -0.07141536474227905
visibility: 0.9378805160522461
","x: 259.47698974609375
y: 565.9559936523438
z: 0.15599152445793152
visibility: 0.9807571172714233
","x: 180.27027893066406
y: 573.22314453125
z: -0.17006589472293854
visibility: 0.9910640716552734
",,,,,,,,,,,,,,,,,,,,,,,,,,,,,,,,,,,,,,,,,,
24,"x: 244.179443359375
y: 248.60931396484375
z: -0.02524152398109436
visibility: 0.9997157454490662
","x: 240.99867248535156
y: 240.7404327392578
z: -0.014358771964907646
visibility: 0.99954754114151
","x: 240.3962860107422
y: 240.64857482910156
z: -0.01435963623225689
visibility: 0.9994506239891052
","x: 239.75473022460938
y: 240.5142822265625
z: -0.014375907368957996
visibility: 0.9995583295822144
","x: 240.95614624023438
y: 240.68997192382812
z: -0.04747985303401947
visibility: 0.9995713829994202
","x: 240.34182739257812
y: 240.62559509277344
z: -0.047535490244627
visibility: 0.9995595216751099
","x: 239.6591033935547
y: 240.55967712402344
z: -0.04754118621349335
visibility: 0.9995823502540588
","x: 234.67800903320312
y: 244.1121826171875
z: 0.04856916889548302
visibility: 0.9986761212348938
","x: 235.22518920898438
y: 244.52984619140625
z: -0.09999657422304153
visibility: 0.9995791912078857
","x: 243.04812622070312
y: 256.2911376953125
z: 0.0013298984849825501
visibility: 0.9994059205055237
","x: 242.65943908691406
y: 256.2917175292969
z: -0.04203229397535324
visibility: 0.9995226263999939
","x: 232.23919677734375
y: 290.0906066894531
z: 0.1629055142402649
visibility: 0.9995135068893433
","x: 232.3564453125
y: 282.48028564453125
z: -0.20396451652050018
visibility: 0.9998754262924194
","x: 253.5546417236328
y: 328.53961181640625
z: 0.17222848534584045
visibility: 0.5640699863433838
","x: 261.9162292480469
y: 320.55224609375
z: -0.13243921101093292
visibility: 0.9959124326705933
","x: 268.2804260253906
y: 306.20849609375
z: 0.11105799674987793
visibility: 0.5946090817451477
","x: 264.41339111328125
y: 296.60418701171875
z: 0.09456651657819748
visibility: 0.9872530698776245
","x: 268.4706726074219
y: 297.66656494140625
z: 0.11076738685369492
visibility: 0.5776652097702026
","x: 266.14935302734375
y: 287.91998291015625
z: 0.10047395527362823
visibility: 0.9712721109390259
","x: 264.936767578125
y: 296.3013916015625
z: 0.10335087776184082
visibility: 0.5890142917633057
","x: 262.95867919921875
y: 289.52618408203125
z: 0.09453371167182922
visibility: 0.9685369729995728
","x: 262.8677062988281
y: 299.4813232421875
z: 0.1053154468536377
visibility: 0.5904887914657593
","x: 261.61395263671875
y: 292.47406005859375
z: 0.09915731847286224
visibility: 0.9522361755371094
","x: 223.6195831298828
y: 398.39373779296875
z: 0.1023741364479065
visibility: 0.9997178912162781
","x: 210.40374755859375
y: 396.4335632324219
z: -0.10248513519763947
visibility: 0.9996265172958374
","x: 242.4154510498047
y: 467.4058837890625
z: 0.09459961950778961
visibility: 0.9322773814201355
","x: 193.84927368164062
y: 469.5670166015625
z: -0.10104391723871231
visibility: 0.9953246712684631
","x: 240.76806640625
y: 547.6375122070312
z: 0.12791860103607178
visibility: 0.9824280142784119
","x: 166.9240264892578
y: 541.84375
z: -0.07018209993839264
visibility: 0.9936056137084961
","x: 234.9153594970703
y: 565.8826293945312
z: 0.12805941700935364
visibility: 0.9546187520027161
","x: 159.51434326171875
y: 552.8796997070312
z: -0.07024754583835602
visibility: 0.9431180357933044
","x: 262.07586669921875
y: 565.984375
z: 0.08795871585607529
visibility: 0.982203483581543
","x: 178.26150512695312
y: 575.275634765625
z: -0.13681526482105255
visibility: 0.9917985200881958
",,,,,,,,,,,,,,,,,,,,,,,,,,,,,,,,,,,,,,,,,,
25,"x: 250.181640625
y: 248.54425048828125
z: -0.013512278907001019
visibility: 0.9997439980506897
","x: 246.9295654296875
y: 242.0771484375
z: -0.0033879342954605818
visibility: 0.9995925426483154
","x: 246.32508850097656
y: 242.0970001220703
z: -0.0033823377452790737
visibility: 0.9995052218437195
","x: 245.68614196777344
y: 242.10775756835938
z: -0.003367009339854121
visibility: 0.999602198600769
","x: 246.8501739501953
y: 241.9237518310547
z: -0.035650141537189484
visibility: 0.9996140599250793
","x: 246.19749450683594
y: 241.89297485351562
z: -0.035702697932720184
visibility: 0.9996034502983093
","x: 245.48191833496094
y: 241.88058471679688
z: -0.03568214923143387
visibility: 0.9996239542961121
","x: 240.59812927246094
y: 245.77630615234375
z: 0.059911780059337616
visibility: 0.9988081455230713
","x: 240.46600341796875
y: 245.84364318847656
z: -0.08703164756298065
visibility: 0.9996212124824524
","x: 249.4755401611328
y: 255.8828887939453
z: 0.013652006164193153
visibility: 0.9994645714759827
","x: 249.3633575439453
y: 255.63516235351562
z: -0.028924956917762756
visibility: 0.9995697736740112
","x: 235.60055541992188
y: 289.87835693359375
z: 0.17337357997894287
visibility: 0.9995515942573547
","x: 239.65745544433594
y: 281.6861267089844
z: -0.18144245445728302
visibility: 0.999885618686676
","x: 253.8539276123047
y: 288.8687744140625
z: 0.3044353127479553
visibility: 0.5409261584281921
","x: 271.57049560546875
y: 267.5035400390625
z: -0.12611481547355652
visibility: 0.9949801564216614
","x: 262.10888671875
y: 284.8985595703125
z: 0.414628267288208
visibility: 0.5393106937408447
","x: 263.3165283203125
y: 278.57403564453125
z: 0.13154372572898865
visibility: 0.9624682664871216
","x: 261.3139953613281
y: 282.9125061035156
z: 0.4362560212612152
visibility: 0.5228869318962097
","x: 261.55035400390625
y: 280.84942626953125
z: 0.14641165733337402
visibility: 0.9366005659103394
","x: 259.4107971191406
y: 286.0228271484375
z: 0.42999523878097534
visibility: 0.5333609580993652
","x: 259.4855651855469
y: 281.3218994140625
z: 0.13939282298088074
visibility: 0.93308424949646
","x: 259.4949951171875
y: 287.9427490234375
z: 0.4109579026699066
visibility: 0.5357707738876343
","x: 259.0961608886719
y: 281.3980407714844
z: 0.1367310732603073
visibility: 0.9164927005767822
","x: 227.88519287109375
y: 400.1757507324219
z: 0.10877003520727158
visibility: 0.999743640422821
","x: 222.53231811523438
y: 398.3395690917969
z: -0.10884547233581543
visibility: 0.9996585845947266
","x: 245.1917266845703
y: 467.73260498046875
z: 0.08769407123327255
visibility: 0.9212439060211182
","x: 221.68948364257812
y: 475.3968811035156
z: -0.11423759162425995
visibility: 0.9953355193138123
","x: 241.07737731933594
y: 549.9044189453125
z: 0.11555872112512589
visibility: 0.9822220802307129
","x: 172.57643127441406
y: 540.2138671875
z: -0.10241993516683578
visibility: 0.9939414262771606
","x: 234.7903289794922
y: 567.284912109375
z: 0.11536289751529694
visibility: 0.9557924866676331
","x: 167.98049926757812
y: 538.8826904296875
z: -0.10075805336236954
visibility: 0.9466521143913269
","x: 261.828125
y: 566.1058959960938
z: 0.08929289132356644
visibility: 0.9819921255111694
","x: 181.6333770751953
y: 571.1417236328125
z: -0.1380472183227539
visibility: 0.9920780658721924
",,,,,,,,,,,,,,,,,,,,,,,,,,,,,,,,,,,,,,,,,,
26,"x: 255.30641174316406
y: 247.02317810058594
z: -0.01258983463048935
visibility: 0.9997581243515015
","x: 252.8731689453125
y: 239.75994873046875
z: -0.004285338334739208
visibility: 0.9996066689491272
","x: 252.51852416992188
y: 239.76869201660156
z: -0.004302843473851681
visibility: 0.999518096446991
","x: 252.17459106445312
y: 239.763916015625
z: -0.004279674030840397
visibility: 0.9996160864830017
","x: 252.3264617919922
y: 239.74942016601562
z: -0.03595183789730072
visibility: 0.999627947807312
","x: 251.56533813476562
y: 239.82608032226562
z: -0.035988859832286835
visibility: 0.9996198415756226
","x: 250.79278564453125
y: 239.89947509765625
z: -0.035980138927698135
visibility: 0.9996402859687805
","x: 247.91567993164062
y: 243.78836059570312
z: 0.05344093590974808
visibility: 0.9988963007926941
","x: 245.31097412109375
y: 244.0034637451172
z: -0.09040139615535736
visibility: 0.999647319316864
","x: 254.1501007080078
y: 255.27565002441406
z: 0.011917125433683395
visibility: 0.9994785785675049
","x: 253.48715209960938
y: 254.6094970703125
z: -0.029610950499773026
visibility: 0.9995823502540588
","x: 245.24288940429688
y: 278.83538818359375
z: 0.16747230291366577
visibility: 0.999529242515564
","x: 240.8837432861328
y: 272.8014221191406
z: -0.15181782841682434
visibility: 0.9998753666877747
","x: 251.8006591796875
y: 285.3945617675781
z: 0.30490726232528687
visibility: 0.49314630031585693
","x: 263.4635314941406
y: 240.4038848876953
z: -0.12138523906469345
visibility: 0.9947851300239563
","x: 246.301513671875
y: 289.1915283203125
z: 0.4086899757385254
visibility: 0.4877779483795166
","x: 266.1746826171875
y: 243.135986328125
z: 0.14503660798072815
visibility: 0.9330773949623108
","x: 244.968017578125
y: 295.0180358886719
z: 0.42260056734085083
visibility: 0.4737522304058075
","x: 267.5359191894531
y: 239.04666137695312
z: 0.15609368681907654
visibility: 0.8949606418609619
","x: 243.07382202148438
y: 299.0035400390625
z: 0.4085760712623596
visibility: 0.48355501890182495
","x: 265.4823913574219
y: 247.80580139160156
z: 0.15999816358089447
visibility: 0.8881387114524841
","x: 244.20018005371094
y: 297.5933532714844
z: 0.40177279710769653
visibility: 0.4862907826900482
","x: 265.0893859863281
y: 248.92578125
z: 0.15216335654258728
visibility: 0.8728222250938416
","x: 236.59368896484375
y: 398.3799743652344
z: 0.10694646835327148
visibility: 0.9997238516807556
","x: 231.90658569335938
y: 393.46112060546875
z: -0.10703190416097641
visibility: 0.9996326565742493
","x: 247.6370391845703
y: 471.6613464355469
z: 0.078880175948143
visibility: 0.8627277612686157
","x: 246.06869506835938
y: 474.1712951660156
z: -0.13800393044948578
visibility: 0.9938002228736877
","x: 240.7770538330078
y: 551.6575927734375
z: 0.10863129794597626
visibility: 0.9650186896324158
","x: 210.3471221923828
y: 538.0706176757812
z: -0.10110802948474884
visibility: 0.9927982687950134
","x: 235.43414306640625
y: 568.217041015625
z: 0.10859121382236481
visibility: 0.937927782535553
","x: 200.03428649902344
y: 539.2893676757812
z: -0.0983307808637619
visibility: 0.9465776681900024
","x: 260.89520263671875
y: 566.2567749023438
z: 0.06250494718551636
visibility: 0.9711279273033142
","x: 221.63841247558594
y: 571.1936645507812
z: -0.15544506907463074
