uscmakers/ReverseChoreography/data/4_sad_girlz_luv_money_amaarae.csv
,NOSE,LEFT_EYE_INNER,LEFT_EYE,LEFT_EYE_OUTER,RIGHT_EYE_INNER,RIGHT_EYE,RIGHT_EYE_OUTER,LEFT_EAR,RIGHT_EAR,MOUTH_LEFT,MOUTH_RIGHT,LEFT_SHOULDER,RIGHT_SHOULDER,LEFT_ELBOW,RIGHT_ELBOW,LEFT_WRIST,RIGHT_WRIST,LEFT_PINKY,RIGHT_PINKY,LEFT_INDEX,RIGHT_INDEX,LEFT_THUMB,RIGHT_THUMB,LEFT_HIP,RIGHT_HIP,LEFT_KNEE,RIGHT_KNEE,LEFT_ANKLE,RIGHT_ANKLE,LEFT_HEEL,RIGHT_HEEL,LEFT_FOOT_INDEX,RIGHT_FOOT_INDEX,WRIST,THUMB_CPC,THUMB_MCP,THUMB_IP,THUMB_TIP,INDEX_FINGER_MCP,INDEX_FINGER_PIP,INDEX_FINGER_DIP,INDEX_FINGER_TIP,MIDDLE_FINGER_MCP,MIDDLE_FINGER_PIP,MIDDLE_FINGER_DIP,MIDDLE_FINGER_TIP,RING_FINGER_PIP,RING_FINGER_DIP,RING_FINGER_TIP,RING_FINGER_MCP,PINKY_MCP,PINKY_PIP,PINKY_DIP,PINKY_TIP,WRIST2,THUMB_CPC2,THUMB_MCP2,THUMB_IP2,THUMB_TIP2,INDEX_FINGER_MCP2,INDEX_FINGER_PIP2,INDEX_FINGER_DIP2,INDEX_FINGER_TIP2,MIDDLE_FINGER_MCP2,MIDDLE_FINGER_PIP2,MIDDLE_FINGER_DIP2,MIDDLE_FINGER_TIP2,RING_FINGER_PIP2,RING_FINGER_DIP2,RING_FINGER_TIP2,RING_FINGER_MCP2,PINKY_MCP2,PINKY_PIP2,PINKY_DIP2,PINKY_TIP2
0,"x: 225.32391357421875
y: 382.1160888671875
z: -0.633927583694458
visibility: 0.9999982118606567
","x: 227.2597198486328
y: 374.527587890625
z: -0.6303697228431702
visibility: 0.999997615814209
","x: 228.62118530273438
y: 373.80548095703125
z: -0.6302495002746582
visibility: 0.9999961853027344
","x: 229.8785858154297
y: 373.11651611328125
z: -0.6303431987762451
visibility: 0.9999957084655762
","x: 222.91050720214844
y: 374.2290954589844
z: -0.6318259835243225
visibility: 0.9999982118606567
","x: 221.3280792236328
y: 373.39288330078125
z: -0.6319484710693359
visibility: 0.9999982118606567
","x: 219.88629150390625
y: 372.50726318359375
z: -0.6319376826286316
visibility: 0.9999983310699463
","x: 231.31668090820312
y: 369.7651672363281
z: -0.5314331650733948
visibility: 0.9999954700469971
","x: 217.08763122558594
y: 369.7003173828125
z: -0.5400150418281555
visibility: 0.9999979734420776
","x: 227.3304443359375
y: 385.8485107421875
z: -0.5903653502464294
visibility: 0.9999984502792358
","x: 222.57672119140625
y: 386.2130432128906
z: -0.5931326150894165
visibility: 0.9999985694885254
","x: 242.29486083984375
y: 388.45574951171875
z: -0.3675052225589752
visibility: 0.9999974966049194
","x: 201.82855224609375
y: 383.4546203613281
z: -0.3939630687236786
visibility: 0.9999861717224121
","x: 269.1058654785156
y: 407.4722900390625
z: -0.2553780972957611
visibility: 0.9986662864685059
","x: 171.03126525878906
y: 391.3841552734375
z: -0.3299734890460968
visibility: 0.9987921118736267
","x: 249.43296813964844
y: 435.62738037109375
z: -0.1887674331665039
visibility: 0.96444171667099
","x: 180.319580078125
y: 429.214111328125
z: -0.26850447058677673
visibility: 0.9695845246315002
","x: 245.50823974609375
y: 442.0832824707031
z: -0.18275707960128784
visibility: 0.8484740257263184
","x: 182.26406860351562
y: 441.69354248046875
z: -0.2661035358905792
visibility: 0.8260180950164795
","x: 243.01705932617188
y: 438.3548278808594
z: -0.19127793610095978
visibility: 0.8579734563827515
","x: 186.30735778808594
y: 440.14080810546875
z: -0.27658894658088684
visibility: 0.835284948348999
","x: 243.28817749023438
y: 436.2113037109375
z: -0.18617266416549683
visibility: 0.8060625195503235
","x: 186.78125
y: 436.462646484375
z: -0.2674345076084137
visibility: 0.8044715523719788
","x: 231.5308837890625
y: 420.19732666015625
z: 0.010530330240726471
visibility: 0.9998078942298889
","x: 208.94900512695312
y: 415.8815002441406
z: -0.01045959908515215
visibility: 0.9987859129905701
","x: 236.23219299316406
y: 474.19061279296875
z: -0.1837533414363861
visibility: 0.9982054233551025
","x: 202.8633270263672
y: 480.0787353515625
z: -0.11051841080188751
visibility: 0.9714727401733398
","x: 241.24371337890625
y: 536.0006103515625
z: -0.04002515226602554
visibility: 0.9969244599342346
","x: 174.93687438964844
y: 533.8289794921875
z: -0.01001228392124176
visibility: 0.9936659932136536
","x: 239.21658325195312
y: 544.522216796875
z: -0.030624549835920334
visibility: 0.9428933262825012
","x: 169.62623596191406
y: 540.617431640625
z: -0.0052701933309435844
visibility: 0.8845899701118469
","x: 243.6178741455078
y: 555.9560546875
z: -0.14460156857967377
visibility: 0.9900656938552856
","x: 177.6560821533203
y: 557.94482421875
z: -0.12739033997058868
visibility: 0.9807135462760925
",,,,,,,,,,,,,,,,,,,,,,,,,,,,,,,,,,,,,,,,,,
1,"x: 200.0714111328125
y: 361.8338317871094
z: -0.4843871593475342
visibility: 0.9999963045120239
","x: 202.8685302734375
y: 354.2451477050781
z: -0.4883579611778259
visibility: 0.999995231628418
","x: 204.2784423828125
y: 354.4881591796875
z: -0.48832136392593384
visibility: 0.9999939799308777
","x: 205.89572143554688
y: 354.1666259765625
z: -0.4884377419948578
visibility: 0.9999918341636658
","x: 198.26136779785156
y: 352.9484558105469
z: -0.4791417717933655
visibility: 0.9999935626983643
","x: 197.1536407470703
y: 352.84765625
z: -0.4792178273200989
visibility: 0.9999915361404419
","x: 196.04360961914062
y: 352.75927734375
z: -0.4792192578315735
visibility: 0.9999883770942688
","x: 210.92889404296875
y: 354.6542663574219
z: -0.4327443540096283
visibility: 0.9999943375587463
","x: 196.71005249023438
y: 351.67242431640625
z: -0.3885824680328369
visibility: 0.9999937415122986
","x: 202.8522491455078
y: 367.5960693359375
z: -0.4576197564601898
visibility: 0.9999974966049194
","x: 199.0336151123047
y: 367.1082763671875
z: -0.44535893201828003
visibility: 0.999996542930603
","x: 225.69651794433594
y: 380.82373046875
z: -0.34634658694267273
visibility: 0.9999968409538269
","x: 190.4820098876953
y: 368.3715515136719
z: -0.27530330419540405
visibility: 0.9999860525131226
","x: 216.15646362304688
y: 426.14263916015625
z: -0.447941392660141
visibility: 0.9946473240852356
","x: 192.53897094726562
y: 418.24468994140625
z: -0.36212852597236633
visibility: 0.979068398475647
","x: 212.85311889648438
y: 401.84100341796875
z: -0.5700662732124329
visibility: 0.9630014896392822
","x: 198.95240783691406
y: 394.3497314453125
z: -0.5132578015327454
visibility: 0.9551632404327393
","x: 213.2678985595703
y: 392.4420471191406
z: -0.5991572737693787
visibility: 0.8545394539833069
","x: 200.63388061523438
y: 384.1037292480469
z: -0.5372937321662903
visibility: 0.8173322677612305
","x: 214.82745361328125
y: 386.5664367675781
z: -0.5870195031166077
visibility: 0.862086832523346
","x: 199.99107360839844
y: 378.8124084472656
z: -0.5267696976661682
visibility: 0.8205597996711731
","x: 214.57713317871094
y: 389.2121887207031
z: -0.5664941668510437
visibility: 0.8016997575759888
","x: 199.95303344726562
y: 382.36334228515625
z: -0.5113221406936646
visibility: 0.782788097858429
","x: 220.531005859375
y: 420.1784973144531
z: -0.02324805222451687
visibility: 0.9998059868812561
","x: 200.27769470214844
y: 416.0400085449219
z: 0.02327382005751133
visibility: 0.9989039301872253
","x: 217.7783660888672
y: 476.7576599121094
z: -0.11012832075357437
visibility: 0.9972230195999146
","x: 197.04800415039062
y: 471.1317138671875
z: -0.08114062994718552
visibility: 0.9715248942375183
","x: 243.46942138671875
y: 528.1209716796875
z: 0.007419605739414692
visibility: 0.9948790073394775
","x: 203.56466674804688
y: 533.8216552734375
z: 0.038392070680856705
visibility: 0.9920310378074646
","x: 247.82655334472656
y: 531.4937133789062
z: 0.014536157250404358
visibility: 0.9184845685958862
","x: 207.38133239746094
y: 541.5015258789062
z: 0.045311447232961655
visibility: 0.8797785043716431
","x: 243.52902221679688
y: 551.728271484375
z: -0.07231299579143524
visibility: 0.9889645576477051
","x: 197.26272583007812
y: 548.154052734375
z: -0.03602359816431999
visibility: 0.9782245755195618
",,,,,,,,,,,,,,,,,,,,,,,,,,,,,,,,,,,,,,,,,,
2,"x: 207.1578826904297
y: 351.7076110839844
z: -0.4509645402431488
visibility: 0.9999962449073792
","x: 209.03958129882812
y: 343.8825988769531
z: -0.44931602478027344
visibility: 0.9999949336051941
","x: 210.7666015625
y: 343.19879150390625
z: -0.4492783546447754
visibility: 0.999993622303009
","x: 212.40951538085938
y: 342.2431945800781
z: -0.44935664534568787
visibility: 0.9999910593032837
","x: 204.52134704589844
y: 343.4791564941406
z: -0.4470300078392029
visibility: 0.9999936819076538
","x: 203.2789306640625
y: 342.9440002441406
z: -0.44713345170021057
visibility: 0.9999918341636658
","x: 202.18272399902344
y: 342.37353515625
z: -0.44716954231262207
visibility: 0.9999889135360718
","x: 215.08738708496094
y: 337.91864013671875
z: -0.3684970438480377
visibility: 0.999994158744812
","x: 201.76771545410156
y: 339.1155700683594
z: -0.3584883511066437
visibility: 0.9999942183494568
","x: 209.9542999267578
y: 354.94061279296875
z: -0.4143020510673523
visibility: 0.9999974370002747
","x: 205.36663818359375
y: 355.3682861328125
z: -0.4117806553840637
visibility: 0.9999966621398926
","x: 227.79647827148438
y: 359.1096496582031
z: -0.2674906253814697
visibility: 0.9999914169311523
","x: 191.9369659423828
y: 356.4964294433594
z: -0.2537609338760376
visibility: 0.9999871850013733
","x: 228.9685821533203
y: 422.3253173828125
z: -0.32763931155204773
visibility: 0.9925224781036377
","x: 187.6687774658203
y: 406.9778747558594
z: -0.317218542098999
visibility: 0.980234682559967
","x: 213.19305419921875
y: 409.48114013671875
z: -0.4366471767425537
visibility: 0.9513217806816101
","x: 199.46339416503906
y: 406.3247375488281
z: -0.4467759132385254
visibility: 0.9532403945922852
","x: 208.29403686523438
y: 410.6797790527344
z: -0.467726469039917
visibility: 0.8406938910484314
","x: 203.5178680419922
y: 410.76983642578125
z: -0.47833436727523804
visibility: 0.8199325799942017
","x: 207.5884552001953
y: 403.1145935058594
z: -0.46581706404685974
visibility: 0.8458008170127869
","x: 205.3070831298828
y: 404.34466552734375
z: -0.47639402747154236
visibility: 0.8205093145370483
","x: 208.56312561035156
y: 401.1258239746094
z: -0.4372977614402771
visibility: 0.775108277797699
","x: 204.17503356933594
y: 401.9421081542969
z: -0.44799286127090454
visibility: 0.776999294757843
","x: 221.6661834716797
y: 414.413818359375
z: -0.008732330054044724
visibility: 0.9997532367706299
","x: 201.8265838623047
y: 414.2904357910156
z: 0.00878194347023964
visibility: 0.9990025758743286
","x: 225.89724731445312
y: 464.9024963378906
z: -0.14867040514945984
visibility: 0.9956125617027283
","x: 192.54505920410156
y: 465.8328857421875
z: -0.1656428873538971
visibility: 0.9736503958702087
","x: 226.70265197753906
y: 529.8489990234375
z: -0.05636521056294441
visibility: 0.993602454662323
","x: 204.12796020507812
y: 534.6376953125
z: -0.05409906059503555
visibility: 0.9925064444541931
","x: 222.69760131835938
y: 534.9774780273438
z: -0.05497012287378311
visibility: 0.9162451028823853
","x: 208.521240234375
y: 544.2882690429688
z: -0.049913614988327026
visibility: 0.8878419995307922
","x: 229.35391235351562
y: 551.7376098632812
z: -0.16673687100410461
visibility: 0.9884447455406189
","x: 196.15284729003906
y: 550.0220336914062
z: -0.15391111373901367
visibility: 0.9795066118240356
",,,,,,,,,,,,,,,,,,,,,,,,,,,,,,,,,,,,,,,,,,
3,"x: 212.33787536621094
y: 342.0837097167969
z: -0.5448877215385437
visibility: 0.999995231628418
","x: 214.30453491210938
y: 335.51068115234375
z: -0.53959721326828
visibility: 0.9999902248382568
","x: 215.8006591796875
y: 334.93011474609375
z: -0.5395775437355042
visibility: 0.9999878406524658
","x: 217.23526000976562
y: 334.1656188964844
z: -0.5396822690963745
visibility: 0.9999840259552002
","x: 210.08877563476562
y: 335.232666015625
z: -0.5400490760803223
visibility: 0.9999891519546509
","x: 208.75350952148438
y: 334.6406555175781
z: -0.5401597619056702
visibility: 0.9999875426292419
","x: 207.53231811523438
y: 333.93121337890625
z: -0.5402119755744934
visibility: 0.9999845623970032
","x: 219.50198364257812
y: 330.0314025878906
z: -0.446258544921875
visibility: 0.9999771118164062
","x: 205.83302307128906
y: 330.16094970703125
z: -0.44986945390701294
visibility: 0.9999905228614807
","x: 214.66793823242188
y: 345.9542236328125
z: -0.5043975114822388
visibility: 0.9999969005584717
","x: 210.2513885498047
y: 346.0348205566406
z: -0.5053476095199585
visibility: 0.9999964833259583
","x: 231.80267333984375
y: 351.836669921875
z: -0.32058829069137573
visibility: 0.9999908804893494
","x: 194.6140594482422
y: 352.5863037109375
z: -0.317259818315506
visibility: 0.9999873638153076
","x: 233.7806396484375
y: 409.85858154296875
z: -0.324113667011261
visibility: 0.9927592873573303
","x: 198.38406372070312
y: 408.408935546875
z: -0.3565564453601837
visibility: 0.9818404912948608
","x: 228.75022888183594
y: 454.57830810546875
z: -0.39065811038017273
visibility: 0.9542909264564514
","x: 209.75405883789062
y: 453.09625244140625
z: -0.423283189535141
visibility: 0.9562573432922363
","x: 210.8290557861328
y: 468.533935546875
z: -0.4224928915500641
visibility: 0.8524152636528015
","x: 209.9440155029297
y: 466.67138671875
z: -0.4587770998477936
visibility: 0.8339032530784607
","x: 221.09036254882812
y: 468.6055908203125
z: -0.4399047791957855
visibility: 0.8570283055305481
","x: 213.891357421875
y: 466.8917236328125
z: -0.47407597303390503
visibility: 0.834328293800354
","x: 223.8887481689453
y: 464.4234619140625
z: -0.39878159761428833
visibility: 0.7919432520866394
","x: 215.7805633544922
y: 461.854736328125
z: -0.429979145526886
visibility: 0.7932234406471252
","x: 220.58578491210938
y: 409.0678405761719
z: 0.006006711628288031
visibility: 0.999763548374176
","x: 198.9771270751953
y: 408.4537353515625
z: -0.005936150439083576
visibility: 0.9990693926811218
","x: 227.0207977294922
y: 464.21087646484375
z: -0.15790972113609314
visibility: 0.9532202482223511
","x: 188.55665588378906
y: 456.7788391113281
z: -0.2410270720720291
visibility: 0.9618780016899109
","x: 218.43727111816406
y: 534.6019897460938
z: -0.003735725302249193
visibility: 0.960849404335022
","x: 192.43385314941406
y: 519.2296752929688
z: -0.05327152460813522
visibility: 0.966667890548706
","x: 214.33441162109375
y: 541.85888671875
z: 0.006720010191202164
visibility: 0.8759127855300903
","x: 192.4547576904297
y: 524.9297485351562
z: -0.039627768099308014
visibility: 0.8400940895080566
","x: 223.7189483642578
y: 554.1698608398438
z: -0.09586282074451447
visibility: 0.9550976157188416
","x: 191.69235229492188
y: 545.1953735351562
z: -0.14626489579677582
visibility: 0.9479908347129822
","x: 212.2486572265625
y: 458.97723388671875
z: 0.0
","x: 215.41831970214844
y: 463.7752990722656
z: 0.00031889445381239057
","x: 216.9683837890625
y: 470.231689453125
z: -0.00045784690883010626
","x: 217.5712890625
y: 475.4237060546875
z: -0.001227657892741263
","x: 218.1298065185547
y: 479.13525390625
z: -0.0019135528709739447
","x: 215.1054229736328
y: 472.5769348144531
z: -0.004082608502358198
","x: 214.89759826660156
y: 480.8500671386719
z: -0.005103983450680971
","x: 214.9515380859375
y: 485.1036376953125
z: -0.004288810305297375
","x: 214.92149353027344
y: 487.7911376953125
z: -0.00335023389197886
","x: 212.6553497314453
y: 472.386962890625
z: -0.004832180682569742
","x: 212.59141540527344
y: 481.1955261230469
z: -0.005510997958481312
","x: 212.97811889648438
y: 484.3414306640625
z: -0.003654472529888153
","x: 213.3170623779297
y: 485.3995056152344
z: -0.002126863459125161
","x: 210.44239807128906
y: 471.84326171875
z: -0.005329139996320009
","x: 210.4137725830078
y: 479.99371337890625
z: -0.0058768317103385925
","x: 211.1403045654297
y: 481.7031555175781
z: -0.003906497731804848
","x: 211.68817138671875
y: 481.4683532714844
z: -0.0023995861411094666
","x: 208.6102752685547
y: 470.9124755859375
z: -0.005831727292388678
","x: 208.39434814453125
y: 477.2584533691406
z: -0.0061048478819429874
","x: 209.0696258544922
y: 478.4580078125
z: -0.004905261564999819
","x: 209.5539093017578
y: 478.02947998046875
z: -0.0038079475052654743
",,,,,,,,,,,,,,,,,,,,,
4,"x: 212.33787536621094
y: 342.0837097167969
z: -0.5448877215385437
visibility: 0.999995231628418
","x: 214.30453491210938
y: 335.51068115234375
z: -0.53959721326828
visibility: 0.9999902248382568
","x: 215.8006591796875
y: 334.93011474609375
z: -0.5395775437355042
visibility: 0.9999878406524658
","x: 217.23526000976562
y: 334.1656188964844
z: -0.5396822690963745
visibility: 0.9999840259552002
","x: 210.08877563476562
y: 335.232666015625
z: -0.5400490760803223
visibility: 0.9999891519546509
","x: 208.75350952148438
y: 334.6406555175781
z: -0.5401597619056702
visibility: 0.9999875426292419
","x: 207.53231811523438
y: 333.93121337890625
z: -0.5402119755744934
visibility: 0.9999845623970032
","x: 219.50198364257812
y: 330.0314025878906
z: -0.446258544921875
visibility: 0.9999771118164062
","x: 205.83302307128906
y: 330.16094970703125
z: -0.44986945390701294
visibility: 0.9999905228614807
","x: 214.66793823242188
y: 345.9542236328125
z: -0.5043975114822388
visibility: 0.9999969005584717
","x: 210.2513885498047
y: 346.0348205566406
z: -0.5053476095199585
visibility: 0.9999964833259583
","x: 231.80267333984375
y: 351.836669921875
z: -0.32058829069137573
visibility: 0.9999908804893494
","x: 194.6140594482422
y: 352.5863037109375
z: -0.317259818315506
visibility: 0.9999873638153076
","x: 233.7806396484375
y: 409.85858154296875
z: -0.324113667011261
visibility: 0.9927592873573303
","x: 198.38406372070312
y: 408.408935546875
z: -0.3565564453601837
visibility: 0.9818404912948608
","x: 228.75022888183594
y: 454.57830810546875
z: -0.39065811038017273
visibility: 0.9542909264564514
","x: 209.75405883789062
y: 453.09625244140625
z: -0.423283189535141
visibility: 0.9562573432922363
","x: 210.8290557861328
y: 468.533935546875
z: -0.4224928915500641
visibility: 0.8524152636528015
","x: 209.9440155029297
y: 466.67138671875
z: -0.4587770998477936
visibility: 0.8339032530784607
","x: 221.09036254882812
y: 468.6055908203125
z: -0.4399047791957855
visibility: 0.8570283055305481
","x: 213.891357421875
y: 466.8917236328125
z: -0.47407597303390503
visibility: 0.834328293800354
","x: 223.8887481689453
y: 464.4234619140625
z: -0.39878159761428833
visibility: 0.7919432520866394
","x: 215.7805633544922
y: 461.854736328125
z: -0.429979145526886
visibility: 0.7932234406471252
","x: 220.58578491210938
y: 409.0678405761719
z: 0.006006711628288031
visibility: 0.999763548374176
","x: 198.9771270751953
y: 408.4537353515625
z: -0.005936150439083576
visibility: 0.9990693926811218
","x: 227.0207977294922
y: 464.21087646484375
z: -0.15790972113609314
visibility: 0.9532202482223511
","x: 188.55665588378906
y: 456.7788391113281
z: -0.2410270720720291
visibility: 0.9618780016899109
","x: 218.43727111816406
y: 534.6019897460938
z: -0.003735725302249193
visibility: 0.960849404335022
","x: 192.43385314941406
y: 519.2296752929688
z: -0.05327152460813522
visibility: 0.966667890548706
","x: 214.33441162109375
y: 541.85888671875
z: 0.006720010191202164
visibility: 0.8759127855300903
","x: 192.4547576904297
y: 524.9297485351562
z: -0.039627768099308014
visibility: 0.8400940895080566
","x: 223.7189483642578
y: 554.1698608398438
z: -0.09586282074451447
visibility: 0.9550976157188416
","x: 191.69235229492188
y: 545.1953735351562
z: -0.14626489579677582
visibility: 0.9479908347129822
","x: 212.2486572265625
y: 458.97723388671875
z: 0.0
","x: 215.41831970214844
y: 463.7752990722656
z: 0.00031889445381239057
","x: 216.9683837890625
y: 470.231689453125
z: -0.00045784690883010626
","x: 217.5712890625
y: 475.4237060546875
z: -0.001227657892741263
","x: 218.1298065185547
y: 479.13525390625
z: -0.0019135528709739447
","x: 215.1054229736328
y: 472.5769348144531
z: -0.004082608502358198
","x: 214.89759826660156
y: 480.8500671386719
z: -0.005103983450680971
","x: 214.9515380859375
y: 485.1036376953125
z: -0.004288810305297375
","x: 214.92149353027344
y: 487.7911376953125
z: -0.00335023389197886
","x: 212.6553497314453
y: 472.386962890625
z: -0.004832180682569742
","x: 212.59141540527344
y: 481.1955261230469
z: -0.005510997958481312
","x: 212.97811889648438
y: 484.3414306640625
z: -0.003654472529888153
","x: 213.3170623779297
y: 485.3995056152344
z: -0.002126863459125161
","x: 210.44239807128906
y: 471.84326171875
z: -0.005329139996320009
","x: 210.4137725830078
y: 479.99371337890625
z: -0.0058768317103385925
","x: 211.1403045654297
y: 481.7031555175781
z: -0.003906497731804848
","x: 211.68817138671875
y: 481.4683532714844
z: -0.0023995861411094666
","x: 208.6102752685547
y: 470.9124755859375
z: -0.005831727292388678
","x: 208.39434814453125
y: 477.2584533691406
z: -0.0061048478819429874
","x: 209.0696258544922
y: 478.4580078125
z: -0.004905261564999819
","x: 209.5539093017578
y: 478.02947998046875
z: -0.0038079475052654743
",,,,,,,,,,,,,,,,,,,,,
5,"x: 215.5364532470703
y: 346.549072265625
z: -0.597079873085022
visibility: 0.9999955296516418
","x: 215.5751495361328
y: 339.9190673828125
z: -0.5834447145462036
visibility: 0.9999903440475464
","x: 216.3495635986328
y: 339.13677978515625
z: -0.5834631323814392
visibility: 0.9999877214431763
","x: 218.81117248535156
y: 338.18524169921875
z: -0.5835509300231934
visibility: 0.9999842047691345
","x: 213.66989135742188
y: 339.8702392578125
z: -0.5943409204483032
visibility: 0.9999895691871643
","x: 212.557861328125
y: 339.260009765625
z: -0.5944321751594543
visibility: 0.9999881386756897
","x: 210.88462829589844
y: 338.5634765625
z: -0.5945021510124207
visibility: 0.99998539686203
","x: 221.66714477539062
y: 333.8892822265625
z: -0.4640057682991028
visibility: 0.9999741315841675
","x: 206.3624725341797
y: 335.60552978515625
z: -0.5176608562469482
visibility: 0.9999902248382568
","x: 216.11721801757812
y: 350.28387451171875
z: -0.5500372648239136
visibility: 0.9999969601631165
","x: 213.2891845703125
y: 351.01727294921875
z: -0.5636996626853943
visibility: 0.9999966621398926
","x: 233.4398651123047
y: 357.3088073730469
z: -0.3291837275028229
visibility: 0.9999912977218628
","x: 196.6998748779297
y: 362.326171875
z: -0.43666911125183105
visibility: 0.9999880790710449
","x: 235.2674560546875
y: 414.4725036621094
z: -0.3088696002960205
visibility: 0.992414653301239
","x: 206.89956665039062
y: 422.766357421875
z: -0.46597743034362793
visibility: 0.9829981923103333
","x: 231.40109252929688
y: 467.8131103515625
z: -0.3348694145679474
visibility: 0.9567236304283142
","x: 212.22923278808594
y: 476.2626953125
z: -0.5036524534225464
visibility: 0.9595776200294495
","x: 232.89035034179688
y: 480.8804931640625
z: -0.3568858206272125
visibility: 0.8632042407989502
","x: 210.80799865722656
y: 489.505126953125
z: -0.5436073541641235
visibility: 0.8481789827346802
","x: 233.3123321533203
y: 482.5198669433594
z: -0.3816972076892853
visibility: 0.8675650954246521
","x: 213.4248504638672
y: 489.9737548828125
z: -0.5572177767753601
visibility: 0.848676323890686
","x: 231.41085815429688
y: 478.7382507324219
z: -0.3449811339378357
visibility: 0.8086050152778625
","x: 214.30015563964844
y: 484.7707824707031
z: -0.509880006313324
visibility: 0.810214638710022
","x: 221.31033325195312
y: 411.642333984375
z: 0.03374176472425461
visibility: 0.9997831583023071
","x: 199.80825805664062
y: 408.9794921875
z: -0.03375301510095596
visibility: 0.9991440773010254
","x: 225.24241638183594
y: 464.9639587402344
z: -0.10376162827014923
visibility: 0.9502170085906982
","x: 191.4355010986328
y: 465.0767822265625
z: -0.1800432950258255
visibility: 0.9638694524765015
","x: 217.1671142578125
y: 538.2484741210938
z: 0.03520435839891434
visibility: 0.9610123634338379
","x: 162.48866271972656
y: 521.9885864257812
z: -0.08064980804920197
visibility: 0.9689164161682129
","x: 213.25466918945312
y: 546.8873291015625
z: 0.04376531392335892
visibility: 0.8806522488594055
","x: 156.4506072998047
y: 529.3568725585938
z: -0.07593448460102081
visibility: 0.8468700647354126
","x: 225.0951385498047
y: 557.7245483398438
z: -0.0602581724524498
visibility: 0.9552546739578247
","x: 166.1308135986328
y: 548.7559204101562
z: -0.19642946124076843
visibility: 0.9512298703193665
","x: 213.5298614501953
y: 477.3089294433594
z: 0.0
","x: 215.2357940673828
y: 484.27410888671875
z: 0.002799415495246649
","x: 215.55914306640625
y: 490.89111328125
z: 0.003317498369142413
","x: 214.93626403808594
y: 495.1968994140625
z: 0.002847071038559079
","x: 214.20738220214844
y: 497.4063415527344
z: 0.0023144374135881662
","x: 214.31390380859375
y: 494.44085693359375
z: 0.0010329216020181775
","x: 214.46849060058594
y: 502.152099609375
z: -0.00021038876730017364
","x: 214.38662719726562
y: 505.9030456542969
z: -0.00011567513138288632
","x: 214.42074584960938
y: 508.2667236328125
z: 0.00017613795353099704
","x: 212.22915649414062
y: 494.23272705078125
z: -0.0018096815329045057
","x: 211.32464599609375
y: 502.89898681640625
z: -0.00256405514664948
","x: 210.6136474609375
y: 507.3910217285156
z: -0.001898928196169436
","x: 210.134765625
y: 510.5587158203125
z: -0.0015655909664928913
","x: 210.1844024658203
y: 492.2391357421875
z: -0.004679445642977953
","x: 208.11212158203125
y: 499.0625
z: -0.005992294754832983
","x: 206.9155731201172
y: 502.685302734375
z: -0.0060705882497131824
","x: 206.0659942626953
y: 505.2459716796875
z: -0.006093717645853758
","x: 208.23876953125
y: 488.8733215332031
z: -0.007439531851559877
","x: 205.42587280273438
y: 491.3714599609375
z: -0.008741913363337517
","x: 203.3944091796875
y: 492.7718811035156
z: -0.009014059789478779
","x: 201.77488708496094
y: 493.8188171386719
z: -0.009070470929145813
",,,,,,,,,,,,,,,,,,,,,
6,"x: 215.5364532470703
y: 346.549072265625
z: -0.597079873085022
visibility: 0.9999955296516418
","x: 215.5751495361328
y: 339.9190673828125
z: -0.5834447145462036
visibility: 0.9999903440475464
","x: 216.3495635986328
y: 339.13677978515625
z: -0.5834631323814392
visibility: 0.9999877214431763
","x: 218.81117248535156
y: 338.18524169921875
z: -0.5835509300231934
visibility: 0.9999842047691345
","x: 213.66989135742188
y: 339.8702392578125
z: -0.5943409204483032
visibility: 0.9999895691871643
","x: 212.557861328125
y: 339.260009765625
z: -0.5944321751594543
visibility: 0.9999881386756897
","x: 210.88462829589844
y: 338.5634765625
z: -0.5945021510124207
visibility: 0.99998539686203
","x: 221.66714477539062
y: 333.8892822265625
z: -0.4640057682991028
visibility: 0.9999741315841675
","x: 206.3624725341797
y: 335.60552978515625
z: -0.5176608562469482
visibility: 0.9999902248382568
","x: 216.11721801757812
y: 350.28387451171875
z: -0.5500372648239136
visibility: 0.9999969601631165
","x: 213.2891845703125
y: 351.01727294921875
z: -0.5636996626853943
visibility: 0.9999966621398926
","x: 233.4398651123047
y: 357.3088073730469
z: -0.3291837275028229
visibility: 0.9999912977218628
","x: 196.6998748779297
y: 362.326171875
z: -0.43666911125183105
visibility: 0.9999880790710449
","x: 235.2674560546875
y: 414.4725036621094
z: -0.3088696002960205
visibility: 0.992414653301239
","x: 206.89956665039062
y: 422.766357421875
z: -0.46597743034362793
visibility: 0.9829981923103333
","x: 231.40109252929688
y: 467.8131103515625
z: -0.3348694145679474
visibility: 0.9567236304283142
","x: 212.22923278808594
y: 476.2626953125
z: -0.5036524534225464
visibility: 0.9595776200294495
","x: 232.89035034179688
y: 480.8804931640625
z: -0.3568858206272125
visibility: 0.8632042407989502
","x: 210.80799865722656
y: 489.505126953125
z: -0.5436073541641235
visibility: 0.8481789827346802
","x: 233.3123321533203
y: 482.5198669433594
z: -0.3816972076892853
visibility: 0.8675650954246521
","x: 213.4248504638672
y: 489.9737548828125
z: -0.5572177767753601
visibility: 0.848676323890686
","x: 231.41085815429688
y: 478.7382507324219
z: -0.3449811339378357
visibility: 0.8086050152778625
","x: 214.30015563964844
y: 484.7707824707031
z: -0.509880006313324
visibility: 0.810214638710022
","x: 221.31033325195312
y: 411.642333984375
z: 0.03374176472425461
visibility: 0.9997831583023071
","x: 199.80825805664062
y: 408.9794921875
z: -0.03375301510095596
visibility: 0.9991440773010254
","x: 225.24241638183594
y: 464.9639587402344
z: -0.10376162827014923
visibility: 0.9502170085906982
","x: 191.4355010986328
y: 465.0767822265625
z: -0.1800432950258255
visibility: 0.9638694524765015
","x: 217.1671142578125
y: 538.2484741210938
z: 0.03520435839891434
visibility: 0.9610123634338379
","x: 162.48866271972656
y: 521.9885864257812
z: -0.08064980804920197
visibility: 0.9689164161682129
","x: 213.25466918945312
y: 546.8873291015625
z: 0.04376531392335892
visibility: 0.8806522488594055
","x: 156.4506072998047
y: 529.3568725585938
z: -0.07593448460102081
visibility: 0.8468700647354126
","x: 225.0951385498047
y: 557.7245483398438
z: -0.0602581724524498
visibility: 0.9552546739578247
","x: 166.1308135986328
y: 548.7559204101562
z: -0.19642946124076843
visibility: 0.9512298703193665
","x: 213.5298614501953
y: 477.3089294433594
z: 0.0
","x: 215.2357940673828
y: 484.27410888671875
z: 0.002799415495246649
","x: 215.55914306640625
y: 490.89111328125
z: 0.003317498369142413
","x: 214.93626403808594
y: 495.1968994140625
z: 0.002847071038559079
","x: 214.20738220214844
y: 497.4063415527344
z: 0.0023144374135881662
","x: 214.31390380859375
y: 494.44085693359375
z: 0.0010329216020181775
","x: 214.46849060058594
y: 502.152099609375
z: -0.00021038876730017364
","x: 214.38662719726562
y: 505.9030456542969
z: -0.00011567513138288632
","x: 214.42074584960938
y: 508.2667236328125
z: 0.00017613795353099704
","x: 212.22915649414062
y: 494.23272705078125
z: -0.0018096815329045057
","x: 211.32464599609375
y: 502.89898681640625
z: -0.00256405514664948
","x: 210.6136474609375
y: 507.3910217285156
z: -0.001898928196169436
","x: 210.134765625
y: 510.5587158203125
z: -0.0015655909664928913
","x: 210.1844024658203
y: 492.2391357421875
z: -0.004679445642977953
","x: 208.11212158203125
y: 499.0625
z: -0.005992294754832983
","x: 206.9155731201172
y: 502.685302734375
z: -0.0060705882497131824
","x: 206.0659942626953
y: 505.2459716796875
z: -0.006093717645853758
","x: 208.23876953125
y: 488.8733215332031
z: -0.007439531851559877
","x: 205.42587280273438
y: 491.3714599609375
z: -0.008741913363337517
","x: 203.3944091796875
y: 492.7718811035156
z: -0.009014059789478779
","x: 201.77488708496094
y: 493.8188171386719
z: -0.009070470929145813
",,,,,,,,,,,,,,,,,,,,,
7,"x: 220.87127685546875
y: 335.42816162109375
z: -0.544340193271637
visibility: 0.9999898672103882
","x: 220.02127075195312
y: 328.72601318359375
z: -0.531372606754303
visibility: 0.9999639391899109
","x: 219.9386444091797
y: 327.7348327636719
z: -0.5314127206802368
visibility: 0.9999609589576721
","x: 220.6647186279297
y: 326.61187744140625
z: -0.5315403938293457
visibility: 0.9999586343765259
","x: 218.55812072753906
y: 329.6819763183594
z: -0.5396072864532471
visibility: 0.9999585151672363
","x: 217.39276123046875
y: 329.51611328125
z: -0.5396918654441833
visibility: 0.9999584555625916
","x: 215.84933471679688
y: 329.2552490234375
z: -0.5397516489028931
visibility: 0.9999460577964783
","x: 222.64239501953125
y: 324.01336669921875
z: -0.4143153131008148
visibility: 0.9999039769172668
","x: 211.67762756347656
y: 327.73541259765625
z: -0.44925618171691895
visibility: 0.9999541640281677
","x: 221.0797576904297
y: 338.2712097167969
z: -0.49598607420921326
visibility: 0.9999895095825195
","x: 218.413818359375
y: 340.62469482421875
z: -0.506297767162323
visibility: 0.9999879598617554
","x: 234.32373046875
y: 344.6434326171875
z: -0.2651042938232422
visibility: 0.9999914765357971
","x: 199.089111328125
y: 357.749267578125
z: -0.34916239976882935
visibility: 0.9999803900718689
","x: 242.0625457763672
y: 386.108154296875
z: -0.22672763466835022
visibility: 0.9925313591957092
","x: 193.50997924804688
y: 414.4270324707031
z: -0.3514769375324249
visibility: 0.9832586050033569
","x: 256.30133056640625
y: 430.11907958984375
z: -0.3276363015174866
visibility: 0.9577715396881104
","x: 180.83132934570312
y: 453.42816162109375
z: -0.4040955901145935
visibility: 0.9570107460021973
","x: 260.8347473144531
y: 444.07421875
z: -0.3277703821659088
visibility: 0.8700593709945679
","x: 175.06790161132812
y: 465.13848876953125
z: -0.4261470437049866
visibility: 0.8503487706184387
","x: 258.5624084472656
y: 453.843505859375
z: -0.34450212121009827
visibility: 0.8753042221069336
","x: 176.19815063476562
y: 461.23046875
z: -0.4539947509765625
visibility: 0.8522501587867737
","x: 256.79132080078125
y: 448.8917236328125
z: -0.3159351050853729
visibility: 0.8212687969207764
","x: 178.04791259765625
y: 457.01959228515625
z: -0.41395431756973267
visibility: 0.8150190114974976
","x: 221.11941528320312
y: 410.77154541015625
z: 0.034078992903232574
visibility: 0.9997895956039429
","x: 201.190673828125
y: 407.87847900390625
z: -0.034104373306035995
visibility: 0.9990935921669006
","x: 223.37185668945312
y: 466.6235656738281
z: -0.11110217869281769
visibility: 0.9392595887184143
","x: 202.21267700195312
y: 464.8098449707031
z: -0.18333780765533447
visibility: 0.963234007358551
","x: 216.97329711914062
y: 539.602294921875
z: 0.002149020554497838
visibility: 0.9615809321403503
","x: 171.2459259033203
y: 517.9515380859375
z: -0.062224797904491425
visibility: 0.9706248641014099
","x: 212.99679565429688
y: 549.577880859375
z: 0.008291344158351421
visibility: 0.8787746429443359
","x: 161.57701110839844
y: 524.2891845703125
z: -0.0563020333647728
visibility: 0.8510898947715759
","x: 225.58177185058594
y: 557.8385620117188
z: -0.09634019434452057
visibility: 0.9540253281593323
","x: 172.5039520263672
y: 546.8880615234375
z: -0.17488855123519897
visibility: 0.9539955854415894
",,,,,,,,,,,,,,,,,,,,,,,,,,,,,,,,,,,,,,,,,,
8,"x: 223.1597442626953
y: 313.93963623046875
z: -0.4933933615684509
visibility: 0.999990701675415
","x: 223.05320739746094
y: 306.1526794433594
z: -0.4867759346961975
visibility: 0.9999664425849915
","x: 223.2642059326172
y: 305.22125244140625
z: -0.48678869009017944
visibility: 0.9999638199806213
","x: 223.67274475097656
y: 304.2004089355469
z: -0.48688778281211853
visibility: 0.9999614357948303
","x: 220.67147827148438
y: 307.1964111328125
z: -0.49759072065353394
visibility: 0.999961256980896
","x: 219.22039794921875
y: 307.0934753417969
z: -0.4976218640804291
visibility: 0.9999607801437378
","x: 217.56069946289062
y: 306.85931396484375
z: -0.49761930108070374
visibility: 0.9999486207962036
","x: 222.7587890625
y: 301.99420166015625
z: -0.38006389141082764
visibility: 0.9999118447303772
","x: 212.3289794921875
y: 305.4969482421875
z: -0.42685967683792114
visibility: 0.9999575614929199
","x: 223.50978088378906
y: 318.4239501953125
z: -0.44684165716171265
visibility: 0.99998939037323
","x: 220.1006317138672
y: 320.675537109375
z: -0.4603622853755951
visibility: 0.9999880790710449
","x: 234.38204956054688
y: 319.6291198730469
z: -0.24631646275520325
visibility: 0.9999920725822449
","x: 198.9954376220703
y: 331.1260986328125
z: -0.3452492356300354
visibility: 0.9999788403511047
","x: 249.65635681152344
y: 336.53424072265625
z: -0.2565671503543854
visibility: 0.9930887818336487
","x: 173.94442749023438
y: 351.445556640625
z: -0.3676895797252655
visibility: 0.984844446182251
","x: 275.0278015136719
y: 340.1580505371094
z: -0.3646174669265747
visibility: 0.9616953134536743
","x: 145.3251953125
y: 358.5896301269531
z: -0.4122646450996399
visibility: 0.9604867100715637
","x: 281.4853515625
y: 334.6537780761719
z: -0.3805947005748749
visibility: 0.8823010921478271
","x: 136.3495330810547
y: 354.6649169921875
z: -0.42574161291122437
visibility: 0.8624349236488342
","x: 281.7449645996094
y: 333.6395568847656
z: -0.4072217345237732
visibility: 0.8871874213218689
","x: 135.6862335205078
y: 353.9758605957031
z: -0.45956045389175415
visibility: 0.8645098805427551
","x: 279.2113037109375
y: 336.7507629394531
z: -0.3788261115550995
visibility: 0.8385246992111206
","x: 139.2139892578125
y: 356.87261962890625
z: -0.42696085572242737
visibility: 0.8310524225234985
","x: 219.9301300048828
y: 400.2864990234375
z: 0.035067178308963776
visibility: 0.9997525215148926
","x: 200.2288055419922
y: 400.7272033691406
z: -0.03512674570083618
visibility: 0.9989705085754395
","x: 223.97830200195312
y: 464.100830078125
z: 0.054361194372177124
visibility: 0.93329256772995
","x: 214.23130798339844
y: 462.05938720703125
z: -0.07774235308170319
visibility: 0.9633866548538208
","x: 218.35775756835938
y: 539.1856079101562
z: 0.15067607164382935
visibility: 0.9609692692756653
","x: 206.37454223632812
y: 527.5438232421875
z: 0.0118959816172719
visibility: 0.9725399613380432
","x: 214.38345336914062
y: 548.627197265625
z: 0.15305757522583008
visibility: 0.8787440657615662
","x: 205.69500732421875
y: 538.0382690429688
z: 0.015527392737567425
visibility: 0.8631826043128967
","x: 226.7406005859375
y: 557.8937377929688
z: 0.06333478540182114
visibility: 0.9553197026252747
","x: 202.10440063476562
y: 555.3865966796875
z: -0.08518557250499725
visibility: 0.9577122926712036
",,,,,,,,,,,,,,,,,,,,,,,,,,,,,,,,,,,,,,,,,,
9,"x: 222.4412841796875
y: 296.1002197265625
z: -0.37570106983184814
visibility: 0.9999915957450867
","x: 222.88087463378906
y: 289.319091796875
z: -0.3679482042789459
visibility: 0.9999695420265198
","x: 223.17416381835938
y: 288.70306396484375
z: -0.36795574426651
visibility: 0.9999672174453735
","x: 223.51608276367188
y: 288.0932312011719
z: -0.36803174018859863
visibility: 0.9999650120735168
","x: 220.0444793701172
y: 289.6187744140625
z: -0.38151970505714417
visibility: 0.9999647736549377
","x: 218.62533569335938
y: 289.246337890625
z: -0.3815462291240692
visibility: 0.9999642968177795
","x: 217.06320190429688
y: 288.81787109375
z: -0.38151171803474426
visibility: 0.9999531507492065
","x: 222.33914184570312
y: 286.34295654296875
z: -0.26566383242607117
visibility: 0.9999204277992249
","x: 212.1962127685547
y: 287.2518310546875
z: -0.3255283236503601
visibility: 0.9999616742134094
","x: 223.36016845703125
y: 300.3741149902344
z: -0.3311763405799866
visibility: 0.9999902844429016
","x: 219.59991455078125
y: 301.4271240234375
z: -0.34825390577316284
visibility: 0.9999891519546509
","x: 231.70834350585938
y: 303.7597351074219
z: -0.13770605623722076
visibility: 0.999992847442627
","x: 196.97657775878906
y: 312.38934326171875
z: -0.2751697599887848
visibility: 0.9999806880950928
","x: 249.87562561035156
y: 317.6025695800781
z: -0.1528664380311966
visibility: 0.9936985969543457
","x: 167.12367248535156
y: 317.541015625
z: -0.31361228227615356
visibility: 0.9863507747650146
","x: 266.9380798339844
y: 305.8541259765625
z: -0.29108840227127075
visibility: 0.9654511213302612
","x: 138.9734649658203
y: 318.7283630371094
z: -0.37009283900260925
visibility: 0.9643248915672302
","x: 273.735595703125
y: 300.36761474609375
z: -0.32036343216896057
visibility: 0.8938475251197815
","x: 128.5961151123047
y: 316.1559753417969
z: -0.38840916752815247
visibility: 0.8756354451179504
","x: 273.1551513671875
y: 298.5309143066406
z: -0.3823341429233551
visibility: 0.8982957601547241
","x: 127.22017669677734
y: 315.31292724609375
z: -0.43125995993614197
visibility: 0.8775874972343445
","x: 270.6094665527344
y: 300.8007507324219
z: -0.31527912616729736
visibility: 0.8544726371765137
","x: 130.7161102294922
y: 317.15167236328125
z: -0.3991626501083374
visibility: 0.8473934531211853
","x: 218.73321533203125
y: 394.4813232421875
z: 0.062040794640779495
visibility: 0.9997743964195251
","x: 200.17071533203125
y: 395.8642578125
z: -0.06207428500056267
visibility: 0.9990515112876892
","x: 224.80233764648438
y: 463.23748779296875
z: -0.03413565456867218
visibility: 0.9301601052284241
","x: 221.5374298095703
y: 460.1160888671875
z: -0.204169362783432
visibility: 0.9662899374961853
","x: 217.83087158203125
y: 538.9099731445312
z: 0.04809108003973961
visibility: 0.9619770050048828
","x: 198.94606018066406
y: 521.0573120117188
z: -0.13385595381259918
visibility: 0.9747924208641052
","x: 213.64205932617188
y: 548.8206787109375
z: 0.05123329907655716
visibility: 0.886120617389679
","x: 193.01162719726562
y: 526.1298217773438
z: -0.13042838871479034
visibility: 0.8746922016143799
","x: 228.8254852294922
y: 557.96923828125
z: -0.03819498419761658
visibility: 0.9571443200111389
","x: 200.7746124267578
y: 555.234130859375
z: -0.2125481814146042
visibility: 0.961397647857666
",,,,,,,,,,,,,,,,,,,,,,,,,,,,,,,,,,,,,,,,,,
10,"x: 215.4075927734375
y: 288.77099609375
z: -0.33824267983436584
visibility: 0.9999922513961792
","x: 216.41848754882812
y: 281.2515869140625
z: -0.32706767320632935
visibility: 0.9999720454216003
","x: 217.4066162109375
y: 280.5828857421875
z: -0.32709380984306335
visibility: 0.9999697804450989
","x: 218.32168579101562
y: 279.98651123046875
z: -0.327160507440567
visibility: 0.9999677538871765
","x: 212.65972900390625
y: 281.63653564453125
z: -0.3321540951728821
visibility: 0.999967634677887
","x: 211.2535400390625
y: 281.31884765625
z: -0.33218926191329956
visibility: 0.999967098236084
","x: 209.79649353027344
y: 281.04388427734375
z: -0.3321551978588104
visibility: 0.9999569654464722
","x: 218.68386840820312
y: 279.5499267578125
z: -0.2181158810853958
visibility: 0.9999275803565979
","x: 206.45301818847656
y: 281.10662841796875
z: -0.23934395611286163
visibility: 0.9999651312828064
","x: 217.1561737060547
y: 293.94281005859375
z: -0.2937218248844147
visibility: 0.9999909400939941
","x: 212.44570922851562
y: 294.5660705566406
z: -0.2998104393482208
visibility: 0.9999899864196777
","x: 228.4842987060547
y: 302.6100769042969
z: -0.1251794397830963
visibility: 0.999992847442627
","x: 191.7098388671875
y: 307.4662170410156
z: -0.1663268655538559
visibility: 0.9999812841415405
","x: 250.94793701171875
y: 302.8568115234375
z: -0.21404865384101868
visibility: 0.9938977360725403
","x: 161.9872589111328
y: 314.6982116699219
z: -0.17223884165287018
visibility: 0.9876741170883179
","x: 257.1973876953125
y: 304.53277587890625
z: -0.4063442349433899
visibility: 0.9667666554450989
","x: 136.2188262939453
y: 317.31591796875
z: -0.2405092418193817
visibility: 0.9673844575881958
","x: 258.9588317871094
y: 309.0758056640625
z: -0.44631439447402954
visibility: 0.8984216451644897
","x: 127.03012084960938
y: 316.52557373046875
z: -0.2597348690032959
visibility: 0.8862555027008057
","x: 265.8644714355469
y: 304.75372314453125
z: -0.45849114656448364
visibility: 0.902839720249176
","x: 126.50479125976562
y: 315.4453125
z: -0.29142266511917114
visibility: 0.8882622718811035
","x: 262.3540954589844
y: 305.5792236328125
z: -0.41789159178733826
visibility: 0.8630884289741516
","x: 129.48020935058594
y: 316.8519287109375
z: -0.25590980052948
visibility: 0.8607935905456543
","x: 218.959716796875
y: 401.26776123046875
z: 0.04023844748735428
visibility: 0.9997925162315369
","x: 198.7181854248047
y: 401.1151428222656
z: -0.04019607976078987
visibility: 0.9991364479064941
","x: 225.06153869628906
y: 469.9058837890625
z: -0.052185941487550735
visibility: 0.9365281462669373
","x: 201.79563903808594
y: 470.56591796875
z: -0.08128948509693146
visibility: 0.969477117061615
","x: 217.59764099121094
y: 539.9382934570312
z: 0.08598755300045013
visibility: 0.9650942087173462
","x: 176.73875427246094
y: 524.1735229492188
z: 0.031699538230895996
visibility: 0.9771162867546082
","x: 213.24032592773438
y: 550.777099609375
z: 0.09489505738019943
visibility: 0.895927369594574
","x: 173.97938537597656
y: 526.6416015625
z: 0.038748107850551605
visibility: 0.8838991522789001
","x: 229.5542449951172
y: 558.3336791992188
z: 0.008902131579816341
visibility: 0.9606178402900696
","x: 170.853759765625
y: 559.7681884765625
z: -0.05453737452626228
visibility: 0.9648326635360718
",,,,,,,,,,,,,,,,,,,,,,,,,,,,,,,,,,,,,,,,,,
11,"x: 209.0016632080078
y: 292.79376220703125
z: -0.1736534684896469
visibility: 0.9999922513961792
","x: 210.7708282470703
y: 284.9042053222656
z: -0.15886127948760986
visibility: 0.9999727010726929
","x: 212.32701110839844
y: 284.36187744140625
z: -0.15889543294906616
visibility: 0.9999701976776123
","x: 213.75941467285156
y: 283.8725891113281
z: -0.15895411372184753
visibility: 0.9999681115150452
","x: 206.62289428710938
y: 285.93133544921875
z: -0.1591293215751648
visibility: 0.9999691247940063
","x: 205.41661071777344
y: 286.2148132324219
z: -0.15915580093860626
visibility: 0.9999682903289795
","x: 204.05430603027344
y: 286.5713806152344
z: -0.15914325416088104
visibility: 0.9999595880508423
","x: 215.67935180664062
y: 284.096435546875
z: -0.0629788264632225
visibility: 0.9999323487281799
","x: 201.60565185546875
y: 287.31005859375
z: -0.061317045241594315
visibility: 0.9999677538871765
","x: 212.05906677246094
y: 298.8777770996094
z: -0.1367509365081787
visibility: 0.9999887943267822
","x: 206.74319458007812
y: 299.7704162597656
z: -0.13617487251758575
visibility: 0.9999887943267822
","x: 227.61428833007812
y: 310.88787841796875
z: -0.008877677842974663
visibility: 0.9999505877494812
","x: 189.75160217285156
y: 319.4198913574219
z: -0.01141856424510479
visibility: 0.9999584555625916
","x: 250.71424865722656
y: 293.20013427734375
z: -0.1136283427476883
visibility: 0.9920342564582825
","x: 163.95191955566406
y: 335.4112548828125
z: -0.04643191397190094
visibility: 0.9884548783302307
","x: 254.00076293945312
y: 286.4736022949219
z: -0.28699734807014465
visibility: 0.9612873196601868
","x: 142.42730712890625
y: 336.6418762207031
z: -0.15701304376125336
visibility: 0.9688978791236877
","x: 255.597900390625
y: 284.1143493652344
z: -0.32684922218322754
visibility: 0.8909404277801514
","x: 135.02503967285156
y: 336.1583251953125
z: -0.1804298758506775
visibility: 0.8920878767967224
","x: 255.63282775878906
y: 284.0459899902344
z: -0.33000296354293823
visibility: 0.8960323929786682
","x: 135.1057586669922
y: 334.27362060546875
z: -0.20046958327293396
visibility: 0.8944787979125977
","x: 253.9591827392578
y: 286.60943603515625
z: -0.2969323694705963
visibility: 0.8593286275863647
","x: 138.2886505126953
y: 335.1812438964844
z: -0.16942797601222992
visibility: 0.8694291710853577
","x: 217.72994995117188
y: 413.11029052734375
z: 0.003449792508035898
visibility: 0.9997895359992981
","x: 195.2439422607422
y: 410.5267333984375
z: -0.0033627196680754423
visibility: 0.9992008805274963
","x: 224.32713317871094
y: 480.566650390625
z: -0.20638830959796906
visibility: 0.9422469139099121
","x: 168.22767639160156
y: 469.49957275390625
z: -0.2116173952817917
visibility: 0.9723845720291138
","x: 216.7285919189453
y: 540.0907592773438
z: -0.05285114049911499
visibility: 0.9677107334136963
","x: 171.3614959716797
y: 533.8350219726562
z: -0.07028549164533615
visibility: 0.979172945022583
","x: 212.76812744140625
y: 551.3788452148438
z: -0.04331742972135544
visibility: 0.903458297252655
","x: 174.9210205078125
y: 544.4578247070312
z: -0.06141861528158188
visibility: 0.8934571146965027
","x: 227.78421020507812
y: 559.5521850585938
z: -0.14281240105628967
visibility: 0.9632217884063721
","x: 162.8343048095703
y: 562.8462524414062
z: -0.15872111916542053
visibility: 0.9677074551582336
",,,,,,,,,,,,,,,,,,,,,,,,,,,,,,,,,,,,,,,,,,
12,"x: 205.21188354492188
y: 290.0032958984375
z: -0.26791125535964966
visibility: 0.9999921917915344
","x: 207.2402801513672
y: 281.9969482421875
z: -0.2541215717792511
visibility: 0.9999712109565735
","x: 208.81500244140625
y: 281.2985534667969
z: -0.2541586458683014
visibility: 0.9999688267707825
","x: 210.35443115234375
y: 280.7193298339844
z: -0.2542293965816498
visibility: 0.999966025352478
","x: 203.41937255859375
y: 282.9649658203125
z: -0.2531373202800751
visibility: 0.9999691247940063
","x: 202.224609375
y: 282.9392395019531
z: -0.25318023562431335
visibility: 0.9999682307243347
","x: 200.9918975830078
y: 282.9291076660156
z: -0.25319939851760864
visibility: 0.9999604225158691
","x: 213.0091552734375
y: 281.22509765625
z: -0.1520296037197113
visibility: 0.9999336004257202
","x: 199.1648712158203
y: 282.74468994140625
z: -0.1457880437374115
visibility: 0.9999693632125854
","x: 207.99398803710938
y: 294.91802978515625
z: -0.22740764915943146
visibility: 0.9999876618385315
","x: 203.30218505859375
y: 295.6233825683594
z: -0.2258080244064331
visibility: 0.999988317489624
","x: 225.04833984375
y: 311.80303955078125
z: -0.08651677519083023
visibility: 0.999951183795929
","x: 188.2891845703125
y: 314.7179260253906
z: -0.05071905255317688
visibility: 0.999959409236908
","x: 251.22991943359375
y: 304.169921875
z: -0.18300214409828186
visibility: 0.9927823543548584
","x: 167.4970245361328
y: 349.45452880859375
z: 0.008856057189404964
visibility: 0.9881417751312256
","x: 253.05764770507812
y: 270.57794189453125
z: -0.34550365805625916
visibility: 0.9648809432983398
","x: 150.7568817138672
y: 358.07513427734375
z: -0.057790786027908325
visibility: 0.9697903990745544
","x: 253.61363220214844
y: 261.5030517578125
z: -0.3841981589794159
visibility: 0.9004326462745667
","x: 144.1927947998047
y: 359.1090087890625
z: -0.0752473920583725
visibility: 0.897270143032074
","x: 252.2529296875
y: 260.92156982421875
z: -0.38226208090782166
visibility: 0.9049572944641113
","x: 143.37857055664062
y: 356.2881774902344
z: -0.10506768524646759
visibility: 0.90012526512146
","x: 251.13401794433594
y: 264.3084716796875
z: -0.3510834574699402
visibility: 0.8712890148162842
","x: 145.80381774902344
y: 356.1504821777344
z: -0.0721038430929184
visibility: 0.8766602277755737
","x: 219.0857391357422
y: 413.54937744140625
z: -0.01778130978345871
visibility: 0.9997959733009338
","x: 196.7801513671875
y: 413.2371826171875
z: 0.01792066916823387
visibility: 0.9992786049842834
","x: 220.2229766845703
y: 485.4399108886719
z: -0.03672868758440018
visibility: 0.9472997188568115
","x: 168.76730346679688
y: 465.03167724609375
z: -0.17352035641670227
visibility: 0.9750063419342041
","x: 215.92349243164062
y: 540.4525146484375
z: 0.19377994537353516
visibility: 0.9696330428123474
","x: 171.87005615234375
y: 537.60986328125
z: -0.019418777897953987
visibility: 0.9810858368873596
","x: 212.40933227539062
y: 551.604248046875
z: 0.2110580950975418
visibility: 0.9039614796638489
","x: 176.13934326171875
y: 550.3013916015625
z: -0.010158883407711983
visibility: 0.9024562239646912
","x: 224.39109802246094
y: 559.9729614257812
z: 0.1083967536687851
visibility: 0.9655469655990601
","x: 160.51486206054688
y: 563.2152099609375
z: -0.12290991842746735
visibility: 0.9706175327301025
",,,,,,,,,,,,,,,,,,,,,,,,,,,,,,,,,,,,,,,,,,
13,"x: 200.92933654785156
y: 286.76507568359375
z: -0.3758840560913086
visibility: 0.999992847442627
","x: 202.9871826171875
y: 279.3069152832031
z: -0.3661612570285797
visibility: 0.9999734163284302
","x: 204.4650421142578
y: 278.5789794921875
z: -0.366169273853302
visibility: 0.999971330165863
","x: 205.94677734375
y: 277.833984375
z: -0.3662525415420532
visibility: 0.999968409538269
","x: 199.4482421875
y: 279.3944091796875
z: -0.36444583535194397
visibility: 0.9999716877937317
","x: 198.282470703125
y: 278.81829833984375
z: -0.36450594663619995
visibility: 0.9999709129333496
","x: 197.08102416992188
y: 278.2322998046875
z: -0.3645176291465759
visibility: 0.9999635815620422
","x: 208.70712280273438
y: 276.796630859375
z: -0.26646688580513
visibility: 0.9999395608901978
","x: 195.0532989501953
y: 277.2979431152344
z: -0.2518748641014099
visibility: 0.9999720454216003
","x: 202.91094970703125
y: 291.62298583984375
z: -0.33478063344955444
visibility: 0.9999886155128479
","x: 198.98953247070312
y: 291.6857604980469
z: -0.332227885723114
visibility: 0.9999892115592957
","x: 221.72447204589844
y: 305.89056396484375
z: -0.1617811620235443
visibility: 0.9999553561210632
","x: 184.40834045410156
y: 310.7860412597656
z: -0.13047921657562256
visibility: 0.9999631643295288
","x: 249.65589904785156
y: 324.8851013183594
z: -0.3278983235359192
visibility: 0.9934870600700378
","x: 170.4284210205078
y: 355.6456298828125
z: -0.0894538164138794
visibility: 0.9887661337852478
","x: 252.5658721923828
y: 278.6441650390625
z: -0.5044390559196472
visibility: 0.968299388885498
","x: 150.7304229736328
y: 370.0051574707031
z: -0.1696704477071762
visibility: 0.9722568988800049
","x: 253.340576171875
y: 266.9603271484375
z: -0.5463768243789673
visibility: 0.9099105596542358
","x: 144.2755889892578
y: 371.8101806640625
z: -0.18251514434814453
visibility: 0.9058984518051147
","x: 251.43617248535156
y: 265.37054443359375
z: -0.5429427027702332
visibility: 0.9139541387557983
","x: 144.0412139892578
y: 370.080810546875
z: -0.2178303301334381
visibility: 0.9086634516716003
","x: 250.350830078125
y: 269.1033630371094
z: -0.5087975263595581
visibility: 0.8833200335502625
","x: 146.08738708496094
y: 369.813232421875
z: -0.1858697235584259
visibility: 0.8873448371887207
","x: 223.28260803222656
y: 403.13433837890625
z: -0.03613395616412163
visibility: 0.9997982978820801
","x: 200.98117065429688
y: 407.80889892578125
z: 0.036295827478170395
visibility: 0.9993422031402588
","x: 218.95703125
y: 478.0525207519531
z: -0.1420539766550064
visibility: 0.9517219662666321
","x: 172.36207580566406
y: 463.41552734375
z: -0.09829577803611755
visibility: 0.9756554365158081
","x: 215.1304931640625
y: 540.723388671875
z: -0.032986197620630264
visibility: 0.9718567728996277
","x: 174.1623077392578
y: 541.52734375
z: -0.00195175816770643
visibility: 0.9823876023292542
","x: 211.26637268066406
y: 552.1138916015625
z: -0.03055373951792717
visibility: 0.910679042339325
","x: 176.29920959472656
y: 558.3233032226562
z: -0.0011611876543611288
visibility: 0.9101480841636658
","x: 221.707275390625
y: 559.1829833984375
z: -0.14914076030254364
visibility: 0.9679762721061707
","x: 156.5174102783203
y: 557.9302368164062
z: -0.11891156435012817
visibility: 0.9725151658058167
",,,,,,,,,,,,,,,,,,,,,,"x: 252.26332092285156
y: 277.9227600097656
z: 0.0
","x: 250.10134887695312
y: 273.3917236328125
z: 9.669257269706577e-05
","x: 248.7715301513672
y: 267.79010009765625
z: -0.00012817511742468923
","x: 248.3081817626953
y: 263.38970947265625
z: -0.0008771232678554952
","x: 247.94869995117188
y: 260.4171142578125
z: -0.0015945413615554571
","x: 250.4315185546875
y: 262.90234375
z: 0.0012367685558274388
","x: 250.31988525390625
y: 257.3315734863281
z: -6.3665356719866395e-06
","x: 250.3213653564453
y: 253.9400634765625
z: -0.0007493375451304018
","x: 250.30540466308594
y: 251.26670837402344
z: -0.001112096942961216
","x: 252.0511474609375
y: 262.76300048828125
z: -0.00014841720985714346
","x: 252.1055908203125
y: 256.93511962890625
z: -0.0013151804450899363
","x: 252.16131591796875
y: 253.21029663085938
z: -0.001960400491952896
","x: 252.1175537109375
y: 250.03421020507812
z: -0.002359826350584626
","x: 253.72804260253906
y: 263.559326171875
z: -0.0018458230188116431
","x: 254.16549682617188
y: 257.93487548828125
z: -0.003220963291823864
","x: 254.37203979492188
y: 254.41354370117188
z: -0.003733346238732338
","x: 254.44943237304688
y: 251.5428009033203
z: -0.003980549052357674
","x: 255.47250366210938
y: 265.25262451171875
z: -0.003701624693349004
","x: 256.1733703613281
y: 260.78741455078125
z: -0.004659561440348625
","x: 256.37530517578125
y: 257.96405029296875
z: -0.004894776735454798
","x: 256.4789733886719
y: 255.61325073242188
z: -0.004998876713216305
"
14,"x: 200.92933654785156
y: 286.76507568359375
z: -0.3758840560913086
visibility: 0.999992847442627
","x: 202.9871826171875
y: 279.3069152832031
z: -0.3661612570285797
visibility: 0.9999734163284302
","x: 204.4650421142578
y: 278.5789794921875
z: -0.366169273853302
visibility: 0.999971330165863
","x: 205.94677734375
y: 277.833984375
z: -0.3662525415420532
visibility: 0.999968409538269
","x: 199.4482421875
y: 279.3944091796875
z: -0.36444583535194397
visibility: 0.9999716877937317
","x: 198.282470703125
y: 278.81829833984375
z: -0.36450594663619995
visibility: 0.9999709129333496
","x: 197.08102416992188
y: 278.2322998046875
z: -0.3645176291465759
visibility: 0.9999635815620422
","x: 208.70712280273438
y: 276.796630859375
z: -0.26646688580513
visibility: 0.9999395608901978
","x: 195.0532989501953
y: 277.2979431152344
z: -0.2518748641014099
visibility: 0.9999720454216003
","x: 202.91094970703125
y: 291.62298583984375
z: -0.33478063344955444
visibility: 0.9999886155128479
","x: 198.98953247070312
y: 291.6857604980469
z: -0.332227885723114
visibility: 0.9999892115592957
","x: 221.72447204589844
y: 305.89056396484375
z: -0.1617811620235443
visibility: 0.9999553561210632
","x: 184.40834045410156
y: 310.7860412597656
z: -0.13047921657562256
visibility: 0.9999631643295288
","x: 249.65589904785156
y: 324.8851013183594
z: -0.3278983235359192
visibility: 0.9934870600700378
","x: 170.4284210205078
y: 355.6456298828125
z: -0.0894538164138794
visibility: 0.9887661337852478
","x: 252.5658721923828
y: 278.6441650390625
z: -0.5044390559196472
visibility: 0.968299388885498
","x: 150.7304229736328
y: 370.0051574707031
z: -0.1696704477071762
visibility: 0.9722568988800049
","x: 253.340576171875
y: 266.9603271484375
z: -0.5463768243789673
visibility: 0.9099105596542358
","x: 144.2755889892578
y: 371.8101806640625
z: -0.18251514434814453
visibility: 0.9058984518051147
","x: 251.43617248535156
y: 265.37054443359375
z: -0.5429427027702332
visibility: 0.9139541387557983
","x: 144.0412139892578
y: 370.080810546875
z: -0.2178303301334381
visibility: 0.9086634516716003
","x: 250.350830078125
y: 269.1033630371094
z: -0.5087975263595581
visibility: 0.8833200335502625
","x: 146.08738708496094
y: 369.813232421875
z: -0.1858697235584259
visibility: 0.8873448371887207
","x: 223.28260803222656
y: 403.13433837890625
z: -0.03613395616412163
visibility: 0.9997982978820801
","x: 200.98117065429688
y: 407.80889892578125
z: 0.036295827478170395
visibility: 0.9993422031402588
","x: 218.95703125
y: 478.0525207519531
z: -0.1420539766550064
visibility: 0.9517219662666321
","x: 172.36207580566406
y: 463.41552734375
z: -0.09829577803611755
visibility: 0.9756554365158081
","x: 215.1304931640625
y: 540.723388671875
z: -0.032986197620630264
visibility: 0.9718567728996277
","x: 174.1623077392578
y: 541.52734375
z: -0.00195175816770643
visibility: 0.9823876023292542
","x: 211.26637268066406
y: 552.1138916015625
z: -0.03055373951792717
visibility: 0.910679042339325
","x: 176.29920959472656
y: 558.3233032226562
z: -0.0011611876543611288
visibility: 0.9101480841636658
","x: 221.707275390625
y: 559.1829833984375
z: -0.14914076030254364
visibility: 0.9679762721061707
","x: 156.5174102783203
y: 557.9302368164062
z: -0.11891156435012817
visibility: 0.9725151658058167
",,,,,,,,,,,,,,,,,,,,,,"x: 252.26332092285156
y: 277.9227600097656
z: 0.0
","x: 250.10134887695312
y: 273.3917236328125
z: 9.669257269706577e-05
","x: 248.7715301513672
y: 267.79010009765625
z: -0.00012817511742468923
","x: 248.3081817626953
y: 263.38970947265625
z: -0.0008771232678554952
","x: 247.94869995117188
y: 260.4171142578125
z: -0.0015945413615554571
","x: 250.4315185546875
y: 262.90234375
z: 0.0012367685558274388
","x: 250.31988525390625
y: 257.3315734863281
z: -6.3665356719866395e-06
","x: 250.3213653564453
y: 253.9400634765625
z: -0.0007493375451304018
","x: 250.30540466308594
y: 251.26670837402344
z: -0.001112096942961216
","x: 252.0511474609375
y: 262.76300048828125
z: -0.00014841720985714346
","x: 252.1055908203125
y: 256.93511962890625
z: -0.0013151804450899363
","x: 252.16131591796875
y: 253.21029663085938
z: -0.001960400491952896
","x: 252.1175537109375
y: 250.03421020507812
z: -0.002359826350584626
","x: 253.72804260253906
y: 263.559326171875
z: -0.0018458230188116431
","x: 254.16549682617188
y: 257.93487548828125
z: -0.003220963291823864
","x: 254.37203979492188
y: 254.41354370117188
z: -0.003733346238732338
","x: 254.44943237304688
y: 251.5428009033203
z: -0.003980549052357674
","x: 255.47250366210938
y: 265.25262451171875
z: -0.003701624693349004
","x: 256.1733703613281
y: 260.78741455078125
z: -0.004659561440348625
","x: 256.37530517578125
y: 257.96405029296875
z: -0.004894776735454798
","x: 256.4789733886719
y: 255.61325073242188
z: -0.004998876713216305
"
15,"x: 197.14988708496094
y: 289.46527099609375
z: -0.34095004200935364
visibility: 0.9999929666519165
","x: 199.3538818359375
y: 281.5772705078125
z: -0.33439213037490845
visibility: 0.9999719858169556
","x: 200.802978515625
y: 280.71173095703125
z: -0.3344169855117798
visibility: 0.9999709129333496
","x: 202.23233032226562
y: 279.8120422363281
z: -0.3344663977622986
visibility: 0.9999660849571228
","x: 195.86192321777344
y: 281.8334045410156
z: -0.32727423310279846
visibility: 0.9999710917472839
","x: 194.73507690429688
y: 281.27532958984375
z: -0.3273416757583618
visibility: 0.9999706745147705
","x: 193.5554962158203
y: 280.74591064453125
z: -0.3274022042751312
visibility: 0.9999629259109497
","x: 204.79397583007812
y: 278.10906982421875
z: -0.2461506873369217
visibility: 0.9999406933784485
","x: 191.99839782714844
y: 279.68035888671875
z: -0.21176712214946747
visibility: 0.9999721050262451
","x: 199.3773651123047
y: 293.6368103027344
z: -0.3036649227142334
visibility: 0.9999885559082031
","x: 195.4331817626953
y: 293.8628234863281
z: -0.2939300835132599
visibility: 0.9999891519546509
","x: 219.29371643066406
y: 305.3564147949219
z: -0.17716291546821594
visibility: 0.9999593496322632
","x: 183.94642639160156
y: 314.1036071777344
z: -0.08420080691576004
visibility: 0.9999663233757019
","x: 240.8639678955078
y: 334.90118408203125
z: -0.2923526167869568
visibility: 0.9940532445907593
","x: 171.70587158203125
y: 358.71380615234375
z: -0.05294734984636307
visibility: 0.9892109036445618
","x: 247.8380584716797
y: 294.55633544921875
z: -0.4659512937068939
visibility: 0.9712210297584534
","x: 150.23306274414062
y: 389.69122314453125
z: -0.12891796231269836
visibility: 0.9744942784309387
","x: 250.36837768554688
y: 283.845703125
z: -0.5029067397117615
visibility: 0.9179534912109375
","x: 143.778076171875
y: 396.1923828125
z: -0.13511058688163757
visibility: 0.9133406281471252
","x: 249.49404907226562
y: 280.62750244140625
z: -0.502428412437439
visibility: 0.9216375350952148
","x: 143.463134765625
y: 393.77850341796875
z: -0.16947515308856964
visibility: 0.9160894155502319
","x: 247.68350219726562
y: 284.1090087890625
z: -0.4712173342704773
visibility: 0.8936403393745422
","x: 145.51296997070312
y: 392.1917419433594
z: -0.14477954804897308
visibility: 0.8969518542289734
","x: 228.32888793945312
y: 398.04193115234375
z: -0.04870106652379036
visibility: 0.9997906684875488
","x: 208.99351501464844
y: 405.5435485839844
z: 0.04884953051805496
visibility: 0.999381959438324
","x: 217.6014404296875
y: 472.55194091796875
z: -0.13230179250240326
visibility: 0.9549299478530884
","x: 200.57376098632812
y: 466.525146484375
z: -0.03197507932782173
visibility: 0.9669374823570251
","x: 216.0997772216797
y: 540.6714477539062
z: -0.058723706752061844
visibility: 0.9729324579238892
","x: 177.21807861328125
y: 541.8275146484375
z: 0.03612913191318512
visibility: 0.9810910224914551
","x: 213.51345825195312
y: 552.80078125
z: -0.05973242595791817
visibility: 0.912423849105835
","x: 177.85366821289062
y: 558.5552368164062
z: 0.035798098891973495
visibility: 0.9129898548126221
","x: 210.75320434570312
y: 557.1983642578125
z: -0.16879400610923767
visibility: 0.9691677093505859
","x: 159.14886474609375
y: 542.490478515625
z: -0.0693339928984642
visibility: 0.9724106192588806
",,,,,,,,,,,,,,,,,,,,,,,,,,,,,,,,,,,,,,,,,,
16,"x: 197.96206665039062
y: 285.505615234375
z: -0.34769412875175476
visibility: 0.9999900460243225
","x: 199.36886596679688
y: 277.6205749511719
z: -0.3430395722389221
visibility: 0.999961256980896
","x: 200.6733856201172
y: 276.30914306640625
z: -0.34307941794395447
visibility: 0.999961793422699
","x: 202.034423828125
y: 275.0329895019531
z: -0.3431225121021271
visibility: 0.9999511241912842
","x: 195.8588409423828
y: 279.4763488769531
z: -0.3338478207588196
visibility: 0.9999619722366333
","x: 194.84423828125
y: 279.4003601074219
z: -0.33393457531929016
visibility: 0.999962329864502
","x: 193.7828826904297
y: 279.3204345703125
z: -0.3340192139148712
visibility: 0.9999537467956543
","x: 204.54833984375
y: 272.3305969238281
z: -0.2563169598579407
visibility: 0.999926745891571
","x: 192.53199768066406
y: 278.29156494140625
z: -0.21141430735588074
visibility: 0.9999651908874512
","x: 201.15097045898438
y: 289.0103759765625
z: -0.3105444610118866
visibility: 0.9999840259552002
","x: 196.70901489257812
y: 290.8646545410156
z: -0.2976424992084503
visibility: 0.9999852180480957
","x: 221.81268310546875
y: 293.8995361328125
z: -0.1849338710308075
visibility: 0.9999603629112244
","x: 186.37896728515625
y: 312.4804382324219
z: -0.08005356788635254
visibility: 0.9999690055847168
","x: 232.2214813232422
y: 338.46441650390625
z: -0.2839431166648865
visibility: 0.9928192496299744
","x: 181.1382598876953
y: 358.9548034667969
z: -0.0374101921916008
visibility: 0.9886394143104553
","x: 229.72544860839844
y: 315.02777099609375
z: -0.4643884301185608
visibility: 0.9702060222625732
","x: 161.10433959960938
y: 397.6036071777344
z: -0.13254711031913757
visibility: 0.97574383020401
","x: 230.14535522460938
y: 306.84075927734375
z: -0.5051642656326294
visibility: 0.9190255999565125
","x: 153.476806640625
y: 404.888916015625
z: -0.145858496427536
visibility: 0.9187074899673462
","x: 229.12612915039062
y: 301.7223815917969
z: -0.5102260112762451
visibility: 0.9223222136497498
","x: 151.67320251464844
y: 403.66387939453125
z: -0.1826617568731308
visibility: 0.9215571880340576
","x: 228.17015075683594
y: 304.8706359863281
z: -0.4713985323905945
visibility: 0.8936035633087158
","x: 154.1929931640625
y: 401.5499572753906
z: -0.14969773590564728
visibility: 0.9042648673057556
","x: 231.73228454589844
y: 391.0229797363281
z: -0.047618575394153595
visibility: 0.9997648596763611
","x: 211.34202575683594
y: 397.60595703125
z: 0.047787297517061234
visibility: 0.9994104504585266
","x: 221.35487365722656
y: 464.1914367675781
z: -0.13093537092208862
visibility: 0.9571351408958435
","x: 199.36170959472656
y: 463.3901672363281
z: -0.0289609432220459
visibility: 0.9636043906211853
","x: 217.45701599121094
y: 538.12890625
z: -0.05175630375742912
visibility: 0.9735152125358582
","x: 186.28903198242188
y: 540.6909790039062
z: 0.03889679163694382
visibility: 0.9802823066711426
","x: 214.6220703125
y: 551.4293212890625
z: -0.05251966044306755
visibility: 0.9132327437400818
","x: 188.392578125
y: 554.77587890625
z: 0.03839205577969551
visibility: 0.9159838557243347
","x: 213.40115356445312
y: 555.2500610351562
z: -0.1651364266872406
visibility: 0.9695740938186646
","x: 162.4451141357422
y: 543.0928955078125
z: -0.07007580250501633
visibility: 0.9724978804588318
",,,,,,,,,,,,,,,,,,,,,,,,,,,,,,,,,,,,,,,,,,
17,"x: 201.4196319580078
y: 271.32415771484375
z: -0.30656129121780396
visibility: 0.9999105334281921
","x: 203.43685913085938
y: 262.4020080566406
z: -0.30256423354148865
visibility: 0.999665379524231
","x: 204.75856018066406
y: 261.02911376953125
z: -0.30264002084732056
visibility: 0.9997149109840393
","x: 206.09349060058594
y: 259.722412109375
z: -0.3026900589466095
visibility: 0.9996280670166016
","x: 199.810546875
y: 264.3797912597656
z: -0.2910122871398926
visibility: 0.999704122543335
","x: 198.6766815185547
y: 264.45660400390625
z: -0.2910493016242981
visibility: 0.9996923804283142
","x: 197.50193786621094
y: 264.5323486328125
z: -0.2911422848701477
visibility: 0.9996702671051025
","x: 208.272216796875
y: 257.0563049316406
z: -0.22279083728790283
visibility: 0.9995291829109192
","x: 195.54791259765625
y: 263.5547790527344
z: -0.166025310754776
visibility: 0.9996021389961243
","x: 202.9747772216797
y: 275.5197448730469
z: -0.2722633481025696
visibility: 0.999875009059906
","x: 197.23861694335938
y: 277.8247375488281
z: -0.2558176815509796
visibility: 0.9998367428779602
","x: 224.86842346191406
y: 281.55072021484375
z: -0.17772400379180908
visibility: 0.9999496936798096
","x: 189.76365661621094
y: 297.443603515625
z: -0.04049414396286011
visibility: 0.9999568462371826
","x: 230.8771514892578
y: 325.8601379394531
z: -0.27233588695526123
visibility: 0.9881551265716553
","x: 191.4527130126953
y: 350.098388671875
z: 0.018880117684602737
visibility: 0.9750300049781799
","x: 222.17477416992188
y: 319.6925048828125
z: -0.45674842596054077
visibility: 0.9613181352615356
","x: 184.4752960205078
y: 394.5968017578125
z: -0.08534612506628036
visibility: 0.9703963994979858
","x: 220.88714599609375
y: 324.70513916015625
z: -0.5034983158111572
visibility: 0.9140785336494446
","x: 179.462158203125
y: 402.7811279296875
z: -0.10731349140405655
visibility: 0.9160042405128479
","x: 219.2698516845703
y: 311.97015380859375
z: -0.5165345668792725
visibility: 0.917252242565155
","x: 178.91110229492188
y: 402.76080322265625
z: -0.14392708241939545
visibility: 0.9193389415740967
","x: 218.910400390625
y: 306.2042541503906
z: -0.46604228019714355
visibility: 0.883931577205658
","x: 181.54551696777344
y: 399.6508483886719
z: -0.1028820052742958
visibility: 0.9024390578269958
","x: 229.71087646484375
y: 384.1443176269531
z: -0.05307574197649956
visibility: 0.9997304677963257
","x: 208.89871215820312
y: 387.1836853027344
z: 0.053171027451753616
visibility: 0.9994078874588013
","x: 221.51451110839844
y: 460.16680908203125
z: -0.12715333700180054
visibility: 0.9593468308448792
","x: 197.63571166992188
y: 457.56787109375
z: -0.032073646783828735
visibility: 0.9643176198005676
","x: 217.90516662597656
y: 529.1483154296875
z: -0.022319519892334938
visibility: 0.975286602973938
","x: 207.7526092529297
y: 524.774169921875
z: 0.11432032287120819
visibility: 0.9798702597618103
","x: 215.58570861816406
y: 542.192138671875
z: -0.018928851932287216
visibility: 0.9163089394569397
","x: 212.92465209960938
y: 534.4281616210938
z: 0.12270843982696533
visibility: 0.9179269671440125
","x: 214.86451721191406
y: 551.1212768554688
z: -0.1307918131351471
visibility: 0.9711317420005798
","x: 192.34254455566406
y: 545.2662353515625
z: 0.028396382927894592
visibility: 0.9725918769836426
",,,,,,,,,,,,,,,,,,,,,,,,,,,,,,,,,,,,,,,,,,
18,"x: 216.32049560546875
y: 263.6693420410156
z: -0.23302511870861053
visibility: 0.9998819828033447
","x: 217.45184326171875
y: 255.67420959472656
z: -0.21943581104278564
visibility: 0.9996183514595032
","x: 218.47518920898438
y: 254.89068603515625
z: -0.21949763596057892
visibility: 0.9996572136878967
","x: 219.4689178466797
y: 254.20309448242188
z: -0.21953153610229492
visibility: 0.9995744228363037
","x: 213.80474853515625
y: 256.44415283203125
z: -0.22057941555976868
visibility: 0.9996628761291504
","x: 212.208251953125
y: 256.19915771484375
z: -0.22062146663665771
visibility: 0.9996353983879089
","x: 210.60943603515625
y: 255.9014129638672
z: -0.22069516777992249
visibility: 0.9996274709701538
","x: 219.50462341308594
y: 253.3802032470703
z: -0.11332179605960846
visibility: 0.9993546009063721
","x: 206.91824340820312
y: 256.06927490234375
z: -0.11890566349029541
visibility: 0.9995116591453552
","x: 218.0243377685547
y: 269.2257385253906
z: -0.18985828757286072
visibility: 0.9998108744621277
","x: 213.18896484375
y: 271.01007080078125
z: -0.19138380885124207
visibility: 0.9997636079788208
","x: 230.90301513671875
y: 280.7376403808594
z: -0.05977026745676994
visibility: 0.9999471306800842
","x: 195.1078338623047
y: 287.2110900878906
z: -0.020024340599775314
visibility: 0.9999275207519531
","x: 231.57554626464844
y: 321.595947265625
z: -0.05804158374667168
visibility: 0.9806983470916748
","x: 195.15235900878906
y: 336.18878173828125
z: 0.014426390640437603
visibility: 0.971754789352417
","x: 221.81190490722656
y: 346.00323486328125
z: -0.19467642903327942
visibility: 0.9542794823646545
","x: 200.66244506835938
y: 378.65966796875
z: -0.09931422770023346
visibility: 0.9653292298316956
","x: 221.04083251953125
y: 360.8019714355469
z: -0.2319292575120926
visibility: 0.9104858636856079
","x: 199.3407745361328
y: 394.2897033691406
z: -0.12936873733997345
visibility: 0.9126603603363037
","x: 218.04550170898438
y: 354.55938720703125
z: -0.254951536655426
visibility: 0.9140079617500305
","x: 201.27899169921875
y: 395.4222106933594
z: -0.15759335458278656
visibility: 0.916401207447052
","x: 217.43441772460938
y: 350.5445861816406
z: -0.20589403808116913
visibility: 0.8792710900306702
","x: 202.6040496826172
y: 388.40496826171875
z: -0.11211518943309784
visibility: 0.8985397219657898
","x: 228.26405334472656
y: 382.8908996582031
z: -0.03823704645037651
visibility: 0.9997440576553345
","x: 207.7912139892578
y: 384.3312072753906
z: 0.0383622832596302
visibility: 0.9994192719459534
","x: 218.46621704101562
y: 457.0203857421875
z: -0.13775943219661713
visibility: 0.96088707447052
","x: 200.16140747070312
y: 459.0438232421875
z: -0.011709427461028099
visibility: 0.9596495032310486
","x: 218.30409240722656
y: 530.3381958007812
z: -0.0842776671051979
visibility: 0.9752004146575928
","x: 215.35525512695312
y: 504.2542724609375
z: 0.2376418560743332
visibility: 0.9429833889007568
","x: 218.1507568359375
y: 542.0111694335938
z: -0.08413106203079224
visibility: 0.9096452593803406
","x: 219.48060607910156
y: 504.8464660644531
z: 0.2598637044429779
visibility: 0.8831437826156616
","x: 216.34376525878906
y: 550.4334716796875
z: -0.1863960325717926
visibility: 0.9707608819007874
","x: 211.78262329101562
y: 533.0458374023438
z: 0.21298964321613312
visibility: 0.9418496489524841
",,,,,,,,,,,,,,,,,,,,,,,,,,,,,,,,,,,,,,,,,,
19,"x: 225.61328125
y: 267.8358154296875
z: -0.08368988335132599
visibility: 0.999767005443573
","x: 226.7728729248047
y: 260.45098876953125
z: -0.06448419392108917
visibility: 0.9994824528694153
","x: 227.27894592285156
y: 260.09564208984375
z: -0.06455067545175552
visibility: 0.999467670917511
","x: 227.7008819580078
y: 259.7945861816406
z: -0.0645972266793251
visibility: 0.999411940574646
","x: 224.2913055419922
y: 260.5088195800781
z: -0.08269884437322617
visibility: 0.9995624423027039
","x: 223.1077880859375
y: 260.09088134765625
z: -0.08271962404251099
visibility: 0.9995015859603882
","x: 221.78871154785156
y: 259.5333251953125
z: -0.08281012624502182
visibility: 0.999523937702179
","x: 224.9727325439453
y: 259.18206787109375
z: 0.04320691525936127
visibility: 0.9986844062805176
","x: 216.71267700195312
y: 257.6502685546875
z: -0.041835252195596695
visibility: 0.9994060397148132
","x: 225.10833740234375
y: 273.0234375
z: -0.04190587252378464
visibility: 0.9995869398117065
","x: 221.96029663085938
y: 273.11395263671875
z: -0.06636549532413483
visibility: 0.9996183514595032
","x: 230.85580444335938
y: 290.12750244140625
z: 0.10359469801187515
visibility: 0.999906063079834
","x: 196.0650177001953
y: 286.9793701171875
z: -0.015788163989782333
visibility: 0.9999130964279175
","x: 228.1200714111328
y: 327.91998291015625
z: 0.07850109785795212
visibility: 0.9039487242698669
","x: 192.88504028320312
y: 332.05560302734375
z: -0.050986867398023605
visibility: 0.971007764339447
","x: 227.6648406982422
y: 349.7462463378906
z: -0.10097895562648773
visibility: 0.9095085859298706
","x: 198.61058044433594
y: 364.84332275390625
z: -0.2257404327392578
visibility: 0.9649767279624939
","x: 229.35543823242188
y: 357.2972412109375
z: -0.13325782120227814
visibility: 0.8761107325553894
","x: 197.8546600341797
y: 376.5260314941406
z: -0.26461365818977356
visibility: 0.9153646230697632
","x: 226.62783813476562
y: 353.14459228515625
z: -0.15537981688976288
visibility: 0.8822841644287109
","x: 199.79769897460938
y: 376.10552978515625
z: -0.2731103003025055
visibility: 0.9188377261161804
","x: 226.20010375976562
y: 350.7270812988281
z: -0.11493456363677979
visibility: 0.8458513021469116
","x: 200.45413208007812
y: 370.6982421875
z: -0.2306334227323532
visibility: 0.8999963998794556
","x: 224.50282287597656
y: 384.2381286621094
z: 0.01949446089565754
visibility: 0.9997625946998596
","x: 204.02081298828125
y: 385.39935302734375
z: -0.019281620159745216
visibility: 0.9994617700576782
","x: 219.30911254882812
y: 459.53955078125
z: -0.10490639507770538
visibility: 0.9622616767883301
","x: 202.90016174316406
y: 460.4063720703125
z: -0.0497971773147583
visibility: 0.9571405649185181
","x: 217.65769958496094
y: 532.06396484375
z: -0.06312106549739838
visibility: 0.9717232584953308
","x: 211.12091064453125
y: 505.5947265625
z: 0.215463787317276
visibility: 0.8971721529960632
","x: 216.48670959472656
y: 544.0
z: -0.0626056045293808
visibility: 0.905136227607727
","x: 211.84353637695312
y: 507.60357666015625
z: 0.24019639194011688
visibility: 0.8293144106864929
","x: 221.99246215820312
y: 551.3115234375
z: -0.154627725481987
visibility: 0.968349814414978
","x: 211.7128143310547
y: 533.8521118164062
z: 0.19568410515785217
visibility: 0.9059888124465942
",,,,,,,,,,,,,,,,,,,,,,,,,,,,,,,,,,,,,,,,,,
20,"x: 220.6114959716797
y: 270.4705810546875
z: -0.29622358083724976
visibility: 0.9997788071632385
","x: 221.67225646972656
y: 262.6019287109375
z: -0.2832857072353363
visibility: 0.9995000958442688
","x: 222.49017333984375
y: 261.9427795410156
z: -0.2833395004272461
visibility: 0.9994834661483765
","x: 223.26397705078125
y: 261.25225830078125
z: -0.2833590805530548
visibility: 0.9994301795959473
","x: 218.6553192138672
y: 262.79644775390625
z: -0.2935435175895691
visibility: 0.9995667934417725
","x: 217.35618591308594
y: 262.2176513671875
z: -0.29358479380607605
visibility: 0.9995068311691284
","x: 215.9608612060547
y: 261.43182373046875
z: -0.29360389709472656
visibility: 0.9995240569114685
","x: 222.3644561767578
y: 259.2685241699219
z: -0.14943303167819977
visibility: 0.9987295866012573
","x: 212.0833282470703
y: 258.6758728027344
z: -0.21004410088062286
visibility: 0.9993964433670044
","x: 221.27346801757812
y: 275.55078125
z: -0.2447032630443573
visibility: 0.9995894432067871
","x: 217.6490020751953
y: 275.8186950683594
z: -0.2605263590812683
visibility: 0.9996204376220703
","x: 230.61318969726562
y: 290.37554931640625
z: -0.039039481431245804
visibility: 0.999907910823822
","x: 195.90972900390625
y: 289.1229553222656
z: -0.11209650337696075
visibility: 0.9999093413352966
","x: 231.27268981933594
y: 333.75311279296875
z: -0.08661510795354843
visibility: 0.909246027469635
","x: 184.85504150390625
y: 336.686767578125
z: -0.12580731511116028
visibility: 0.9726366996765137
","x: 256.4745178222656
y: 347.6683349609375
z: -0.2493535578250885
visibility: 0.9165827035903931
","x: 166.40126037597656
y: 352.65447998046875
z: -0.2919420003890991
visibility: 0.9676878452301025
","x: 262.4958190917969
y: 350.9869384765625
z: -0.2820875942707062
visibility: 0.8851504325866699
","x: 160.2404327392578
y: 357.0052795410156
z: -0.32295912504196167
visibility: 0.9222049117088318
","x: 263.1126708984375
y: 346.99017333984375
z: -0.2997296452522278
visibility: 0.8914567232131958
","x: 160.09474182128906
y: 351.407470703125
z: -0.35738077759742737
visibility: 0.9256384372711182
","x: 261.08441162109375
y: 345.8734436035156
z: -0.2629965841770172
visibility: 0.8581022620201111
","x: 161.92465209960938
y: 349.38397216796875
z: -0.30951568484306335
visibility: 0.9083247184753418
","x: 222.38832092285156
y: 384.80401611328125
z: 0.00653855362907052
visibility: 0.9997463226318359
","x: 201.10345458984375
y: 383.5338134765625
z: -0.00640473747625947
visibility: 0.9994516372680664
","x: 219.68394470214844
y: 458.9297790527344
z: -0.055381279438734055
visibility: 0.9647927284240723
","x: 194.8668670654297
y: 457.73779296875
z: -0.013853509910404682
visibility: 0.9604930281639099
","x: 217.0245819091797
y: 532.1639404296875
z: -0.01936907134950161
visibility: 0.9735768437385559
","x: 186.4143829345703
y: 512.299560546875
z: 0.1332637518644333
visibility: 0.905765950679779
","x: 215.12158203125
y: 546.253662109375
z: -0.02609170600771904
visibility: 0.9069479703903198
","x: 189.24717712402344
y: 517.9407348632812
z: 0.14415007829666138
visibility: 0.8343949913978577
","x: 222.2615203857422
y: 551.4679565429688
z: -0.15053795278072357
visibility: 0.9701894521713257
","x: 179.17330932617188
y: 537.4547119140625
z: 0.06616643071174622
visibility: 0.9132283329963684
",,,,,,,,,,,,,,,,,,,,,,,,,,,,,,,,,,,,,,,,,,
21,"x: 212.0618133544922
y: 271.48785400390625
z: -0.38407257199287415
visibility: 0.9997992515563965
","x: 212.4356689453125
y: 262.94647216796875
z: -0.3717798888683319
visibility: 0.9995445609092712
","x: 213.57302856445312
y: 261.9162292480469
z: -0.37180715799331665
visibility: 0.9995297789573669
","x: 214.53265380859375
y: 260.985595703125
z: -0.3718586564064026
visibility: 0.9994810223579407
","x: 208.697998046875
y: 264.91485595703125
z: -0.37372025847435
visibility: 0.9996033310890198
","x: 207.34593200683594
y: 265.1737365722656
z: -0.37381404638290405
visibility: 0.9995499849319458
","x: 205.9541015625
y: 265.3249816894531
z: -0.3738291561603546
visibility: 0.9995642304420471
","x: 215.38316345214844
y: 259.7563781738281
z: -0.2541842758655548
visibility: 0.9988446235656738
","x: 203.06724548339844
y: 264.11065673828125
z: -0.2641625702381134
visibility: 0.9994474053382874
","x: 215.0383758544922
y: 275.98907470703125
z: -0.33700770139694214
visibility: 0.9996253252029419
","x: 210.36831665039062
y: 278.270751953125
z: -0.33951354026794434
visibility: 0.999650776386261
","x: 230.31475830078125
y: 292.09112548828125
z: -0.11545632034540176
visibility: 0.999916136264801
","x: 190.24533081054688
y: 295.2148742675781
z: -0.16971299052238464
visibility: 0.9999145865440369
","x: 243.60594177246094
y: 332.92095947265625
z: -0.08543844521045685
visibility: 0.9178774356842041
","x: 168.38706970214844
y: 335.2261657714844
z: -0.1690811663866043
visibility: 0.975092351436615
","x: 273.011962890625
y: 339.2022399902344
z: -0.20570047199726105
visibility: 0.9244690537452698
","x: 144.27557373046875
y: 331.43487548828125
z: -0.31645476818084717
visibility: 0.9705494046211243
","x: 280.7403259277344
y: 337.2378234863281
z: -0.22663065791130066
visibility: 0.8953715562820435
","x: 136.26400756835938
y: 333.37835693359375
z: -0.3476473391056061
visibility: 0.9288966059684753
","x: 281.2505187988281
y: 333.47637939453125
z: -0.2663843035697937
visibility: 0.9013944268226624
","x: 136.1150360107422
y: 328.7735290527344
z: -0.38156795501708984
visibility: 0.9321863055229187
","x: 279.3294677734375
y: 333.8366394042969
z: -0.2255767583847046
visibility: 0.8713057041168213
","x: 139.29708862304688
y: 328.39276123046875
z: -0.33454397320747375
visibility: 0.9164184331893921
","x: 219.5655517578125
y: 387.34429931640625
z: 0.016571369022130966
visibility: 0.9997406005859375
","x: 197.78648376464844
y: 385.8235168457031
z: -0.01660420186817646
visibility: 0.9994637966156006
","x: 217.54452514648438
y: 459.55340576171875
z: 0.041563235223293304
visibility: 0.9667563438415527
","x: 184.65228271484375
y: 458.43011474609375
z: -0.06847169995307922
visibility: 0.9642399549484253
","x: 217.0531005859375
y: 533.8331298828125
z: 0.1662997007369995
visibility: 0.9756179451942444
","x: 159.53724670410156
y: 515.0781860351562
z: 0.05879991129040718
visibility: 0.9142971634864807
","x: 214.7738800048828
y: 547.0634155273438
z: 0.17125491797924042
visibility: 0.907541811466217
","x: 154.2476348876953
y: 521.8139038085938
z: 0.06762153655290604
visibility: 0.8378722071647644
","x: 221.3892364501953
y: 555.2191772460938
z: 0.05918906256556511
visibility: 0.9719365239143372
","x: 163.99575805664062
y: 543.4169921875
z: -0.03180058300495148
visibility: 0.9206658005714417
",,,,,,,,,,,,,,,,,,,,,,,,,,,,,,,,,,,,,,,,,,
22,"x: 201.52874755859375
y: 276.86602783203125
z: -0.4221472144126892
visibility: 0.9998185038566589
","x: 202.47039794921875
y: 268.560302734375
z: -0.41280484199523926
visibility: 0.9995869994163513
","x: 203.77825927734375
y: 267.23211669921875
z: -0.4127773642539978
visibility: 0.9995736479759216
","x: 205.0574951171875
y: 265.82427978515625
z: -0.41280093789100647
visibility: 0.9995291829109192
","x: 198.8802032470703
y: 270.2406005859375
z: -0.41391950845718384
visibility: 0.999639630317688
","x: 197.67466735839844
y: 270.2805480957031
z: -0.4140211045742035
visibility: 0.9995923638343811
","x: 196.26174926757812
y: 270.2904052734375
z: -0.4140416979789734
visibility: 0.9996050000190735
","x: 206.9602508544922
y: 262.0794982910156
z: -0.3035309314727783
visibility: 0.9989498257637024
","x: 193.96084594726562
y: 268.45166015625
z: -0.310499906539917
visibility: 0.9994985461235046
","x: 203.81735229492188
y: 280.53765869140625
z: -0.37699419260025024
visibility: 0.9996610283851624
","x: 200.08583068847656
y: 281.5285339355469
z: -0.3790501654148102
visibility: 0.9996839761734009
","x: 222.69935607910156
y: 296.7871398925781
z: -0.17608067393302917
visibility: 0.999923825263977
","x: 183.48025512695312
y: 298.5708312988281
z: -0.21062636375427246
visibility: 0.9999223351478577
","x: 236.33847045898438
y: 346.30694580078125
z: -0.11054370552301407
visibility: 0.9252761006355286
","x: 169.92274475097656
y: 347.9297180175781
z: -0.17949178814888
visibility: 0.977077841758728
","x: 259.0839538574219
y: 385.21978759765625
z: -0.19542548060417175
visibility: 0.9304268956184387
","x: 154.8678741455078
y: 386.6207580566406
z: -0.27473241090774536
visibility: 0.9722908735275269
","x: 262.5595703125
y: 395.42669677734375
z: -0.21332517266273499
visibility: 0.9017301797866821
","x: 149.3949737548828
y: 402.14306640625
z: -0.30232399702072144
visibility: 0.93302321434021
","x: 261.7168884277344
y: 395.6372375488281
z: -0.2503098249435425
visibility: 0.907852053642273
","x: 149.77650451660156
y: 402.38140869140625
z: -0.33713310956954956
visibility: 0.93638014793396
","x: 260.3062744140625
y: 391.9479675292969
z: -0.21242961287498474
visibility: 0.8804218173027039
","x: 152.10597229003906
y: 397.29925537109375
z: -0.29104897379875183
visibility: 0.9215609431266785
","x: 215.28953552246094
y: 393.05462646484375
z: 0.011049717664718628
visibility: 0.9997567534446716
","x: 193.25807189941406
y: 390.51678466796875
z: -0.011120863258838654
visibility: 0.9995014667510986
","x: 212.4987030029297
y: 465.26190185546875
z: -0.0032090204767882824
visibility: 0.969318687915802
","x: 180.90870666503906
y: 466.96478271484375
z: -0.06508807837963104
visibility: 0.9674782752990723
","x: 216.96243286132812
y: 536.2747802734375
z: 0.12504540383815765
visibility: 0.9775599837303162
","x: 158.5360107421875
y: 521.3599243164062
z: 0.06748147308826447
visibility: 0.9219938516616821
","x: 214.9237823486328
y: 548.4453735351562
z: 0.13135476410388947
visibility: 0.9078810214996338
","x: 154.83157348632812
y: 527.9912719726562
z: 0.07794971764087677
visibility: 0.8369832634925842
","x: 221.27304077148438
y: 557.869140625
z: 0.018237970769405365
visibility: 0.9738256931304932
","x: 164.11618041992188
y: 547.203857421875
z: -0.017609406262636185
visibility: 0.9272564649581909
",,,,,,,,,,,,,,,,,,,,,,,,,,,,,,,,,,,,,,,,,,
23,"x: 194.93325805664062
y: 283.677978515625
z: -0.39731934666633606
visibility: 0.9998355507850647
","x: 196.0643310546875
y: 275.248779296875
z: -0.38713982701301575
visibility: 0.9996241927146912
","x: 197.3673553466797
y: 274.40582275390625
z: -0.3871264159679413
visibility: 0.9996126294136047
","x: 198.652587890625
y: 273.65228271484375
z: -0.3871464729309082
visibility: 0.9995721578598022
","x: 193.07742309570312
y: 276.5389099121094
z: -0.3860798180103302
visibility: 0.999671220779419
","x: 191.99488830566406
y: 276.6529235839844
z: -0.3861742913722992
visibility: 0.999629557132721
","x: 190.9282684326172
y: 276.81341552734375
z: -0.3862118124961853
visibility: 0.9996405243873596
","x: 202.06382751464844
y: 273.8550109863281
z: -0.2868272662162781
visibility: 0.9990403652191162
","x: 189.8718719482422
y: 277.7917785644531
z: -0.2842855751514435
visibility: 0.9995419383049011
","x: 197.94497680664062
y: 289.53240966796875
z: -0.3569653332233429
visibility: 0.9996926784515381
","x: 194.44464111328125
y: 289.350341796875
z: -0.35630834102630615
visibility: 0.9997137188911438
","x: 219.05642700195312
y: 312.4058837890625
z: -0.18287329375743866
visibility: 0.9999305009841919
","x: 178.96798706054688
y: 316.30621337890625
z: -0.19573447108268738
visibility: 0.9999293088912964
","x: 224.0122833251953
y: 370.31451416015625
z: -0.11442194879055023
visibility: 0.9318942427635193
","x: 171.85452270507812
y: 371.66180419921875
z: -0.15467014908790588
visibility: 0.9788205027580261
","x: 224.76979064941406
y: 418.7994384765625
z: -0.2051444947719574
visibility: 0.9356681704521179
","x: 165.7120819091797
y: 419.5355529785156
z: -0.2295178920030594
visibility: 0.9729426503181458
","x: 226.7327880859375
y: 431.583251953125
z: -0.2294744998216629
visibility: 0.9072014093399048
","x: 166.13845825195312
y: 432.59527587890625
z: -0.25661522150039673
visibility: 0.9346979856491089
","x: 223.929931640625
y: 431.9273376464844
z: -0.257120817899704
visibility: 0.9131015539169312
","x: 167.7513885498047
y: 432.1150207519531
z: -0.28568369150161743
visibility: 0.938065230846405
","x: 222.4638671875
y: 427.1507263183594
z: -0.21704962849617004
visibility: 0.8871551752090454
","x: 168.41928100585938
y: 428.26116943359375
z: -0.24155640602111816
visibility: 0.9234200119972229
","x: 211.73863220214844
y: 403.96337890625
z: 0.014220235869288445
visibility: 0.9997754693031311
","x: 190.39266967773438
y: 404.3701477050781
z: -0.014329369179904461
visibility: 0.9995474815368652
","x: 211.97413635253906
y: 473.0357666015625
z: 0.04903382062911987
visibility: 0.970288872718811
","x: 179.76170349121094
y: 475.0384826660156
z: -0.06563042849302292
visibility: 0.9702654480934143
","x: 216.77052307128906
y: 537.14697265625
z: 0.2127654105424881
visibility: 0.9787365198135376
","x: 158.79415893554688
y: 525.8009643554688
z: 0.062242768704891205
visibility: 0.9290269613265991
","x: 215.0189666748047
y: 549.1337890625
z: 0.22356295585632324
visibility: 0.9069961905479431
","x: 155.12713623046875
y: 533.4479370117188
z: 0.0704943984746933
visibility: 0.8338030576705933
","x: 221.10113525390625
y: 558.8111572265625
z: 0.12494846433401108
visibility: 0.9747312068939209
","x: 162.61668395996094
y: 549.11474609375
z: -0.03960249572992325
visibility: 0.9331896901130676
",,,,,,,,,,,,,,,,,,,,,,,,,,,,,,,,,,,,,,,,,,
24,"x: 197.21035766601562
y: 274.16241455078125
z: -0.40386825799942017
visibility: 0.9998471736907959
","x: 198.73280334472656
y: 264.70086669921875
z: -0.3942362368106842
visibility: 0.9996504187583923
","x: 200.30056762695312
y: 263.6391296386719
z: -0.3942486345767975
visibility: 0.9996408820152283
","x: 201.8181610107422
y: 262.7352600097656
z: -0.3942970037460327
visibility: 0.9996040463447571
","x: 195.125
y: 267.108642578125
z: -0.38845294713974
visibility: 0.9996906518936157
","x: 194.14366149902344
y: 267.6153869628906
z: -0.3885156214237213
visibility: 0.9996529221534729
","x: 193.2446746826172
y: 268.18017578125
z: -0.38854819536209106
visibility: 0.9996613264083862
","x: 204.99752807617188
y: 263.0630187988281
z: -0.28868287801742554
visibility: 0.9991136193275452
","x: 192.69895935058594
y: 269.2674560546875
z: -0.2636467218399048
visibility: 0.9995642304420471
","x: 201.05816650390625
y: 279.2862243652344
z: -0.36055904626846313
visibility: 0.9997193813323975
","x: 196.1748504638672
y: 280.5722961425781
z: -0.3525482714176178
visibility: 0.9997358918190002
","x: 221.4458770751953
y: 298.02435302734375
z: -0.19195544719696045
visibility: 0.9999362230300903
","x: 182.75477600097656
y: 310.3816833496094
z: -0.1531790941953659
visibility: 0.9999333024024963
","x: 229.45767211914062
y: 361.0362243652344
z: -0.21967455744743347
visibility: 0.937637448310852
","x: 177.39727783203125
y: 365.452392578125
z: -0.06462833285331726
visibility: 0.977173924446106
","x: 213.27268981933594
y: 384.8260498046875
z: -0.3822776675224304
visibility: 0.9388511776924133
","x: 182.39236450195312
y: 401.3908386230469
z: -0.14479103684425354
visibility: 0.9631646871566772
","x: 209.1206817626953
y: 390.6374816894531
z: -0.42243701219558716
visibility: 0.9094191193580627
","x: 183.9451446533203
y: 415.3226013183594
z: -0.17040054500102997
visibility: 0.9195464849472046
","x: 206.5690155029297
y: 395.2596740722656
z: -0.4360997676849365
visibility: 0.9149216413497925
","x: 185.5455322265625
y: 415.39117431640625
z: -0.19881980121135712
visibility: 0.9229312539100647
","x: 207.64183044433594
y: 393.78472900390625
z: -0.3893928825855255
visibility: 0.886642575263977
","x: 185.68934631347656
y: 410.6133728027344
z: -0.1570155769586563
visibility: 0.9043053388595581
","x: 213.6279296875
y: 398.5235900878906
z: -0.0014806247781962156
visibility: 0.9997865557670593
","x: 193.2143096923828
y: 398.5098571777344
z: 0.0014155276585370302
visibility: 0.9995802044868469
","x: 214.06875610351562
y: 472.7722473144531
z: -0.009055177681148052
visibility: 0.9726998805999756
","x: 183.52645874023438
y: 464.6942138671875
z: -0.040286533534526825
visibility: 0.9729914665222168
","x: 216.832763671875
y: 538.0386962890625
z: 0.1480858027935028
visibility: 0.9804083108901978
","x: 165.1527557373047
y: 521.0364990234375
z: 0.12956544756889343
visibility: 0.9356080889701843
","x: 214.78726196289062
y: 550.1306762695312
z: 0.15767431259155273
visibility: 0.9073976874351501
","x: 163.81057739257812
y: 529.117919921875
z: 0.14074769616127014
visibility: 0.8382291197776794
","x: 221.060791015625
y: 559.8786010742188
z: 0.03747524321079254
visibility: 0.9762929677963257
","x: 162.76663208007812
y: 548.4862670898438
z: 0.024249251931905746
visibility: 0.9390142560005188
",,,,,,,,,,,,,,,,,,,,,,,,,,,,,,,,,,,,,,,,,,
25,"x: 198.44955444335938
y: 257.06011962890625
z: -0.22116605937480927
visibility: 0.9998603463172913
","x: 200.94863891601562
y: 248.82310485839844
z: -0.2087693214416504
visibility: 0.9996799826622009
","x: 202.843505859375
y: 248.07244873046875
z: -0.2088245451450348
visibility: 0.999671220779419
","x: 205.08737182617188
y: 247.35537719726562
z: -0.2088610678911209
visibility: 0.9996378421783447
","x: 196.72329711914062
y: 250.63192749023438
z: -0.20188669860363007
visibility: 0.9997154474258423
","x: 195.5819091796875
y: 251.14199829101562
z: -0.20187130570411682
visibility: 0.9996786713600159
","x: 194.44384765625
y: 251.68240356445312
z: -0.20192615687847137
visibility: 0.9996849298477173
","x: 210.081298828125
y: 247.6656494140625
z: -0.11095505952835083
visibility: 0.9991884231567383
","x: 196.09149169921875
y: 253.22340393066406
z: -0.0773487538099289
visibility: 0.9995979070663452
","x: 204.1822052001953
y: 262.2022705078125
z: -0.18207722902297974
visibility: 0.9997453689575195
","x: 198.8129425048828
y: 263.52947998046875
z: -0.17244508862495422
visibility: 0.999758243560791
","x: 227.1500701904297
y: 281.093994140625
z: -0.05040546506643295
visibility: 0.9999414086341858
","x: 189.89044189453125
y: 289.9088439941406
z: 0.015069822780787945
visibility: 0.999936044216156
","x: 231.6485137939453
y: 335.214599609375
z: -0.17115767300128937
visibility: 0.9433830976486206
","x: 187.1700897216797
y: 336.3057861328125
z: 0.08825652301311493
visibility: 0.9722656011581421
","x: 208.96466064453125
y: 310.87933349609375
z: -0.3394179940223694
visibility: 0.9444109797477722
","x: 191.32275390625
y: 364.98004150390625
z: 0.006417959928512573
visibility: 0.9587587118148804
","x: 203.1102752685547
y: 303.28900146484375
z: -0.38127797842025757
visibility: 0.9171501398086548
","x: 192.08981323242188
y: 380.6732482910156
z: -0.012567177414894104
visibility: 0.914230465888977
","x: 203.4376983642578
y: 299.0686950683594
z: -0.38124364614486694
visibility: 0.922073245048523
","x: 194.18893432617188
y: 380.5164794921875
z: -0.0423283651471138
visibility: 0.9174613952636719
","x: 205.04164123535156
y: 301.0812683105469
z: -0.3422219753265381
visibility: 0.895158052444458
","x: 194.42431640625
y: 374.6211242675781
z: -0.006209679879248142
visibility: 0.8967931270599365
","x: 220.30982971191406
y: 386.7280578613281
z: -0.011384227313101292
visibility: 0.9998055100440979
","x: 198.0901641845703
y: 386.02655029296875
z: 0.011373656801879406
visibility: 0.9996147155761719
","x: 220.72384643554688
y: 465.3404541015625
z: -0.09238184988498688
visibility: 0.9749636650085449
","x: 194.4304962158203
y: 463.31097412109375
z: 0.0073984540067613125
visibility: 0.9751654267311096
","x: 216.91799926757812
y: 536.9541015625
z: 0.002217154484242201
visibility: 0.9819523692131042
","x: 195.232177734375
y: 511.4521484375
z: 0.2814812958240509
visibility: 0.9376915693283081
","x: 214.84451293945312
y: 549.2327270507812
z: 0.0059441979974508286
visibility: 0.910814106464386
","x: 198.54946899414062
y: 517.2667236328125
z: 0.30471494793891907
visibility: 0.8339927792549133
","x: 220.329345703125
y: 559.7362060546875
z: -0.11611352115869522
visibility: 0.9780077934265137
","x: 188.84632873535156
y: 541.6842041015625
z: 0.23454931378364563
visibility: 0.9412646889686584
",,,,,,,,,,,,,,,,,,,,,,,,,,,,,,,,,,,,,,,,,,
26,"x: 211.94174194335938
y: 253.93545532226562
z: -0.12068358808755875
visibility: 0.9998737573623657
","x: 215.1550750732422
y: 247.3568115234375
z: -0.10769478231668472
visibility: 0.9997109770774841
","x: 216.80218505859375
y: 247.59812927246094
z: -0.1077365130186081
visibility: 0.9997029304504395
","x: 218.4957733154297
y: 247.8826141357422
z: -0.10777918249368668
visibility: 0.9996730089187622
","x: 210.8427734375
y: 246.66917419433594
z: -0.10185232013463974
visibility: 0.9997427463531494
","x: 209.52224731445312
y: 246.44338989257812
z: -0.10183093696832657
visibility: 0.999708890914917
","x: 208.38668823242188
y: 246.28121948242188
z: -0.10186072438955307
visibility: 0.999714732170105
","x: 221.93988037109375
y: 250.07806396484375
z: -0.01346561312675476
visibility: 0.9992663860321045
","x: 208.13941955566406
y: 247.3162841796875
z: 0.012715600430965424
visibility: 0.9996368288993835
","x: 215.82778930664062
y: 260.1181335449219
z: -0.08302728086709976
visibility: 0.9997704029083252
","x: 210.33053588867188
y: 259.4081726074219
z: -0.07554809004068375
visibility: 0.9997819066047668
","x: 233.76759338378906
y: 282.3587646484375
z: 0.02695075236260891
visibility: 0.9999468922615051
","x: 195.99337768554688
y: 281.369140625
z: 0.0949057787656784
visibility: 0.9999420642852783
","x: 232.4685516357422
y: 334.341796875
z: -0.09302403032779694
visibility: 0.9481432437896729
","x: 189.29006958007812
y: 328.9434509277344
z: 0.15172800421714783
visibility: 0.9719677567481995
","x: 215.40707397460938
y: 298.77587890625
z: -0.3124125599861145
visibility: 0.9495930671691895
","x: 191.19007873535156
y: 367.7337646484375
z: 0.07611911743879318
visibility: 0.959896445274353
","x: 211.9661407470703
y: 287.96075439453125
z: -0.34489700198173523
visibility: 0.9247279167175293
","x: 190.2405548095703
y: 381.9229736328125
z: 0.05824354290962219
visibility: 0.9170357584953308
","x: 212.70729064941406
y: 283.513427734375
z: -0.35701578855514526
visibility: 0.9291400909423828
","x: 192.74107360839844
y: 381.3772277832031
z: 0.03219453990459442
visibility: 0.9201286435127258
","x: 213.64942932128906
y: 286.8014221191406
z: -0.328973650932312
visibility: 0.9041836261749268
","x: 193.69007873535156
y: 376.36541748046875
z: 0.06460775434970856
visibility: 0.9001753926277161
","x: 226.14224243164062
y: 383.5668640136719
z: -0.015110368840396404
visibility: 0.9998244643211365
","x: 204.13980102539062
y: 383.47344970703125
z: 0.015127548947930336
visibility: 0.9996519088745117
","x: 225.72796630859375
y: 462.9630126953125
z: -0.11857280880212784
visibility: 0.9762668609619141
","x: 204.6804656982422
y: 466.50506591796875
z: -0.013814108446240425
visibility: 0.9764692783355713
","x: 218.63987731933594
y: 536.5394287109375
z: -0.020662326365709305
visibility: 0.9824838042259216
","x: 220.71754455566406
y: 501.6021728515625
z: 0.26212936639785767
visibility: 0.9227094650268555
","x: 215.2043914794922
y: 548.681396484375
z: -0.014237520284950733
visibility: 0.9092994332313538
","x: 224.99684143066406
y: 503.01806640625
z: 0.292194664478302
visibility: 0.8144906759262085
","x: 220.365478515625
y: 559.5220336914062
z: -0.11664725840091705
visibility: 0.9786456227302551
","x: 220.5409698486328
y: 531.216552734375
z: 0.25508564710617065
visibility: 0.9299522638320923
",,,,,,,,,,,,,,,,,,,,,,,,,,,,,,,,,,,,,,,,,,
27,"x: 223.7938232421875
y: 261.7393798828125
z: -0.1449621021747589
visibility: 0.9998860955238342
","x: 227.0327911376953
y: 254.6631622314453
z: -0.13111643493175507
visibility: 0.9997391104698181
","x: 228.4130859375
y: 254.54620361328125
z: -0.13114959001541138
visibility: 0.9997317790985107
