uscmakers/ReverseChoreography/data/4_skeletons_keshi.csv
,NOSE,LEFT_EYE_INNER,LEFT_EYE,LEFT_EYE_OUTER,RIGHT_EYE_INNER,RIGHT_EYE,RIGHT_EYE_OUTER,LEFT_EAR,RIGHT_EAR,MOUTH_LEFT,MOUTH_RIGHT,LEFT_SHOULDER,RIGHT_SHOULDER,LEFT_ELBOW,RIGHT_ELBOW,LEFT_WRIST,RIGHT_WRIST,LEFT_PINKY,RIGHT_PINKY,LEFT_INDEX,RIGHT_INDEX,LEFT_THUMB,RIGHT_THUMB,LEFT_HIP,RIGHT_HIP,LEFT_KNEE,RIGHT_KNEE,LEFT_ANKLE,RIGHT_ANKLE,LEFT_HEEL,RIGHT_HEEL,LEFT_FOOT_INDEX,RIGHT_FOOT_INDEX,WRIST,THUMB_CPC,THUMB_MCP,THUMB_IP,THUMB_TIP,INDEX_FINGER_MCP,INDEX_FINGER_PIP,INDEX_FINGER_DIP,INDEX_FINGER_TIP,MIDDLE_FINGER_MCP,MIDDLE_FINGER_PIP,MIDDLE_FINGER_DIP,MIDDLE_FINGER_TIP,RING_FINGER_PIP,RING_FINGER_DIP,RING_FINGER_TIP,RING_FINGER_MCP,PINKY_MCP,PINKY_PIP,PINKY_DIP,PINKY_TIP,WRIST2,THUMB_CPC2,THUMB_MCP2,THUMB_IP2,THUMB_TIP2,INDEX_FINGER_MCP2,INDEX_FINGER_PIP2,INDEX_FINGER_DIP2,INDEX_FINGER_TIP2,MIDDLE_FINGER_MCP2,MIDDLE_FINGER_PIP2,MIDDLE_FINGER_DIP2,MIDDLE_FINGER_TIP2,RING_FINGER_PIP2,RING_FINGER_DIP2,RING_FINGER_TIP2,RING_FINGER_MCP2,PINKY_MCP2,PINKY_PIP2,PINKY_DIP2,PINKY_TIP2
0,"x: 225.9688262939453
y: 266.56439208984375
z: 0.013208277523517609
visibility: 0.9999885559082031
","x: 225.4353790283203
y: 259.42535400390625
z: 0.02755015529692173
visibility: 0.9999719858169556
","x: 225.29734802246094
y: 258.87750244140625
z: 0.02757880464196205
visibility: 0.9999630451202393
","x: 225.1483154296875
y: 258.26531982421875
z: 0.02759455516934395
visibility: 0.9999674558639526
","x: 224.8970947265625
y: 258.90966796875
z: -0.0012363037094473839
visibility: 0.9999834299087524
","x: 224.36846923828125
y: 258.166015625
z: -0.001286895014345646
visibility: 0.9999876022338867
","x: 223.82374572753906
y: 257.4539794921875
z: -0.0013461470371112227
visibility: 0.9999876022338867
","x: 221.29953002929688
y: 256.4996032714844
z: 0.10238387435674667
visibility: 0.9999237060546875
","x: 219.74742126464844
y: 257.0102844238281
z: -0.02971011772751808
visibility: 0.999991774559021
","x: 225.03121948242188
y: 271.88531494140625
z: 0.04312882572412491
visibility: 0.9999322891235352
","x: 223.8452606201172
y: 271.26483154296875
z: 0.004582962021231651
visibility: 0.9999463558197021
","x: 221.81497192382812
y: 286.2466735839844
z: 0.17845416069030762
visibility: 0.9999148845672607
","x: 212.2606658935547
y: 290.9227600097656
z: -0.10159303992986679
visibility: 0.999990701675415
","x: 242.04637145996094
y: 266.98590087890625
z: 0.20598430931568146
visibility: 0.6388260722160339
","x: 229.01742553710938
y: 334.1029052734375
z: -0.12099181115627289
visibility: 0.995647132396698
","x: 221.27783203125
y: 251.76649475097656
z: 0.21134433150291443
visibility: 0.4498535394668579
","x: 256.139892578125
y: 326.8931884765625
z: -0.007004500832408667
visibility: 0.9640401601791382
","x: 217.03350830078125
y: 249.0687713623047
z: 0.207615926861763
visibility: 0.27218785881996155
","x: 263.58441162109375
y: 329.47943115234375
z: -0.006208336446434259
visibility: 0.9294860363006592
","x: 215.22816467285156
y: 251.25633239746094
z: 0.22130945324897766
visibility: 0.26853540539741516
","x: 264.2208557128906
y: 324.89141845703125
z: -0.0151040805503726
visibility: 0.9272271394729614
","x: 216.45066833496094
y: 253.3735809326172
z: 0.21342876553535461
visibility: 0.2765516936779022
","x: 261.6454772949219
y: 323.47381591796875
z: -0.004668037872761488
visibility: 0.8677451014518738
","x: 236.09713745117188
y: 386.65216064453125
z: 0.09036923199892044
visibility: 0.9998776912689209
","x: 222.42861938476562
y: 391.4314270019531
z: -0.09046030044555664
visibility: 0.9998652935028076
","x: 249.77110290527344
y: 458.879150390625
z: 0.09279164671897888
visibility: 0.9009142518043518
","x: 214.12013244628906
y: 468.3100891113281
z: -0.12944966554641724
visibility: 0.9953194260597229
","x: 258.3628234863281
y: 533.2262573242188
z: 0.15793415904045105
visibility: 0.9792940020561218
","x: 186.28868103027344
y: 533.0927734375
z: -0.11093969643115997
visibility: 0.9983094930648804
","x: 254.74417114257812
y: 551.6478271484375
z: 0.15979760885238647
visibility: 0.9654713869094849
","x: 178.8800048828125
y: 542.6520385742188
z: -0.11145824193954468
visibility: 0.9764317274093628
","x: 277.30377197265625
y: 551.7073364257812
z: 0.10571299493312836
visibility: 0.9779175519943237
","x: 198.4713134765625
y: 560.3424072265625
z: -0.18290768563747406
visibility: 0.9960131645202637
",,,,,,,,,,,,,,,,,,,,,,,,,,,,,,,,,,,,,,,,,,
1,"x: 212.92129516601562
y: 326.8154296875
z: -0.5764909982681274
visibility: 0.9999708533287048
","x: 214.82574462890625
y: 318.61981201171875
z: -0.5714297890663147
visibility: 0.9999492764472961
","x: 216.3218994140625
y: 317.8559265136719
z: -0.5713542699813843
visibility: 0.9999476671218872
","x: 217.80885314941406
y: 316.8984375
z: -0.5714861750602722
visibility: 0.9999481439590454
","x: 210.96322631835938
y: 318.23748779296875
z: -0.5698304772377014
visibility: 0.9999532699584961
","x: 209.69757080078125
y: 317.34503173828125
z: -0.5699573159217834
visibility: 0.9999611377716064
","x: 208.38040161132812
y: 316.42340087890625
z: -0.5699776411056519
visibility: 0.9999597072601318
","x: 219.9296875
y: 313.4601135253906
z: -0.4690231680870056
visibility: 0.9998973608016968
","x: 206.8905029296875
y: 313.3264465332031
z: -0.4611074924468994
visibility: 0.999977707862854
","x: 215.5023956298828
y: 331.974365234375
z: -0.5315994024276733
visibility: 0.9999205470085144
","x: 211.17408752441406
y: 331.4551086425781
z: -0.5298340916633606
visibility: 0.9999368786811829
","x: 234.12818908691406
y: 344.706298828125
z: -0.363167941570282
visibility: 0.999904453754425
","x: 195.9484100341797
y: 332.53033447265625
z: -0.2852434813976288
visibility: 0.9999833703041077
","x: 242.35806274414062
y: 387.4085693359375
z: -0.4751058518886566
visibility: 0.6703378558158875
","x: 174.18128967285156
y: 337.29730224609375
z: -0.15924285352230072
visibility: 0.9885473251342773
","x: 221.2840576171875
y: 390.7359619140625
z: -0.6431023478507996
visibility: 0.4831297993659973
","x: 159.20306396484375
y: 341.8935852050781
z: -0.08215112239122391
visibility: 0.9287514090538025
","x: 216.47036743164062
y: 388.010498046875
z: -0.6776306629180908
visibility: 0.31379738450050354
","x: 153.63137817382812
y: 337.9410095214844
z: -0.07384733855724335
visibility: 0.8781287670135498
","x: 215.0777130126953
y: 378.9904479980469
z: -0.6702393293380737
visibility: 0.3108319640159607
","x: 159.2197265625
y: 341.625244140625
z: -0.08849719911813736
visibility: 0.8772827982902527
","x: 216.36631774902344
y: 379.45172119140625
z: -0.6431787014007568
visibility: 0.2984582185745239
","x: 161.68283081054688
y: 343.62225341796875
z: -0.0851346105337143
visibility: 0.822380781173706
","x: 239.46182250976562
y: 401.43939208984375
z: -0.01451108604669571
visibility: 0.999817967414856
","x: 220.46763610839844
y: 405.5643310546875
z: 0.014641623012721539
visibility: 0.9998381733894348
","x: 256.1870422363281
y: 468.5438232421875
z: -0.08664341270923615
visibility: 0.9105966687202454
","x: 205.2280731201172
y: 468.3090515136719
z: -0.18820856511592865
visibility: 0.9954395294189453
","x: 280.0980224609375
y: 529.724853515625
z: 0.04101366177201271
visibility: 0.9812637567520142
","x: 192.79367065429688
y: 536.73291015625
z: -0.005926924757659435
visibility: 0.9981354475021362
","x: 284.28240966796875
y: 538.3121948242188
z: 0.04457051679491997
visibility: 0.9589879512786865
","x: 194.7455291748047
y: 546.785400390625
z: 0.004444127902388573
visibility: 0.973925769329071
","x: 278.2408752441406
y: 553.3623046875
z: -0.11217997968196869
visibility: 0.9797437787055969
","x: 190.33840942382812
y: 560.06201171875
z: -0.13249966502189636
visibility: 0.995732307434082
",,,,,,,,,,,,,,,,,,,,,,,,,,,,,,,,,,,,,,,,,,
2,"x: 212.93508911132812
y: 345.65313720703125
z: -0.499075710773468
visibility: 0.9999566674232483
","x: 214.71441650390625
y: 337.84783935546875
z: -0.5000581741333008
visibility: 0.9999277591705322
","x: 216.48388671875
y: 336.903564453125
z: -0.4999912679195404
visibility: 0.9999328851699829
","x: 218.23873901367188
y: 335.7373046875
z: -0.5001100301742554
visibility: 0.9999332427978516
","x: 210.50941467285156
y: 338.46917724609375
z: -0.4941357672214508
visibility: 0.9999160170555115
","x: 209.22515869140625
y: 338.1895446777344
z: -0.49425119161605835
visibility: 0.9999265670776367
","x: 207.9242401123047
y: 337.8113098144531
z: -0.49424877762794495
visibility: 0.9999194741249084
","x: 220.84986877441406
y: 331.6854553222656
z: -0.42193374037742615
visibility: 0.9998877644538879
","x: 206.8761444091797
y: 334.3620300292969
z: -0.3947182297706604
visibility: 0.9999434947967529
","x: 216.72833251953125
y: 350.69647216796875
z: -0.46233755350112915
visibility: 0.9999170303344727
","x: 212.11024475097656
y: 351.291015625
z: -0.45512303709983826
visibility: 0.9999231696128845
","x: 240.9488067626953
y: 358.61407470703125
z: -0.3244142234325409
visibility: 0.9999114274978638
","x: 200.960205078125
y: 351.6756896972656
z: -0.23991143703460693
visibility: 0.9999768733978271
","x: 250.1360626220703
y: 393.2284851074219
z: -0.3743487596511841
visibility: 0.7024536728858948
","x: 195.95314025878906
y: 367.3898010253906
z: -0.12835951149463654
visibility: 0.9433826804161072
","x: 227.8087615966797
y: 406.3267822265625
z: -0.4760480523109436
visibility: 0.5301096439361572
","x: 202.56610107421875
y: 392.0047302246094
z: -0.08789133280515671
visibility: 0.8608511686325073
","x: 221.13571166992188
y: 407.3721618652344
z: -0.5050874948501587
visibility: 0.37227925658226013
","x: 205.96759033203125
y: 393.32598876953125
z: -0.08613557368516922
visibility: 0.8102197051048279
","x: 219.8927001953125
y: 400.3689270019531
z: -0.49759531021118164
visibility: 0.3696877956390381
","x: 207.61387634277344
y: 391.200927734375
z: -0.10304157435894012
visibility: 0.8103060126304626
","x: 221.52011108398438
y: 400.2203063964844
z: -0.4729148745536804
visibility: 0.3496416509151459
","x: 208.23406982421875
y: 391.0013122558594
z: -0.0919460728764534
visibility: 0.7604694962501526
","x: 247.84228515625
y: 409.82000732421875
z: -0.024274412542581558
visibility: 0.999822199344635
","x: 226.06942749023438
y: 414.0372314453125
z: 0.024375295266509056
visibility: 0.9998354315757751
","x: 260.4429016113281
y: 479.647705078125
z: -0.06177579239010811
visibility: 0.9192229509353638
","x: 207.30056762695312
y: 473.7344055175781
z: -0.11874771118164062
visibility: 0.9952201843261719
","x: 281.26385498046875
y: 529.9373779296875
z: 0.09202157706022263
visibility: 0.9828404784202576
","x: 195.32052612304688
y: 536.5575561523438
z: 0.04003144055604935
visibility: 0.9976571798324585
","x: 285.4756164550781
y: 538.1785888671875
z: 0.09893342852592468
visibility: 0.9500396847724915
","x: 196.94277954101562
y: 546.5904541015625
z: 0.049933888018131256
visibility: 0.9696945548057556
","x: 278.4544677734375
y: 554.004150390625
z: -0.02037101797759533
visibility: 0.9808558821678162
","x: 189.98056030273438
y: 559.6941528320312
z: -0.05522415041923523
visibility: 0.9950911402702332
",,,,,,,,,,,,,,,,,,,,,,,,,,,,,,,,,,,,,,,,,,
3,"x: 212.94790649414062
y: 347.54888916015625
z: -0.4431307911872864
visibility: 0.9999580979347229
","x: 214.7025604248047
y: 340.7696838378906
z: -0.4488799571990967
visibility: 0.9999276399612427
","x: 216.372802734375
y: 340.1651306152344
z: -0.44874081015586853
visibility: 0.9999324083328247
","x: 218.10511779785156
y: 339.36041259765625
z: -0.4488050043582916
visibility: 0.9999329447746277
","x: 211.31329345703125
y: 340.6785583496094
z: -0.44230514764785767
visibility: 0.9999170899391174
","x: 210.4756622314453
y: 340.1074523925781
z: -0.4424195885658264
visibility: 0.9999278783798218
","x: 209.59744262695312
y: 339.47003173828125
z: -0.44235992431640625
visibility: 0.9999215006828308
","x: 221.61178588867188
y: 335.1846618652344
z: -0.386346697807312
visibility: 0.999894917011261
","x: 209.57583618164062
y: 335.39013671875
z: -0.35594069957733154
visibility: 0.9999430179595947
","x: 217.16522216796875
y: 352.4293518066406
z: -0.4115421772003174
visibility: 0.9999229907989502
","x: 213.09251403808594
y: 351.90008544921875
z: -0.40316668152809143
visibility: 0.9999257326126099
","x: 242.29371643066406
y: 348.60467529296875
z: -0.26896554231643677
visibility: 0.9999200105667114
","x: 202.58203125
y: 347.55352783203125
z: -0.21828849613666534
visibility: 0.9999780058860779
","x: 265.3550109863281
y: 347.0464782714844
z: -0.15036369860172272
visibility: 0.7320674061775208
","x: 189.94810485839844
y: 357.71734619140625
z: -0.07158352434635162
visibility: 0.9427074193954468
","x: 257.78900146484375
y: 381.179443359375
z: -0.08001013100147247
visibility: 0.5750676393508911
","x: 196.5933380126953
y: 394.261474609375
z: 0.0034888398367911577
visibility: 0.8574522137641907
","x: 254.8728790283203
y: 394.3356018066406
z: -0.048944905400276184
visibility: 0.42785507440567017
","x: 197.35006713867188
y: 403.9190979003906
z: 0.015679990872740746
visibility: 0.7965689301490784
","x: 252.1305389404297
y: 391.5356140136719
z: -0.06661871820688248
visibility: 0.42586204409599304
","x: 199.6775665283203
y: 402.333251953125
z: -0.006277445703744888
visibility: 0.7985509037971497
","x: 252.61404418945312
y: 387.2638244628906
z: -0.07327305525541306
visibility: 0.4050932824611664
","x: 200.29864501953125
y: 398.66400146484375
z: -0.0014401334337890148
visibility: 0.7534992098808289
","x: 250.829833984375
y: 410.6722412109375
z: -0.02134762890636921
visibility: 0.9998270273208618
","x: 229.8021240234375
y: 416.3693542480469
z: 0.021407421678304672
visibility: 0.9998123645782471
","x: 261.2925109863281
y: 479.26556396484375
z: -0.05020607262849808
visibility: 0.9267261028289795
","x: 208.2915496826172
y: 478.119384765625
z: -0.06556244194507599
visibility: 0.9939963817596436
","x: 283.0450744628906
y: 531.3099365234375
z: 0.03951115161180496
visibility: 0.9842299818992615
","x: 195.64358520507812
y: 536.4984741210938
z: 0.019110744819045067
visibility: 0.9967523217201233
","x: 287.2705383300781
y: 540.0661010742188
z: 0.04123559221625328
visibility: 0.9352948665618896
","x: 196.74581909179688
y: 546.2703857421875
z: 0.023083535954356194
visibility: 0.9642249345779419
","x: 278.152587890625
y: 554.3178100585938
z: -0.07684500515460968
visibility: 0.9815630316734314
","x: 190.9718017578125
y: 559.115478515625
z: -0.06590665131807327
visibility: 0.9942602515220642
",,,,,,,,,,,,,,,,,,,,,,,,,,,,,,,,,,,,,,,,,,
4,"x: 214.90342712402344
y: 352.843017578125
z: -0.43652820587158203
visibility: 0.9999616742134094
","x: 215.44654846191406
y: 346.0145568847656
z: -0.4459758400917053
visibility: 0.9999333620071411
","x: 218.55892944335938
y: 344.8727111816406
z: -0.4458627700805664
visibility: 0.9999371767044067
","x: 220.9528350830078
y: 343.48089599609375
z: -0.4459254741668701
visibility: 0.9999381899833679
","x: 213.6642608642578
y: 346.369873046875
z: -0.4432585835456848
visibility: 0.9999231696128845
","x: 212.8814697265625
y: 345.64501953125
z: -0.44336986541748047
visibility: 0.9999325275421143
","x: 212.0073699951172
y: 344.7899169921875
z: -0.44331830739974976
visibility: 0.9999269247055054
","x: 224.6619873046875
y: 336.6839904785156
z: -0.40258049964904785
visibility: 0.9999041557312012
","x: 210.8867645263672
y: 339.44287109375
z: -0.3890910744667053
visibility: 0.9999449253082275
","x: 219.33920288085938
y: 355.747314453125
z: -0.4114251732826233
visibility: 0.9999298453330994
","x: 213.63461303710938
y: 355.9552001953125
z: -0.4078037738800049
visibility: 0.9999307990074158
","x: 242.80511474609375
y: 345.64093017578125
z: -0.3076001703739166
visibility: 0.999927818775177
","x: 203.80465698242188
y: 348.50482177734375
z: -0.26433202624320984
visibility: 0.9999783039093018
","x: 267.9214172363281
y: 332.91766357421875
z: -0.25295424461364746
visibility: 0.7587786912918091
","x: 182.48387145996094
y: 351.8105773925781
z: -0.14605504274368286
visibility: 0.9476085901260376
","x: 288.7919921875
y: 353.92108154296875
z: -0.25751233100891113
visibility: 0.6170197129249573
","x: 165.03590393066406
y: 371.5819091796875
z: -0.0956534743309021
visibility: 0.8695278167724609
","x: 296.522216796875
y: 360.9414367675781
z: -0.2596648335456848
visibility: 0.4831642210483551
","x: 159.3766632080078
y: 377.61669921875
z: -0.08446739614009857
visibility: 0.8107084035873413
","x: 295.24664306640625
y: 364.6941833496094
z: -0.28632852435112
visibility: 0.48183467984199524
","x: 161.01904296875
y: 378.6752014160156
z: -0.11350282281637192
visibility: 0.8134955763816833
","x: 292.8331298828125
y: 363.4723205566406
z: -0.26717886328697205
visibility: 0.46298399567604065
","x: 163.350341796875
y: 376.8548583984375
z: -0.10527205467224121
visibility: 0.7734736800193787
","x: 251.31491088867188
y: 406.81622314453125
z: -0.02045663446187973
visibility: 0.9998122453689575
","x: 229.05868530273438
y: 415.29913330078125
z: 0.020396430045366287
visibility: 0.9997529983520508
","x: 261.808837890625
y: 477.068115234375
z: -0.018607106059789658
visibility: 0.9336370229721069
","x: 208.63247680664062
y: 479.918701171875
z: 0.025563504546880722
visibility: 0.993649959564209
","x: 282.1809997558594
y: 531.0372314453125
z: 0.09368859976530075
visibility: 0.9854136109352112
","x: 195.56353759765625
y: 536.399658203125
z: 0.1360902339220047
visibility: 0.9961150288581848
","x: 287.18511962890625
y: 539.2760009765625
z: 0.10667097568511963
visibility: 0.9240388870239258
","x: 196.62525939941406
y: 546.1014404296875
z: 0.14307767152786255
visibility: 0.9598595499992371
","x: 278.1944885253906
y: 553.4166870117188
z: 0.007908744737505913
visibility: 0.9820509552955627
","x: 190.91224670410156
y: 558.0723876953125
z: 0.0806269720196724
visibility: 0.9932699203491211
",,,,,,,,,,,,,,,,,,,,,,,,,,,,,,,,,,,,,,,,,,
5,"x: 214.70294189453125
y: 348.9195251464844
z: -0.45300808548927307
visibility: 0.9999613165855408
","x: 216.4142303466797
y: 341.782470703125
z: -0.45987874269485474
visibility: 0.9999322891235352
","x: 218.75038146972656
y: 340.736572265625
z: -0.45982247591018677
visibility: 0.9999330639839172
","x: 220.88101196289062
y: 339.4726867675781
z: -0.4599739909172058
visibility: 0.9999368786811829
","x: 213.1678466796875
y: 341.7200012207031
z: -0.45172634720802307
visibility: 0.9999154210090637
","x: 212.1100616455078
y: 340.7616882324219
z: -0.4518410265445709
visibility: 0.9999216794967651
","x: 210.98590087890625
y: 339.6028137207031
z: -0.4518233835697174
visibility: 0.9999178647994995
","x: 224.4610595703125
y: 334.9844665527344
z: -0.4220569133758545
visibility: 0.999907374382019
","x: 210.48866271972656
y: 334.17901611328125
z: -0.38226261734962463
visibility: 0.9999121427536011
","x: 218.80435180664062
y: 352.1692199707031
z: -0.43184080719947815
visibility: 0.9999299645423889
","x: 213.8910675048828
y: 352.1878356933594
z: -0.4205566942691803
visibility: 0.9999152421951294
","x: 243.15817260742188
y: 352.775390625
z: -0.3511679470539093
visibility: 0.9999330043792725
","x: 203.09779357910156
y: 348.9349670410156
z: -0.28061243891716003
visibility: 0.9999704360961914
","x: 271.06512451171875
y: 338.8241271972656
z: -0.3619855046272278
visibility: 0.7826546430587769
","x: 178.91136169433594
y: 345.45794677734375
z: -0.24346980452537537
visibility: 0.9513315558433533
","x: 299.5797119140625
y: 346.55816650390625
z: -0.4090971052646637
visibility: 0.6513919830322266
","x: 153.53533935546875
y: 351.09027099609375
z: -0.2576978802680969
visibility: 0.8748315572738647
","x: 308.21954345703125
y: 351.0455322265625
z: -0.4223804473876953
visibility: 0.5247232913970947
","x: 145.222412109375
y: 350.1415710449219
z: -0.26306968927383423
visibility: 0.8120210766792297
","x: 309.2619323730469
y: 354.60992431640625
z: -0.44907164573669434
visibility: 0.5251925587654114
","x: 144.5291290283203
y: 351.5505676269531
z: -0.2899037301540375
visibility: 0.8159703612327576
","x: 306.5753479003906
y: 353.9253234863281
z: -0.4221317172050476
visibility: 0.5084034204483032
","x: 147.74102783203125
y: 353.753662109375
z: -0.27030253410339355
visibility: 0.7833520770072937
","x: 249.55941772460938
y: 408.10357666015625
z: -0.03269341215491295
visibility: 0.999752402305603
","x: 228.10801696777344
y: 413.81610107421875
z: 0.032600175589323044
visibility: 0.9997162818908691
","x: 261.2522277832031
y: 477.3251953125
z: -0.010010003112256527
visibility: 0.9392621517181396
","x: 207.2895050048828
y: 478.7091369628906
z: 0.013351595029234886
visibility: 0.9919117093086243
","x: 281.64263916015625
y: 530.274658203125
z: 0.15986542403697968
visibility: 0.9857855439186096
","x: 195.37518310546875
y: 536.2822875976562
z: 0.11426117271184921
visibility: 0.9949226975440979
","x: 286.4527587890625
y: 537.7202758789062
z: 0.17392495274543762
visibility: 0.9095260500907898
","x: 197.96791076660156
y: 545.6281127929688
z: 0.1212826743721962
visibility: 0.9568192958831787
","x: 277.48944091796875
y: 553.116943359375
z: 0.0915079116821289
visibility: 0.9804213047027588
","x: 189.77992248535156
y: 558.1294555664062
z: 0.06142669916152954
visibility: 0.9911238551139832
",,,,,,,,,,,,,,,,,,,,,,,,,,,,,,,,,,,,,,,,,,
6,"x: 209.02853393554688
y: 344.2657165527344
z: -0.4159773290157318
visibility: 0.999957263469696
","x: 211.95297241210938
y: 337.77569580078125
z: -0.422879159450531
visibility: 0.9999082088470459
","x: 213.81138610839844
y: 336.98602294921875
z: -0.4228617250919342
visibility: 0.9999083280563354
","x: 215.6336212158203
y: 335.9258728027344
z: -0.42301541566848755
visibility: 0.9999148845672607
","x: 207.86004638671875
y: 336.1271667480469
z: -0.4122232496738434
visibility: 0.999856173992157
","x: 206.59686279296875
y: 333.80816650390625
z: -0.41233545541763306
visibility: 0.9998682737350464
","x: 205.41929626464844
y: 331.92681884765625
z: -0.412353515625
visibility: 0.9998623728752136
","x: 219.1627960205078
y: 330.5881042480469
z: -0.39632362127304077
visibility: 0.9998897910118103
","x: 205.21725463867188
y: 326.8245849609375
z: -0.3435613811016083
visibility: 0.9997976422309875
","x: 212.31756591796875
y: 347.1331481933594
z: -0.3994632363319397
visibility: 0.9999148845672607
","x: 207.8377227783203
y: 346.6734313964844
z: -0.38457247614860535
visibility: 0.9998421669006348
","x: 241.17547607421875
y: 352.3514404296875
z: -0.3355441689491272
visibility: 0.9999371767044067
","x: 194.40399169921875
y: 340.5001525878906
z: -0.26275721192359924
visibility: 0.9999616742134094
","x: 263.6101379394531
y: 347.45257568359375
z: -0.3421734571456909
visibility: 0.8042620420455933
","x: 168.95640563964844
y: 328.58172607421875
z: -0.2531755268573761
visibility: 0.9542564153671265
","x: 291.665771484375
y: 344.3251037597656
z: -0.3886011838912964
visibility: 0.6833195686340332
","x: 146.14202880859375
y: 317.70672607421875
z: -0.28786876797676086
visibility: 0.8816288709640503
","x: 300.1156311035156
y: 346.42022705078125
z: -0.4044472277164459
visibility: 0.565276026725769
","x: 138.440673828125
y: 314.767578125
z: -0.3010612726211548
visibility: 0.8179721832275391
","x: 301.2984924316406
y: 348.05615234375
z: -0.4329223036766052
visibility: 0.5671893954277039
","x: 138.28184509277344
y: 315.1707763671875
z: -0.3282400667667389
visibility: 0.8228506445884705
","x: 298.6921081542969
y: 347.9958801269531
z: -0.40385502576828003
visibility: 0.5517357587814331
","x: 141.3166046142578
y: 317.56854248046875
z: -0.30241045355796814
visibility: 0.796772301197052
","x: 242.5491180419922
y: 409.9319763183594
z: -0.04112618789076805
visibility: 0.9997473955154419
","x: 220.18917846679688
y: 416.6106872558594
z: 0.04108351469039917
visibility: 0.9997183084487915
","x: 257.8359069824219
y: 477.8622741699219
z: -0.08408422023057938
visibility: 0.9450730085372925
","x: 199.61439514160156
y: 477.9778747558594
z: -0.02539372444152832
visibility: 0.9906473159790039
","x: 280.8659973144531
y: 529.816162109375
z: 0.03999403491616249
visibility: 0.9870449304580688
","x: 195.41986083984375
y: 536.2028198242188
z: 0.12437950074672699
visibility: 0.9948210120201111
","x: 286.396240234375
y: 536.9998779296875
z: 0.047944940626621246
visibility: 0.9128892421722412
","x: 199.719970703125
y: 545.5365600585938
z: 0.1352437436580658
visibility: 0.9593359231948853
","x: 277.32489013671875
y: 553.2268676757812
z: -0.0499575175344944
visibility: 0.9818376898765564
","x: 188.35598754882812
y: 558.5558471679688
z: 0.06796064972877502
visibility: 0.9909077882766724
",,,,,,,,,,,,,,,,,,,,,,,,,,,,,,,,,,,,,,,,,,
7,"x: 195.46971130371094
y: 333.34722900390625
z: -0.49934425950050354
visibility: 0.9998151659965515
","x: 198.3386688232422
y: 326.0125732421875
z: -0.4996612071990967
visibility: 0.9993156790733337
","x: 199.6454315185547
y: 325.1063537597656
z: -0.49965429306030273
visibility: 0.9993064403533936
","x: 200.9649658203125
y: 324.0600280761719
z: -0.4998510777950287
visibility: 0.999371349811554
","x: 195.71823120117188
y: 325.1197509765625
z: -0.48584216833114624
visibility: 0.9981652498245239
","x: 195.11085510253906
y: 323.5235595703125
z: -0.48593831062316895
visibility: 0.9983046650886536
","x: 194.4873504638672
y: 322.24847412109375
z: -0.4859867990016937
visibility: 0.9984937310218811
","x: 204.85813903808594
y: 321.6365051269531
z: -0.44270390272140503
visibility: 0.999136209487915
","x: 195.5577392578125
y: 319.6042785644531
z: -0.3768552243709564
visibility: 0.9976544976234436
","x: 198.43482971191406
y: 336.51922607421875
z: -0.4733671247959137
visibility: 0.9996134042739868
","x: 195.08914184570312
y: 336.1651916503906
z: -0.454456090927124
visibility: 0.9988640546798706
","x: 223.17469787597656
y: 351.1142578125
z: -0.3628854751586914
visibility: 0.9999189376831055
","x: 185.53878784179688
y: 336.77978515625
z: -0.27145469188690186
visibility: 0.999923825263977
","x: 250.9303436279297
y: 364.53619384765625
z: -0.389606237411499
visibility: 0.8231920003890991
","x: 164.63075256347656
y: 308.5278625488281
z: -0.26756593585014343
visibility: 0.9553951025009155
","x: 278.96343994140625
y: 363.4464111328125
z: -0.4630102217197418
visibility: 0.7082517147064209
","x: 147.57785034179688
y: 275.07562255859375
z: -0.32392191886901855
visibility: 0.8900936245918274
","x: 288.01031494140625
y: 365.287353515625
z: -0.48795515298843384
visibility: 0.5943770408630371
","x: 143.06837463378906
y: 270.31048583984375
z: -0.3452501893043518
visibility: 0.8285844326019287
","x: 288.625732421875
y: 363.9248352050781
z: -0.5134546160697937
visibility: 0.5976203083992004
","x: 142.81317138671875
y: 269.9393005371094
z: -0.36894476413726807
visibility: 0.8326054811477661
","x: 285.86126708984375
y: 363.78826904296875
z: -0.4778553545475006
visibility: 0.5805835723876953
","x: 144.70474243164062
y: 271.88055419921875
z: -0.3379128873348236
visibility: 0.8097224235534668
","x: 228.21841430664062
y: 414.7852783203125
z: -0.03805909305810928
visibility: 0.9997152090072632
","x: 206.76345825195312
y: 420.3842468261719
z: 0.03800880163908005
visibility: 0.999727725982666
","x: 251.42901611328125
y: 478.37347412109375
z: -0.1320521980524063
visibility: 0.9499374628067017
","x: 188.7547607421875
y: 477.09521484375
z: -0.16516777873039246
visibility: 0.991127610206604
","x: 278.76177978515625
y: 529.0471801757812
z: 0.03538850322365761
visibility: 0.9881873726844788
","x: 194.85206604003906
y: 536.2627563476562
z: 0.054721713066101074
visibility: 0.9949001669883728
","x: 283.2542419433594
y: 534.1491088867188
z: 0.0447494275867939
visibility: 0.9139150381088257
","x: 199.94461059570312
y: 545.4576416015625
z: 0.05846334621310234
visibility: 0.9616268873214722
","x: 277.56158447265625
y: 553.72412109375
z: -0.09396852552890778
visibility: 0.9826390743255615
","x: 187.16998291015625
y: 559.5484008789062
z: -0.019826963543891907
visibility: 0.9907867908477783
",,,,,,,,,,,,,,,,,,,,,,,,,,,,,,,,,,,,,,,,,,
8,"x: 186.5287628173828
y: 332.76495361328125
z: -0.4888775944709778
visibility: 0.999828577041626
","x: 189.548095703125
y: 323.215576171875
z: -0.48049432039260864
visibility: 0.9993703961372375
","x: 190.82113647460938
y: 321.4776306152344
z: -0.48053184151649475
visibility: 0.9993606209754944
","x: 192.12948608398438
y: 320.00543212890625
z: -0.4806596338748932
visibility: 0.9994215369224548
","x: 186.82940673828125
y: 323.159912109375
z: -0.4700642228126526
visibility: 0.9983118772506714
","x: 186.15911865234375
y: 321.15594482421875
z: -0.4701596200466156
visibility: 0.9984331130981445
","x: 185.45777893066406
y: 319.7225646972656
z: -0.47019845247268677
visibility: 0.9986092448234558
","x: 195.80772399902344
y: 318.0594787597656
z: -0.39755409955978394
visibility: 0.9992000460624695
","x: 185.50108337402344
y: 315.87005615234375
z: -0.3504040241241455
visibility: 0.9978406429290771
","x: 188.566650390625
y: 332.9045104980469
z: -0.45557212829589844
visibility: 0.9996422529220581
","x: 185.2754669189453
y: 333.8798828125
z: -0.44193077087402344
visibility: 0.9989511966705322
","x: 210.70980834960938
y: 352.5936584472656
z: -0.3246036767959595
visibility: 0.9999228715896606
","x: 179.69992065429688
y: 334.5576477050781
z: -0.24293044209480286
visibility: 0.9999130964279175
","x: 236.88442993164062
y: 380.4236145019531
z: -0.3613206148147583
visibility: 0.8406914472579956
","x: 163.56138610839844
y: 288.5035095214844
z: -0.20816239714622498
visibility: 0.9568031430244446
","x: 268.1981506347656
y: 396.6691589355469
z: -0.4334779381752014
visibility: 0.7362568378448486
","x: 151.90000915527344
y: 257.1838073730469
z: -0.1846996545791626
visibility: 0.8997174501419067
","x: 275.1863098144531
y: 402.58349609375
z: -0.4567413926124573
visibility: 0.6319579482078552
","x: 148.04031372070312
y: 255.4207763671875
z: -0.19149553775787354
visibility: 0.8429972529411316
","x: 275.24163818359375
y: 402.7803039550781
z: -0.48297643661499023
visibility: 0.6353359818458557
","x: 147.98802185058594
y: 255.44869995117188
z: -0.20993594825267792
visibility: 0.846467912197113
","x: 272.805419921875
y: 400.862060546875
z: -0.44665947556495667
visibility: 0.6191770434379578
","x: 149.3934326171875
y: 256.35748291015625
z: -0.19216288626194
visibility: 0.8263162970542908
","x: 217.91432189941406
y: 416.5509033203125
z: -0.029110949486494064
visibility: 0.9997349977493286
","x: 197.83432006835938
y: 422.1888427734375
z: 0.029016172513365746
visibility: 0.9997528791427612
","x: 241.07699584960938
y: 479.2339782714844
z: -0.09960709512233734
visibility: 0.9547616243362427
","x: 182.4311065673828
y: 476.60418701171875
z: -0.1850675642490387
visibility: 0.9919375777244568
","x: 271.8624572753906
y: 527.8323974609375
z: 0.06887296587228775
visibility: 0.9892892241477966
","x: 194.48031616210938
y: 537.37646484375
z: 0.03870989382266998
visibility: 0.9953053593635559
","x: 273.797607421875
y: 532.158935546875
z: 0.07769140601158142
visibility: 0.9194153547286987
","x: 199.610107421875
y: 546.0866088867188
z: 0.05160897225141525
visibility: 0.9649000763893127
","x: 277.5699768066406
y: 553.1278076171875
z: -0.04675189033150673
visibility: 0.9838693141937256
","x: 185.9882049560547
y: 559.7554931640625
z: -0.04025091975927353
visibility: 0.9914301037788391
",,,,,,,,,,,,,,,,,,,,,,,,,,,,,,,,,,,,,,,,,,
9,"x: 177.27610778808594
y: 323.0538635253906
z: -0.4841589331626892
visibility: 0.9998446106910706
","x: 180.48663330078125
y: 314.88848876953125
z: -0.4798344671726227
visibility: 0.9994307160377502
","x: 181.7585906982422
y: 313.9123840332031
z: -0.4798707067966461
visibility: 0.9994218349456787
","x: 183.06515502929688
y: 312.79986572265625
z: -0.47996100783348083
visibility: 0.9994767904281616
","x: 177.88525390625
y: 314.17169189453125
z: -0.4643004536628723
visibility: 0.9984714984893799
","x: 177.36178588867188
y: 313.1246337890625
z: -0.4643927216529846
visibility: 0.9985779523849487
","x: 176.76837158203125
y: 312.0666809082031
z: -0.4643886089324951
visibility: 0.9987389445304871
","x: 187.513427734375
y: 313.75140380859375
z: -0.4118638038635254
visibility: 0.9992769956588745
","x: 177.6772918701172
y: 309.5205383300781
z: -0.34199029207229614
visibility: 0.9980440735816956
","x: 179.74420166015625
y: 326.7686462402344
z: -0.45618778467178345
visibility: 0.999676525592804
","x: 176.8312225341797
y: 325.9292907714844
z: -0.43592125177383423
visibility: 0.9990503787994385
","x: 200.95603942871094
y: 346.8855285644531
z: -0.37187108397483826
visibility: 0.9999302625656128
","x: 175.39889526367188
y: 326.4017333984375
z: -0.21355612576007843
visibility: 0.9999144077301025
","x: 221.63739013671875
y: 387.4990539550781
z: -0.43241173028945923
visibility: 0.8565820455551147
","x: 159.5904083251953
y: 274.827392578125
z: -0.1161016970872879
visibility: 0.9555418491363525
","x: 245.8988800048828
y: 425.1242370605469
z: -0.4898602366447449
visibility: 0.7623966336250305
","x: 141.3599090576172
y: 260.1128234863281
z: -0.05819500610232353
visibility: 0.9089864492416382
","x: 253.80581665039062
y: 436.73455810546875
z: -0.5192092657089233
visibility: 0.6679101586341858
","x: 135.2161865234375
y: 253.5298309326172
z: -0.058636635541915894
visibility: 0.8573963642120361
","x: 252.44642639160156
y: 439.4967041015625
z: -0.5401113629341125
visibility: 0.6710899472236633
","x: 138.31468200683594
y: 251.69308471679688
z: -0.07937800884246826
visibility: 0.8604772686958313
","x: 249.4420928955078
y: 435.3799133300781
z: -0.5001254081726074
visibility: 0.6562360525131226
","x: 140.35357666015625
y: 255.17742919921875
z: -0.06719990074634552
visibility: 0.8426464796066284
","x: 208.90695190429688
y: 417.5364990234375
z: -0.05475635081529617
visibility: 0.9997606873512268
","x: 190.7632598876953
y: 421.7541809082031
z: 0.05463777855038643
visibility: 0.9997771978378296
","x: 219.6119842529297
y: 489.2291259765625
z: -0.13749195635318756
visibility: 0.9591882824897766
","x: 180.76776123046875
y: 476.9154052734375
z: -0.05194684863090515
visibility: 0.9923795461654663
","x: 254.5826873779297
y: 525.7984008789062
z: 0.0035538834054023027
visibility: 0.9903181791305542
","x: 194.26528930664062
y: 538.7666625976562
z: 0.19714435935020447
visibility: 0.9956150054931641
","x: 257.5200500488281
y: 523.3560791015625
z: 0.01239104475826025
visibility: 0.9267228841781616
","x: 199.76710510253906
y: 546.7374877929688
z: 0.21543803811073303
visibility: 0.9678236842155457
","x: 266.718505859375
y: 551.344970703125
z: -0.08936233818531036
visibility: 0.9853482842445374
","x: 185.52392578125
y: 560.9659423828125
z: 0.13571877777576447
visibility: 0.9920182228088379
",,,,,,,,,,,,,,,,,,,,,,,,,,,,,,,,,,,,,,,,,,
10,"x: 176.92845153808594
y: 307.2381896972656
z: -0.42064404487609863
visibility: 0.9998592138290405
","x: 178.9368133544922
y: 300.30841064453125
z: -0.4170457422733307
visibility: 0.9994862079620361
","x: 180.3769073486328
y: 300.01947021484375
z: -0.4170488715171814
visibility: 0.9994779229164124
","x: 181.94332885742188
y: 299.58795166015625
z: -0.4171319603919983
visibility: 0.9995276927947998
","x: 175.94210815429688
y: 299.68243408203125
z: -0.41292113065719604
visibility: 0.9986203908920288
","x: 175.18434143066406
y: 299.1617736816406
z: -0.413036584854126
visibility: 0.9987136721611023
","x: 174.31105041503906
y: 298.6067810058594
z: -0.41304174065589905
visibility: 0.9988591074943542
","x: 186.87620544433594
y: 301.2421875
z: -0.35043275356292725
visibility: 0.9993479251861572
","x: 175.12802124023438
y: 298.9524230957031
z: -0.27741187810897827
visibility: 0.9982326030731201
","x: 180.97279357910156
y: 314.0970764160156
z: -0.3918437659740448
visibility: 0.9997073411941528
","x: 176.88343811035156
y: 312.5380859375
z: -0.3887696862220764
visibility: 0.9991412162780762
","x: 202.44140625
y: 342.4541015625
z: -0.2957485616207123
visibility: 0.999936580657959
","x: 172.6282501220703
y: 317.4478759765625
z: -0.1531086266040802
visibility: 0.99991774559021
","x: 215.64125061035156
y: 386.6214294433594
z: -0.31522074341773987
visibility: 0.870637059211731
","x: 157.5022430419922
y: 262.86444091796875
z: -0.07291080057621002
visibility: 0.9520546793937683
","x: 228.51634216308594
y: 428.8785400390625
z: -0.34834176301956177
visibility: 0.7846664190292358
","x: 154.25843811035156
y: 236.24571228027344
z: -0.02988489344716072
visibility: 0.9138282537460327
","x: 233.34483337402344
y: 441.4927978515625
z: -0.36750924587249756
visibility: 0.6985466480255127
","x: 149.07568359375
y: 233.0824432373047
z: -0.036170750856399536
visibility: 0.8651770353317261
","x: 231.33984375
y: 443.3302307128906
z: -0.38283413648605347
visibility: 0.7017902731895447
","x: 152.23289489746094
y: 230.77528381347656
z: -0.05144274979829788
visibility: 0.8678328394889832
","x: 229.16690063476562
y: 439.28857421875
z: -0.3558659255504608
visibility: 0.687676727771759
","x: 153.67616271972656
y: 238.42413330078125
z: -0.037670016288757324
visibility: 0.8535676598548889
","x: 205.66392517089844
y: 414.9164123535156
z: -0.05137168616056442
visibility: 0.9997841715812683
","x: 186.6483612060547
y: 420.0982666015625
z: 0.05126888304948807
visibility: 0.9997991919517517
","x: 201.4862823486328
y: 487.6347351074219
z: -0.11583886295557022
visibility: 0.9631236791610718
","x: 179.6277618408203
y: 479.4764709472656
z: -0.05466560274362564
visibility: 0.9927220344543457
","x: 234.5727081298828
y: 521.9339599609375
z: 0.03629324212670326
visibility: 0.9912037253379822
","x: 194.19082641601562
y: 538.9190673828125
z: 0.14690043032169342
visibility: 0.9957700371742249
","x: 240.16885375976562
y: 520.8399047851562
z: 0.047001875936985016
visibility: 0.932749330997467
","x: 199.7484130859375
y: 546.6810302734375
z: 0.16157090663909912
visibility: 0.9700049161911011
","x: 241.66860961914062
y: 550.565673828125
z: -0.04753680154681206
visibility: 0.9865803122520447
","x: 186.05538940429688
y: 562.3976440429688
z: 0.08215683698654175
visibility: 0.9924479722976685
",,,,,,,,,,,,,,,,,,,,,,,,,,,,,,,,,,,,,,,,,,
11,"x: 176.75906372070312
y: 300.8230895996094
z: -0.4096144139766693
visibility: 0.9998713731765747
","x: 178.67474365234375
y: 293.3456726074219
z: -0.40603432059288025
visibility: 0.9995330572128296
","x: 180.12953186035156
y: 293.5732421875
z: -0.40604478120803833
visibility: 0.9995247721672058
","x: 181.6752166748047
y: 293.5440979003906
z: -0.40607935190200806
visibility: 0.9995719790458679
","x: 175.84063720703125
y: 292.41046142578125
z: -0.3973376750946045
visibility: 0.9987447261810303
","x: 175.22341918945312
y: 292.02105712890625
z: -0.39743754267692566
visibility: 0.9988192319869995
","x: 174.5366973876953
y: 291.57464599609375
z: -0.39745235443115234
visibility: 0.9989571571350098
","x: 186.50628662109375
y: 295.98651123046875
z: -0.3461655378341675
visibility: 0.9994104504585266
","x: 175.88552856445312
y: 293.98822021484375
z: -0.2785497307777405
visibility: 0.9983842968940735
","x: 180.98348999023438
y: 309.36785888671875
z: -0.3841671943664551
visibility: 0.9997346997261047
","x: 176.7664031982422
y: 308.053955078125
z: -0.37150123715400696
visibility: 0.9992210268974304
","x: 204.04429626464844
y: 337.87506103515625
z: -0.3060131371021271
visibility: 0.999941349029541
","x: 170.55776977539062
y: 311.14898681640625
z: -0.17967040836811066
visibility: 0.9999208450317383
","x: 218.80703735351562
y: 381.46136474609375
z: -0.3308979272842407
visibility: 0.8834738731384277
","x: 154.67657470703125
y: 263.24639892578125
z: -0.16242732107639313
visibility: 0.956446647644043
","x: 221.01528930664062
y: 427.4570007324219
z: -0.3436889052391052
visibility: 0.805496335029602
","x: 152.35879516601562
y: 224.45037841796875
z: -0.17936143279075623
visibility: 0.9219070076942444
","x: 221.98828125
y: 439.7544860839844
z: -0.3631822168827057
visibility: 0.7275105118751526
","x: 151.15892028808594
y: 223.64984130859375
z: -0.2023828774690628
visibility: 0.8774954676628113
","x: 219.04779052734375
y: 440.30706787109375
z: -0.3789275586605072
visibility: 0.7306048274040222
","x: 152.3925323486328
y: 222.9989471435547
z: -0.2090386152267456
visibility: 0.879828691482544
","x: 218.16917419433594
y: 436.91632080078125
z: -0.34953492879867554
visibility: 0.7176065444946289
","x: 152.71640014648438
y: 223.4315185546875
z: -0.18768687546253204
visibility: 0.8672952055931091
","x: 203.601806640625
y: 413.0122375488281
z: -0.0393546000123024
visibility: 0.9998027682304382
","x: 183.7201690673828
y: 415.0680847167969
z: 0.03920162469148636
visibility: 0.9998180866241455
","x: 190.27731323242188
y: 479.03558349609375
z: -0.20113179087638855
visibility: 0.9666186571121216
","x: 177.25755310058594
y: 478.8403015136719
z: -0.1564788967370987
visibility: 0.9932484030723572
","x: 216.75633239746094
y: 516.897705078125
z: -0.015025235712528229
visibility: 0.9919072389602661
","x: 193.72802734375
y: 538.2030639648438
z: 0.020585350692272186
visibility: 0.9960330128669739
","x: 221.39141845703125
y: 516.6956176757812
z: -0.0006867158808745444
visibility: 0.938291072845459
","x: 198.988037109375
y: 546.1130981445312
z: 0.03241851553320885
visibility: 0.9724968075752258
","x: 215.60104370117188
y: 550.645263671875
z: -0.09215958416461945
visibility: 0.9875611066818237
","x: 186.15846252441406
y: 562.3118286132812
z: -0.05775408074259758
visibility: 0.9930013418197632
",,,,,,,,,,,,,,,,,,,,,,,,,,,,,,,,,,,,,,,,,,
12,"x: 178.15966796875
y: 298.58843994140625
z: -0.4027358591556549
visibility: 0.9998829960823059
","x: 180.5946044921875
y: 290.8318176269531
z: -0.3989659547805786
visibility: 0.9995766878128052
","x: 182.37339782714844
y: 290.7099609375
z: -0.3989717364311218
visibility: 0.9995684027671814
","x: 184.0775604248047
y: 290.5271301269531
z: -0.39903122186660767
visibility: 0.999612033367157
","x: 176.5682830810547
y: 290.9467468261719
z: -0.39687761664390564
visibility: 0.9988645911216736
","x: 175.61898803710938
y: 290.8896179199219
z: -0.39684179425239563
visibility: 0.998929500579834
","x: 174.7111358642578
y: 290.7452697753906
z: -0.3968713581562042
visibility: 0.9990554451942444
","x: 187.5675506591797
y: 291.7508239746094
z: -0.3335564136505127
visibility: 0.9994670748710632
","x: 175.35586547851562
y: 291.335205078125
z: -0.26712244749069214
visibility: 0.9985331892967224
","x: 182.69778442382812
y: 305.57086181640625
z: -0.37541040778160095
visibility: 0.9997602105140686
","x: 177.47019958496094
y: 305.138916015625
z: -0.3681977093219757
visibility: 0.9992954730987549
","x: 204.60621643066406
y: 328.342041015625
z: -0.2846439480781555
visibility: 0.999946117401123
","x: 169.3770294189453
y: 308.49066162109375
z: -0.18002186715602875
visibility: 0.999923050403595
","x: 226.49441528320312
y: 362.10626220703125
z: -0.30272921919822693
visibility: 0.8950967192649841
","x: 149.19940185546875
y: 270.6941833496094
z: -0.23592858016490936
visibility: 0.960656464099884
","x: 219.8398895263672
y: 403.6419372558594
z: -0.34113940596580505
visibility: 0.8241870999336243
","x: 148.25575256347656
y: 226.1494598388672
z: -0.32449430227279663
visibility: 0.9291982650756836
","x: 219.10890197753906
y: 415.5438232421875
z: -0.3647921681404114
visibility: 0.7518854737281799
","x: 146.8676300048828
y: 214.8716583251953
z: -0.36092573404312134
visibility: 0.8876415491104126
","x: 216.43373107910156
y: 414.30987548828125
z: -0.37236288189888
visibility: 0.7546756267547607
","x: 148.28659057617188
y: 214.17578125
z: -0.35873866081237793
visibility: 0.8895210027694702
","x: 215.6334686279297
y: 410.6177062988281
z: -0.34387534856796265
visibility: 0.7418283224105835
","x: 149.0845947265625
y: 217.70806884765625
z: -0.330867201089859
visibility: 0.8783696293830872
","x: 201.7103271484375
y: 410.1495361328125
z: -0.03727172687649727
visibility: 0.9998098611831665
","x: 181.03192138671875
y: 412.8072509765625
z: 0.037069618701934814
visibility: 0.9998257160186768
","x: 190.81948852539062
y: 467.6019287109375
z: -0.21172091364860535
visibility: 0.9692986011505127
","x: 176.87783813476562
y: 478.7170715332031
z: -0.11347644031047821
visibility: 0.9921800494194031
","x: 205.5293426513672
y: 517.2420043945312
z: -0.05315545201301575
visibility: 0.9921358823776245
","x: 193.340576171875
y: 537.2027587890625
z: 0.07459253072738647
visibility: 0.9952694773674011
","x: 209.1262664794922
y: 519.4446411132812
z: -0.04218221455812454
visibility: 0.9386646747589111
","x: 198.447998046875
y: 543.691650390625
z: 0.08701638877391815
visibility: 0.9711881279945374
","x: 196.7526397705078
y: 552.4035034179688
z: -0.15652671456336975
visibility: 0.9877732992172241
","x: 186.5503387451172
y: 562.0231323242188
z: -0.007067780010402203
visibility: 0.9922410845756531
",,,,,,,,,,,,,,,,,,,,,,,,,,,,,,,,,,,,,,,,,,
13,"x: 176.40570068359375
y: 290.1208190917969
z: -0.38146787881851196
visibility: 0.9998894333839417
","x: 178.75111389160156
y: 282.16558837890625
z: -0.37169748544692993
visibility: 0.9996021389961243
","x: 180.5912322998047
y: 281.8314208984375
z: -0.3716444969177246
visibility: 0.9995907545089722
","x: 182.25462341308594
y: 281.5307312011719
z: -0.3716585636138916
visibility: 0.9996344447135925
","x: 174.5034942626953
y: 282.5815124511719
z: -0.3652128279209137
visibility: 0.9989538788795471
","x: 173.46180725097656
y: 282.4993896484375
z: -0.3653084933757782
visibility: 0.9990038275718689
","x: 172.37139892578125
y: 282.35357666015625
z: -0.3653348386287689
visibility: 0.9991207122802734
","x: 185.90008544921875
y: 281.27984619140625
z: -0.28083717823028564
visibility: 0.9995022416114807
","x: 172.5722198486328
y: 281.6257019042969
z: -0.2428528070449829
visibility: 0.9986038208007812
","x: 180.5876007080078
y: 295.9951171875
z: -0.34434518218040466
visibility: 0.9997769594192505
","x: 175.35464477539062
y: 296.18084716796875
z: -0.33497655391693115
visibility: 0.9993487000465393
","x: 202.3018798828125
y: 316.48516845703125
z: -0.21645116806030273
visibility: 0.999944806098938
","x: 166.0178680419922
y: 300.249755859375
z: -0.16184253990650177
visibility: 0.9999099969863892
","x: 223.38348388671875
y: 353.0122375488281
z: -0.24129271507263184
visibility: 0.9054732918739319
","x: 146.45101928710938
y: 263.7119445800781
z: -0.21756520867347717
visibility: 0.9642879962921143
","x: 215.36622619628906
y: 395.8345031738281
z: -0.3293800950050354
visibility: 0.8402690291404724
","x: 143.22384643554688
y: 217.79452514648438
z: -0.3231165409088135
visibility: 0.935623824596405
","x: 216.12551879882812
y: 407.67095947265625
z: -0.3486902713775635
visibility: 0.771888256072998
","x: 140.75059509277344
y: 205.08226013183594
z: -0.3630220293998718
visibility: 0.8968084454536438
","x: 213.51832580566406
y: 406.6949157714844
z: -0.36014634370803833
visibility: 0.7748022675514221
","x: 142.08847045898438
y: 204.7333526611328
z: -0.36791282892227173
visibility: 0.8984397649765015
","x: 212.26840209960938
y: 402.58782958984375
z: -0.33757483959198
visibility: 0.762051522731781
","x: 143.3668670654297
y: 209.07962036132812
z: -0.3322488069534302
visibility: 0.8884623646736145
","x: 201.366455078125
y: 401.5501708984375
z: -0.031418830156326294
visibility: 0.9997847676277161
","x: 180.0004425048828
y: 408.2247619628906
z: 0.031109735369682312
visibility: 0.999824583530426
","x: 202.330322265625
y: 461.397705078125
z: -0.1464478075504303
visibility: 0.9718164205551147
","x: 178.3439178466797
y: 477.7030944824219
z: -0.04325354844331741
visibility: 0.9921282529830933
","x: 215.01800537109375
y: 515.195556640625
z: -0.012046290561556816
visibility: 0.9920588731765747
","x: 193.5534210205078
y: 537.3896484375
z: 0.15798963606357574
visibility: 0.994902491569519
","x: 216.83294677734375
y: 518.0670166015625
z: -0.015740668401122093
visibility: 0.9355922341346741
","x: 198.8019256591797
y: 544.4533081054688
z: 0.17120037972927094
visibility: 0.9697158932685852
","x: 210.7982177734375
y: 547.644287109375
z: -0.0922834500670433
visibility: 0.9877272844314575
","x: 186.77867126464844
y: 561.9653930664062
z: 0.06312580406665802
visibility: 0.9917508363723755
","x: 141.03402709960938
y: 219.60577392578125
z: 0.0
","x: 142.97959899902344
y: 216.0338592529297
z: -0.0013492562575265765
","x: 143.882568359375
y: 209.7255096435547
z: -0.0020115880761295557
","x: 143.340087890625
y: 204.54348754882812
z: -0.003017931245267391
","x: 142.41705322265625
y: 200.50115966796875
z: -0.003801066894084215
","x: 144.09353637695312
y: 202.270263671875
z: 0.0014257010770961642
","x: 143.74717712402344
y: 196.22862243652344
z: -0.0004558851651381701
","x: 143.16879272460938
y: 194.21139526367188
z: -0.0016134086763486266
","x: 142.42242431640625
y: 193.5951385498047
z: -0.0021031054202467203
","x: 142.31690979003906
y: 201.62249755859375
z: 0.0004993515321984887
","x: 141.55194091796875
y: 195.26268005371094
z: -0.0008099061669781804
","x: 140.50448608398438
y: 192.21102905273438
z: -0.001757451449520886
","x: 139.3894500732422
y: 190.03158569335938
z: -0.0023575657978653908
","x: 140.4365997314453
y: 202.19229125976562
z: -0.0011358237825334072
","x: 139.30075073242188
y: 196.1161651611328
z: -0.0028678730595856905
","x: 138.25392150878906
y: 193.01820373535156
z: -0.003820691490545869
","x: 137.224853515625
y: 190.5600128173828
z: -0.004289934411644936
","x: 138.49484252929688
y: 204.0996551513672
z: -0.003105499316006899
","x: 137.15261840820312
y: 199.40757751464844
z: -0.004656720906496048
","x: 136.0338592529297
y: 196.95045471191406
z: -0.005317160859704018
","x: 135.02110290527344
y: 194.8126220703125
z: -0.005609813146293163
",,,,,,,,,,,,,,,,,,,,,
14,"x: 176.40570068359375
y: 290.1208190917969
z: -0.38146787881851196
visibility: 0.9998894333839417
","x: 178.75111389160156
y: 282.16558837890625
z: -0.37169748544692993
visibility: 0.9996021389961243
","x: 180.5912322998047
y: 281.8314208984375
z: -0.3716444969177246
visibility: 0.9995907545089722
","x: 182.25462341308594
y: 281.5307312011719
z: -0.3716585636138916
visibility: 0.9996344447135925
","x: 174.5034942626953
y: 282.5815124511719
z: -0.3652128279209137
visibility: 0.9989538788795471
","x: 173.46180725097656
y: 282.4993896484375
z: -0.3653084933757782
visibility: 0.9990038275718689
","x: 172.37139892578125
y: 282.35357666015625
z: -0.3653348386287689
visibility: 0.9991207122802734
","x: 185.90008544921875
y: 281.27984619140625
z: -0.28083717823028564
visibility: 0.9995022416114807
","x: 172.5722198486328
y: 281.6257019042969
z: -0.2428528070449829
visibility: 0.9986038208007812
","x: 180.5876007080078
y: 295.9951171875
z: -0.34434518218040466
visibility: 0.9997769594192505
","x: 175.35464477539062
y: 296.18084716796875
z: -0.33497655391693115
visibility: 0.9993487000465393
","x: 202.3018798828125
y: 316.48516845703125
z: -0.21645116806030273
visibility: 0.999944806098938
","x: 166.0178680419922
y: 300.249755859375
z: -0.16184253990650177
visibility: 0.9999099969863892
","x: 223.38348388671875
y: 353.0122375488281
z: -0.24129271507263184
visibility: 0.9054732918739319
","x: 146.45101928710938
y: 263.7119445800781
z: -0.21756520867347717
visibility: 0.9642879962921143
","x: 215.36622619628906
y: 395.8345031738281
z: -0.3293800950050354
visibility: 0.8402690291404724
","x: 143.22384643554688
y: 217.79452514648438
z: -0.3231165409088135
visibility: 0.935623824596405
","x: 216.12551879882812
y: 407.67095947265625
z: -0.3486902713775635
visibility: 0.771888256072998
","x: 140.75059509277344
y: 205.08226013183594
z: -0.3630220293998718
visibility: 0.8968084454536438
","x: 213.51832580566406
y: 406.6949157714844
z: -0.36014634370803833
visibility: 0.7748022675514221
","x: 142.08847045898438
y: 204.7333526611328
z: -0.36791282892227173
visibility: 0.8984397649765015
","x: 212.26840209960938
y: 402.58782958984375
z: -0.33757483959198
visibility: 0.762051522731781
","x: 143.3668670654297
y: 209.07962036132812
z: -0.3322488069534302
visibility: 0.8884623646736145
","x: 201.366455078125
y: 401.5501708984375
z: -0.031418830156326294
visibility: 0.9997847676277161
","x: 180.0004425048828
y: 408.2247619628906
z: 0.031109735369682312
visibility: 0.999824583530426
","x: 202.330322265625
y: 461.397705078125
z: -0.1464478075504303
visibility: 0.9718164205551147
","x: 178.3439178466797
y: 477.7030944824219
z: -0.04325354844331741
visibility: 0.9921282529830933
","x: 215.01800537109375
y: 515.195556640625
z: -0.012046290561556816
visibility: 0.9920588731765747
","x: 193.5534210205078
y: 537.3896484375
z: 0.15798963606357574
visibility: 0.994902491569519
","x: 216.83294677734375
y: 518.0670166015625
z: -0.015740668401122093
visibility: 0.9355922341346741
","x: 198.8019256591797
y: 544.4533081054688
z: 0.17120037972927094
visibility: 0.9697158932685852
","x: 210.7982177734375
y: 547.644287109375
z: -0.0922834500670433
visibility: 0.9877272844314575
","x: 186.77867126464844
y: 561.9653930664062
z: 0.06312580406665802
visibility: 0.9917508363723755
","x: 141.03402709960938
y: 219.60577392578125
z: 0.0
","x: 142.97959899902344
y: 216.0338592529297
z: -0.0013492562575265765
","x: 143.882568359375
y: 209.7255096435547
z: -0.0020115880761295557
","x: 143.340087890625
y: 204.54348754882812
z: -0.003017931245267391
","x: 142.41705322265625
y: 200.50115966796875
z: -0.003801066894084215
","x: 144.09353637695312
y: 202.270263671875
z: 0.0014257010770961642
","x: 143.74717712402344
y: 196.22862243652344
z: -0.0004558851651381701
","x: 143.16879272460938
y: 194.21139526367188
z: -0.0016134086763486266
","x: 142.42242431640625
y: 193.5951385498047
z: -0.0021031054202467203
","x: 142.31690979003906
y: 201.62249755859375
z: 0.0004993515321984887
","x: 141.55194091796875
y: 195.26268005371094
z: -0.0008099061669781804
","x: 140.50448608398438
y: 192.21102905273438
z: -0.001757451449520886
","x: 139.3894500732422
y: 190.03158569335938
z: -0.0023575657978653908
","x: 140.4365997314453
y: 202.19229125976562
z: -0.0011358237825334072
","x: 139.30075073242188
y: 196.1161651611328
z: -0.0028678730595856905
","x: 138.25392150878906
y: 193.01820373535156
z: -0.003820691490545869
","x: 137.224853515625
y: 190.5600128173828
z: -0.004289934411644936
","x: 138.49484252929688
y: 204.0996551513672
z: -0.003105499316006899
","x: 137.15261840820312
y: 199.40757751464844
z: -0.004656720906496048
","x: 136.0338592529297
y: 196.95045471191406
z: -0.005317160859704018
","x: 135.02110290527344
y: 194.8126220703125
z: -0.005609813146293163
",,,,,,,,,,,,,,,,,,,,,
15,"x: 174.5655059814453
y: 277.70458984375
z: -0.49834632873535156
visibility: 0.9998998045921326
","x: 176.1900634765625
y: 270.8721618652344
z: -0.48183590173721313
visibility: 0.9996402263641357
","x: 177.63499450683594
y: 270.46734619140625
z: -0.4817984700202942
visibility: 0.9996294379234314
","x: 179.0066680908203
y: 269.9328918457031
z: -0.481879323720932
visibility: 0.9996690154075623
","x: 172.6271514892578
y: 270.6802062988281
z: -0.4784005582332611
visibility: 0.9990551471710205
","x: 171.5847930908203
y: 270.2554931640625
z: -0.4785134196281433
visibility: 0.9990990161895752
","x: 170.4594268798828
y: 269.7393798828125
z: -0.47850289940834045
visibility: 0.9992040395736694
","x: 181.6764373779297
y: 269.0353698730469
z: -0.3596131503582001
visibility: 0.999549150466919
","x: 169.3785400390625
y: 269.3187561035156
z: -0.3425641655921936
visibility: 0.9987375140190125
","x: 177.81495666503906
y: 283.94287109375
z: -0.45033130049705505
visibility: 0.9997979998588562
","x: 173.63766479492188
y: 283.3139343261719
z: -0.4456295073032379
visibility: 0.9994112253189087
","x: 196.63302612304688
y: 304.2237548828125
z: -0.2585090696811676
visibility: 0.9999473690986633
","x: 162.13314819335938
y: 287.3916320800781
z: -0.24608293175697327
visibility: 0.9999135136604309
","x: 209.97760009765625
y: 353.36993408203125
z: -0.27140164375305176
visibility: 0.9146737456321716
","x: 144.0369415283203
y: 252.47671508789062
z: -0.2679745554924011
visibility: 0.96773761510849
","x: 209.959228515625
y: 399.7300720214844
z: -0.3825918734073639
visibility: 0.8545724153518677
","x: 133.01004028320312
y: 199.2186737060547
z: -0.3351399600505829
visibility: 0.9418481588363647
","x: 212.58966064453125
y: 413.2787780761719
z: -0.4158113896846771
visibility: 0.7899052500724792
","x: 128.1876220703125
y: 190.5522003173828
z: -0.3713971972465515
visibility: 0.9063872694969177
","x: 209.79359436035156
y: 412.94390869140625
z: -0.4413684904575348
visibility: 0.7930393218994141
","x: 127.96214294433594
y: 190.2359161376953
z: -0.3910139203071594
visibility: 0.9078581929206848
","x: 208.02902221679688
y: 408.76336669921875
z: -0.3959832489490509
visibility: 0.7807616591453552
","x: 129.5018310546875
y: 192.44119262695312
z: -0.3492105305194855
visibility: 0.8989197611808777
","x: 199.47052001953125
y: 391.79376220703125
z: -0.006022369954735041
visibility: 0.9998002052307129
","x: 178.6848907470703
y: 398.30731201171875
z: 0.005750462878495455
visibility: 0.9998395442962646
","x: 208.8449249267578
y: 458.7848205566406
z: -0.1221640557050705
visibility: 0.9744772911071777
","x: 179.13015747070312
y: 474.2042541503906
z: -0.0960398018360138
visibility: 0.9927974939346313
","x: 230.79171752929688
y: 517.4512329101562
z: 0.09709944576025009
visibility: 0.9926510453224182
","x: 193.51588439941406
y: 538.371337890625
z: 0.11011117696762085
visibility: 0.9952070116996765
","x: 233.2544403076172
y: 520.5296630859375
z: 0.10939844697713852
visibility: 0.9379938244819641
","x: 198.44654846191406
y: 545.0120849609375
z: 0.12240369617938995
visibility: 0.9696558117866516
","x: 214.1589813232422
y: 547.40576171875
z: -0.0344008207321167
visibility: 0.9883124828338623
","x: 186.9459228515625
y: 561.0089111328125
z: -0.002057474572211504
visibility: 0.9921231865882874
",,,,,,,,,,,,,,,,,,,,,,,,,,,,,,,,,,,,,,,,,,
16,"x: 171.16845703125
y: 265.48028564453125
z: -0.526264488697052
visibility: 0.9999093413352966
","x: 172.91744995117188
y: 258.03851318359375
z: -0.5087202787399292
visibility: 0.9996749758720398
","x: 174.3203125
y: 257.872802734375
z: -0.5086899995803833
visibility: 0.999664843082428
","x: 175.63262939453125
y: 257.65142822265625
z: -0.5087973475456238
visibility: 0.9997003674507141
","x: 169.52432250976562
y: 257.55419921875
z: -0.5041517019271851
visibility: 0.999147355556488
","x: 168.59498596191406
y: 257.222412109375
z: -0.5043011903762817
visibility: 0.9991859793663025
","x: 167.6142578125
y: 256.8260498046875
z: -0.5043050050735474
visibility: 0.9992801547050476
","x: 178.40504455566406
y: 259.1070861816406
z: -0.38704830408096313
visibility: 0.9995906949043274
","x: 167.24957275390625
y: 258.0597229003906
z: -0.3682723343372345
visibility: 0.9988600015640259
","x: 174.59164428710938
y: 272.91802978515625
z: -0.4793018400669098
visibility: 0.9998161196708679
","x: 170.09637451171875
y: 272.12518310546875
z: -0.4741210341453552
visibility: 0.9994670748710632
","x: 193.11370849609375
y: 303.2021179199219
z: -0.2727122902870178
visibility: 0.9999475479125977
","x: 159.60794067382812
y: 278.39410400390625
z: -0.2644197344779968
visibility: 0.9999197125434875
","x: 205.49652099609375
y: 353.6207275390625
z: -0.26374638080596924
visibility: 0.9228359460830688
","x: 141.06640625
y: 239.65370178222656
z: -0.2281373292207718
visibility: 0.9708195924758911
","x: 219.3768310546875
y: 397.902099609375
z: -0.3521868586540222
visibility: 0.8682605624198914
","x: 120.75797271728516
y: 198.89089965820312
z: -0.25548672676086426
visibility: 0.947561502456665
","x: 223.8880157470703
y: 409.7364501953125
z: -0.3912268280982971
visibility: 0.8080582618713379
","x: 113.52540588378906
y: 193.800048828125
z: -0.282932847738266
visibility: 0.9153591394424438
","x: 222.38209533691406
y: 410.3898620605469
z: -0.39521294832229614
visibility: 0.8112531900405884
","x: 112.3031234741211
y: 193.95729064941406
z: -0.28507179021835327
visibility: 0.9166871309280396
","x: 220.77471923828125
y: 407.65484619140625
z: -0.3597114384174347
visibility: 0.7998836040496826
","x: 114.30097198486328
y: 196.61184692382812
z: -0.25957387685775757
visibility: 0.9086681604385376
","x: 198.31080627441406
y: 386.0396728515625
z: 0.0066713192500174046
visibility: 0.9998149275779724
","x: 178.2487335205078
y: 390.85577392578125
z: -0.00684849638491869
visibility: 0.9998539686203003
","x: 223.27093505859375
y: 441.36053466796875
z: -0.09754597395658493
visibility: 0.9767730832099915
","x: 180.85585021972656
y: 470.5704040527344
z: -0.12087351083755493
visibility: 0.9933241009712219
","x: 255.2456512451172
y: 503.53594970703125
z: 0.07361201196908951
visibility: 0.9930943846702576
","x: 193.44454956054688
y: 538.626220703125
z: 0.08211172372102737
visibility: 0.9954124689102173
","x: 254.51339721679688
y: 517.2318115234375
z: 0.08464429527521133
visibility: 0.94172602891922
","x: 198.20693969726562
y: 545.4402465820312
z: 0.09269613772630692
visibility: 0.9689277410507202
","x: 270.7476806640625
y: 518.1795654296875
z: -0.05518064647912979
visibility: 0.9886075258255005
","x: 187.0475616455078
y: 561.0767211914062
z: -0.050979603081941605
visibility: 0.992144763469696
","x: 105.78114318847656
y: 193.60067749023438
z: 0.0
","x: 111.01321411132812
y: 191.22840881347656
z: -0.007756689563393593
","x: 115.5657958984375
y: 187.5235595703125
z: -0.016975777223706245
","x: 118.25184631347656
y: 189.51768493652344
z: -0.025457939133048058
","x: 118.99343872070312
y: 192.9600372314453
z: -0.033407364040613174
","x: 109.8809585571289
y: 183.26333618164062
z: -0.02285725809633732
","x: 115.41830444335938
y: 192.73519897460938
z: -0.032819002866744995
","x: 118.69993591308594
y: 196.74801635742188
z: -0.03674140200018883
","x: 120.09650421142578
y: 196.8022003173828
z: -0.03874199464917183
","x: 105.7587890625
y: 188.8978729248047
z: -0.024487581104040146
","x: 109.97551727294922
y: 201.262451171875
z: -0.033508021384477615
","x: 112.99337768554688
y: 203.10284423828125
z: -0.03217209875583649
","x: 113.42427062988281
y: 199.69183349609375
z: -0.031616609543561935
","x: 102.59891510009766
y: 195.3839874267578
z: -0.02587604522705078
","x: 106.565185546875
y: 206.4686279296875
z: -0.03129253908991814
","x: 109.79893493652344
y: 207.718017578125
z: -0.02688174694776535
","x: 110.74915313720703
y: 204.37942504882812
z: -0.024644244462251663
","x: 100.45957946777344
y: 201.2622833251953
z: -0.028123917058110237
","x: 103.95801544189453
y: 210.80728149414062
z: -0.030146071687340736
","x: 107.06797790527344
y: 212.0360107421875
z: -0.02763647399842739
","x: 108.52827453613281
y: 209.58047485351562
z: -0.026370681822299957
",,,,,,,,,,,,,,,,,,,,,
17,"x: 171.16845703125
y: 265.48028564453125
z: -0.526264488697052
visibility: 0.9999093413352966
","x: 172.91744995117188
y: 258.03851318359375
z: -0.5087202787399292
visibility: 0.9996749758720398
","x: 174.3203125
y: 257.872802734375
z: -0.5086899995803833
visibility: 0.999664843082428
","x: 175.63262939453125
y: 257.65142822265625
z: -0.5087973475456238
visibility: 0.9997003674507141
","x: 169.52432250976562
y: 257.55419921875
z: -0.5041517019271851
visibility: 0.999147355556488
","x: 168.59498596191406
y: 257.222412109375
z: -0.5043011903762817
visibility: 0.9991859793663025
","x: 167.6142578125
y: 256.8260498046875
z: -0.5043050050735474
visibility: 0.9992801547050476
","x: 178.40504455566406
y: 259.1070861816406
z: -0.38704830408096313
visibility: 0.9995906949043274
","x: 167.24957275390625
y: 258.0597229003906
z: -0.3682723343372345
visibility: 0.9988600015640259
","x: 174.59164428710938
y: 272.91802978515625
z: -0.4793018400669098
visibility: 0.9998161196708679
","x: 170.09637451171875
y: 272.12518310546875
z: -0.4741210341453552
visibility: 0.9994670748710632
","x: 193.11370849609375
y: 303.2021179199219
z: -0.2727122902870178
visibility: 0.9999475479125977
","x: 159.60794067382812
y: 278.39410400390625
z: -0.2644197344779968
visibility: 0.9999197125434875
","x: 205.49652099609375
y: 353.6207275390625
z: -0.26374638080596924
visibility: 0.9228359460830688
","x: 141.06640625
y: 239.65370178222656
z: -0.2281373292207718
visibility: 0.9708195924758911
","x: 219.3768310546875
y: 397.902099609375
z: -0.3521868586540222
visibility: 0.8682605624198914
","x: 120.75797271728516
y: 198.89089965820312
z: -0.25548672676086426
visibility: 0.947561502456665
","x: 223.8880157470703
y: 409.7364501953125
z: -0.3912268280982971
visibility: 0.8080582618713379
","x: 113.52540588378906
y: 193.800048828125
z: -0.282932847738266
visibility: 0.9153591394424438
","x: 222.38209533691406
y: 410.3898620605469
z: -0.39521294832229614
visibility: 0.8112531900405884
","x: 112.3031234741211
y: 193.95729064941406
z: -0.28507179021835327
visibility: 0.9166871309280396
","x: 220.77471923828125
y: 407.65484619140625
z: -0.3597114384174347
visibility: 0.7998836040496826
","x: 114.30097198486328
y: 196.61184692382812
z: -0.25957387685775757
visibility: 0.9086681604385376
","x: 198.31080627441406
y: 386.0396728515625
z: 0.0066713192500174046
visibility: 0.9998149275779724
","x: 178.2487335205078
y: 390.85577392578125
z: -0.00684849638491869
visibility: 0.9998539686203003
","x: 223.27093505859375
y: 441.36053466796875
z: -0.09754597395658493
visibility: 0.9767730832099915
","x: 180.85585021972656
y: 470.5704040527344
z: -0.12087351083755493
visibility: 0.9933241009712219
","x: 255.2456512451172
y: 503.53594970703125
z: 0.07361201196908951
visibility: 0.9930943846702576
","x: 193.44454956054688
y: 538.626220703125
z: 0.08211172372102737
visibility: 0.9954124689102173
","x: 254.51339721679688
y: 517.2318115234375
z: 0.08464429527521133
visibility: 0.94172602891922
","x: 198.20693969726562
y: 545.4402465820312
z: 0.09269613772630692
visibility: 0.9689277410507202
","x: 270.7476806640625
y: 518.1795654296875
z: -0.05518064647912979
visibility: 0.9886075258255005
","x: 187.0475616455078
y: 561.0767211914062
z: -0.050979603081941605
visibility: 0.992144763469696
","x: 105.78114318847656
y: 193.60067749023438
z: 0.0
","x: 111.01321411132812
y: 191.22840881347656
z: -0.007756689563393593
","x: 115.5657958984375
y: 187.5235595703125
z: -0.016975777223706245
","x: 118.25184631347656
y: 189.51768493652344
z: -0.025457939133048058
","x: 118.99343872070312
y: 192.9600372314453
z: -0.033407364040613174
","x: 109.8809585571289
y: 183.26333618164062
z: -0.02285725809633732
","x: 115.41830444335938
y: 192.73519897460938
z: -0.032819002866744995
","x: 118.69993591308594
y: 196.74801635742188
z: -0.03674140200018883
","x: 120.09650421142578
y: 196.8022003173828
z: -0.03874199464917183
","x: 105.7587890625
y: 188.8978729248047
z: -0.024487581104040146
","x: 109.97551727294922
y: 201.262451171875
z: -0.033508021384477615
","x: 112.99337768554688
y: 203.10284423828125
z: -0.03217209875583649
","x: 113.42427062988281
y: 199.69183349609375
z: -0.031616609543561935
","x: 102.59891510009766
y: 195.3839874267578
z: -0.02587604522705078
","x: 106.565185546875
y: 206.4686279296875
z: -0.03129253908991814
","x: 109.79893493652344
y: 207.718017578125
z: -0.02688174694776535
","x: 110.74915313720703
y: 204.37942504882812
z: -0.024644244462251663
","x: 100.45957946777344
y: 201.2622833251953
z: -0.028123917058110237
","x: 103.95801544189453
y: 210.80728149414062
z: -0.030146071687340736
","x: 107.06797790527344
y: 212.0360107421875
z: -0.02763647399842739
","x: 108.52827453613281
y: 209.58047485351562
z: -0.026370681822299957
",,,,,,,,,,,,,,,,,,,,,
18,"x: 173.2606658935547
y: 262.7723388671875
z: -0.44953829050064087
visibility: 0.9999165534973145
","x: 175.20706176757812
y: 256.89373779296875
z: -0.42692890763282776
visibility: 0.9997010231018066
","x: 176.5571746826172
y: 256.9913024902344
z: -0.4269057810306549
visibility: 0.9996919631958008
","x: 177.80686950683594
y: 257.0694580078125
z: -0.4269961714744568
visibility: 0.999722421169281
","x: 171.7418975830078
y: 256.19537353515625
z: -0.4194832742214203
visibility: 0.9992172122001648
","x: 170.67526245117188
y: 255.88294982910156
z: -0.4195292890071869
visibility: 0.9992467164993286
","x: 169.5605010986328
y: 255.5394287109375
z: -0.41944169998168945
visibility: 0.9993272423744202
","x: 180.4078369140625
y: 258.8833923339844
z: -0.30853888392448425
visibility: 0.9996228814125061
","x: 168.9181365966797
y: 256.5682678222656
z: -0.27804747223854065
visibility: 0.9989367127418518
","x: 176.51632690429688
y: 269.0820007324219
z: -0.40092888474464417
visibility: 0.9998257756233215
","x: 171.76300048828125
y: 268.00323486328125
z: -0.391584575176239
visibility: 0.9995013475418091
","x: 194.5495147705078
y: 298.0211181640625
z: -0.22849862277507782
visibility: 0.9999493360519409
","x: 162.53839111328125
y: 276.7347106933594
z: -0.17736577987670898
visibility: 0.9999203085899353
","x: 208.63235473632812
y: 345.70574951171875
z: -0.23525097966194153
visibility: 0.9301357269287109
","x: 144.20761108398438
y: 250.74607849121094
z: -0.13947314023971558
visibility: 0.9734799265861511
","x: 223.6416778564453
y: 372.66217041015625
z: -0.34728845953941345
visibility: 0.8806505799293518
","x: 120.01470947265625
y: 222.97964477539062
z: -0.1934509426355362
visibility: 0.9525150060653687
","x: 236.34283447265625
y: 377.71600341796875
z: -0.3745049834251404
visibility: 0.823966920375824
","x: 112.78321838378906
y: 217.36181640625
z: -0.21997065842151642
visibility: 0.9224116802215576
","x: 237.58670043945312
y: 375.99957275390625
z: -0.40768295526504517
visibility: 0.8273417353630066
","x: 111.13623046875
y: 216.99557495117188
z: -0.23898401856422424
visibility: 0.9236885905265808
","x: 234.2841339111328
y: 375.1015625
z: -0.3648828864097595
visibility: 0.816974401473999
","x: 113.51744842529297
y: 220.311767578125
z: -0.20799365639686584
visibility: 0.9166699051856995
","x: 200.33335876464844
y: 383.0057373046875
z: -1.987455107155256e-05
visibility: 0.9998186230659485
","x: 180.74246215820312
y: 389.4029541015625
z: -0.0001440587657270953
visibility: 0.9998656511306763
","x: 228.4551544189453
y: 435.6312255859375
z: -0.05088001489639282
visibility: 0.9788079261779785
","x: 181.9100341796875
y: 469.38848876953125
z: -0.06689007580280304
visibility: 0.9937614798545837
","x: 261.67169189453125
y: 471.5269775390625
z: 0.167588472366333
visibility: 0.9931670427322388
","x: 193.42372131347656
y: 538.164306640625
z: 0.14245733618736267
visibility: 0.9956051111221313
","x: 263.808349609375
y: 474.98248291015625
z: 0.18327704071998596
visibility: 0.9398852586746216
","x: 198.1403045654297
y: 545.1604614257812
z: 0.15431009232997894
visibility: 0.9689381122589111
","x: 274.2986755371094
y: 493.94384765625
z: 0.05544564872980118
visibility: 0.9885856509208679
","x: 187.16729736328125
y: 561.2071533203125
z: 0.01945418491959572
visibility: 0.9924120903015137
",,,,,,,,,,,,,,,,,,,,,,,,,,,,,,,,,,,,,,,,,,
19,"x: 179.7672119140625
y: 258.65167236328125
z: -0.3495469093322754
visibility: 0.999923050403595
","x: 182.1771697998047
y: 251.30043029785156
z: -0.3375377655029297
visibility: 0.9997232556343079
","x: 183.93687438964844
y: 251.2624969482422
z: -0.33750784397125244
visibility: 0.9997128248214722
","x: 185.4960479736328
y: 251.21875
z: -0.33753296732902527
visibility: 0.9997397065162659
","x: 176.2268829345703
y: 250.67263793945312
z: -0.33740606904029846
visibility: 0.9992870092391968
","x: 173.93084716796875
y: 250.34974670410156
z: -0.3374477028846741
visibility: 0.9993105530738831
","x: 171.5929718017578
y: 250.01531982421875
z: -0.33742454648017883
visibility: 0.9993835091590881
","x: 187.5015411376953
y: 251.7698974609375
z: -0.22221633791923523
visibility: 0.9996509552001953
","x: 170.62026977539062
y: 250.23255920410156
z: -0.2244933843612671
visibility: 0.9990171194076538
","x: 182.28408813476562
y: 264.0643615722656
z: -0.30262893438339233
visibility: 0.9998401403427124
","x: 176.2833251953125
y: 263.36907958984375
z: -0.30353015661239624
visibility: 0.9995479583740234
","x: 198.54580688476562
y: 285.7360534667969
z: -0.14638608694076538
visibility: 0.99995356798172
","x: 163.91702270507812
y: 276.1902160644531
z: -0.111508309841156
visibility: 0.9999274611473083
","x: 213.614013671875
y: 311.305419921875
z: -0.12519976496696472
visibility: 0.9366519451141357
","x: 141.42892456054688
y: 290.49700927734375
z: -0.11271581798791885
visibility: 0.9755075573921204
","x: 222.694580078125
y: 331.8313903808594
z: -0.2461320459842682
visibility: 0.8914598226547241
","x: 132.3224334716797
y: 321.1446838378906
z: -0.2412734478712082
visibility: 0.9554634690284729
","x: 225.89747619628906
y: 343.3673400878906
z: -0.28412604331970215
visibility: 0.838333010673523
","x: 119.86914825439453
y: 330.46734619140625
z: -0.2732759118080139
visibility: 0.9250854253768921
","x: 222.640380859375
y: 341.64678955078125
z: -0.30937662720680237
visibility: 0.841609001159668
","x: 124.47369384765625
y: 329.79248046875
z: -0.2962832450866699
visibility: 0.9265227317810059
","x: 220.91197204589844
y: 338.6256408691406
z: -0.2585906982421875
visibility: 0.8315207958221436
","x: 124.71833801269531
y: 327.2629089355469
z: -0.25419023633003235
visibility: 0.9199807047843933
","x: 200.59329223632812
y: 377.08441162109375
z: -0.014202875085175037
visibility: 0.9998314380645752
","x: 179.38314819335938
y: 383.7228698730469
z: 0.01428705919533968
visibility: 0.9998779296875
","x: 205.50079345703125
y: 444.7073059082031
z: -0.06280231475830078
visibility: 0.9792846441268921
","x: 183.68894958496094
y: 468.453369140625
z: 0.022432904690504074
visibility: 0.9927663803100586
","x: 235.67422485351562
y: 428.32379150390625
z: 0.26907986402511597
visibility: 0.9780985713005066
","x: 193.44525146484375
y: 537.8167114257812
z: 0.15957555174827576
visibility: 0.9951744675636292
","x: 236.3263702392578
y: 421.4688720703125
z: 0.30268099904060364
visibility: 0.9151325225830078
","x: 198.00274658203125
y: 545.1058349609375
z: 0.16876855492591858
visibility: 0.9669950008392334
","x: 247.53848266601562
y: 454.8995361328125
z: 0.27795058488845825
visibility: 0.9801428318023682
","x: 187.34718322753906
y: 562.016357421875
z: 0.07952825725078583
visibility: 0.9918351769447327
",,,,,,,,,,,,,,,,,,,,,,,,,,,,,,,,,,,,,,,,,,
20,"x: 182.80043029785156
y: 256.4098815917969
z: -0.22958524525165558
visibility: 0.9999304413795471
","x: 185.0249786376953
y: 248.56234741210938
z: -0.21879467368125916
visibility: 0.9997496604919434
","x: 186.79090881347656
y: 248.11361694335938
z: -0.21874025464057922
visibility: 0.9997398853302002
","x: 188.58590698242188
y: 247.66058349609375
z: -0.21873760223388672
visibility: 0.9997639656066895
","x: 179.32388305664062
y: 248.89132690429688
z: -0.2106921225786209
visibility: 0.999357283115387
","x: 177.15902709960938
y: 248.7492218017578
z: -0.21072809398174286
visibility: 0.9993782639503479
","x: 175.0136260986328
y: 248.60414123535156
z: -0.21071156859397888
visibility: 0.9994441866874695
","x: 191.98919677734375
y: 247.67483520507812
z: -0.1260627955198288
visibility: 0.9996844530105591
","x: 175.0400390625
y: 249.2756805419922
z: -0.08830966055393219
visibility: 0.9991120100021362
","x: 186.0353546142578
y: 261.70953369140625
z: -0.19258524477481842
visibility: 0.9998554587364197
","x: 180.17953491210938
y: 261.8378601074219
z: -0.18202540278434753
visibility: 0.9995923042297363
","x: 205.74058532714844
y: 275.6741638183594
z: -0.0778246745467186
visibility: 0.9999567270278931
","x: 166.72735595703125
y: 282.905517578125
z: 0.006814489606767893
visibility: 0.9999335408210754
","x: 225.83590698242188
y: 306.5780944824219
z: -0.05277063325047493
visibility: 0.9428134560585022
","x: 148.06997680664062
y: 318.307861328125
z: -0.029619067907333374
visibility: 0.9772911071777344
","x: 221.97357177734375
y: 343.81329345703125
z: -0.11853593587875366
visibility: 0.9014163613319397
","x: 139.92491149902344
y: 347.692138671875
z: -0.22612933814525604
visibility: 0.9593366384506226
","x: 223.83670043945312
y: 354.2266540527344
z: -0.14306600391864777
visibility: 0.8519231081008911
","x: 134.83370971679688
y: 359.6116638183594
z: -0.2548212707042694
visibility: 0.9311266541481018
","x: 220.2042694091797
y: 352.8949279785156
z: -0.15993420779705048
visibility: 0.8550678491592407
","x: 137.99942016601562
y: 357.2799072265625
z: -0.27767762541770935
visibility: 0.9325291514396667
","x: 218.3662109375
y: 350.2724609375
z: -0.12512806057929993
visibility: 0.8451672792434692
","x: 139.24258422851562
y: 352.6614685058594
z: -0.2379833459854126
visibility: 0.926313042640686
","x: 202.08511352539062
y: 377.66168212890625
z: -0.04583463817834854
visibility: 0.9998446702957153
","x: 181.59576416015625
y: 380.82763671875
z: 0.045791756361722946
visibility: 0.9998878836631775
","x: 180.48826599121094
y: 433.8647766113281
z: -0.27666282653808594
visibility: 0.9807475209236145
","x: 183.6769256591797
y: 467.5589294433594
z: 0.022588063031435013
visibility: 0.9880372881889343
","x: 209.52655029296875
y: 455.67425537109375
z: -0.05337303876876831
visibility: 0.9765276312828064
","x: 193.75946044921875
y: 536.6260375976562
z: 0.13555441796779633
visibility: 0.9945154190063477
","x: 215.27542114257812
y: 451.37945556640625
z: -0.030840924009680748
visibility: 0.9130582809448242
","x: 198.35057067871094
y: 545.021240234375
z: 0.146142840385437
visibility: 0.9666157960891724
","x: 208.88438415527344
y: 488.5009765625
z: -0.06380833685398102
visibility: 0.9795364737510681
","x: 187.40245056152344
y: 561.652099609375
z: 0.03970152884721756
visibility: 0.9908928275108337
",,,,,,,,,,,,,,,,,,,,,,,,,,,,,,,,,,,,,,,,,,
21,"x: 185.9868621826172
y: 260.6109924316406
z: -0.24338097870349884
visibility: 0.9999368786811829
","x: 188.40023803710938
y: 252.75857543945312
z: -0.2359965741634369
visibility: 0.9997735619544983
","x: 190.09124755859375
y: 252.47618103027344
z: -0.2359893023967743
visibility: 0.999764621257782
","x: 191.73358154296875
y: 252.1639862060547
z: -0.2359667271375656
visibility: 0.9997864961624146
","x: 183.84716796875
y: 252.1485595703125
z: -0.22316674888134003
visibility: 0.9994207620620728
","x: 182.2784881591797
y: 251.61856079101562
z: -0.22320787608623505
visibility: 0.9994392991065979
","x: 180.6965789794922
y: 251.0982666015625
z: -0.2231956273317337
visibility: 0.9994985461235046
","x: 195.1178436279297
y: 251.61207580566406
z: -0.16536304354667664
visibility: 0.999714732170105
","x: 180.90858459472656
y: 250.77474975585938
z: -0.10878255218267441
visibility: 0.9991961717605591
","x: 189.0198211669922
y: 266.2548522949219
z: -0.2156190574169159
visibility: 0.9998692274093628
","x: 184.19207763671875
y: 265.7424011230469
z: -0.19915375113487244
visibility: 0.9996317028999329
","x: 210.00860595703125
y: 281.9147644042969
z: -0.14577485620975494
visibility: 0.9999573230743408
","x: 174.26153564453125
y: 283.50042724609375
z: 0.003406934905797243
visibility: 0.9999361634254456
","x: 223.7726593017578
y: 316.5611877441406
z: -0.14480824768543243
visibility: 0.9481698274612427
","x: 165.99681091308594
y: 340.21087646484375
z: 0.008374407887458801
visibility: 0.9750524163246155
","x: 215.7875518798828
y: 379.148193359375
z: -0.19902856647968292
visibility: 0.9094721674919128
","x: 155.0497589111328
y: 373.15313720703125
z: -0.1358584761619568
visibility: 0.9604625105857849
","x: 214.7681884765625
y: 395.5237121582031
z: -0.22665147483348846
visibility: 0.8623337149620056
","x: 149.91737365722656
y: 383.5326843261719
z: -0.15534338355064392
visibility: 0.9328816533088684
","x: 211.00979614257812
y: 394.064208984375
z: -0.24001207947731018
visibility: 0.8652801513671875
","x: 151.0132293701172
y: 383.841552734375
z: -0.18482956290245056
visibility: 0.9344273805618286
","x: 210.48915100097656
y: 388.22686767578125
z: -0.2038126289844513
visibility: 0.8548173904418945
","x: 153.3302459716797
y: 380.4803161621094
z: -0.1508847028017044
visibility: 0.9274694323539734
","x: 203.01295471191406
y: 380.9475402832031
z: -0.0577193908393383
visibility: 0.9998537302017212
","x: 184.779541015625
y: 382.4173278808594
z: 0.05778577923774719
visibility: 0.9998886585235596
","x: 174.17050170898438
y: 426.1238098144531
z: -0.31051012873649597
visibility: 0.981598973274231
","x: 187.79541015625
y: 465.3990173339844
z: 0.09154126793146133
visibility: 0.9840806722640991
","x: 148.31333923339844
y: 481.2406005859375
z: -0.31799983978271484
visibility: 0.9785248637199402
","x: 194.8115997314453
y: 538.07568359375
z: 0.15891115367412567
visibility: 0.9924473166465759
","x: 146.1023712158203
y: 503.3915710449219
z: -0.32220929861068726
visibility: 0.9210147261619568
","x: 198.81268310546875
y: 547.8516235351562
z: 0.15940923988819122
visibility: 0.9652251601219177
","x: 128.0410614013672
y: 481.26715087890625
z: -0.4420308470726013
visibility: 0.9812854528427124
","x: 186.2925567626953
y: 561.0614013671875
z: 0.06623928248882294
visibility: 0.9881854057312012
",,,,,,,,,,,,,,,,,,,,,,,,,,,,,,,,,,,,,,,,,,
22,"x: 187.61807250976562
y: 262.10955810546875
z: -0.31341561675071716
visibility: 0.999942421913147
","x: 189.81442260742188
y: 254.22232055664062
z: -0.3055950999259949
visibility: 0.9997945427894592
","x: 191.40652465820312
y: 253.99044799804688
z: -0.3055879473686218
visibility: 0.9997864961624146
","x: 192.96054077148438
y: 253.7608184814453
z: -0.30560070276260376
visibility: 0.9998065233230591
","x: 185.8624267578125
y: 253.84405517578125
z: -0.2965662479400635
visibility: 0.999477207660675
","x: 184.50184631347656
y: 253.52783203125
z: -0.2966170907020569
visibility: 0.9994931817054749
","x: 183.1519012451172
y: 253.202392578125
z: -0.2966160774230957
visibility: 0.9995459914207458
","x: 196.01376342773438
y: 253.30099487304688
z: -0.2203066349029541
visibility: 0.9997414946556091
","x: 182.5845489501953
y: 253.07350158691406
z: -0.1843290776014328
visibility: 0.9992685317993164
","x: 190.47605895996094
y: 267.8082580566406
z: -0.28049108386039734
visibility: 0.9998810887336731
","x: 186.0336456298828
y: 267.8867492675781
z: -0.26909247040748596
visibility: 0.9996660947799683
","x: 209.52268981933594
y: 285.9251708984375
z: -0.20203427970409393
visibility: 0.9999597072601318
","x: 176.18130493164062
y: 285.9593505859375
z: -0.06051359325647354
visibility: 0.9999377727508545
","x: 208.19854736328125
y: 335.1939697265625
z: -0.20816878974437714
visibility: 0.9528318047523499
","x: 172.865478515625
y: 339.17803955078125
z: -0.02780597284436226
visibility: 0.9702480435371399
","x: 197.472412109375
y: 390.4732666015625
z: -0.2639397084712982
visibility: 0.9172635674476624
","x: 166.99671936035156
y: 382.4786071777344
z: -0.12706544995307922
visibility: 0.9576619863510132
","x: 197.40017700195312
y: 407.3638610839844
z: -0.3003823459148407
visibility: 0.8730801939964294
","x: 163.88839721679688
y: 392.6037292480469
z: -0.14073608815670013
visibility: 0.9283789992332458
","x: 193.11032104492188
y: 405.3463439941406
z: -0.3092746138572693
visibility: 0.8757970929145813
","x: 164.53062438964844
y: 393.4512939453125
z: -0.17316028475761414
visibility: 0.9301537275314331
","x: 192.1623992919922
y: 399.89569091796875
z: -0.2639482021331787
visibility: 0.8647781610488892
","x: 166.38926696777344
y: 390.3081970214844
z: -0.14119894802570343
visibility: 0.921446681022644
","x: 204.415771484375
y: 379.2101745605469
z: -0.05551232770085335
visibility: 0.9998645186424255
","x: 189.32078552246094
y: 378.6130065917969
z: 0.05562611296772957
visibility: 0.9998922348022461
","x: 179.71743774414062
y: 428.5295104980469
z: -0.29119229316711426
visibility: 0.9818461537361145
","x: 187.5565643310547
y: 460.17681884765625
z: 0.08895811438560486
visibility: 0.9776818752288818
","x: 147.23439025878906
y: 486.7950134277344
z: -0.35441476106643677
visibility: 0.9803774952888489
","x: 194.9380645751953
y: 538.2739868164062
z: 0.13716691732406616
visibility: 0.9894354343414307
","x: 142.9547119140625
y: 506.08392333984375
z: -0.36496394872665405
visibility: 0.9283578991889954
","x: 198.84873962402344
y: 549.78955078125
z: 0.15123561024665833
visibility: 0.9628028869628906
","x: 131.45669555664062
y: 472.1887512207031
z: -0.4981245994567871
visibility: 0.982921838760376
","x: 186.00299072265625
y: 560.3880615234375
z: 0.05082608014345169
visibility: 0.9849854707717896
",,,,,,,,,,,,,,,,,,,,,,,,,,,,,,,,,,,,,,,,,,
23,"x: 189.40557861328125
y: 261.7102355957031
z: -0.2544574439525604
visibility: 0.9999404549598694
","x: 191.863037109375
y: 253.77325439453125
z: -0.2454797327518463
visibility: 0.9997965097427368
","x: 193.3880615234375
y: 253.72781372070312
z: -0.2455228567123413
visibility: 0.9997869729995728
","x: 194.92507934570312
y: 253.57261657714844
z: -0.245542973279953
visibility: 0.9998044967651367
","x: 187.9822235107422
y: 252.67953491210938
z: -0.23912659287452698
visibility: 0.9995091557502747
","x: 186.57505798339844
y: 252.03640747070312
z: -0.2391396313905716
visibility: 0.9995179176330566
","x: 185.20510864257812
y: 251.4000701904297
z: -0.23911616206169128
visibility: 0.9995667338371277
","x: 197.72669982910156
y: 252.81243896484375
z: -0.1507602035999298
visibility: 0.999742865562439
","x: 184.12538146972656
y: 250.93324279785156
z: -0.11948330700397491
visibility: 0.9992834329605103
","x: 191.83680725097656
y: 267.21697998046875
z: -0.21546971797943115
visibility: 0.9998769760131836
","x: 187.43685913085938
y: 267.0957336425781
z: -0.20671804249286652
visibility: 0.9996796250343323
","x: 209.98910522460938
y: 284.7784118652344
z: -0.11414186656475067
visibility: 0.999958872795105
","x: 176.22056579589844
y: 286.8673400878906
z: -0.0006235706387087703
visibility: 0.9999272227287292
","x: 210.86285400390625
y: 335.3155212402344
z: -0.1710698902606964
visibility: 0.9551004767417908
","x: 171.2821502685547
y: 335.9498596191406
z: -0.002585247391834855
visibility: 0.9576209187507629
","x: 199.28265380859375
y: 364.9190673828125
z: -0.30702611804008484
visibility: 0.9214524626731873
","x: 158.54624938964844
y: 359.75775146484375
z: -0.13228078186511993
visibility: 0.9557264447212219
","x: 196.6293182373047
y: 378.2139587402344
z: -0.3508574068546295
visibility: 0.8789428472518921
","x: 154.99559020996094
y: 366.6733093261719
z: -0.19730186462402344
visibility: 0.9274771809577942
","x: 190.37770080566406
y: 374.17535400390625
z: -0.36380547285079956
visibility: 0.8814176917076111
","x: 155.97882080078125
y: 364.4402770996094
z: -0.23877349495887756
visibility: 0.9299950003623962
","x: 192.07461547851562
y: 365.894287109375
z: -0.3141997456550598
visibility: 0.8677735924720764
","x: 157.78134155273438
y: 361.5480041503906
z: -0.17562918365001678
visibility: 0.9211910963058472
","x: 206.76547241210938
y: 380.8545227050781
z: -0.04640739783644676
visibility: 0.9998053908348083
","x: 189.0625457763672
y: 382.0638427734375
z: 0.04644938185811043
visibility: 0.9998373985290527
","x: 210.5175018310547
y: 451.51348876953125
z: -0.07082708179950714
visibility: 0.983453631401062
","x: 187.45236206054688
y: 461.9564208984375
z: 0.028661217540502548
visibility: 0.9793903231620789
","x: 227.9190216064453
y: 528.1051025390625
z: -0.011539136059582233
visibility: 0.9821466207504272
","x: 194.8971405029297
y: 538.2220458984375
z: 0.12240234762430191
visibility: 0.9901374578475952
","x: 233.99708557128906
y: 542.9464111328125
z: -0.01705699786543846
visibility: 0.9258229732513428
","x: 198.8050537109375
y: 549.36865234375
z: 0.12664559483528137
visibility: 0.9626550674438477
","x: 223.1458740234375
y: 549.15234375
z: -0.1798080950975418
visibility: 0.9841739535331726
","x: 187.02334594726562
y: 560.451171875
z: 0.02010534703731537
visibility: 0.9858337044715881
",,,,,,,,,,,,,,,,,,,,,,,,,,,,,,,,,,,,,,,,,,
24,"x: 193.399658203125
y: 264.04608154296875
z: -0.3809182345867157
visibility: 0.9999459981918335
","x: 195.68817138671875
y: 256.07098388671875
z: -0.37010952830314636
visibility: 0.9998152852058411
","x: 197.213134765625
y: 255.823486328125
z: -0.37011006474494934
visibility: 0.9998067617416382
","x: 198.65350341796875
y: 255.35597229003906
z: -0.3701675534248352
visibility: 0.9998224377632141
","x: 191.67086791992188
y: 255.2984619140625
z: -0.3680107891559601
visibility: 0.9995560646057129
","x: 190.3336181640625
y: 254.7435760498047
z: -0.36808088421821594
visibility: 0.9995635747909546
","x: 188.8755645751953
y: 254.17349243164062
z: -0.36803221702575684
visibility: 0.9996073246002197
","x: 200.94992065429688
y: 256.3034362792969
z: -0.2692532241344452
visibility: 0.9997670650482178
","x: 187.02987670898438
y: 251.19712829589844
z: -0.2565730810165405
visibility: 0.9993500113487244
","x: 195.66001892089844
y: 269.3443603515625
z: -0.34024447202682495
visibility: 0.9998883605003357
","x: 191.1581573486328
y: 269.1489562988281
z: -0.33665162324905396
visibility: 0.9997102618217468
","x: 213.0252227783203
y: 289.9043884277344
z: -0.19325248897075653
visibility: 0.9999626874923706
","x: 175.83457946777344
y: 295.83123779296875
z: -0.13969431817531586
visibility: 0.9999328255653381
","x: 233.0955047607422
y: 334.9564208984375
z: -0.17871883511543274
visibility: 0.9594434499740601
","x: 156.0554962158203
y: 329.7377014160156
z: -0.09789201617240906
visibility: 0.9616498351097107
","x: 257.95343017578125
y: 342.11669921875
z: -0.32145339250564575
visibility: 0.9290368556976318
","x: 128.60736083984375
y: 341.0058288574219
z: -0.20502379536628723
visibility: 0.9599400162696838
","x: 266.0883483886719
y: 343.9672546386719
z: -0.35470765829086304
visibility: 0.8901001811027527
","x: 118.5025634765625
y: 344.42034912109375
z: -0.23510205745697021
visibility: 0.9338946342468262
","x: 266.8712463378906
y: 340.43487548828125
z: -0.3884580135345459
visibility: 0.8925111889839172
","x: 118.50475311279297
y: 341.0106201171875
z: -0.27560076117515564
visibility: 0.9363237619400024
","x: 263.54913330078125
y: 339.0838317871094
z: -0.3402056396007538
visibility: 0.8801367282867432
","x: 121.7773666381836
y: 340.17437744140625
z: -0.2301017791032791
visibility: 0.9284193515777588
","x: 213.6103057861328
y: 384.2330627441406
z: -0.03554832190275192
visibility: 0.9998027086257935
","x: 192.8305206298828
y: 391.3027648925781
z: 0.03553240746259689
visibility: 0.9998298287391663
","x: 235.61082458496094
y: 458.0022888183594
z: -0.08387012779712677
visibility: 0.9850201606750488
","x: 187.36117553710938
y: 471.36572265625
z: 0.02796698734164238
visibility: 0.9811227321624756
","x: 259.8822021484375
y: 523.6839599609375
z: 0.06975862383842468
visibility: 0.9838100671768188
","x: 194.82376098632812
y: 538.086669921875
z: 0.2161126434803009
visibility: 0.9907633662223816
","x: 261.7759094238281
y: 531.3867797851562
z: 0.07777108252048492
visibility: 0.9255632162094116
","x: 198.76727294921875
y: 548.0420532226562
z: 0.22842875123023987
visibility: 0.9618351459503174
","x: 263.22576904296875
y: 555.9063720703125
z: -0.06028614565730095
visibility: 0.9854782819747925
","x: 187.7003173828125
y: 561.103759765625
z: 0.11688007414340973
visibility: 0.9866678714752197
",,,,,,,,,,,,,,,,,,,,,,,,,,,,,,,,,,,,,,,,,,
25,"x: 199.85110473632812
y: 264.5244140625
z: -0.3635943531990051
visibility: 0.9999510645866394
","x: 201.78021240234375
y: 257.10784912109375
z: -0.3527868390083313
visibility: 0.9998325705528259
","x: 203.22189331054688
y: 256.8514099121094
z: -0.3527807891368866
visibility: 0.9998249411582947
","x: 204.44332885742188
y: 256.23516845703125
z: -0.3528188169002533
visibility: 0.9998390078544617
","x: 197.54208374023438
y: 255.88687133789062
z: -0.3498224914073944
visibility: 0.9995989799499512
","x: 196.11862182617188
y: 256.3360595703125
z: -0.34989362955093384
visibility: 0.9996057152748108
","x: 194.68704223632812
y: 256.76702880859375
z: -0.34986943006515503
visibility: 0.999644935131073
","x: 205.9244842529297
y: 258.60308837890625
z: -0.24969665706157684
visibility: 0.9997890591621399
","x: 192.81298828125
y: 258.3749694824219
z: -0.2464609593153
visibility: 0.9994126558303833
","x: 202.36175537109375
y: 270.0436096191406
z: -0.3244442939758301
visibility: 0.9998986124992371
","x: 197.2260284423828
y: 270.8619384765625
z: -0.3224793076515198
visibility: 0.9997381567955017
","x: 220.89683532714844
y: 294.6564025878906
z: -0.17014168202877045
visibility: 0.9999657869338989
","x: 178.5677490234375
y: 302.18939208984375
z: -0.15215718746185303
visibility: 0.9999342560768127
","x: 245.3939971923828
y: 326.3458557128906
z: -0.16699370741844177
visibility: 0.9634066224098206
","x: 155.05747985839844
y: 327.0779724121094
z: -0.1409742385149002
visibility: 0.9653487801551819
","x: 270.74688720703125
y: 315.3829650878906
z: -0.3065836429595947
visibility: 0.9359933137893677
","x: 128.4670867919922
y: 339.6148681640625
z: -0.2443598508834839
visibility: 0.9636492729187012
","x: 279.6310729980469
y: 314.415283203125
z: -0.33921605348587036
visibility: 0.9004868865013123
","x: 119.38465118408203
y: 346.7140197753906
z: -0.2705783247947693
visibility: 0.9392949342727661
","x: 279.1843566894531
y: 309.98175048828125
z: -0.35808226466178894
visibility: 0.902764081954956
","x: 119.80082702636719
y: 343.84942626953125
z: -0.3062727749347687
visibility: 0.9417111873626709
","x: 276.0862121582031
y: 310.3865966796875
z: -0.3149651288986206
visibility: 0.8915552496910095
","x: 122.57855224609375
y: 342.3109436035156
z: -0.26427140831947327
visibility: 0.9345978498458862
","x: 221.43966674804688
y: 389.6416931152344
z: -0.017450306564569473
visibility: 0.9997801780700684
","x: 199.37974548339844
y: 398.6480407714844
z: 0.01744706928730011
visibility: 0.9998005032539368
","x: 243.71157836914062
y: 461.840576171875
z: -0.07747228443622589
visibility: 0.986405611038208
","x: 190.39878845214844
y: 474.28265380859375
z: -0.010848655365407467
visibility: 0.9827858209609985
","x: 263.0594177246094
y: 526.629638671875
z: 0.07518824934959412
visibility: 0.9852399826049805
","x: 194.3404083251953
y: 538.2450561523438
z: 0.1743384450674057
visibility: 0.9913427829742432
","x: 263.766845703125
y: 534.3455810546875
z: 0.08292688429355621
visibility: 0.9235795736312866
","x: 198.2535858154297
y: 547.9382934570312
z: 0.1783256232738495
visibility: 0.9602712392807007
","x: 266.0333251953125
y: 555.4630126953125
z: -0.0506826713681221
visibility: 0.9864137172698975
","x: 187.9629364013672
y: 561.4902954101562
z: 0.1033097505569458
visibility: 0.9872323274612427
",,,,,,,,,,,,,,,,,,,,,,,,,,,,,,,,,,,,,,,,,,
26,"x: 208.23385620117188
y: 264.05987548828125
z: -0.35601162910461426
visibility: 0.9999558329582214
","x: 209.68043518066406
y: 256.59283447265625
z: -0.33324936032295227
visibility: 0.9998489022254944
","x: 210.75360107421875
y: 256.5398864746094
z: -0.33324459195137024
visibility: 0.9998419880867004
","x: 211.7975616455078
y: 256.3326721191406
z: -0.3332618772983551
visibility: 0.9998546242713928
","x: 205.3950958251953
y: 256.1132507324219
z: -0.3469265401363373
visibility: 0.9996386766433716
","x: 203.54759216308594
y: 256.3846435546875
z: -0.34697243571281433
visibility: 0.9996447563171387
","x: 201.86585998535156
y: 256.66632080078125
z: -0.34699320793151855
visibility: 0.9996799826622009
","x: 212.64447021484375
y: 258.60040283203125
z: -0.21378305554389954
visibility: 0.9998095631599426
","x: 199.07337951660156
y: 258.64593505859375
z: -0.23673216998577118
visibility: 0.9994710683822632
","x: 210.65048217773438
y: 270.6729431152344
z: -0.3082980811595917
visibility: 0.999908447265625
","x: 205.19451904296875
y: 271.46075439453125
z: -0.3148171007633209
visibility: 0.9997641444206238
","x: 227.21217346191406
y: 294.8045654296875
z: -0.13576877117156982
visibility: 0.9999682307243347
","x: 184.2407684326172
y: 302.48504638671875
z: -0.14870226383209229
visibility: 0.9999377727508545
","x: 254.60000610351562
y: 317.0262451171875
z: -0.1741182655096054
visibility: 0.9669749736785889
","x: 157.59310913085938
y: 326.3093566894531
z: -0.17733992636203766
visibility: 0.9686286449432373
","x: 272.6605529785156
y: 287.22845458984375
z: -0.3261425197124481
visibility: 0.9422624707221985
","x: 134.54383850097656
y: 345.1344299316406
z: -0.30951154232025146
visibility: 0.9667679667472839
","x: 279.3294372558594
y: 277.3038024902344
z: -0.3590232729911804
visibility: 0.9097884893417358
","x: 128.13356018066406
y: 353.3572082519531
z: -0.3368964195251465
visibility: 0.9432977437973022
","x: 277.5373840332031
y: 272.0257263183594
z: -0.37438875436782837
visibility: 0.9119253158569336
","x: 128.6107177734375
y: 352.4490966796875
z: -0.3661743104457855
visibility: 0.9457879066467285
","x: 274.76055908203125
y: 275.1665954589844
z: -0.3384656608104706
visibility: 0.9017115831375122
","x: 130.53591918945312
y: 349.89306640625
z: -0.3261840045452118
visibility: 0.9393596053123474
","x: 228.37362670898438
y: 390.29010009765625
z: -0.007034728769212961
visibility: 0.9997841119766235
","x: 205.87379455566406
y: 399.1959228515625
z: 0.007051416672766209
visibility: 0.9998020529747009
","x: 246.8603057861328
y: 463.9234924316406
z: -0.07225217670202255
visibility: 0.9876770973205566
","x: 194.94476318359375
y: 473.8135986328125
z: -0.05648290365934372
visibility: 0.9843994975090027
","x: 262.57025146484375
y: 528.2088623046875
z: 0.08303558826446533
visibility: 0.9866019487380981
","x: 194.32354736328125
y: 538.2280883789062
z: 0.10997028648853302
visibility: 0.9920718669891357
","x: 262.3212585449219
y: 540.012939453125
z: 0.09025003761053085
visibility: 0.92691570520401
","x: 197.94802856445312
y: 547.5269165039062
z: 0.11884870380163193
visibility: 0.9619430303573608
","x: 266.4168395996094
y: 554.3294677734375
z: -0.04083508998155594
visibility: 0.9874886870384216
","x: 188.09808349609375
y: 561.305419921875
z: 0.009161416441202164
visibility: 0.9882021546363831
",,,,,,,,,,,,,,,,,,,,,,,,,,,,,,,,,,,,,,,,,,
27,"x: 222.949951171875
y: 261.076904296875
z: -0.332228422164917
visibility: 0.9999599456787109
","x: 223.07688903808594
y: 252.52117919921875
z: -0.31346777081489563
visibility: 0.9998626708984375
","x: 223.89157104492188
y: 252.2527313232422
z: -0.3134472072124481
visibility: 0.9998562932014465
","x: 224.67269897460938
y: 251.90545654296875
z: -0.3134685158729553
visibility: 0.9998672604560852
","x: 219.85853576660156
y: 252.524169921875
z: -0.324657142162323
visibility: 0.9996737837791443
","x: 218.44967651367188
y: 252.51930236816406
z: -0.3246881067752838
visibility: 0.9996793866157532
","x: 217.00904846191406
y: 252.5200653076172
z: -0.3247014880180359
visibility: 0.9997109770774841
","x: 223.228759765625
y: 253.62379455566406
z: -0.19467470049858093
visibility: 0.9998249411582947
","x: 212.580078125
y: 255.21658325195312
z: -0.2316925972700119
visibility: 0.999523401260376
","x: 223.8575439453125
y: 267.35064697265625
z: -0.28534290194511414
visibility: 0.9999165534973145
","x: 219.888427734375
y: 268.61956787109375
z: -0.29804790019989014
visibility: 0.9997872114181519
","x: 237.9232635498047
y: 289.0860290527344
z: -0.10548180341720581
visibility: 0.9999678730964661
","x: 197.39625549316406
y: 299.833251953125
z: -0.14712712168693542
visibility: 0.9999417662620544
","x: 266.4184875488281
y: 291.3931579589844
z: -0.174982950091362
visibility: 0.9701452851295471
","x: 177.44830322265625
y: 332.13623046875
z: -0.14886508882045746
visibility: 0.97150057554245
","x: 273.2183837890625
y: 244.85572814941406
z: -0.3426535427570343
visibility: 0.9477385878562927
","x: 158.8730926513672
y: 361.7940979003906
z: -0.25455915927886963
visibility: 0.9691066741943359
","x: 275.6693420410156
y: 231.27520751953125
z: -0.3761715292930603
visibility: 0.9173178672790527
","x: 154.01768493652344
y: 373.82342529296875
z: -0.2914634048938751
visibility: 0.9455243349075317
","x: 273.76971435546875
y: 229.43356323242188
z: -0.3839718699455261
visibility: 0.919369637966156
","x: 154.78623962402344
y: 374.0233154296875
z: -0.31768161058425903
visibility: 0.9481768608093262
","x: 272.31378173828125
y: 234.5115966796875
z: -0.35272565484046936
visibility: 0.909927487373352
","x: 156.78164672851562
y: 370.5714416503906
z: -0.2728932499885559
visibility: 0.9419269561767578
","x: 236.53207397460938
y: 389.63519287109375
z: 0.008245899342000484
visibility: 0.9997889399528503
","x: 214.08660888671875
y: 398.2174377441406
z: -0.008297363296151161
visibility: 0.9998012781143188
","x: 250.2856903076172
y: 464.95294189453125
z: -0.00941561535000801
visibility: 0.9886904954910278
","x: 207.88409423828125
y: 472.9467468261719
z: -0.0386909618973732
visibility: 0.9858280420303345
","x: 261.8916931152344
y: 531.7163696289062
z: 0.13327939808368683
visibility: 0.9877369999885559
","x: 196.78497314453125
y: 538.217041015625
z: 0.11736203730106354
visibility: 0.992730975151062
","x: 261.3251953125
y: 543.4483642578125
z: 0.14011439681053162
visibility: 0.9312416315078735
","x: 199.2349090576172
