uscmakers/ReverseChoreography/data/4_slow_dancing_in_the_dark_joji.csv
,NOSE,LEFT_EYE_INNER,LEFT_EYE,LEFT_EYE_OUTER,RIGHT_EYE_INNER,RIGHT_EYE,RIGHT_EYE_OUTER,LEFT_EAR,RIGHT_EAR,MOUTH_LEFT,MOUTH_RIGHT,LEFT_SHOULDER,RIGHT_SHOULDER,LEFT_ELBOW,RIGHT_ELBOW,LEFT_WRIST,RIGHT_WRIST,LEFT_PINKY,RIGHT_PINKY,LEFT_INDEX,RIGHT_INDEX,LEFT_THUMB,RIGHT_THUMB,LEFT_HIP,RIGHT_HIP,LEFT_KNEE,RIGHT_KNEE,LEFT_ANKLE,RIGHT_ANKLE,LEFT_HEEL,RIGHT_HEEL,LEFT_FOOT_INDEX,RIGHT_FOOT_INDEX,WRIST2,THUMB_CPC2,THUMB_MCP2,THUMB_IP2,THUMB_TIP2,INDEX_FINGER_MCP2,INDEX_FINGER_PIP2,INDEX_FINGER_DIP2,INDEX_FINGER_TIP2,MIDDLE_FINGER_MCP2,MIDDLE_FINGER_PIP2,MIDDLE_FINGER_DIP2,MIDDLE_FINGER_TIP2,RING_FINGER_PIP2,RING_FINGER_DIP2,RING_FINGER_TIP2,RING_FINGER_MCP2,PINKY_MCP2,PINKY_PIP2,PINKY_DIP2,PINKY_TIP2,WRIST,THUMB_CPC,THUMB_MCP,THUMB_IP,THUMB_TIP,INDEX_FINGER_MCP,INDEX_FINGER_PIP,INDEX_FINGER_DIP,INDEX_FINGER_TIP,MIDDLE_FINGER_MCP,MIDDLE_FINGER_PIP,MIDDLE_FINGER_DIP,MIDDLE_FINGER_TIP,RING_FINGER_PIP,RING_FINGER_DIP,RING_FINGER_TIP,RING_FINGER_MCP,PINKY_MCP,PINKY_PIP,PINKY_DIP,PINKY_TIP
0,"x: 202.78903198242188
y: 312.5147399902344
z: -0.47913599014282227
visibility: 0.9999996423721313
","x: 204.86468505859375
y: 304.7671813964844
z: -0.4646543562412262
visibility: 0.9999992847442627
","x: 206.0271453857422
y: 305.2383728027344
z: -0.4646082818508148
visibility: 0.9999991655349731
","x: 207.320068359375
y: 305.55584716796875
z: -0.46468520164489746
visibility: 0.9999992847442627
","x: 201.6632843017578
y: 302.57501220703125
z: -0.4616331160068512
visibility: 0.999998927116394
","x: 200.3825225830078
y: 301.8128662109375
z: -0.46175631880760193
visibility: 0.9999988079071045
","x: 199.0252685546875
y: 301.181396484375
z: -0.46178093552589417
visibility: 0.9999991655349731
","x: 209.5659637451172
y: 307.19342041015625
z: -0.3557838499546051
visibility: 0.9999979734420776
","x: 196.36170959472656
y: 304.9010009765625
z: -0.3434761166572571
visibility: 0.9999971389770508
","x: 205.10177612304688
y: 319.3902282714844
z: -0.43628621101379395
visibility: 0.9999997615814209
","x: 200.08181762695312
y: 318.8653869628906
z: -0.4329531788825989
visibility: 0.9999992847442627
","x: 224.73509216308594
y: 351.1865234375
z: -0.28191077709198
visibility: 0.9999972581863403
","x: 181.70553588867188
y: 348.4967346191406
z: -0.22151604294776917
visibility: 0.9999911785125732
","x: 240.0181427001953
y: 405.0314025878906
z: -0.2606613337993622
visibility: 0.9970787763595581
","x: 171.86480712890625
y: 400.1864929199219
z: -0.17948207259178162
visibility: 0.9938050508499146
","x: 245.81942749023438
y: 453.9090270996094
z: -0.33880582451820374
visibility: 0.9712921977043152
","x: 167.6556854248047
y: 452.0303039550781
z: -0.2509903013706207
visibility: 0.9814882278442383
","x: 248.87672424316406
y: 466.46484375
z: -0.3666832447052002
visibility: 0.9367755055427551
","x: 164.31361389160156
y: 466.0330810546875
z: -0.27185168862342834
visibility: 0.9595305919647217
","x: 245.64903259277344
y: 467.10687255859375
z: -0.3919018805027008
visibility: 0.9427520632743835
","x: 167.020751953125
y: 466.76898193359375
z: -0.3058660626411438
visibility: 0.9643049240112305
","x: 243.69839477539062
y: 463.4822998046875
z: -0.3496265411376953
visibility: 0.9244603514671326
","x: 168.7952880859375
y: 462.161865234375
z: -0.2656041383743286
visibility: 0.9587795734405518
","x: 225.16200256347656
y: 429.40777587890625
z: -0.040919091552495956
visibility: 0.9999865293502808
","x: 204.3248291015625
y: 434.5007629394531
z: 0.0408196896314621
visibility: 0.9999568462371826
","x: 203.94805908203125
y: 493.9783935546875
z: -0.23681668937206268
visibility: 0.9953547716140747
","x: 197.7106475830078
y: 507.19830322265625
z: 0.030919265002012253
visibility: 0.9681781530380249
","x: 210.76014709472656
y: 530.31298828125
z: -0.027864832431077957
visibility: 0.9972405433654785
","x: 235.29811096191406
y: 509.5255126953125
z: 0.3303622007369995
visibility: 0.963754415512085
","x: 215.22848510742188
y: 533.452880859375
z: -0.010878551751375198
visibility: 0.9702991843223572
","x: 241.26516723632812
y: 499.7315979003906
z: 0.35863742232322693
visibility: 0.9617103338241577
","x: 206.65219116210938
y: 559.5874633789062
z: -0.10544224083423615
visibility: 0.9932883381843567
","x: 247.2886505126953
y: 536.4240112304688
z: 0.30288180708885193
visibility: 0.9461171627044678
",,,,,,,,,,,,,,,,,,,,,,,,,,,,,,,,,,,,,,,,,,
1,"x: 201.5585174560547
y: 411.9021911621094
z: -0.7049863338470459
visibility: 0.9999996423721313
","x: 201.03955078125
y: 403.14556884765625
z: -0.6974348425865173
visibility: 0.9999991059303284
","x: 201.97796630859375
y: 400.6736755371094
z: -0.6973078846931458
visibility: 0.9999989867210388
","x: 202.8566436767578
y: 398.19110107421875
z: -0.6973198652267456
visibility: 0.999998927116394
","x: 197.6766815185547
y: 408.23919677734375
z: -0.6915920972824097
visibility: 0.9999988675117493
","x: 196.35653686523438
y: 409.21221923828125
z: -0.6916727423667908
visibility: 0.9999988079071045
","x: 195.1073455810547
y: 409.9134826660156
z: -0.6917106509208679
visibility: 0.9999991059303284
","x: 203.6744842529297
y: 391.77239990234375
z: -0.5872882604598999
visibility: 0.9999977946281433
","x: 192.82760620117188
y: 408.3931884765625
z: -0.55701744556427
visibility: 0.9999972581863403
","x: 204.3866424560547
y: 413.216552734375
z: -0.6591413021087646
visibility: 0.9999997019767761
","x: 200.09564208984375
y: 417.8966064453125
z: -0.6506105661392212
visibility: 0.9999991655349731
","x: 223.096435546875
y: 383.71685791015625
z: -0.3881942629814148
visibility: 0.9999966621398926
","x: 185.69430541992188
y: 437.1871643066406
z: -0.4216023087501526
visibility: 0.9999880194664001
","x: 233.2849884033203
y: 368.4718017578125
z: -0.19048720598220825
visibility: 0.9967291355133057
","x: 180.29598999023438
y: 492.8321838378906
z: -0.47138628363609314
visibility: 0.9943180084228516
","x: 243.03285217285156
y: 408.487548828125
z: -0.004353933967649937
visibility: 0.9731143116950989
","x: 177.66200256347656
y: 545.5012817382812
z: -0.5456200838088989
visibility: 0.9832464456558228
","x: 245.42054748535156
y: 419.4022216796875
z: 0.03157535940408707
visibility: 0.9405887126922607
","x: 172.52191162109375
y: 553.8419189453125
z: -0.5640676021575928
visibility: 0.9631150364875793
","x: 243.7854461669922
y: 421.3897705078125
z: 0.012228268198668957
visibility: 0.9467054605484009
","x: 175.04458618164062
y: 555.17431640625
z: -0.5909398794174194
visibility: 0.9674966335296631
","x: 242.27511596679688
y: 418.3900146484375
z: -0.0027572307735681534
visibility: 0.930222749710083
","x: 178.45204162597656
y: 552.775146484375
z: -0.5560559034347534
visibility: 0.9624226689338684
","x: 229.3458709716797
y: 441.5594787597656
z: -0.01757211983203888
visibility: 0.9999874234199524
","x: 212.4977569580078
y: 452.5787048339844
z: 0.01734348013997078
visibility: 0.9999553561210632
","x: 223.14285278320312
y: 482.12384033203125
z: -0.3136257529258728
visibility: 0.9949350953102112
","x: 237.27816772460938
y: 504.04931640625
z: -0.010424420237541199
visibility: 0.9679070115089417
","x: 211.0484619140625
y: 536.4561767578125
z: -0.11263897269964218
visibility: 0.9973347187042236
","x: 270.42041015625
y: 528.8138427734375
z: 0.24931320548057556
visibility: 0.9659332633018494
","x: 212.895263671875
y: 545.2338256835938
z: -0.09964047372341156
visibility: 0.9724133610725403
","x: 274.651611328125
y: 525.354248046875
z: 0.27092301845550537
visibility: 0.9636404514312744
","x: 206.91412353515625
y: 560.16064453125
z: -0.24873360991477966
visibility: 0.9937052726745605
","x: 281.1814270019531
y: 547.4736328125
z: 0.16601012647151947
visibility: 0.9502438306808472
",,,,,,,,,,,,,,,,,,,,,,,,,,,,,,,,,,,,,,,,,,
2,"x: 201.57615661621094
y: 419.407958984375
z: -0.7367421984672546
visibility: 0.9999996423721313
","x: 201.3465118408203
y: 410.08551025390625
z: -0.7316237688064575
visibility: 0.9999990463256836
","x: 202.3852996826172
y: 407.87786865234375
z: -0.7315304279327393
visibility: 0.999998927116394
","x: 203.38540649414062
y: 405.5948181152344
z: -0.7316403388977051
visibility: 0.9999987483024597
","x: 197.57781982421875
y: 414.66973876953125
z: -0.7235274910926819
visibility: 0.9999988079071045
","x: 196.1284637451172
y: 415.4716491699219
z: -0.7235988974571228
visibility: 0.9999988079071045
","x: 194.72592163085938
y: 415.99786376953125
z: -0.7236025929450989
visibility: 0.999998927116394
","x: 204.52020263671875
y: 398.716552734375
z: -0.6279429793357849
visibility: 0.9999977350234985
","x: 192.36270141601562
y: 413.8011474609375
z: -0.5881572365760803
visibility: 0.9999973177909851
","x: 204.45181274414062
y: 421.25262451171875
z: -0.6929108500480652
visibility: 0.9999997019767761
","x: 200.4442596435547
y: 425.9042053222656
z: -0.6817343235015869
visibility: 0.9999989867210388
","x: 224.29576110839844
y: 403.11029052734375
z: -0.42273348569869995
visibility: 0.9999960660934448
","x: 185.6074676513672
y: 441.87066650390625
z: -0.44050437211990356
visibility: 0.999987781047821
","x: 239.50411987304688
y: 403.1615905761719
z: -0.20680205523967743
visibility: 0.9966473579406738
","x: 181.82785034179688
y: 496.6494445800781
z: -0.4418666362762451
visibility: 0.9946656227111816
","x: 250.827880859375
y: 432.48699951171875
z: -0.019370730966329575
visibility: 0.9743541479110718
","x: 179.8023681640625
y: 546.5869750976562
z: -0.4919046461582184
visibility: 0.9846716523170471
","x: 253.1632843017578
y: 445.1166076660156
z: 0.01623743586242199
visibility: 0.942680299282074
","x: 174.8911895751953
y: 557.324462890625
z: -0.5092238187789917
visibility: 0.9656432271003723
","x: 250.8496856689453
y: 446.8084411621094
z: -0.002883781911805272
visibility: 0.9493623375892639
","x: 178.24349975585938
y: 558.4363403320312
z: -0.5362420082092285
visibility: 0.9698929786682129
","x: 249.36996459960938
y: 442.18341064453125
z: -0.01697615161538124
visibility: 0.9346022605895996
","x: 181.27017211914062
y: 554.863525390625
z: -0.5022133588790894
visibility: 0.9652079343795776
","x: 229.56060791015625
y: 436.51446533203125
z: -0.011346327140927315
visibility: 0.9999881386756897
","x: 211.94854736328125
y: 449.72662353515625
z: 0.011226871982216835
visibility: 0.9999562501907349
","x: 222.49618530273438
y: 481.04144287109375
z: -0.2500295042991638
visibility: 0.9937339425086975
","x: 239.89479064941406
y: 496.8143310546875
z: 0.02271203324198723
visibility: 0.964165449142456
","x: 211.99461364746094
y: 535.9863891601562
z: -0.07533848285675049
visibility: 0.9971367120742798
","x: 271.2716369628906
y: 537.86279296875
z: 0.2742769122123718
visibility: 0.9661312103271484
","x: 212.96182250976562
y: 544.30615234375
z: -0.05978242680430412
visibility: 0.9731770157814026
","x: 274.5902404785156
y: 541.5555419921875
z: 0.2937035858631134
visibility: 0.9611036777496338
","x: 207.4379425048828
y: 560.4419555664062
z: -0.19814252853393555
visibility: 0.9937922358512878
","x: 283.41827392578125
y: 549.3634033203125
z: 0.17381374537944794
visibility: 0.9525202512741089
",,,,,,,,,,,,,,,,,,,,,,,,,,,,,,,,,,,,,,,,,,
3,"x: 207.2765350341797
y: 427.4420471191406
z: -0.7668616771697998
visibility: 0.999999463558197
","x: 206.56158447265625
y: 419.0892028808594
z: -0.76111900806427
visibility: 0.9999985694885254
","x: 207.6801300048828
y: 417.005126953125
z: -0.7611023187637329
visibility: 0.9999983906745911
","x: 208.7021942138672
y: 414.80523681640625
z: -0.7612305879592896
visibility: 0.999998152256012
","x: 202.5644073486328
y: 422.6100158691406
z: -0.7577535510063171
visibility: 0.9999979734420776
","x: 200.88748168945312
y: 423.1390075683594
z: -0.7578469514846802
visibility: 0.9999975562095642
","x: 199.23129272460938
y: 423.5486145019531
z: -0.7578669786453247
visibility: 0.9999975562095642
","x: 208.78216552734375
y: 407.83978271484375
z: -0.645694375038147
visibility: 0.9999956488609314
","x: 195.54171752929688
y: 421.43927001953125
z: -0.6319078207015991
visibility: 0.999994695186615
","x: 210.145263671875
y: 429.1041564941406
z: -0.7166320085525513
visibility: 0.9999994039535522
","x: 206.1870880126953
y: 432.3609619140625
z: -0.7125967741012573
visibility: 0.9999985694885254
","x: 229.81246948242188
y: 414.9754638671875
z: -0.4821394085884094
visibility: 0.9999932050704956
","x: 186.2202911376953
y: 446.043701171875
z: -0.47057947516441345
visibility: 0.999984085559845
","x: 240.37203979492188
y: 458.69744873046875
z: -0.46619901061058044
visibility: 0.9955122470855713
","x: 182.3193817138672
y: 501.6212158203125
z: -0.4683232307434082
visibility: 0.9943761825561523
","x: 253.95443725585938
y: 504.70697021484375
z: -0.4917403757572174
visibility: 0.9738733172416687
","x: 179.07772827148438
y: 549.687255859375
z: -0.5278934836387634
visibility: 0.984634280204773
","x: 260.1552734375
y: 516.294677734375
z: -0.520304799079895
visibility: 0.9399619698524475
","x: 174.67848205566406
y: 558.2652587890625
z: -0.5612647533416748
visibility: 0.9644118547439575
","x: 257.3800964355469
y: 518.9063110351562
z: -0.5399079322814941
visibility: 0.9471798539161682
","x: 176.91598510742188
y: 559.5105590820312
z: -0.5876270532608032
visibility: 0.9691468477249146
","x: 254.36891174316406
y: 516.24169921875
z: -0.5009515285491943
visibility: 0.9331516027450562
","x: 179.65716552734375
y: 557.400146484375
z: -0.5412734150886536
visibility: 0.964431643486023
","x: 229.5225067138672
y: 439.072021484375
z: 0.001712154597043991
visibility: 0.9999819397926331
","x: 211.35826110839844
y: 454.07855224609375
z: -0.0015480180736631155
visibility: 0.9999470710754395
","x: 220.55516052246094
y: 473.8270263671875
z: -0.17973560094833374
visibility: 0.9701224565505981
","x: 243.5859832763672
y: 494.84759521484375
z: -0.08488380163908005
visibility: 0.9490916728973389
","x: 212.0087890625
y: 538.0419311523438
z: 0.023205839097499847
visibility: 0.9901740550994873
","x: 275.2274169921875
y: 533.1728515625
z: 0.1570718139410019
visibility: 0.9630287289619446
","x: 211.29371643066406
y: 547.1189575195312
z: 0.037816569209098816
visibility: 0.9589868187904358
","x: 279.0285339355469
y: 535.4200439453125
z: 0.17599600553512573
visibility: 0.9478572607040405
","x: 207.8657684326172
y: 560.3729858398438
z: -0.09711961448192596
visibility: 0.9876526594161987
","x: 285.69097900390625
y: 547.2889404296875
z: 0.0383647084236145
visibility: 0.9499228596687317
",,,,,,,,,,,,,,,,,,,,,,,,,,,,,,,,,,,,,,,,,,
4,"x: 211.84837341308594
y: 441.9372253417969
z: -0.8326808214187622
visibility: 0.999999463558197
","x: 211.5131378173828
y: 435.34967041015625
z: -0.8257972002029419
visibility: 0.9999985694885254
","x: 212.3976287841797
y: 433.6536865234375
z: -0.8257476091384888
visibility: 0.9999984502792358
","x: 213.23391723632812
y: 431.77972412109375
z: -0.8258970379829407
visibility: 0.9999982118606567
","x: 208.25421142578125
y: 437.9086608886719
z: -0.8212650418281555
visibility: 0.9999979734420776
","x: 206.82025146484375
y: 438.068115234375
z: -0.8213803172111511
visibility: 0.999997615814209
","x: 205.2499237060547
y: 438.0066223144531
z: -0.8213990330696106
visibility: 0.9999974966049194
","x: 213.81423950195312
y: 423.04510498046875
z: -0.6990095376968384
visibility: 0.9999957084655762
","x: 201.61624145507812
y: 432.92034912109375
z: -0.6824726462364197
visibility: 0.9999948740005493
","x: 214.30307006835938
y: 441.8939514160156
z: -0.7786303758621216
visibility: 0.9999994039535522
","x: 210.8920440673828
y: 444.5223388671875
z: -0.7737393379211426
visibility: 0.9999985694885254
","x: 237.88475036621094
y: 423.4222717285156
z: -0.5302698016166687
visibility: 0.9999921917915344
","x: 189.4342803955078
y: 448.0423583984375
z: -0.5075821876525879
visibility: 0.9999793767929077
","x: 250.46372985839844
y: 466.6085205078125
z: -0.5126564502716064
visibility: 0.9954991340637207
","x: 182.83856201171875
y: 500.4908752441406
z: -0.46571844816207886
visibility: 0.9944679737091064
","x: 256.5251159667969
y: 513.114990234375
z: -0.5526071190834045
visibility: 0.9734976887702942
","x: 179.42616271972656
y: 550.9639892578125
z: -0.5088235139846802
visibility: 0.9841925501823425
","x: 262.55035400390625
y: 524.2244262695312
z: -0.5865038633346558
visibility: 0.9285226464271545
","x: 174.66481018066406
y: 558.90771484375
z: -0.5389643907546997
visibility: 0.9615527987480164
","x: 259.131103515625
y: 525.9525146484375
z: -0.6075155735015869
visibility: 0.9370726346969604
","x: 176.97947692871094
y: 560.017333984375
z: -0.5599583387374878
visibility: 0.9670358896255493
","x: 255.77659606933594
y: 522.870849609375
z: -0.562181293964386
visibility: 0.9208348393440247
","x: 179.8422088623047
y: 557.89013671875
z: -0.5180522799491882
visibility: 0.960933268070221
","x: 234.06338500976562
y: 447.7777099609375
z: 0.005322744604200125
visibility: 0.9999629855155945
","x: 212.2449188232422
y: 461.0309143066406
z: -0.005301718600094318
visibility: 0.9999422430992126
","x: 221.9209442138672
y: 498.1701354980469
z: -0.17733120918273926
visibility: 0.9637605547904968
","x: 240.5211944580078
y: 502.35821533203125
z: -0.14913788437843323
visibility: 0.9434899091720581
","x: 210.4965362548828
y: 540.6215209960938
z: 0.06584858149290085
visibility: 0.9874019026756287
","x: 270.36688232421875
y: 529.5616455078125
z: 0.12353146076202393
visibility: 0.95569908618927
","x: 207.95269775390625
y: 547.6177978515625
z: 0.08570050448179245
visibility: 0.9556751847267151
","x: 274.87408447265625
y: 528.8056030273438
z: 0.14520642161369324
visibility: 0.9215371012687683
","x: 207.22389221191406
y: 560.4198608398438
z: -0.053153954446315765
visibility: 0.9864138960838318
","x: 282.724853515625
y: 545.8714599609375
z: 0.007703457958996296
visibility: 0.9407109618186951
",,,,,,,,,,,,,,,,,,,,,,,,,,,,,,,,,,,,,,,,,,
5,"x: 212.6678924560547
y: 450.0257568359375
z: -0.7225633859634399
visibility: 0.9999995231628418
","x: 212.4949951171875
y: 444.2366027832031
z: -0.7201219797134399
visibility: 0.9999986886978149
","x: 213.36264038085938
y: 442.66973876953125
z: -0.7200268507003784
visibility: 0.9999986290931702
","x: 214.2143096923828
y: 440.944091796875
z: -0.7201329469680786
visibility: 0.9999983906745911
","x: 209.46890258789062
y: 446.10174560546875
z: -0.7106695771217346
visibility: 0.999998152256012
","x: 208.25253295898438
y: 445.8774108886719
z: -0.7107785940170288
visibility: 0.9999978542327881
","x: 206.92698669433594
y: 445.5438537597656
z: -0.7108138203620911
visibility: 0.9999977350234985
","x: 215.3470916748047
y: 432.38885498046875
z: -0.6207150816917419
visibility: 0.9999961256980896
","x: 204.38864135742188
y: 439.37176513671875
z: -0.5806435346603394
visibility: 0.9999953508377075
","x: 214.97027587890625
y: 449.12335205078125
z: -0.6780377626419067
visibility: 0.999999463558197
","x: 211.953857421875
y: 450.69464111328125
z: -0.6671298742294312
visibility: 0.9999986886978149
","x: 238.533935546875
y: 430.2365417480469
z: -0.4770219922065735
visibility: 0.9999926686286926
","x: 192.5000762939453
y: 450.2355651855469
z: -0.4165428578853607
visibility: 0.9999787211418152
","x: 257.0043640136719
y: 466.6952819824219
z: -0.418858140707016
visibility: 0.9955268502235413
","x: 182.20193481445312
y: 500.2314453125
z: -0.39369702339172363
visibility: 0.9949181079864502
","x: 258.34686279296875
y: 513.2905883789062
z: -0.3902152180671692
visibility: 0.9746993184089661
","x: 179.7119903564453
y: 549.073974609375
z: -0.3814082741737366
visibility: 0.9852768182754517
","x: 262.2177429199219
y: 525.6427612304688
z: -0.4043390154838562
visibility: 0.9284816384315491
","x: 174.6480255126953
y: 558.5984497070312
z: -0.3940437436103821
visibility: 0.9635898470878601
","x: 257.483154296875
y: 525.5015258789062
z: -0.42161083221435547
visibility: 0.9363605380058289
","x: 177.625244140625
y: 559.2025146484375
z: -0.41248100996017456
visibility: 0.968966007232666
","x: 255.16806030273438
y: 521.6959228515625
z: -0.39410537481307983
visibility: 0.9219103455543518
","x: 180.130615234375
y: 556.5131225585938
z: -0.3870091140270233
visibility: 0.9631015062332153
","x: 236.67752075195312
y: 463.6144714355469
z: -0.014552615582942963
visibility: 0.9999578595161438
","x: 218.8875274658203
y: 473.36053466796875
z: 0.014275451190769672
visibility: 0.9999336004257202
","x: 222.5646514892578
y: 497.35028076171875
z: -0.3264489471912384
visibility: 0.9628235697746277
","x: 243.1044158935547
y: 525.1448974609375
z: -0.07126174122095108
visibility: 0.942314624786377
","x: 210.54763793945312
y: 540.9625854492188
z: -0.11566273123025894
visibility: 0.9878401160240173
","x: 274.50830078125
y: 531.58154296875
z: 0.20555588603019714
visibility: 0.9561000466346741
","x: 208.72584533691406
y: 547.65625
z: -0.10123232752084732
visibility: 0.9566917419433594
","x: 278.74053955078125
y: 526.1275024414062
z: 0.2282007932662964
visibility: 0.921580970287323
","x: 209.05972290039062
y: 560.8844604492188
z: -0.23423048853874207
visibility: 0.9869769811630249
","x: 286.517333984375
y: 548.4661254882812
z: 0.12161539494991302
visibility: 0.9413720965385437
",,,,,,,,,,,,,,,,,,,,,,,,,,,,,,,,,,,,,,,,,,
6,"x: 214.70123291015625
y: 451.0303039550781
z: -0.537023663520813
visibility: 0.9999995827674866
","x: 214.60308837890625
y: 444.6331787109375
z: -0.5388062000274658
visibility: 0.9999988079071045
","x: 215.64602661132812
y: 442.7784729003906
z: -0.5387496948242188
visibility: 0.9999987483024597
","x: 216.6511688232422
y: 440.7738952636719
z: -0.5388282537460327
visibility: 0.9999985098838806
","x: 211.2510986328125
y: 447.0848388671875
z: -0.5341006517410278
visibility: 0.9999982714653015
","x: 209.91561889648438
y: 447.01702880859375
z: -0.5341954231262207
visibility: 0.9999979734420776
","x: 208.53662109375
y: 446.79913330078125
z: -0.5342550873756409
visibility: 0.9999978542327881
","x: 217.37782287597656
y: 433.81591796875
z: -0.4677043855190277
visibility: 0.9999964833259583
","x: 205.3883514404297
y: 442.7068786621094
z: -0.44593343138694763
visibility: 0.9999957084655762
","x: 217.41275024414062
y: 451.1064453125
z: -0.5035333037376404
visibility: 0.9999995231628418
","x: 213.80992126464844
y: 453.5906982421875
z: -0.4975789487361908
visibility: 0.9999988079071045
","x: 236.47891235351562
y: 440.60205078125
z: -0.37139567732810974
visibility: 0.9999930262565613
","x: 194.9986572265625
y: 452.4920349121094
z: -0.33109891414642334
visibility: 0.9999788999557495
","x: 260.534423828125
y: 467.57275390625
z: -0.3742988705635071
visibility: 0.9957523345947266
","x: 182.24224853515625
y: 500.92529296875
z: -0.34248602390289307
visibility: 0.9951886534690857
","x: 257.8044128417969
y: 512.6826782226562
z: -0.3571499288082123
visibility: 0.9743423461914062
","x: 180.11778259277344
y: 549.773681640625
z: -0.3888028562068939
visibility: 0.9846073389053345
","x: 260.62249755859375
y: 525.6395263671875
z: -0.37013542652130127
visibility: 0.9271645545959473
","x: 175.06651306152344
y: 559.3922729492188
z: -0.4098382890224457
visibility: 0.9606549143791199
","x: 256.03564453125
y: 525.4338989257812
z: -0.39473956823349
visibility: 0.9359167218208313
","x: 177.8536376953125
y: 560.3394775390625
z: -0.43132075667381287
visibility: 0.966670572757721
","x: 254.36502075195312
y: 522.140869140625
z: -0.36530420184135437
visibility: 0.9210306406021118
","x: 180.77305603027344
y: 557.5249633789062
z: -0.3979233205318451
visibility: 0.9616932272911072
","x: 238.057861328125
y: 483.08905029296875
z: -0.021104436367750168
visibility: 0.9999611973762512
","x: 221.92848205566406
y: 488.0956726074219
z: 0.020969541743397713
visibility: 0.9999368190765381
","x: 237.3925323486328
y: 532.148681640625
z: -0.12879785895347595
visibility: 0.9632731676101685
","x: 235.4413299560547
y: 533.7494506835938
z: -0.028148258104920387
visibility: 0.935888409614563
","x: 249.223876953125
y: 541.7158203125
z: 0.0875260978937149
visibility: 0.9807028770446777
","x: 248.78016662597656
y: 534.4049682617188
z: 0.22185102105140686
visibility: 0.9142898321151733
","x: 250.75918579101562
y: 539.3735961914062
z: 0.10837026685476303
visibility: 0.9182999134063721
","x: 250.00148010253906
y: 529.2341918945312
z: 0.24483554065227509
visibility: 0.8716608881950378
","x: 252.58523559570312
y: 569.4625244140625
z: 0.06697161495685577
visibility: 0.9734132885932922
","x: 255.51229858398438
y: 556.3471069335938
z: 0.22590410709381104
visibility: 0.8977594971656799
",,,,,,,,,,,,,,,,,,,,,,,,,,,,,,,,,,,,,,,,,,
7,"x: 212.51760864257812
y: 450.7602233886719
z: -0.5846999883651733
visibility: 0.9999996423721313
","x: 212.60464477539062
y: 445.0362548828125
z: -0.5798386335372925
visibility: 0.999998927116394
","x: 213.6917266845703
y: 443.8052062988281
z: -0.579766571521759
visibility: 0.9999988675117493
","x: 214.7251739501953
y: 442.276611328125
z: -0.5798608064651489
visibility: 0.9999986886978149
","x: 209.46559143066406
y: 446.6664123535156
z: -0.5751663446426392
visibility: 0.9999984502792358
","x: 208.30177307128906
y: 446.4689636230469
z: -0.5752469301223755
visibility: 0.999998152256012
","x: 207.03880310058594
y: 446.199462890625
z: -0.5752854347229004
visibility: 0.9999980926513672
","x: 215.73916625976562
y: 434.896240234375
z: -0.4831675887107849
visibility: 0.9999968409538269
","x: 204.2057647705078
y: 442.60888671875
z: -0.464630663394928
visibility: 0.9999961256980896
","x: 215.07046508789062
y: 451.3995666503906
z: -0.5426328778266907
visibility: 0.9999995827674866
","x: 211.64276123046875
y: 453.2363586425781
z: -0.537549614906311
visibility: 0.999998927116394
","x: 235.81871032714844
y: 440.7703857421875
z: -0.37544453144073486
visibility: 0.999993622303009
","x: 193.9336395263672
y: 455.1806945800781
z: -0.33087486028671265
visibility: 0.9999802112579346
","x: 259.210693359375
y: 472.62286376953125
z: -0.33264222741127014
visibility: 0.9960969090461731
","x: 181.99981689453125
y: 501.5108947753906
z: -0.33149468898773193
visibility: 0.9954866170883179
","x: 257.74127197265625
y: 514.3095092773438
z: -0.31270551681518555
visibility: 0.97639000415802
","x: 180.1362762451172
y: 550.0716552734375
z: -0.38976556062698364
visibility: 0.9852756857872009
","x: 258.27923583984375
y: 529.77392578125
z: -0.3231459856033325
visibility: 0.9324899315834045
","x: 174.79977416992188
y: 559.942138671875
z: -0.41377606987953186
visibility: 0.9626808166503906
","x: 252.6107940673828
y: 528.5296020507812
z: -0.3389168083667755
visibility: 0.9406003952026367
","x: 177.65476989746094
y: 560.4944458007812
z: -0.43093961477279663
visibility: 0.9684689044952393
","x: 251.8266143798828
y: 525.72705078125
z: -0.31626325845718384
visibility: 0.9270715117454529
","x: 180.54554748535156
y: 557.72314453125
z: -0.3975459635257721
visibility: 0.9636398553848267
","x: 237.44334411621094
y: 486.88677978515625
z: -0.024942386895418167
visibility: 0.9999644160270691
","x: 222.2772979736328
y: 494.30517578125
z: 0.024681663140654564
visibility: 0.9999421238899231
","x: 229.4573211669922
y: 520.1569213867188
z: -0.29367586970329285
visibility: 0.9656030535697937
","x: 239.65573120117188
y: 536.898193359375
z: -0.11757831275463104
visibility: 0.9394315481185913
","x: 220.1446533203125
y: 541.9288330078125
z: -0.07471711933612823
visibility: 0.9820736646652222
","x: 272.25909423828125
y: 532.246826171875
z: 0.13468506932258606
visibility: 0.9213212132453918
","x: 220.00271606445312
y: 546.0010986328125
z: -0.05627080798149109
visibility: 0.9245861768722534
","x: 274.8108215332031
y: 527.3424072265625
z: 0.15732678771018982
visibility: 0.8795401453971863
","x: 215.68739318847656
y: 567.4321899414062
z: -0.13195934891700745
visibility: 0.9751540422439575
","x: 284.6225891113281
y: 553.2852783203125
z: 0.08468209207057953
visibility: 0.9051160216331482
","x: 250.654052734375
y: 516.847412109375
z: 0.0
","x: 249.13572692871094
y: 520.7756958007812
z: -0.0015996625879779458
","x: 248.95077514648438
y: 525.7945556640625
z: -0.0023126727901399136
","x: 250.10130310058594
y: 529.447265625
z: -0.0032358637545257807
","x: 251.4034423828125
y: 532.2889404296875
z: -0.00411320710554719
","x: 251.4661865234375
y: 534.107177734375
z: 0.0002457731170579791
","x: 252.15777587890625
y: 541.0808715820312
z: -0.0010408872039988637
","x: 252.50596618652344
y: 545.5018310546875
z: -0.0021591908298432827
","x: 252.78562927246094
y: 549.2515258789062
z: -0.0028694530483335257
","x: 253.0772247314453
y: 534.4940185546875
z: -0.000326599896652624
","x: 254.0831298828125
y: 541.6118774414062
z: -0.0012656423496082425
","x: 254.38052368164062
y: 546.29248046875
z: -0.002190779196098447
","x: 254.64114379882812
y: 550.3446655273438
z: -0.002955671399831772
","x: 254.4307403564453
y: 533.8541259765625
z: -0.001353180268779397
","x: 255.865234375
y: 540.4046020507812
z: -0.002769877901300788
","x: 256.2943115234375
y: 544.6918334960938
z: -0.004018967505544424
","x: 256.6314392089844
y: 548.3051147460938
z: -0.004859694745391607
","x: 255.630859375
y: 532.1566772460938
z: -0.0026765125803649426
","x: 257.39453125
y: 536.9673461914062
z: -0.0039304825477302074
","x: 258.3739013671875
y: 540.0743408203125
z: -0.004709738306701183
","x: 259.05487060546875
y: 542.65576171875
z: -0.005253034643828869
",,,,,,,,,,,,,,,,,,,,,
8,"x: 212.51760864257812
y: 450.7602233886719
z: -0.5846999883651733
visibility: 0.9999996423721313
","x: 212.60464477539062
y: 445.0362548828125
z: -0.5798386335372925
visibility: 0.999998927116394
","x: 213.6917266845703
y: 443.8052062988281
z: -0.579766571521759
visibility: 0.9999988675117493
","x: 214.7251739501953
y: 442.276611328125
z: -0.5798608064651489
visibility: 0.9999986886978149
","x: 209.46559143066406
y: 446.6664123535156
z: -0.5751663446426392
visibility: 0.9999984502792358
","x: 208.30177307128906
y: 446.4689636230469
z: -0.5752469301223755
visibility: 0.999998152256012
","x: 207.03880310058594
y: 446.199462890625
z: -0.5752854347229004
visibility: 0.9999980926513672
","x: 215.73916625976562
y: 434.896240234375
z: -0.4831675887107849
visibility: 0.9999968409538269
","x: 204.2057647705078
y: 442.60888671875
z: -0.464630663394928
visibility: 0.9999961256980896
","x: 215.07046508789062
y: 451.3995666503906
z: -0.5426328778266907
visibility: 0.9999995827674866
","x: 211.64276123046875
y: 453.2363586425781
z: -0.537549614906311
visibility: 0.999998927116394
","x: 235.81871032714844
y: 440.7703857421875
z: -0.37544453144073486
visibility: 0.999993622303009
","x: 193.9336395263672
y: 455.1806945800781
z: -0.33087486028671265
visibility: 0.9999802112579346
","x: 259.210693359375
y: 472.62286376953125
z: -0.33264222741127014
visibility: 0.9960969090461731
","x: 181.99981689453125
y: 501.5108947753906
z: -0.33149468898773193
visibility: 0.9954866170883179
","x: 257.74127197265625
y: 514.3095092773438
z: -0.31270551681518555
visibility: 0.97639000415802
","x: 180.1362762451172
y: 550.0716552734375
z: -0.38976556062698364
visibility: 0.9852756857872009
","x: 258.27923583984375
y: 529.77392578125
z: -0.3231459856033325
visibility: 0.9324899315834045
","x: 174.79977416992188
y: 559.942138671875
z: -0.41377606987953186
visibility: 0.9626808166503906
","x: 252.6107940673828
y: 528.5296020507812
z: -0.3389168083667755
visibility: 0.9406003952026367
","x: 177.65476989746094
y: 560.4944458007812
z: -0.43093961477279663
visibility: 0.9684689044952393
","x: 251.8266143798828
y: 525.72705078125
z: -0.31626325845718384
visibility: 0.9270715117454529
","x: 180.54554748535156
y: 557.72314453125
z: -0.3975459635257721
visibility: 0.9636398553848267
","x: 237.44334411621094
y: 486.88677978515625
z: -0.024942386895418167
visibility: 0.9999644160270691
","x: 222.2772979736328
y: 494.30517578125
z: 0.024681663140654564
visibility: 0.9999421238899231
","x: 229.4573211669922
y: 520.1569213867188
z: -0.29367586970329285
visibility: 0.9656030535697937
","x: 239.65573120117188
y: 536.898193359375
z: -0.11757831275463104
visibility: 0.9394315481185913
","x: 220.1446533203125
y: 541.9288330078125
z: -0.07471711933612823
visibility: 0.9820736646652222
","x: 272.25909423828125
y: 532.246826171875
z: 0.13468506932258606
visibility: 0.9213212132453918
","x: 220.00271606445312
y: 546.0010986328125
z: -0.05627080798149109
visibility: 0.9245861768722534
","x: 274.8108215332031
y: 527.3424072265625
z: 0.15732678771018982
visibility: 0.8795401453971863
","x: 215.68739318847656
y: 567.4321899414062
z: -0.13195934891700745
visibility: 0.9751540422439575
","x: 284.6225891113281
y: 553.2852783203125
z: 0.08468209207057953
visibility: 0.9051160216331482
","x: 250.654052734375
y: 516.847412109375
z: 0.0
","x: 249.13572692871094
y: 520.7756958007812
z: -0.0015996625879779458
","x: 248.95077514648438
y: 525.7945556640625
z: -0.0023126727901399136
","x: 250.10130310058594
y: 529.447265625
z: -0.0032358637545257807
","x: 251.4034423828125
y: 532.2889404296875
z: -0.00411320710554719
","x: 251.4661865234375
y: 534.107177734375
z: 0.0002457731170579791
","x: 252.15777587890625
y: 541.0808715820312
z: -0.0010408872039988637
","x: 252.50596618652344
y: 545.5018310546875
z: -0.0021591908298432827
","x: 252.78562927246094
y: 549.2515258789062
z: -0.0028694530483335257
","x: 253.0772247314453
y: 534.4940185546875
z: -0.000326599896652624
","x: 254.0831298828125
y: 541.6118774414062
z: -0.0012656423496082425
","x: 254.38052368164062
y: 546.29248046875
z: -0.002190779196098447
","x: 254.64114379882812
y: 550.3446655273438
z: -0.002955671399831772
","x: 254.4307403564453
y: 533.8541259765625
z: -0.001353180268779397
","x: 255.865234375
y: 540.4046020507812
z: -0.002769877901300788
","x: 256.2943115234375
y: 544.6918334960938
z: -0.004018967505544424
","x: 256.6314392089844
y: 548.3051147460938
z: -0.004859694745391607
","x: 255.630859375
y: 532.1566772460938
z: -0.0026765125803649426
","x: 257.39453125
y: 536.9673461914062
z: -0.0039304825477302074
","x: 258.3739013671875
y: 540.0743408203125
z: -0.004709738306701183
","x: 259.05487060546875
y: 542.65576171875
z: -0.005253034643828869
",,,,,,,,,,,,,,,,,,,,,
9,"x: 212.91197204589844
y: 440.7525634765625
z: -0.6028318405151367
visibility: 0.9999997019767761
","x: 213.05262756347656
y: 432.36444091796875
z: -0.5913838148117065
visibility: 0.9999990463256836
","x: 213.9972686767578
y: 431.041015625
z: -0.5912988781929016
visibility: 0.9999989867210388
","x: 214.90489196777344
y: 429.6888732910156
z: -0.5913997888565063
visibility: 0.9999988079071045
","x: 209.63345336914062
y: 435.4827880859375
z: -0.5912268161773682
visibility: 0.9999986290931702
","x: 208.17039489746094
y: 436.3192138671875
z: -0.5913258790969849
visibility: 0.9999983310699463
","x: 206.67340087890625
y: 436.8584899902344
z: -0.5913746356964111
visibility: 0.9999982714653015
","x: 215.509765625
y: 426.121337890625
z: -0.47003239393234253
visibility: 0.9999971389770508
","x: 203.05828857421875
y: 436.041259765625
z: -0.47650057077407837
visibility: 0.9999964833259583
","x: 215.48025512695312
y: 443.5943603515625
z: -0.5527433753013611
visibility: 0.9999996423721313
","x: 211.5995635986328
y: 447.01849365234375
z: -0.5546213388442993
visibility: 0.9999990463256836
","x: 235.6791229248047
y: 442.1134948730469
z: -0.35516849160194397
visibility: 0.9999937415122986
","x: 192.887451171875
y: 451.1778564453125
z: -0.3283154368400574
visibility: 0.9999814629554749
","x: 255.3490447998047
y: 478.8335876464844
z: -0.2817222476005554
visibility: 0.9945446848869324
","x: 181.71156311035156
y: 499.6833801269531
z: -0.3144857883453369
visibility: 0.9953106641769409
","x: 252.8134307861328
y: 517.7369995117188
z: -0.24287764728069305
visibility: 0.9749274849891663
","x: 180.32138061523438
y: 549.772216796875
z: -0.3611711859703064
visibility: 0.9821486473083496
","x: 253.91360473632812
y: 530.9207763671875
z: -0.24981935322284698
visibility: 0.930609405040741
","x: 174.93646240234375
y: 559.1939697265625
z: -0.3822992444038391
visibility: 0.9593749642372131
","x: 249.59486389160156
y: 529.9345703125
z: -0.26825398206710815
visibility: 0.9377094507217407
","x: 177.87387084960938
y: 559.9883422851562
z: -0.39954501390457153
visibility: 0.9652848243713379
","x: 248.51463317871094
y: 526.4313354492188
z: -0.24711811542510986
visibility: 0.9271150231361389
","x: 180.71168518066406
y: 557.607666015625
z: -0.3683447241783142
visibility: 0.9597721099853516
","x: 237.69918823242188
y: 482.66351318359375
z: -0.021321836858987808
visibility: 0.9999648928642273
","x: 221.5426483154297
y: 490.883056640625
z: 0.020876631140708923
visibility: 0.9999465346336365
","x: 227.36659240722656
y: 520.2921752929688
z: -0.3346390426158905
visibility: 0.9633527398109436
","x: 238.70777893066406
y: 538.6817626953125
z: -0.25743573904037476
visibility: 0.9416813254356384
","x: 213.86334228515625
y: 543.1121215820312
z: -0.11165376752614975
visibility: 0.9812048077583313
","x: 275.2165222167969
y: 535.5584106445312
z: -0.0674053281545639
visibility: 0.9279875159263611
","x: 211.85536193847656
y: 547.6978149414062
z: -0.09268540889024734
visibility: 0.9291492104530334
","x: 276.12286376953125
y: 527.1344604492188
z: -0.05236804485321045
visibility: 0.8885488510131836
","x: 211.5047149658203
y: 566.478759765625
z: -0.180339515209198
visibility: 0.9750217795372009
","x: 286.84503173828125
y: 551.7939453125
z: -0.15603312849998474
visibility: 0.9116758704185486
",,,,,,,,,,,,,,,,,,,,,,,,,,,,,,,,,,,,,,,,,,
10,"x: 211.94252014160156
y: 429.5539855957031
z: -0.6430241465568542
visibility: 0.9999997615814209
","x: 212.15341186523438
y: 422.0783996582031
z: -0.6261357665061951
visibility: 0.9999991655349731
","x: 213.19625854492188
y: 420.8511962890625
z: -0.6260079145431519
visibility: 0.9999991059303284
","x: 214.24400329589844
y: 419.44940185546875
z: -0.6260524988174438
visibility: 0.999998927116394
","x: 208.7665252685547
y: 424.2578430175781
z: -0.630172848701477
visibility: 0.9999987483024597
","x: 207.41139221191406
y: 424.7906494140625
z: -0.6302943229675293
visibility: 0.9999985098838806
","x: 206.0218963623047
y: 425.2763671875
z: -0.6303616166114807
visibility: 0.9999984502792358
","x: 214.67013549804688
y: 414.53759765625
z: -0.49832573533058167
visibility: 0.9999973773956299
","x: 201.8366241455078
y: 424.7208251953125
z: -0.5109471678733826
visibility: 0.9999968409538269
","x: 214.48341369628906
y: 432.1481628417969
z: -0.5847225785255432
visibility: 0.9999997019767761
","x: 210.6492919921875
y: 435.3567810058594
z: -0.5933583974838257
visibility: 0.9999991059303284
","x: 233.32672119140625
y: 428.97210693359375
z: -0.3729262053966522
visibility: 0.9999932050704956
","x: 192.08436584472656
y: 444.63323974609375
z: -0.3494292199611664
visibility: 0.9999800324440002
","x: 253.53158569335938
y: 466.3374328613281
z: -0.3100670278072357
visibility: 0.9925834536552429
","x: 182.19190979003906
y: 498.23504638671875
z: -0.3459891080856323
visibility: 0.9954516291618347
","x: 252.302978515625
y: 510.3338928222656
z: -0.2862663269042969
visibility: 0.97334885597229
","x: 180.3076171875
y: 548.158935546875
z: -0.38194194436073303
visibility: 0.9813918471336365
","x: 253.94522094726562
y: 522.304931640625
z: -0.2959471046924591
visibility: 0.9288028478622437
","x: 175.47500610351562
y: 557.748291015625
z: -0.4031189978122711
visibility: 0.9586849808692932
","x: 249.91427612304688
y: 522.3209228515625
z: -0.31546685099601746
visibility: 0.9355425238609314
","x: 178.06607055664062
y: 558.846435546875
z: -0.41975635290145874
visibility: 0.9645787477493286
","x: 248.53121948242188
y: 519.259033203125
z: -0.29152557253837585
visibility: 0.9278343319892883
","x: 180.7003173828125
y: 556.598388671875
z: -0.389238178730011
visibility: 0.9585101008415222
","x: 237.14602661132812
y: 473.2916259765625
z: -0.020636295899748802
visibility: 0.9999513626098633
","x: 221.69537353515625
y: 484.74615478515625
z: 0.020131992176175117
visibility: 0.9999285936355591
","x: 227.18508911132812
y: 497.5140075683594
z: -0.38141152262687683
visibility: 0.963987410068512
","x: 240.9158935546875
y: 532.8807983398438
z: -0.19134335219860077
visibility: 0.9444811344146729
","x: 211.75526428222656
y: 542.5377197265625
z: -0.2019263505935669
visibility: 0.982873797416687
","x: 276.8623962402344
y: 534.64013671875
z: 0.03202803432941437
visibility: 0.9347583055496216
","x: 210.28610229492188
y: 547.2265014648438
z: -0.18967105448246002
visibility: 0.9358879923820496
","x: 280.3191833496094
y: 526.4985961914062
z: 0.04828683286905289
visibility: 0.8986085653305054
","x: 209.47784423828125
y: 565.6371459960938
z: -0.31744876503944397
visibility: 0.9773405194282532
","x: 288.9993896484375
y: 551.1661376953125
z: -0.07399118691682816
visibility: 0.9190683364868164
",,,,,,,,,,,,,,,,,,,,,,,,,,,,,,,,,,,,,,,,,,
11,"x: 211.899169921875
y: 401.2586669921875
z: -0.732214629650116
visibility: 0.9999997019767761
","x: 211.24295043945312
y: 392.4045104980469
z: -0.7166205048561096
visibility: 0.9999989867210388
","x: 211.92283630371094
y: 391.0431213378906
z: -0.7165530920028687
visibility: 0.9999988079071045
","x: 212.56629943847656
y: 389.7926025390625
z: -0.7166374921798706
visibility: 0.9999985694885254
","x: 207.9709930419922
y: 396.0751037597656
z: -0.7203822135925293
visibility: 0.9999986886978149
","x: 206.25274658203125
y: 397.2729187011719
z: -0.7204919457435608
visibility: 0.9999983906745911
","x: 204.50779724121094
y: 398.20819091796875
z: -0.7205679416656494
visibility: 0.9999982118606567
","x: 212.14688110351562
y: 388.33203125
z: -0.5811229944229126
visibility: 0.9999932050704956
","x: 199.7316436767578
y: 399.2029113769531
z: -0.6038219332695007
visibility: 0.9999966025352478
","x: 214.2103271484375
y: 406.01055908203125
z: -0.6777088046073914
visibility: 0.9999996423721313
","x: 210.5244598388672
y: 410.7716369628906
z: -0.6843612194061279
visibility: 0.9999991059303284
","x: 230.7406768798828
y: 409.6430969238281
z: -0.44886016845703125
visibility: 0.9999853372573853
","x: 191.67813110351562
y: 432.6992492675781
z: -0.4523215889930725
visibility: 0.9999793767929077
","x: 245.88392639160156
y: 456.876708984375
z: -0.43021583557128906
visibility: 0.9887323975563049
","x: 186.44528198242188
y: 494.2328186035156
z: -0.45498767495155334
visibility: 0.9952072501182556
","x: 251.0086212158203
y: 505.3166198730469
z: -0.46024006605148315
visibility: 0.9623788595199585
","x: 180.78768920898438
y: 543.6199340820312
z: -0.5066773295402527
visibility: 0.9778245687484741
","x: 254.1094207763672
y: 516.933349609375
z: -0.4892652928829193
visibility: 0.9057215452194214
","x: 176.06369018554688
y: 554.0330200195312
z: -0.5358509421348572
visibility: 0.9520958662033081
","x: 250.54690551757812
y: 516.906982421875
z: -0.5032675862312317
visibility: 0.9110191464424133
","x: 177.73297119140625
y: 555.1238403320312
z: -0.5577764511108398
visibility: 0.9581044912338257
","x: 248.60215759277344
y: 514.3329467773438
z: -0.4675489068031311
visibility: 0.9023643136024475
","x: 180.37889099121094
y: 552.1737060546875
z: -0.5171301960945129
visibility: 0.9500667452812195
","x: 236.6250457763672
y: 450.527099609375
z: -0.006946717854589224
visibility: 0.9998915195465088
","x: 220.1859588623047
y: 461.5956115722656
z: 0.006728374864906073
visibility: 0.9999151825904846
","x: 231.26600646972656
y: 502.06744384765625
z: -0.20124538242816925
visibility: 0.9521372318267822
","x: 239.97332763671875
y: 494.814697265625
z: -0.13837718963623047
visibility: 0.9338515996932983
","x: 211.03875732421875
y: 542.3262939453125
z: 0.019589517265558243
visibility: 0.9808109402656555
","x: 272.56414794921875
y: 532.3762817382812
z: 0.10672394931316376
visibility: 0.936710000038147
","x: 208.48388671875
y: 548.0059204101562
z: 0.03578249365091324
visibility: 0.9342150092124939
","x: 276.5804138183594
y: 528.2928466796875
z: 0.12446955591440201
visibility: 0.8933813571929932
","x: 208.10780334472656
y: 564.9146118164062
z: -0.10596941411495209
visibility: 0.9766667485237122
","x: 284.46136474609375
y: 547.4863891601562
z: -0.023930108174681664
visibility: 0.9167406558990479
",,,,,,,,,,,,,,,,,,,,,,,,,,,,,,,,,,,,,,,,,,
12,"x: 208.7418670654297
y: 386.24212646484375
z: -0.7705350518226624
visibility: 0.9999997019767761
","x: 207.65460205078125
y: 376.78369140625
z: -0.7550126910209656
visibility: 0.9999989867210388
","x: 208.2050323486328
y: 375.5469970703125
z: -0.7549635767936707
visibility: 0.9999987483024597
","x: 208.68800354003906
y: 374.442626953125
z: -0.7550336122512817
visibility: 0.9999984502792358
","x: 204.69158935546875
y: 379.750244140625
z: -0.7567797899246216
visibility: 0.9999987483024597
","x: 203.0782470703125
y: 380.4312438964844
z: -0.7569031715393066
visibility: 0.9999983906745911
","x: 201.55902099609375
y: 381.072998046875
z: -0.7569946050643921
visibility: 0.9999982118606567
","x: 207.8746795654297
y: 373.8273620605469
z: -0.6208755970001221
visibility: 0.9999920129776001
","x: 197.3936004638672
y: 381.77447509765625
z: -0.6331828832626343
visibility: 0.9999966621398926
","x: 210.6927947998047
y: 390.9153747558594
z: -0.7165027260780334
visibility: 0.9999996423721313
","x: 207.25845336914062
y: 394.8875732421875
z: -0.720104992389679
visibility: 0.9999991655349731
","x: 226.58428955078125
y: 388.1426696777344
z: -0.5042901039123535
visibility: 0.9999852776527405
","x: 189.4652557373047
y: 415.4324645996094
z: -0.4806516766548157
visibility: 0.9999792575836182
","x: 242.89564514160156
y: 445.40283203125
z: -0.5216914415359497
visibility: 0.9875380992889404
","x: 192.32579040527344
y: 474.8814697265625
z: -0.48941749334335327
visibility: 0.9955852627754211
","x: 238.8101348876953
y: 499.5024108886719
z: -0.5847967267036438
visibility: 0.9631540179252625
","x: 196.92337036132812
y: 527.2913208007812
z: -0.5562252998352051
visibility: 0.9796298742294312
","x: 246.4276580810547
y: 512.0926513671875
z: -0.6335821151733398
visibility: 0.9087117314338684
","x: 194.91943359375
y: 540.616943359375
z: -0.5954585075378418
visibility: 0.9559078216552734
","x: 240.13818359375
y: 513.2276000976562
z: -0.6459239721298218
visibility: 0.9127603769302368
","x: 197.43614196777344
y: 542.8209228515625
z: -0.6198279857635498
visibility: 0.9612480401992798
","x: 243.92823791503906
y: 511.9053955078125
z: -0.5934956669807434
visibility: 0.9018496870994568
","x: 198.6438446044922
y: 533.4058227539062
z: -0.568635106086731
visibility: 0.9530853629112244
","x: 233.94569396972656
y: 434.8016052246094
z: -0.01546777505427599
visibility: 0.9998749494552612
","x: 217.10594177246094
y: 443.3827209472656
z: 0.015422629192471504
visibility: 0.9998657703399658
","x: 228.26783752441406
y: 493.0151672363281
z: -0.1996403932571411
visibility: 0.9471855163574219
","x: 232.4792022705078
y: 492.1641845703125
z: 0.010578187182545662
visibility: 0.9265364408493042
","x: 212.30126953125
y: 538.2079467773438
z: 0.0695699006319046
visibility: 0.981788694858551
","x: 251.47561645507812
y: 515.373046875
z: 0.3705664575099945
visibility: 0.9356127977371216
","x: 209.544677734375
y: 547.8129272460938
z: 0.08856406807899475
visibility: 0.9363497495651245
","x: 253.72280883789062
y: 518.3799438476562
z: 0.39883461594581604
visibility: 0.8837687373161316
","x: 213.8893585205078
y: 549.2308349609375
z: -0.05015339329838753
visibility: 0.9776504635810852
","x: 259.7521057128906
y: 540.0077514648438
z: 0.27234208583831787
visibility: 0.9118245244026184
",,,,,,,,,,,,,,,,,,,,,,,,,,,,,,,,,,,,,,,,,,
13,"x: 206.44015502929688
y: 360.3617858886719
z: -0.5903663039207458
visibility: 0.9999911189079285
","x: 205.6694793701172
y: 352.349853515625
z: -0.5824393033981323
visibility: 0.9999631643295288
","x: 206.62921142578125
y: 351.5026550292969
z: -0.5824743509292603
visibility: 0.9999304413795471
","x: 207.5379180908203
y: 350.7575988769531
z: -0.5825351476669312
visibility: 0.9999033212661743
","x: 202.13844299316406
y: 354.2532043457031
z: -0.5793982744216919
visibility: 0.9999871253967285
","x: 200.64230346679688
y: 355.2707214355469
z: -0.5794967412948608
visibility: 0.999982476234436
","x: 199.22503662109375
y: 356.4785461425781
z: -0.5796166658401489
visibility: 0.9999792575836182
","x: 207.90330505371094
y: 351.9382019042969
z: -0.49973025918006897
visibility: 0.9996317028999329
","x: 195.5889434814453
y: 361.10205078125
z: -0.48619818687438965
visibility: 0.9999845623970032
","x: 208.68161010742188
y: 366.3540954589844
z: -0.554490327835083
visibility: 0.9999726414680481
","x: 205.14418029785156
y: 370.53851318359375
z: -0.550369381904602
visibility: 0.99997878074646
","x: 222.39358520507812
y: 373.121337890625
z: -0.47480306029319763
visibility: 0.9999337792396545
","x: 189.2199249267578
y: 388.3874206542969
z: -0.37008601427078247
visibility: 0.9999673962593079
","x: 222.47837829589844
y: 432.26055908203125
z: -0.4497843384742737
visibility: 0.9777140617370605
","x: 202.7119903564453
y: 441.04937744140625
z: -0.3868834376335144
visibility: 0.9938353896141052
","x: 205.0457763671875
y: 492.0155029296875
z: -0.5094281435012817
visibility: 0.964904248714447
","x: 221.36448669433594
y: 482.20880126953125
z: -0.480905681848526
visibility: 0.9773817658424377
","x: 203.40533447265625
y: 505.1380920410156
z: -0.5588910579681396
visibility: 0.9157915115356445
","x: 223.96046447753906
y: 497.76861572265625
z: -0.5123358964920044
visibility: 0.9529990553855896
","x: 200.5817108154297
y: 503.267578125
z: -0.5591391324996948
visibility: 0.9192925095558167
","x: 225.84017944335938
y: 494.359375
z: -0.6055103540420532
visibility: 0.9568240642547607
","x: 200.71090698242188
y: 500.74017333984375
z: -0.5128910541534424
visibility: 0.9058405756950378
","x: 226.15260314941406
y: 486.8606262207031
z: -0.4815012514591217
visibility: 0.9452099204063416
","x: 233.5228271484375
y: 415.98260498046875
z: -0.03992236778140068
visibility: 0.9998557567596436
","x: 214.6955108642578
y: 419.5811767578125
z: 0.04001274332404137
visibility: 0.9997268915176392
","x: 226.1574249267578
y: 476.94573974609375
z: -0.19264177978038788
visibility: 0.9429198503494263
","x: 200.8773651123047
y: 454.2802429199219
z: -0.02256551943719387
visibility: 0.8886147737503052
","x: 209.89346313476562
y: 541.499755859375
z: 0.039338987320661545
visibility: 0.9828398823738098
","x: 226.96612548828125
y: 477.26220703125
z: 0.23233535885810852
visibility: 0.8932321667671204
","x: 209.38816833496094
y: 553.2911987304688
z: 0.003707797033712268
visibility: 0.9369826912879944
","x: 232.18528747558594
y: 478.55712890625
z: 0.2542107105255127
visibility: 0.8386950492858887
","x: 205.12770080566406
y: 552.606201171875
z: -0.10620145499706268
visibility: 0.974795937538147
","x: 227.6348876953125
y: 496.18218994140625
z: 0.17364634573459625
visibility: 0.8662737011909485
",,,,,,,,,,,,,,,,,,,,,,,,,,,,,,,,,,,,,,,,,,
14,"x: 206.46018981933594
y: 350.9992980957031
z: -0.49502667784690857
visibility: 0.9999890923500061
","x: 206.23245239257812
y: 342.8082275390625
z: -0.4929153323173523
visibility: 0.9999597072601318
","x: 207.2292938232422
y: 341.57342529296875
z: -0.4929006099700928
visibility: 0.9999221563339233
","x: 208.11032104492188
y: 340.1163330078125
z: -0.49297285079956055
visibility: 0.9998970031738281
","x: 202.59173583984375
y: 345.36083984375
z: -0.4854852259159088
visibility: 0.9999825358390808
","x: 201.0716552734375
y: 346.1236877441406
z: -0.4855954051017761
visibility: 0.9999772906303406
","x: 199.57566833496094
y: 346.8201904296875
z: -0.48567038774490356
visibility: 0.9999746084213257
","x: 208.237060546875
y: 337.69903564453125
z: -0.4301811158657074
visibility: 0.9996545314788818
","x: 196.00875854492188
y: 347.2403259277344
z: -0.39653733372688293
visibility: 0.9999807476997375
","x: 209.07081604003906
y: 355.619384765625
z: -0.46605151891708374
visibility: 0.9999734163284302
","x: 205.0254364013672
y: 358.4988098144531
z: -0.45618563890457153
visibility: 0.9999798536300659
","x: 223.77813720703125
y: 361.5550231933594
z: -0.38216549158096313
visibility: 0.999937891960144
","x: 189.48074340820312
y: 368.950439453125
z: -0.26942744851112366
visibility: 0.999968945980072
","x: 220.55099487304688
y: 422.3345642089844
z: -0.4107518196105957
visibility: 0.9782229661941528
","x: 197.32237243652344
y: 418.81121826171875
z: -0.26601019501686096
visibility: 0.9921616911888123
","x: 212.13340759277344
y: 469.20098876953125
z: -0.4503055512905121
visibility: 0.9663127064704895
","x: 211.9611358642578
y: 455.5199890136719
z: -0.3152357339859009
visibility: 0.9721009135246277
","x: 211.90188598632812
y: 484.0879821777344
z: -0.49133291840553284
visibility: 0.9214098453521729
","x: 214.76376342773438
y: 468.0990905761719
z: -0.33549076318740845
visibility: 0.9405305981636047
","x: 204.65476989746094
y: 479.17059326171875
z: -0.49857836961746216
visibility: 0.9242628812789917
","x: 217.45953369140625
y: 463.8647155761719
z: -0.35594475269317627
visibility: 0.9423264265060425
","x: 206.7755126953125
y: 478.263671875
z: -0.454827219247818
visibility: 0.9088794589042664
","x: 216.8329620361328
y: 459.1366882324219
z: -0.3224549889564514
visibility: 0.9269292950630188
","x: 232.506591796875
y: 405.8830261230469
z: -0.042511969804763794
visibility: 0.9998689293861389
","x: 213.81039428710938
y: 401.1407470703125
z: 0.04260840639472008
visibility: 0.9997329711914062
","x: 222.04226684570312
y: 470.6583251953125
z: -0.20980246365070343
visibility: 0.9479594826698303
","x: 181.87481689453125
y: 436.286865234375
z: -0.046752769500017166
visibility: 0.8913163542747498
","x: 210.98724365234375
y: 538.8500366210938
z: -0.1321258842945099
visibility: 0.9825456142425537
","x: 158.47422790527344
y: 487.5928955078125
z: -0.03487374261021614
visibility: 0.8814107179641724
","x: 210.3270721435547
y: 552.4140625
z: -0.13060343265533447
visibility: 0.9279817342758179
","x: 158.3701171875
y: 495.9329528808594
z: -0.035359255969524384
visibility: 0.8147286176681519
","x: 206.48960876464844
y: 554.6617431640625
z: -0.22536185383796692
visibility: 0.9736697673797607
","x: 145.715087890625
y: 481.79998779296875
z: -0.11260038614273071
visibility: 0.8569438457489014
",,,,,,,,,,,,,,,,,,,,,,"x: 210.02821350097656
y: 453.04205322265625
z: 0.0
","x: 208.1549530029297
y: 460.1208190917969
z: -0.0012038375716656446
","x: 207.36636352539062
y: 467.8965759277344
z: -0.00254289573058486
","x: 205.41497802734375
y: 473.311279296875
z: -0.004623566288501024
","x: 202.9786834716797
y: 476.886474609375
z: -0.006650676019489765
","x: 215.2242889404297
y: 472.7700500488281
z: 0.002020925981923938
","x: 218.4355010986328
y: 478.333984375
z: -0.00024432424106635153
","x: 220.2542724609375
y: 482.1833801269531
z: -0.0023870631121098995
","x: 221.68653869628906
y: 485.59857177734375
z: -0.0036652523558586836
","x: 217.09552001953125
y: 470.74163818359375
z: 0.0002769604907371104
","x: 220.67324829101562
y: 475.8848571777344
z: -0.0010978662176057696
","x: 222.69229125976562
y: 480.10858154296875
z: -0.0022861917968839407
","x: 224.43690490722656
y: 483.82733154296875
z: -0.0031689112074673176
","x: 218.50271606445312
y: 467.8738098144531
z: -0.0022775784600526094
","x: 222.19219970703125
y: 472.82891845703125
z: -0.0038097959477454424
","x: 224.275146484375
y: 476.82354736328125
z: -0.004503248259425163
","x: 225.90708923339844
y: 480.2060546875
z: -0.00494554964825511
","x: 219.50875854492188
y: 464.4186706542969
z: -0.005356719717383385
","x: 223.08206176757812
y: 468.4505615234375
z: -0.006626398768275976
","x: 225.05433654785156
y: 471.6323547363281
z: -0.007049877662211657
","x: 226.5319061279297
y: 474.62567138671875
z: -0.007340425159782171
"
15,"x: 206.46018981933594
y: 350.9992980957031
z: -0.49502667784690857
visibility: 0.9999890923500061
","x: 206.23245239257812
y: 342.8082275390625
z: -0.4929153323173523
visibility: 0.9999597072601318
","x: 207.2292938232422
y: 341.57342529296875
z: -0.4929006099700928
visibility: 0.9999221563339233
","x: 208.11032104492188
y: 340.1163330078125
z: -0.49297285079956055
visibility: 0.9998970031738281
","x: 202.59173583984375
y: 345.36083984375
z: -0.4854852259159088
visibility: 0.9999825358390808
","x: 201.0716552734375
y: 346.1236877441406
z: -0.4855954051017761
visibility: 0.9999772906303406
","x: 199.57566833496094
y: 346.8201904296875
z: -0.48567038774490356
visibility: 0.9999746084213257
","x: 208.237060546875
y: 337.69903564453125
z: -0.4301811158657074
visibility: 0.9996545314788818
","x: 196.00875854492188
y: 347.2403259277344
z: -0.39653733372688293
visibility: 0.9999807476997375
","x: 209.07081604003906
y: 355.619384765625
z: -0.46605151891708374
visibility: 0.9999734163284302
","x: 205.0254364013672
y: 358.4988098144531
z: -0.45618563890457153
visibility: 0.9999798536300659
","x: 223.77813720703125
y: 361.5550231933594
z: -0.38216549158096313
visibility: 0.999937891960144
","x: 189.48074340820312
y: 368.950439453125
z: -0.26942744851112366
visibility: 0.999968945980072
","x: 220.55099487304688
y: 422.3345642089844
z: -0.4107518196105957
visibility: 0.9782229661941528
","x: 197.32237243652344
y: 418.81121826171875
z: -0.26601019501686096
visibility: 0.9921616911888123
","x: 212.13340759277344
y: 469.20098876953125
z: -0.4503055512905121
visibility: 0.9663127064704895
","x: 211.9611358642578
y: 455.5199890136719
z: -0.3152357339859009
visibility: 0.9721009135246277
","x: 211.90188598632812
y: 484.0879821777344
z: -0.49133291840553284
visibility: 0.9214098453521729
","x: 214.76376342773438
y: 468.0990905761719
z: -0.33549076318740845
visibility: 0.9405305981636047
","x: 204.65476989746094
y: 479.17059326171875
z: -0.49857836961746216
visibility: 0.9242628812789917
","x: 217.45953369140625
y: 463.8647155761719
z: -0.35594475269317627
visibility: 0.9423264265060425
","x: 206.7755126953125
y: 478.263671875
z: -0.454827219247818
visibility: 0.9088794589042664
","x: 216.8329620361328
y: 459.1366882324219
z: -0.3224549889564514
visibility: 0.9269292950630188
","x: 232.506591796875
y: 405.8830261230469
z: -0.042511969804763794
visibility: 0.9998689293861389
","x: 213.81039428710938
y: 401.1407470703125
z: 0.04260840639472008
visibility: 0.9997329711914062
","x: 222.04226684570312
y: 470.6583251953125
z: -0.20980246365070343
visibility: 0.9479594826698303
","x: 181.87481689453125
y: 436.286865234375
z: -0.046752769500017166
visibility: 0.8913163542747498
","x: 210.98724365234375
y: 538.8500366210938
z: -0.1321258842945099
visibility: 0.9825456142425537
","x: 158.47422790527344
y: 487.5928955078125
z: -0.03487374261021614
visibility: 0.8814107179641724
","x: 210.3270721435547
y: 552.4140625
z: -0.13060343265533447
visibility: 0.9279817342758179
","x: 158.3701171875
y: 495.9329528808594
z: -0.035359255969524384
visibility: 0.8147286176681519
","x: 206.48960876464844
y: 554.6617431640625
z: -0.22536185383796692
visibility: 0.9736697673797607
","x: 145.715087890625
y: 481.79998779296875
z: -0.11260038614273071
visibility: 0.8569438457489014
",,,,,,,,,,,,,,,,,,,,,,"x: 210.02821350097656
y: 453.04205322265625
z: 0.0
","x: 208.1549530029297
y: 460.1208190917969
z: -0.0012038375716656446
","x: 207.36636352539062
y: 467.8965759277344
z: -0.00254289573058486
","x: 205.41497802734375
y: 473.311279296875
z: -0.004623566288501024
","x: 202.9786834716797
y: 476.886474609375
z: -0.006650676019489765
","x: 215.2242889404297
y: 472.7700500488281
z: 0.002020925981923938
","x: 218.4355010986328
y: 478.333984375
z: -0.00024432424106635153
","x: 220.2542724609375
y: 482.1833801269531
z: -0.0023870631121098995
","x: 221.68653869628906
y: 485.59857177734375
z: -0.0036652523558586836
","x: 217.09552001953125
y: 470.74163818359375
z: 0.0002769604907371104
","x: 220.67324829101562
y: 475.8848571777344
z: -0.0010978662176057696
","x: 222.69229125976562
y: 480.10858154296875
z: -0.0022861917968839407
","x: 224.43690490722656
y: 483.82733154296875
z: -0.0031689112074673176
","x: 218.50271606445312
y: 467.8738098144531
z: -0.0022775784600526094
","x: 222.19219970703125
y: 472.82891845703125
z: -0.0038097959477454424
","x: 224.275146484375
y: 476.82354736328125
z: -0.004503248259425163
","x: 225.90708923339844
y: 480.2060546875
z: -0.00494554964825511
","x: 219.50875854492188
y: 464.4186706542969
z: -0.005356719717383385
","x: 223.08206176757812
y: 468.4505615234375
z: -0.006626398768275976
","x: 225.05433654785156
y: 471.6323547363281
z: -0.007049877662211657
","x: 226.5319061279297
y: 474.62567138671875
z: -0.007340425159782171
"
16,"x: 206.4093475341797
y: 324.03692626953125
z: -0.5084307789802551
visibility: 0.999989926815033
","x: 206.26048278808594
y: 317.7495422363281
z: -0.5077711343765259
visibility: 0.9999633431434631
","x: 207.5816650390625
y: 317.2767333984375
z: -0.5077333450317383
visibility: 0.9999290704727173
","x: 208.85073852539062
y: 316.82489013671875
z: -0.5078175067901611
visibility: 0.999906599521637
","x: 202.81031799316406
y: 318.75653076171875
z: -0.5010898113250732
visibility: 0.9999838471412659
","x: 201.51983642578125
y: 315.40582275390625
z: -0.5012298822402954
visibility: 0.9999789595603943
","x: 199.9551544189453
y: 316.18194580078125
z: -0.501307487487793
visibility: 0.999976634979248
","x: 209.87831115722656
y: 317.36279296875
z: -0.44614070653915405
visibility: 0.9996885657310486
","x: 198.03392028808594
y: 318.2626953125
z: -0.41614872217178345
visibility: 0.9999820590019226
","x: 208.2849578857422
y: 333.49053955078125
z: -0.4792812764644623
visibility: 0.999975860118866
","x: 204.47059631347656
y: 331.1943359375
z: -0.4704574644565582
visibility: 0.999981701374054
","x: 224.3647003173828
y: 343.1475830078125
z: -0.38719382882118225
visibility: 0.9999434351921082
","x: 190.23733520507812
y: 338.2187194824219
z: -0.2832779586315155
visibility: 0.9999713897705078
","x: 222.1337127685547
y: 397.9673767089844
z: -0.401445209980011
visibility: 0.9790951609611511
","x: 194.62673950195312
y: 385.86810302734375
z: -0.27398207783699036
visibility: 0.9896572828292847
","x: 214.1935272216797
y: 440.5181884765625
z: -0.4466160237789154
visibility: 0.9675179719924927
","x: 202.9234619140625
y: 431.95391845703125
z: -0.32538121938705444
visibility: 0.9646461606025696
","x: 213.63265991210938
y: 452.8963623046875
z: -0.4849978983402252
visibility: 0.9261254072189331
","x: 210.427734375
y: 443.8020324707031
z: -0.34204256534576416
visibility: 0.9273641109466553
","x: 209.25396728515625
y: 450.744873046875
z: -0.49606338143348694
visibility: 0.9284825921058655
","x: 209.57553100585938
y: 442.72314453125
z: -0.370819091796875
visibility: 0.927446186542511
","x: 208.7601776123047
y: 447.3404541015625
z: -0.4528670310974121
visibility: 0.9117485880851746
","x: 207.95089721679688
y: 438.6183166503906
z: -0.3376281261444092
visibility: 0.908983588218689
","x: 231.74917602539062
y: 390.3544616699219
z: -0.03956076130270958
visibility: 0.9998819231987
","x: 212.31646728515625
y: 383.4447021484375
z: 0.039622798562049866
visibility: 0.9997578859329224
","x: 222.12229919433594
y: 457.0584716796875
z: -0.1876867264509201
visibility: 0.9529250264167786
","x: 178.82594299316406
y: 397.2607727050781
z: -0.0813966616988182
visibility: 0.8994788527488708
","x: 214.18804931640625
y: 521.68017578125
z: -0.12970001995563507
visibility: 0.9832456111907959
","x: 161.40916442871094
y: 463.3795166015625
z: -0.06970164179801941
visibility: 0.8849053382873535
","x: 211.2347869873047
y: 539.2565307617188
z: -0.12839756906032562
visibility: 0.9258297085762024
","x: 161.2147216796875
y: 478.1575927734375
z: -0.07232683151960373
visibility: 0.8062129616737366
","x: 207.5524139404297
y: 537.1808471679688
z: -0.22818076610565186
visibility: 0.9748205542564392
","x: 145.5650634765625
y: 457.6965637207031
z: -0.1572096347808838
visibility: 0.8629679083824158
",,,,,,,,,,,,,,,,,,,,,,,,,,,,,,,,,,,,,,,,,,
17,"x: 207.45703125
y: 304.910400390625
z: -0.5818390846252441
visibility: 0.9999908804893494
","x: 209.68560791015625
y: 298.8967590332031
z: -0.5762490630149841
visibility: 0.9999668598175049
","x: 211.1864776611328
y: 298.8341064453125
z: -0.576179027557373
visibility: 0.9999358057975769
","x: 212.66940307617188
y: 298.8134765625
z: -0.5762540102005005
visibility: 0.9999156594276428
","x: 205.65750122070312
y: 299.5478515625
z: -0.5726469159126282
visibility: 0.9999853372573853
","x: 204.83566284179688
y: 299.1492919921875
z: -0.5727845430374146
visibility: 0.9999808669090271
","x: 203.66427612304688
y: 299.1006774902344
z: -0.5728651285171509
visibility: 0.9999788403511047
","x: 215.52574157714844
y: 296.8585510253906
z: -0.486900269985199
visibility: 0.9997191429138184
","x: 203.07418823242188
y: 297.3868408203125
z: -0.47184786200523376
visibility: 0.9999837279319763
","x: 209.39852905273438
y: 309.5867614746094
z: -0.5428797006607056
visibility: 0.999978244304657
","x: 204.89593505859375
y: 309.8475341796875
z: -0.5385861992835999
visibility: 0.9999834895133972
","x: 225.70559692382812
y: 323.91107177734375
z: -0.3897090554237366
visibility: 0.9999480843544006
","x: 191.8865203857422
y: 314.78704833984375
z: -0.3251569867134094
visibility: 0.9999738931655884
","x: 222.27513122558594
y: 375.620849609375
z: -0.4065527319908142
visibility: 0.9790308475494385
","x: 180.31430053710938
y: 352.9682922363281
z: -0.3015417456626892
visibility: 0.9898396730422974
","x: 212.6465606689453
y: 416.5789489746094
z: -0.4602636694908142
visibility: 0.9675212502479553
","x: 178.26400756835938
y: 404.4098205566406
z: -0.3609476387500763
visibility: 0.9655301570892334
","x: 212.42510986328125
y: 429.9723815917969
z: -0.49667972326278687
visibility: 0.9279555678367615
","x: 175.1332550048828
y: 417.45416259765625
z: -0.37974151968955994
visibility: 0.9280426502227783
","x: 207.2954559326172
y: 428.6750793457031
z: -0.5067784190177917
visibility: 0.930020809173584
","x: 178.26275634765625
y: 418.984130859375
z: -0.40777087211608887
visibility: 0.9278666973114014
","x: 206.80142211914062
y: 424.26385498046875
z: -0.46597805619239807
visibility: 0.9101136922836304
","x: 181.26739501953125
y: 413.72979736328125
z: -0.37251657247543335
visibility: 0.9095240235328674
","x: 230.31912231445312
y: 367.1434020996094
z: -0.03523631766438484
visibility: 0.9998932480812073
","x: 209.1488800048828
y: 357.7050476074219
z: 0.035220760852098465
visibility: 0.9997780323028564
","x: 219.7180938720703
y: 443.9538269042969
z: -0.2110324203968048
visibility: 0.953324019908905
","x: 189.8805694580078
y: 387.975341796875
z: -0.12589222192764282
visibility: 0.8948873281478882
","x: 211.5192413330078
y: 520.5015869140625
z: -0.16445676982402802
visibility: 0.9837900400161743
","x: 185.3231201171875
y: 418.1762390136719
z: 0.05487823486328125
visibility: 0.824104368686676
","x: 209.45266723632812
y: 531.1919555664062
z: -0.16390684247016907
visibility: 0.9143843054771423
","x: 186.20237731933594
y: 420.6576232910156
z: 0.06962452828884125
visibility: 0.7525346279144287
","x: 207.63706970214844
y: 545.5866088867188
z: -0.2768004834651947
visibility: 0.9738567471504211
","x: 178.80799865722656
y: 430.9961242675781
z: -0.0015226193936541677
visibility: 0.8125267028808594
","x: 212.09854125976562
y: 417.49664306640625
z: 0.0
","x: 207.74038696289062
y: 421.3742370605469
z: 0.0006155471783131361
","x: 204.55221557617188
y: 424.97247314453125
z: 0.0018487025517970324
","x: 202.29380798339844
y: 427.84918212890625
z: 0.0027218780014663935
","x: 200.90866088867188
y: 429.855712890625
z: 0.0039374507032334805
","x: 209.36996459960938
y: 431.8312072753906
z: 0.004761673044413328
","x: 208.490966796875
y: 437.36810302734375
z: 0.005884765647351742
","x: 207.88055419921875
y: 440.5802001953125
z: 0.006766838021576405
","x: 207.52713012695312
y: 443.29876708984375
z: 0.007601736579090357
","x: 211.61215209960938
y: 432.996826171875
z: 0.004396192263811827
","x: 212.2519989013672
y: 439.79156494140625
z: 0.005973416846245527
","x: 212.4377899169922
y: 444.1170654296875
z: 0.006830479949712753
","x: 212.5497589111328
y: 448.0909729003906
z: 0.007398244924843311
","x: 213.0646209716797
y: 433.4321594238281
z: 0.003749400842934847
","x: 213.95204162597656
y: 439.7298889160156
z: 0.004583321511745453
","x: 214.3240203857422
y: 444.1044921875
z: 0.004803355783224106
","x: 214.49566650390625
y: 447.6192626953125
z: 0.005057918839156628
","x: 213.84767150878906
y: 433.3559875488281
z: 0.0029126580338925123
","x: 214.5476531982422
y: 438.7225341796875
z: 0.0032436889596283436
","x: 214.86660766601562
y: 442.4847412109375
z: 0.0034352890215814114
","x: 215.08070373535156
y: 445.4383544921875
z: 0.003775753313675523
",,,,,,,,,,,,,,,,,,,,,
18,"x: 207.45703125
y: 304.910400390625
z: -0.5818390846252441
visibility: 0.9999908804893494
","x: 209.68560791015625
y: 298.8967590332031
z: -0.5762490630149841
visibility: 0.9999668598175049
","x: 211.1864776611328
y: 298.8341064453125
z: -0.576179027557373
visibility: 0.9999358057975769
","x: 212.66940307617188
y: 298.8134765625
z: -0.5762540102005005
visibility: 0.9999156594276428
","x: 205.65750122070312
y: 299.5478515625
z: -0.5726469159126282
visibility: 0.9999853372573853
","x: 204.83566284179688
y: 299.1492919921875
z: -0.5727845430374146
visibility: 0.9999808669090271
","x: 203.66427612304688
y: 299.1006774902344
z: -0.5728651285171509
visibility: 0.9999788403511047
","x: 215.52574157714844
y: 296.8585510253906
z: -0.486900269985199
visibility: 0.9997191429138184
","x: 203.07418823242188
y: 297.3868408203125
z: -0.47184786200523376
visibility: 0.9999837279319763
","x: 209.39852905273438
y: 309.5867614746094
z: -0.5428797006607056
visibility: 0.999978244304657
","x: 204.89593505859375
y: 309.8475341796875
z: -0.5385861992835999
visibility: 0.9999834895133972
","x: 225.70559692382812
y: 323.91107177734375
z: -0.3897090554237366
visibility: 0.9999480843544006
","x: 191.8865203857422
y: 314.78704833984375
z: -0.3251569867134094
visibility: 0.9999738931655884
","x: 222.27513122558594
y: 375.620849609375
z: -0.4065527319908142
visibility: 0.9790308475494385
","x: 180.31430053710938
y: 352.9682922363281
z: -0.3015417456626892
visibility: 0.9898396730422974
","x: 212.6465606689453
y: 416.5789489746094
z: -0.4602636694908142
visibility: 0.9675212502479553
","x: 178.26400756835938
y: 404.4098205566406
z: -0.3609476387500763
visibility: 0.9655301570892334
","x: 212.42510986328125
y: 429.9723815917969
z: -0.49667972326278687
visibility: 0.9279555678367615
","x: 175.1332550048828
y: 417.45416259765625
z: -0.37974151968955994
visibility: 0.9280426502227783
","x: 207.2954559326172
y: 428.6750793457031
z: -0.5067784190177917
visibility: 0.930020809173584
","x: 178.26275634765625
y: 418.984130859375
z: -0.40777087211608887
visibility: 0.9278666973114014
","x: 206.80142211914062
y: 424.26385498046875
z: -0.46597805619239807
visibility: 0.9101136922836304
","x: 181.26739501953125
y: 413.72979736328125
z: -0.37251657247543335
visibility: 0.9095240235328674
","x: 230.31912231445312
y: 367.1434020996094
z: -0.03523631766438484
visibility: 0.9998932480812073
","x: 209.1488800048828
y: 357.7050476074219
z: 0.035220760852098465
visibility: 0.9997780323028564
","x: 219.7180938720703
y: 443.9538269042969
z: -0.2110324203968048
visibility: 0.953324019908905
","x: 189.8805694580078
y: 387.975341796875
z: -0.12589222192764282
visibility: 0.8948873281478882
","x: 211.5192413330078
y: 520.5015869140625
z: -0.16445676982402802
visibility: 0.9837900400161743
","x: 185.3231201171875
y: 418.1762390136719
z: 0.05487823486328125
visibility: 0.824104368686676
","x: 209.45266723632812
y: 531.1919555664062
z: -0.16390684247016907
visibility: 0.9143843054771423
","x: 186.20237731933594
y: 420.6576232910156
z: 0.06962452828884125
visibility: 0.7525346279144287
","x: 207.63706970214844
y: 545.5866088867188
z: -0.2768004834651947
visibility: 0.9738567471504211
","x: 178.80799865722656
y: 430.9961242675781
z: -0.0015226193936541677
visibility: 0.8125267028808594
","x: 212.09854125976562
y: 417.49664306640625
z: 0.0
","x: 207.74038696289062
y: 421.3742370605469
z: 0.0006155471783131361
","x: 204.55221557617188
y: 424.97247314453125
z: 0.0018487025517970324
","x: 202.29380798339844
y: 427.84918212890625
z: 0.0027218780014663935
","x: 200.90866088867188
y: 429.855712890625
z: 0.0039374507032334805
","x: 209.36996459960938
y: 431.8312072753906
z: 0.004761673044413328
","x: 208.490966796875
y: 437.36810302734375
z: 0.005884765647351742
","x: 207.88055419921875
y: 440.5802001953125
z: 0.006766838021576405
","x: 207.52713012695312
y: 443.29876708984375
z: 0.007601736579090357
","x: 211.61215209960938
y: 432.996826171875
z: 0.004396192263811827
","x: 212.2519989013672
y: 439.79156494140625
z: 0.005973416846245527
","x: 212.4377899169922
y: 444.1170654296875
z: 0.006830479949712753
","x: 212.5497589111328
y: 448.0909729003906
z: 0.007398244924843311
","x: 213.0646209716797
y: 433.4321594238281
z: 0.003749400842934847
","x: 213.95204162597656
y: 439.7298889160156
z: 0.004583321511745453
","x: 214.3240203857422
y: 444.1044921875
z: 0.004803355783224106
","x: 214.49566650390625
y: 447.6192626953125
z: 0.005057918839156628
","x: 213.84767150878906
y: 433.3559875488281
z: 0.0029126580338925123
","x: 214.5476531982422
y: 438.7225341796875
z: 0.0032436889596283436
","x: 214.86660766601562
y: 442.4847412109375
z: 0.0034352890215814114
","x: 215.08070373535156
y: 445.4383544921875
z: 0.003775753313675523
",,,,,,,,,,,,,,,,,,,,,
19,"x: 215.1764373779297
y: 277.48724365234375
z: -0.5694218873977661
visibility: 0.9999917149543762
","x: 218.86146545410156
y: 270.5259094238281
z: -0.5610834956169128
visibility: 0.999970018863678
","x: 220.47833251953125
y: 270.5335388183594
z: -0.5609914064407349
visibility: 0.9999419450759888
","x: 221.98992919921875
y: 270.4045715332031
z: -0.5610436201095581
visibility: 0.999923825263977
","x: 214.32005310058594
y: 268.8388366699219
z: -0.5621060132980347
visibility: 0.9999867081642151
","x: 213.04403686523438
y: 268.1200866699219
z: -0.5622642636299133
visibility: 0.9999826550483704
","x: 211.6875
y: 266.59326171875
z: -0.5623682737350464
visibility: 0.9999808669090271
","x: 224.0167999267578
y: 271.18670654296875
z: -0.46354517340660095
visibility: 0.9997466802597046
","x: 209.4602508544922
y: 266.35845947265625
z: -0.4719173312187195
visibility: 0.9999853372573853
","x: 217.6121826171875
y: 284.3838195800781
z: -0.5272762775421143
visibility: 0.9999803304672241
","x: 211.95762634277344
y: 283.241943359375
z: -0.5297795534133911
visibility: 0.9999850988388062
","x: 231.3318328857422
y: 301.1041564941406
z: -0.36250633001327515
visibility: 0.9999514222145081
","x: 193.51039123535156
y: 294.03131103515625
z: -0.314979612827301
visibility: 0.9999760985374451
","x: 224.45045471191406
y: 352.8438720703125
z: -0.34355324506759644
visibility: 0.9765316247940063
","x: 179.88621520996094
y: 337.2537536621094
z: -0.2536014914512634
visibility: 0.9903959631919861
","x: 209.50204467773438
y: 393.1640319824219
z: -0.4150053560733795
visibility: 0.9670644998550415
","x: 182.47821044921875
y: 379.2073974609375
z: -0.271661639213562
visibility: 0.9670295715332031
","x: 206.508544921875
y: 407.70330810546875
z: -0.4553682804107666
visibility: 0.9296773076057434
","x: 181.21597290039062
y: 392.3028259277344
z: -0.2856380343437195
visibility: 0.9297401905059814
","x: 202.54315185546875
y: 406.6793518066406
z: -0.46237707138061523
visibility: 0.9316992163658142
","x: 183.74774169921875
y: 391.2345886230469
z: -0.3080287575721741
visibility: 0.9294571876525879
","x: 202.52662658691406
y: 396.22979736328125
z: -0.4197794497013092
visibility: 0.909578263759613
","x: 186.1184539794922
y: 386.0773010253906
z: -0.2780863344669342
visibility: 0.911726713180542
","x: 229.99205017089844
y: 350.8746643066406
z: -0.02994934283196926
visibility: 0.9999023079872131
","x: 210.40737915039062
y: 347.5794982910156
z: 0.03013746812939644
visibility: 0.9997856616973877
","x: 214.03228759765625
y: 447.63470458984375
z: -0.21019557118415833
visibility: 0.9515929818153381
","x: 198.31292724609375
y: 398.3330993652344
z: -0.1220327839255333
visibility: 0.8851938247680664
","x: 211.25779724121094
y: 526.4959106445312
z: -0.20139165222644806
visibility: 0.9830902814865112
","x: 199.7420654296875
y: 426.2191467285156
z: 0.061285536736249924
visibility: 0.754095196723938
","x: 205.93359375
y: 531.4217529296875
z: -0.20605310797691345
visibility: 0.9078791737556458
","x: 200.5998992919922
y: 426.4130859375
z: 0.07626555114984512
visibility: 0.6953868269920349
","x: 201.72560119628906
y: 546.8707885742188
z: -0.321363627910614
visibility: 0.9707173109054565
","x: 196.56578063964844
y: 433.8223876953125
z: 0.00796858873218298
visibility: 0.7485970258712769
",,,,,,,,,,,,,,,,,,,,,,,,,,,,,,,,,,,,,,,,,,
20,"x: 218.73374938964844
y: 262.7421875
z: -0.22903120517730713
visibility: 0.9999922513961792
","x: 222.0008087158203
y: 255.35020446777344
z: -0.20939114689826965
visibility: 0.9999725818634033
","x: 223.60870361328125
y: 255.5446014404297
z: -0.20938007533550262
visibility: 0.9999470114707947
","x: 225.06790161132812
y: 255.78012084960938
z: -0.20939090847969055
visibility: 0.9999308586120605
","x: 217.44845581054688
y: 252.8307342529297
z: -0.21294720470905304
visibility: 0.999987781047821
","x: 216.04930114746094
y: 251.52310180664062
z: -0.21305279433727264
visibility: 0.999984085559845
","x: 214.61761474609375
y: 250.41807556152344
z: -0.21311981976032257
visibility: 0.9999826550483704
","x: 226.80496215820312
y: 257.7936096191406
z: -0.09933842718601227
visibility: 0.9997695684432983
","x: 211.97933959960938
y: 251.92340087890625
z: -0.12178163230419159
visibility: 0.9999865889549255
","x: 220.67660522460938
y: 269.93389892578125
z: -0.18722392618656158
visibility: 0.9999812841415405
","x: 214.9826202392578
y: 268.710205078125
z: -0.193874329328537
visibility: 0.9999862909317017
","x: 233.91915893554688
y: 293.23663330078125
z: -0.05977952480316162
visibility: 0.9999498724937439
","x: 196.91233825683594
y: 287.3586730957031
z: -0.013351614587008953
visibility: 0.9999773502349854
","x: 228.41949462890625
y: 328.7960510253906
z: -0.07514547556638718
visibility: 0.9715973734855652
","x: 181.9099578857422
y: 327.63653564453125
z: 0.042105454951524734
visibility: 0.9813393354415894
","x: 216.65621948242188
y: 361.05975341796875
z: -0.17564330995082855
visibility: 0.9548799395561218
","x: 183.6026153564453
y: 363.52960205078125
z: -0.021221326664090157
visibility: 0.9479882121086121
","x: 216.53997802734375
y: 372.40887451171875
z: -0.2031964361667633
visibility: 0.91170734167099
","x: 185.19412231445312
y: 374.4888000488281
z: -0.03644770383834839
visibility: 0.9039561152458191
","x: 215.24876403808594
y: 369.5716552734375
z: -0.214090496301651
visibility: 0.9130071997642517
","x: 188.08885192871094
y: 372.53643798828125
z: -0.060554422438144684
visibility: 0.9048081636428833
","x: 215.2008819580078
y: 366.5618591308594
z: -0.18184176087379456
visibility: 0.8864498138427734
","x: 188.6918487548828
y: 368.71209716796875
z: -0.03028738498687744
visibility: 0.8893658518791199
","x: 230.5065155029297
y: 364.93975830078125
z: -0.02696990966796875
visibility: 0.9999002814292908
","x: 210.7122344970703
y: 366.9110412597656
z: 0.027141237631440163
visibility: 0.9997943043708801
","x: 216.25491333007812
y: 448.2006530761719
z: -0.09052716195583344
visibility: 0.9489269256591797
","x: 205.4514617919922
y: 389.8501892089844
z: -0.21734800934791565
visibility: 0.872639000415802
","x: 210.97991943359375
y: 528.5670166015625
z: -0.1367402970790863
visibility: 0.9753943085670471
","x: 210.618896484375
y: 405.664306640625
z: -0.26300984621047974
visibility: 0.7301560640335083
","x: 207.7045440673828
y: 538.8738403320312
z: -0.144033282995224
visibility: 0.8986608386039734
","x: 213.598388671875
y: 425.15252685546875
z: -0.27083486318588257
visibility: 0.6898139119148254
","x: 202.53565979003906
y: 548.8495483398438
z: -0.24388055503368378
visibility: 0.9655756950378418
","x: 205.86135864257812
y: 422.94854736328125
z: -0.3655720353126526
visibility: 0.7564680576324463
",,,,,,,,,,,,,,,,,,,,,,,,,,,,,,,,,,,,,,,,,,
21,"x: 217.95921325683594
y: 253.56427001953125
z: -0.1324595957994461
visibility: 0.9999920129776001
","x: 220.81027221679688
y: 248.33192443847656
z: -0.1110338419675827
visibility: 0.9999725818634033
","x: 222.18409729003906
y: 249.62791442871094
z: -0.11111187934875488
visibility: 0.9999480247497559
","x: 223.52362060546875
y: 250.8818359375
z: -0.11113674938678741
visibility: 0.9999334216117859
","x: 216.8331756591797
y: 244.91677856445312
z: -0.11727818101644516
visibility: 0.9999873638153076
","x: 215.5543670654297
y: 244.13108825683594
z: -0.11732639372348785
visibility: 0.9999842047691345
","x: 214.2696533203125
y: 243.53981018066406
z: -0.11736718565225601
visibility: 0.9999836087226868
","x: 224.64805603027344
y: 254.7170867919922
z: -0.008037266321480274
visibility: 0.9997799396514893
","x: 211.65219116210938
y: 245.91403198242188
z: -0.04069581627845764
visibility: 0.9999867677688599
","x: 219.62989807128906
y: 262.9961242675781
z: -0.09407684206962585
visibility: 0.9999809861183167
","x: 214.40086364746094
y: 260.82232666015625
z: -0.10386482626199722
visibility: 0.9999872446060181
","x: 232.70904541015625
y: 290.9471435546875
z: 0.01822727918624878
visibility: 0.9999431371688843
","x: 195.5201416015625
y: 286.2253723144531
z: 0.020335761830210686
visibility: 0.9999789595603943
","x: 226.39305114746094
y: 332.97137451171875
z: -0.013028010725975037
visibility: 0.9675403833389282
","x: 185.68418884277344
y: 329.35906982421875
z: 0.0040335217490792274
visibility: 0.9789963364601135
","x: 217.73822021484375
y: 368.7789306640625
z: -0.09830019623041153
visibility: 0.9464043378829956
","x: 190.4057159423828
y: 366.8026123046875
z: -0.11390872299671173
visibility: 0.9417669177055359
","x: 219.6546173095703
y: 388.5489501953125
z: -0.12245215475559235
visibility: 0.9020249843597412
","x: 190.88980102539062
y: 380.1004638671875
z: -0.14385242760181427
visibility: 0.8975326418876648
","x: 217.0770721435547
y: 386.5692443847656
z: -0.13673318922519684
visibility: 0.9013802409172058
","x: 194.20082092285156
y: 379.6098327636719
z: -0.16186578571796417
visibility: 0.8988105654716492
","x: 216.6851348876953
y: 382.45428466796875
z: -0.10523442178964615
visibility: 0.870819091796875
","x: 194.612548828125
y: 374.117919921875
z: -0.12240049988031387
visibility: 0.8813148736953735
","x: 223.69293212890625
y: 378.2522888183594
z: -0.012070578522980213
visibility: 0.9999005198478699
","x: 203.40248107910156
y: 377.869873046875
z: 0.012333187274634838
visibility: 0.9998120665550232
","x: 218.65597534179688
y: 460.06231689453125
z: -0.003912792541086674
visibility: 0.9505167603492737
","x: 202.5810546875
y: 391.67706298828125
z: -0.32699188590049744
visibility: 0.8798032402992249
","x: 209.99465942382812
y: 531.264404296875
z: 0.0036345284897834063
visibility: 0.9594643712043762
","x: 207.4384002685547
y: 427.3558349609375
z: -0.5083376169204712
visibility: 0.7395385503768921
","x: 208.0587158203125
y: 541.4725952148438
z: -0.0023947064764797688
visibility: 0.885226845741272
","x: 210.9934844970703
y: 442.3473815917969
z: -0.531164288520813
visibility: 0.7104979753494263
","x: 204.48692321777344
y: 550.9716186523438
z: -0.0795985609292984
visibility: 0.9551323652267456
","x: 203.6566925048828
y: 420.048828125
z: -0.6456993818283081
visibility: 0.7777756452560425
",,,,,,,,,,,,,,,,,,,,,,"x: 192.96266174316406
y: 401.4813537597656
z: 0.0
","x: 190.4645233154297
y: 393.75921630859375
z: -0.005923479329794645
","x: 188.8712615966797
y: 383.571533203125
z: -0.01501884963363409
","x: 190.25674438476562
y: 376.6436767578125
z: -0.022922903299331665
","x: 192.3336181640625
y: 373.7355041503906
z: -0.030861981213092804
","x: 186.0592498779297
y: 388.5415954589844
z: -0.031201159581542015
","x: 185.41653442382812
y: 378.9193420410156
z: -0.04249070957303047
","x: 186.8083038330078
y: 372.88922119140625
z: -0.046676188707351685
","x: 187.52369689941406
y: 369.11444091796875
z: -0.04868176206946373
","x: 189.33197021484375
y: 391.14404296875
z: -0.03270598500967026
","x: 189.7651824951172
y: 379.6277160644531
z: -0.04223979264497757
","x: 191.4451904296875
y: 374.3704833984375
z: -0.04060504585504532
","x: 192.13136291503906
y: 371.79632568359375
z: -0.040427789092063904
","x: 193.0303192138672
y: 393.4910888671875
z: -0.032860398292541504
","x: 193.61817932128906
y: 381.3497619628906
z: -0.038747698068618774
","x: 194.6406707763672
y: 378.176025390625
z: -0.03441177308559418
","x: 194.6979217529297
y: 377.2016906738281
z: -0.03267967328429222
","x: 196.39064025878906
y: 394.900634765625
z: -0.03337368741631508
","x: 197.45025634765625
y: 384.5853271484375
z: -0.03734986484050751
","x: 197.45628356933594
y: 381.8263244628906
z: -0.03575682267546654
","x: 196.69664001464844
y: 381.0614318847656
z: -0.03514691814780235
"
22,"x: 217.95921325683594
y: 253.56427001953125
z: -0.1324595957994461
visibility: 0.9999920129776001
","x: 220.81027221679688
y: 248.33192443847656
z: -0.1110338419675827
visibility: 0.9999725818634033
","x: 222.18409729003906
y: 249.62791442871094
z: -0.11111187934875488
visibility: 0.9999480247497559
","x: 223.52362060546875
y: 250.8818359375
z: -0.11113674938678741
visibility: 0.9999334216117859
","x: 216.8331756591797
y: 244.91677856445312
z: -0.11727818101644516
visibility: 0.9999873638153076
","x: 215.5543670654297
y: 244.13108825683594
z: -0.11732639372348785
visibility: 0.9999842047691345
","x: 214.2696533203125
y: 243.53981018066406
z: -0.11736718565225601
visibility: 0.9999836087226868
","x: 224.64805603027344
y: 254.7170867919922
z: -0.008037266321480274
visibility: 0.9997799396514893
","x: 211.65219116210938
y: 245.91403198242188
z: -0.04069581627845764
visibility: 0.9999867677688599
","x: 219.62989807128906
y: 262.9961242675781
z: -0.09407684206962585
visibility: 0.9999809861183167
","x: 214.40086364746094
y: 260.82232666015625
z: -0.10386482626199722
visibility: 0.9999872446060181
","x: 232.70904541015625
y: 290.9471435546875
z: 0.01822727918624878
visibility: 0.9999431371688843
","x: 195.5201416015625
y: 286.2253723144531
z: 0.020335761830210686
visibility: 0.9999789595603943
","x: 226.39305114746094
y: 332.97137451171875
z: -0.013028010725975037
visibility: 0.9675403833389282
","x: 185.68418884277344
y: 329.35906982421875
z: 0.0040335217490792274
visibility: 0.9789963364601135
","x: 217.73822021484375
y: 368.7789306640625
z: -0.09830019623041153
visibility: 0.9464043378829956
","x: 190.4057159423828
y: 366.8026123046875
z: -0.11390872299671173
visibility: 0.9417669177055359
","x: 219.6546173095703
y: 388.5489501953125
z: -0.12245215475559235
visibility: 0.9020249843597412
","x: 190.88980102539062
y: 380.1004638671875
z: -0.14385242760181427
visibility: 0.8975326418876648
","x: 217.0770721435547
y: 386.5692443847656
z: -0.13673318922519684
visibility: 0.9013802409172058
","x: 194.20082092285156
y: 379.6098327636719
z: -0.16186578571796417
visibility: 0.8988105654716492
","x: 216.6851348876953
y: 382.45428466796875
z: -0.10523442178964615
visibility: 0.870819091796875
","x: 194.612548828125
y: 374.117919921875
z: -0.12240049988031387
visibility: 0.8813148736953735
","x: 223.69293212890625
y: 378.2522888183594
z: -0.012070578522980213
visibility: 0.9999005198478699
","x: 203.40248107910156
y: 377.869873046875
z: 0.012333187274634838
visibility: 0.9998120665550232
","x: 218.65597534179688
y: 460.06231689453125
z: -0.003912792541086674
visibility: 0.9505167603492737
","x: 202.5810546875
y: 391.67706298828125
z: -0.32699188590049744
visibility: 0.8798032402992249
","x: 209.99465942382812
y: 531.264404296875
z: 0.0036345284897834063
visibility: 0.9594643712043762
","x: 207.4384002685547
y: 427.3558349609375
z: -0.5083376169204712
visibility: 0.7395385503768921
","x: 208.0587158203125
y: 541.4725952148438
z: -0.0023947064764797688
visibility: 0.885226845741272
","x: 210.9934844970703
y: 442.3473815917969
z: -0.531164288520813
visibility: 0.7104979753494263
","x: 204.48692321777344
y: 550.9716186523438
z: -0.0795985609292984
visibility: 0.9551323652267456
","x: 203.6566925048828
y: 420.048828125
z: -0.6456993818283081
visibility: 0.7777756452560425
",,,,,,,,,,,,,,,,,,,,,,"x: 192.96266174316406
y: 401.4813537597656
z: 0.0
","x: 190.4645233154297
y: 393.75921630859375
z: -0.005923479329794645
","x: 188.8712615966797
y: 383.571533203125
z: -0.01501884963363409
","x: 190.25674438476562
y: 376.6436767578125
z: -0.022922903299331665
","x: 192.3336181640625
y: 373.7355041503906
z: -0.030861981213092804
","x: 186.0592498779297
y: 388.5415954589844
z: -0.031201159581542015
","x: 185.41653442382812
y: 378.9193420410156
z: -0.04249070957303047
","x: 186.8083038330078
y: 372.88922119140625
z: -0.046676188707351685
","x: 187.52369689941406
y: 369.11444091796875
z: -0.04868176206946373
","x: 189.33197021484375
y: 391.14404296875
z: -0.03270598500967026
","x: 189.7651824951172
y: 379.6277160644531
z: -0.04223979264497757
","x: 191.4451904296875
y: 374.3704833984375
z: -0.04060504585504532
","x: 192.13136291503906
y: 371.79632568359375
z: -0.040427789092063904
","x: 193.0303192138672
y: 393.4910888671875
z: -0.032860398292541504
","x: 193.61817932128906
y: 381.3497619628906
z: -0.038747698068618774
","x: 194.6406707763672
y: 378.176025390625
z: -0.03441177308559418
","x: 194.6979217529297
y: 377.2016906738281
z: -0.03267967328429222
","x: 196.39064025878906
y: 394.900634765625
z: -0.03337368741631508
","x: 197.45025634765625
y: 384.5853271484375
z: -0.03734986484050751
","x: 197.45628356933594
y: 381.8263244628906
z: -0.03575682267546654
","x: 196.69664001464844
y: 381.0614318847656
z: -0.03514691814780235
"
23,"x: 216.7991180419922
y: 254.03038024902344
z: -0.18490131199359894
visibility: 0.999989926815033
","x: 219.400146484375
y: 248.23367309570312
z: -0.16552484035491943
visibility: 0.9999697208404541
","x: 220.7409210205078
y: 249.10806274414062
z: -0.165564626455307
visibility: 0.999945878982544
","x: 222.00111389160156
y: 249.9707794189453
z: -0.16557961702346802
visibility: 0.9999321103096008
","x: 215.24935913085938
y: 245.972412109375
z: -0.16933241486549377
visibility: 0.9999836087226868
","x: 213.8129119873047
y: 245.386962890625
z: -0.16938446462154388
visibility: 0.9999802708625793
","x: 212.4953155517578
y: 244.8505859375
z: -0.16944384574890137
visibility: 0.9999804496765137
","x: 223.21739196777344
y: 253.96633911132812
z: -0.052878689020872116
visibility: 0.9997802972793579
","x: 210.21107482910156
y: 246.8807373046875
z: -0.07431592047214508
visibility: 0.9999821186065674
","x: 218.34841918945312
y: 263.09112548828125
z: -0.14218232035636902
visibility: 0.999979555606842
","x: 213.53858947753906
y: 260.8971252441406
z: -0.14838191866874695
visibility: 0.9999858140945435
","x: 232.10916137695312
y: 291.9373779296875
z: 0.0027723012026399374
visibility: 0.9999346137046814
","x: 195.4013671875
y: 285.4682312011719
z: -0.015893088653683662
visibility: 0.9999743103981018
","x: 228.0439453125
y: 337.56182861328125
z: -0.012510317377746105
visibility: 0.9611002802848816
","x: 187.3280487060547
y: 329.0494384765625
z: -0.060671232640743256
visibility: 0.9790483117103577
","x: 220.32376098632812
y: 372.46722412109375
z: -0.13843084871768951
visibility: 0.9426589608192444
","x: 192.460693359375
y: 363.9880676269531
z: -0.23165860772132874
visibility: 0.944814920425415
","x: 220.131103515625
y: 385.1856689453125
z: -0.17164918780326843
visibility: 0.9007486701011658
","x: 192.1780242919922
y: 376.5415954589844
z: -0.2675935924053192
visibility: 0.9033350944519043
","x: 217.41673278808594
y: 382.2976379394531
z: -0.19107381999492645
visibility: 0.9004917144775391
","x: 196.01206970214844
y: 375.4211730957031
z: -0.2854321002960205
visibility: 0.9045326709747314
","x: 216.9776153564453
y: 377.6835632324219
z: -0.14838173985481262
visibility: 0.8694424629211426
","x: 196.73678588867188
y: 369.9359436035156
z: -0.2409292757511139
visibility: 0.8874989748001099
","x: 220.4523162841797
y: 384.0968322753906
z: -0.0067397975362837315
visibility: 0.9998977780342102
","x: 200.23211669921875
y: 384.3971252441406
z: 0.00694566685706377
visibility: 0.9997921586036682
","x: 210.87051391601562
y: 461.2215881347656
z: -0.06702117621898651
visibility: 0.9521915316581726
","x: 204.6170654296875
y: 435.4481506347656
z: -0.026709502562880516
visibility: 0.8769985437393188
","x: 208.96827697753906
y: 536.5430908203125
z: -0.009973352774977684
visibility: 0.959705650806427
","x: 205.03990173339844
y: 454.86529541015625
z: 0.19773215055465698
visibility: 0.7132101058959961
","x: 208.17481994628906
y: 545.7276611328125
z: -0.010020110756158829
visibility: 0.8802628517150879
","x: 205.67669677734375
y: 450.2511291503906
z: 0.2173433005809784
visibility: 0.6754807829856873
","x: 206.04281616210938
y: 555.5083618164062
z: -0.10301951318979263
visibility: 0.9542965292930603
","x: 203.780517578125
y: 476.1956787109375
z: 0.16021159291267395
visibility: 0.7611029744148254
",,,,,,,,,,,,,,,,,,,,,,,,,,,,,,,,,,,,,,,,,,
24,"x: 215.72467041015625
y: 252.594482421875
z: -0.2528361976146698
visibility: 0.9999904036521912
","x: 217.95242309570312
y: 247.5594482421875
z: -0.2369522601366043
visibility: 0.9999717473983765
","x: 219.334228515625
y: 248.46142578125
z: -0.23696354031562805
visibility: 0.9999498128890991
","x: 220.68112182617188
y: 249.24522399902344
z: -0.23700937628746033
visibility: 0.9999375343322754
","x: 213.93748474121094
y: 245.19085693359375
z: -0.2406187355518341
visibility: 0.9999844431877136
","x: 212.5343780517578
y: 244.7300567626953
z: -0.24069349467754364
visibility: 0.9999815821647644
","x: 211.22007751464844
y: 244.3133544921875
z: -0.24070946872234344
visibility: 0.9999820590019226
","x: 222.3488311767578
y: 253.3267364501953
z: -0.13040992617607117
visibility: 0.9997967481613159
","x: 209.12750244140625
y: 248.19873046875
z: -0.14982694387435913
visibility: 0.9999833106994629
","x: 217.4523468017578
y: 262.1788330078125
z: -0.2103349268436432
visibility: 0.999980628490448
","x: 212.85214233398438
y: 259.48553466796875
z: -0.2163497656583786
visibility: 0.999987006187439
","x: 231.74176025390625
y: 293.7646179199219
z: -0.040229205042123795
visibility: 0.9999357461929321
","x: 195.1361846923828
y: 285.16839599609375
z: -0.09339790046215057
visibility: 0.9999767541885376
","x: 229.0327606201172
y: 343.518798828125
z: -0.012587243691086769
visibility: 0.9544565677642822
","x: 189.66307067871094
y: 326.5285949707031
z: -0.13267119228839874
visibility: 0.9799416065216064
","x: 228.1322021484375
y: 384.6957702636719
z: -0.0784280076622963
visibility: 0.9277967214584351
","x: 198.0603790283203
y: 355.387939453125
z: -0.2659901976585388
visibility: 0.9472311735153198
","x: 229.1219024658203
y: 397.27655029296875
z: -0.09508974105119705
visibility: 0.8780710697174072
","x: 200.122802734375
y: 366.68988037109375
z: -0.27823975682258606
visibility: 0.9072463512420654
","x: 227.425537109375
y: 396.47406005859375
z: -0.11697834730148315
visibility: 0.8769449591636658
","x: 203.44998168945312
y: 362.2074890136719
z: -0.31570908427238464
visibility: 0.9084275960922241
","x: 226.01348876953125
y: 391.6270751953125
z: -0.0880265086889267
visibility: 0.8409385681152344
","x: 203.14776611328125
y: 357.8427734375
z: -0.27577874064445496
visibility: 0.8891814351081848
","x: 217.2469940185547
y: 382.5359802246094
z: 0.002353421878069639
visibility: 0.9999067783355713
","x: 195.39015197753906
y: 370.811279296875
z: -0.0022286209277808666
visibility: 0.9998128414154053
","x: 210.34588623046875
y: 460.8515625
z: -0.002924454864114523
visibility: 0.9547228217124939
","x: 189.26840209960938
y: 409.4656982421875
z: -0.3829778730869293
visibility: 0.8890121579170227
","x: 208.91290283203125
y: 536.9762573242188
z: 0.0804029256105423
visibility: 0.9582504034042358
","x: 174.7529754638672
y: 483.7331848144531
z: -0.5092006921768188
visibility: 0.7410842180252075
","x: 207.01022338867188
y: 548.2108154296875
z: 0.08153175562620163
visibility: 0.8614811897277832
","x: 172.95452880859375
y: 502.3510437011719
z: -0.5261753797531128
visibility: 0.6997577548027039
","x: 208.58349609375
y: 557.8031005859375
z: -0.03049035370349884
visibility: 0.9530014991760254
","x: 169.6890106201172
y: 498.64337158203125
z: -0.6737702488899231
visibility: 0.7846353650093079
",,,,,,,,,,,,,,,,,,,,,,,,,,,,,,,,,,,,,,,,,,
25,"x: 214.8541259765625
y: 254.7183837890625
z: -0.26814138889312744
visibility: 0.9999909400939941
","x: 217.37899780273438
y: 248.3955535888672
z: -0.25010570883750916
visibility: 0.9999738931655884
","x: 218.60621643066406
y: 249.00790405273438
z: -0.25010427832603455
visibility: 0.9999540448188782
","x: 219.85214233398438
y: 249.6172332763672
z: -0.2501068115234375
visibility: 0.99994295835495
","x: 213.47598266601562
y: 247.15989685058594
z: -0.2559221386909485
visibility: 0.9999850392341614
","x: 212.00457763671875
y: 247.04196166992188
z: -0.25597506761550903
visibility: 0.9999826550483704
","x: 210.7178955078125
y: 246.9856414794922
z: -0.25603288412094116
visibility: 0.9999831318855286
","x: 221.54583740234375
y: 253.57974243164062
z: -0.1290164291858673
visibility: 0.999814510345459
","x: 208.2659454345703
y: 249.9297332763672
z: -0.1557062864303589
visibility: 0.9999840259552002
","x: 217.03436279296875
y: 263.8644714355469
z: -0.22076857089996338
visibility: 0.9999819397926331
","x: 211.38035583496094
y: 262.71728515625
z: -0.22869226336479187
visibility: 0.999987781047821
","x: 231.17039489746094
y: 297.89093017578125
z: -0.003582186996936798
visibility: 0.9999392032623291
","x: 195.44285583496094
y: 286.8666687011719
z: -0.12758232653141022
visibility: 0.9999777674674988
","x: 231.6951141357422
y: 346.00048828125
z: 0.006006482057273388
visibility: 0.9503896236419678
","x: 196.29058837890625
y: 330.9373474121094
z: -0.1663701981306076
visibility: 0.9807398319244385
","x: 244.0391082763672
y: 383.4302978515625
z: -0.1371198296546936
visibility: 0.929278552532196
","x: 210.0492401123047
y: 363.8232727050781
z: -0.35185176134109497
visibility: 0.9517600536346436
","x: 247.4575958251953
y: 394.2052001953125
z: -0.1657191812992096
visibility: 0.8819495439529419
","x: 211.74293518066406
y: 375.42730712890625
z: -0.3983965516090393
visibility: 0.9151430726051331
","x: 247.35609436035156
y: 393.8017578125
z: -0.1992858350276947
visibility: 0.8816486597061157
","x: 214.45213317871094
y: 371.1143493652344
z: -0.40870505571365356
visibility: 0.9162108302116394
","x: 245.97286987304688
y: 390.3403015136719
z: -0.15437358617782593
visibility: 0.8475985527038574
","x: 214.38275146484375
y: 367.2135009765625
z: -0.3572092056274414
visibility: 0.8976921439170837
","x: 210.50344848632812
y: 387.039794921875
z: 0.029139000922441483
visibility: 0.9999115467071533
","x: 188.1322479248047
y: 378.957275390625
z: -0.029187466949224472
visibility: 0.9998286366462708
","x: 209.86727905273438
y: 463.29248046875
z: 0.04405239596962929
visibility: 0.9586218595504761
","x: 170.92359924316406
y: 448.3276062011719
z: -0.14841170608997345
visibility: 0.8999865055084229
","x: 209.25697326660156
y: 537.6416625976562
z: 0.1984696388244629
visibility: 0.962078332901001
","x: 146.9591522216797
y: 526.3758544921875
z: -0.12766015529632568
visibility: 0.7668201923370361
","x: 207.47438049316406
y: 548.7318725585938
z: 0.20567357540130615
visibility: 0.8648396134376526
","x: 143.48355102539062
y: 534.8326416015625
z: -0.14377731084823608
visibility: 0.7200559377670288
","x: 209.07969665527344
y: 561.1700439453125
z: 0.08379224687814713
visibility: 0.9568487405776978
","x: 148.8893585205078
y: 555.6268920898438
z: -0.279723584651947
visibility: 0.8058892488479614
",,,,,,,,,,,,,,,,,,,,,,,,,,,,,,,,,,,,,,,,,,
26,"x: 210.97561645507812
y: 260.1742858886719
z: -0.2961347699165344
visibility: 0.9999908804893494
","x: 213.7239990234375
y: 255.04388427734375
z: -0.28091639280319214
visibility: 0.9999743103981018
","x: 215.1360321044922
y: 255.51358032226562
z: -0.2809077501296997
visibility: 0.9999563097953796
","x: 216.5105438232422
y: 256.0325012207031
z: -0.2809310257434845
visibility: 0.9999461770057678
","x: 209.27304077148438
y: 253.9430389404297
z: -0.2865354120731354
visibility: 0.9999839663505554
","x: 207.78549194335938
y: 253.8053741455078
z: -0.28657907247543335
visibility: 0.9999822378158569
","x: 206.70822143554688
y: 253.68185424804688
z: -0.28662940859794617
visibility: 0.999982476234436
","x: 217.8351593017578
y: 259.6722412109375
z: -0.17039655148983002
visibility: 0.9998267889022827
","x: 204.95040893554688
y: 256.7120056152344
z: -0.195469468832016
