uscmakers/ReverseChoreography/data/4_throwin_elbows_excision.csv
,NOSE,LEFT_EYE_INNER,LEFT_EYE,LEFT_EYE_OUTER,RIGHT_EYE_INNER,RIGHT_EYE,RIGHT_EYE_OUTER,LEFT_EAR,RIGHT_EAR,MOUTH_LEFT,MOUTH_RIGHT,LEFT_SHOULDER,RIGHT_SHOULDER,LEFT_ELBOW,RIGHT_ELBOW,LEFT_WRIST,RIGHT_WRIST,LEFT_PINKY,RIGHT_PINKY,LEFT_INDEX,RIGHT_INDEX,LEFT_THUMB,RIGHT_THUMB,LEFT_HIP,RIGHT_HIP,LEFT_KNEE,RIGHT_KNEE,LEFT_ANKLE,RIGHT_ANKLE,LEFT_HEEL,RIGHT_HEEL,LEFT_FOOT_INDEX,RIGHT_FOOT_INDEX,WRIST,THUMB_CPC,THUMB_MCP,THUMB_IP,THUMB_TIP,INDEX_FINGER_MCP,INDEX_FINGER_PIP,INDEX_FINGER_DIP,INDEX_FINGER_TIP,MIDDLE_FINGER_MCP,MIDDLE_FINGER_PIP,MIDDLE_FINGER_DIP,MIDDLE_FINGER_TIP,RING_FINGER_PIP,RING_FINGER_DIP,RING_FINGER_TIP,RING_FINGER_MCP,PINKY_MCP,PINKY_PIP,PINKY_DIP,PINKY_TIP,WRIST2,THUMB_CPC2,THUMB_MCP2,THUMB_IP2,THUMB_TIP2,INDEX_FINGER_MCP2,INDEX_FINGER_PIP2,INDEX_FINGER_DIP2,INDEX_FINGER_TIP2,MIDDLE_FINGER_MCP2,MIDDLE_FINGER_PIP2,MIDDLE_FINGER_DIP2,MIDDLE_FINGER_TIP2,RING_FINGER_PIP2,RING_FINGER_DIP2,RING_FINGER_TIP2,RING_FINGER_MCP2,PINKY_MCP2,PINKY_PIP2,PINKY_DIP2,PINKY_TIP2
0,"x: 253.0908660888672
y: 273.16851806640625
z: -0.2997395694255829
visibility: 0.9999994039535522
","x: 255.16656494140625
y: 267.081298828125
z: -0.27508610486984253
visibility: 0.9999990463256836
","x: 255.86085510253906
y: 267.6749572753906
z: -0.27516278624534607
visibility: 0.9999990463256836
","x: 256.533447265625
y: 268.2678527832031
z: -0.2752373218536377
visibility: 0.9999986886978149
","x: 252.19744873046875
y: 264.3484191894531
z: -0.2915445864200592
visibility: 0.9999986886978149
","x: 251.01324462890625
y: 263.29998779296875
z: -0.29157209396362305
visibility: 0.9999984502792358
","x: 249.4190673828125
y: 262.1138916015625
z: -0.2915421426296234
visibility: 0.9999978542327881
","x: 254.6878662109375
y: 269.34747314453125
z: -0.13783548772335052
visibility: 0.9999971389770508
","x: 244.01913452148438
y: 261.5973205566406
z: -0.21706649661064148
visibility: 0.9999977350234985
","x: 252.37066650390625
y: 280.7351989746094
z: -0.2484220564365387
visibility: 0.9999986886978149
","x: 248.5896759033203
y: 277.83721923828125
z: -0.2715283930301666
visibility: 0.9999992847442627
","x: 255.24118041992188
y: 315.9178466796875
z: -0.03009059466421604
visibility: 0.9999986886978149
","x: 220.69561767578125
y: 293.3880920410156
z: -0.17752429842948914
visibility: 0.9999973773956299
","x: 256.81903076171875
y: 365.5276794433594
z: -0.058210499584674835
visibility: 0.9486439228057861
","x: 201.58763122558594
y: 341.60772705078125
z: -0.2792735993862152
visibility: 0.9720697402954102
","x: 275.73944091796875
y: 377.5350646972656
z: -0.2799118161201477
visibility: 0.990835428237915
","x: 197.6955108642578
y: 340.6918640136719
z: -0.48341551423072815
visibility: 0.9757025837898254
","x: 282.6813049316406
y: 377.9333801269531
z: -0.322693407535553
visibility: 0.9863961935043335
","x: 192.88967895507812
y: 341.4131164550781
z: -0.5315715670585632
visibility: 0.9684111475944519
","x: 284.0576171875
y: 371.8139953613281
z: -0.3490618169307709
visibility: 0.9886325001716614
","x: 196.76824951171875
y: 337.4573059082031
z: -0.5493008494377136
visibility: 0.9708733558654785
","x: 281.7700500488281
y: 371.5658264160156
z: -0.29725536704063416
visibility: 0.983939528465271
","x: 198.465087890625
y: 337.0382385253906
z: -0.49527090787887573
visibility: 0.9528830647468567
","x: 237.12539672851562
y: 398.12310791015625
z: 0.07086402922868729
visibility: 0.9998979568481445
","x: 215.7042236328125
y: 397.104736328125
z: -0.07092329859733582
visibility: 0.9999666213989258
","x: 255.844482421875
y: 470.7303161621094
z: 0.11533977836370468
visibility: 0.9802626967430115
","x: 217.9244842529297
y: 475.2099609375
z: -0.2166254222393036
visibility: 0.9977123737335205
","x: 261.89971923828125
y: 538.197265625
z: 0.3159870207309723
visibility: 0.9892071485519409
","x: 187.5192108154297
y: 541.3970947265625
z: -0.13949967920780182
visibility: 0.997817873954773
","x: 257.0702209472656
y: 548.9916381835938
z: 0.3301861584186554
visibility: 0.9508621692657471
","x: 179.43344116210938
y: 550.25537109375
z: -0.13818137347698212
visibility: 0.9236475825309753
","x: 276.5693664550781
y: 561.3623046875
z: 0.2528189718723297
visibility: 0.9847515225410461
","x: 200.98788452148438
y: 572.9072265625
z: -0.273133248090744
visibility: 0.9947146773338318
",,,,,,,,,,,,,,,,,,,,,,,,,,,,,,,,,,,,,,,,,,
1,"x: 238.9917449951172
y: 277.50311279296875
z: -0.31078335642814636
visibility: 0.9999982714653015
","x: 242.0469512939453
y: 271.1632080078125
z: -0.2911772131919861
visibility: 0.999994695186615
","x: 243.23121643066406
y: 271.6934509277344
z: -0.29123643040657043
visibility: 0.9999935626983643
","x: 244.3272705078125
y: 272.1880798339844
z: -0.2913272976875305
visibility: 0.9999931454658508
","x: 238.08148193359375
y: 268.15240478515625
z: -0.30422601103782654
visibility: 0.9999954700469971
","x: 236.54266357421875
y: 266.6695861816406
z: -0.3042828440666199
visibility: 0.9999947547912598
","x: 235.1445770263672
y: 265.2121276855469
z: -0.30425143241882324
visibility: 0.999993622303009
","x: 244.2786865234375
y: 271.83563232421875
z: -0.16283343732357025
visibility: 0.9999886155128479
","x: 231.4635009765625
y: 262.6779479980469
z: -0.22544941306114197
visibility: 0.9999949932098389
","x: 239.20289611816406
y: 283.6463623046875
z: -0.26062241196632385
visibility: 0.9999964833259583
","x: 234.68228149414062
y: 280.9459228515625
z: -0.27885133028030396
visibility: 0.9999983310699463
","x: 247.90675354003906
y: 309.5643005371094
z: -0.043650995939970016
visibility: 0.999998152256012
","x: 207.8022003173828
y: 291.72271728515625
z: -0.17798319458961487
visibility: 0.9999969601631165
","x: 266.78521728515625
y: 342.6351318359375
z: -0.026824966073036194
visibility: 0.9536001086235046
","x: 177.5245361328125
y: 298.2236328125
z: -0.23342373967170715
visibility: 0.9747626185417175
","x: 291.0595397949219
y: 343.1800842285156
z: -0.1361771523952484
visibility: 0.9915437698364258
","x: 153.61859130859375
y: 280.65106201171875
z: -0.3648384213447571
visibility: 0.977878212928772
","x: 298.38665771484375
y: 341.146728515625
z: -0.1532975286245346
visibility: 0.9869935512542725
","x: 146.5404052734375
y: 276.9750061035156
z: -0.3969833254814148
visibility: 0.970836341381073
","x: 297.59954833984375
y: 337.701904296875
z: -0.17943726480007172
visibility: 0.9891183972358704
","x: 146.82528686523438
y: 274.0018310546875
z: -0.4215012192726135
visibility: 0.9731894135475159
","x: 295.1161804199219
y: 338.57843017578125
z: -0.15153475105762482
visibility: 0.9848660230636597
","x: 149.566162109375
y: 275.2901611328125
z: -0.3795121908187866
visibility: 0.9568583965301514
","x: 231.82493591308594
y: 397.5152282714844
z: 0.07135701924562454
visibility: 0.9998677968978882
","x: 212.69561767578125
y: 396.8459777832031
z: -0.07138293236494064
visibility: 0.9999451041221619
","x: 236.8113555908203
y: 469.16082763671875
z: 0.09899447113275528
visibility: 0.9662007689476013
","x: 232.2599334716797
y: 460.8064270019531
z: -0.21670785546302795
visibility: 0.9968041777610779
","x: 213.37158203125
y: 538.0872192382812
z: 0.22892305254936218
visibility: 0.9836335778236389
","x: 223.96421813964844
y: 535.173583984375
z: -0.14151319861412048
visibility: 0.9971250295639038
","x: 205.08233642578125
y: 548.4036865234375
z: 0.2367517501115799
visibility: 0.9491257071495056
","x: 222.8568878173828
y: 545.1961669921875
z: -0.13856840133666992
visibility: 0.9273219108581543
","x: 225.0582733154297
y: 564.400390625
z: 0.16822758316993713
visibility: 0.9799399971961975
","x: 231.13246154785156
y: 566.3182373046875
z: -0.23551180958747864
visibility: 0.9941320419311523
",,,,,,,,,,,,,,,,,,,,,,,,,,,,,,,,,,,,,,,,,,
2,"x: 241.0846405029297
y: 282.4460144042969
z: -0.23625893890857697
visibility: 0.9999946355819702
","x: 243.55528259277344
y: 275.90704345703125
z: -0.2191116064786911
visibility: 0.9999828934669495
","x: 244.631103515625
y: 276.26702880859375
z: -0.21917207539081573
visibility: 0.9999811053276062
","x: 245.64988708496094
y: 276.5891418457031
z: -0.2192675769329071
visibility: 0.9999808669090271
","x: 240.0003662109375
y: 273.3795166015625
z: -0.2280113399028778
visibility: 0.9999775886535645
","x: 238.6435089111328
y: 272.0429382324219
z: -0.22801800072193146
visibility: 0.9999669790267944
","x: 237.17999267578125
y: 270.6716003417969
z: -0.227997824549675
visibility: 0.9999648928642273
","x: 245.57864379882812
y: 275.4089050292969
z: -0.09617467224597931
visibility: 0.9999758005142212
","x: 232.74574279785156
y: 267.022705078125
z: -0.13822908699512482
visibility: 0.9999790191650391
","x: 241.155029296875
y: 288.4615783691406
z: -0.18724654614925385
visibility: 0.9999939203262329
","x: 236.92474365234375
y: 286.37396240234375
z: -0.19945289194583893
visibility: 0.9999963641166687
","x: 249.7099151611328
y: 310.4735107421875
z: -0.00820266641676426
visibility: 0.9999977946281433
","x: 210.1161346435547
y: 291.6584167480469
z: -0.05443716049194336
visibility: 0.9999956488609314
","x: 267.62371826171875
y: 349.46820068359375
z: -0.057777564972639084
visibility: 0.9576592445373535
","x: 180.24436950683594
y: 297.218994140625
z: -0.04534794017672539
visibility: 0.9769612550735474
","x: 286.3338623046875
y: 339.86651611328125
z: -0.26973336935043335
visibility: 0.9920365214347839
","x: 156.07366943359375
y: 281.685546875
z: -0.13262063264846802
visibility: 0.979559063911438
","x: 293.4756774902344
y: 333.6086730957031
z: -0.30450791120529175
visibility: 0.9873523116111755
","x: 148.113525390625
y: 276.75146484375
z: -0.1579911708831787
visibility: 0.9721482396125793
","x: 292.990234375
y: 328.5572509765625
z: -0.31605610251426697
visibility: 0.9893494844436646
","x: 148.63357543945312
y: 274.23577880859375
z: -0.1857367306947708
visibility: 0.9745784401893616
","x: 290.6007995605469
y: 329.7874450683594
z: -0.2826525568962097
visibility: 0.9853764176368713
","x: 151.14529418945312
y: 275.8468017578125
z: -0.14822469651699066
visibility: 0.9597745537757874
","x: 232.64752197265625
y: 399.54852294921875
z: 0.038306575268507004
visibility: 0.9998430013656616
","x: 212.91712951660156
y: 400.22052001953125
z: -0.03809744492173195
visibility: 0.9999255537986755
","x: 237.46658325195312
y: 479.21502685546875
z: -0.01223810575902462
visibility: 0.9671722650527954
","x: 228.93414306640625
y: 472.3539733886719
z: -0.15684156119823456
visibility: 0.9958924055099487
","x: 210.03262329101562
y: 537.9854125976562
z: 0.14335939288139343
visibility: 0.9827316999435425
","x: 242.83201599121094
y: 546.6402587890625
z: -0.04258864372968674
visibility: 0.9966942071914673
","x: 202.5786895751953
y: 546.2969360351562
z: 0.15472880005836487
visibility: 0.9473848342895508
","x: 246.60134887695312
y: 557.1198120117188
z: -0.03624260053038597
visibility: 0.9313985705375671
","x: 219.60195922851562
y: 565.6764526367188
z: 0.05589284375309944
visibility: 0.9783738851547241
","x: 239.0623016357422
y: 572.8880615234375
z: -0.15530194342136383
visibility: 0.9935829639434814
",,,,,,,,,,,,,,,,,,,,,,,,,,,,,,,,,,,,,,,,,,
3,"x: 243.5043487548828
y: 292.31268310546875
z: -0.5027121305465698
visibility: 0.9999950528144836
","x: 245.9908905029297
y: 284.61468505859375
z: -0.47764840722084045
visibility: 0.999984085559845
","x: 247.0457763671875
y: 284.9548645019531
z: -0.47759366035461426
visibility: 0.9999822974205017
","x: 247.98829650878906
y: 285.31231689453125
z: -0.47767987847328186
visibility: 0.9999817609786987
","x: 242.01853942871094
y: 283.4125061035156
z: -0.48941636085510254
visibility: 0.999979555606842
","x: 240.53038024902344
y: 282.9768981933594
z: -0.48951977491378784
visibility: 0.9999700784683228
","x: 238.90237426757812
y: 282.584228515625
z: -0.4895365834236145
visibility: 0.9999681711196899
","x: 246.50762939453125
y: 286.63800048828125
z: -0.3182084858417511
visibility: 0.9999768137931824
","x: 234.7863311767578
y: 282.69061279296875
z: -0.37249961495399475
visibility: 0.9999809265136719
","x: 243.52761840820312
y: 298.8057861328125
z: -0.4414958953857422
visibility: 0.9999933838844299
","x: 239.3719940185547
y: 298.452392578125
z: -0.45742058753967285
visibility: 0.9999961853027344
","x: 253.918212890625
y: 319.5960388183594
z: -0.13443338871002197
visibility: 0.9999870657920837
","x: 211.9189453125
y: 306.94293212890625
z: -0.2709655165672302
visibility: 0.9999922513961792
","x: 265.3259582519531
y: 346.73193359375
z: 0.1210399642586708
visibility: 0.9567162990570068
","x: 185.36602783203125
y: 311.111572265625
z: -0.2471792995929718
visibility: 0.9791881442070007
","x: 285.0223388671875
y: 349.42584228515625
z: 0.293266236782074
visibility: 0.9913823008537292
","x: 171.42788696289062
y: 301.3438720703125
z: -0.30634793639183044
visibility: 0.98151695728302
","x: 290.7542724609375
y: 347.51361083984375
z: 0.33331817388534546
visibility: 0.9856444001197815
","x: 164.89903259277344
y: 299.8912658691406
z: -0.3272828459739685
visibility: 0.9746055603027344
","x: 289.2637634277344
y: 342.6214294433594
z: 0.2960752844810486
visibility: 0.987856924533844
","x: 165.92410278320312
y: 295.6612854003906
z: -0.3523869812488556
visibility: 0.9768415093421936
","x: 287.3095397949219
y: 343.1826171875
z: 0.2837952971458435
visibility: 0.9844746589660645
","x: 168.32778930664062
y: 295.17413330078125
z: -0.3182377219200134
visibility: 0.9634554386138916
","x: 237.14614868164062
y: 406.145751953125
z: 0.03984601050615311
visibility: 0.9998505115509033
","x: 215.34762573242188
y: 404.752197265625
z: -0.03990009427070618
visibility: 0.9999266266822815
","x: 239.51876831054688
y: 484.3787841796875
z: -0.024743186309933662
visibility: 0.969660758972168
","x: 228.3121795654297
y: 478.03350830078125
z: -0.1493825614452362
visibility: 0.995732843875885
","x: 210.59483337402344
y: 536.697021484375
z: 0.16431185603141785
visibility: 0.9834157824516296
","x: 241.28091430664062
y: 549.9000854492188
z: -0.0014597985427826643
visibility: 0.9968166947364807
","x: 202.72499084472656
y: 544.3551025390625
z: 0.17781129479408264
visibility: 0.9487334489822388
","x: 244.1543731689453
y: 561.0474243164062
z: 0.007374165114015341
visibility: 0.9363318681716919
","x: 217.9602508544922
y: 565.207763671875
z: 0.07191889733076096
visibility: 0.9796855449676514
","x: 239.67678833007812
y: 573.386474609375
z: -0.12643271684646606
visibility: 0.9940252900123596
",,,,,,,,,,,,,,,,,,,,,,,,,,,,,,,,,,,,,,,,,,
4,"x: 241.7158660888672
y: 282.8751220703125
z: -0.4339469373226166
visibility: 0.9999951720237732
","x: 244.26275634765625
y: 275.5933837890625
z: -0.41815027594566345
visibility: 0.9999846816062927
","x: 245.7340850830078
y: 275.8169250488281
z: -0.41817331314086914
visibility: 0.9999831318855286
","x: 247.2591552734375
y: 276.2747497558594
z: -0.4182793200016022
visibility: 0.999982476234436
","x: 240.00062561035156
y: 277.3507385253906
z: -0.41864699125289917
visibility: 0.999980628490448
","x: 238.3667449951172
y: 279.03564453125
z: -0.4187454283237457
visibility: 0.9999720454216003
","x: 236.70947265625
y: 282.1130676269531
z: -0.4187789857387543
visibility: 0.9999701976776123
","x: 247.78842163085938
y: 282.80999755859375
z: -0.3061928153038025
visibility: 0.9999778270721436
","x: 234.08218383789062
y: 276.92578125
z: -0.3090350925922394
visibility: 0.9999812841415405
","x: 243.62811279296875
y: 293.017578125
z: -0.39051955938339233
visibility: 0.9999935626983643
","x: 238.98033142089844
y: 295.6988830566406
z: -0.3916841447353363
visibility: 0.9999961853027344
","x: 259.6062927246094
y: 322.7351379394531
z: -0.20838503539562225
visibility: 0.9999867677688599
","x: 214.19815063476562
y: 314.34075927734375
z: -0.22018666565418243
visibility: 0.9999921917915344
","x: 269.03118896484375
y: 374.33935546875
z: -0.1755990982055664
visibility: 0.9594535231590271
","x: 199.5385284423828
y: 352.26361083984375
z: -0.19075176119804382
visibility: 0.9732791781425476
","x: 285.33343505859375
y: 410.482666015625
z: -0.24111220240592957
visibility: 0.986747682094574
","x: 188.2830352783203
y: 386.01220703125
z: -0.2626784145832062
visibility: 0.9693949818611145
","x: 291.8786315917969
y: 422.5149230957031
z: -0.253864049911499
visibility: 0.9763918519020081
","x: 183.82972717285156
y: 397.553955078125
z: -0.2855806350708008
visibility: 0.9582162499427795
","x: 292.05340576171875
y: 421.1067199707031
z: -0.29061824083328247
visibility: 0.9796878099441528
","x: 184.3195037841797
y: 397.49273681640625
z: -0.31104928255081177
visibility: 0.9619568586349487
","x: 290.34259033203125
y: 417.9885559082031
z: -0.2562873959541321
visibility: 0.9749405384063721
","x: 186.48858642578125
y: 394.88134765625
z: -0.27558434009552
visibility: 0.948140561580658
","x: 243.8422088623047
y: 409.87860107421875
z: 0.013972441665828228
visibility: 0.9998431205749512
","x: 219.4353485107422
y: 409.93719482421875
z: -0.013975602574646473
visibility: 0.9999322295188904
","x: 247.20919799804688
y: 484.3201904296875
z: 0.029804755002260208
visibility: 0.9702087044715881
","x: 228.19773864746094
y: 482.6885986328125
z: -0.17144492268562317
visibility: 0.9956458806991577
","x: 237.91976928710938
y: 530.5106811523438
z: 0.35696136951446533
visibility: 0.9756461977958679
","x: 240.788330078125
y: 550.0814208984375
z: -0.018591705709695816
visibility: 0.9965417981147766
","x: 239.60296630859375
y: 528.0797119140625
z: 0.3854386508464813
visibility: 0.9233949780464172
","x: 243.34092712402344
y: 561.8807373046875
z: -0.008959450758993626
visibility: 0.9315060973167419
","x: 230.33241271972656
y: 555.5322875976562
z: 0.2982049584388733
visibility: 0.9711977243423462
","x: 239.083251953125
y: 575.1859741210938
z: -0.14377763867378235
visibility: 0.9935663342475891
",,,,,,,,,,,,,,,,,,,,,,,,,,,,,,,,,,,,,,,,,,
5,"x: 241.5630645751953
y: 264.15966796875
z: -0.48266053199768066
visibility: 0.9999950528144836
","x: 244.11016845703125
y: 256.89019775390625
z: -0.4669824242591858
visibility: 0.9999828934669495
","x: 245.71546936035156
y: 257.02001953125
z: -0.4670097827911377
visibility: 0.9999814033508301
","x: 247.3238525390625
y: 257.3460693359375
z: -0.4671007990837097
visibility: 0.9999807476997375
","x: 239.5518035888672
y: 257.65081787109375
z: -0.46652525663375854
visibility: 0.9999797344207764
","x: 237.86376953125
y: 258.40484619140625
z: -0.4665678143501282
visibility: 0.9999713897705078
","x: 236.14456176757812
y: 259.7299499511719
z: -0.4666455388069153
visibility: 0.9999698996543884
","x: 248.48641967773438
y: 262.9548034667969
z: -0.35479971766471863
visibility: 0.9999741315841675
","x: 233.64349365234375
y: 263.6998596191406
z: -0.35097092390060425
visibility: 0.9999717473983765
","x: 243.99615478515625
y: 274.2423400878906
z: -0.43863528966903687
visibility: 0.999993085861206
","x: 238.87103271484375
y: 275.54620361328125
z: -0.4378573000431061
visibility: 0.9999957084655762
","x: 262.2791748046875
y: 315.3212585449219
z: -0.2672642469406128
visibility: 0.9999867081642151
","x: 216.99966430664062
y: 310.5804748535156
z: -0.24211108684539795
visibility: 0.999991774559021
","x: 268.07659912109375
y: 372.05682373046875
z: -0.23749355971813202
visibility: 0.9631292223930359
","x: 214.24197387695312
y: 368.7506408691406
z: -0.2023802101612091
visibility: 0.971776008605957
","x: 273.01324462890625
y: 418.4383544921875
z: -0.3023192882537842
visibility: 0.9848506450653076
","x: 217.45333862304688
y: 422.4996643066406
z: -0.2790096402168274
visibility: 0.9621859788894653
","x: 275.67626953125
y: 434.2886657714844
z: -0.32944491505622864
visibility: 0.9715355634689331
","x: 215.2568817138672
y: 437.9130554199219
z: -0.3050938546657562
visibility: 0.9429307579994202
","x: 273.88232421875
y: 435.3665771484375
z: -0.35568293929100037
visibility: 0.9750910401344299
","x: 217.8788299560547
y: 438.1192321777344
z: -0.33442118763923645
visibility: 0.9491130113601685
","x: 271.84527587890625
y: 429.14013671875
z: -0.3132929801940918
visibility: 0.9683501720428467
","x: 219.62022399902344
y: 433.0090026855469
z: -0.29162588715553284
visibility: 0.9349286556243896
","x: 249.86363220214844
y: 404.40936279296875
z: -0.016836049035191536
visibility: 0.999851405620575
","x: 226.92916870117188
y: 408.66998291015625
z: 0.01671014167368412
visibility: 0.9999383687973022
","x: 247.3433837890625
y: 469.6776123046875
z: 0.01862662099301815
visibility: 0.9719095826148987
","x: 230.07742309570312
y: 482.54718017578125
z: -0.08275116980075836
visibility: 0.9937500953674316
","x: 266.3634033203125
y: 486.4449462890625
z: 0.37768930196762085
visibility: 0.9633188843727112
","x: 244.0642547607422
y: 552.5989379882812
z: 0.07462123036384583
visibility: 0.9948096871376038
","x: 268.4561767578125
y: 477.03106689453125
z: 0.41071122884750366
visibility: 0.889194130897522
","x: 248.2903594970703
y: 565.4120483398438
z: 0.08420555293560028
visibility: 0.9234758019447327
","x: 270.7686462402344
y: 510.32373046875
z: 0.34485650062561035
visibility: 0.9641639590263367
","x: 238.1708984375
y: 576.6448364257812
z: -0.03547006845474243
visibility: 0.9917696118354797
",,,,,,,,,,,,,,,,,,,,,,,,,,,,,,,,,,,,,,,,,,
6,"x: 241.46507263183594
y: 254.15869140625
z: -0.31342169642448425
visibility: 0.9999929070472717
","x: 244.01014709472656
y: 246.96148681640625
z: -0.297075092792511
visibility: 0.9999789595603943
","x: 245.6802520751953
y: 247.09423828125
z: -0.2971339225769043
visibility: 0.9999767541885376
","x: 247.25595092773438
y: 247.41851806640625
z: -0.29723262786865234
visibility: 0.999973475933075
","x: 239.33706665039062
y: 247.74627685546875
z: -0.29901260137557983
visibility: 0.9999756813049316
","x: 237.63882446289062
y: 248.39785766601562
z: -0.29903143644332886
visibility: 0.9999671578407288
","x: 235.9386444091797
y: 249.27438354492188
z: -0.2990814745426178
visibility: 0.9999647736549377
","x: 248.9120330810547
y: 252.840087890625
z: -0.1812983751296997
visibility: 0.9999710917472839
","x: 233.24195861816406
y: 254.55014038085938
z: -0.18897446990013123
visibility: 0.999964714050293
","x: 244.316650390625
y: 263.45654296875
z: -0.268369197845459
visibility: 0.9999916553497314
","x: 238.75653076171875
y: 264.283935546875
z: -0.2712234556674957
visibility: 0.9999937415122986
","x: 261.76824951171875
y: 299.25
z: -0.13133551180362701
visibility: 0.9999608397483826
","x: 219.14920043945312
y: 306.46533203125
z: -0.1384490728378296
visibility: 0.9999874234199524
","x: 266.7427978515625
y: 342.6019592285156
z: -0.20415052771568298
visibility: 0.9484675526618958
","x: 223.52064514160156
y: 358.1324768066406
z: -0.2818657159805298
visibility: 0.9535033106803894
","x: 260.5431213378906
y: 326.7689208984375
z: -0.4184955954551697
visibility: 0.9518152475357056
","x: 229.2389373779297
y: 346.7891845703125
z: -0.5403706431388855
visibility: 0.9418420791625977
","x: 260.49664306640625
y: 320.8955383300781
z: -0.4604805111885071
visibility: 0.9333869218826294
","x: 230.28240966796875
y: 344.4412536621094
z: -0.5934938788414001
visibility: 0.922650158405304
","x: 259.797607421875
y: 316.322509765625
z: -0.4639769196510315
visibility: 0.9359986782073975
","x: 231.06369018554688
y: 335.5089111328125
z: -0.5908082127571106
visibility: 0.9272622466087341
","x: 258.8577880859375
y: 319.8522033691406
z: -0.4250943660736084
visibility: 0.9233545660972595
","x: 231.842041015625
y: 336.03662109375
z: -0.5456016063690186
visibility: 0.9047046899795532
","x: 253.48268127441406
y: 390.0747375488281
z: 0.005786007270216942
visibility: 0.9998522996902466
","x: 230.64614868164062
y: 398.0761413574219
z: -0.00580085813999176
visibility: 0.9999425411224365
","x: 257.63604736328125
y: 429.4004821777344
z: -0.06852874904870987
visibility: 0.9729628562927246
","x: 232.43434143066406
y: 481.63134765625
z: -0.060440391302108765
visibility: 0.9935411810874939
","x: 268.83978271484375
y: 447.8065185546875
z: 0.26258957386016846
visibility: 0.951496422290802
","x: 244.6866455078125
y: 551.906005859375
z: 0.12665988504886627
visibility: 0.9947881102561951
","x: 267.4911193847656
y: 448.3297424316406
z: 0.29648029804229736
visibility: 0.870367705821991
","x: 250.617919921875
y: 563.9818725585938
z: 0.1383100301027298
visibility: 0.9266068935394287
","x: 283.53515625
y: 471.668212890625
z: 0.22115516662597656
visibility: 0.9570460319519043
","x: 239.1222686767578
y: 576.7034301757812
z: 0.008765852078795433
visibility: 0.991212785243988
",,,,,,,,,,,,,,,,,,,,,,,,,,,,,,,,,,,,,,,,,,
7,"x: 241.4996337890625
y: 243.83901977539062
z: -0.24859187006950378
visibility: 0.9999933838844299
","x: 243.652099609375
y: 237.23513793945312
z: -0.22547666728496552
visibility: 0.9999805688858032
","x: 245.11553955078125
y: 237.63394165039062
z: -0.22547242045402527
visibility: 0.9999781250953674
","x: 246.67799377441406
y: 238.18154907226562
z: -0.22551190853118896
visibility: 0.9999752044677734
","x: 239.6746826171875
y: 237.42434692382812
z: -0.2243373692035675
visibility: 0.9999776482582092
","x: 238.20724487304688
y: 237.873779296875
z: -0.22431285679340363
visibility: 0.9999696612358093
","x: 236.68685913085938
y: 238.3701171875
z: -0.224260613322258
visibility: 0.9999676942825317
","x: 249.0199432373047
y: 243.34295654296875
z: -0.109553262591362
visibility: 0.9999731183052063
","x: 233.6064910888672
y: 243.48019409179688
z: -0.1036800742149353
visibility: 0.9999679327011108
","x: 244.19442749023438
y: 253.0635223388672
z: -0.2071528434753418
visibility: 0.9999920129776001
","x: 239.10133361816406
y: 252.27618408203125
z: -0.20564642548561096
visibility: 0.9999940395355225
","x: 260.61932373046875
y: 279.1707763671875
z: -0.08723574131727219
visibility: 0.9999535083770752
","x: 222.47108459472656
y: 281.9223327636719
z: -0.06931907683610916
visibility: 0.9999839067459106
","x: 280.1701965332031
y: 260.36749267578125
z: -0.23846788704395294
visibility: 0.9535467028617859
","x: 214.40386962890625
y: 262.78021240234375
z: -0.2333293855190277
visibility: 0.9580901265144348
","x: 262.2344665527344
y: 219.61549377441406
z: -0.35254889726638794
visibility: 0.9558573961257935
","x: 223.09295654296875
y: 220.13998413085938
z: -0.33057382702827454
visibility: 0.947088360786438
","x: 258.30279541015625
y: 208.85794067382812
z: -0.39457157254219055
visibility: 0.934299111366272
","x: 226.58901977539062
y: 205.968505859375
z: -0.37306326627731323
visibility: 0.9271382689476013
","x: 255.48631286621094
y: 207.08551025390625
z: -0.37424346804618835
visibility: 0.9353694915771484
","x: 229.08932495117188
y: 205.9171905517578
z: -0.3458314538002014
visibility: 0.9303805232048035
","x: 255.77691650390625
y: 211.88233947753906
z: -0.3500710725784302
visibility: 0.9224557876586914
","x: 229.30648803710938
y: 212.13961791992188
z: -0.3260762095451355
visibility: 0.9091689586639404
","x: 257.2126770019531
y: 385.8134460449219
z: 0.003921604249626398
visibility: 0.9998602867126465
","x: 233.27708435058594
y: 394.7659606933594
z: -0.0040018679574131966
visibility: 0.9999433755874634
","x: 276.0526123046875
y: 442.8061218261719
z: -0.02258327230811119
visibility: 0.9748085737228394
","x: 236.16665649414062
y: 481.1181640625
z: -0.010343734174966812
visibility: 0.9935473799705505
","x: 294.4391784667969
y: 529.3408813476562
z: 0.11200704425573349
visibility: 0.9551771879196167
","x: 244.73768615722656
y: 552.8869018554688
z: 0.14152808487415314
visibility: 0.994560718536377
","x: 294.6773986816406
y: 549.1220703125
z: 0.11819936335086823
visibility: 0.8791711926460266
","x: 248.82525634765625
y: 564.8990478515625
z: 0.1488257199525833
visibility: 0.9253870248794556
","x: 313.9268493652344
y: 482.4151611328125
z: -0.004423558712005615
visibility: 0.959652841091156
","x: 239.73843383789062
y: 576.9609375
z: 0.019611138850450516
visibility: 0.9901869297027588
",,,,,,,,,,,,,,,,,,,,,,,,,,,,,,,,,,,,,,,,,,
8,"x: 245.25137329101562
y: 235.54257202148438
z: -0.3538559377193451
visibility: 0.9999939203262329
","x: 247.17884826660156
y: 228.326904296875
z: -0.33667612075805664
visibility: 0.9999822974205017
","x: 248.9504852294922
y: 228.5106201171875
z: -0.3366532325744629
visibility: 0.9999799132347107
","x: 250.68655395507812
y: 228.94400024414062
z: -0.3367536664009094
visibility: 0.9999772906303406
","x: 241.99842834472656
y: 229.09707641601562
z: -0.33079293370246887
visibility: 0.9999797344207764
","x: 240.3379669189453
y: 229.79229736328125
z: -0.3308221697807312
visibility: 0.9999724626541138
","x: 238.732177734375
y: 230.66220092773438
z: -0.33078405261039734
visibility: 0.9999707937240601
","x: 253.32882690429688
y: 233.34033203125
z: -0.22603783011436462
visibility: 0.9999752044677734
","x: 236.78494262695312
y: 235.5288848876953
z: -0.15523067116737366
visibility: 0.9999710917472839
","x: 248.69442749023438
y: 244.07723999023438
z: -0.31248897314071655
visibility: 0.9999925494194031
","x: 242.99609375
y: 244.8945770263672
z: -0.30415844917297363
visibility: 0.9999945163726807
","x: 269.2142028808594
y: 270.21319580078125
z: -0.1464754045009613
visibility: 0.9999306797981262
","x: 225.28321838378906
y: 275.1512756347656
z: -0.12545236945152283
visibility: 0.9999827742576599
","x: 301.9581604003906
y: 260.30706787109375
z: -0.23902133107185364
visibility: 0.9580678343772888
","x: 196.69065856933594
y: 266.06927490234375
z: -0.19960102438926697
visibility: 0.9622657895088196
","x: 297.4552307128906
y: 208.41078186035156
z: -0.3813909590244293
visibility: 0.9589780569076538
","x: 199.9043426513672
y: 212.45240783691406
z: -0.2923438847064972
visibility: 0.952243983745575
","x: 296.5607604980469
y: 192.48568725585938
z: -0.4194384217262268
visibility: 0.9337081909179688
","x: 203.7324981689453
y: 194.50503540039062
z: -0.3308907151222229
visibility: 0.9333635568618774
","x: 292.8462829589844
y: 188.79000854492188
z: -0.4160138666629791
visibility: 0.9336124062538147
","x: 209.04678344726562
y: 191.89361572265625
z: -0.3250270187854767
visibility: 0.9360705018043518
","x: 292.3307800292969
y: 194.6829071044922
z: -0.38645440340042114
visibility: 0.9209806323051453
","x: 208.83201599121094
y: 198.36341857910156
z: -0.29575854539871216
visibility: 0.9166805148124695
","x: 263.0185546875
y: 385.8975830078125
z: 0.0028318497352302074
visibility: 0.999851405620575
","x: 238.23574829101562
y: 391.7901306152344
z: -0.0029246180783957243
visibility: 0.9999405741691589
","x: 275.3975524902344
y: 459.29571533203125
z: 0.006848427001386881
visibility: 0.976664125919342
","x: 238.4949951171875
y: 480.8160095214844
z: 0.009937849827110767
visibility: 0.9938803911209106
","x: 289.09136962890625
y: 548.5540771484375
z: 0.17638760805130005
visibility: 0.9587699174880981
","x: 243.82742309570312
y: 552.1002807617188
z: 0.18138208985328674
visibility: 0.9946495294570923
","x: 286.6070251464844
y: 567.6260986328125
z: 0.1859188973903656
visibility: 0.886433482170105
","x: 247.98814392089844
y: 563.8355102539062
z: 0.19130894541740417
visibility: 0.9269359111785889
","x: 307.30975341796875
y: 548.640869140625
z: 0.0637676939368248
visibility: 0.9622737169265747
","x: 238.9178466796875
y: 578.1382446289062
z: 0.06486889719963074
visibility: 0.9900509119033813
",,,,,,,,,,,,,,,,,,,,,,,,,,,,,,,,,,,,,,,,,,
9,"x: 250.87342834472656
y: 232.48748779296875
z: -0.30245646834373474
visibility: 0.999994158744812
","x: 252.77464294433594
y: 226.36203002929688
z: -0.2833966016769409
visibility: 0.999983012676239
","x: 254.39447021484375
y: 226.4401397705078
z: -0.28339019417762756
visibility: 0.999980092048645
","x: 255.9336700439453
y: 226.6747283935547
z: -0.2834867537021637
visibility: 0.999977707862854
","x: 248.25619506835938
y: 226.75473022460938
z: -0.28274261951446533
visibility: 0.9999811053276062
","x: 246.7500457763672
y: 227.0795440673828
z: -0.2827705144882202
visibility: 0.9999743103981018
","x: 245.31666564941406
y: 227.492919921875
z: -0.2827657163143158
visibility: 0.9999730587005615
","x: 258.40283203125
y: 231.09693908691406
z: -0.17202481627464294
visibility: 0.9999746084213257
","x: 243.82215881347656
y: 231.396728515625
z: -0.16541241109371185
visibility: 0.9999735951423645
","x: 254.27914428710938
y: 240.60147094726562
z: -0.2609463334083557
visibility: 0.9999917149543762
","x: 248.63839721679688
y: 241.02935791015625
z: -0.2601208984851837
visibility: 0.9999943971633911
","x: 274.8690490722656
y: 268.7247619628906
z: -0.08419294655323029
visibility: 0.9998717308044434
","x: 230.3821258544922
y: 272.504150390625
z: -0.10375306755304337
visibility: 0.9999752044677734
","x: 307.7112121582031
y: 259.1155700683594
z: -0.12934651970863342
visibility: 0.9620537161827087
","x: 197.24583435058594
y: 266.576416015625
z: -0.12980464100837708
visibility: 0.9659651517868042
","x: 311.5651550292969
y: 209.36862182617188
z: -0.21967682242393494
visibility: 0.9620338678359985
","x: 190.15087890625
y: 215.29893493652344
z: -0.2173067331314087
visibility: 0.9566458463668823
","x: 312.1028747558594
y: 193.49276733398438
z: -0.24501748383045197
visibility: 0.9345990419387817
","x: 190.1143798828125
y: 204.22523498535156
z: -0.250479519367218
visibility: 0.9377760291099548
","x: 309.51654052734375
y: 192.0272216796875
z: -0.2465732842683792
visibility: 0.9342494010925293
","x: 193.47317504882812
y: 201.69964599609375
z: -0.2531903386116028
visibility: 0.940046489238739
","x: 308.7044372558594
y: 197.0376739501953
z: -0.2262895554304123
visibility: 0.9225152730941772
","x: 193.90179443359375
y: 205.38587951660156
z: -0.22427313029766083
visibility: 0.9222496151924133
","x: 267.81939697265625
y: 386.8782958984375
z: 0.006989958230406046
visibility: 0.9998283386230469
","x: 243.2260284423828
y: 390.6305236816406
z: -0.007063876837491989
visibility: 0.9999317526817322
","x: 281.820068359375
y: 466.01336669921875
z: 0.006760545074939728
visibility: 0.9785223007202148
","x: 237.5961456298828
y: 479.8910827636719
z: -0.03559843823313713
visibility: 0.9943822622299194
","x: 292.0874938964844
y: 552.854736328125
z: 0.1468040645122528
visibility: 0.9624065160751343
","x: 244.17715454101562
y: 551.56982421875
z: 0.12159749120473862
visibility: 0.9950293302536011
","x: 289.7109680175781
y: 570.76611328125
z: 0.15340979397296906
visibility: 0.8951326012611389
","x: 248.11729431152344
y: 563.4675903320312
z: 0.13037537038326263
visibility: 0.9315736889839172
","x: 309.89691162109375
y: 563.2896118164062
z: 0.03538506105542183
visibility: 0.9651493430137634
","x: 239.16064453125
y: 579.6216430664062
z: 0.011794893071055412
visibility: 0.9905906319618225
",,,,,,,,,,,,,,,,,,,,,,,,,,,,,,,,,,,,,,,,,,
10,"x: 254.55250549316406
y: 236.88819885253906
z: -0.3164801001548767
visibility: 0.9999945163726807
","x: 256.8458251953125
y: 229.59658813476562
z: -0.2981399893760681
visibility: 0.9999842047691345
","x: 258.38897705078125
y: 229.60171508789062
z: -0.29806020855903625
visibility: 0.9999812841415405
","x: 260.00103759765625
y: 229.78982543945312
z: -0.29817456007003784
visibility: 0.9999790787696838
","x: 252.5891876220703
y: 229.83377075195312
z: -0.2946380078792572
visibility: 0.9999825954437256
","x: 251.26524353027344
y: 229.92919921875
z: -0.2947339713573456
visibility: 0.9999763369560242
","x: 249.84271240234375
y: 230.17352294921875
z: -0.29482296109199524
visibility: 0.999975323677063
","x: 262.7066955566406
y: 233.46437072753906
z: -0.1814434677362442
visibility: 0.9999756813049316
","x: 247.9034881591797
y: 232.94107055664062
z: -0.18928785622119904
visibility: 0.9999760389328003
","x: 257.2395324707031
y: 245.0266876220703
z: -0.27415674924850464
visibility: 0.9999920725822449
","x: 252.35174560546875
y: 245.23048400878906
z: -0.2753206193447113
visibility: 0.9999947547912598
","x: 276.9281311035156
y: 268.5375061035156
z: -0.08445875346660614
visibility: 0.9998685717582703
","x: 233.3415985107422
y: 270.7256774902344
z: -0.11550575494766235
visibility: 0.9999734163284302
","x: 310.45245361328125
y: 270.4485778808594
z: -0.1847405582666397
visibility: 0.9656994342803955
","x: 198.37696838378906
y: 267.1275634765625
z: -0.159789577126503
visibility: 0.9693143963813782
","x: 310.4919128417969
y: 221.4534912109375
z: -0.35411983728408813
visibility: 0.9649742841720581
","x: 190.91656494140625
y: 220.60833740234375
z: -0.2846085727214813
visibility: 0.9607251286506653
","x: 310.36993408203125
y: 208.711669921875
z: -0.39549243450164795
visibility: 0.93631511926651
","x: 190.10218811035156
y: 210.97137451171875
z: -0.3229650855064392
visibility: 0.9424607157707214
","x: 306.5875549316406
y: 206.93479919433594
z: -0.3879773020744324
visibility: 0.9356533885002136
","x: 193.19842529296875
y: 206.95809936523438
z: -0.3273719847202301
visibility: 0.9443495869636536
","x: 305.9725341796875
y: 210.833740234375
z: -0.3583029508590698
visibility: 0.9241034388542175
","x: 193.89871215820312
y: 210.77635192871094
z: -0.29191696643829346
visibility: 0.9279139637947083
","x: 271.33489990234375
y: 387.1014709472656
z: 0.008008827455341816
visibility: 0.9998311400413513
","x: 246.04489135742188
y: 390.0133056640625
z: -0.008060767315328121
visibility: 0.9999295473098755
","x: 284.27947998046875
y: 471.0065002441406
z: -0.015495489351451397
visibility: 0.980064332485199
","x: 237.1484375
y: 474.1962890625
z: -0.06856770813465118
visibility: 0.9948282837867737
","x: 294.45257568359375
y: 558.4142456054688
z: 0.14733949303627014
visibility: 0.965636134147644
","x: 241.41526794433594
y: 549.2902221679688
z: 0.1214028000831604
visibility: 0.9952923655509949
","x: 290.3644104003906
y: 575.793212890625
z: 0.15628895163536072
visibility: 0.9027274250984192
","x: 244.87210083007812
y: 555.7446899414062
z: 0.13407310843467712
visibility: 0.9344502091407776
","x: 311.6409912109375
y: 575.0294189453125
z: 0.027261454612016678
visibility: 0.9677327871322632
","x: 240.07040405273438
y: 579.4158935546875
z: 0.008118560537695885
visibility: 0.9909840822219849
","x: 188.5913848876953
y: 220.65139770507812
z: 0.0
","x: 192.18417358398438
y: 216.27684020996094
z: 0.0010521254735067487
","x: 194.57518005371094
y: 210.96194458007812
z: 0.0003602355136536062
","x: 196.6912384033203
y: 207.2000274658203
z: -0.0012037311680614948
","x: 198.0680389404297
y: 204.69589233398438
z: -0.0024157750885933638
","x: 189.62188720703125
y: 202.61778259277344
z: 0.0002454492496326566
","x: 194.20721435546875
y: 199.24256896972656
z: -0.002048402326181531
","x: 197.05381774902344
y: 201.43533325195312
z: -0.003217326942831278
","x: 198.63343811035156
y: 204.03704833984375
z: -0.003765864996239543
","x: 189.11839294433594
y: 203.1662139892578
z: -0.002025294816121459
","x: 194.22523498535156
y: 200.38079833984375
z: -0.004357303027063608
","x: 197.1284637451172
y: 202.7608642578125
z: -0.004829763900488615
","x: 198.47607421875
y: 205.27044677734375
z: -0.005022024270147085
","x: 189.11585998535156
y: 204.8456573486328
z: -0.004434189759194851
","x: 193.95822143554688
y: 202.36167907714844
z: -0.006705085281282663
","x: 196.51219177246094
y: 204.6859588623047
z: -0.006199829746037722
","x: 197.55621337890625
y: 207.13638305664062
z: -0.0056652952916920185
","x: 189.64024353027344
y: 207.42266845703125
z: -0.006951411720365286
","x: 193.37466430664062
y: 205.51065063476562
z: -0.008663743734359741
","x: 195.3428497314453
y: 206.8795928955078
z: -0.008040888234972954
","x: 196.2432098388672
y: 208.74163818359375
z: -0.007299657911062241
",,,,,,,,,,,,,,,,,,,,,
11,"x: 254.55250549316406
y: 236.88819885253906
z: -0.3164801001548767
visibility: 0.9999945163726807
","x: 256.8458251953125
y: 229.59658813476562
z: -0.2981399893760681
visibility: 0.9999842047691345
","x: 258.38897705078125
y: 229.60171508789062
z: -0.29806020855903625
visibility: 0.9999812841415405
","x: 260.00103759765625
y: 229.78982543945312
z: -0.29817456007003784
visibility: 0.9999790787696838
","x: 252.5891876220703
y: 229.83377075195312
z: -0.2946380078792572
visibility: 0.9999825954437256
","x: 251.26524353027344
y: 229.92919921875
z: -0.2947339713573456
visibility: 0.9999763369560242
","x: 249.84271240234375
y: 230.17352294921875
z: -0.29482296109199524
visibility: 0.999975323677063
","x: 262.7066955566406
y: 233.46437072753906
z: -0.1814434677362442
visibility: 0.9999756813049316
","x: 247.9034881591797
y: 232.94107055664062
z: -0.18928785622119904
visibility: 0.9999760389328003
","x: 257.2395324707031
y: 245.0266876220703
z: -0.27415674924850464
visibility: 0.9999920725822449
","x: 252.35174560546875
y: 245.23048400878906
z: -0.2753206193447113
visibility: 0.9999947547912598
","x: 276.9281311035156
y: 268.5375061035156
z: -0.08445875346660614
visibility: 0.9998685717582703
","x: 233.3415985107422
y: 270.7256774902344
z: -0.11550575494766235
visibility: 0.9999734163284302
","x: 310.45245361328125
y: 270.4485778808594
z: -0.1847405582666397
visibility: 0.9656994342803955
","x: 198.37696838378906
y: 267.1275634765625
z: -0.159789577126503
visibility: 0.9693143963813782
","x: 310.4919128417969
y: 221.4534912109375
z: -0.35411983728408813
visibility: 0.9649742841720581
","x: 190.91656494140625
y: 220.60833740234375
z: -0.2846085727214813
visibility: 0.9607251286506653
","x: 310.36993408203125
y: 208.711669921875
z: -0.39549243450164795
visibility: 0.93631511926651
","x: 190.10218811035156
y: 210.97137451171875
z: -0.3229650855064392
visibility: 0.9424607157707214
","x: 306.5875549316406
y: 206.93479919433594
z: -0.3879773020744324
visibility: 0.9356533885002136
","x: 193.19842529296875
y: 206.95809936523438
z: -0.3273719847202301
visibility: 0.9443495869636536
","x: 305.9725341796875
y: 210.833740234375
z: -0.3583029508590698
visibility: 0.9241034388542175
","x: 193.89871215820312
y: 210.77635192871094
z: -0.29191696643829346
visibility: 0.9279139637947083
","x: 271.33489990234375
y: 387.1014709472656
z: 0.008008827455341816
visibility: 0.9998311400413513
","x: 246.04489135742188
y: 390.0133056640625
z: -0.008060767315328121
visibility: 0.9999295473098755
","x: 284.27947998046875
y: 471.0065002441406
z: -0.015495489351451397
visibility: 0.980064332485199
","x: 237.1484375
y: 474.1962890625
z: -0.06856770813465118
visibility: 0.9948282837867737
","x: 294.45257568359375
y: 558.4142456054688
z: 0.14733949303627014
visibility: 0.965636134147644
","x: 241.41526794433594
y: 549.2902221679688
z: 0.1214028000831604
visibility: 0.9952923655509949
","x: 290.3644104003906
y: 575.793212890625
z: 0.15628895163536072
visibility: 0.9027274250984192
","x: 244.87210083007812
y: 555.7446899414062
z: 0.13407310843467712
visibility: 0.9344502091407776
","x: 311.6409912109375
y: 575.0294189453125
z: 0.027261454612016678
visibility: 0.9677327871322632
","x: 240.07040405273438
y: 579.4158935546875
z: 0.008118560537695885
visibility: 0.9909840822219849
","x: 188.5913848876953
y: 220.65139770507812
z: 0.0
","x: 192.18417358398438
y: 216.27684020996094
z: 0.0010521254735067487
","x: 194.57518005371094
y: 210.96194458007812
z: 0.0003602355136536062
","x: 196.6912384033203
y: 207.2000274658203
z: -0.0012037311680614948
","x: 198.0680389404297
y: 204.69589233398438
z: -0.0024157750885933638
","x: 189.62188720703125
y: 202.61778259277344
z: 0.0002454492496326566
","x: 194.20721435546875
y: 199.24256896972656
z: -0.002048402326181531
","x: 197.05381774902344
y: 201.43533325195312
z: -0.003217326942831278
","x: 198.63343811035156
y: 204.03704833984375
z: -0.003765864996239543
","x: 189.11839294433594
y: 203.1662139892578
z: -0.002025294816121459
","x: 194.22523498535156
y: 200.38079833984375
z: -0.004357303027063608
","x: 197.1284637451172
y: 202.7608642578125
z: -0.004829763900488615
","x: 198.47607421875
y: 205.27044677734375
z: -0.005022024270147085
","x: 189.11585998535156
y: 204.8456573486328
z: -0.004434189759194851
","x: 193.95822143554688
y: 202.36167907714844
z: -0.006705085281282663
","x: 196.51219177246094
y: 204.6859588623047
z: -0.006199829746037722
","x: 197.55621337890625
y: 207.13638305664062
z: -0.0056652952916920185
","x: 189.64024353027344
y: 207.42266845703125
z: -0.006951411720365286
","x: 193.37466430664062
y: 205.51065063476562
z: -0.008663743734359741
","x: 195.3428497314453
y: 206.8795928955078
z: -0.008040888234972954
","x: 196.2432098388672
y: 208.74163818359375
z: -0.007299657911062241
",,,,,,,,,,,,,,,,,,,,,
12,"x: 255.7620086669922
y: 236.97906494140625
z: -0.34015190601348877
visibility: 0.9999939203262329
","x: 258.2664794921875
y: 229.38360595703125
z: -0.32026422023773193
visibility: 0.9999840259552002
","x: 259.8739929199219
y: 229.40863037109375
z: -0.32023003697395325
visibility: 0.9999808669090271
","x: 261.48907470703125
y: 229.5570068359375
z: -0.3202629089355469
visibility: 0.9999788403511047
","x: 253.95315551757812
y: 229.779296875
z: -0.314882755279541
visibility: 0.9999817609786987
","x: 252.6033172607422
y: 230.01290893554688
z: -0.31499743461608887
visibility: 0.999975860118866
","x: 251.21923828125
y: 230.41146850585938
z: -0.3149568438529968
visibility: 0.9999752640724182
","x: 264.4661560058594
y: 233.04147338867188
z: -0.18827980756759644
visibility: 0.9999721646308899
","x: 249.37757873535156
y: 234.04592895507812
z: -0.19484148919582367
visibility: 0.999975323677063
","x: 258.5691223144531
y: 245.48081970214844
z: -0.29166555404663086
visibility: 0.9999915361404419
","x: 253.51141357421875
y: 245.6709442138672
z: -0.28531163930892944
visibility: 0.9999940395355225
","x: 279.2334289550781
y: 273.07025146484375
z: -0.09865576028823853
visibility: 0.9998765587806702
","x: 236.1529541015625
y: 269.78326416015625
z: -0.11604250967502594
visibility: 0.9999709129333496
","x: 302.8821105957031
y: 289.036376953125
z: -0.23772969841957092
visibility: 0.9680271744728088
","x: 201.07257080078125
y: 266.962646484375
z: -0.17715762555599213
visibility: 0.9723332524299622
","x: 303.1319274902344
y: 282.76995849609375
z: -0.5140621066093445
visibility: 0.9647393822669983
","x: 191.55435180664062
y: 222.3479461669922
z: -0.328319251537323
visibility: 0.9643608331680298
","x: 303.2955017089844
y: 288.5846252441406
z: -0.568277895450592
visibility: 0.9326676726341248
","x: 190.2091064453125
y: 213.76516723632812
z: -0.3767651617527008
visibility: 0.9467329382896423
","x: 299.99267578125
y: 282.02252197265625
z: -0.5759350061416626
visibility: 0.9326015114784241
","x: 193.25587463378906
y: 210.3131866455078
z: -0.37876537442207336
visibility: 0.9483985900878906
","x: 299.2479553222656
y: 280.3324279785156
z: -0.5251744389533997
visibility: 0.9201480746269226
","x: 194.09347534179688
y: 213.7228240966797
z: -0.3350266218185425
visibility: 0.9331045150756836
","x: 275.29803466796875
y: 385.7836608886719
z: 0.012072094716131687
visibility: 0.9998384118080139
","x: 250.2987060546875
y: 387.8838806152344
z: -0.012115191668272018
visibility: 0.9999278783798218
","x: 289.0133972167969
y: 471.563720703125
z: 0.001377078122459352
visibility: 0.981436014175415
","x: 242.2500762939453
y: 472.68603515625
z: -0.0657443255186081
visibility: 0.9952677488327026
","x: 299.3151550292969
y: 551.3518676757812
z: 0.2103842794895172
visibility: 0.9687317609786987
","x: 228.2318115234375
y: 549.2969360351562
z: 0.09782186895608902
visibility: 0.9956124424934387
","x: 296.456298828125
y: 565.7252197265625
z: 0.2227616310119629
visibility: 0.9078415036201477
","x: 223.1709747314453
y: 558.6812744140625
z: 0.10741772502660751
visibility: 0.9339343905448914
","x: 308.3407287597656
y: 576.1729736328125
z: 0.08751113712787628
visibility: 0.9702404141426086
","x: 237.65846252441406
y: 579.2843017578125
z: -0.03519241884350777
visibility: 0.9915114641189575
","x: 188.8894805908203
y: 223.2984161376953
z: 0.0
","x: 192.80101013183594
y: 218.12191772460938
z: 0.001624985015951097
","x: 195.15928649902344
y: 212.96673583984375
z: 0.0007772669778205454
","x: 196.77593994140625
y: 209.42369079589844
z: -0.001173066208139062
","x: 197.853515625
y: 207.04367065429688
z: -0.002880432642996311
","x: 193.06387329101562
y: 205.23471069335938
z: -0.0003916721325367689
","x: 197.65846252441406
y: 204.46163940429688
z: -0.003237214172258973
","x: 200.08277893066406
y: 207.00515747070312
z: -0.004580467473715544
","x: 201.44595336914062
y: 209.61239624023438
z: -0.0051743327639997005
","x: 192.32003784179688
y: 206.4588165283203
z: -0.003218133235350251
","x: 197.49386596679688
y: 206.80728149414062
z: -0.006249000318348408
","x: 199.852783203125
y: 210.30577087402344
z: -0.006398811470717192
","x: 200.98947143554688
y: 213.40347290039062
z: -0.0062324111349880695
","x: 191.82444763183594
y: 209.2552032470703
z: -0.0060875448398292065
","x: 196.8141326904297
y: 210.21987915039062
z: -0.008734687231481075
","x: 198.43040466308594
y: 213.81744384765625
z: -0.007388160564005375
","x: 198.91163635253906
y: 216.753173828125
z: -0.006148122251033783
","x: 191.5955810546875
y: 212.99929809570312
z: -0.00908616278320551
","x: 195.30911254882812
y: 213.57420349121094
z: -0.010855410248041153
","x: 196.5703887939453
y: 215.69918823242188
z: -0.009603569284081459
","x: 196.95262145996094
y: 217.8441162109375
z: -0.008296496234834194
",,,,,,,,,,,,,,,,,,,,,
13,"x: 255.7620086669922
y: 236.97906494140625
z: -0.34015190601348877
visibility: 0.9999939203262329
","x: 258.2664794921875
y: 229.38360595703125
z: -0.32026422023773193
visibility: 0.9999840259552002
","x: 259.8739929199219
y: 229.40863037109375
z: -0.32023003697395325
visibility: 0.9999808669090271
","x: 261.48907470703125
y: 229.5570068359375
z: -0.3202629089355469
visibility: 0.9999788403511047
","x: 253.95315551757812
y: 229.779296875
z: -0.314882755279541
visibility: 0.9999817609786987
","x: 252.6033172607422
y: 230.01290893554688
z: -0.31499743461608887
visibility: 0.999975860118866
","x: 251.21923828125
y: 230.41146850585938
z: -0.3149568438529968
visibility: 0.9999752640724182
","x: 264.4661560058594
y: 233.04147338867188
z: -0.18827980756759644
visibility: 0.9999721646308899
","x: 249.37757873535156
y: 234.04592895507812
z: -0.19484148919582367
visibility: 0.999975323677063
","x: 258.5691223144531
y: 245.48081970214844
z: -0.29166555404663086
visibility: 0.9999915361404419
","x: 253.51141357421875
y: 245.6709442138672
z: -0.28531163930892944
visibility: 0.9999940395355225
","x: 279.2334289550781
y: 273.07025146484375
z: -0.09865576028823853
visibility: 0.9998765587806702
","x: 236.1529541015625
y: 269.78326416015625
z: -0.11604250967502594
visibility: 0.9999709129333496
","x: 302.8821105957031
y: 289.036376953125
z: -0.23772969841957092
visibility: 0.9680271744728088
","x: 201.07257080078125
y: 266.962646484375
z: -0.17715762555599213
visibility: 0.9723332524299622
","x: 303.1319274902344
y: 282.76995849609375
z: -0.5140621066093445
visibility: 0.9647393822669983
","x: 191.55435180664062
y: 222.3479461669922
z: -0.328319251537323
visibility: 0.9643608331680298
","x: 303.2955017089844
y: 288.5846252441406
z: -0.568277895450592
visibility: 0.9326676726341248
","x: 190.2091064453125
y: 213.76516723632812
z: -0.3767651617527008
visibility: 0.9467329382896423
","x: 299.99267578125
y: 282.02252197265625
z: -0.5759350061416626
visibility: 0.9326015114784241
","x: 193.25587463378906
y: 210.3131866455078
z: -0.37876537442207336
visibility: 0.9483985900878906
","x: 299.2479553222656
y: 280.3324279785156
z: -0.5251744389533997
visibility: 0.9201480746269226
","x: 194.09347534179688
y: 213.7228240966797
z: -0.3350266218185425
visibility: 0.9331045150756836
","x: 275.29803466796875
y: 385.7836608886719
z: 0.012072094716131687
visibility: 0.9998384118080139
","x: 250.2987060546875
y: 387.8838806152344
z: -0.012115191668272018
visibility: 0.9999278783798218
","x: 289.0133972167969
y: 471.563720703125
z: 0.001377078122459352
visibility: 0.981436014175415
","x: 242.2500762939453
y: 472.68603515625
z: -0.0657443255186081
visibility: 0.9952677488327026
","x: 299.3151550292969
y: 551.3518676757812
z: 0.2103842794895172
visibility: 0.9687317609786987
","x: 228.2318115234375
y: 549.2969360351562
z: 0.09782186895608902
visibility: 0.9956124424934387
","x: 296.456298828125
y: 565.7252197265625
z: 0.2227616310119629
visibility: 0.9078415036201477
","x: 223.1709747314453
y: 558.6812744140625
z: 0.10741772502660751
visibility: 0.9339343905448914
","x: 308.3407287597656
y: 576.1729736328125
z: 0.08751113712787628
visibility: 0.9702404141426086
","x: 237.65846252441406
y: 579.2843017578125
z: -0.03519241884350777
visibility: 0.9915114641189575
","x: 188.8894805908203
y: 223.2984161376953
z: 0.0
","x: 192.80101013183594
y: 218.12191772460938
z: 0.001624985015951097
","x: 195.15928649902344
y: 212.96673583984375
z: 0.0007772669778205454
","x: 196.77593994140625
y: 209.42369079589844
z: -0.001173066208139062
","x: 197.853515625
y: 207.04367065429688
z: -0.002880432642996311
","x: 193.06387329101562
y: 205.23471069335938
z: -0.0003916721325367689
","x: 197.65846252441406
y: 204.46163940429688
z: -0.003237214172258973
","x: 200.08277893066406
y: 207.00515747070312
z: -0.004580467473715544
","x: 201.44595336914062
y: 209.61239624023438
z: -0.0051743327639997005
","x: 192.32003784179688
y: 206.4588165283203
z: -0.003218133235350251
","x: 197.49386596679688
y: 206.80728149414062
z: -0.006249000318348408
","x: 199.852783203125
y: 210.30577087402344
z: -0.006398811470717192
","x: 200.98947143554688
y: 213.40347290039062
z: -0.0062324111349880695
","x: 191.82444763183594
y: 209.2552032470703
z: -0.0060875448398292065
","x: 196.8141326904297
y: 210.21987915039062
z: -0.008734687231481075
","x: 198.43040466308594
y: 213.81744384765625
z: -0.007388160564005375
","x: 198.91163635253906
y: 216.753173828125
z: -0.006148122251033783
","x: 191.5955810546875
y: 212.99929809570312
z: -0.00908616278320551
","x: 195.30911254882812
y: 213.57420349121094
z: -0.010855410248041153
","x: 196.5703887939453
y: 215.69918823242188
z: -0.009603569284081459
","x: 196.95262145996094
y: 217.8441162109375
z: -0.008296496234834194
",,,,,,,,,,,,,,,,,,,,,
14,"x: 254.85317993164062
y: 238.33009338378906
z: -0.3240693211555481
visibility: 0.999994158744812
","x: 257.0905456542969
y: 231.07911682128906
z: -0.3016192317008972
visibility: 0.9999850988388062
","x: 258.54119873046875
y: 231.07757568359375
z: -0.3015841841697693
visibility: 0.9999821186065674
","x: 260.07025146484375
y: 231.19223022460938
z: -0.3015819191932678
visibility: 0.9999803900718689
","x: 253.22756958007812
y: 231.43736267089844
z: -0.2987653315067291
visibility: 0.9999825358390808
","x: 251.95387268066406
y: 231.6332244873047
z: -0.29886695742607117
visibility: 0.9999770522117615
","x: 250.61245727539062
y: 231.93185424804688
z: -0.29880180954933167
visibility: 0.9999764561653137
","x: 262.9649963378906
y: 235.40260314941406
z: -0.17436321079730988
visibility: 0.9999736547470093
","x: 248.40505981445312
y: 235.9017791748047
z: -0.16961976885795593
visibility: 0.9999749064445496
","x: 257.29901123046875
y: 247.7495574951172
z: -0.2783532738685608
visibility: 0.9999918341636658
","x: 252.2242889404297
y: 247.86729431152344
z: -0.27561578154563904
visibility: 0.9999937415122986
","x: 277.6642150878906
y: 278.4512634277344
z: -0.11004364490509033
visibility: 0.9998877644538879
","x: 235.48658752441406
y: 273.0745544433594
z: -0.08995513617992401
visibility: 0.9999625086784363
","x: 295.7405700683594
y: 327.8934020996094
z: -0.20509643852710724
visibility: 0.970913290977478
","x: 203.644775390625
y: 259.5635681152344
z: -0.18284228444099426
visibility: 0.9750204682350159
","x: 289.20758056640625
y: 376.02301025390625
z: -0.3632553219795227
visibility: 0.967206597328186
","x: 192.69325256347656
y: 214.95225524902344
z: -0.3748131990432739
visibility: 0.9674411416053772
","x: 287.1890869140625
y: 394.5588684082031
z: -0.4384585916996002
visibility: 0.9358246326446533
","x: 192.40185546875
y: 204.94667053222656
z: -0.42923465371131897
visibility: 0.9498655200004578
","x: 283.461181640625
y: 391.4041442871094
z: -0.46518653631210327
visibility: 0.9359239935874939
","x: 195.38922119140625
y: 202.4588623046875
z: -0.4310649037361145
visibility: 0.9512629508972168
","x: 283.156005859375
y: 385.02313232421875
z: -0.38527852296829224
visibility: 0.9231970906257629
","x: 196.04820251464844
y: 206.37783813476562
z: -0.3844727873802185
visibility: 0.9371699094772339
","x: 276.16339111328125
y: 387.1617126464844
z: 0.00727394362911582
visibility: 0.999849796295166
","x: 250.5037078857422
y: 391.37884521484375
z: -0.007439066655933857
visibility: 0.9999299645423889
","x: 290.4165954589844
y: 473.0711669921875
z: -0.005063061602413654
visibility: 0.9831357002258301
","x: 243.04380798339844
y: 474.9985046386719
z: -0.02458207681775093
visibility: 0.9955956935882568
","x: 303.1985778808594
y: 551.5562133789062
z: 0.14951033890247345
visibility: 0.9717090725898743
","x: 226.6082763671875
y: 552.416015625
z: 0.12598301470279694
visibility: 0.9957923293113708
","x: 301.7032775878906
y: 566.4812622070312
z: 0.1566135585308075
visibility: 0.9118265509605408
","x: 221.89112854003906
y: 564.5711669921875
z: 0.13335280120372772
visibility: 0.9276885986328125
","x: 309.16680908203125
y: 576.0358276367188
z: 0.0051703439094126225
visibility: 0.9728099703788757
","x: 237.3431854248047
y: 579.1512451171875
z: -0.007291818503290415
visibility: 0.9917687177658081
",,,,,,,,,,,,,,,,,,,,,,,,,,,,,,,,,,,,,,,,,,
15,"x: 266.9190368652344
y: 236.77264404296875
z: -0.3263668417930603
visibility: 0.9999935626983643
","x: 269.40350341796875
y: 228.9190673828125
z: -0.3039766252040863
visibility: 0.9999850392341614
","x: 270.815673828125
y: 229.01278686523438
z: -0.3039717376232147
visibility: 0.9999818205833435
","x: 272.1755065917969
y: 229.28968811035156
z: -0.3039894700050354
visibility: 0.999980628490448
","x: 265.1178894042969
y: 229.21897888183594
z: -0.3037225902080536
visibility: 0.9999814629554749
","x: 263.59393310546875
y: 229.42567443847656
z: -0.30382007360458374
visibility: 0.9999758005142212
","x: 262.0247497558594
y: 229.83583068847656
z: -0.3037772476673126
visibility: 0.9999755024909973
","x: 275.11639404296875
y: 233.90211486816406
z: -0.17350389063358307
visibility: 0.9999707341194153
","x: 260.4677734375
y: 234.9608612060547
z: -0.1762842833995819
visibility: 0.999972403049469
","x: 270.1967468261719
y: 245.95831298828125
z: -0.278827965259552
visibility: 0.9999900460243225
","x: 264.1407165527344
y: 246.0570068359375
z: -0.2791312336921692
visibility: 0.999991238117218
","x: 290.6743469238281
y: 279.3624267578125
z: -0.10024849325418472
visibility: 0.9998933672904968
","x: 248.3905792236328
y: 268.9001159667969
z: -0.10168900340795517
visibility: 0.9999492764472961
","x: 297.9150695800781
y: 331.056396484375
z: -0.12808454036712646
visibility: 0.9728065133094788
","x: 217.9211883544922
y: 252.40628051757812
z: -0.1285257190465927
visibility: 0.9774268865585327
","x: 285.9938659667969
y: 372.3349304199219
z: -0.2583947777748108
visibility: 0.9665443301200867
","x: 197.84347534179688
y: 216.17027282714844
z: -0.20931211113929749
visibility: 0.9695364236831665
","x: 281.5664978027344
y: 389.9005126953125
z: -0.30026382207870483
visibility: 0.9319382905960083
","x: 196.1136016845703
y: 204.99937438964844
z: -0.25029444694519043
visibility: 0.9497065544128418
","x: 277.6961975097656
y: 384.24273681640625
z: -0.32488498091697693
visibility: 0.9323847889900208
","x: 197.93804931640625
y: 201.90396118164062
z: -0.26394766569137573
visibility: 0.9509162902832031
","x: 278.63360595703125
y: 377.67010498046875
z: -0.27170270681381226
visibility: 0.9180923700332642
","x: 198.7057342529297
y: 206.34732055664062
z: -0.22109127044677734
visibility: 0.9378073811531067
","x: 278.6158142089844
y: 387.70697021484375
z: 0.014583309181034565
visibility: 0.9998569488525391
","x: 253.36415100097656
y: 390.1557922363281
z: -0.014811468310654163
visibility: 0.99992835521698
","x: 290.84283447265625
y: 473.6001892089844
z: 0.01904745027422905
visibility: 0.9844024181365967
","x: 241.37957763671875
y: 474.48193359375
z: -0.04580137878656387
visibility: 0.9959293007850647
","x: 302.2803955078125
y: 551.101318359375
z: 0.16443239152431488
visibility: 0.9743577241897583
","x: 225.72914123535156
y: 552.1820068359375
z: 0.09779413044452667
visibility: 0.9960265159606934
","x: 299.015625
y: 566.2869873046875
z: 0.1711219698190689
visibility: 0.9174644947052002
","x: 222.38905334472656
y: 564.4149169921875
z: 0.10877074301242828
visibility: 0.9246004223823547
","x: 312.03656005859375
y: 576.29443359375
z: 0.03262469545006752
visibility: 0.9750792980194092
","x: 237.0160369873047
y: 578.9475708007812
z: -0.02488337643444538
visibility: 0.992150068283081
","x: 199.81361389160156
y: 216.73561096191406
z: 0.0
","x: 203.0774383544922
y: 210.34860229492188
z: 0.0009239217615686357
","x: 204.8346405029297
y: 204.93878173828125
z: -0.000349430920323357
","x: 206.28794860839844
y: 200.8068084716797
z: -0.0026109206955879927
","x: 207.10643005371094
y: 197.5359344482422
z: -0.00433011632412672
","x: 199.11590576171875
y: 197.28890991210938
z: -0.0005087464232929051
","x: 202.49452209472656
y: 192.62811279296875
z: -0.0028728083707392216
","x: 204.7259521484375
y: 196.2738037109375
z: -0.0036902863066643476
","x: 205.31517028808594
y: 199.74185180664062
z: -0.004021733067929745
","x: 197.62977600097656
y: 198.6404571533203
z: -0.003047156846150756
","x: 202.1587677001953
y: 194.99240112304688
z: -0.005285564344376326
","x: 204.24029541015625
y: 198.92169189453125
z: -0.004809754900634289
","x: 204.48756408691406
y: 202.69212341308594
z: -0.004322873428463936
","x: 196.76626586914062
y: 201.08706665039062
z: -0.005737135652452707
","x: 201.31857299804688
y: 198.1000518798828
z: -0.007843471132218838
","x: 203.13113403320312
y: 201.42770385742188
z: -0.006350366398692131
","x: 203.34988403320312
y: 204.75149536132812
z: -0.005144908558577299
","x: 196.5125732421875
y: 204.05728149414062
z: -0.008602159097790718
","x: 199.930908203125
y: 201.5542449951172
z: -0.00996607355773449
","x: 201.6923828125
y: 203.21963500976562
z: -0.008767466992139816
","x: 202.2724151611328
y: 205.44644165039062
z: -0.007583854719996452
","x: 285.605224609375
y: 373.73394775390625
z: 0.0
","x: 281.30718994140625
y: 372.481689453125
z: 9.58810342126526e-05
","x: 277.060546875
y: 374.2127990722656
z: -0.0009653821471147239
","x: 274.2442321777344
y: 376.117919921875
z: -0.0023271674290299416
","x: 272.10504150390625
y: 377.7998046875
z: -0.003592444583773613
","x: 274.7383728027344
y: 381.0963134765625
z: -0.0020104069262742996
","x: 270.87744140625
y: 388.5223388671875
z: -0.004151180852204561
","x: 268.85693359375
y: 393.66400146484375
z: -0.005174419842660427
","x: 267.5376892089844
y: 397.60675048828125
z: -0.005583855323493481
","x: 276.3123779296875
y: 384.28912353515625
z: -0.0034652207978069782
","x: 272.3492126464844
y: 392.0077819824219
z: -0.005266415420919657
","x: 270.0606689453125
y: 397.1419982910156
z: -0.005560101475566626
","x: 268.418212890625
y: 401.27508544921875
z: -0.005738112609833479
","x: 278.28717041015625
y: 387.0232849121094
z: -0.00497396569699049
","x: 274.741455078125
y: 394.1452331542969
z: -0.006900263950228691
","x: 272.4794616699219
y: 398.74163818359375
z: -0.0070749917067587376
","x: 270.861572265625
y: 402.08642578125
z: -0.0070921434089541435
","x: 280.5128173828125
y: 389.1566467285156
z: -0.006536935456097126
","x: 278.0301513671875
y: 394.946533203125
z: -0.007934323512017727
","x: 276.3817138671875
y: 398.1202392578125
z: -0.007980087772011757
","x: 275.00439453125
y: 400.2560119628906
z: -0.007956423796713352
"
16,"x: 266.9190368652344
y: 236.77264404296875
z: -0.3263668417930603
visibility: 0.9999935626983643
","x: 269.40350341796875
y: 228.9190673828125
z: -0.3039766252040863
visibility: 0.9999850392341614
","x: 270.815673828125
y: 229.01278686523438
z: -0.3039717376232147
visibility: 0.9999818205833435
","x: 272.1755065917969
y: 229.28968811035156
z: -0.3039894700050354
visibility: 0.999980628490448
","x: 265.1178894042969
y: 229.21897888183594
z: -0.3037225902080536
visibility: 0.9999814629554749
","x: 263.59393310546875
y: 229.42567443847656
z: -0.30382007360458374
visibility: 0.9999758005142212
","x: 262.0247497558594
y: 229.83583068847656
z: -0.3037772476673126
visibility: 0.9999755024909973
","x: 275.11639404296875
y: 233.90211486816406
z: -0.17350389063358307
visibility: 0.9999707341194153
","x: 260.4677734375
y: 234.9608612060547
z: -0.1762842833995819
visibility: 0.999972403049469
","x: 270.1967468261719
y: 245.95831298828125
z: -0.278827965259552
visibility: 0.9999900460243225
","x: 264.1407165527344
y: 246.0570068359375
z: -0.2791312336921692
visibility: 0.999991238117218
","x: 290.6743469238281
y: 279.3624267578125
z: -0.10024849325418472
visibility: 0.9998933672904968
","x: 248.3905792236328
y: 268.9001159667969
z: -0.10168900340795517
visibility: 0.9999492764472961
","x: 297.9150695800781
y: 331.056396484375
z: -0.12808454036712646
visibility: 0.9728065133094788
","x: 217.9211883544922
y: 252.40628051757812
z: -0.1285257190465927
visibility: 0.9774268865585327
","x: 285.9938659667969
y: 372.3349304199219
z: -0.2583947777748108
visibility: 0.9665443301200867
","x: 197.84347534179688
y: 216.17027282714844
z: -0.20931211113929749
visibility: 0.9695364236831665
","x: 281.5664978027344
y: 389.9005126953125
z: -0.30026382207870483
visibility: 0.9319382905960083
","x: 196.1136016845703
y: 204.99937438964844
z: -0.25029444694519043
visibility: 0.9497065544128418
","x: 277.6961975097656
y: 384.24273681640625
z: -0.32488498091697693
visibility: 0.9323847889900208
","x: 197.93804931640625
y: 201.90396118164062
z: -0.26394766569137573
visibility: 0.9509162902832031
","x: 278.63360595703125
y: 377.67010498046875
z: -0.27170270681381226
visibility: 0.9180923700332642
","x: 198.7057342529297
y: 206.34732055664062
z: -0.22109127044677734
visibility: 0.9378073811531067
","x: 278.6158142089844
y: 387.70697021484375
z: 0.014583309181034565
visibility: 0.9998569488525391
","x: 253.36415100097656
y: 390.1557922363281
z: -0.014811468310654163
visibility: 0.99992835521698
","x: 290.84283447265625
y: 473.6001892089844
z: 0.01904745027422905
visibility: 0.9844024181365967
","x: 241.37957763671875
y: 474.48193359375
z: -0.04580137878656387
visibility: 0.9959293007850647
","x: 302.2803955078125
y: 551.101318359375
z: 0.16443239152431488
visibility: 0.9743577241897583
","x: 225.72914123535156
y: 552.1820068359375
z: 0.09779413044452667
visibility: 0.9960265159606934
","x: 299.015625
y: 566.2869873046875
z: 0.1711219698190689
visibility: 0.9174644947052002
","x: 222.38905334472656
y: 564.4149169921875
z: 0.10877074301242828
visibility: 0.9246004223823547
","x: 312.03656005859375
y: 576.29443359375
z: 0.03262469545006752
visibility: 0.9750792980194092
","x: 237.0160369873047
y: 578.9475708007812
z: -0.02488337643444538
visibility: 0.992150068283081
","x: 199.81361389160156
y: 216.73561096191406
z: 0.0
","x: 203.0774383544922
y: 210.34860229492188
z: 0.0009239217615686357
","x: 204.8346405029297
y: 204.93878173828125
z: -0.000349430920323357
","x: 206.28794860839844
y: 200.8068084716797
z: -0.0026109206955879927
","x: 207.10643005371094
y: 197.5359344482422
z: -0.00433011632412672
","x: 199.11590576171875
y: 197.28890991210938
z: -0.0005087464232929051
","x: 202.49452209472656
y: 192.62811279296875
z: -0.0028728083707392216
","x: 204.7259521484375
y: 196.2738037109375
z: -0.0036902863066643476
","x: 205.31517028808594
y: 199.74185180664062
z: -0.004021733067929745
","x: 197.62977600097656
y: 198.6404571533203
z: -0.003047156846150756
","x: 202.1587677001953
y: 194.99240112304688
z: -0.005285564344376326
","x: 204.24029541015625
y: 198.92169189453125
z: -0.004809754900634289
","x: 204.48756408691406
y: 202.69212341308594
z: -0.004322873428463936
","x: 196.76626586914062
y: 201.08706665039062
z: -0.005737135652452707
","x: 201.31857299804688
y: 198.1000518798828
z: -0.007843471132218838
","x: 203.13113403320312
y: 201.42770385742188
z: -0.006350366398692131
","x: 203.34988403320312
y: 204.75149536132812
z: -0.005144908558577299
","x: 196.5125732421875
y: 204.05728149414062
z: -0.008602159097790718
","x: 199.930908203125
y: 201.5542449951172
z: -0.00996607355773449
","x: 201.6923828125
y: 203.21963500976562
z: -0.008767466992139816
","x: 202.2724151611328
y: 205.44644165039062
z: -0.007583854719996452
","x: 285.605224609375
y: 373.73394775390625
z: 0.0
","x: 281.30718994140625
y: 372.481689453125
z: 9.58810342126526e-05
","x: 277.060546875
y: 374.2127990722656
z: -0.0009653821471147239
","x: 274.2442321777344
y: 376.117919921875
z: -0.0023271674290299416
","x: 272.10504150390625
y: 377.7998046875
z: -0.003592444583773613
","x: 274.7383728027344
y: 381.0963134765625
z: -0.0020104069262742996
","x: 270.87744140625
y: 388.5223388671875
z: -0.004151180852204561
","x: 268.85693359375
y: 393.66400146484375
z: -0.005174419842660427
","x: 267.5376892089844
y: 397.60675048828125
z: -0.005583855323493481
","x: 276.3123779296875
y: 384.28912353515625
z: -0.0034652207978069782
","x: 272.3492126464844
y: 392.0077819824219
z: -0.005266415420919657
","x: 270.0606689453125
y: 397.1419982910156
z: -0.005560101475566626
","x: 268.418212890625
y: 401.27508544921875
z: -0.005738112609833479
","x: 278.28717041015625
y: 387.0232849121094
z: -0.00497396569699049
","x: 274.741455078125
y: 394.1452331542969
z: -0.006900263950228691
","x: 272.4794616699219
y: 398.74163818359375
z: -0.0070749917067587376
","x: 270.861572265625
y: 402.08642578125
z: -0.0070921434089541435
","x: 280.5128173828125
y: 389.1566467285156
z: -0.006536935456097126
","x: 278.0301513671875
y: 394.946533203125
z: -0.007934323512017727
","x: 276.3817138671875
y: 398.1202392578125
z: -0.007980087772011757
","x: 275.00439453125
y: 400.2560119628906
z: -0.007956423796713352
"
17,"x: 266.9190368652344
y: 236.77264404296875
z: -0.3263668417930603
visibility: 0.9999935626983643
","x: 269.40350341796875
y: 228.9190673828125
z: -0.3039766252040863
visibility: 0.9999850392341614
","x: 270.815673828125
y: 229.01278686523438
z: -0.3039717376232147
visibility: 0.9999818205833435
","x: 272.1755065917969
y: 229.28968811035156
z: -0.3039894700050354
visibility: 0.999980628490448
","x: 265.1178894042969
y: 229.21897888183594
z: -0.3037225902080536
visibility: 0.9999814629554749
","x: 263.59393310546875
y: 229.42567443847656
z: -0.30382007360458374
visibility: 0.9999758005142212
","x: 262.0247497558594
y: 229.83583068847656
z: -0.3037772476673126
visibility: 0.9999755024909973
","x: 275.11639404296875
y: 233.90211486816406
z: -0.17350389063358307
visibility: 0.9999707341194153
","x: 260.4677734375
y: 234.9608612060547
z: -0.1762842833995819
visibility: 0.999972403049469
","x: 270.1967468261719
y: 245.95831298828125
z: -0.278827965259552
visibility: 0.9999900460243225
","x: 264.1407165527344
y: 246.0570068359375
z: -0.2791312336921692
visibility: 0.999991238117218
","x: 290.6743469238281
y: 279.3624267578125
z: -0.10024849325418472
visibility: 0.9998933672904968
","x: 248.3905792236328
y: 268.9001159667969
z: -0.10168900340795517
visibility: 0.9999492764472961
","x: 297.9150695800781
y: 331.056396484375
z: -0.12808454036712646
visibility: 0.9728065133094788
","x: 217.9211883544922
y: 252.40628051757812
z: -0.1285257190465927
visibility: 0.9774268865585327
","x: 285.9938659667969
y: 372.3349304199219
z: -0.2583947777748108
visibility: 0.9665443301200867
","x: 197.84347534179688
y: 216.17027282714844
z: -0.20931211113929749
visibility: 0.9695364236831665
","x: 281.5664978027344
y: 389.9005126953125
z: -0.30026382207870483
visibility: 0.9319382905960083
","x: 196.1136016845703
y: 204.99937438964844
z: -0.25029444694519043
visibility: 0.9497065544128418
","x: 277.6961975097656
y: 384.24273681640625
z: -0.32488498091697693
visibility: 0.9323847889900208
","x: 197.93804931640625
y: 201.90396118164062
z: -0.26394766569137573
visibility: 0.9509162902832031
","x: 278.63360595703125
y: 377.67010498046875
z: -0.27170270681381226
visibility: 0.9180923700332642
","x: 198.7057342529297
y: 206.34732055664062
z: -0.22109127044677734
visibility: 0.9378073811531067
","x: 278.6158142089844
y: 387.70697021484375
z: 0.014583309181034565
visibility: 0.9998569488525391
","x: 253.36415100097656
y: 390.1557922363281
z: -0.014811468310654163
visibility: 0.99992835521698
","x: 290.84283447265625
y: 473.6001892089844
z: 0.01904745027422905
visibility: 0.9844024181365967
","x: 241.37957763671875
y: 474.48193359375
z: -0.04580137878656387
visibility: 0.9959293007850647
","x: 302.2803955078125
y: 551.101318359375
z: 0.16443239152431488
visibility: 0.9743577241897583
","x: 225.72914123535156
y: 552.1820068359375
z: 0.09779413044452667
visibility: 0.9960265159606934
","x: 299.015625
y: 566.2869873046875
z: 0.1711219698190689
visibility: 0.9174644947052002
","x: 222.38905334472656
y: 564.4149169921875
z: 0.10877074301242828
visibility: 0.9246004223823547
","x: 312.03656005859375
y: 576.29443359375
z: 0.03262469545006752
visibility: 0.9750792980194092
","x: 237.0160369873047
y: 578.9475708007812
z: -0.02488337643444538
visibility: 0.992150068283081
","x: 199.81361389160156
y: 216.73561096191406
z: 0.0
","x: 203.0774383544922
y: 210.34860229492188
z: 0.0009239217615686357
","x: 204.8346405029297
y: 204.93878173828125
z: -0.000349430920323357
","x: 206.28794860839844
y: 200.8068084716797
z: -0.0026109206955879927
","x: 207.10643005371094
y: 197.5359344482422
z: -0.00433011632412672
","x: 199.11590576171875
y: 197.28890991210938
z: -0.0005087464232929051
","x: 202.49452209472656
y: 192.62811279296875
z: -0.0028728083707392216
","x: 204.7259521484375
y: 196.2738037109375
z: -0.0036902863066643476
","x: 205.31517028808594
y: 199.74185180664062
z: -0.004021733067929745
","x: 197.62977600097656
y: 198.6404571533203
z: -0.003047156846150756
","x: 202.1587677001953
y: 194.99240112304688
z: -0.005285564344376326
","x: 204.24029541015625
y: 198.92169189453125
z: -0.004809754900634289
","x: 204.48756408691406
y: 202.69212341308594
z: -0.004322873428463936
","x: 196.76626586914062
y: 201.08706665039062
z: -0.005737135652452707
","x: 201.31857299804688
y: 198.1000518798828
z: -0.007843471132218838
","x: 203.13113403320312
y: 201.42770385742188
z: -0.006350366398692131
","x: 203.34988403320312
y: 204.75149536132812
z: -0.005144908558577299
","x: 196.5125732421875
y: 204.05728149414062
z: -0.008602159097790718
","x: 199.930908203125
y: 201.5542449951172
z: -0.00996607355773449
","x: 201.6923828125
y: 203.21963500976562
z: -0.008767466992139816
","x: 202.2724151611328
y: 205.44644165039062
z: -0.007583854719996452
","x: 285.605224609375
y: 373.73394775390625
z: 0.0
","x: 281.30718994140625
y: 372.481689453125
z: 9.58810342126526e-05
","x: 277.060546875
y: 374.2127990722656
z: -0.0009653821471147239
","x: 274.2442321777344
y: 376.117919921875
z: -0.0023271674290299416
","x: 272.10504150390625
y: 377.7998046875
z: -0.003592444583773613
","x: 274.7383728027344
y: 381.0963134765625
z: -0.0020104069262742996
","x: 270.87744140625
y: 388.5223388671875
z: -0.004151180852204561
","x: 268.85693359375
y: 393.66400146484375
z: -0.005174419842660427
","x: 267.5376892089844
y: 397.60675048828125
z: -0.005583855323493481
","x: 276.3123779296875
y: 384.28912353515625
z: -0.0034652207978069782
","x: 272.3492126464844
y: 392.0077819824219
z: -0.005266415420919657
","x: 270.0606689453125
y: 397.1419982910156
z: -0.005560101475566626
","x: 268.418212890625
y: 401.27508544921875
z: -0.005738112609833479
","x: 278.28717041015625
y: 387.0232849121094
z: -0.00497396569699049
","x: 274.741455078125
y: 394.1452331542969
z: -0.006900263950228691
","x: 272.4794616699219
y: 398.74163818359375
z: -0.0070749917067587376
","x: 270.861572265625
y: 402.08642578125
z: -0.0070921434089541435
","x: 280.5128173828125
y: 389.1566467285156
z: -0.006536935456097126
","x: 278.0301513671875
y: 394.946533203125
z: -0.007934323512017727
","x: 276.3817138671875
y: 398.1202392578125
z: -0.007980087772011757
","x: 275.00439453125
y: 400.2560119628906
z: -0.007956423796713352
"
18,"x: 273.5127258300781
y: 236.88143920898438
z: -0.43661433458328247
visibility: 0.9999857544898987
","x: 276.3197021484375
y: 229.80838012695312
z: -0.42174530029296875
visibility: 0.999972403049469
","x: 278.0947570800781
y: 230.41749572753906
z: -0.42173975706100464
visibility: 0.9999642968177795
","x: 279.6349182128906
y: 231.0485076904297
z: -0.4218361973762512
visibility: 0.9999648928642273
","x: 271.1506042480469
y: 230.94247436523438
z: -0.42171603441238403
visibility: 0.9999700784683228
","x: 269.60540771484375
y: 231.71395874023438
z: -0.4218459129333496
visibility: 0.9999634623527527
","x: 268.1587219238281
y: 232.53274536132812
z: -0.4218308925628662
visibility: 0.9999663233757019
","x: 282.5242004394531
y: 236.4582977294922
z: -0.28983360528945923
visibility: 0.9999422430992126
","x: 266.69708251953125
y: 235.9227752685547
z: -0.28761571645736694
visibility: 0.9999549984931946
","x: 276.68902587890625
y: 247.26356506347656
z: -0.38352611660957336
visibility: 0.9999715685844421
","x: 270.61407470703125
y: 246.6861114501953
z: -0.38309866189956665
visibility: 0.9999696016311646
","x: 297.52069091796875
y: 276.0346374511719
z: -0.1653795838356018
visibility: 0.9998766183853149
","x: 253.02174377441406
y: 271.1591491699219
z: -0.18313634395599365
visibility: 0.9999213814735413
","x: 317.9156799316406
y: 311.52569580078125
z: -0.1661052256822586
visibility: 0.9743422269821167
","x: 223.33680725097656
y: 257.57110595703125
z: -0.21780414879322052
visibility: 0.9795003533363342
","x: 304.6142578125
y: 345.47686767578125
z: -0.28028953075408936
visibility: 0.9542670845985413
","x: 202.88604736328125
y: 220.84275817871094
z: -0.3397509753704071
visibility: 0.9707884192466736
","x: 300.54827880859375
y: 355.54669189453125
z: -0.3171791136264801
visibility: 0.8984391689300537
","x: 201.25973510742188
y: 210.9611358642578
z: -0.3792524039745331
visibility: 0.9471361041069031
","x: 296.6147766113281
y: 352.690185546875
z: -0.33422723412513733
visibility: 0.9008911848068237
","x: 202.28424072265625
y: 208.83177185058594
z: -0.3961389362812042
visibility: 0.9483674168586731
","x: 297.6679382324219
y: 348.9703674316406
z: -0.29195746779441833
visibility: 0.8835559487342834
","x: 202.9582977294922
y: 212.23867797851562
z: -0.35207241773605347
visibility: 0.9350780844688416
","x: 279.26611328125
y: 387.5765380859375
z: 0.012149473652243614
visibility: 0.9998040199279785
","x: 253.3800048828125
y: 385.2630310058594
z: -0.012342268601059914
visibility: 0.9998965263366699
","x: 286.68804931640625
y: 471.7977294921875
z: 0.013889568857848644
visibility: 0.9851554036140442
","x: 240.70684814453125
y: 470.767578125
z: -0.055417727679014206
visibility: 0.9961175918579102
","x: 301.48736572265625
y: 550.5355224609375
z: 0.13928340375423431
visibility: 0.9766087532043457
","x: 226.53262329101562
y: 552.206787109375
z: 0.059153296053409576
visibility: 0.9961735010147095
","x: 298.9979248046875
y: 565.833251953125
z: 0.1443389356136322
visibility: 0.9212512373924255
","x: 224.07420349121094
y: 563.9796142578125
z: 0.06265667825937271
visibility: 0.923782467842102
","x: 309.4910888671875
y: 575.7760009765625
z: 7.281136640813202e-05
visibility: 0.9767341017723083
","x: 234.9676055908203
y: 580.06494140625
z: -0.08527273684740067
visibility: 0.9923022985458374
",,,,,,,,,,,,,,,,,,,,,,,,,,,,,,,,,,,,,,,,,,
19,"x: 267.86309814453125
y: 239.08644104003906
z: -0.41304898262023926
visibility: 0.9999856352806091
","x: 270.9796142578125
y: 232.40655517578125
z: -0.3752347230911255
visibility: 0.9999726414680481
","x: 272.75091552734375
y: 232.54550170898438
z: -0.3752731382846832
visibility: 0.9999645352363586
","x: 274.4073181152344
y: 232.72779846191406
z: -0.3753538131713867
visibility: 0.9999656081199646
","x: 266.1773986816406
y: 233.1776580810547
z: -0.4007958769798279
visibility: 0.9999703168869019
","x: 264.8070373535156
y: 233.6737060546875
z: -0.400718629360199
visibility: 0.9999637007713318
","x: 263.5362548828125
y: 234.2533721923828
z: -0.4008866250514984
visibility: 0.9999666810035706
","x: 277.6871643066406
y: 236.3568115234375
z: -0.23985803127288818
visibility: 0.999943733215332
","x: 262.5282287597656
y: 237.2271728515625
z: -0.22723591327667236
visibility: 0.9999538064002991
","x: 271.59417724609375
y: 249.21694946289062
z: -0.3564007580280304
visibility: 0.9999726414680481
","x: 265.6039123535156
y: 248.836669921875
z: -0.34576866030693054
visibility: 0.9999700784683228
","x: 294.2999267578125
y: 274.8190612792969
z: -0.1596541702747345
visibility: 0.9998838901519775
","x: 250.23683166503906
y: 270.05902099609375
z: -0.12231604009866714
visibility: 0.9999181032180786
","x: 315.6700134277344
y: 311.8205871582031
z: -0.11858256161212921
visibility: 0.9765649437904358
","x: 218.6182861328125
y: 258.3247985839844
z: -0.17934243381023407
visibility: 0.9814379811286926
","x: 299.991455078125
y: 347.8835754394531
z: -0.21774688363075256
visibility: 0.9553681015968323
","x: 206.7505340576172
y: 214.53741455078125
z: -0.3328233063220978
visibility: 0.9730402827262878
","x: 298.1541442871094
y: 360.53955078125
z: -0.247601717710495
visibility: 0.8950818181037903
","x: 205.40646362304688
y: 203.45977783203125
z: -0.37595078349113464
visibility: 0.9493726491928101
","x: 293.51434326171875
y: 356.40765380859375
z: -0.26399296522140503
visibility: 0.8977509140968323
","x: 207.4085693359375
y: 202.1778106689453
z: -0.38544946908950806
visibility: 0.9503499865531921
","x: 297.3931579589844
y: 352.11346435546875
z: -0.22562412917613983
visibility: 0.8786575198173523
","x: 208.12545776367188
y: 205.5352783203125
z: -0.3430677652359009
visibility: 0.9374693632125854
","x: 277.3125915527344
y: 387.1147155761719
z: 0.01292048953473568
visibility: 0.999799907207489
","x: 250.75457763671875
y: 384.22613525390625
z: -0.0131079675629735
visibility: 0.9998869895935059
","x: 287.7702941894531
y: 471.4830017089844
z: -0.011349300853908062
visibility: 0.9863201975822449
","x: 239.900390625
y: 470.64874267578125
z: -0.0407944917678833
visibility: 0.9963523745536804
","x: 302.96636962890625
y: 551.966552734375
z: 0.13662807643413544
visibility: 0.9787487387657166
","x: 226.91024780273438
y: 553.1799926757812
z: 0.09267538040876389
visibility: 0.9963650107383728
","x: 300.40399169921875
y: 567.0601806640625
z: 0.1448202282190323
visibility: 0.9267873167991638
","x: 224.58682250976562
y: 564.18310546875
z: 0.09935502707958221
visibility: 0.9250179529190063
","x: 310.3721923828125
y: 577.1126708984375
z: 0.008443816564977169
visibility: 0.9785358905792236
","x: 234.54983520507812
y: 581.6416015625
z: -0.043440740555524826
visibility: 0.992512583732605
","x: 207.7529296875
y: 213.0572509765625
z: 0.0
","x: 210.7442169189453
y: 208.56407165527344
z: -0.00019398759468458593
","x: 212.65684509277344
y: 203.1690216064453
z: -0.0015028903726488352
","x: 214.121826171875
y: 199.30691528320312
z: -0.0034495037980377674
","x: 215.3647003173828
y: 196.7703857421875
z: -0.004797814879566431
","x: 208.13214111328125
y: 195.3663787841797
z: -0.0008573041413910687
","x: 211.94544982910156
y: 192.98155212402344
z: -0.003699232591316104
","x: 212.71726989746094
y: 197.16131591796875
z: -0.00484247412532568
","x: 211.96871948242188
y: 199.67523193359375
z: -0.005388605874031782
","x: 206.91717529296875
y: 196.27891540527344
z: -0.0027895828243345022
","x: 211.55966186523438
y: 194.31539916992188
z: -0.0060722301714122295
","x: 212.2401123046875
y: 198.77133178710938
z: -0.006076774559915066
","x: 211.37789916992188
y: 200.90036010742188
z: -0.00566200353205204
","x: 206.21163940429688
y: 198.2437744140625
z: -0.005044759716838598
","x: 210.78115844726562
y: 196.67919921875
z: -0.007838292978703976
","x: 211.3335418701172
y: 200.36512756347656
z: -0.0065952627919614315
","x: 210.56475830078125
y: 202.02401733398438
z: -0.005434264428913593
","x: 205.97805786132812
y: 201.00462341308594
z: -0.00751988822594285
","x: 209.76634216308594
y: 200.0299072265625
z: -0.009109929203987122
","x: 210.48257446289062
y: 202.33456420898438
z: -0.00817162450402975
","x: 210.04745483398438
y: 203.4775390625
z: -0.007196662947535515
",,,,,,,,,,,,,,,,,,,,,
20,"x: 267.86309814453125
y: 239.08644104003906
z: -0.41304898262023926
visibility: 0.9999856352806091
","x: 270.9796142578125
y: 232.40655517578125
z: -0.3752347230911255
visibility: 0.9999726414680481
","x: 272.75091552734375
y: 232.54550170898438
z: -0.3752731382846832
visibility: 0.9999645352363586
","x: 274.4073181152344
y: 232.72779846191406
z: -0.3753538131713867
visibility: 0.9999656081199646
","x: 266.1773986816406
y: 233.1776580810547
z: -0.4007958769798279
visibility: 0.9999703168869019
","x: 264.8070373535156
y: 233.6737060546875
z: -0.400718629360199
visibility: 0.9999637007713318
","x: 263.5362548828125
y: 234.2533721923828
z: -0.4008866250514984
visibility: 0.9999666810035706
","x: 277.6871643066406
y: 236.3568115234375
z: -0.23985803127288818
visibility: 0.999943733215332
","x: 262.5282287597656
y: 237.2271728515625
z: -0.22723591327667236
visibility: 0.9999538064002991
","x: 271.59417724609375
y: 249.21694946289062
z: -0.3564007580280304
visibility: 0.9999726414680481
","x: 265.6039123535156
y: 248.836669921875
z: -0.34576866030693054
visibility: 0.9999700784683228
","x: 294.2999267578125
y: 274.8190612792969
z: -0.1596541702747345
visibility: 0.9998838901519775
","x: 250.23683166503906
y: 270.05902099609375
z: -0.12231604009866714
visibility: 0.9999181032180786
","x: 315.6700134277344
y: 311.8205871582031
z: -0.11858256161212921
visibility: 0.9765649437904358
","x: 218.6182861328125
y: 258.3247985839844
z: -0.17934243381023407
visibility: 0.9814379811286926
","x: 299.991455078125
y: 347.8835754394531
z: -0.21774688363075256
visibility: 0.9553681015968323
","x: 206.7505340576172
y: 214.53741455078125
z: -0.3328233063220978
visibility: 0.9730402827262878
","x: 298.1541442871094
y: 360.53955078125
z: -0.247601717710495
visibility: 0.8950818181037903
","x: 205.40646362304688
y: 203.45977783203125
z: -0.37595078349113464
visibility: 0.9493726491928101
","x: 293.51434326171875
y: 356.40765380859375
z: -0.26399296522140503
visibility: 0.8977509140968323
","x: 207.4085693359375
y: 202.1778106689453
z: -0.38544946908950806
visibility: 0.9503499865531921
","x: 297.3931579589844
y: 352.11346435546875
z: -0.22562412917613983
visibility: 0.8786575198173523
","x: 208.12545776367188
y: 205.5352783203125
z: -0.3430677652359009
visibility: 0.9374693632125854
","x: 277.3125915527344
y: 387.1147155761719
z: 0.01292048953473568
visibility: 0.999799907207489
","x: 250.75457763671875
y: 384.22613525390625
z: -0.0131079675629735
visibility: 0.9998869895935059
","x: 287.7702941894531
y: 471.4830017089844
z: -0.011349300853908062
visibility: 0.9863201975822449
","x: 239.900390625
y: 470.64874267578125
z: -0.0407944917678833
visibility: 0.9963523745536804
","x: 302.96636962890625
y: 551.966552734375
z: 0.13662807643413544
visibility: 0.9787487387657166
","x: 226.91024780273438
y: 553.1799926757812
z: 0.09267538040876389
visibility: 0.9963650107383728
","x: 300.40399169921875
y: 567.0601806640625
z: 0.1448202282190323
visibility: 0.9267873167991638
","x: 224.58682250976562
y: 564.18310546875
z: 0.09935502707958221
visibility: 0.9250179529190063
","x: 310.3721923828125
y: 577.1126708984375
z: 0.008443816564977169
visibility: 0.9785358905792236
","x: 234.54983520507812
y: 581.6416015625
z: -0.043440740555524826
visibility: 0.992512583732605
","x: 207.7529296875
y: 213.0572509765625
z: 0.0
","x: 210.7442169189453
y: 208.56407165527344
z: -0.00019398759468458593
","x: 212.65684509277344
y: 203.1690216064453
z: -0.0015028903726488352
","x: 214.121826171875
y: 199.30691528320312
z: -0.0034495037980377674
","x: 215.3647003173828
y: 196.7703857421875
z: -0.004797814879566431
","x: 208.13214111328125
y: 195.3663787841797
z: -0.0008573041413910687
","x: 211.94544982910156
y: 192.98155212402344
z: -0.003699232591316104
","x: 212.71726989746094
y: 197.16131591796875
z: -0.00484247412532568
","x: 211.96871948242188
y: 199.67523193359375
z: -0.005388605874031782
","x: 206.91717529296875
y: 196.27891540527344
z: -0.0027895828243345022
","x: 211.55966186523438
y: 194.31539916992188
z: -0.0060722301714122295
","x: 212.2401123046875
y: 198.77133178710938
z: -0.006076774559915066
","x: 211.37789916992188
y: 200.90036010742188
z: -0.00566200353205204
","x: 206.21163940429688
y: 198.2437744140625
z: -0.005044759716838598
","x: 210.78115844726562
y: 196.67919921875
z: -0.007838292978703976
","x: 211.3335418701172
y: 200.36512756347656
z: -0.0065952627919614315
","x: 210.56475830078125
y: 202.02401733398438
z: -0.005434264428913593
","x: 205.97805786132812
y: 201.00462341308594
z: -0.00751988822594285
","x: 209.76634216308594
y: 200.0299072265625
z: -0.009109929203987122
","x: 210.48257446289062
y: 202.33456420898438
z: -0.00817162450402975
","x: 210.04745483398438
y: 203.4775390625
z: -0.007196662947535515
",,,,,,,,,,,,,,,,,,,,,
21,"x: 261.03692626953125
y: 238.24993896484375
z: -0.36719247698783875
visibility: 0.9999868273735046
","x: 263.8637390136719
y: 231.07516479492188
z: -0.3498195707798004
visibility: 0.9999749660491943
","x: 265.3282470703125
y: 230.86492919921875
z: -0.34974125027656555
visibility: 0.999967634677887
","x: 266.94293212890625
y: 230.74583435058594
z: -0.3497067987918854
visibility: 0.9999686479568481
","x: 260.37298583984375
y: 232.25558471679688
z: -0.3426867127418518
visibility: 0.9999725818634033
","x: 259.42584228515625
y: 232.70628356933594
z: -0.34271836280822754
visibility: 0.9999663829803467
","x: 258.6047668457031
y: 233.19183349609375
z: -0.3426854908466339
visibility: 0.999968945980072
","x: 274.9147033691406
y: 235.47796630859375
z: -0.22727568447589874
visibility: 0.9999485611915588
","x: 260.01416015625
y: 236.5160369873047
z: -0.19877275824546814
visibility: 0.9999562501907349
","x: 265.7910461425781
y: 246.82481384277344
z: -0.34111693501472473
visibility: 0.9999750256538391
","x: 262.3592224121094
y: 246.8046875
z: -0.31067192554473877
visibility: 0.9999724626541138
","x: 288.6114807128906
y: 277.78466796875
z: -0.16053959727287292
visibility: 0.9998940229415894
","x: 245.7498016357422
y: 271.4102478027344
z: -0.11321824789047241
visibility: 0.9999217987060547
","x: 285.0881042480469
y: 339.48797607421875
z: -0.17417052388191223
visibility: 0.9785470366477966
","x: 215.64202880859375
y: 256.58612060546875
z: -0.1911104917526245
visibility: 0.9831596612930298
","x: 265.7183532714844
y: 383.65032958984375
z: -0.2563337981700897
visibility: 0.9590064883232117
","x: 210.7457275390625
y: 207.44515991210938
z: -0.37052884697914124
visibility: 0.9750900864601135
","x: 260.720947265625
y: 397.09637451171875
z: -0.28914326429367065
visibility: 0.9026691913604736
","x: 210.8627471923828
y: 197.14700317382812
z: -0.4194774031639099
visibility: 0.9519569873809814
","x: 256.0506286621094
y: 392.42694091796875
z: -0.2949376404285431
visibility: 0.9050608277320862
","x: 213.2809295654297
y: 196.52032470703125
z: -0.4191816747188568
visibility: 0.9525452852249146
","x: 257.20538330078125
y: 387.8988037109375
z: -0.2655428349971771
visibility: 0.8860850930213928
","x: 213.66127014160156
y: 199.75741577148438
z: -0.3783716857433319
visibility: 0.9402704238891602
","x: 277.0137939453125
y: 387.17852783203125
z: 0.012154166586697102
visibility: 0.9998144507408142
","x: 251.091552734375
y: 385.8702392578125
z: -0.012385759502649307
visibility: 0.9998946785926819
","x: 287.91693115234375
y: 473.26800537109375
z: -0.003213749034330249
visibility: 0.9874998331069946
","x: 239.86679077148438
y: 473.15496826171875
z: -0.01238316297531128
visibility: 0.9965898990631104
","x: 300.90313720703125
y: 553.9647827148438
z: 0.15331503748893738
visibility: 0.980751633644104
","x: 228.07223510742188
y: 554.86572265625
z: 0.1342717707157135
visibility: 0.9965379238128662
","x: 297.656494140625
y: 569.8653564453125
z: 0.1620071530342102
visibility: 0.9325665831565857
","x: 226.2462158203125
y: 565.4317016601562
z: 0.1418130099773407
visibility: 0.9237315058708191
","x: 313.1872253417969
y: 577.921142578125
z: 0.02946540340781212
visibility: 0.9803815484046936
","x: 233.80906677246094
y: 582.52001953125
z: 0.0075939008966088295
visibility: 0.992702066898346
",,,,,,,,,,,,,,,,,,,,,,,,,,,,,,,,,,,,,,,,,,
22,"x: 261.61370849609375
y: 239.3594512939453
z: -0.31991297006607056
visibility: 0.9999874830245972
","x: 264.5766906738281
y: 231.826416015625
z: -0.305162250995636
visibility: 0.9999762773513794
","x: 266.30487060546875
y: 231.60061645507812
z: -0.3051218092441559
visibility: 0.9999695420265198
","x: 268.1252136230469
y: 231.51217651367188
z: -0.3050742745399475
visibility: 0.9999703764915466
","x: 260.4879150390625
y: 233.0082550048828
z: -0.29809683561325073
visibility: 0.9999736547470093
","x: 259.3462829589844
y: 233.42642211914062
z: -0.2981702983379364
visibility: 0.9999675750732422
","x: 258.30108642578125
y: 233.882568359375
z: -0.29815179109573364
visibility: 0.9999696612358093
","x: 273.38336181640625
y: 235.7928466796875
z: -0.19795890152454376
visibility: 0.999950647354126
","x: 258.7926940917969
y: 236.9432373046875
z: -0.16945001482963562
visibility: 0.999955952167511
","x: 266.0992431640625
y: 247.32696533203125
z: -0.28216269612312317
visibility: 0.9999759793281555
","x: 261.0794982910156
y: 247.67408752441406
z: -0.27107077836990356
visibility: 0.999973475933075
","x: 286.2414855957031
y: 278.5971984863281
z: -0.14249345660209656
visibility: 0.9999011754989624
","x: 247.88967895507812
y: 272.2137451171875
z: -0.07664813101291656
visibility: 0.9999248385429382
","x: 268.3770751953125
y: 334.468505859375
z: -0.15431371331214905
visibility: 0.9800541996955872
","x: 217.23658752441406
y: 266.7025451660156
z: -0.16757236421108246
visibility: 0.9845677018165588
","x: 243.76661682128906
y: 372.4187927246094
z: -0.20574717223644257
visibility: 0.9625251293182373
","x: 218.4120635986328
y: 219.53355407714844
z: -0.36584240198135376
visibility: 0.9770718812942505
","x: 236.48391723632812
y: 383.7094421386719
z: -0.23632554709911346
visibility: 0.910436749458313
","x: 219.21395874023438
y: 209.60366821289062
z: -0.41386526823043823
visibility: 0.9550936222076416
","x: 234.00775146484375
y: 379.1280517578125
z: -0.2516339421272278
visibility: 0.9125288724899292
","x: 221.79226684570312
y: 207.94744873046875
z: -0.41102391481399536
visibility: 0.9554030299186707
","x: 236.42431640625
y: 376.2319641113281
z: -0.21095669269561768
visibility: 0.8939404487609863
","x: 222.06744384765625
y: 211.61557006835938
z: -0.37181171774864197
visibility: 0.9435833692550659
","x: 278.1563720703125
y: 387.1411437988281
z: 0.012339342385530472
visibility: 0.999824047088623
","x: 253.44789123535156
y: 386.5627746582031
z: -0.012479186058044434
visibility: 0.999900758266449
","x: 289.646240234375
y: 474.0559387207031
z: 0.029265975579619408
visibility: 0.9885084629058838
","x: 241.86984252929688
y: 475.14703369140625
z: -0.030704349279403687
visibility: 0.996827244758606
","x: 300.60394287109375
y: 555.3037109375
z: 0.18376198410987854
visibility: 0.9825498461723328
","x: 229.90328979492188
y: 555.5977783203125
z: 0.11087814718484879
visibility: 0.9967595934867859
","x: 296.9184875488281
y: 571.418212890625
z: 0.19171617925167084
visibility: 0.9380539059638977
","x: 228.34091186523438
y: 566.1402587890625
z: 0.11975226551294327
visibility: 0.9254559278488159
","x: 313.8767395019531
y: 578.825439453125
z: 0.06376157701015472
visibility: 0.9820719957351685
","x: 233.1009063720703
y: 582.7234497070312
z: -0.012993606738746166
visibility: 0.9930866360664368
",,,,,,,,,,,,,,,,,,,,,,,,,,,,,,,,,,,,,,,,,,
23,"x: 274.2612609863281
y: 240.05982971191406
z: -0.10017944872379303
visibility: 0.9999790191650391
","x: 277.0309143066406
y: 232.60015869140625
z: -0.08050141483545303
visibility: 0.9999651312828064
","x: 278.6029357910156
y: 233.27642822265625
z: -0.08059202879667282
visibility: 0.9999571442604065
","x: 280.2933349609375
y: 234.05621337890625
z: -0.08062393218278885
visibility: 0.9999590516090393
","x: 272.9712829589844
y: 233.5580596923828
z: -0.07829005271196365
visibility: 0.9999618530273438
","x: 271.55810546875
y: 234.0015869140625
z: -0.07831039279699326
visibility: 0.9999520778656006
","x: 270.0688781738281
y: 234.44090270996094
z: -0.07830043137073517
visibility: 0.9999550580978394
","x: 282.64178466796875
y: 238.28555297851562
z: 0.02519228495657444
visibility: 0.9999319314956665
","x: 268.2125244140625
y: 237.37725830078125
z: 0.033049874007701874
visibility: 0.9999290108680725
","x: 276.700927734375
y: 247.62823486328125
z: -0.06128906458616257
visibility: 0.9999518394470215
","x: 271.83203125
y: 248.30259704589844
z: -0.05912982299923897
visibility: 0.9999525547027588
","x: 290.47418212890625
y: 279.2375793457031
z: 0.025439556688070297
visibility: 0.9998945593833923
","x: 253.794189453125
y: 278.8881530761719
z: 0.0809236615896225
visibility: 0.9999068379402161
","x: 269.6987609863281
y: 327.5863342285156
z: -0.0508725643157959
visibility: 0.9753849506378174
","x: 242.68812561035156
y: 323.4405822753906
z: -0.020483404397964478
visibility: 0.9579804539680481
","x: 237.9847412109375
y: 346.36224365234375
z: -0.14717140793800354
visibility: 0.9604523181915283
","x: 240.6663360595703
y: 338.19158935546875
z: -0.23293256759643555
visibility: 0.9484562277793884
","x: 227.91275024414062
y: 350.4747009277344
z: -0.19466045498847961
visibility: 0.9096792936325073
","x: 238.8953399658203
y: 346.500732421875
z: -0.28456583619117737
visibility: 0.9275035262107849
","x: 226.46694946289062
y: 346.0526123046875
z: -0.20047536492347717
visibility: 0.911806583404541
","x: 241.2427978515625
y: 341.4205322265625
z: -0.2987397313117981
visibility: 0.9284766316413879
","x: 229.0920867919922
y: 346.0741882324219
z: -0.15200388431549072
visibility: 0.8903979659080505
","x: 242.264892578125
y: 338.169189453125
z: -0.24542245268821716
visibility: 0.9137474894523621
","x: 279.08099365234375
y: 387.27777099609375
z: 0.011040271259844303
visibility: 0.999830424785614
","x: 253.9185333251953
y: 386.9072265625
z: -0.011103315278887749
visibility: 0.9999019503593445
","x: 288.8576354980469
y: 474.3742370605469
z: -0.0045381695963442326
visibility: 0.9893665313720703
","x: 242.1900634765625
y: 474.39569091796875
z: -0.03752971068024635
visibility: 0.9969971776008606
","x: 300.2523193359375
y: 556.2198486328125
z: 0.10701240599155426
visibility: 0.9840880036354065
","x: 230.32369995117188
y: 555.3502197265625
z: 0.07796857506036758
visibility: 0.9969357252120972
","x: 296.6784973144531
y: 573.8475952148438
z: 0.1114598959684372
visibility: 0.9419946074485779
","x: 228.9699249267578
y: 565.81103515625
z: 0.08179748803377151
visibility: 0.9259346723556519
","x: 314.68621826171875
y: 580.992919921875
z: -0.012855051085352898
visibility: 0.983420729637146
","x: 232.5141143798828
y: 582.7313842773438
z: -0.04706672579050064
visibility: 0.9932552576065063
",,,,,,,,,,,,,,,,,,,,,,,,,,,,,,,,,,,,,,,,,,
24,"x: 269.2943115234375
y: 239.94119262695312
z: -0.14130057394504547
visibility: 0.9999785423278809
","x: 272.1325378417969
y: 232.56689453125
z: -0.12502801418304443
visibility: 0.9999642372131348
","x: 273.83673095703125
y: 232.90696716308594
z: -0.12510797381401062
visibility: 0.9999567270278931
","x: 275.5353698730469
y: 233.3330078125
z: -0.1251375526189804
visibility: 0.9999589920043945
","x: 267.8321838378906
y: 233.21099853515625
z: -0.11764955520629883
visibility: 0.9999608397483826
","x: 266.47772216796875
y: 233.53146362304688
z: -0.1176430732011795
visibility: 0.9999503493309021
","x: 265.106689453125
y: 233.91729736328125
z: -0.11762573570013046
visibility: 0.9999524354934692
","x: 278.55841064453125
y: 237.54769897460938
z: -0.030944589525461197
visibility: 0.9999314546585083
","x: 264.0276794433594
y: 237.33822631835938
z: 0.0023543897550553083
visibility: 0.9999210834503174
","x: 272.3653259277344
y: 248.00758361816406
z: -0.10663674771785736
visibility: 0.9999520182609558
","x: 266.9604797363281
y: 248.52967834472656
z: -0.09722486883401871
visibility: 0.9999508857727051
","x: 289.1107482910156
y: 279.74493408203125
z: -0.02544786036014557
visibility: 0.9998977184295654
","x: 252.58973693847656
y: 280.53155517578125
z: 0.06719784438610077
visibility: 0.999902606010437
","x: 266.1454162597656
y: 324.9057312011719
z: -0.09434379637241364
visibility: 0.974757730960846
","x: 247.94717407226562
y: 333.5490417480469
z: 0.04277577996253967
visibility: 0.9124530553817749
","x: 236.0411834716797
y: 324.19329833984375
z: -0.1897798776626587
