uscmakers/ReverseChoreography/data/4_thats_what_i_like_bruno_mars.csv
,NOSE,LEFT_EYE_INNER,LEFT_EYE,LEFT_EYE_OUTER,RIGHT_EYE_INNER,RIGHT_EYE,RIGHT_EYE_OUTER,LEFT_EAR,RIGHT_EAR,MOUTH_LEFT,MOUTH_RIGHT,LEFT_SHOULDER,RIGHT_SHOULDER,LEFT_ELBOW,RIGHT_ELBOW,LEFT_WRIST,RIGHT_WRIST,LEFT_PINKY,RIGHT_PINKY,LEFT_INDEX,RIGHT_INDEX,LEFT_THUMB,RIGHT_THUMB,LEFT_HIP,RIGHT_HIP,LEFT_KNEE,RIGHT_KNEE,LEFT_ANKLE,RIGHT_ANKLE,LEFT_HEEL,RIGHT_HEEL,LEFT_FOOT_INDEX,RIGHT_FOOT_INDEX,WRIST,THUMB_CPC,THUMB_MCP,THUMB_IP,THUMB_TIP,INDEX_FINGER_MCP,INDEX_FINGER_PIP,INDEX_FINGER_DIP,INDEX_FINGER_TIP,MIDDLE_FINGER_MCP,MIDDLE_FINGER_PIP,MIDDLE_FINGER_DIP,MIDDLE_FINGER_TIP,RING_FINGER_PIP,RING_FINGER_DIP,RING_FINGER_TIP,RING_FINGER_MCP,PINKY_MCP,PINKY_PIP,PINKY_DIP,PINKY_TIP,WRIST2,THUMB_CPC2,THUMB_MCP2,THUMB_IP2,THUMB_TIP2,INDEX_FINGER_MCP2,INDEX_FINGER_PIP2,INDEX_FINGER_DIP2,INDEX_FINGER_TIP2,MIDDLE_FINGER_MCP2,MIDDLE_FINGER_PIP2,MIDDLE_FINGER_DIP2,MIDDLE_FINGER_TIP2,RING_FINGER_PIP2,RING_FINGER_DIP2,RING_FINGER_TIP2,RING_FINGER_MCP2,PINKY_MCP2,PINKY_PIP2,PINKY_DIP2,PINKY_TIP2
0,"x: 235.50091552734375
y: 273.99761962890625
z: -0.11896376311779022
visibility: 0.9998575448989868
","x: 235.38088989257812
y: 266.94781494140625
z: -0.10930392891168594
visibility: 0.999484658241272
","x: 235.20065307617188
y: 266.2284240722656
z: -0.10933981835842133
visibility: 0.9994127750396729
","x: 235.0378875732422
y: 265.49505615234375
z: -0.10934422165155411
visibility: 0.9995829463005066
","x: 234.74879455566406
y: 267.1014404296875
z: -0.13802474737167358
visibility: 0.9996529817581177
","x: 234.11256408691406
y: 266.54345703125
z: -0.13804149627685547
visibility: 0.9996572732925415
","x: 233.47874450683594
y: 265.9892578125
z: -0.13807840645313263
visibility: 0.9996873140335083
","x: 231.08761596679688
y: 262.8793640136719
z: -0.042172037065029144
visibility: 0.9983171224594116
","x: 229.07101440429688
y: 263.6756591796875
z: -0.17197047173976898
visibility: 0.9994127750396729
","x: 233.4107666015625
y: 277.5936279296875
z: -0.08897493779659271
visibility: 0.999700665473938
","x: 232.34616088867188
y: 277.58868408203125
z: -0.12668216228485107
visibility: 0.9997923970222473
","x: 232.37017822265625
y: 292.10443115234375
z: 0.054929040372371674
visibility: 0.9999586343765259
","x: 211.93057250976562
y: 291.80401611328125
z: -0.20858526229858398
visibility: 0.9999583959579468
","x: 237.31582641601562
y: 338.0652160644531
z: 0.11113719642162323
visibility: 0.8703646659851074
","x: 221.93907165527344
y: 340.8597106933594
z: -0.24568483233451843
visibility: 0.9946410655975342
","x: 244.82260131835938
y: 381.07647705078125
z: 0.04335303604602814
visibility: 0.9525969624519348
","x: 237.00454711914062
y: 379.9554443359375
z: -0.25610533356666565
visibility: 0.9901072978973389
","x: 247.2200469970703
y: 392.392333984375
z: 0.03460870683193207
visibility: 0.9237233400344849
","x: 241.22808837890625
y: 395.02447509765625
z: -0.28836092352867126
visibility: 0.9822165966033936
","x: 247.24005126953125
y: 391.870849609375
z: 0.005732639692723751
visibility: 0.9309943318367004
","x: 242.79676818847656
y: 392.6838684082031
z: -0.29076269268989563
visibility: 0.9812310338020325
","x: 246.06935119628906
y: 387.8921813964844
z: 0.029345478862524033
visibility: 0.9141790270805359
","x: 241.67095947265625
y: 387.96612548828125
z: -0.25585052371025085
visibility: 0.9613170027732849
","x: 218.97979736328125
y: 387.439208984375
z: 0.07730849832296371
visibility: 0.9994370341300964
","x: 210.5628662109375
y: 387.1426696777344
z: -0.07728397101163864
visibility: 0.999546468257904
","x: 213.05813598632812
y: 458.3194274902344
z: 0.10464199632406235
visibility: 0.7386787533760071
","x: 220.6702880859375
y: 460.93389892578125
z: -0.11371097713708878
visibility: 0.9888312816619873
","x: 198.5807647705078
y: 524.4263305664062
z: 0.18244433403015137
visibility: 0.9172988533973694
","x: 222.889892578125
y: 532.9174194335938
z: -0.07596713304519653
visibility: 0.9955724477767944
","x: 192.27598571777344
y: 536.0311279296875
z: 0.18562288582324982
visibility: 0.9167575240135193
","x: 221.5404815673828
y: 543.696044921875
z: -0.07653257250785828
visibility: 0.9800547361373901
","x: 213.62127685546875
y: 542.6353759765625
z: 0.12534721195697784
visibility: 0.9390640258789062
","x: 224.74545288085938
y: 552.9060668945312
z: -0.15729714930057526
visibility: 0.9927636981010437
",,,,,,,,,,,,,,,,,,,,,,,,,,,,,,,,,,,,,,,,,,
1,"x: 227.94639587402344
y: 276.4142150878906
z: -0.2325013428926468
visibility: 0.9998711347579956
","x: 229.33921813964844
y: 271.21087646484375
z: -0.2110178917646408
visibility: 0.9995351433753967
","x: 229.76901245117188
y: 271.796142578125
z: -0.21105866134166718
visibility: 0.9994705319404602
","x: 230.20440673828125
y: 272.36322021484375
z: -0.2110559195280075
visibility: 0.99962317943573
","x: 227.07481384277344
y: 268.9224548339844
z: -0.22901205718517303
visibility: 0.9996865391731262
","x: 225.77899169921875
y: 267.8561096191406
z: -0.22903680801391602
visibility: 0.9996903538703918
","x: 224.40948486328125
y: 266.80828857421875
z: -0.22906407713890076
visibility: 0.9997168183326721
","x: 227.63504028320312
y: 274.7940368652344
z: -0.09111879020929337
visibility: 0.9984826445579529
","x: 219.06150817871094
y: 265.35382080078125
z: -0.17857129871845245
visibility: 0.9994702935218811
","x: 226.35214233398438
y: 283.3914794921875
z: -0.18758441507816315
visibility: 0.9997300505638123
","x: 222.98611450195312
y: 280.6673889160156
z: -0.21261641383171082
visibility: 0.9998129606246948
","x: 224.85252380371094
y: 320.56817626953125
z: -0.0023022941313683987
visibility: 0.9999611973762512
","x: 194.34390258789062
y: 291.8363037109375
z: -0.15977612137794495
visibility: 0.9999623894691467
","x: 220.39309692382812
y: 366.8359680175781
z: -0.018729738891124725
visibility: 0.868618905544281
","x: 169.03005981445312
y: 322.1759033203125
z: -0.2063426971435547
visibility: 0.9949044585227966
","x: 228.64529418945312
y: 395.61474609375
z: -0.19912561774253845
visibility: 0.9521872401237488
","x: 161.1779327392578
y: 363.37957763671875
z: -0.3185326159000397
visibility: 0.9902626872062683
","x: 232.50888061523438
y: 403.9846496582031
z: -0.23423786461353302
visibility: 0.9250916838645935
","x: 156.0152130126953
y: 375.19586181640625
z: -0.35785916447639465
visibility: 0.9823309183120728
","x: 233.27243041992188
y: 401.21148681640625
z: -0.2643950283527374
visibility: 0.9321555495262146
","x: 159.17137145996094
y: 377.05810546875
z: -0.37428921461105347
visibility: 0.9815030097961426
","x: 231.3691864013672
y: 398.2132263183594
z: -0.2169385701417923
visibility: 0.9152305126190186
","x: 161.67909240722656
y: 373.9815979003906
z: -0.3279670178890228
visibility: 0.9627235531806946
","x: 203.98028564453125
y: 401.49761962890625
z: 0.07645916193723679
visibility: 0.999452531337738
","x: 187.97218322753906
y: 397.120849609375
z: -0.0764496773481369
visibility: 0.9995843172073364
","x: 213.2454071044922
y: 466.3175964355469
z: 0.1059359684586525
visibility: 0.7560226917266846
","x: 198.85943603515625
y: 469.6278381347656
z: -0.19111347198486328
visibility: 0.989399254322052
","x: 197.80209350585938
y: 527.2105102539062
z: 0.26010850071907043
visibility: 0.91811203956604
","x: 186.4658203125
y: 547.8565673828125
z: -0.12317254394292831
visibility: 0.9954360723495483
","x: 191.8001708984375
y: 536.819091796875
z: 0.27012497186660767
visibility: 0.9134265780448914
","x: 180.986328125
y: 559.5740356445312
z: -0.12416116893291473
visibility: 0.9758530259132385
","x: 212.33349609375
y: 545.2697143554688
z: 0.19934752583503723
visibility: 0.9396109580993652
","x: 203.09986877441406
y: 564.9716796875
z: -0.2505974769592285
visibility: 0.9926502704620361
",,,,,,,,,,,,,,,,,,,,,,,,,,,,,,,,,,,,,,,,,,
2,"x: 213.58212280273438
y: 263.3185119628906
z: -0.2125455141067505
visibility: 0.999851405620575
","x: 216.46926879882812
y: 257.6062316894531
z: -0.19576308131217957
visibility: 0.999519944190979
","x: 218.21560668945312
y: 258.95904541015625
z: -0.19583557546138763
visibility: 0.9994555115699768
","x: 219.91488647460938
y: 260.5428466796875
z: -0.19583718478679657
visibility: 0.9995604753494263
","x: 212.11911010742188
y: 255.7394561767578
z: -0.19892720878124237
visibility: 0.9996795058250427
","x: 210.70162963867188
y: 255.554443359375
z: -0.1989392787218094
visibility: 0.9996809959411621
","x: 209.00303649902344
y: 255.3197021484375
z: -0.19902166724205017
visibility: 0.9997073411941528
","x: 222.33639526367188
y: 270.1817932128906
z: -0.09184182435274124
visibility: 0.9983957409858704
","x: 206.74447631835938
y: 259.48016357421875
z: -0.09983731806278229
visibility: 0.9994813203811646
","x: 215.8863525390625
y: 273.7607116699219
z: -0.1734975278377533
visibility: 0.9997140765190125
","x: 210.19473266601562
y: 270.94891357421875
z: -0.17834161221981049
visibility: 0.9998210668563843
","x: 224.88502502441406
y: 311.3290710449219
z: -0.02563427947461605
visibility: 0.9998236298561096
","x: 187.88037109375
y: 291.7302551269531
z: -0.05120469257235527
visibility: 0.999965488910675
","x: 214.23321533203125
y: 352.435302734375
z: -0.08577350527048111
visibility: 0.8055757284164429
","x: 166.47683715820312
y: 323.5050964355469
z: -0.018404420465230942
visibility: 0.9939562678337097
","x: 202.80758666992188
y: 361.94964599609375
z: -0.2709452509880066
visibility: 0.8760969638824463
","x: 150.79261779785156
y: 353.404052734375
z: -0.08317223936319351
visibility: 0.9873271584510803
","x: 199.71514892578125
y: 368.24688720703125
z: -0.30746951699256897
visibility: 0.8618000745773315
","x: 144.3409423828125
y: 363.713623046875
z: -0.10607533156871796
visibility: 0.9781067371368408
","x: 199.8629608154297
y: 364.7124938964844
z: -0.3237169682979584
visibility: 0.869351327419281
","x: 146.54180908203125
y: 366.96160888671875
z: -0.13273374736309052
visibility: 0.9776557087898254
","x: 199.916748046875
y: 362.667724609375
z: -0.2825044095516205
visibility: 0.8483892679214478
","x: 149.2373809814453
y: 364.009033203125
z: -0.09538611769676208
visibility: 0.9595264196395874
","x: 203.51718139648438
y: 400.1870422363281
z: 0.05020856857299805
visibility: 0.9993705153465271
","x: 184.60153198242188
y: 396.2366943359375
z: -0.050337303429841995
visibility: 0.9996183514595032
","x: 213.3999481201172
y: 472.6910400390625
z: 0.07676450163125992
visibility: 0.7694647312164307
","x: 190.71200561523438
y: 473.918212890625
z: -0.17924483120441437
visibility: 0.9901439547538757
","x: 199.0730438232422
y: 523.3665771484375
z: 0.2899363934993744
visibility: 0.907620906829834
","x: 182.15760803222656
y: 552.8312377929688
z: -0.13092875480651855
visibility: 0.9956333637237549
","x: 193.6815643310547
y: 528.2872924804688
z: 0.30716681480407715
visibility: 0.896821916103363
","x: 177.05706787109375
y: 566.0692138671875
z: -0.13327093422412872
visibility: 0.96687912940979
","x: 211.96389770507812
y: 545.7796020507812
z: 0.2407480776309967
visibility: 0.9343153238296509
","x: 197.60289001464844
y: 571.3671264648438
z: -0.2660619020462036
visibility: 0.9927363395690918
",,,,,,,,,,,,,,,,,,,,,,,,,,,,,,,,,,,,,,,,,,
3,"x: 207.00228881835938
y: 259.83526611328125
z: -0.2230108082294464
visibility: 0.9998659491539001
","x: 209.63841247558594
y: 253.5630645751953
z: -0.20487923920154572
visibility: 0.9995673894882202
","x: 211.226318359375
y: 254.238525390625
z: -0.20493841171264648
visibility: 0.9995094537734985
","x: 212.90260314941406
y: 255.1778564453125
z: -0.20495867729187012
visibility: 0.9996036887168884
","x: 205.2323455810547
y: 252.8147735595703
z: -0.20423689484596252
visibility: 0.9997110366821289
","x: 203.5950927734375
y: 252.80645751953125
z: -0.2042040377855301
visibility: 0.9997122287750244
","x: 202.07162475585938
y: 252.69671630859375
z: -0.20423157513141632
visibility: 0.9997356534004211
","x: 216.57623291015625
y: 264.23236083984375
z: -0.09539400041103363
visibility: 0.9985547065734863
","x: 200.71881103515625
y: 256.7569274902344
z: -0.09238214790821075
visibility: 0.9995325803756714
","x: 209.59323120117188
y: 269.2696533203125
z: -0.18207260966300964
visibility: 0.9997420907020569
","x: 204.20779418945312
y: 267.3810729980469
z: -0.18140064179897308
visibility: 0.9998387098312378
","x: 222.60704040527344
y: 307.07159423828125
z: -0.02901671826839447
visibility: 0.999837338924408
","x: 186.5958251953125
y: 292.9885559082031
z: -0.03384755179286003
visibility: 0.9999685287475586
","x: 220.3279266357422
y: 332.3617248535156
z: -0.17319904267787933
visibility: 0.8208277225494385
","x: 179.6117706298828
y: 331.8999938964844
z: 0.035193320363759995
visibility: 0.977094829082489
","x: 219.34986877441406
y: 281.5550842285156
z: -0.4079732894897461
visibility: 0.884706974029541
","x: 177.6707763671875
y: 369.6643371582031
z: 0.025970350950956345
visibility: 0.948854923248291
","x: 217.92172241210938
y: 263.60467529296875
z: -0.45438843965530396
visibility: 0.8695375323295593
","x: 176.83436584472656
y: 382.9061279296875
z: 0.015534763224422932
visibility: 0.9358280301094055
","x: 218.00729370117188
y: 260.91375732421875
z: -0.45573854446411133
visibility: 0.8759421706199646
","x: 177.7967529296875
y: 385.8273620605469
z: -0.01084886584430933
visibility: 0.9347972869873047
","x: 217.64407348632812
y: 266.8680419921875
z: -0.41559702157974243
visibility: 0.8535723686218262
","x: 178.76377868652344
y: 381.13995361328125
z: 0.01622665673494339
visibility: 0.9133090972900391
","x: 205.07952880859375
y: 399.0875244140625
z: 0.038679104298353195
visibility: 0.9994252920150757
","x: 185.1375274658203
y: 395.23944091796875
z: -0.038678333163261414
visibility: 0.9996558427810669
","x: 211.09036254882812
y: 470.33697509765625
z: 0.13651658594608307
visibility: 0.7870491147041321
","x: 188.7478485107422
y: 472.4458312988281
z: -0.16013354063034058
visibility: 0.9910738468170166
","x: 201.07589721679688
y: 521.2529907226562
z: 0.38059988617897034
visibility: 0.908439040184021
","x: 181.20960998535156
y: 552.5339965820312
z: -0.12618304789066315
visibility: 0.9959840178489685
","x: 196.73593139648438
y: 525.3936767578125
z: 0.39984244108200073
visibility: 0.8926312923431396
","x: 176.65057373046875
y: 568.7279052734375
z: -0.13247272372245789
visibility: 0.967349648475647
","x: 209.9929962158203
y: 548.700927734375
z: 0.325049489736557
visibility: 0.9357869625091553
","x: 196.96078491210938
y: 570.1165161132812
z: -0.2725437879562378
visibility: 0.9932603240013123
",,,,,,,,,,,,,,,,,,,,,,,,,,,,,,,,,,,,,,,,,,
4,"x: 207.70120239257812
y: 262.44769287109375
z: -0.2817680239677429
visibility: 0.9998782277107239
","x: 210.44186401367188
y: 255.95855712890625
z: -0.26641666889190674
visibility: 0.9996090531349182
","x: 212.09190368652344
y: 256.347412109375
z: -0.2664964497089386
visibility: 0.9995571374893188
","x: 213.5125732421875
y: 256.8642578125
z: -0.26654931902885437
visibility: 0.9996417164802551
","x: 205.93487548828125
y: 255.33938598632812
z: -0.26507583260536194
visibility: 0.9997379779815674
","x: 204.5621795654297
y: 255.2476348876953
z: -0.2650556266307831
visibility: 0.999738335609436
","x: 203.0610809326172
y: 255.0704345703125
z: -0.26507869362831116
visibility: 0.9997584819793701
","x: 215.9019012451172
y: 263.4405517578125
z: -0.15240254998207092
visibility: 0.998695969581604
","x: 201.17340087890625
y: 257.6296081542969
z: -0.1146920919418335
visibility: 0.999575138092041
","x: 210.39889526367188
y: 270.6059875488281
z: -0.23756854236125946
visibility: 0.9997668862342834
","x: 204.55731201171875
y: 269.0697021484375
z: -0.23520509898662567
visibility: 0.9998539686203003
","x: 223.6669464111328
y: 307.7199401855469
z: -0.05470398813486099
visibility: 0.9998515248298645
","x: 187.06829833984375
y: 294.0083923339844
z: -0.07459705322980881
visibility: 0.9999709725379944
","x: 221.1220245361328
y: 350.5505676269531
z: -0.1040409654378891
visibility: 0.8173632025718689
","x: 180.09371948242188
y: 339.4658203125
z: -0.026484796777367592
visibility: 0.9729515910148621
","x: 225.07904052734375
y: 348.27264404296875
z: -0.3283810317516327
visibility: 0.8825809955596924
","x: 176.9652862548828
y: 384.74041748046875
z: -0.09839185327291489
visibility: 0.9357882142066956
","x: 220.73074340820312
y: 341.5160827636719
z: -0.37405526638031006
visibility: 0.8696457147598267
","x: 176.181640625
y: 398.500732421875
z: -0.12271881103515625
visibility: 0.9192700386047363
","x: 220.9881591796875
y: 328.46087646484375
z: -0.40357041358947754
visibility: 0.8767643570899963
","x: 177.13265991210938
y: 399.8638610839844
z: -0.15033754706382751
visibility: 0.9191455245018005
","x: 220.18995666503906
y: 332.54339599609375
z: -0.3462335467338562
visibility: 0.8522472381591797
","x: 178.11892700195312
y: 394.9258728027344
z: -0.11053895950317383
visibility: 0.8959264755249023
","x: 206.93370056152344
y: 397.2904968261719
z: 0.04138767719268799
visibility: 0.9994218945503235
","x: 187.54397583007812
y: 394.450439453125
z: -0.04134403169155121
visibility: 0.9996828436851501
","x: 209.57797241210938
y: 472.3082275390625
z: 0.09892485290765762
visibility: 0.7973136901855469
","x: 189.56964111328125
y: 474.1331787109375
z: -0.1490868180990219
visibility: 0.9917171001434326
","x: 201.05145263671875
y: 521.2805786132812
z: 0.29644376039505005
visibility: 0.9060519933700562
","x: 181.84158325195312
y: 553.5750732421875
z: -0.11369562149047852
visibility: 0.9959900975227356
","x: 196.1259765625
y: 526.9556274414062
z: 0.3101235032081604
visibility: 0.8876721262931824
","x: 177.81427001953125
y: 568.6333618164062
z: -0.11784831434488297
visibility: 0.9626389741897583
","x: 209.35787963867188
y: 550.3787841796875
z: 0.23346586525440216
visibility: 0.9326550364494324
","x: 196.85569763183594
y: 570.7880249023438
z: -0.25130483508110046
visibility: 0.9930769205093384
",,,,,,,,,,,,,,,,,,,,,,,,,,,,,,,,,,,,,,,,,,
5,"x: 209.0819854736328
y: 262.7032470703125
z: -0.39126306772232056
visibility: 0.9998899698257446
","x: 211.60792541503906
y: 256.60205078125
z: -0.3757205605506897
visibility: 0.9996463060379028
","x: 212.96511840820312
y: 256.97747802734375
z: -0.37573593854904175
visibility: 0.9995995759963989
","x: 214.3129119873047
y: 257.43145751953125
z: -0.3757651150226593
visibility: 0.9996753334999084
","x: 207.45799255371094
y: 255.8617401123047
z: -0.3781823217868805
visibility: 0.9997628927230835
","x: 206.08787536621094
y: 255.700439453125
z: -0.3782448470592499
visibility: 0.9997631907463074
","x: 204.80392456054688
y: 255.27635192871094
z: -0.37826111912727356
visibility: 0.99978107213974
","x: 215.9632568359375
y: 263.4289855957031
z: -0.25859493017196655
visibility: 0.9988212585449219
","x: 202.96913146972656
y: 259.20782470703125
z: -0.2688972055912018
visibility: 0.9996151924133301
","x: 211.56094360351562
y: 272.3456115722656
z: -0.3453025817871094
visibility: 0.9997894763946533
","x: 206.06211853027344
y: 271.022216796875
z: -0.34880420565605164
visibility: 0.9998681545257568
","x: 224.67425537109375
y: 307.5187072753906
z: -0.1466643512248993
visibility: 0.9998652338981628
","x: 187.7545166015625
y: 297.62579345703125
z: -0.17850452661514282
visibility: 0.9999735951423645
","x: 227.92880249023438
y: 352.669189453125
z: -0.11204572767019272
visibility: 0.8345699906349182
","x: 173.77841186523438
y: 345.7455139160156
z: -0.12603351473808289
visibility: 0.9751879572868347
","x: 236.0435791015625
y: 387.6351623535156
z: -0.22589607536792755
visibility: 0.8926339745521545
","x: 161.69834899902344
y: 387.12640380859375
z: -0.2193509042263031
visibility: 0.9409506320953369
","x: 236.26300048828125
y: 399.1021423339844
z: -0.2525491714477539
visibility: 0.8789967894554138
","x: 156.91098022460938
y: 400.06365966796875
z: -0.24574074149131775
visibility: 0.9244517087936401
","x: 235.14903259277344
y: 397.3345947265625
z: -0.2834962010383606
visibility: 0.8858188986778259
","x: 158.3679962158203
y: 400.7357177734375
z: -0.27786383032798767
visibility: 0.9245772361755371
","x: 234.2749786376953
y: 393.4492492675781
z: -0.24107861518859863
visibility: 0.8629348278045654
","x: 160.2794952392578
y: 396.751953125
z: -0.23426344990730286
visibility: 0.9029590487480164
","x: 210.468017578125
y: 396.609619140625
z: 0.03488369286060333
visibility: 0.9994117021560669
","x: 191.41793823242188
y: 393.9274597167969
z: -0.03491317480802536
visibility: 0.9997048377990723
","x: 211.77940368652344
y: 473.31488037109375
z: 0.056043852120637894
visibility: 0.8128711581230164
","x: 195.52383422851562
y: 471.6260986328125
z: -0.16347165405750275
visibility: 0.9919388890266418
","x: 200.8381805419922
y: 521.491455078125
z: 0.27277666330337524
visibility: 0.9044846296310425
","x: 186.76815795898438
y: 551.1115112304688
z: -0.11028914153575897
visibility: 0.9958250522613525
","x: 195.86685180664062
y: 527.1258544921875
z: 0.28502804040908813
visibility: 0.8803829550743103
","x: 183.1046600341797
y: 568.442138671875
z: -0.11719878017902374
visibility: 0.9550647139549255
","x: 209.58277893066406
y: 550.0887451171875
z: 0.21668501198291779
visibility: 0.9311005473136902
","x: 196.5898895263672
y: 569.188232421875
z: -0.24090024828910828
visibility: 0.9927875995635986
",,,,,,,,,,,,,,,,,,,,,,,,,,,,,,,,,,,,,,,,,,
6,"x: 209.39114379882812
y: 267.40020751953125
z: -0.3678906559944153
visibility: 0.9998987913131714
","x: 211.7596893310547
y: 260.49835205078125
z: -0.35494741797447205
visibility: 0.9996671676635742
","x: 213.1856231689453
y: 260.7137451171875
z: -0.3549647331237793
visibility: 0.9996265172958374
","x: 214.30224609375
y: 260.8521728515625
z: -0.35502898693084717
visibility: 0.999689519405365
","x: 207.5042724609375
y: 260.0162048339844
z: -0.35535791516304016
visibility: 0.9997768402099609
","x: 206.13430786132812
y: 260.05755615234375
z: -0.35539859533309937
visibility: 0.9997778534889221
","x: 204.79611206054688
y: 260.1540832519531
z: -0.35538119077682495
visibility: 0.9997931122779846
","x: 215.9915313720703
y: 265.1256103515625
z: -0.252281129360199
visibility: 0.998913049697876
","x: 202.39581298828125
y: 263.5150451660156
z: -0.25074535608291626
visibility: 0.9996472597122192
","x: 211.6356201171875
y: 276.8634338378906
z: -0.32707512378692627
visibility: 0.9998050332069397
","x: 206.3030548095703
y: 276.4516906738281
z: -0.32670965790748596
visibility: 0.9998785853385925
","x: 225.22598266601562
y: 303.129638671875
z: -0.17582707107067108
visibility: 0.9998729825019836
","x: 188.2782440185547
y: 302.22265625
z: -0.164037823677063
visibility: 0.9999721050262451
","x: 250.4010467529297
y: 307.1739501953125
z: -0.2661959230899811
visibility: 0.8502126932144165
","x: 170.95083618164062
y: 348.1355285644531
z: -0.09915865957736969
visibility: 0.9764687418937683
","x: 264.0479736328125
y: 301.0755310058594
z: -0.45240768790245056
visibility: 0.8958432674407959
","x: 157.2767791748047
y: 387.4388122558594
z: -0.1150839775800705
visibility: 0.9417190551757812
","x: 269.6407165527344
y: 291.9788818359375
z: -0.49076899886131287
visibility: 0.8714241981506348
","x: 151.84597778320312
y: 400.1156311035156
z: -0.12277884781360626
visibility: 0.918322741985321
","x: 266.8841552734375
y: 291.33526611328125
z: -0.5034483075141907
visibility: 0.8790283799171448
","x: 153.689208984375
y: 401.994873046875
z: -0.14952996373176575
visibility: 0.919448971748352
","x: 264.58807373046875
y: 294.80419921875
z: -0.4644189774990082
visibility: 0.8582708835601807
","x: 155.59103393554688
y: 398.3041687011719
z: -0.12541361153125763
visibility: 0.8991754651069641
","x: 214.42349243164062
y: 398.20733642578125
z: 0.00023890069860499352
visibility: 0.9994602203369141
","x: 192.91561889648438
y: 396.3936767578125
z: -0.00031211291207000613
visibility: 0.999721348285675
","x: 216.248291015625
y: 477.58294677734375
z: -0.010043718852102757
visibility: 0.8280584216117859
","x: 197.19497680664062
y: 470.8676452636719
z: 0.0008486128645017743
visibility: 0.9897641539573669
","x: 203.65155029296875
y: 517.4967041015625
z: 0.2663411796092987
visibility: 0.9067299962043762
","x: 196.4287109375
y: 528.162841796875
z: 0.2715291976928711
visibility: 0.9914790391921997
","x: 199.97259521484375
y: 521.9141235351562
z: 0.28103944659233093
visibility: 0.8726861476898193
","x: 196.5270538330078
y: 535.39501953125
z: 0.2945185601711273
visibility: 0.9408717751502991
","x: 208.0670928955078
y: 550.0211181640625
z: 0.18778762221336365
visibility: 0.9320123195648193
","x: 201.13670349121094
y: 555.7725219726562
z: 0.19255331158638
visibility: 0.9885625243186951
",,,,,,,,,,,,,,,,,,,,,,,,,,,,,,,,,,,,,,,,,,
7,"x: 211.50021362304688
y: 265.66827392578125
z: -0.3126494288444519
visibility: 0.9999068379402161
","x: 213.44296264648438
y: 258.73760986328125
z: -0.294162392616272
visibility: 0.9996890425682068
","x: 214.70623779296875
y: 258.809814453125
z: -0.29417067766189575
visibility: 0.9996533989906311
","x: 215.8716583251953
y: 258.8450012207031
z: -0.2941844165325165
visibility: 0.9997059106826782
","x: 209.73321533203125
y: 258.46148681640625
z: -0.29991260170936584
visibility: 0.9997939467430115
","x: 208.43597412109375
y: 258.4703369140625
z: -0.29993709921836853
visibility: 0.9997957348823547
","x: 207.1648712158203
y: 258.57708740234375
z: -0.2999407947063446
visibility: 0.9998088479042053
","x: 217.1002960205078
y: 263.0860290527344
z: -0.17805835604667664
visibility: 0.9989979267120361
","x: 204.29721069335938
y: 262.5815734863281
z: -0.20704765617847443
visibility: 0.9996791481971741
","x: 213.43043518066406
y: 274.1882629394531
z: -0.2672102153301239
visibility: 0.9998189806938171
","x: 208.8043975830078
y: 273.9822082519531
z: -0.2743802070617676
visibility: 0.9998892545700073
","x: 225.55552673339844
y: 289.40362548828125
z: -0.10127618163824081
visibility: 0.9998759031295776
","x: 190.76754760742188
y: 302.4407043457031
z: -0.12125259637832642
visibility: 0.9999671578407288
","x: 244.52322387695312
y: 257.0535888671875
z: -0.16596968472003937
visibility: 0.864844799041748
","x: 176.6979217529297
y: 349.84820556640625
z: -0.07033609598875046
visibility: 0.9782212376594543
","x: 251.09873962402344
y: 211.3404083251953
z: -0.3219839930534363
visibility: 0.9054700136184692
","x: 166.18389892578125
y: 390.7724304199219
z: -0.12930184602737427
visibility: 0.945131242275238
","x: 253.50918579101562
y: 203.4080352783203
z: -0.3654824197292328
visibility: 0.8813778758049011
","x: 161.93467712402344
y: 402.44439697265625
z: -0.14735358953475952
visibility: 0.9209257960319519
","x: 251.5908660888672
y: 202.28985595703125
z: -0.3720484972000122
visibility: 0.8880195021629333
","x: 163.99652099609375
y: 404.46160888671875
z: -0.17537450790405273
visibility: 0.9224915504455566
","x: 250.2071533203125
y: 203.97442626953125
z: -0.3319323658943176
visibility: 0.8693634867668152
","x: 165.83486938476562
y: 401.34527587890625
z: -0.14084115624427795
visibility: 0.9032859206199646
","x: 219.07691955566406
y: 397.12164306640625
z: 0.020670782774686813
visibility: 0.9995032548904419
","x: 197.99044799804688
y: 395.5639343261719
z: -0.02081279829144478
visibility: 0.9997366666793823
","x: 224.5982666015625
y: 475.32293701171875
z: -0.05058231204748154
visibility: 0.843791663646698
","x: 205.4614715576172
y: 471.25921630859375
z: -0.07671826332807541
visibility: 0.9890852570533752
","x: 205.1732177734375
y: 513.2871704101562
z: 0.23605899512767792
visibility: 0.9047086834907532
","x: 198.5814971923828
y: 526.2781982421875
z: 0.1432783454656601
visibility: 0.9871492981910706
","x: 200.46624755859375
y: 515.3402099609375
z: 0.2634485065937042
visibility: 0.8619953393936157
","x: 197.1591796875
y: 531.69287109375
z: 0.1620616912841797
visibility: 0.9257128238677979
","x: 208.41229248046875
y: 547.4993286132812
z: 0.18004712462425232
visibility: 0.929704487323761
","x: 202.93826293945312
y: 554.162353515625
z: 0.061253130435943604
visibility: 0.9840996861457825
",,,,,,,,,,,,,,,,,,,,,,,,,,,,,,,,,,,,,,,,,,
8,"x: 213.47781372070312
y: 259.8101501464844
z: -0.2902911305427551
visibility: 0.9999155402183533
","x: 215.16464233398438
y: 253.17726135253906
z: -0.2708889842033386
visibility: 0.9997167587280273
","x: 216.15261840820312
y: 253.11631774902344
z: -0.27088552713394165
visibility: 0.9996839165687561
","x: 216.88250732421875
y: 253.07687377929688
z: -0.270877867937088
visibility: 0.9997289776802063
","x: 211.9350128173828
y: 253.06759643554688
z: -0.2768450081348419
visibility: 0.999813437461853
","x: 210.7102508544922
y: 252.90574645996094
z: -0.2768876850605011
visibility: 0.9998151063919067
","x: 209.451904296875
y: 252.6817169189453
z: -0.2769039571285248
visibility: 0.999826967716217
","x: 218.3135223388672
y: 256.05596923828125
z: -0.15479375422000885
visibility: 0.9990900754928589
","x: 206.56201171875
y: 255.3732147216797
z: -0.18443389236927032
visibility: 0.9997106194496155
","x: 214.818115234375
y: 266.9288330078125
z: -0.24425239861011505
visibility: 0.9998339414596558
","x: 210.522216796875
y: 266.82464599609375
z: -0.25229060649871826
visibility: 0.999899685382843
","x: 226.8712921142578
y: 278.14752197265625
z: -0.07087917625904083
visibility: 0.999870777130127
","x: 193.12347412109375
y: 296.4011535644531
z: -0.10969316959381104
visibility: 0.9999690055847168
","x: 239.90184020996094
y: 231.48431396484375
z: -0.1093897596001625
visibility: 0.8778977990150452
","x: 180.50619506835938
y: 347.81182861328125
z: -0.07358504831790924
visibility: 0.9798622727394104
","x: 222.01441955566406
y: 207.38565063476562
z: -0.13732130825519562
visibility: 0.9138333797454834
","x: 172.49261474609375
y: 388.34619140625
z: -0.12284467369318008
visibility: 0.9488866925239563
","x: 216.99378967285156
y: 202.16111755371094
z: -0.16834035515785217
visibility: 0.8886216282844543
","x: 173.07196044921875
y: 400.63232421875
z: -0.14271391928195953
visibility: 0.9250791072845459
","x: 215.62741088867188
y: 200.7734832763672
z: -0.16422587633132935
visibility: 0.8938391208648682
","x: 174.3998565673828
y: 401.91363525390625
z: -0.1661096066236496
visibility: 0.9264729619026184
","x: 216.74400329589844
y: 203.13795471191406
z: -0.14040231704711914
visibility: 0.8767217993736267
","x: 174.0150604248047
y: 398.49920654296875
z: -0.13186022639274597
visibility: 0.9078409075737
","x: 221.9993133544922
y: 389.073486328125
z: 0.027998697012662888
visibility: 0.9995344877243042
","x: 202.54864501953125
y: 388.73638916015625
z: -0.02798800729215145
visibility: 0.9997544884681702
","x: 241.4678497314453
y: 460.3065185546875
z: -0.011944218538701534
visibility: 0.8587120175361633
","x: 205.555419921875
y: 465.46063232421875
z: -0.09150181710720062
visibility: 0.9899671077728271
","x: 224.3942413330078
y: 507.689697265625
z: 0.221104234457016
visibility: 0.9110724925994873
","x: 199.576416015625
y: 530.412841796875
z: 0.044511012732982635
visibility: 0.9881932139396667
","x: 217.24415588378906
y: 513.8355712890625
z: 0.24170538783073425
visibility: 0.8707461357116699
","x: 197.543212890625
y: 538.875
z: 0.052098460495471954
visibility: 0.9300496578216553
","x: 236.53121948242188
y: 541.3619384765625
z: 0.1709137260913849
visibility: 0.9338824152946472
","x: 208.97653198242188
y: 555.2540893554688
z: -0.07069655507802963
visibility: 0.9851599335670471
",,,,,,,,,,,,,,,,,,,,,,,,,,,,,,,,,,,,,,,,,,
9,"x: 215.93353271484375
y: 255.090576171875
z: -0.28963083028793335
visibility: 0.9999232888221741
","x: 218.41383361816406
y: 248.367919921875
z: -0.2730478346347809
visibility: 0.9997411370277405
","x: 219.9503631591797
y: 248.16110229492188
z: -0.27306246757507324
visibility: 0.9997112154960632
","x: 221.34083557128906
y: 247.9768524169922
z: -0.2730496823787689
visibility: 0.9997497200965881
","x: 214.41050720214844
y: 248.43214416503906
z: -0.2750309109687805
visibility: 0.9998303055763245
","x: 212.9420166015625
y: 248.30178833007812
z: -0.2750639319419861
visibility: 0.9998318552970886
","x: 211.58641052246094
y: 248.15472412109375
z: -0.27506375312805176
visibility: 0.9998425245285034
","x: 223.91357421875
y: 250.99798583984375
z: -0.1605253964662552
visibility: 0.9991710782051086
","x: 210.2050323486328
y: 250.74151611328125
z: -0.1747109591960907
visibility: 0.9997383952140808
","x: 218.16256713867188
y: 261.6861267089844
z: -0.24596571922302246
visibility: 0.9998469948768616
","x: 213.49423217773438
y: 261.33294677734375
z: -0.2491796463727951
visibility: 0.9999086260795593
","x: 231.76654052734375
y: 274.8322448730469
z: -0.09410984814167023
visibility: 0.9998759627342224
","x: 198.78878784179688
y: 288.8187255859375
z: -0.08997160196304321
visibility: 0.9999712109565735
","x: 242.451416015625
y: 230.86936950683594
z: -0.16303201019763947
visibility: 0.8899035453796387
","x: 187.55514526367188
y: 339.6663818359375
z: -0.04650019854307175
visibility: 0.9810186624526978
","x: 220.67393493652344
y: 207.26260375976562
z: -0.2603164315223694
visibility: 0.9219018816947937
","x: 185.50665283203125
y: 386.40374755859375
z: -0.1026388630270958
visibility: 0.9519307613372803
","x: 215.43441772460938
y: 203.2222137451172
z: -0.30064186453819275
visibility: 0.8969742059707642
","x: 181.9533233642578
y: 398.51483154296875
z: -0.1248212456703186
visibility: 0.9281882047653198
","x: 214.21299743652344
y: 202.62037658691406
z: -0.2942882180213928
visibility: 0.9012612104415894
","x: 182.6558380126953
y: 399.7320861816406
z: -0.14820584654808044
visibility: 0.9295107126235962
","x: 215.3393096923828
y: 204.88304138183594
z: -0.26315489411354065
visibility: 0.8852454423904419
","x: 184.704345703125
y: 396.6873779296875
z: -0.11231867223978043
visibility: 0.9110102653503418
","x: 227.4755096435547
y: 384.2554931640625
z: 0.02466690167784691
visibility: 0.9995705485343933
","x: 207.06405639648438
y: 384.7012939453125
z: -0.024748967960476875
visibility: 0.9997750520706177
","x: 245.75808715820312
y: 455.0622253417969
z: 0.015169993042945862
visibility: 0.8721816539764404
","x: 206.35789489746094
y: 460.83087158203125
z: -0.08180493861436844
visibility: 0.9908759593963623
","x: 248.3560791015625
y: 508.93756103515625
z: 0.2005181759595871
visibility: 0.919219970703125
","x: 199.8083038330078
y: 532.0280151367188
z: 0.02205580286681652
visibility: 0.9892287254333496
","x: 243.73875427246094
y: 521.7505493164062
z: 0.2111283242702484
visibility: 0.8811580538749695
","x: 197.82595825195312
y: 541.6790161132812
z: 0.025934886187314987
visibility: 0.9333676695823669
","x: 263.2932434082031
y: 541.2207641601562
z: 0.11425085365772247
visibility: 0.9395800232887268
","x: 209.78965759277344
y: 555.1883544921875
z: -0.10267724841833115
visibility: 0.9862787127494812
",,,,,,,,,,,,,,,,,,,,,,,,,,,,,,,,,,,,,,,,,,
10,"x: 223.9079132080078
y: 257.32745361328125
z: -0.2873111665248871
visibility: 0.9999299049377441
","x: 226.73126220703125
y: 250.56382751464844
z: -0.27262192964553833
visibility: 0.9997608661651611
","x: 228.23031616210938
y: 250.4122772216797
z: -0.27260667085647583
visibility: 0.9997332096099854
","x: 229.56871032714844
y: 250.28692626953125
z: -0.2726038098335266
visibility: 0.9997662901878357
","x: 222.0424346923828
y: 250.41500854492188
z: -0.27604398131370544
visibility: 0.9998437762260437
","x: 220.66355895996094
y: 250.19903564453125
z: -0.2760772109031677
visibility: 0.9998456835746765
","x: 219.3211212158203
y: 249.98541259765625
z: -0.276077002286911
visibility: 0.9998558163642883
","x: 231.30795288085938
y: 252.4121856689453
z: -0.15811382234096527
visibility: 0.9992399215698242
","x: 218.27700805664062
y: 251.27188110351562
z: -0.17475196719169617
visibility: 0.999762237071991
","x: 226.51414489746094
y: 263.77728271484375
z: -0.24157461524009705
visibility: 0.9998577237129211
","x: 221.2214813232422
y: 263.4454040527344
z: -0.24660217761993408
visibility: 0.9999158978462219
","x: 240.31680297851562
y: 275.53070068359375
z: -0.08333773910999298
visibility: 0.9998804330825806
","x: 205.40208435058594
y: 284.78497314453125
z: -0.07782444357872009
visibility: 0.9999710917472839
","x: 256.2096862792969
y: 240.65591430664062
z: -0.16146932542324066
visibility: 0.9006723761558533
","x: 196.98692321777344
y: 335.1653747558594
z: -0.03522326797246933
visibility: 0.9817160367965698
","x: 232.62759399414062
y: 212.9458770751953
z: -0.28887608647346497
visibility: 0.9283995628356934
","x: 190.7747039794922
y: 380.53411865234375
z: -0.09774191677570343
visibility: 0.9539751410484314
","x: 221.33615112304688
y: 208.02520751953125
z: -0.3282991349697113
visibility: 0.9000216722488403
","x: 186.92031860351562
y: 392.9244384765625
z: -0.1182781308889389
visibility: 0.9290193915367126
","x: 214.5688018798828
y: 210.05731201171875
z: -0.3194131553173065
visibility: 0.9030270576477051
","x: 187.13714599609375
y: 393.80548095703125
z: -0.14373129606246948
visibility: 0.9305570721626282
","x: 220.85806274414062
y: 213.76954650878906
z: -0.2910020053386688
visibility: 0.8867132663726807
","x: 189.35018920898438
y: 390.1943664550781
z: -0.10812534391880035
visibility: 0.91170734167099
","x: 235.14093017578125
y: 382.92681884765625
z: 0.0062956782057881355
visibility: 0.9995908737182617
","x: 213.6866455078125
y: 384.0745849609375
z: -0.00641481950879097
visibility: 0.9997807741165161
","x: 247.29360961914062
y: 455.4731750488281
z: -0.007905950769782066
visibility: 0.8847832679748535
","x: 208.73904418945312
y: 460.6814880371094
z: -0.04191495478153229
visibility: 0.9916505217552185
","x: 257.061767578125
y: 514.80908203125
z: 0.13578003644943237
visibility: 0.9270037412643433
","x: 200.70111083984375
y: 533.070556640625
z: 0.06650955975055695
visibility: 0.9901027679443359
","x: 254.66348266601562
y: 528.4627685546875
z: 0.14392636716365814
visibility: 0.8877105116844177
","x: 198.6920166015625
y: 543.1282958984375
z: 0.07086656987667084
visibility: 0.9329304695129395
","x: 263.0945129394531
y: 542.3406372070312
z: 0.02322525344789028
visibility: 0.9451137185096741
","x: 210.40463256835938
y: 555.37060546875
z: -0.06212417408823967
visibility: 0.987194299697876
",,,,,,,,,,,,,,,,,,,,,,,,,,,,,,,,,,,,,,,,,,
11,"x: 231.22242736816406
y: 260.2320556640625
z: -0.325206458568573
visibility: 0.9999343156814575
","x: 233.8623809814453
y: 252.82484436035156
z: -0.3139929473400116
visibility: 0.999771237373352
","x: 235.2172393798828
y: 252.33055114746094
z: -0.31395992636680603
visibility: 0.9997445940971375
","x: 236.38380432128906
y: 251.8961944580078
z: -0.3139696419239044
visibility: 0.999770998954773
","x: 229.15003967285156
y: 253.18212890625
z: -0.3163052499294281
visibility: 0.9998518824577332
","x: 227.371337890625
y: 253.0233612060547
z: -0.31634849309921265
visibility: 0.9998541474342346
","x: 225.94932556152344
y: 252.73751831054688
z: -0.31633591651916504
visibility: 0.9998641610145569
","x: 238.1810760498047
y: 253.30810546875
z: -0.20579838752746582
visibility: 0.9992848038673401
","x: 225.5709686279297
y: 251.706298828125
z: -0.21554911136627197
visibility: 0.9997805953025818
","x: 234.15499877929688
y: 264.607421875
z: -0.28059473633766174
visibility: 0.9998568892478943
","x: 228.7176971435547
y: 266.0537109375
z: -0.2835787832736969
visibility: 0.9999170899391174
","x: 248.7792510986328
y: 276.2405700683594
z: -0.1232777088880539
visibility: 0.9998753070831299
","x: 214.98069763183594
y: 286.38134765625
z: -0.08733103424310684
visibility: 0.9999685287475586
","x: 263.7666015625
y: 240.77569580078125
z: -0.20413291454315186
visibility: 0.9104850888252258
","x: 203.8479766845703
y: 335.8104248046875
z: -0.05903961509466171
visibility: 0.9825437664985657
","x: 239.16787719726562
y: 213.34632873535156
z: -0.32081031799316406
visibility: 0.9348356127738953
","x: 194.2983856201172
y: 380.01409912109375
z: -0.1117558628320694
visibility: 0.9563277959823608
","x: 231.24095153808594
y: 209.08233642578125
z: -0.3566107153892517
visibility: 0.9053872227668762
","x: 190.39913940429688
y: 391.94464111328125
z: -0.12843607366085052
visibility: 0.9302740097045898
","x: 227.42221069335938
y: 210.67160034179688
z: -0.34750425815582275
visibility: 0.9076167345046997
","x: 190.8025360107422
y: 392.652099609375
z: -0.15494465827941895
visibility: 0.9320617914199829
","x: 231.0780487060547
y: 214.1903533935547
z: -0.3224632143974304
visibility: 0.891757071018219
","x: 192.76165771484375
y: 389.3747253417969
z: -0.12233040481805801
visibility: 0.9135840535163879
","x: 241.03494262695312
y: 382.435791015625
z: 0.0011517093516886234
visibility: 0.999603807926178
","x: 220.20118713378906
y: 382.6741027832031
z: -0.001260293647646904
visibility: 0.9997851252555847
","x: 249.64295959472656
y: 454.3822937011719
z: -0.0163863617926836
visibility: 0.8960925936698914
","x: 211.8090057373047
y: 456.1185302734375
z: -0.022698108106851578
visibility: 0.9923540353775024
","x: 256.7569580078125
y: 518.3553466796875
z: 0.07114685326814651
visibility: 0.9340224266052246
","x: 202.20240783691406
y: 530.345947265625
z: 0.06429357826709747
visibility: 0.9909342527389526
","x: 254.8588409423828
y: 531.994140625
z: 0.07333843410015106
visibility: 0.8951196670532227
","x: 202.723388671875
y: 541.1394653320312
z: 0.06599792093038559
visibility: 0.9352410435676575
","x: 262.93927001953125
y: 542.77978515625
z: -0.041687943041324615
visibility: 0.9501023888587952
","x: 202.22634887695312
y: 550.572998046875
z: -0.05472366139292717
visibility: 0.9880900382995605
",,,,,,,,,,,,,,,,,,,,,,,,,,,,,,,,,,,,,,,,,,
12,"x: 230.5816650390625
y: 260.96856689453125
z: -0.30724698305130005
visibility: 0.9999346733093262
","x: 232.3375244140625
y: 252.92498779296875
z: -0.2956893742084503
visibility: 0.9997701048851013
","x: 233.675048828125
y: 252.85623168945312
z: -0.2956858277320862
visibility: 0.999741792678833
","x: 235.0249481201172
y: 252.65542602539062
z: -0.295676052570343
visibility: 0.9997618794441223
","x: 228.3431396484375
y: 254.6055908203125
z: -0.29527807235717773
visibility: 0.9998503923416138
","x: 226.9591827392578
y: 254.86595153808594
z: -0.2953193485736847
visibility: 0.9998515844345093
","x: 225.5982208251953
y: 254.9970245361328
z: -0.29531872272491455
visibility: 0.9998646378517151
","x: 237.38967895507812
y: 253.99234008789062
z: -0.1967853456735611
visibility: 0.9992941617965698
","x: 225.20657348632812
y: 253.8319549560547
z: -0.21486513316631317
visibility: 0.9997854828834534
","x: 233.23118591308594
y: 265.04437255859375
z: -0.26739510893821716
visibility: 0.9998360276222229
","x: 228.98509216308594
y: 267.2537536621094
z: -0.26630932092666626
visibility: 0.9999026656150818
","x: 248.8423309326172
y: 277.38836669921875
z: -0.13849470019340515
visibility: 0.9998541474342346
","x: 215.6422119140625
y: 290.7983703613281
z: -0.08946727216243744
visibility: 0.9999542832374573
","x: 256.957275390625
y: 236.10433959960938
z: -0.23449382185935974
visibility: 0.919095516204834
","x: 203.55087280273438
y: 337.77850341796875
z: -0.051037151366472244
visibility: 0.9825526475906372
","x: 233.8890380859375
y: 219.29623413085938
z: -0.33247295022010803
visibility: 0.9397512078285217
","x: 194.74339294433594
y: 380.2305603027344
z: -0.11778910458087921
visibility: 0.9574975967407227
","x: 226.17282104492188
y: 217.44039916992188
z: -0.370139479637146
visibility: 0.9070680141448975
","x: 190.13540649414062
y: 391.9977111816406
z: -0.13697993755340576
visibility: 0.9298598170280457
","x: 224.39315795898438
y: 217.68736267089844
z: -0.3633139729499817
visibility: 0.9084576964378357
","x: 190.76486206054688
y: 392.67919921875
z: -0.164066344499588
visibility: 0.9321161508560181
","x: 227.05516052246094
y: 220.11505126953125
z: -0.3352549374103546
visibility: 0.8921248316764832
","x: 192.91571044921875
y: 389.58453369140625
z: -0.129542276263237
visibility: 0.9140709638595581
","x: 242.40457153320312
y: 383.3865051269531
z: -0.008053620345890522
visibility: 0.9996188879013062
","x: 221.07666015625
y: 383.25811767578125
z: 0.00790361873805523
visibility: 0.9997848272323608
","x: 249.36953735351562
y: 454.7425842285156
z: -0.027974534779787064
visibility: 0.9061416983604431
","x: 211.4536590576172
y: 456.2763671875
z: -0.0065666986629366875
visibility: 0.9928784370422363
","x: 256.977294921875
y: 520.9655151367188
z: 0.05447172001004219
visibility: 0.9402838945388794
","x: 202.19927978515625
y: 528.288818359375
z: 0.08768679201602936
visibility: 0.9915661215782166
","x: 254.77598571777344
y: 533.4802856445312
z: 0.055961720645427704
visibility: 0.9012154936790466
","x: 203.0816650390625
y: 540.3334350585938
z: 0.09047217667102814
visibility: 0.9365751147270203
","x: 263.81304931640625
y: 543.0294189453125
z: -0.05993809178471565
visibility: 0.9544422626495361
","x: 196.08116149902344
y: 547.64306640625
z: -0.023641912266612053
visibility: 0.9886782169342041
",,,,,,,,,,,,,,,,,,,,,,,,,,,,,,,,,,,,,,,,,,
13,"x: 226.52137756347656
y: 256.09423828125
z: -0.24997153878211975
visibility: 0.9999339580535889
","x: 228.70912170410156
y: 250.3848876953125
z: -0.23704378306865692
visibility: 0.9997645020484924
","x: 230.17819213867188
y: 250.35337829589844
z: -0.23705630004405975
visibility: 0.9997410774230957
","x: 231.71066284179688
y: 250.2877655029297
z: -0.2370239496231079
visibility: 0.9997567534446716
","x: 225.22764587402344
y: 251.06947326660156
z: -0.22930243611335754
visibility: 0.9998409152030945
","x: 224.42904663085938
y: 251.28469848632812
z: -0.22931139171123505
visibility: 0.9998400211334229
","x: 223.88491821289062
y: 251.56146240234375
z: -0.22932299971580505
visibility: 0.9998564720153809
","x: 236.86221313476562
y: 253.2782745361328
z: -0.15732955932617188
visibility: 0.999298632144928
","x: 223.23097229003906
y: 254.03753662109375
z: -0.11854652315378189
visibility: 0.9997655749320984
","x: 231.64561462402344
y: 262.04803466796875
z: -0.22043390572071075
visibility: 0.9998239278793335
","x: 225.57623291015625
y: 263.0755310058594
z: -0.20884647965431213
visibility: 0.9998841881752014
","x: 244.01487731933594
y: 278.92138671875
z: -0.12716831266880035
visibility: 0.9998493194580078
","x: 211.14486694335938
y: 294.1072692871094
z: -0.03762977570295334
visibility: 0.9999457001686096
","x: 241.21499633789062
y: 239.326171875
z: -0.25760117173194885
visibility: 0.9264856576919556
","x: 201.46046447753906
y: 340.67633056640625
z: 0.009455975145101547
visibility: 0.9808223247528076
","x: 214.98245239257812
y: 255.46983337402344
z: -0.3877732753753662
visibility: 0.9421494603157043
","x: 194.73367309570312
y: 387.03106689453125
z: -0.05662098526954651
visibility: 0.9559691548347473
","x: 208.85830688476562
y: 261.1025390625
z: -0.42924612760543823
visibility: 0.9045279622077942
","x: 191.07984924316406
y: 399.126953125
z: -0.07717327773571014
visibility: 0.9254890084266663
","x: 207.53805541992188
y: 262.909423828125
z: -0.4264681339263916
visibility: 0.9054301381111145
","x: 191.5846710205078
y: 399.523193359375
z: -0.1052076444029808
visibility: 0.928316593170166
","x: 209.89662170410156
y: 262.0986022949219
z: -0.39173999428749084
visibility: 0.8852076530456543
","x: 193.4928436279297
y: 396.1758117675781
z: -0.06977460533380508
visibility: 0.9095250964164734
","x: 237.5322265625
y: 383.32196044921875
z: -0.012096721678972244
visibility: 0.999646008014679
","x: 216.474609375
y: 383.12542724609375
z: 0.011850060895085335
visibility: 0.9997985363006592
","x: 246.15045166015625
y: 454.0361022949219
z: -0.03742196410894394
visibility: 0.9152035117149353
","x: 210.74832153320312
y: 455.69140625
z: -0.03173531964421272
visibility: 0.9934350252151489
","x: 255.75430297851562
y: 522.3482666015625
z: 0.051842350512742996
visibility: 0.9460262656211853
","x: 200.4271697998047
y: 529.1576538085938
z: 0.06421123445034027
visibility: 0.9921854734420776
","x: 253.7142791748047
y: 534.3587646484375
z: 0.054136116057634354
visibility: 0.9042618870735168
","x: 202.34861755371094
y: 540.2887573242188
z: 0.06697557866573334
visibility: 0.9361478686332703
","x: 263.78375244140625
y: 543.6966552734375
z: -0.07270870357751846
visibility: 0.958543598651886
","x: 194.36917114257812
y: 549.4542236328125
z: -0.05177394673228264
visibility: 0.9893313646316528
",,,,,,,,,,,,,,,,,,,,,,,,,,,,,,,,,,,,,,,,,,
14,"x: 220.497314453125
y: 257.411865234375
z: -0.1023503765463829
visibility: 0.9999373555183411
","x: 223.3904266357422
y: 251.25079345703125
z: -0.08658384531736374
visibility: 0.9997817873954773
","x: 225.12808227539062
y: 251.076416015625
z: -0.08660970628261566
visibility: 0.9997586607933044
","x: 226.88877868652344
y: 250.89208984375
z: -0.08656982332468033
visibility: 0.9997732639312744
","x: 219.29818725585938
y: 251.85140991210938
z: -0.08215375244617462
visibility: 0.9998512864112854
","x: 217.99655151367188
y: 251.94190979003906
z: -0.08215908706188202
visibility: 0.9998488426208496
","x: 217.0367889404297
y: 252.07418823242188
z: -0.08211425691843033
visibility: 0.9998650550842285
","x: 231.1114044189453
y: 253.42984008789062
z: -0.0037466748617589474
visibility: 0.9993523359298706
","x: 216.65496826171875
y: 254.79916381835938
z: 0.01611037366092205
visibility: 0.9997748732566833
","x: 223.64834594726562
y: 263.41015625
z: -0.0726451650261879
visibility: 0.9998281598091125
","x: 218.17515563964844
y: 264.0960998535156
z: -0.0669107437133789
visibility: 0.9998870491981506
","x: 239.29534912109375
y: 279.12066650390625
z: -0.02443780191242695
visibility: 0.9998519420623779
","x: 206.6810302734375
y: 295.1467590332031
z: 0.05892757326364517
visibility: 0.9999388456344604
","x: 227.5962371826172
y: 284.2425231933594
z: -0.22250528633594513
visibility: 0.9321478009223938
","x: 197.01358032226562
y: 332.1392822265625
z: -0.025866860523819923
visibility: 0.9787691831588745
","x: 199.5974578857422
y: 296.8383483886719
z: -0.3188268542289734
visibility: 0.9470568299293518
","x: 191.01303100585938
y: 358.3935546875
z: -0.2053309977054596
visibility: 0.9578200578689575
","x: 193.37245178222656
y: 302.9778747558594
z: -0.3553674817085266
visibility: 0.9121991395950317
","x: 189.27835083007812
y: 363.2032470703125
z: -0.24973709881305695
visibility: 0.9286435842514038
","x: 191.7774200439453
y: 302.9959411621094
z: -0.35546791553497314
visibility: 0.9128757119178772
","x: 189.76809692382812
y: 361.01153564453125
z: -0.25855201482772827
visibility: 0.9313119649887085
","x: 193.90472412109375
y: 302.1523132324219
z: -0.32781240344047546
visibility: 0.8933160901069641
","x: 190.97457885742188
y: 358.6160583496094
z: -0.21476876735687256
visibility: 0.9133917689323425
","x: 235.0506134033203
y: 383.4964294433594
z: -0.009356891736388206
visibility: 0.9996757507324219
","x: 214.5033416748047
y: 383.9483947753906
z: 0.009183799847960472
visibility: 0.9998128414154053
","x: 245.7223358154297
y: 454.88275146484375
z: -0.043088220059871674
visibility: 0.9235093593597412
","x: 207.75045776367188
y: 456.3503723144531
z: -0.03597595542669296
visibility: 0.9939312934875488
","x: 255.00120544433594
y: 522.75
z: 0.06216095760464668
visibility: 0.9511851668357849
","x: 199.64450073242188
y: 529.845703125
z: 0.06923894584178925
visibility: 0.992796778678894
","x: 252.6547088623047
y: 534.2972412109375
z: 0.0666702464222908
visibility: 0.9082132577896118
","x: 201.84840393066406
y: 540.7145385742188
z: 0.0737154632806778
visibility: 0.9364151358604431
","x: 263.9186096191406
y: 544.0917358398438
z: -0.0463315024971962
visibility: 0.9622361063957214
","x: 193.261962890625
y: 549.8351440429688
z: -0.035656921565532684
visibility: 0.9899473786354065
",,,,,,,,,,,,,,,,,,,,,,,,,,,,,,,,,,,,,,,,,,
15,"x: 219.04388427734375
y: 258.12738037109375
z: -0.12137497961521149
visibility: 0.9999391436576843
","x: 222.60671997070312
y: 251.51593017578125
z: -0.10657031834125519
visibility: 0.9997965693473816
","x: 224.42662048339844
y: 251.5333709716797
z: -0.10657314956188202
visibility: 0.9997743368148804
","x: 226.1676025390625
y: 251.88955688476562
z: -0.1065388172864914
visibility: 0.9997885823249817
","x: 218.282958984375
y: 252.1621856689453
z: -0.10257233679294586
visibility: 0.9998573660850525
","x: 217.07757568359375
y: 251.96469116210938
z: -0.10256890207529068
visibility: 0.999851644039154
","x: 216.14764404296875
y: 251.76089477539062
z: -0.10250993072986603
visibility: 0.9998655319213867
","x: 230.1867218017578
y: 254.57908630371094
z: -0.018452635034918785
visibility: 0.9994074702262878
","x: 216.11343383789062
y: 254.20518493652344
z: -0.00137696776073426
visibility: 0.9997716546058655
","x: 221.72415161132812
y: 263.7848815917969
z: -0.08887099474668503
visibility: 0.9998337626457214
","x: 216.5439910888672
y: 264.7189025878906
z: -0.08411695808172226
visibility: 0.9998849034309387
","x: 237.63430786132812
y: 279.8327941894531
z: -0.03664756938815117
visibility: 0.9998520612716675
","x: 204.8457794189453
y: 289.32354736328125
z: 0.03079044818878174
visibility: 0.9999032616615295
","x: 229.21755981445312
y: 292.4951171875
z: -0.2221657931804657
visibility: 0.9383021593093872
","x: 193.26087951660156
y: 306.63201904296875
z: -0.13066807389259338
visibility: 0.9782693386077881
","x: 204.3694610595703
y: 288.8792724609375
z: -0.3656079173088074
visibility: 0.9520312547683716
","x: 189.71469116210938
y: 299.97900390625
z: -0.34408941864967346
visibility: 0.9595252871513367
","x: 198.2344207763672
y: 292.0311279296875
z: -0.4106111526489258
visibility: 0.9201332926750183
","x: 189.13491821289062
y: 299.0295715332031
z: -0.38961872458457947
visibility: 0.9308505058288574
","x: 196.67422485351562
y: 289.4253234863281
z: -0.40180128812789917
visibility: 0.9206570386886597
","x: 190.12037658691406
y: 295.2276916503906
z: -0.38569924235343933
visibility: 0.9331437349319458
","x: 198.76405334472656
y: 288.9291076660156
z: -0.36608678102493286
visibility: 0.9023803472518921
","x: 191.1226806640625
y: 296.510986328125
z: -0.3498874008655548
visibility: 0.9158143401145935
","x: 235.11968994140625
y: 383.7666015625
z: -0.006847519427537918
visibility: 0.9997008442878723
","x: 214.02267456054688
y: 385.2298583984375
z: 0.006734015885740519
visibility: 0.9998223185539246
","x: 251.94357299804688
y: 452.8088073730469
z: -0.06716495752334595
visibility: 0.9310141205787659
","x: 206.5518035888672
y: 456.86260986328125
z: -0.054023027420043945
visibility: 0.9944287538528442
","x: 257.8020935058594
y: 522.0240478515625
z: 0.03532706946134567
visibility: 0.9558260440826416
","x: 199.4793701171875
y: 530.1593627929688
z: 0.0578487329185009
visibility: 0.9933546781539917
","x: 253.57138061523438
y: 533.990234375
z: 0.03924619406461716
visibility: 0.9127134084701538
","x: 201.55416870117188
y: 540.6591186523438
z: 0.06314412504434586
visibility: 0.9372224807739258
","x: 268.0460205078125
y: 543.8268432617188
z: -0.07222957909107208
visibility: 0.9655481576919556
","x: 193.4632568359375
y: 550.50244140625
z: -0.05449853464961052
visibility: 0.9904852509498596
",,,,,,,,,,,,,,,,,,,,,,,,,,,,,,,,,,,,,,,,,,
16,"x: 222.72964477539062
y: 258.397216796875
z: -0.1621566116809845
visibility: 0.9999061822891235
","x: 226.0557403564453
y: 252.37657165527344
z: -0.14642733335494995
visibility: 0.9997786283493042
","x: 227.8202362060547
y: 252.93255615234375
z: -0.14646726846694946
visibility: 0.9997425675392151
","x: 229.46914672851562
y: 253.70623779296875
z: -0.1464873105287552
visibility: 0.9997585415840149
","x: 222.3643341064453
y: 252.46070861816406
z: -0.14676181972026825
visibility: 0.9998307228088379
","x: 221.17454528808594
y: 252.3040008544922
z: -0.14675405621528625
visibility: 0.9998125433921814
","x: 220.13369750976562
y: 252.0598602294922
z: -0.14673611521720886
visibility: 0.9998257756233215
","x: 232.65818786621094
y: 256.46826171875
z: -0.04056122526526451
visibility: 0.9993758797645569
","x: 218.27197265625
y: 254.1190948486328
z: -0.0434277318418026
visibility: 0.9997196793556213
","x: 224.8550262451172
y: 264.4324645996094
z: -0.12171496450901031
visibility: 0.9997736215591431
","x: 219.6378936767578
y: 265.0475158691406
z: -0.12277032434940338
visibility: 0.9998432993888855
","x: 239.16397094726562
y: 286.6710205078125
z: -0.02937447465956211
visibility: 0.9996610283851624
","x: 205.90603637695312
y: 286.5292053222656
z: 0.00041303434409201145
visibility: 0.9998319745063782
","x: 232.7923126220703
y: 312.23773193359375
z: -0.21595358848571777
visibility: 0.9104381203651428
","x: 197.90245056152344
y: 317.5875549316406
z: -0.16230258345603943
visibility: 0.9558737277984619
","x: 215.9605712890625
y: 302.5394592285156
z: -0.4328088164329529
visibility: 0.9291152358055115
","x: 202.9547119140625
y: 313.5873718261719
z: -0.38339102268218994
visibility: 0.9254122972488403
","x: 216.32003784179688
y: 302.5848083496094
z: -0.48477500677108765
visibility: 0.9013426899909973
","x: 202.79019165039062
y: 315.2762451171875
z: -0.4291467070579529
visibility: 0.8949626684188843
","x: 215.54608154296875
y: 298.7472839355469
z: -0.48518723249435425
visibility: 0.9023264646530151
","x: 202.24998474121094
y: 309.9421081542969
z: -0.43055135011672974
visibility: 0.8977181911468506
","x: 214.91439819335938
y: 299.4820556640625
z: -0.439835786819458
visibility: 0.8782371282577515
","x: 205.6092529296875
y: 312.7908630371094
z: -0.39053061604499817
visibility: 0.8775047063827515
","x: 240.4524383544922
y: 383.832763671875
z: -0.003419567598029971
visibility: 0.9997038841247559
","x: 218.67379760742188
y: 386.9764404296875
z: 0.003378927707672119
visibility: 0.9998117089271545
","x: 257.5028076171875
y: 453.5638427734375
z: -0.04336448758840561
visibility: 0.9376676082611084
","x: 209.48631286621094
y: 458.9744873046875
z: -0.03112681210041046
visibility: 0.9948286414146423
","x: 262.71051025390625
y: 525.83642578125
z: 0.07770135253667831
visibility: 0.9599560499191284
","x: 199.48489379882812
y: 530.2887573242188
z: 0.09328379482030869
visibility: 0.993861973285675
","x: 258.73101806640625
y: 537.2581176757812
z: 0.08325225859880447
visibility: 0.9164664149284363
","x: 201.4248504638672
y: 540.7225341796875
z: 0.09897072613239288
visibility: 0.9385010600090027
","x: 271.66412353515625
y: 548.1452026367188
z: -0.02878265082836151
visibility: 0.9683313965797424
","x: 193.751708984375
y: 550.747314453125
z: -0.010064534842967987
visibility: 0.9909074306488037
",,,,,,,,,,,,,,,,,,,,,,,,,,,,,,,,,,,,,,,,,,
17,"x: 231.30856323242188
y: 268.87548828125
z: -0.22649326920509338
visibility: 0.999897837638855
","x: 233.8422393798828
y: 262.6395568847656
z: -0.21075057983398438
visibility: 0.9997662901878357
","x: 235.20602416992188
y: 262.8437194824219
z: -0.2107379138469696
visibility: 0.9997224807739258
","x: 236.46156311035156
y: 263.16961669921875
z: -0.21077518165111542
visibility: 0.9997320771217346
","x: 229.981689453125
y: 262.04296875
z: -0.21985213458538055
visibility: 0.9998152256011963
","x: 228.76742553710938
y: 261.6317138671875
z: -0.21989789605140686
visibility: 0.9997989535331726
","x: 227.50721740722656
y: 261.2513122558594
z: -0.21993032097816467
visibility: 0.9998083710670471
","x: 237.8065948486328
y: 265.135498046875
z: -0.06215758994221687
visibility: 0.9993346929550171
","x: 225.44393920898438
y: 261.57684326171875
z: -0.12884975969791412
visibility: 0.9997130036354065
","x: 232.74252319335938
y: 275.92669677734375
z: -0.17397412657737732
visibility: 0.9997501969337463
","x: 228.4600067138672
y: 275.17120361328125
z: -0.18873657286167145
visibility: 0.9998292326927185
","x: 246.080078125
y: 297.5976867675781
z: -0.011878292076289654
visibility: 0.9996247291564941
","x: 212.06646728515625
y: 289.08917236328125
z: -0.08368061482906342
visibility: 0.9998412132263184
","x: 248.0751495361328
y: 344.6820068359375
z: -0.02735627070069313
visibility: 0.8525850176811218
","x: 214.42465209960938
y: 316.6643981933594
z: -0.1883900910615921
visibility: 0.9550276398658752
","x: 252.7644500732422
y: 369.9908447265625
z: -0.18782272934913635
visibility: 0.8706226944923401
","x: 223.73780822753906
y: 335.71319580078125
z: -0.36906832456588745
visibility: 0.9233744144439697
","x: 255.31271362304688
y: 381.051513671875
z: -0.22069653868675232
visibility: 0.8460641503334045
","x: 224.25770568847656
y: 342.41021728515625
z: -0.41107529401779175
visibility: 0.8912177085876465
","x: 254.62738037109375
y: 378.03485107421875
z: -0.2516302764415741
visibility: 0.8491685390472412
","x: 226.6277618408203
y: 339.41461181640625
z: -0.4150870740413666
visibility: 0.893744170665741
","x: 252.6096954345703
y: 373.5365295410156
z: -0.2049342393875122
visibility: 0.8251463174819946
","x: 227.06483459472656
y: 338.72320556640625
z: -0.3741127550601959
visibility: 0.8710882067680359
","x: 251.03147888183594
y: 385.8287353515625
z: 0.017397772520780563
visibility: 0.999697208404541
","x: 230.07595825195312
y: 390.6460266113281
z: -0.01724599301815033
visibility: 0.9998113512992859
","x: 265.8659362792969
y: 454.1020202636719
z: -0.03862496465444565
visibility: 0.9436354041099548
","x: 223.82489013671875
y: 463.5470886230469
z: -0.03915221244096756
visibility: 0.9951741695404053
","x: 262.450927734375
y: 526.503662109375
z: 0.08977322280406952
visibility: 0.9635390043258667
","x: 203.0546875
y: 528.8071899414062
z: 0.07612765580415726
visibility: 0.9943241477012634
","x: 257.0083312988281
y: 537.7516479492188
z: 0.09570837020874023
visibility: 0.921798586845398
","x: 203.0086669921875
y: 536.8908081054688
z: 0.08119498938322067
visibility: 0.940067708492279
","x: 272.6947326660156
y: 549.9271850585938
z: -0.013334453105926514
visibility: 0.97059166431427
","x: 194.98402404785156
y: 550.8147583007812
z: -0.03306994587182999
visibility: 0.9913824200630188
",,,,,,,,,,,,,,,,,,,,,,,,,,,,,,,,,,,,,,,,,,
18,"x: 236.97381591796875
y: 278.79705810546875
z: -0.1804153174161911
visibility: 0.9999026656150818
","x: 238.8196563720703
y: 271.6468200683594
z: -0.16488239169120789
visibility: 0.9997836351394653
","x: 240.09616088867188
y: 271.4956970214844
z: -0.16490420699119568
visibility: 0.9997421503067017
","x: 241.1600341796875
y: 271.50390625
z: -0.16493743658065796
visibility: 0.9997502565383911
","x: 234.97874450683594
y: 271.18792724609375
z: -0.17652574181556702
visibility: 0.9998270869255066
","x: 233.57989501953125
y: 270.7594909667969
z: -0.17652982473373413
visibility: 0.9998119473457336
","x: 232.3563995361328
y: 270.3297119140625
z: -0.17651212215423584
visibility: 0.9998189210891724
","x: 241.92552185058594
y: 272.43450927734375
z: -0.0438600592315197
visibility: 0.9993883371353149
","x: 229.58206176757812
y: 270.8957214355469
z: -0.09791865199804306
visibility: 0.9997372627258301
","x: 238.17782592773438
y: 285.0191650390625
z: -0.13244542479515076
visibility: 0.9997704029083252
","x: 234.0732879638672
y: 284.85504150390625
z: -0.14733827114105225
visibility: 0.9998432397842407
","x: 249.62274169921875
y: 297.35009765625
z: 0.021041080355644226
visibility: 0.999650776386261
","x: 216.73562622070312
y: 297.84771728515625
z: -0.08195380866527557
visibility: 0.9998524785041809
","x: 255.7852325439453
y: 328.4024353027344
z: -0.1081359013915062
visibility: 0.8153207898139954
","x: 220.52647399902344
y: 320.641845703125
z: -0.25699853897094727
visibility: 0.9582462310791016
","x: 259.89190673828125
y: 339.17669677734375
z: -0.414365291595459
visibility: 0.86128830909729
","x: 234.83505249023438
y: 339.123046875
z: -0.45479774475097656
visibility: 0.9289036393165588
","x: 262.49932861328125
y: 343.5357666015625
z: -0.47295063734054565
visibility: 0.845227837562561
","x: 235.5945587158203
y: 347.2950439453125
z: -0.5022870302200317
visibility: 0.8989859223365784
","x: 260.6392822265625
y: 340.66119384765625
z: -0.4873585104942322
visibility: 0.848821222782135
","x: 237.75274658203125
y: 341.3800048828125
z: -0.5011120438575745
visibility: 0.9012452960014343
","x: 258.6828918457031
y: 339.8193359375
z: -0.4296855032444
visibility: 0.8234665989875793
","x: 237.2350311279297
y: 339.17071533203125
z: -0.45801764726638794
visibility: 0.8789200186729431
","x: 256.5103759765625
y: 389.6337585449219
z: 0.02723661996424198
visibility: 0.9997244477272034
","x: 235.54141235351562
y: 398.12933349609375
z: -0.0270476583391428
visibility: 0.9998245239257812
","x: 270.5342712402344
y: 455.77276611328125
z: -0.11004109680652618
visibility: 0.9491188526153564
","x: 229.38987731933594
y: 471.14788818359375
z: -0.03265123441815376
visibility: 0.9954851865768433
","x: 262.2752990722656
y: 527.076171875
z: 0.0028142165392637253
visibility: 0.9667799472808838
","x: 207.3428192138672
y: 528.9282836914062
z: 0.1347019374370575
visibility: 0.9945091605186462
","x: 257.6433410644531
y: 538.1390991210938
z: 0.008779707364737988
visibility: 0.9273577332496643
","x: 205.99899291992188
y: 535.9685668945312
z: 0.14638765156269073
visibility: 0.9374167323112488
","x: 272.8843688964844
y: 550.5509033203125
z: -0.08802242577075958
visibility: 0.9727852940559387
","x: 196.0487823486328
y: 550.7777099609375
z: 0.05934559553861618
visibility: 0.9912809729576111
",,,,,,,,,,,,,,,,,,,,,,,,,,,,,,,,,,,,,,,,,,
19,"x: 239.09088134765625
y: 278.0154113769531
z: -0.33366042375564575
visibility: 0.9999038577079773
","x: 240.70570373535156
y: 270.74163818359375
z: -0.32328981161117554
visibility: 0.9997833371162415
","x: 242.11378479003906
y: 270.29168701171875
z: -0.323314368724823
visibility: 0.999738335609436
","x: 243.44091796875
y: 269.9396057128906
z: -0.32335418462753296
visibility: 0.9997453689575195
","x: 236.76376342773438
y: 270.9311218261719
z: -0.32294923067092896
visibility: 0.9998205304145813
","x: 235.4926300048828
y: 270.6357116699219
z: -0.3230023980140686
visibility: 0.9998030662536621
","x: 234.24319458007812
y: 270.33160400390625
z: -0.32303524017333984
visibility: 0.9998125433921814
","x: 245.16477966308594
y: 269.5971374511719
z: -0.21153077483177185
visibility: 0.9993687868118286
","x: 231.9880828857422
y: 269.46075439453125
z: -0.21055534482002258
visibility: 0.9997106194496155
","x: 241.30348205566406
y: 283.4307556152344
z: -0.2871386408805847
visibility: 0.9997542500495911
","x: 236.8360595703125
y: 283.581787109375
z: -0.2868466079235077
visibility: 0.9998188614845276
","x: 255.1564178466797
y: 296.186279296875
z: -0.10942576080560684
visibility: 0.9996705055236816
","x: 220.3990478515625
y: 298.9145812988281
z: -0.10444781929254532
visibility: 0.9998549818992615
","x: 256.2972412109375
y: 322.6551513671875
z: -0.0792197659611702
visibility: 0.82155442237854
","x: 220.49964904785156
y: 339.410888671875
z: -0.054376982152462006
visibility: 0.9589426517486572
","x: 254.09271240234375
y: 358.6690979003906
z: -0.18991385400295258
visibility: 0.8629281520843506
","x: 220.66683959960938
y: 381.71185302734375
z: -0.14329051971435547
visibility: 0.9308071732521057
","x: 255.0790557861328
y: 370.55316162109375
z: -0.21916162967681885
visibility: 0.8417478799819946
","x: 219.6881561279297
y: 394.2489013671875
z: -0.16948416829109192
visibility: 0.900022029876709
","x: 252.3323211669922
y: 368.52294921875
z: -0.2468107044696808
visibility: 0.845923662185669
","x: 220.86021423339844
y: 394.09783935546875
z: -0.20313763618469238
visibility: 0.902787983417511
","x: 251.2225341796875
y: 364.4580078125
z: -0.2028210461139679
visibility: 0.8175020813941956
","x: 221.5371551513672
y: 390.257080078125
z: -0.15801098942756653
visibility: 0.8807841539382935
","x: 251.21177673339844
y: 390.8326721191406
z: 0.0063926964066922665
visibility: 0.9997308254241943
","x: 229.6106414794922
y: 396.0479431152344
z: -0.006370095070451498
visibility: 0.9998164772987366
","x: 262.1275634765625
y: 459.36517333984375
z: -0.06627048552036285
visibility: 0.9535505175590515
","x: 210.46961975097656
y: 462.5362854003906
z: -0.03391196206212044
visibility: 0.9957811832427979
","x: 261.5212707519531
y: 526.9501342773438
z: 0.08622235059738159
visibility: 0.9695788621902466
","x: 196.14036560058594
y: 524.738037109375
z: 0.11795993894338608
visibility: 0.9948642253875732
","x: 257.13140869140625
y: 537.8427734375
z: 0.09733007103204727
visibility: 0.9310573935508728
","x: 199.2891082763672
y: 532.6892700195312
z: 0.1274707019329071
visibility: 0.9400281310081482
","x: 272.36492919921875
y: 550.2261962890625
z: -0.009104711934924126
visibility: 0.9745439291000366
","x: 191.30332946777344
y: 550.4758911132812
z: 0.023812124505639076
visibility: 0.9916651248931885
",,,,,,,,,,,,,,,,,,,,,,,,,,,,,,,,,,,,,,,,,,
20,"x: 237.47738647460938
y: 288.2769775390625
z: -0.3979252874851227
visibility: 0.9999095797538757
","x: 239.09832763671875
y: 281.0733337402344
z: -0.3921964764595032
visibility: 0.9997949600219727
","x: 240.46080017089844
y: 280.43902587890625
z: -0.39219313859939575
visibility: 0.9997544884681702
","x: 241.7741241455078
y: 279.85125732421875
z: -0.39222121238708496
visibility: 0.9997594356536865
","x: 235.61795043945312
y: 281.3688049316406
z: -0.3906655013561249
visibility: 0.9998266696929932
","x: 234.3966522216797
y: 280.9549560546875
z: -0.39075273275375366
visibility: 0.9998112916946411
","x: 233.22161865234375
y: 280.40643310546875
z: -0.3907894194126129
visibility: 0.9998205304145813
","x: 244.37576293945312
y: 278.02862548828125
z: -0.2920141816139221
visibility: 0.9993950128555298
","x: 231.608154296875
y: 277.8944091796875
z: -0.28730738162994385
visibility: 0.9997211694717407
","x: 239.69696044921875
y: 292.9453125
z: -0.3545655608177185
visibility: 0.9997667670249939
","x: 235.8445587158203
y: 292.88519287109375
z: -0.3534321188926697
visibility: 0.9998274445533752
","x: 255.44717407226562
y: 302.67523193359375
z: -0.18603107333183289
visibility: 0.9996999502182007
","x: 220.5848388671875
y: 305.2412109375
z: -0.1699778139591217
visibility: 0.9998681545257568
","x: 252.86807250976562
y: 352.8636474609375
z: -0.12850116193294525
visibility: 0.8360706567764282
","x: 214.71542358398438
y: 357.70306396484375
z: -0.08104784786701202
visibility: 0.9617164731025696
","x: 252.90081787109375
y: 397.6278381347656
z: -0.22684910893440247
visibility: 0.8713927865028381
","x: 213.09765625
y: 400.1135559082031
z: -0.19368264079093933
visibility: 0.9345411062240601
","x: 254.03189086914062
y: 412.3295593261719
z: -0.25453636050224304
visibility: 0.8478367328643799
","x: 210.54751586914062
y: 414.1642761230469
z: -0.2226976454257965
visibility: 0.9039652347564697
","x: 243.07276916503906
y: 410.8990783691406
z: -0.2807046175003052
visibility: 0.8522252440452576
","x: 211.05519104003906
y: 415.0250244140625
z: -0.2485828697681427
visibility: 0.90697181224823
","x: 240.94923400878906
y: 405.8639221191406
z: -0.2378222942352295
visibility: 0.8226726055145264
","x: 212.42935180664062
y: 410.53216552734375
z: -0.2050662487745285
visibility: 0.8851251006126404
","x: 244.8874053955078
y: 394.89874267578125
z: 0.0031989901326596737
visibility: 0.9997503757476807
","x: 224.1884765625
y: 394.97784423828125
z: -0.0032704793848097324
visibility: 0.9998314380645752
","x: 240.61334228515625
y: 469.6014099121094
z: 0.018831199035048485
visibility: 0.9575912356376648
","x: 201.5556640625
y: 461.4456787109375
z: -0.055898211896419525
visibility: 0.9960231781005859
","x: 259.94793701171875
y: 527.9889526367188
z: 0.16328860819339752
visibility: 0.9723767638206482
","x: 185.94435119628906
y: 525.6853637695312
z: 0.0326719805598259
visibility: 0.9951579570770264
","x: 257.64739990234375
y: 537.4506225585938
z: 0.17305520176887512
visibility: 0.9334122538566589
","x: 186.24493408203125
y: 534.3402099609375
z: 0.03644132614135742
visibility: 0.9349963665008545
","x: 271.0722351074219
y: 550.69921875
z: 0.07238089293241501
visibility: 0.9765127897262573
","x: 185.36593627929688
y: 550.546630859375
z: -0.07956452667713165
visibility: 0.9919002056121826
",,,,,,,,,,,,,,,,,,,,,,,,,,,,,,,,,,,,,,,,,,
21,"x: 237.08346557617188
y: 298.0538635253906
z: -0.434183269739151
visibility: 0.9999123811721802
","x: 239.04644775390625
y: 291.3118591308594
z: -0.42268800735473633
visibility: 0.9998032450675964
","x: 240.13006591796875
y: 291.078125
z: -0.42270874977111816
visibility: 0.9997666478157043
","x: 241.1776580810547
y: 290.85931396484375
z: -0.42278099060058594
visibility: 0.9997702240943909
","x: 235.6646728515625
y: 290.2374267578125
z: -0.42658179998397827
visibility: 0.9998284578323364
","x: 234.38400268554688
y: 289.2673034667969
z: -0.42666831612586975
visibility: 0.99981290102005
","x: 233.19125366210938
y: 288.2482604980469
z: -0.4266737401485443
visibility: 0.9998205304145813
","x: 242.4173126220703
y: 289.5107727050781
z: -0.30408725142478943
visibility: 0.9994194507598877
","x: 230.54434204101562
y: 285.73779296875
z: -0.32293716073036194
visibility: 0.9997275471687317
","x: 238.64013671875
y: 303.02593994140625
z: -0.38500645756721497
visibility: 0.9997674226760864
","x: 234.41688537597656
y: 301.8642883300781
z: -0.39069610834121704
visibility: 0.9998273849487305
","x: 252.03692626953125
y: 314.78509521484375
z: -0.20484218001365662
visibility: 0.9997249841690063
","x: 218.6189727783203
y: 311.3619384765625
z: -0.20722317695617676
visibility: 0.9998764991760254
","x: 247.41952514648438
y: 358.65911865234375
z: -0.21741485595703125
visibility: 0.8487177491188049
","x: 200.129150390625
y: 348.8351745605469
z: -0.15186598896980286
visibility: 0.9644033908843994
","x: 234.15969848632812
y: 389.26739501953125
z: -0.3589206337928772
visibility: 0.8792766332626343
","x: 188.70669555664062
y: 382.6269836425781
z: -0.2169807255268097
visibility: 0.937579870223999
","x: 229.43948364257812
y: 398.282470703125
z: -0.3984953761100769
visibility: 0.8545646667480469
","x: 183.735107421875
y: 393.944580078125
z: -0.24934914708137512
visibility: 0.9073986411094666
","x: 224.8062286376953
y: 393.2908935546875
z: -0.4208245277404785
visibility: 0.8588681221008301
","x: 184.2559814453125
y: 393.0004577636719
z: -0.2668795585632324
visibility: 0.9108745455741882
","x: 225.2282257080078
y: 389.6156005859375
z: -0.37075451016426086
visibility: 0.8282804489135742
","x: 186.5779266357422
y: 389.83770751953125
z: -0.2191823273897171
visibility: 0.8894093632698059
","x: 236.2947235107422
y: 402.8271484375
z: 0.004577795974910259
visibility: 0.9997605085372925
","x: 214.6179656982422
y: 401.3855285644531
z: -0.004639637656509876
visibility: 0.9998372197151184
","x: 243.24465942382812
y: 469.5556945800781
z: 0.007943550124764442
visibility: 0.9616453647613525
","x: 198.9085693359375
y: 465.5238342285156
z: -0.07359147816896439
visibility: 0.9963304996490479
","x: 260.1581726074219
y: 528.0120239257812
z: 0.1403212696313858
visibility: 0.9749845266342163
","x: 185.54966735839844
y: 527.875732421875
z: 0.03625483065843582
visibility: 0.9954936504364014
","x: 257.8976745605469
y: 537.7725830078125
z: 0.14749394357204437
visibility: 0.9366163015365601
","x: 186.29855346679688
y: 536.7700805664062
z: 0.04147074371576309
visibility: 0.9332175254821777
","x: 270.8695983886719
y: 550.6792602539062
z: 0.04016153886914253
visibility: 0.9784032106399536
","x: 184.21041870117188
y: 550.6694946289062
z: -0.07444469630718231
visibility: 0.9922832250595093
",,,,,,,,,,,,,,,,,,,,,,,,,,,,,,,,,,,,,,,,,,
22,"x: 237.55101013183594
y: 307.9505615234375
z: -0.4130464196205139
visibility: 0.999900758266449
","x: 239.59400939941406
y: 300.91766357421875
z: -0.40117931365966797
visibility: 0.9997916221618652
","x: 240.60601806640625
y: 300.5587158203125
z: -0.4011387825012207
visibility: 0.9997538328170776
","x: 241.6384735107422
y: 300.2312316894531
z: -0.4012156128883362
visibility: 0.9997469186782837
","x: 236.1713409423828
y: 299.95562744140625
z: -0.40816178917884827
visibility: 0.9998058080673218
","x: 234.74766540527344
y: 298.93310546875
z: -0.4082605242729187
visibility: 0.9997875094413757
","x: 233.27667236328125
y: 297.8060302734375
z: -0.40826883912086487
visibility: 0.9997830390930176
","x: 242.32733154296875
y: 297.8495178222656
z: -0.2813231348991394
visibility: 0.9993946552276611
","x: 229.65481567382812
y: 294.34283447265625
z: -0.315691739320755
visibility: 0.999690592288971
","x: 238.84983825683594
y: 312.384521484375
z: -0.3626965880393982
visibility: 0.9995988607406616
","x: 234.37088012695312
y: 312.1844787597656
z: -0.3728455901145935
visibility: 0.999715268611908
","x: 250.62123107910156
y: 319.3932800292969
z: -0.15408417582511902
visibility: 0.9995602965354919
","x: 215.45846557617188
y: 315.812744140625
z: -0.2094866931438446
visibility: 0.9998155236244202
","x: 244.9943389892578
y: 361.7593078613281
z: -0.076365627348423
visibility: 0.7960609793663025
","x: 190.62136840820312
y: 340.58209228515625
z: -0.1701090931892395
visibility: 0.9669432044029236
","x: 244.2390594482422
y: 397.4090881347656
z: -0.12391452491283417
visibility: 0.8167799711227417
","x: 174.01577758789062
y: 340.4393005371094
z: -0.20944151282310486
visibility: 0.9374459385871887
","x: 245.27490234375
y: 409.3880615234375
z: -0.13190089166164398
visibility: 0.7884170413017273
","x: 166.37271118164062
y: 339.133056640625
z: -0.22135436534881592
visibility: 0.9022815227508545
","x: 245.20362854003906
y: 410.8462829589844
z: -0.15866979956626892
visibility: 0.7939448952674866
","x: 166.47923278808594
y: 337.9684143066406
z: -0.2453058958053589
visibility: 0.9074323773384094
","x: 243.47422790527344
y: 405.0637512207031
z: -0.13603779673576355
visibility: 0.7666389346122742
","x: 168.56613159179688
y: 339.55877685546875
z: -0.21893909573554993
visibility: 0.8860548138618469
","x: 237.24591064453125
y: 403.04608154296875
z: 0.016289226710796356
visibility: 0.9997559785842896
","x: 215.39845275878906
y: 404.6884460449219
z: -0.016344791278243065
visibility: 0.9997965693473816
","x: 259.59332275390625
y: 458.1764221191406
z: -0.13506124913692474
visibility: 0.9652302265167236
","x: 205.5175323486328
y: 471.235107421875
z: -0.042182695120573044
visibility: 0.9963014721870422
","x: 262.1712646484375
y: 527.7716674804688
z: -0.040804214775562286
visibility: 0.9771544933319092
","x: 189.20379638671875
y: 527.9743041992188
z: 0.09732908010482788
visibility: 0.9954639673233032
","x: 257.7987060546875
y: 537.6806030273438
z: -0.03608819097280502
visibility: 0.9404876828193665
","x: 189.1413116455078
y: 535.9461059570312
z: 0.10648908466100693
visibility: 0.9268803596496582
","x: 272.8009033203125
y: 550.6262817382812
z: -0.14039885997772217
visibility: 0.9799067378044128
","x: 185.61276245117188
y: 550.895263671875
z: 0.002859411295503378
visibility: 0.9916484951972961
",,,,,,,,,,,,,,,,,,,,,,,,,,,,,,,,,,,,,,,,,,
23,"x: 237.17184448242188
y: 318.9486389160156
z: -0.44192248582839966
visibility: 0.9999101161956787
","x: 239.27127075195312
y: 310.734619140625
z: -0.42830413579940796
visibility: 0.9998112320899963
","x: 240.35855102539062
y: 310.30029296875
z: -0.42827826738357544
visibility: 0.9997768402099609
","x: 241.42327880859375
y: 309.7588195800781
z: -0.42835602164268494
visibility: 0.99977046251297
","x: 235.76719665527344
y: 309.79620361328125
z: -0.4369872212409973
visibility: 0.9998236894607544
","x: 234.28973388671875
y: 308.8918762207031
z: -0.4370967447757721
visibility: 0.9998068809509277
","x: 232.7694854736328
y: 307.9282531738281
z: -0.43708401918411255
visibility: 0.9998020529747009
","x: 242.41799926757812
y: 306.6156921386719
z: -0.2966243028640747
visibility: 0.9994520545005798
","x: 229.14834594726562
y: 305.0912170410156
z: -0.3385055661201477
visibility: 0.9997194409370422
","x: 238.3409881591797
y: 323.77593994140625
z: -0.3869982361793518
visibility: 0.9996336698532104
","x: 233.9517059326172
y: 323.4229736328125
z: -0.3992840349674225
visibility: 0.999739408493042
","x: 250.29052734375
y: 326.6357727050781
z: -0.15266035497188568
visibility: 0.9996026754379272
","x: 215.25750732421875
y: 325.6134338378906
z: -0.24715662002563477
visibility: 0.9998312592506409
","x: 252.9270477294922
y: 368.9920654296875
z: -0.10316167771816254
visibility: 0.8114520907402039
","x: 188.12928771972656
y: 338.12908935546875
z: -0.2650083303451538
visibility: 0.9701557755470276
","x: 263.6231689453125
y: 401.53680419921875
z: -0.2028634250164032
visibility: 0.832302451133728
","x: 167.93568420410156
y: 338.612548828125
z: -0.36128896474838257
visibility: 0.9431025385856628
","x: 270.14019775390625
y: 411.11553955078125
z: -0.22105447947978973
visibility: 0.8032329082489014
","x: 159.97821044921875
y: 337.39154052734375
z: -0.38765808939933777
visibility: 0.9100403785705566
","x: 271.1949462890625
y: 411.9974365234375
z: -0.2539845108985901
visibility: 0.809247612953186
","x: 160.09254455566406
y: 337.38818359375
z: -0.41239625215530396
visibility: 0.9149919748306274
","x: 267.95269775390625
y: 409.2925720214844
z: -0.2190445214509964
visibility: 0.7841852307319641
","x: 163.26119995117188
y: 340.157470703125
z: -0.3743491768836975
visibility: 0.8953190445899963
","x: 241.2316131591797
y: 404.77667236328125
z: 0.04065179079771042
visibility: 0.9997705817222595
","x: 223.42124938964844
y: 409.3080139160156
z: -0.04064732417464256
visibility: 0.9997954368591309
","x: 265.5020446777344
y: 458.4952392578125
z: -0.08126793801784515
visibility: 0.9681844711303711
","x: 224.01123046875
y: 478.3398742675781
z: -0.11873630434274673
visibility: 0.9965870380401611
","x: 262.43017578125
y: 528.4185791015625
z: 0.024929268285632133
visibility: 0.9789901971817017
","x: 189.41554260253906
y: 526.6541748046875
z: 0.01003539003431797
visibility: 0.9957307577133179
","x: 257.30682373046875
y: 539.8534545898438
z: 0.030352309346199036
visibility: 0.9441730380058289
","x: 189.08547973632812
y: 527.75634765625
z: 0.019784661009907722
visibility: 0.9290651082992554
","x: 273.7110290527344
y: 551.1099853515625
z: -0.060645002871751785
visibility: 0.9811776280403137
","x: 187.13299560546875
y: 551.5872802734375
z: -0.06476175040006638
visibility: 0.9919745922088623
",,,,,,,,,,,,,,,,,,,,,,,,,,,,,,,,,,,,,,,,,,
24,"x: 237.86949157714844
y: 329.3310546875
z: -0.4515312612056732
visibility: 0.9999189376831055
","x: 239.24656677246094
y: 321.65240478515625
z: -0.4408625662326813
visibility: 0.9998297095298767
","x: 240.2839813232422
y: 320.7912902832031
z: -0.44083255529403687
visibility: 0.9997986555099487
","x: 241.25418090820312
y: 319.90374755859375
z: -0.440908819437027
visibility: 0.9997928142547607
","x: 235.82244873046875
y: 322.32171630859375
z: -0.4447343945503235
visibility: 0.9998408555984497
","x: 234.2924041748047
y: 321.950927734375
z: -0.4448440670967102
visibility: 0.999825656414032
","x: 232.75523376464844
y: 321.4393310546875
z: -0.44482511281967163
visibility: 0.999821126461029
","x: 242.14373779296875
y: 316.7684326171875
z: -0.3262459635734558
visibility: 0.9995061159133911
","x: 228.94200134277344
y: 319.29571533203125
z: -0.3466794490814209
visibility: 0.9997466802597046
","x: 239.3042755126953
y: 333.9923400878906
z: -0.40404003858566284
visibility: 0.9996695518493652
","x: 235.07785034179688
y: 334.8756103515625
z: -0.4100310206413269
visibility: 0.9997646808624268
","x: 252.54083251953125
y: 338.030029296875
z: -0.1991911381483078
visibility: 0.9996419548988342
","x: 215.82046508789062
y: 344.6829528808594
z: -0.2462235391139984
visibility: 0.9998470544815063
","x: 267.1131591796875
y: 376.3135070800781
z: -0.14548969268798828
visibility: 0.8296806812286377
","x: 193.2406768798828
y: 364.6165466308594
z: -0.2651408612728119
visibility: 0.9729180335998535
","x: 288.88800048828125
y: 395.4292297363281
z: -0.23151299357414246
visibility: 0.8487231135368347
","x: 175.08892822265625
y: 383.2310485839844
z: -0.38284942507743835
visibility: 0.9482707381248474
","x: 296.75177001953125
y: 400.40765380859375
z: -0.25493595004081726
visibility: 0.8218958377838135
","x: 167.7495880126953
y: 390.4711608886719
z: -0.40723198652267456
visibility: 0.917555570602417
","x: 298.0101623535156
y: 398.8066101074219
z: -0.2807294428348541
visibility: 0.827547013759613
","x: 168.47950744628906
y: 390.0342102050781
z: -0.43512314558029175
visibility: 0.9222610592842102
","x: 295.6226806640625
y: 397.809814453125
z: -0.24031126499176025
visibility: 0.8048664927482605
","x: 171.4010772705078
y: 388.7530517578125
z: -0.39711517095565796
visibility: 0.9042467474937439
","x: 247.06646728515625
y: 409.8743896484375
z: 0.031074142083525658
visibility: 0.9997894763946533
","x: 227.17686462402344
y: 415.4797668457031
z: -0.031096670776605606
visibility: 0.999808669090271
","x: 266.62750244140625
y: 463.1666259765625
z: -0.1272723525762558
visibility: 0.970945417881012
","x: 222.47390747070312
y: 480.8669738769531
z: -0.09585452824831009
visibility: 0.9968088865280151
","x: 262.0061950683594
y: 528.5120849609375
z: 0.005470088217407465
visibility: 0.9806094169616699
","x: 190.6416015625
y: 526.7766723632812
z: 0.03341500088572502
visibility: 0.9959152936935425
","x: 256.81121826171875
y: 540.5203857421875
z: 0.013356322422623634
visibility: 0.9480158090591431
","x: 190.31455993652344
y: 530.0914916992188
z: 0.03686823323369026
visibility: 0.9308901429176331
","x: 273.4598388671875
y: 551.0759887695312
z: -0.07861380279064178
visibility: 0.9822676181793213
","x: 186.96714782714844
y: 551.6089477539062
z: -0.04183559864759445
visibility: 0.9920253753662109
",,,,,,,,,,,,,,,,,,,,,,,,,,,,,,,,,,,,,,,,,,
25,"x: 232.88548278808594
y: 330.95745849609375
z: -0.49495968222618103
visibility: 0.9999266266822815
","x: 234.94093322753906
y: 323.8553466796875
z: -0.4916406571865082
visibility: 0.9998456239700317
","x: 236.20059204101562
y: 323.23480224609375
z: -0.4916048049926758
visibility: 0.999817967414856
","x: 237.38217163085938
y: 322.55401611328125
z: -0.4917188584804535
visibility: 0.9998124241828918
","x: 231.03456115722656
y: 323.3719482421875
z: -0.4956280589103699
visibility: 0.9998555183410645
","x: 229.5959930419922
y: 322.4293212890625
z: -0.4957352578639984
visibility: 0.99984210729599
","x: 228.15298461914062
y: 321.4065856933594
z: -0.4956839680671692
visibility: 0.9998375177383423
","x: 238.6835479736328
y: 319.8150939941406
z: -0.3925544023513794
visibility: 0.9995543360710144
","x: 224.9981689453125
y: 318.9300842285156
z: -0.41073471307754517
visibility: 0.9997714757919312
","x: 234.6356964111328
y: 335.44232177734375
z: -0.4505191445350647
visibility: 0.9997015595436096
","x: 230.23135375976562
y: 335.4151916503906
z: -0.4558979570865631
visibility: 0.9997872114181519
","x: 250.9993133544922
y: 340.4088134765625
z: -0.2549772560596466
visibility: 0.9996775388717651
","x: 211.7314453125
y: 338.5495300292969
z: -0.26629307866096497
visibility: 0.9998618960380554
","x: 267.24188232421875
y: 365.1745910644531
z: -0.225537970662117
visibility: 0.8465543985366821
","x: 193.87103271484375
y: 369.07586669921875
z: -0.1403542309999466
visibility: 0.9745115637779236
","x: 290.9605407714844
y: 381.5882568359375
z: -0.32583680748939514
visibility: 0.8634982705116272
","x: 181.4862060546875
y: 400.8063049316406
z: -0.0822383388876915
visibility: 0.9510172009468079
","x: 297.9246826171875
y: 395.978759765625
z: -0.3435496687889099
visibility: 0.8384699821472168
","x: 175.96371459960938
y: 407.10888671875
z: -0.07402058690786362
visibility: 0.9197666049003601
","x: 298.48992919921875
y: 389.85894775390625
z: -0.3733254373073578
visibility: 0.8438950777053833
","x: 176.78439331054688
y: 407.53826904296875
z: -0.10469724982976913
visibility: 0.9249684810638428
","x: 296.543212890625
y: 385.33837890625
z: -0.34044647216796875
visibility: 0.8231757879257202
","x: 179.1236114501953
y: 406.2792663574219
z: -0.09040473401546478
visibility: 0.908100962638855
","x: 243.86203002929688
y: 407.0448303222656
z: 0.005774639546871185
visibility: 0.9998025298118591
","x: 220.8563690185547
y: 410.9786376953125
z: -0.00561215914785862
visibility: 0.9998184442520142
","x: 260.0455322265625
y: 464.310791015625
z: -0.11932579427957535
visibility: 0.9734760522842407
","x: 199.72042846679688
y: 469.3564453125
z: -0.15759803354740143
visibility: 0.9969950318336487
","x: 262.2042541503906
y: 529.78125
z: -0.020047638565301895
visibility: 0.9824239611625671
","x: 184.5232391357422
y: 526.945556640625
z: -0.03880177065730095
visibility: 0.9961647987365723
","x: 257.84942626953125
y: 541.877197265625
z: -0.01791294850409031
visibility: 0.9508927464485168
","x: 185.03521728515625
y: 532.8931274414062
z: -0.03430395945906639
visibility: 0.9341407418251038
","x: 272.47900390625
y: 550.864501953125
z: -0.1410408467054367
visibility: 0.9836589694023132
","x: 184.27993774414062
y: 551.2506713867188
z: -0.1538076102733612
visibility: 0.9923942685127258
",,,,,,,,,,,,,,,,,,,,,,,,,,,,,,,,,,,,,,,,,,
26,"x: 221.7283172607422
y: 332.839111328125
z: -0.4981246590614319
visibility: 0.9999337196350098
","x: 224.23733520507812
y: 326.7903137207031
z: -0.4966525137424469
visibility: 0.9998606443405151
","x: 225.57949829101562
y: 326.6972351074219
z: -0.4966050088405609
visibility: 0.9998359084129333
","x: 226.8900146484375
y: 326.48016357421875
z: -0.4967239499092102
visibility: 0.9998307824134827
","x: 220.63168334960938
y: 324.898193359375
z: -0.49844130873680115
visibility: 0.9998694062232971
","x: 219.42919921875
y: 323.662841796875
z: -0.49855971336364746
visibility: 0.9998574256896973
","x: 218.23611450195312
y: 322.43609619140625
z: -0.4984966814517975
visibility: 0.9998529553413391
","x: 229.58811950683594
y: 324.88470458984375
z: -0.40919771790504456
visibility: 0.9995985627174377
","x: 217.2210235595703
y: 320.0364685058594
z: -0.4184419512748718
visibility: 0.9997941255569458
","x: 223.61343383789062
y: 338.1164245605469
z: -0.45871251821517944
visibility: 0.9997307062149048
","x: 219.76348876953125
y: 336.9268493652344
z: -0.4614677429199219
visibility: 0.9998075366020203
","x: 240.69468688964844
y: 347.0721435546875
z: -0.27883008122444153
visibility: 0.9997096657752991
","x: 204.1997528076172
y: 335.4673767089844
z: -0.27590641379356384
visibility: 0.9998748898506165
","x: 262.40802001953125
y: 362.1053466796875
z: -0.24515864253044128
visibility: 0.8618628978729248
","x: 192.22523498535156
y: 359.5814514160156
z: -0.09360460191965103
visibility: 0.9732093811035156
","x: 285.5871887207031
y: 379.9342041015625
z: -0.31005775928497314
visibility: 0.8770206570625305
","x: 182.2067108154297
y: 388.35760498046875
z: 0.03672768548130989
visibility: 0.9470058679580688
","x: 292.52197265625
y: 386.60052490234375
z: -0.3236175775527954
visibility: 0.8540752530097961
","x: 179.0457763671875
y: 397.3055419921875
z: 0.057137202471494675
visibility: 0.911584198474884
","x: 292.947021484375
y: 383.77386474609375
z: -0.35207486152648926
visibility: 0.8591200709342957
","x: 179.4811248779297
y: 398.2212829589844
z: 0.03357935696840286
visibility: 0.9177436828613281
","x: 290.8377990722656
y: 382.5399169921875
z: -0.32365041971206665
visibility: 0.840286135673523
","x: 180.50241088867188
y: 395.8262634277344
z: 0.033308245241642
visibility: 0.9019338488578796
","x: 230.42990112304688
y: 408.62860107421875
z: -0.0012080158339813352
visibility: 0.9998177289962769
","x: 208.0030517578125
y: 409.599853515625
z: 0.0013946524122729897
visibility: 0.999830424785614
","x: 245.10623168945312
y: 470.1078796386719
z: -0.06587526202201843
visibility: 0.9759541749954224
","x: 188.67294311523438
y: 460.9131164550781
z: -0.13418032228946686
visibility: 0.997228741645813
","x: 261.8362121582031
y: 530.8289184570312
z: 0.009054108522832394
visibility: 0.9841423630714417
","x: 177.458251953125
y: 519.5093994140625
z: 0.009617587551474571
visibility: 0.996385931968689
","x: 257.38897705078125
y: 542.6661376953125
z: 0.009803537279367447
visibility: 0.9549880027770996
","x: 178.9510955810547
y: 528.1775512695312
z: 0.016147125512361526
visibility: 0.9378224611282349
","x: 271.98187255859375
y: 550.8391723632812
z: -0.10475359112024307
visibility: 0.9851915836334229
","x: 174.33865356445312
y: 546.4563598632812
z: -0.0951986089348793
visibility: 0.9928510785102844
",,,,,,,,,,,,,,,,,,,,,,,,,,,,,,,,,,,,,,,,,,
27,"x: 201.68142700195312
y: 348.5748596191406
z: -0.437208354473114
visibility: 0.9999396800994873
","x: 206.04397583007812
y: 343.9259338378906
z: -0.4407520294189453
visibility: 0.9998734593391418
","x: 207.70045471191406
y: 344.41644287109375
z: -0.44068804383277893
visibility: 0.9998510479927063
","x: 209.402587890625
y: 344.3528747558594
z: -0.44078588485717773
visibility: 0.9998465776443481
","x: 202.02542114257812
y: 338.923095703125
z: -0.438804566860199
visibility: 0.9998805522918701
","x: 201.13262939453125
y: 336.4172668457031
z: -0.43888863921165466
visibility: 0.9998689889907837
","x: 200.5139923095703
y: 333.3552551269531
z: -0.43884581327438354
visibility: 0.9998648166656494
","x: 213.79100036621094
y: 340.1525573730469
z: -0.3969206213951111
visibility: 0.9996377825737
","x: 201.57391357421875
y: 328.6827087402344
z: -0.38215523958206177
visibility: 0.9998130202293396
","x: 204.3467559814453
y: 353.50836181640625
z: -0.40716004371643066
visibility: 0.9997560381889343
","x: 200.00257873535156
y: 349.9283142089844
z: -0.4047110676765442
visibility: 0.999824583530426
","x: 225.84896850585938
y: 364.9520568847656
z: -0.29195716977119446
visibility: 0.999738335609436
","x: 191.8061981201172
y: 334.5458679199219
z: -0.26149556040763855
visibility: 0.9998870491981506
","x: 250.14227294921875
y: 380.2715759277344
z: -0.25134915113449097
visibility: 0.874383807182312
","x: 174.57879638671875
y: 341.5986328125
z: -0.10489300638437271
visibility: 0.9675453901290894
","x: 274.7559814453125
y: 402.77484130859375
z: -0.2676377296447754
visibility: 0.8866786956787109
","x: 162.30047607421875
y: 357.3659973144531
z: 0.0054846154525876045
visibility: 0.9464240074157715
","x: 280.9483947753906
y: 406.01116943359375
z: -0.26443225145339966
visibility: 0.8631570935249329
","x: 157.16404724121094
y: 356.2417907714844
z: 0.02806100621819496
visibility: 0.9104275107383728
","x: 281.5091857910156
y: 405.0171203613281
z: -0.2887428104877472
visibility: 0.8691080808639526
","x: 156.98147583007812
y: 355.6882019042969
z: 0.006569380406290293
visibility: 0.9178080558776855
","x: 279.1942443847656
y: 405.2627258300781
z: -0.27655860781669617
visibility: 0.8520046472549438
","x: 158.94549560546875
y: 356.6824035644531
z: 0.0012687962735071778
visibility: 0.9047881364822388
","x: 217.71661376953125
y: 414.756103515625
z: -0.009844308719038963
visibility: 0.9998257160186768
","x: 196.9007110595703
y: 410.2806396484375
z: 0.009859859012067318
visibility: 0.9998379945755005
","x: 226.89402770996094
y: 483.202392578125
z: -0.018665004521608353
visibility: 0.9775315523147583
","x: 181.49359130859375
y: 463.531982421875
z: -0.03180932253599167
visibility: 0.9970364570617676
","x: 260.3305358886719
y: 529.156982421875
z: 0.10388195514678955
visibility: 0.9855549931526184
","x: 173.61622619628906
y: 519.6698608398438
z: 0.1204734593629837
visibility: 0.9963233470916748
","x: 259.8955078125
y: 530.7118530273438
z: 0.11220750957727432
visibility: 0.9543386697769165
","x: 175.49127197265625
y: 530.122802734375
z: 0.13207636773586273
visibility: 0.9384423494338989
","x: 270.1169128417969
y: 549.3363037109375
z: 0.03365245833992958
visibility: 0.986248791217804
","x: 170.73257446289062
y: 546.7728881835938
z: 0.06681998074054718
visibility: 0.9926358461380005
",,,,,,,,,,,,,,,,,,,,,,,,,,,,,,,,,,,,,,,,,,
28,"x: 199.64447021484375
y: 333.6961669921875
z: -0.5226274132728577
visibility: 0.9999451041221619
","x: 203.30902099609375
y: 329.6416931152344
z: -0.5158798694610596
visibility: 0.9998840689659119
","x: 204.55316162109375
y: 330.65618896484375
z: -0.5158244967460632
visibility: 0.9998646974563599
","x: 205.74246215820312
y: 331.703369140625
z: -0.515918493270874
visibility: 0.9998601078987122
","x: 200.37742614746094
y: 325.89874267578125
z: -0.5101484656333923
visibility: 0.9998864531517029
","x: 199.5726318359375
y: 324.3194885253906
z: -0.510280966758728
visibility: 0.9998775720596313
","x: 198.80892944335938
y: 322.574951171875
z: -0.5102487802505493
visibility: 0.9998729228973389
","x: 208.69183349609375
y: 334.2642517089844
z: -0.42939940094947815
visibility: 0.9996722936630249
","x: 199.1692657470703
y: 321.1929931640625
z: -0.40738779306411743
visibility: 0.9998279213905334
","x: 201.01583862304688
y: 339.9386291503906
z: -0.48759549856185913
visibility: 0.999779224395752
","x: 197.1475067138672
y: 336.2061767578125
z: -0.4812282919883728
visibility: 0.9998390674591064
","x: 218.243896484375
y: 372.1513671875
z: -0.34911492466926575
visibility: 0.9997643828392029
","x: 187.04959106445312
y: 333.7090759277344
z: -0.2627556622028351
visibility: 0.9998971223831177
","x: 237.06036376953125
y: 406.1761474609375
z: -0.3868251144886017
visibility: 0.8869283199310303
","x: 171.5151824951172
y: 327.09033203125
z: -0.11981616169214249
visibility: 0.9695567488670349
","x: 257.7396545410156
y: 442.3186950683594
z: -0.4770539700984955
visibility: 0.8979350924491882
","x: 154.59707641601562
y: 322.547119140625
z: -0.017509862780570984
visibility: 0.9509916305541992
","x: 265.0446472167969
y: 450.78753662109375
z: -0.4999024271965027
visibility: 0.8763366937637329
","x: 149.78855895996094
y: 314.5028076171875
z: -0.00655800336971879
visibility: 0.9167925119400024
","x: 264.4185485839844
y: 451.01177978515625
z: -0.5312293767929077
visibility: 0.8817943334579468
","x: 149.46722412109375
y: 315.07757568359375
z: -0.0245647095143795
visibility: 0.9236271381378174
","x: 261.4342346191406
y: 449.1365966796875
z: -0.49282383918762207
visibility: 0.8661633133888245
","x: 151.2301025390625
y: 318.64154052734375
z: -0.022267650812864304
visibility: 0.9119714498519897
","x: 215.2024383544922
y: 414.12841796875
z: -0.019716501235961914
visibility: 0.99983811378479
","x: 195.30821228027344
y: 411.5552978515625
z: 0.01972125470638275
visibility: 0.9998530745506287
","x: 225.73158264160156
y: 479.98944091796875
z: -0.11468124389648438
visibility: 0.9794600605964661
","x: 182.35386657714844
y: 464.7088623046875
z: -0.1286546289920807
visibility: 0.9967589378356934
","x: 256.76556396484375
y: 528.8270263671875
z: -0.013186630792915821
visibility: 0.9868701100349426
","x: 175.24192810058594
y: 521.824462890625
z: 0.06595166027545929
visibility: 0.9962869882583618
","x: 259.3360290527344
y: 531.757080078125
z: -0.00889587588608265
visibility: 0.9552603960037231
","x: 177.18113708496094
y: 532.4586181640625
z: 0.08116142451763153
visibility: 0.9402952194213867
","x: 264.03814697265625
y: 549.0537109375
z: -0.12867900729179382
visibility: 0.9872927665710449
","x: 170.23995971679688
y: 546.8462524414062
z: -0.03816007077693939
visibility: 0.992618978023529
","x: 156.32388305664062
y: 321.08935546875
z: 0.0
","x: 152.80615234375
y: 321.8190002441406
z: 0.0008373664459213614
","x: 149.7881622314453
y: 319.7177734375
z: 0.0004532058956101537
","x: 148.09556579589844
y: 316.99407958984375
z: -0.0003599083865992725
","x: 147.08055114746094
y: 314.7394714355469
z: -0.0011809144634753466
","x: 148.1171417236328
y: 316.11114501953125
z: -0.0013921955833211541
","x: 145.5522918701172
y: 310.74481201171875
z: -0.0029786049854010344
","x: 144.32095336914062
y: 306.9501647949219
z: -0.0036866941954940557
","x: 143.43959045410156
y: 303.83477783203125
z: -0.004064834211021662
","x: 149.6145477294922
y: 313.90093994140625
z: -0.003037283895537257
","x: 147.5843963623047
y: 307.71905517578125
z: -0.004434957634657621
","x: 146.771728515625
y: 303.3368225097656
z: -0.004681541118770838
","x: 146.29055786132812
y: 299.96771240234375
z: -0.004942391067743301
","x: 151.57070922851562
y: 312.50201416015625
z: -0.004606778267771006
","x: 150.13059997558594
y: 307.0302429199219
z: -0.006258588284254074
","x: 149.59686279296875
y: 303.4908447265625
z: -0.006641589105129242
","x: 149.27574157714844
y: 300.9615783691406
z: -0.006881081499159336
","x: 153.80787658691406
y: 311.7315368652344
z: -0.006152288056910038
","x: 153.53634643554688
y: 308.04315185546875
z: -0.007553956471383572
","x: 153.73992919921875
y: 305.6514587402344
z: -0.007824267260730267
","x: 153.9686737060547
y: 303.99591064453125
z: -0.007926665246486664
",,,,,,,,,,,,,,,,,,,,,
29,"x: 199.64447021484375
y: 333.6961669921875
z: -0.5226274132728577
visibility: 0.9999451041221619
","x: 203.30902099609375
y: 329.6416931152344
z: -0.5158798694610596
visibility: 0.9998840689659119
","x: 204.55316162109375
y: 330.65618896484375
z: -0.5158244967460632
visibility: 0.9998646974563599
","x: 205.74246215820312
y: 331.703369140625
z: -0.515918493270874
visibility: 0.9998601078987122
","x: 200.37742614746094
y: 325.89874267578125
z: -0.5101484656333923
visibility: 0.9998864531517029
","x: 199.5726318359375
y: 324.3194885253906
z: -0.510280966758728
visibility: 0.9998775720596313
","x: 198.80892944335938
y: 322.574951171875
