uscmakers/ReverseChoreography/data/4_tik_tok_kesha.csv
,NOSE,LEFT_EYE_INNER,LEFT_EYE,LEFT_EYE_OUTER,RIGHT_EYE_INNER,RIGHT_EYE,RIGHT_EYE_OUTER,LEFT_EAR,RIGHT_EAR,MOUTH_LEFT,MOUTH_RIGHT,LEFT_SHOULDER,RIGHT_SHOULDER,LEFT_ELBOW,RIGHT_ELBOW,LEFT_WRIST,RIGHT_WRIST,LEFT_PINKY,RIGHT_PINKY,LEFT_INDEX,RIGHT_INDEX,LEFT_THUMB,RIGHT_THUMB,LEFT_HIP,RIGHT_HIP,LEFT_KNEE,RIGHT_KNEE,LEFT_ANKLE,RIGHT_ANKLE,LEFT_HEEL,RIGHT_HEEL,LEFT_FOOT_INDEX,RIGHT_FOOT_INDEX,WRIST,THUMB_CPC,THUMB_MCP,THUMB_IP,THUMB_TIP,INDEX_FINGER_MCP,INDEX_FINGER_PIP,INDEX_FINGER_DIP,INDEX_FINGER_TIP,MIDDLE_FINGER_MCP,MIDDLE_FINGER_PIP,MIDDLE_FINGER_DIP,MIDDLE_FINGER_TIP,RING_FINGER_PIP,RING_FINGER_DIP,RING_FINGER_TIP,RING_FINGER_MCP,PINKY_MCP,PINKY_PIP,PINKY_DIP,PINKY_TIP,WRIST2,THUMB_CPC2,THUMB_MCP2,THUMB_IP2,THUMB_TIP2,INDEX_FINGER_MCP2,INDEX_FINGER_PIP2,INDEX_FINGER_DIP2,INDEX_FINGER_TIP2,MIDDLE_FINGER_MCP2,MIDDLE_FINGER_PIP2,MIDDLE_FINGER_DIP2,MIDDLE_FINGER_TIP2,RING_FINGER_PIP2,RING_FINGER_DIP2,RING_FINGER_TIP2,RING_FINGER_MCP2,PINKY_MCP2,PINKY_PIP2,PINKY_DIP2,PINKY_TIP2
0,"x: 237.65359497070312
y: 262.6723327636719
z: -0.13627980649471283
visibility: 0.99994957447052
","x: 237.47128295898438
y: 257.1343688964844
z: -0.11781124025583267
visibility: 0.9999091625213623
","x: 237.703369140625
y: 257.10528564453125
z: -0.11781476438045502
visibility: 0.9998986721038818
","x: 237.8634796142578
y: 257.031005859375
z: -0.11779922246932983
visibility: 0.9999078512191772
","x: 235.5071258544922
y: 256.4635925292969
z: -0.13833078742027283
visibility: 0.9999115467071533
","x: 234.41067504882812
y: 256.0302429199219
z: -0.13837039470672607
visibility: 0.9999091625213623
","x: 233.1040496826172
y: 255.6146240234375
z: -0.13840684294700623
visibility: 0.9998929500579834
","x: 234.5544891357422
y: 258.15533447265625
z: -0.01584545522928238
visibility: 0.9997562766075134
","x: 227.6368408203125
y: 257.3532409667969
z: -0.11030580848455429
visibility: 0.9998873472213745
","x: 236.7376708984375
y: 268.422119140625
z: -0.09653457254171371
visibility: 0.9998935461044312
","x: 234.14271545410156
y: 268.00067138671875
z: -0.1239795833826065
visibility: 0.9999082088470459
","x: 235.52659606933594
y: 297.9504089355469
z: 0.07240708917379379
visibility: 0.9998708963394165
","x: 213.77764892578125
y: 289.1138000488281
z: -0.12229391187429428
visibility: 0.9998831748962402
","x: 233.7500762939453
y: 342.892822265625
z: 0.11419855058193207
visibility: 0.8434799313545227
","x: 207.9340362548828
y: 333.6434326171875
z: -0.21242424845695496
visibility: 0.9936329126358032
","x: 240.32772827148438
y: 382.173583984375
z: 0.04493316262960434
visibility: 0.8872687816619873
","x: 224.69970703125
y: 325.95947265625
z: -0.29266470670700073
visibility: 0.9861264824867249
","x: 242.5234832763672
y: 395.7478332519531
z: 0.03185544162988663
visibility: 0.8039056658744812
","x: 229.85263061523438
y: 325.99298095703125
z: -0.3210403323173523
visibility: 0.9708836078643799
","x: 242.50408935546875
y: 395.47406005859375
z: 0.007168878801167011
visibility: 0.82213294506073
","x: 229.63275146484375
y: 321.10009765625
z: -0.3223034739494324
visibility: 0.968646764755249
","x: 241.21136474609375
y: 391.6563720703125
z: 0.03198540210723877
visibility: 0.8078004121780396
","x: 227.8399200439453
y: 320.1415710449219
z: -0.29377275705337524
visibility: 0.9500734806060791
","x: 229.87742614746094
y: 381.9045715332031
z: 0.0645599365234375
visibility: 0.9993472695350647
","x: 214.15985107421875
y: 379.4808349609375
z: -0.06456434726715088
visibility: 0.999409556388855
","x: 228.30081176757812
y: 455.4374694824219
z: 0.05133465677499771
visibility: 0.927263081073761
","x: 213.2974090576172
y: 453.1858825683594
z: -0.06371013820171356
visibility: 0.9865143895149231
","x: 220.5886688232422
y: 520.62158203125
z: 0.12436334043741226
visibility: 0.9561454057693481
","x: 210.8214111328125
y: 524.4193725585938
z: 0.011271507479250431
visibility: 0.9918258190155029
","x: 216.16488647460938
y: 531.854736328125
z: 0.12539832293987274
visibility: 0.9260743856430054
","x: 208.5107421875
y: 536.3642578125
z: 0.011998743750154972
visibility: 0.9329973459243774
","x: 230.86843872070312
y: 542.000244140625
z: 0.03966138884425163
visibility: 0.9705562591552734
","x: 220.74134826660156
y: 543.018310546875
z: -0.09483448415994644
visibility: 0.9897749423980713
",,,,,,,,,,,,,,,,,,,,,,,,,,,,,,,,,,,,,,,,,,
1,"x: 213.90028381347656
y: 259.07574462890625
z: -0.3160403370857239
visibility: 0.9999539256095886
","x: 215.59986877441406
y: 252.3133544921875
z: -0.3022755980491638
visibility: 0.9999163150787354
","x: 216.8297576904297
y: 252.04824829101562
z: -0.30229610204696655
visibility: 0.9999069571495056
","x: 217.97299194335938
y: 251.91099548339844
z: -0.302334725856781
visibility: 0.9999152421951294
","x: 211.68231201171875
y: 253.19398498535156
z: -0.30283766984939575
visibility: 0.9999182820320129
","x: 210.2136993408203
y: 253.4908905029297
z: -0.30287283658981323
visibility: 0.9999158978462219
","x: 208.97218322753906
y: 253.7335968017578
z: -0.3028704524040222
visibility: 0.9999009370803833
","x: 220.60569763183594
y: 255.02774047851562
z: -0.2038583755493164
visibility: 0.9997764825820923
","x: 207.39649963378906
y: 256.46124267578125
z: -0.20771706104278564
visibility: 0.9998936653137207
","x: 216.9091033935547
y: 266.23614501953125
z: -0.27821487188339233
visibility: 0.9999030828475952
","x: 212.0184783935547
y: 266.44915771484375
z: -0.27941325306892395
visibility: 0.9999161958694458
","x: 232.11573791503906
y: 296.67034912109375
z: -0.12884311378002167
visibility: 0.999880850315094
","x: 197.08685302734375
y: 291.39324951171875
z: -0.14140670001506805
visibility: 0.9998875856399536
","x: 233.6836395263672
y: 343.4041748046875
z: -0.11974235624074936
visibility: 0.8583009243011475
","x: 192.2051239013672
y: 337.4080810546875
z: -0.1515112668275833
visibility: 0.992254376411438
","x: 222.67034912109375
y: 381.7264099121094
z: -0.22401177883148193
visibility: 0.897065281867981
","x: 201.68582153320312
y: 372.9910888671875
z: -0.26224952936172485
visibility: 0.9801424741744995
","x: 219.57374572753906
y: 395.1571044921875
z: -0.25933927297592163
visibility: 0.8198398947715759
","x: 203.90017700195312
y: 387.0887756347656
z: -0.2989732623100281
visibility: 0.9612013697624207
","x: 216.31533813476562
y: 393.3993835449219
z: -0.2830635905265808
visibility: 0.8364161252975464
","x: 206.3162841796875
y: 384.69586181640625
z: -0.31402045488357544
visibility: 0.959227979183197
","x: 216.5098114013672
y: 389.24578857421875
z: -0.2349889725446701
visibility: 0.8218666911125183
","x: 206.0332794189453
y: 380.1104736328125
z: -0.2703680396080017
visibility: 0.9385561943054199
","x: 225.37814331054688
y: 382.8381652832031
z: 0.011556974612176418
visibility: 0.9993790984153748
","x: 206.08859252929688
y: 382.6208801269531
z: -0.011537698097527027
visibility: 0.9994497299194336
","x: 226.302001953125
y: 455.5435485839844
z: 0.042315784841775894
visibility: 0.9337547421455383
","x: 202.95436096191406
y: 455.1741027832031
z: -0.01803642325103283
visibility: 0.9873145818710327
","x: 221.47677612304688
y: 519.09765625
z: 0.15887930989265442
visibility: 0.9598610997200012
","x: 203.5316162109375
y: 524.390869140625
z: 0.08686833083629608
visibility: 0.9920731782913208
","x: 218.35472106933594
y: 528.250244140625
z: 0.16490106284618378
visibility: 0.9281540513038635
","x: 204.83358764648438
y: 535.4698486328125
z: 0.09052175283432007
visibility: 0.9258935451507568
","x: 229.464599609375
y: 541.5235595703125
z: 0.059749722480773926
visibility: 0.9725075960159302
","x: 207.2682647705078
y: 544.4759521484375
z: -0.023348571732640266
visibility: 0.9896330833435059
",,,,,,,,,,,,,,,,,,,,,,,,,,,,,,,,,,,,,,,,,,
2,"x: 208.81292724609375
y: 257.9987487792969
z: -0.2650732398033142
visibility: 0.9999570250511169
","x: 210.07090759277344
y: 251.63865661621094
z: -0.25095757842063904
visibility: 0.9999209046363831
","x: 211.3492889404297
y: 251.47991943359375
z: -0.2509726285934448
visibility: 0.9999123215675354
","x: 212.56182861328125
y: 251.41806030273438
z: -0.2510121464729309
visibility: 0.9999197125434875
","x: 206.6729278564453
y: 252.44381713867188
z: -0.24969561398029327
visibility: 0.9999221563339233
","x: 205.33938598632812
y: 252.78868103027344
z: -0.2497137486934662
visibility: 0.9999191164970398
","x: 204.18310546875
y: 253.16165161132812
z: -0.24972298741340637
visibility: 0.9999050498008728
","x: 215.97789001464844
y: 254.6533203125
z: -0.1552562415599823
visibility: 0.9997933506965637
","x: 203.13992309570312
y: 256.3327331542969
z: -0.1578706055879593
visibility: 0.9998950958251953
","x: 211.822265625
y: 265.1858825683594
z: -0.22878269851207733
visibility: 0.9999119639396667
","x: 207.53536987304688
y: 265.6126708984375
z: -0.2273540496826172
visibility: 0.9999237656593323
","x: 229.79885864257812
y: 294.3865661621094
z: -0.08965922147035599
visibility: 0.9998902678489685
","x: 192.9575958251953
y: 291.34210205078125
z: -0.08357605338096619
visibility: 0.9998970031738281
","x: 234.71034240722656
y: 339.701904296875
z: -0.13490650057792664
visibility: 0.8717752695083618
","x: 183.21484375
y: 337.1747131347656
z: -0.06640109419822693
visibility: 0.9923637509346008
","x: 225.7084197998047
y: 346.2336730957031
z: -0.3189660906791687
visibility: 0.9067233800888062
","x: 189.71852111816406
y: 370.0138854980469
z: -0.17399466037750244
visibility: 0.9803548455238342
","x: 222.10487365722656
y: 353.7527160644531
z: -0.3634353280067444
visibility: 0.8364958763122559
","x: 189.68304443359375
y: 381.8248291015625
z: -0.20526161789894104
visibility: 0.9616104364395142
","x: 219.66334533691406
y: 347.422119140625
z: -0.375551700592041
visibility: 0.8514476418495178
","x: 192.41844177246094
y: 379.8785400390625
z: -0.2238791435956955
visibility: 0.9598349928855896
","x: 220.49359130859375
y: 344.9099426269531
z: -0.3269389569759369
visibility: 0.8374204039573669
","x: 193.2460479736328
y: 375.43524169921875
z: -0.18314626812934875
visibility: 0.9397607445716858
","x: 224.322509765625
y: 383.02386474609375
z: 0.016007643193006516
visibility: 0.9994136691093445
","x: 204.53079223632812
y: 384.4124755859375
z: -0.016024302691221237
visibility: 0.9994922876358032
","x: 233.94955444335938
y: 448.9123840332031
z: -0.055628396570682526
visibility: 0.9396024942398071
","x: 201.634521484375
y: 456.2626953125
z: -0.0676395446062088
visibility: 0.988326907157898
","x: 222.7342987060547
y: 502.01300048828125
z: 0.18144020438194275
visibility: 0.9617307782173157
","x: 201.95941162109375
y: 524.1661987304688
z: 0.06937246769666672
visibility: 0.992514967918396
","x: 219.24929809570312
y: 508.30938720703125
z: 0.20145778357982635
visibility: 0.9290661215782166
","x: 202.58837890625
y: 534.6566162109375
z: 0.07706581056118011
visibility: 0.9263044595718384
","x: 234.7918243408203
y: 524.553955078125
z: 0.12214364856481552
visibility: 0.9727323651313782
","x: 206.87278747558594
y: 544.9872436523438
z: -0.035330723971128464
visibility: 0.9897288084030151
",,,,,,,,,,,,,,,,,,,,,,,,,,,,,,,,,,,,,,,,,,
3,"x: 210.53407287597656
y: 257.7908630371094
z: -0.1829099953174591
visibility: 0.9999610185623169
","x: 212.3162841796875
y: 251.19741821289062
z: -0.16855935752391815
visibility: 0.9999282956123352
","x: 213.63121032714844
y: 251.03857421875
z: -0.168599933385849
visibility: 0.9999205470085144
","x: 214.88172912597656
y: 250.90765380859375
z: -0.16863031685352325
visibility: 0.9999271631240845
","x: 208.20999145507812
y: 252.00209045410156
z: -0.16328106820583344
visibility: 0.9999293684959412
","x: 206.96041870117188
y: 252.3797607421875
z: -0.16329815983772278
visibility: 0.9999265670776367
","x: 205.83828735351562
y: 252.7891845703125
z: -0.1632571667432785
visibility: 0.9999139308929443
","x: 216.9854278564453
y: 254.04290771484375
z: -0.06353844702243805
visibility: 0.9998131394386292
","x: 203.85055541992188
y: 256.32391357421875
z: -0.06257117539644241
visibility: 0.9999047517776489
","x: 213.47776794433594
y: 264.7607421875
z: -0.1427147537469864
visibility: 0.9999203085899353
","x: 208.06727600097656
y: 265.37158203125
z: -0.13831664621829987
visibility: 0.9999310374259949
","x: 229.65834045410156
y: 291.69268798828125
z: -0.06837949901819229
visibility: 0.9999005198478699
","x: 192.347900390625
y: 292.3327941894531
z: 0.0016452150885015726
visibility: 0.9999051690101624
","x: 236.57061767578125
y: 329.795654296875
z: -0.03257967159152031
visibility: 0.8827658295631409
","x: 186.0452117919922
y: 337.03057861328125
z: -0.057163137942552567
visibility: 0.991416335105896
","x: 233.61378479003906
y: 345.5871276855469
z: -0.2305820733308792
visibility: 0.9146003723144531
","x: 193.7067413330078
y: 356.79296875
z: -0.2362712323665619
visibility: 0.980848491191864
","x: 235.1853790283203
y: 352.52801513671875
z: -0.2776888608932495
visibility: 0.85035240650177
","x: 195.50765991210938
y: 362.76593017578125
z: -0.25393617153167725
visibility: 0.9628527164459229
","x: 231.80897521972656
y: 349.8572998046875
z: -0.29919999837875366
visibility: 0.8640927076339722
","x: 197.09808349609375
y: 363.1705017089844
z: -0.2289683073759079
visibility: 0.9613179564476013
","x: 230.17376708984375
y: 347.4521179199219
z: -0.24400141835212708
visibility: 0.8502680659294128
","x: 197.17938232421875
y: 360.0035095214844
z: -0.2407134473323822
visibility: 0.9418025612831116
","x: 225.2582244873047
y: 378.62066650390625
z: 0.004775702022016048
visibility: 0.999462902545929
","x: 205.07571411132812
y: 384.1459655761719
z: -0.004679500125348568
visibility: 0.9995304942131042
","x: 233.59156799316406
y: 448.9794616699219
z: -0.0740978941321373
visibility: 0.945131778717041
","x: 204.61463928222656
y: 456.1983642578125
z: -0.026840221136808395
visibility: 0.9884669780731201
","x: 237.43679809570312
y: 512.3277587890625
z: -0.010633270256221294
visibility: 0.9650500416755676
","x: 202.89817810058594
y: 524.22314453125
z: 0.07498438656330109
visibility: 0.9922686219215393
","x: 237.13165283203125
y: 525.68603515625
z: -0.011609050445258617
visibility: 0.9299968481063843
","x: 203.22088623046875
y: 534.709716796875
z: 0.07754114270210266
visibility: 0.9196536540985107
","x: 240.73683166503906
y: 531.751220703125
z: -0.1382972002029419
visibility: 0.9745846390724182
","x: 205.86968994140625
y: 545.5462036132812
z: -0.04014544188976288
visibility: 0.9887735247612
",,,,,,,,,,,,,,,,,,,,,,,,,,,,,,,,,,,,,,,,,,
4,"x: 211.77783203125
y: 262.50811767578125
z: -0.21941038966178894
visibility: 0.9999645352363586
","x: 213.66810607910156
y: 255.23397827148438
z: -0.20487937331199646
visibility: 0.999934732913971
","x: 214.90696716308594
y: 254.97943115234375
z: -0.20487360656261444
visibility: 0.9999276995658875
","x: 216.0057373046875
y: 254.8843994140625
z: -0.20485810935497284
visibility: 0.9999335408210754
","x: 209.7479705810547
y: 256.3030090332031
z: -0.20595617592334747
visibility: 0.9999354481697083
","x: 208.33514404296875
y: 256.88043212890625
z: -0.2059938609600067
visibility: 0.9999329447746277
","x: 207.16062927246094
y: 257.4805603027344
z: -0.20597705245018005
visibility: 0.9999215006828308
","x: 218.47462463378906
y: 257.7181091308594
z: -0.10214678943157196
visibility: 0.9998301267623901
","x: 205.44189453125
y: 260.29437255859375
z: -0.09060777723789215
visibility: 0.9999127388000488
","x: 215.0661163330078
y: 269.8648376464844
z: -0.17965808510780334
visibility: 0.9999277591705322
","x: 209.68331909179688
y: 270.7725830078125
z: -0.18141695857048035
visibility: 0.9999374151229858
","x: 230.30140686035156
y: 295.7987060546875
z: -0.029632141813635826
visibility: 0.9999096393585205
","x: 195.15304565429688
y: 295.566650390625
z: -0.05494939535856247
visibility: 0.9999122023582458
","x: 240.28204345703125
y: 332.07952880859375
z: -0.03220300376415253
visibility: 0.8924601078033447
","x: 187.97914123535156
y: 341.24560546875
z: -0.1178496703505516
visibility: 0.9916537404060364
","x: 241.7586669921875
y: 354.1131286621094
z: -0.19125071167945862
visibility: 0.9215283393859863
","x: 194.6483917236328
y: 354.4955139160156
z: -0.3165280222892761
visibility: 0.9823418259620667
","x: 245.19041442871094
y: 363.96923828125
z: -0.22635316848754883
visibility: 0.8621522188186646
","x: 195.1376495361328
y: 351.7955017089844
z: -0.35818198323249817
visibility: 0.9656949639320374
","x: 242.67111206054688
y: 361.9588928222656
z: -0.250653475522995
visibility: 0.8747851252555847
","x: 196.39187622070312
y: 347.330322265625
z: -0.36618533730506897
visibility: 0.9643323421478271
","x: 240.3905029296875
y: 359.5008850097656
z: -0.20431900024414062
visibility: 0.8612338304519653
","x: 197.22738647460938
y: 347.21441650390625
z: -0.32378703355789185
visibility: 0.9462099075317383
","x: 225.75375366210938
y: 381.1796569824219
z: 0.010411334224045277
visibility: 0.9995126128196716
","x: 205.08102416992188
y: 385.4586181640625
z: -0.010479496791958809
visibility: 0.9995680451393127
","x: 234.65231323242188
y: 449.0320129394531
z: -0.0733112245798111
visibility: 0.9501169919967651
","x: 205.1748046875
y: 456.09503173828125
z: -0.0368359349668026
visibility: 0.9887177348136902
","x: 240.57801818847656
y: 520.7459106445312
z: 0.030275782570242882
visibility: 0.9678925275802612
","x: 200.9208526611328
y: 517.0750732421875
z: 0.10536011308431625
visibility: 0.9912689924240112
","x: 239.62005615234375
y: 534.1535034179688
z: 0.03384627774357796
visibility: 0.9266077876091003
","x: 200.27049255371094
y: 523.4754028320312
z: 0.11436577886343002
visibility: 0.901907742023468
","x: 244.12039184570312
y: 538.0753784179688
z: -0.08774491399526596
visibility: 0.9759548306465149
","x: 204.9049072265625
y: 544.9193115234375
z: 0.005091717001050711
visibility: 0.9875267744064331
",,,,,,,,,,,,,,,,,,,,,,,,,,,,,,,,,,,,,,,,,,
5,"x: 211.5204620361328
y: 264.3459777832031
z: -0.25518664717674255
visibility: 0.9999677538871765
","x: 213.333740234375
y: 256.7530517578125
z: -0.2416170835494995
visibility: 0.9999403953552246
","x: 214.7808074951172
y: 256.49896240234375
z: -0.24162738025188446
visibility: 0.9999340176582336
","x: 215.89874267578125
y: 256.3882141113281
z: -0.24161669611930847
visibility: 0.9999390244483948
","x: 209.28713989257812
y: 257.77362060546875
z: -0.2420753538608551
visibility: 0.9999408721923828
","x: 208.04043579101562
y: 258.2214050292969
z: -0.2421145886182785
visibility: 0.9999386072158813
","x: 206.81777954101562
y: 258.694580078125
z: -0.24212440848350525
visibility: 0.9999281764030457
","x: 218.53660583496094
y: 258.79351806640625
z: -0.13627049326896667
visibility: 0.9998445510864258
","x: 205.2904815673828
y: 261.10723876953125
z: -0.1349281519651413
visibility: 0.9999197721481323
","x: 214.97242736816406
y: 271.58282470703125
z: -0.21399132907390594
visibility: 0.9999343752861023
","x: 209.61497497558594
y: 272.4837646484375
z: -0.21477773785591125
visibility: 0.9999430179595947
","x: 230.75543212890625
y: 297.03375244140625
z: -0.05057837441563606
visibility: 0.9999173879623413
","x: 194.33895874023438
y: 295.6407470703125
z: -0.06669021397829056
visibility: 0.9999194145202637
","x: 239.72732543945312
y: 333.98760986328125
z: -0.048817407339811325
visibility: 0.9012467265129089
","x: 188.47738647460938
y: 338.7297058105469
z: -0.07269974797964096
visibility: 0.9916327595710754
","x: 240.92733764648438
y: 357.805908203125
z: -0.20995886623859406
visibility: 0.9274429082870483
","x: 190.28439331054688
y: 361.941162109375
z: -0.22861352562904358
visibility: 0.9831052422523499
","x: 244.05352783203125
y: 368.2740478515625
z: -0.24691538512706757
visibility: 0.872115433216095
","x: 187.38873291015625
y: 372.6790771484375
z: -0.2647874355316162
visibility: 0.9671681523323059
","x: 242.324462890625
y: 366.5930480957031
z: -0.2739853262901306
visibility: 0.8839470148086548
","x: 189.64488220214844
y: 371.67041015625
z: -0.29464349150657654
visibility: 0.9661268591880798
","x: 240.22259521484375
y: 363.01092529296875
z: -0.22451336681842804
visibility: 0.8703678846359253
","x: 191.67056274414062
y: 367.8710632324219
z: -0.24319466948509216
visibility: 0.9492279887199402
","x: 225.72885131835938
y: 385.02447509765625
z: 0.006832250393927097
visibility: 0.9995509386062622
","x: 204.8278045654297
y: 387.4825744628906
z: -0.006918448023498058
visibility: 0.9995986223220825
","x: 233.8441162109375
y: 452.5497741699219
z: -0.03097773715853691
visibility: 0.9546254277229309
","x: 204.47052001953125
y: 457.4186706542969
z: -0.020399022847414017
visibility: 0.9893338084220886
","x: 240.3524169921875
y: 523.92431640625
z: 0.0672527402639389
visibility: 0.9705916047096252
","x: 197.75184631347656
y: 517.807861328125
z: 0.12871260941028595
visibility: 0.9909170866012573
","x: 239.2210693359375
y: 537.121826171875
z: 0.07034663110971451
visibility: 0.9255285263061523
","x: 197.3697967529297
y: 524.1455078125
z: 0.13726146519184113
visibility: 0.892213761806488
","x: 244.89569091796875
y: 541.1329345703125
z: -0.044631682336330414
visibility: 0.9774401783943176
","x: 201.02200317382812
y: 545.0072021484375
z: 0.031548790633678436
visibility: 0.986991822719574
",,,,,,,,,,,,,,,,,,,,,,,,,,,,,,,,,,,,,,,,,,
6,"x: 212.06336975097656
y: 261.143310546875
z: -0.22749681770801544
visibility: 0.9999704957008362
","x: 213.39431762695312
y: 254.18280029296875
z: -0.2122935950756073
visibility: 0.9999456405639648
","x: 214.60130310058594
y: 253.99087524414062
z: -0.21232549846172333
visibility: 0.9999398589134216
","x: 215.55259704589844
y: 253.92958068847656
z: -0.2123386114835739
visibility: 0.9999443292617798
","x: 209.5850830078125
y: 255.2753448486328
z: -0.2155194729566574
visibility: 0.9999456405639648
","x: 208.19412231445312
y: 255.74984741210938
z: -0.21554481983184814
visibility: 0.9999433755874634
","x: 206.82339477539062
y: 256.21270751953125
z: -0.21554076671600342
visibility: 0.9999337196350098
","x: 217.1028594970703
y: 257.2729187011719
z: -0.10900064557790756
visibility: 0.9998589754104614
","x: 204.51040649414062
y: 260.0689697265625
z: -0.1244446188211441
visibility: 0.9999253153800964
","x: 215.0261993408203
y: 268.33917236328125
z: -0.18808335065841675
visibility: 0.9999404549598694
","x: 209.65835571289062
y: 269.27618408203125
z: -0.19256851077079773
visibility: 0.9999480247497559
","x: 230.18109130859375
y: 296.605712890625
z: -0.039795391261577606
visibility: 0.9999241232872009
","x: 192.79335021972656
y: 295.16802978515625
z: -0.050524450838565826
visibility: 0.9999189376831055
","x: 239.47265625
y: 334.6133117675781
z: -0.08731600642204285
visibility: 0.9084776043891907
","x: 186.64144897460938
y: 338.93048095703125
z: -0.09877621382474899
visibility: 0.9884374737739563
","x: 242.74526977539062
y: 342.5831298828125
z: -0.29118308424949646
visibility: 0.933175802230835
","x: 184.59243774414062
y: 354.63031005859375
z: -0.2876972258090973
visibility: 0.9808744192123413
","x: 245.3147735595703
y: 343.1329650878906
z: -0.3346385061740875
visibility: 0.8822363615036011
","x: 182.25344848632812
y: 355.9494323730469
z: -0.32592350244522095
visibility: 0.9645804762840271
","x: 243.5509033203125
y: 337.591796875
z: -0.35363319516181946
visibility: 0.8932721018791199
","x: 182.95033264160156
y: 355.0655822753906
z: -0.3465532958507538
visibility: 0.9641356468200684
","x: 241.93038940429688
y: 336.8183898925781
z: -0.30363473296165466
visibility: 0.8800214529037476
","x: 184.99188232421875
y: 354.3420715332031
z: -0.30095332860946655
visibility: 0.947393000125885
","x: 224.0789031982422
y: 385.2285461425781
z: 0.007646025624126196
visibility: 0.9995660185813904
","x: 203.2160186767578
y: 387.5326843261719
z: -0.007681793067604303
visibility: 0.9995943903923035
","x: 230.63446044921875
y: 455.40411376953125
z: -0.03738795965909958
visibility: 0.9585815072059631
","x: 202.2532958984375
y: 459.6329345703125
z: -0.0280277319252491
visibility: 0.9897321462631226
","x: 236.06971740722656
y: 523.052490234375
z: 0.08626348525285721
visibility: 0.9729358553886414
","x: 198.06846618652344
y: 522.5104370117188
z: 0.1038845032453537
visibility: 0.9910310506820679
","x: 234.1544952392578
y: 536.5123291015625
z: 0.09500283747911453
visibility: 0.9268023371696472
","x: 198.42994689941406
y: 527.4226684570312
z: 0.11028748750686646
visibility: 0.8876092433929443
","x: 242.09024047851562
y: 540.2591552734375
z: -0.026848841458559036
visibility: 0.9786906242370605
","x: 200.17979431152344
y: 546.5751953125
z: -0.0017977118259295821
visibility: 0.9869080781936646
",,,,,,,,,,,,,,,,,,,,,,,,,,,,,,,,,,,,,,,,,,
7,"x: 210.91555786132812
y: 258.72479248046875
z: -0.2081908881664276
visibility: 0.9999727606773376
","x: 212.49493408203125
y: 251.91526794433594
z: -0.1929355263710022
visibility: 0.9999500513076782
","x: 213.84796142578125
y: 251.73219299316406
z: -0.19296789169311523
visibility: 0.9999446272850037
","x: 214.9363250732422
y: 251.62411499023438
z: -0.19295814633369446
visibility: 0.9999485015869141
","x: 208.48052978515625
y: 252.82473754882812
z: -0.19001156091690063
visibility: 0.99994957447052
","x: 207.11293029785156
y: 253.28233337402344
z: -0.1900283396244049
visibility: 0.9999475479125977
","x: 205.73985290527344
y: 253.75997924804688
z: -0.19003485143184662
visibility: 0.9999389052391052
","x: 216.78030395507812
y: 254.65023803710938
z: -0.08303924649953842
visibility: 0.9998709559440613
","x: 204.07012939453125
y: 257.61236572265625
z: -0.0853969156742096
visibility: 0.9999311566352844
","x: 214.06005859375
y: 265.7812194824219
z: -0.16581414639949799
visibility: 0.9999459385871887
","x: 208.59707641601562
y: 266.6720886230469
z: -0.16395138204097748
visibility: 0.9999527931213379
","x: 230.40684509277344
y: 295.525146484375
z: -0.01557401567697525
visibility: 0.9999306201934814
","x: 191.99349975585938
y: 293.0080871582031
z: -0.029054414480924606
visibility: 0.9999244213104248
","x: 238.52157592773438
y: 335.2566833496094
z: -0.039498765021562576
visibility: 0.9142405390739441
","x: 185.05882263183594
y: 335.8619689941406
z: -0.0863993912935257
visibility: 0.988724946975708
","x: 236.61903381347656
y: 351.78875732421875
z: -0.22288084030151367
visibility: 0.9375934600830078
","x: 190.658935546875
y: 351.7233581542969
z: -0.2835356295108795
visibility: 0.9818740487098694
","x: 237.2918701171875
y: 356.5050964355469
z: -0.26646488904953003
visibility: 0.8905205726623535
","x: 191.3712158203125
y: 358.55584716796875
z: -0.3274093270301819
visibility: 0.9665045738220215
","x: 234.67221069335938
y: 354.6474914550781
z: -0.2890070974826813
visibility: 0.9007283449172974
","x: 193.2407684326172
y: 354.8105163574219
z: -0.3409176170825958
visibility: 0.9661479592323303
","x: 233.76370239257812
y: 352.4389343261719
z: -0.2361198365688324
visibility: 0.8873752355575562
","x: 193.8724365234375
y: 351.94891357421875
z: -0.29294273257255554
visibility: 0.9501746296882629
","x: 223.34727478027344
y: 384.06787109375
z: 0.01027086190879345
visibility: 0.9995983242988586
","x: 202.4253387451172
y: 385.7128601074219
z: -0.010271377861499786
visibility: 0.9996167421340942
","x: 224.25210571289062
y: 455.4649658203125
z: -0.0394950732588768
visibility: 0.9612728357315063
","x: 202.2786407470703
y: 458.36798095703125
z: -0.03062530979514122
visibility: 0.9892141819000244
","x: 221.65585327148438
y: 522.6404418945312
z: 0.12020914256572723
visibility: 0.9739527106285095
","x: 198.46124267578125
y: 522.1911010742188
z: 0.10740156471729279
visibility: 0.9900391697883606
","x: 218.13397216796875
y: 534.0089111328125
z: 0.13080242276191711
visibility: 0.9214157462120056
","x: 198.93795776367188
y: 528.2083740234375
z: 0.11581633239984512
visibility: 0.8755093216896057
","x: 222.49754333496094
y: 544.8541259765625
z: 0.013834638521075249
visibility: 0.9786901473999023
","x: 201.5380859375
y: 546.8096313476562
z: -0.003663873765617609
visibility: 0.9857386946678162
",,,,,,,,,,,,,,,,,,,,,,,,,,,,,,,,,,,,,,,,,,
8,"x: 211.9708709716797
y: 259.08831787109375
z: -0.18028971552848816
visibility: 0.9999750852584839
","x: 213.59756469726562
y: 252.08021545410156
z: -0.16185513138771057
visibility: 0.9999541640281677
","x: 214.7948455810547
y: 251.92950439453125
z: -0.16188421845436096
visibility: 0.9999490976333618
","x: 215.91827392578125
y: 251.81700134277344
z: -0.1618930548429489
visibility: 0.999952495098114
","x: 209.62619018554688
y: 252.99295043945312
z: -0.16064324975013733
visibility: 0.9999534487724304
","x: 208.23318481445312
y: 253.5509033203125
z: -0.160653218626976
visibility: 0.9999515414237976
","x: 206.93191528320312
y: 254.1514434814453
z: -0.16064199805259705
visibility: 0.9999438524246216
","x: 218.04849243164062
y: 255.20681762695312
z: -0.057091813534498215
visibility: 0.9998824000358582
","x: 204.98348999023438
y: 258.1239013671875
z: -0.055677104741334915
visibility: 0.9999368190765381
","x: 215.06813049316406
y: 266.580078125
z: -0.14131566882133484
visibility: 0.9999510645866394
","x: 209.74545288085938
y: 267.1381530761719
z: -0.14015589654445648
visibility: 0.9999572038650513
","x: 230.56365966796875
y: 296.9583740234375
z: -0.011790923774242401
visibility: 0.9999358654022217
","x: 193.5731964111328
y: 293.802734375
z: -0.005253503564745188
visibility: 0.9999277591705322
","x: 238.0061798095703
y: 342.1946716308594
z: -0.06684960424900055
visibility: 0.9214884638786316
","x: 185.9931182861328
y: 337.4068603515625
z: -0.0789332166314125
visibility: 0.988711416721344
","x: 225.85797119140625
y: 355.2363586425781
z: -0.23903517425060272
visibility: 0.9428339600563049
","x: 192.68328857421875
y: 350.8675842285156
z: -0.28164079785346985
visibility: 0.9827260971069336
","x: 222.70123291015625
y: 362.8454895019531
z: -0.28075721859931946
visibility: 0.8996134996414185
","x: 194.24411010742188
y: 357.25518798828125
z: -0.3279053568840027
visibility: 0.9681392908096313
","x: 220.56369018554688
y: 359.82550048828125
z: -0.2936441898345947
visibility: 0.9088287949562073
","x: 195.8258056640625
y: 352.66680908203125
z: -0.335443377494812
visibility: 0.9677642583847046
","x: 221.31121826171875
y: 356.6328430175781
z: -0.24739854037761688
visibility: 0.8957545757293701
","x: 196.08631896972656
y: 350.0718688964844
z: -0.2893829047679901
visibility: 0.9524416923522949
","x: 222.3507843017578
y: 388.9410095214844
z: -0.0013991352170705795
visibility: 0.9996344447135925
","x: 200.99078369140625
y: 388.6787109375
z: 0.0013857206795364618
visibility: 0.9996509552001953
","x: 225.6519317626953
y: 458.2833251953125
z: -0.10696245729923248
visibility: 0.9647873640060425
","x: 188.7818603515625
y: 459.1750793457031
z: -0.15008294582366943
visibility: 0.9901360273361206
","x: 219.3280029296875
y: 522.4580078125
z: 0.11113639175891876
visibility: 0.9758031368255615
","x: 193.11325073242188
y: 516.649658203125
z: 0.08730529993772507
visibility: 0.9905223250389099
","x: 214.6555938720703
y: 531.908935546875
z: 0.12324529886245728
visibility: 0.9209216833114624
","x: 196.17201232910156
y: 522.41357421875
z: 0.09997030347585678
visibility: 0.8803051114082336
","x: 222.23446655273438
y: 546.5328369140625
z: 0.016710493713617325
visibility: 0.979434072971344
","x: 196.4652557373047
y: 544.691650390625
z: -0.010951483622193336
visibility: 0.9862059354782104
",,,,,,,,,,,,,,,,,,,,,,,,,,,,,,,,,,,,,,,,,,
9,"x: 212.58261108398438
y: 259.6462707519531
z: -0.29751670360565186
visibility: 0.9999774694442749
","x: 214.0254364013672
y: 252.21026611328125
z: -0.28267890214920044
visibility: 0.9999584555625916
","x: 215.12132263183594
y: 252.0413055419922
z: -0.28271785378456116
visibility: 0.9999538660049438
","x: 216.25926208496094
y: 251.9285888671875
z: -0.2827540338039398
visibility: 0.9999569058418274
","x: 210.16665649414062
y: 253.24093627929688
z: -0.2836519181728363
visibility: 0.9999576807022095
","x: 208.73202514648438
y: 253.80255126953125
z: -0.28371158242225647
visibility: 0.999955952167511
","x: 207.40016174316406
y: 254.3983154296875
z: -0.2837238907814026
visibility: 0.9999489188194275
","x: 218.36634826660156
y: 255.8602294921875
z: -0.17351487278938293
visibility: 0.999893307685852
","x: 205.03273010253906
y: 258.5101318359375
z: -0.18031933903694153
visibility: 0.9999426007270813
","x: 215.47515869140625
y: 267.333251953125
z: -0.255638062953949
visibility: 0.9999556541442871
","x: 210.2794189453125
y: 267.771240234375
z: -0.25751811265945435
visibility: 0.9999611973762512
","x: 230.7238006591797
y: 297.93341064453125
z: -0.08017048984766006
visibility: 0.9999409914016724
","x: 193.4815673828125
y: 294.7405700683594
z: -0.10268746316432953
visibility: 0.9999332427978516
","x: 240.38255310058594
y: 343.515869140625
z: -0.1265896111726761
visibility: 0.9279477596282959
","x: 177.5537109375
y: 336.85162353515625
z: -0.13771434128284454
visibility: 0.9893548488616943
","x: 255.76841735839844
y: 332.93280029296875
z: -0.32170653343200684
visibility: 0.9480569362640381
","x: 155.71534729003906
y: 342.9820556640625
z: -0.3013879060745239
visibility: 0.9839823842048645
","x: 263.7052917480469
y: 335.6017761230469
z: -0.35782894492149353
visibility: 0.9085652232170105
","x: 149.19728088378906
y: 347.8613586425781
z: -0.33418720960617065
visibility: 0.9701045155525208
","x: 263.27978515625
y: 331.12689208984375
z: -0.37988677620887756
visibility: 0.9171046614646912
","x: 148.56056213378906
y: 343.8729248046875
z: -0.3575223982334137
visibility: 0.9699724912643433
","x: 259.3796081542969
y: 329.3572692871094
z: -0.3359989821910858
visibility: 0.9050633907318115
","x: 150.68927001953125
y: 342.61419677734375
z: -0.3152945935726166
visibility: 0.9559412002563477
","x: 221.60824584960938
y: 389.6444091796875
z: -1.0159889825445134e-05
visibility: 0.99964839220047
","x: 200.86878967285156
y: 388.1664733886719
z: -8.762812649365515e-05
visibility: 0.9996716380119324
","x: 224.52911376953125
y: 463.06085205078125
z: 0.028759274631738663
visibility: 0.9668335914611816
","x: 185.87481689453125
y: 457.13934326171875
z: -0.11211385577917099
visibility: 0.9909358024597168
","x: 217.1106719970703
y: 522.5053100585938
z: 0.20019273459911346
visibility: 0.9775646924972534
","x: 174.88621520996094
y: 517.2538452148438
z: 0.017102060839533806
visibility: 0.9912072420120239
","x: 212.4127197265625
y: 532.9267578125
z: 0.21050992608070374
visibility: 0.9239745736122131
","x: 174.42625427246094
y: 524.02685546875
z: 0.024202579632401466
visibility: 0.8850643038749695
","x: 222.18763732910156
y: 546.7522583007812
z: 0.11168662458658218
visibility: 0.9804486036300659
","x: 182.90345764160156
y: 543.5706176757812
z: -0.09052634984254837
visibility: 0.9871248006820679
",,,,,,,,,,,,,,,,,,,,,,,,,,,,,,,,,,,,,,,,,,
10,"x: 209.5745849609375
y: 261.1392517089844
z: -0.2862432599067688
visibility: 0.9999789595603943
","x: 211.25106811523438
y: 253.77420043945312
z: -0.2739556133747101
visibility: 0.9999603629112244
","x: 212.51507568359375
y: 253.54103088378906
z: -0.27399906516075134
visibility: 0.9999567270278931
","x: 213.79541015625
y: 253.4042510986328
z: -0.2740309536457062
visibility: 0.9999589920043945
","x: 207.31719970703125
y: 254.83985900878906
z: -0.27238088846206665
visibility: 0.9999580979347229
","x: 205.9793701171875
y: 255.34088134765625
z: -0.27243274450302124
visibility: 0.9999566078186035
","x: 204.82020568847656
y: 255.85540771484375
z: -0.27244502305984497
visibility: 0.9999489188194275
","x: 215.6945037841797
y: 257.0052490234375
z: -0.1764141023159027
visibility: 0.9998998045921326
","x: 202.6786651611328
y: 259.773681640625
z: -0.1700213998556137
visibility: 0.9999427199363708
","x: 212.589111328125
y: 268.3509216308594
z: -0.24854812026023865
visibility: 0.9999587535858154
","x: 207.14588928222656
y: 269.1131286621094
z: -0.2466367781162262
visibility: 0.9999632835388184
","x: 228.86830139160156
y: 298.12359619140625
z: -0.09366799890995026
visibility: 0.9999452829360962
","x: 190.67434692382812
y: 295.74005126953125
z: -0.0967465341091156
visibility: 0.9999363422393799
","x: 240.3402099609375
y: 343.3089904785156
z: -0.14581932127475739
visibility: 0.9333779215812683
","x: 173.6505584716797
y: 335.1288146972656
z: -0.126999169588089
visibility: 0.9900582432746887
","x: 251.84042358398438
y: 341.0894470214844
z: -0.34421300888061523
visibility: 0.9525507092475891
","x: 151.0850830078125
y: 341.94970703125
z: -0.26421353220939636
visibility: 0.9852220416069031
","x: 258.90557861328125
y: 342.31829833984375
z: -0.3813248872756958
visibility: 0.9163708686828613
","x: 142.3275146484375
y: 347.6854248046875
z: -0.2914627194404602
visibility: 0.9721001386642456
","x: 258.8192138671875
y: 338.182373046875
z: -0.4057118892669678
visibility: 0.9243741631507874
","x: 142.15711975097656
y: 344.1372985839844
z: -0.3214876055717468
visibility: 0.9721611142158508
","x: 255.81805419921875
y: 337.6588439941406
z: -0.35916322469711304
visibility: 0.913262128829956
","x: 145.75628662109375
y: 342.34716796875
z: -0.2815917134284973
visibility: 0.9594174027442932
","x: 218.42437744140625
y: 390.31060791015625
z: 0.006786517798900604
visibility: 0.9996418356895447
","x: 197.94712829589844
y: 387.7406005859375
z: -0.006836970802396536
visibility: 0.9996553063392639
","x: 218.61819458007812
y: 463.9783020019531
z: 0.013962347991764545
visibility: 0.9679374694824219
","x: 189.00653076171875
y: 457.467041015625
z: -0.09071125090122223
visibility: 0.9912542104721069
","x: 215.74917602539062
y: 524.1028442382812
z: 0.15985141694545746
visibility: 0.9782304167747498
","x: 178.57357788085938
y: 516.9981689453125
z: 0.040079060941934586
visibility: 0.9904714822769165
","x: 212.7452850341797
y: 534.3538818359375
z: 0.16815271973609924
visibility: 0.9185168743133545
","x: 176.60366821289062
y: 523.4995727539062
z: 0.04428746551275253
visibility: 0.8711567521095276
","x: 220.73207092285156
y: 546.7064208984375
z: 0.06634543091058731
visibility: 0.9798336625099182
","x: 185.5641326904297
y: 544.0335693359375
z: -0.08093708008527756
visibility: 0.9861342310905457
",,,,,,,,,,,,,,,,,,,,,,,,,,,,,,,,,,,,,,,,,,
11,"x: 199.32728576660156
y: 266.6454162597656
z: -0.36213305592536926
visibility: 0.9999808669090271
","x: 201.01516723632812
y: 259.7481994628906
z: -0.353982150554657
visibility: 0.9999635219573975
","x: 202.1717071533203
y: 259.42877197265625
z: -0.3539799749851227
visibility: 0.9999602437019348
","x: 203.47332763671875
y: 259.1225280761719
z: -0.3540254235267639
visibility: 0.999962329864502
","x: 197.5714874267578
y: 260.47613525390625
z: -0.3509141802787781
visibility: 0.9999613761901855
","x: 196.357421875
y: 260.6414489746094
z: -0.3509747385978699
visibility: 0.9999598860740662
","x: 195.1230926513672
y: 260.8435974121094
z: -0.3509763181209564
visibility: 0.9999528527259827
","x: 206.11280822753906
y: 260.8349304199219
z: -0.2601475417613983
visibility: 0.999908447265625
","x: 193.83828735351562
y: 262.5811462402344
z: -0.2474905550479889
visibility: 0.9999461770057678
","x: 201.8012237548828
y: 273.203125
z: -0.3236541152000427
visibility: 0.9999624490737915
","x: 197.75318908691406
y: 273.3213195800781
z: -0.3201000392436981
visibility: 0.9999663829803467
","x: 220.45875549316406
y: 300.51556396484375
z: -0.16972723603248596
visibility: 0.9999496340751648
","x: 184.2160186767578
y: 297.39630126953125
z: -0.14343135058879852
visibility: 0.9999415874481201
","x: 227.92857360839844
y: 350.20379638671875
z: -0.13529983162879944
visibility: 0.9397530555725098
","x: 176.47061157226562
y: 343.921875
z: -0.09501548856496811
visibility: 0.9895501136779785
","x: 229.96475219726562
y: 387.4598693847656
z: -0.26967665553092957
visibility: 0.9564701914787292
","x: 162.91563415527344
y: 377.12969970703125
z: -0.18270495533943176
visibility: 0.9842100739479065
","x: 232.02561950683594
y: 402.44268798828125
z: -0.2721468210220337
visibility: 0.9221585392951965
","x: 158.90908813476562
y: 390.60919189453125
z: -0.20793065428733826
visibility: 0.9699724912643433
","x: 228.97865295410156
y: 401.3050842285156
z: -0.3232782781124115
visibility: 0.9295873045921326
","x: 158.8353271484375
y: 389.7615966796875
z: -0.24409440159797668
visibility: 0.9705944061279297
","x: 227.15164184570312
y: 395.9645080566406
z: -0.2831082046031952
visibility: 0.9186555743217468
","x: 160.49224853515625
y: 384.8327941894531
z: -0.19935813546180725
visibility: 0.9579457640647888
","x: 213.51617431640625
y: 390.4571228027344
z: -0.0006241294904612005
visibility: 0.999659538269043
","x: 192.62429809570312
y: 388.6782531738281
z: 0.0005882236873731017
visibility: 0.9996830224990845
","x: 217.62005615234375
y: 464.6456298828125
z: 0.002391957212239504
visibility: 0.9705618023872375
","x: 182.8979034423828
y: 459.0408935546875
z: -0.08741816133260727
visibility: 0.991951584815979
","x: 215.2052001953125
y: 524.01513671875
z: 0.1328871101140976
visibility: 0.9799771308898926
","x: 177.6664581298828
y: 530.500732421875
z: 0.030525624752044678
visibility: 0.9912484884262085
","x: 211.56893920898438
y: 534.895751953125
z: 0.1374017894268036
visibility: 0.9224901795387268
","x: 179.9486541748047
y: 542.0283813476562
z: 0.0329039990901947
visibility: 0.8791206479072571
","x: 221.31365966796875
y: 547.1007690429688
z: 0.02768031880259514
visibility: 0.9811842441558838
","x: 173.79515075683594
y: 553.8618774414062
z: -0.0846700593829155
visibility: 0.987107515335083
",,,,,,,,,,,,,,,,,,,,,,,,,,,,,,,,,,,,,,,,,,
12,"x: 194.73983764648438
y: 266.8063049316406
z: -0.3555811047554016
visibility: 0.9999817609786987
","x: 196.02139282226562
y: 260.00958251953125
z: -0.3483894169330597
visibility: 0.9999637603759766
","x: 197.41993713378906
y: 259.6489562988281
z: -0.348381370306015
visibility: 0.9999610185623169
","x: 198.83206176757812
y: 259.3332824707031
z: -0.34840553998947144
visibility: 0.9999630451202393
","x: 192.59059143066406
y: 260.9526672363281
z: -0.34166261553764343
visibility: 0.9999613165855408
","x: 191.33140563964844
y: 261.2532958984375
z: -0.3416982591152191
visibility: 0.9999592900276184
","x: 190.10581970214844
y: 261.5390930175781
z: -0.34171679615974426
visibility: 0.9999529719352722
","x: 202.54901123046875
y: 261.1710205078125
z: -0.2660866379737854
visibility: 0.9999133348464966
","x: 189.24559020996094
y: 263.4270935058594
z: -0.235683873295784
visibility: 0.9999388456344604
","x: 197.68881225585938
y: 273.2831726074219
z: -0.32186800241470337
visibility: 0.9999645352363586
","x: 193.55796813964844
y: 273.61083984375
z: -0.3133312165737152
visibility: 0.9999675154685974
","x: 215.20372009277344
y: 302.40411376953125
z: -0.21258148550987244
visibility: 0.9999521374702454
","x: 181.5977783203125
y: 299.0777893066406
z: -0.11777553707361221
visibility: 0.9999433755874634
","x: 209.66748046875
y: 358.02105712890625
z: -0.18762367963790894
visibility: 0.9448740482330322
","x: 177.3878631591797
y: 349.15228271484375
z: -0.05022299289703369
visibility: 0.9781820178031921
","x: 195.38406372070312
y: 394.0933837890625
z: -0.2498053014278412
visibility: 0.9585015773773193
","x: 171.26072692871094
y: 388.85260009765625
z: -0.12892697751522064
visibility: 0.9655802845954895
","x: 192.54441833496094
y: 408.0902404785156
z: -0.27204084396362305
visibility: 0.924666702747345
","x: 169.6150665283203
y: 403.76348876953125
z: -0.14848966896533966
visibility: 0.9432158470153809
","x: 189.27618408203125
y: 405.93768310546875
z: -0.2994658052921295
visibility: 0.9315158724784851
","x: 170.12503051757812
y: 404.62109375
z: -0.18009230494499207
visibility: 0.9452253580093384
","x: 189.2257080078125
y: 401.3409118652344
z: -0.25887784361839294
visibility: 0.9186310172080994
","x: 171.27880859375
y: 400.11846923828125
z: -0.1431751251220703
visibility: 0.9299207925796509
","x: 209.8479461669922
y: 390.2972717285156
z: -0.020896032452583313
visibility: 0.9996773600578308
","x: 189.0183868408203
y: 388.5804443359375
z: 0.02081441879272461
visibility: 0.9997103214263916
","x: 209.9116973876953
y: 467.0329284667969
z: -0.005133058875799179
visibility: 0.972945511341095
","x: 178.2763671875
y: 459.9678039550781
z: -0.06828960031270981
visibility: 0.9924322366714478
","x: 210.6502227783203
y: 523.14697265625
z: 0.19801540672779083
visibility: 0.9811393022537231
","x: 178.3651885986328
y: 532.7134399414062
z: 0.03468262404203415
visibility: 0.9917542934417725
","x: 209.52720642089844
y: 529.32958984375
z: 0.2128581553697586
visibility: 0.9128805994987488
","x: 181.4761505126953
y: 544.1082153320312
z: 0.044680774211883545
visibility: 0.8840566277503967
","x: 209.1351318359375
y: 546.8256225585938
z: 0.105664923787117
visibility: 0.9818140864372253
","x: 173.27696228027344
y: 556.7196044921875
z: -0.06577907502651215
visibility: 0.9877699017524719
",,,,,,,,,,,,,,,,,,,,,,,,,,,,,,,,,,,,,,,,,,
13,"x: 198.32351684570312
y: 267.013916015625
z: -0.23000755906105042
visibility: 0.9999808073043823
","x: 200.00872802734375
y: 260.1479797363281
z: -0.21913325786590576
visibility: 0.9999603033065796
","x: 201.3994598388672
y: 259.8410339355469
z: -0.21917474269866943
visibility: 0.9999568462371826
","x: 202.78515625
y: 259.58209228515625
z: -0.21918848156929016
visibility: 0.9999588131904602
","x: 196.114013671875
y: 260.99755859375
z: -0.21017777919769287
visibility: 0.9999570846557617
","x: 194.85595703125
y: 261.3218994140625
z: -0.21018445491790771
visibility: 0.9999527335166931
","x: 193.77035522460938
y: 261.64422607421875
z: -0.21023276448249817
visibility: 0.9999480247497559
","x: 205.43394470214844
y: 261.8777770996094
z: -0.14102403819561005
visibility: 0.9999058246612549
","x: 192.88937377929688
y: 263.9151611328125
z: -0.09836287051439285
visibility: 0.9999273419380188
","x: 201.84365844726562
y: 273.4432373046875
z: -0.19955864548683167
visibility: 0.999962568283081
","x: 196.62022399902344
y: 274.0378723144531
z: -0.18738791346549988
visibility: 0.9999620914459229
","x: 218.43258666992188
y: 302.28179931640625
z: -0.12414360046386719
visibility: 0.9999372959136963
","x: 184.22293090820312
y: 299.65167236328125
z: -0.00732431560754776
visibility: 0.9999370574951172
","x: 209.6186065673828
y: 353.92706298828125
z: -0.19420702755451202
visibility: 0.9476519823074341
","x: 178.12843322753906
y: 346.47198486328125
z: 0.04826778545975685
visibility: 0.9649328589439392
","x: 190.3176727294922
y: 324.47711181640625
z: -0.3582661747932434
visibility: 0.9608839154243469
","x: 160.42247009277344
y: 373.4237365722656
z: -0.03793057054281235
visibility: 0.9596070647239685
","x: 185.1639404296875
y: 318.4434814453125
z: -0.39660847187042236
visibility: 0.9292111992835999
","x: 154.9744873046875
y: 383.9773864746094
z: -0.05917041376233101
visibility: 0.9347544312477112
","x: 184.64686584472656
y: 314.7829895019531
z: -0.3974422812461853
visibility: 0.9353664517402649
","x: 154.40724182128906
y: 382.1174621582031
z: -0.08992899954319
visibility: 0.9376300573348999
","x: 186.433349609375
y: 316.4595947265625
z: -0.36207613348960876
visibility: 0.9212315678596497
","x: 156.2105255126953
y: 378.59112548828125
z: -0.05387495830655098
visibility: 0.9225730299949646
","x: 208.92832946777344
y: 391.19085693359375
z: -0.021100454032421112
visibility: 0.9996945858001709
","x: 188.55657958984375
y: 389.008056640625
z: 0.02094433829188347
visibility: 0.9997270703315735
","x: 206.642333984375
y: 467.24407958984375
z: -0.06923992931842804
visibility: 0.9750076532363892
","x: 172.37557983398438
y: 460.4035949707031
z: -0.08154629915952682
visibility: 0.9929591417312622
","x: 203.67538452148438
y: 525.7816162109375
z: 0.10462405532598495
visibility: 0.9825243949890137
","x: 176.89031982421875
y: 525.800048828125
z: 0.11292377859354019
visibility: 0.9920487999916077
","x: 200.9110565185547
y: 533.8988037109375
z: 0.11733460426330566
visibility: 0.9134345650672913
","x: 181.97413635253906
y: 532.741455078125
z: 0.1289253532886505
visibility: 0.8898026347160339
","x: 208.4210968017578
y: 548.2908935546875
z: 0.016629576683044434
visibility: 0.9828787446022034
","x: 172.84848022460938
y: 555.2548828125
z: 0.04515949636697769
visibility: 0.9881731867790222
",,,,,,,,,,,,,,,,,,,,,,,,,,,,,,,,,,,,,,,,,,
14,"x: 196.26773071289062
y: 266.8519287109375
z: -0.2272980511188507
visibility: 0.9999824166297913
","x: 198.06121826171875
y: 259.80914306640625
z: -0.21583148837089539
visibility: 0.9999637603759766
","x: 199.60162353515625
y: 259.54913330078125
z: -0.21588134765625
visibility: 0.9999606609344482
","x: 201.10232543945312
y: 259.3922119140625
z: -0.2159215658903122
visibility: 0.9999623894691467
","x: 194.2899627685547
y: 260.86602783203125
z: -0.2065614014863968
visibility: 0.9999602437019348
","x: 193.0788116455078
y: 261.1800537109375
z: -0.20653808116912842
visibility: 0.9999557733535767
","x: 191.90499877929688
y: 261.27789306640625
z: -0.20655235648155212
visibility: 0.9999513030052185
","x: 204.28646850585938
y: 261.7344970703125
z: -0.13299229741096497
visibility: 0.9999145269393921
","x: 191.11614990234375
y: 263.5211486816406
z: -0.08868353813886642
visibility: 0.9999323487281799
","x: 199.88162231445312
y: 272.76080322265625
z: -0.19517534971237183
visibility: 0.999966025352478
","x: 194.44674682617188
y: 273.59906005859375
z: -0.18265214562416077
visibility: 0.9999651312828064
","x: 217.19705200195312
y: 300.7903137207031
z: -0.10472731292247772
visibility: 0.9999420642852783
","x: 183.48348999023438
y: 298.387451171875
z: 0.00753103569149971
visibility: 0.9999356269836426
","x: 215.5792694091797
y: 351.92059326171875
z: -0.20477509498596191
visibility: 0.9522563815116882
","x: 177.46568298339844
y: 341.4421081542969
z: 0.08335871994495392
visibility: 0.9572418928146362
","x: 205.4210205078125
y: 307.41949462890625
z: -0.3998357355594635
visibility: 0.9646177291870117
","x: 153.93345642089844
y: 344.50079345703125
z: 0.011936555616557598
visibility: 0.9600983262062073
","x: 202.68356323242188
y: 295.9688415527344
z: -0.4401063323020935
visibility: 0.9358744621276855
","x: 145.88336181640625
y: 348.0879211425781
z: -0.003165955189615488
visibility: 0.9353698492050171
","x: 202.85057067871094
y: 291.949462890625
z: -0.43922367691993713
visibility: 0.9414050579071045
","x: 144.52659606933594
y: 344.28076171875
z: -0.03401830047369003
visibility: 0.9385417103767395
","x: 203.432373046875
y: 294.9327392578125
z: -0.4036901593208313
visibility: 0.9282312989234924
","x: 147.8273468017578
y: 342.97601318359375
z: -0.003770059673115611
visibility: 0.9243981242179871
","x: 207.62022399902344
y: 390.96746826171875
z: -0.021642614156007767
visibility: 0.9997159242630005
","x: 187.82093811035156
y: 388.8057861328125
z: 0.02150564268231392
visibility: 0.9997408390045166
","x: 205.8607635498047
y: 467.8627014160156
z: -0.06069563701748848
visibility: 0.9772022366523743
","x: 176.0844268798828
y: 460.83184814453125
z: -0.06093505024909973
visibility: 0.9935043454170227
","x: 204.3745880126953
y: 525.263671875
z: 0.1479051113128662
visibility: 0.9838762879371643
","x: 178.93661499023438
y: 525.181640625
z: 0.1618419587612152
visibility: 0.9923999905586243
","x: 201.52391052246094
y: 532.2163696289062
z: 0.16584311425685883
visibility: 0.9133585095405579
","x: 182.75416564941406
y: 531.4130249023438
z: 0.17977239191532135
visibility: 0.8945461511611938
","x: 207.0714569091797
y: 549.5043334960938
z: 0.0671590268611908
visibility: 0.983968198299408
","x: 175.201904296875
y: 554.3157348632812
z: 0.09164111316204071
visibility: 0.9886931777000427
",,,,,,,,,,,,,,,,,,,,,,,,,,,,,,,,,,,,,,,,,,
15,"x: 192.6654510498047
y: 269.26983642578125
z: -0.2660887837409973
visibility: 0.9999839067459106
","x: 194.26869201660156
y: 262.69171142578125
z: -0.25688493251800537
visibility: 0.9999668002128601
","x: 195.60504150390625
y: 262.42236328125
z: -0.2569139897823334
visibility: 0.9999641180038452
","x: 197.10255432128906
y: 262.2562561035156
z: -0.2569849193096161
visibility: 0.9999656081199646
","x: 191.03338623046875
y: 263.613525390625
z: -0.2484695464372635
visibility: 0.9999626874923706
","x: 189.9831085205078
y: 263.9281005859375
z: -0.2484736144542694
visibility: 0.9999580979347229
","x: 188.86947631835938
y: 264.19073486328125
z: -0.24846358597278595
visibility: 0.9999531507492065
","x: 200.5221405029297
y: 264.0869445800781
z: -0.1620427370071411
visibility: 0.9999226927757263
","x: 188.099853515625
y: 265.75323486328125
z: -0.0996415764093399
visibility: 0.999936044216156
","x: 195.5000762939453
y: 275.3430480957031
z: -0.22796444594860077
visibility: 0.9999692440032959
","x: 191.5395050048828
y: 276.05438232421875
z: -0.21515700221061707
visibility: 0.9999681115150452
","x: 214.5093994140625
y: 301.7664794921875
z: -0.10168318450450897
visibility: 0.9999475479125977
","x: 179.86788940429688
y: 298.1485900878906
z: -0.03345206007361412
visibility: 0.9999392032623291
","x: 216.81297302246094
y: 352.382568359375
z: -0.18189236521720886
visibility: 0.956478476524353
","x: 174.19137573242188
y: 329.52178955078125
z: 0.06546895205974579
visibility: 0.9607377648353577
","x: 223.28427124023438
y: 328.9436340332031
z: -0.41742247343063354
visibility: 0.9679856896400452
","x: 152.9490509033203
y: 330.97021484375
z: -0.1787625104188919
visibility: 0.963729739189148
","x: 226.34088134765625
y: 324.90460205078125
z: -0.46372613310813904
visibility: 0.9418986439704895
","x: 145.25885009765625
y: 333.49725341796875
z: -0.20632998645305634
visibility: 0.9410467147827148
","x: 225.15994262695312
y: 319.0871276855469
z: -0.4768449664115906
visibility: 0.9469180703163147
","x: 144.27049255371094
y: 328.6419982910156
z: -0.23537151515483856
visibility: 0.9440150856971741
","x: 223.0570526123047
y: 320.174560546875
z: -0.427913099527359
visibility: 0.9348045587539673
","x: 147.88449096679688
y: 328.344482421875
z: -0.19600515067577362
visibility: 0.9311103820800781
","x: 209.06996154785156
y: 390.7291259765625
z: -0.014027699828147888
visibility: 0.9997365474700928
","x: 187.48403930664062
y: 389.734130859375
z: 0.013858966529369354
visibility: 0.9997533559799194
","x: 209.3761444091797
y: 464.7566223144531
z: -0.1359894573688507
visibility: 0.9793261885643005
","x: 178.89854431152344
y: 463.4381103515625
z: -0.05306468531489372
visibility: 0.9939594268798828
","x: 205.96656799316406
y: 525.7109375
z: 0.03596678748726845
visibility: 0.9852393269538879
","x: 180.78009033203125
y: 525.06005859375
z: 0.11695804446935654
visibility: 0.9928075075149536
","x: 202.4664306640625
y: 533.3473510742188
z: 0.04775341600179672
visibility: 0.9185510277748108
","x: 183.8193817138672
y: 533.0675048828125
z: 0.12770864367485046
visibility: 0.8992600440979004
","x: 208.66175842285156
y: 549.8187866210938
z: -0.06797170639038086
visibility: 0.9852213859558105
","x: 176.2844696044922
y: 553.2454833984375
z: 0.024876415729522705
visibility: 0.9891862273216248
",,,,,,,,,,,,,,,,,,,,,,,,,,,,,,,,,,,,,,,,,,
16,"x: 194.15057373046875
y: 280.2477722167969
z: -0.2640928626060486
visibility: 0.9999839067459106
","x: 195.85560607910156
y: 273.1470947265625
z: -0.2539225220680237
visibility: 0.9999657273292542
","x: 197.20375061035156
y: 272.6790771484375
z: -0.2539479434490204
visibility: 0.9999638199806213
","x: 198.48619079589844
y: 272.291748046875
z: -0.2540042996406555
visibility: 0.9999649524688721
","x: 192.23406982421875
y: 274.3830261230469
z: -0.24841642379760742
visibility: 0.9999585747718811
","x: 191.1236572265625
y: 274.69049072265625
z: -0.24844613671302795
visibility: 0.9999530911445618
","x: 189.9587860107422
y: 274.9630432128906
z: -0.24844078719615936
visibility: 0.9999465942382812
","x: 200.93728637695312
y: 272.5631408691406
z: -0.16155537962913513
visibility: 0.9999274015426636
","x: 188.7428436279297
y: 275.1263427734375
z: -0.1263425499200821
visibility: 0.9999305009841919
","x: 197.26190185546875
y: 285.8605041503906
z: -0.22687789797782898
visibility: 0.9999709129333496
","x: 192.53802490234375
y: 286.8683166503906
z: -0.21784034371376038
visibility: 0.9999679327011108
","x: 215.4575958251953
y: 308.0401306152344
z: -0.09661419689655304
visibility: 0.9999517798423767
","x: 178.3484344482422
y: 305.5635986328125
z: -0.05997893959283829
visibility: 0.9999403357505798
","x: 224.6686553955078
y: 351.29376220703125
z: -0.165551096200943
visibility: 0.9600290060043335
","x: 159.9496307373047
y: 328.7978820800781
z: -0.09738998115062714
visibility: 0.9644381999969482
","x: 242.81887817382812
y: 335.7437438964844
z: -0.36957621574401855
visibility: 0.9704779982566833
","x: 139.97891235351562
y: 316.03662109375
z: -0.25957056879997253
visibility: 0.9670780301094055
","x: 248.5420379638672
y: 335.062744140625
z: -0.40669184923171997
visibility: 0.9461200833320618
","x: 133.02845764160156
y: 312.0553283691406
z: -0.28910720348358154
visibility: 0.9460476636886597
","x: 247.9377899169922
y: 330.12884521484375
z: -0.425510972738266
visibility: 0.9508839845657349
","x: 133.48526000976562
y: 307.5586853027344
z: -0.30807292461395264
visibility: 0.9488402605056763
","x: 245.89566040039062
y: 330.98992919921875
z: -0.38279977440834045
visibility: 0.9395917057991028
","x: 135.8656005859375
y: 309.117431640625
z: -0.2730120122432709
visibility: 0.9370574355125427
","x: 210.14108276367188
y: 397.94781494140625
z: -0.010396678932011127
visibility: 0.9997518658638
","x: 187.9098358154297
y: 398.7715148925781
z: 0.010241648182272911
visibility: 0.9997586607933044
","x: 211.4207000732422
y: 465.3506164550781
z: -0.18045689165592194
visibility: 0.9809966087341309
","x: 176.21730041503906
y: 464.52081298828125
z: -0.08008603006601334
visibility: 0.9941607713699341
","x: 206.24176025390625
y: 533.3746337890625
z: -0.05842430144548416
visibility: 0.9861294031143188
","x: 179.78562927246094
y: 524.2158813476562
z: 0.0752173513174057
visibility: 0.9922493100166321
","x: 203.3902130126953
y: 542.8643188476562
z: -0.05190715938806534
visibility: 0.9190759062767029
","x: 182.80345153808594
y: 530.562255859375
z: 0.08478453755378723
visibility: 0.8989682793617249
","x: 209.27017211914062
y: 555.8193359375
z: -0.17263315618038177
visibility: 0.9859386682510376
","x: 176.53440856933594
y: 552.5945434570312
z: -0.01132127270102501
visibility: 0.9886073470115662
",,,,,,,,,,,,,,,,,,,,,,,,,,,,,,,,,,,,,,,,,,
17,"x: 196.38819885253906
y: 268.96661376953125
z: -0.24918043613433838
visibility: 0.9999843239784241
","x: 198.17181396484375
y: 261.634033203125
z: -0.23888742923736572
visibility: 0.999966025352478
","x: 199.51980590820312
y: 261.0054626464844
z: -0.23890447616577148
visibility: 0.9999634623527527
","x: 200.8655242919922
y: 260.6003723144531
z: -0.23897388577461243
visibility: 0.9999639391899109
","x: 194.6155242919922
y: 262.923828125
z: -0.23698489367961884
visibility: 0.9999589920043945
","x: 193.51966857910156
y: 263.0782470703125
z: -0.2370106726884842
visibility: 0.9999533891677856
","x: 192.4129180908203
y: 263.1966857910156
z: -0.23701529204845428
visibility: 0.999947726726532
","x: 203.51882934570312
y: 261.5531311035156
z: -0.14763660728931427
visibility: 0.9999298453330994
","x: 191.2080078125
y: 263.9630126953125
z: -0.13039067387580872
visibility: 0.9999336004257202
","x: 199.67385864257812
y: 273.551025390625
z: -0.2126735895872116
visibility: 0.9999720454216003
","x: 194.60675048828125
y: 274.9788513183594
z: -0.20984622836112976
visibility: 0.999969482421875
","x: 217.1545867919922
y: 296.64593505859375
z: -0.06686607003211975
visibility: 0.999950647354126
","x: 180.5546112060547
y: 291.7340087890625
z: -0.06758709251880646
visibility: 0.9999409317970276
","x: 234.69467163085938
y: 331.03082275390625
z: -0.12099677324295044
visibility: 0.9632296562194824
","x: 160.34031677246094
y: 308.589599609375
z: -0.13845522701740265
visibility: 0.9677734375
","x: 252.30606079101562
y: 301.3411560058594
z: -0.27736490964889526
visibility: 0.9727861881256104
","x: 147.9982452392578
y: 278.66693115234375
z: -0.31068143248558044
visibility: 0.9701797962188721
","x: 256.6251220703125
y: 294.3683166503906
z: -0.30566439032554626
visibility: 0.9494497179985046
","x: 143.0012969970703
y: 269.9590759277344
z: -0.34223365783691406
visibility: 0.9507473707199097
","x: 255.43252563476562
y: 289.4250793457031
z: -0.3158217966556549
visibility: 0.9538902640342712
","x: 144.0935516357422
y: 266.6009826660156
z: -0.3511989414691925
visibility: 0.9532667994499207
","x: 253.81004333496094
y: 291.42120361328125
z: -0.2866203784942627
visibility: 0.9432750344276428
","x: 146.22927856445312
y: 269.7708740234375
z: -0.3194023370742798
visibility: 0.9424554109573364
","x: 210.09422302246094
y: 392.0572509765625
z: -0.002604841720312834
visibility: 0.999751091003418
","x: 188.34788513183594
y: 393.2989501953125
z: 0.0025182790122926235
visibility: 0.9997580647468567
","x: 212.44564819335938
y: 462.83074951171875
z: -0.08709722012281418
visibility: 0.9820646643638611
","x: 178.33709716796875
y: 464.014892578125
z: -0.047541096806526184
visibility: 0.9941719770431519
","x: 206.87899780273438
y: 532.0951538085938
z: 0.009182487614452839
visibility: 0.986400842666626
","x: 180.2334747314453
y: 524.8101806640625
z: 0.08841408044099808
visibility: 0.9920375347137451
","x: 203.58865356445312
y: 541.6917724609375
z: 0.028011541813611984
visibility: 0.9181816577911377
","x: 182.826904296875
y: 530.6145629882812
z: 0.09666649997234344
visibility: 0.898266613483429
","x: 209.82847595214844
y: 556.7178955078125
z: -0.11813436448574066
visibility: 0.9858308434486389
","x: 176.829345703125
y: 552.5986328125
z: -0.00022706817253492773
visibility: 0.9882992506027222
",,,,,,,,,,,,,,,,,,,,,,,,,,,,,,,,,,,,,,,,,,
18,"x: 200.6408233642578
y: 246.83737182617188
z: -0.3047568202018738
visibility: 0.99998539686203
","x: 202.0204620361328
y: 240.24261474609375
z: -0.29219505190849304
visibility: 0.9999681115150452
","x: 203.3317108154297
y: 240.19044494628906
z: -0.29222992062568665
visibility: 0.9999656081199646
","x: 204.530029296875
y: 240.23558044433594
z: -0.2923433184623718
visibility: 0.999966025352478
","x: 198.20375061035156
y: 240.17137145996094
z: -0.2922458350658417
visibility: 0.9999615550041199
","x: 196.71829223632812
y: 240.0400390625
z: -0.29227787256240845
visibility: 0.9999562501907349
","x: 195.12208557128906
y: 239.96481323242188
z: -0.2922428250312805
visibility: 0.9999510049819946
","x: 205.48724365234375
y: 241.83607482910156
z: -0.19045713543891907
visibility: 0.9999354481697083
","x: 191.5614013671875
y: 242.04901123046875
z: -0.1904439479112625
visibility: 0.9999374747276306
","x: 202.34835815429688
y: 253.63931274414062
z: -0.2647482454776764
visibility: 0.9999732971191406
","x: 198.03387451171875
y: 253.834716796875
z: -0.2648605704307556
visibility: 0.9999703764915466
","x: 217.66400146484375
y: 278.96630859375
z: -0.10599634796380997
visibility: 0.9999517798423767
","x: 181.40760803222656
y: 273.80218505859375
z: -0.10257263481616974
visibility: 0.9999265074729919
","x: 243.49623107910156
y: 306.74627685546875
z: -0.12006466090679169
visibility: 0.9668005108833313
","x: 156.13587951660156
y: 289.7196044921875
z: -0.1591242104768753
visibility: 0.9705643057823181
","x: 269.198486328125
y: 287.8675231933594
z: -0.22701004147529602
visibility: 0.9753258228302002
","x: 142.376953125
y: 259.6390380859375
z: -0.32711681723594666
visibility: 0.9725794792175293
","x: 276.5920715332031
y: 284.9263916015625
z: -0.24875779449939728
visibility: 0.9537092447280884
","x: 134.3994903564453
y: 253.00086975097656
z: -0.358407199382782
visibility: 0.9536444544792175
","x: 276.4065856933594
y: 280.0180358886719
z: -0.2742377817630768
visibility: 0.9578655362129211
","x: 135.4552764892578
y: 250.17855834960938
z: -0.3732822835445404
visibility: 0.9559741616249084
","x: 273.6487731933594
y: 280.29107666015625
z: -0.24119412899017334
visibility: 0.9481804966926575
","x: 138.66954040527344
y: 252.6768798828125
z: -0.3386307954788208
visibility: 0.9458189010620117
","x: 210.36888122558594
y: 372.60052490234375
z: -0.005033065564930439
visibility: 0.9997192621231079
","x: 188.90516662597656
y: 374.1253967285156
z: 0.005002043675631285
visibility: 0.999738335609436
","x: 212.85337829589844
y: 452.5743408203125
z: -0.047679878771305084
visibility: 0.9827579855918884
","x: 179.89625549316406
y: 449.7152099609375
z: -0.03238028287887573
visibility: 0.9939771294593811
","x: 207.10157775878906
y: 530.0550537109375
z: 0.05201420187950134
visibility: 0.9870320558547974
","x: 178.24813842773438
y: 524.7581176757812
z: 0.0745154619216919
visibility: 0.9922324419021606
","x: 204.2406463623047
y: 539.375244140625
z: 0.057518042623996735
visibility: 0.9175147414207458
","x: 180.81582641601562
y: 531.0947875976562
z: 0.07772665470838547
visibility: 0.9014897346496582
","x: 210.49969482421875
y: 555.38671875
z: -0.060889970511198044
visibility: 0.9860073328018188
","x: 171.4334716796875
y: 552.3128662109375
z: -0.032387569546699524
visibility: 0.988347053527832
",,,,,,,,,,,,,,,,,,,,,,,,,,,,,,,,,,,,,,,,,,
19,"x: 204.9414520263672
y: 251.61354064941406
z: -0.3245730400085449
visibility: 0.9999856352806091
","x: 206.74252319335938
y: 245.08497619628906
z: -0.3089050352573395
visibility: 0.9999666213989258
","x: 208.03939819335938
y: 245.08364868164062
z: -0.308964341878891
visibility: 0.9999639391899109
","x: 209.23382568359375
y: 245.17474365234375
z: -0.3090713322162628
visibility: 0.9999644756317139
","x: 202.87554931640625
y: 245.04983520507812
z: -0.31279176473617554
visibility: 0.9999610781669617
","x: 201.33673095703125
y: 245.0174560546875
z: -0.31285035610198975
visibility: 0.9999555945396423
","x: 199.77175903320312
y: 245.04737854003906
z: -0.3128570020198822
visibility: 0.9999502897262573
","x: 209.784423828125
y: 247.47972106933594
z: -0.20212450623512268
visibility: 0.999934732913971
","x: 195.87693786621094
y: 248.05340576171875
z: -0.22092826664447784
visibility: 0.9999353289604187
","x: 206.82847595214844
y: 258.5575256347656
z: -0.28350040316581726
visibility: 0.9999687671661377
","x: 202.1656494140625
y: 258.7508544921875
z: -0.28881174325942993
visibility: 0.9999658465385437
","x: 221.13363647460938
y: 285.4859313964844
z: -0.12744072079658508
visibility: 0.9999452829360962
","x: 182.14865112304688
y: 280.5753479003906
z: -0.13734504580497742
visibility: 0.9999011158943176
","x: 246.37010192871094
y: 312.74176025390625
z: -0.12444362789392471
visibility: 0.9700119495391846
","x: 157.1324462890625
y: 302.47088623046875
z: -0.14627429842948914
visibility: 0.9719979166984558
","x: 275.15338134765625
y: 301.94000244140625
z: -0.2345796823501587
visibility: 0.9776040315628052
","x: 133.26419067382812
y: 296.4095153808594
z: -0.268119752407074
visibility: 0.9725929498672485
","x: 282.0742492675781
y: 300.1571960449219
z: -0.25710320472717285
visibility: 0.9576271176338196
","x: 124.78157043457031
y: 296.6629943847656
z: -0.293942928314209
visibility: 0.9520543217658997
","x: 282.3327941894531
y: 296.314453125
z: -0.2878738045692444
visibility: 0.9615404605865479
","x: 124.25975036621094
y: 293.61370849609375
z: -0.32335108518600464
visibility: 0.9552546143531799
","x: 280.01806640625
y: 297.01763916015625
z: -0.2516132593154907
visibility: 0.9527612924575806
","x: 127.0640640258789
y: 293.853271484375
z: -0.284817636013031
visibility: 0.9460221529006958
","x: 210.61447143554688
y: 375.0627136230469
z: -0.005414068233221769
visibility: 0.9994996786117554
","x: 189.549072265625
y: 376.42681884765625
z: 0.005404109600931406
visibility: 0.9996749758720398
","x: 211.1297149658203
y: 453.45819091796875
z: 0.00017237136489711702
visibility: 0.9824082255363464
","x: 180.09852600097656
y: 450.9964599609375
z: -0.06550262868404388
visibility: 0.9937058687210083
","x: 207.51251220703125
y: 531.0424194335938
z: 0.10130847990512848
visibility: 0.9869328737258911
","x: 176.7796630859375
y: 533.8225708007812
z: 0.001463618827983737
visibility: 0.9925563335418701
","x: 205.078125
y: 541.7596435546875
z: 0.10231050103902817
visibility: 0.9160348773002625
","x: 179.61251831054688
y: 549.4439086914062
z: 0.0012696842895820737
visibility: 0.9065141677856445
","x: 209.82022094726562
y: 554.310546875
z: -0.008040801621973515
visibility: 0.9855499267578125
","x: 168.06895446777344
y: 548.472900390625
z: -0.11585323512554169
visibility: 0.9888390302658081
",,,,,,,,,,,,,,,,,,,,,,,,,,,,,,,,,,,,,,,,,,
20,"x: 205.35401916503906
y: 263.99090576171875
z: -0.3639075458049774
visibility: 0.9999867081642151
","x: 207.03480529785156
y: 258.1114807128906
z: -0.3503348231315613
visibility: 0.9999681711196899
","x: 208.36026000976562
y: 258.169189453125
z: -0.3503367304801941
visibility: 0.9999658465385437
","x: 209.5598602294922
y: 258.2944641113281
z: -0.3503649830818176
visibility: 0.9999658465385437
","x: 203.2493133544922
y: 258.2783203125
z: -0.3514309525489807
visibility: 0.9999627470970154
","x: 201.82720947265625
y: 258.38507080078125
z: -0.3514798581600189
visibility: 0.9999577403068542
","x: 200.33216857910156
y: 258.3889465332031
z: -0.35148897767066956
visibility: 0.999952495098114
","x: 210.35833740234375
y: 261.6328125
z: -0.24335232377052307
visibility: 0.9999364614486694
","x: 197.12461853027344
y: 260.181396484375
z: -0.24951569736003876
visibility: 0.9999364614486694
","x: 207.1890106201172
y: 270.983642578125
z: -0.322037935256958
visibility: 0.9999703168869019
","x: 202.7222137451172
y: 270.8431091308594
z: -0.3237435221672058
visibility: 0.9999675154685974
","x: 220.7622528076172
y: 302.181396484375
z: -0.15169009566307068
visibility: 0.9999478459358215
","x: 182.31712341308594
y: 294.69989013671875
z: -0.16388297080993652
visibility: 0.9999078512191772
","x: 228.7818603515625
y: 349.8431701660156
z: -0.12503328919410706
visibility: 0.9700286984443665
","x: 169.10047912597656
y: 342.5830383300781
z: -0.14368575811386108
visibility: 0.9739808440208435
","x: 257.0342712402344
y: 372.02197265625
z: -0.25705984234809875
visibility: 0.9781026244163513
","x: 155.26075744628906
y: 374.6242980957031
z: -0.25194838643074036
visibility: 0.9744504690170288
","x: 268.0691223144531
y: 380.90216064453125
z: -0.2854437232017517
visibility: 0.9584662914276123
","x: 151.4355010986328
y: 387.02655029296875
z: -0.27940478920936584
visibility: 0.9548007249832153
","x: 277.1326599121094
y: 376.7740173339844
z: -0.31144362688064575
visibility: 0.9626434445381165
","x: 151.3245849609375
y: 386.19757080078125
z: -0.31216004490852356
visibility: 0.9579799175262451
","x: 273.81622314453125
y: 373.3189392089844
z: -0.2680605351924896
visibility: 0.9542023539543152
","x: 153.05242919921875
y: 381.9430236816406
z: -0.26825255155563354
visibility: 0.949428915977478
","x: 211.01158142089844
y: 390.15386962890625
z: 0.00020610730280168355
visibility: 0.9995335936546326
","x: 189.9203338623047
y: 389.44091796875
z: -0.00026608631014823914
visibility: 0.9996896386146545
","x: 210.31527709960938
y: 464.99444580078125
z: -0.015744581818580627
visibility: 0.9836801886558533
","x: 183.39666748046875
y: 460.8751220703125
z: -0.006173239555209875
visibility: 0.9938991665840149
","x: 207.70388793945312
y: 530.5738525390625
z: 0.16098542511463165
visibility: 0.987691342830658
","x: 183.087646484375
y: 528.3374633789062
z: 0.18922577798366547
visibility: 0.9926444292068481
","x: 205.4183349609375
y: 540.8828125
z: 0.1725686490535736
visibility: 0.9173431396484375
","x: 186.75750732421875
y: 535.8792724609375
z: 0.20221427083015442
visibility: 0.9055420160293579
","x: 209.9687957763672
y: 554.0382690429688
z: 0.06480025500059128
visibility: 0.9863387942314148
","x: 176.77606201171875
y: 550.234375
z: 0.09823141992092133
visibility: 0.9891197681427002
",,,,,,,,,,,,,,,,,,,,,,,,,,,,,,,,,,,,,,,,,,
21,"x: 201.64280700683594
y: 263.0748596191406
z: -0.32386741042137146
visibility: 0.9999833106994629
","x: 203.3059844970703
y: 256.7473449707031
z: -0.31082695722579956
visibility: 0.9999522566795349
","x: 204.32705688476562
y: 256.9124450683594
z: -0.31082355976104736
visibility: 0.9999498128890991
","x: 205.2971954345703
y: 257.1588439941406
z: -0.3108430802822113
visibility: 0.9999427795410156
","x: 199.98675537109375
y: 256.5972900390625
z: -0.31177157163619995
visibility: 0.9999499917030334
","x: 198.7047576904297
y: 256.5890197753906
z: -0.311815470457077
visibility: 0.9999487996101379
","x: 197.43179321289062
y: 256.51251220703125
z: -0.3118339776992798
visibility: 0.9999462962150574
","x: 206.56956481933594
y: 260.84173583984375
z: -0.20631393790245056
visibility: 0.9999064803123474
","x: 194.48809814453125
y: 259.0811767578125
z: -0.2093760222196579
visibility: 0.9999276995658875
","x: 203.62960815429688
y: 270.20166015625
z: -0.2823234498500824
visibility: 0.9999667406082153
","x: 198.97816467285156
y: 269.8531494140625
z: -0.2834096848964691
visibility: 0.9999645948410034
","x: 218.11241149902344
y: 301.93218994140625
z: -0.11213848739862442
visibility: 0.9999384880065918
","x: 179.78631591796875
y: 294.4667663574219
z: -0.1252031773328781
visibility: 0.9999133944511414
","x: 220.2220001220703
y: 344.9436950683594
z: -0.01728926971554756
visibility: 0.9641895890235901
","x: 172.76034545898438
y: 340.2342224121094
z: -0.04073849320411682
visibility: 0.9751675128936768
","x: 217.69688415527344
y: 373.5030822753906
z: -0.09137499332427979
visibility: 0.9516317844390869
","x: 171.4807586669922
y: 377.8100280761719
z: -0.10640323162078857
visibility: 0.9738898873329163
","x: 217.60394287109375
y: 384.89520263671875
z: -0.10988619178533554
visibility: 0.9186800122261047
","x: 171.80072021484375
y: 392.18450927734375
z: -0.12857691943645477
visibility: 0.9526867270469666
","x: 216.99632263183594
y: 382.47198486328125
z: -0.14321333169937134
visibility: 0.9243795871734619
","x: 173.472900390625
y: 390.3723449707031
z: -0.15590348839759827
visibility: 0.9558789134025574
","x: 216.42300415039062
y: 377.787841796875
z: -0.10606243461370468
visibility: 0.9125398397445679
","x: 173.84869384765625
y: 385.48974609375
z: -0.11785914748907089
visibility: 0.946668803691864
","x: 210.3936309814453
y: 390.0929260253906
z: -4.071562671015272e-06
visibility: 0.9995040893554688
","x: 189.39376831054688
y: 389.1974182128906
z: -5.311233690008521e-05
visibility: 0.9996906518936157
","x: 209.99900817871094
y: 464.470947265625
z: -0.023523584008216858
visibility: 0.9848939180374146
","x: 183.4203643798828
y: 461.17498779296875
z: -0.024564137682318687
visibility: 0.9940844178199768
","x: 207.83297729492188
y: 530.2596435546875
z: 0.13132402300834656
visibility: 0.9884302020072937
","x: 184.75698852539062
y: 528.2317504882812
z: 0.13316161930561066
visibility: 0.9930840730667114
","x: 205.53843688964844
y: 540.2446899414062
z: 0.14056040346622467
visibility: 0.9169415831565857
","x: 189.28306579589844
y: 535.7428588867188
z: 0.1410536766052246
visibility: 0.9100431203842163
","x: 209.48855590820312
y: 554.2586669921875
z: 0.028141936287283897
visibility: 0.9870670437812805
","x: 178.18173217773438
y: 551.741455078125
z: 0.02587270736694336
visibility: 0.989776074886322
",,,,,,,,,,,,,,,,,,,,,,,,,,,,,,,,,,,,,,,,,,
22,"x: 189.62771606445312
y: 261.285888671875
z: -0.321855753660202
visibility: 0.999984860420227
","x: 191.36676025390625
y: 254.46994018554688
z: -0.30822664499282837
visibility: 0.9999567270278931
","x: 192.52749633789062
y: 254.48028564453125
z: -0.30831730365753174
visibility: 0.9999544620513916
","x: 193.82766723632812
y: 254.5277557373047
z: -0.3083916902542114
visibility: 0.9999481439590454
","x: 188.26979064941406
y: 254.495361328125
z: -0.30706095695495605
visibility: 0.9999548196792603
","x: 187.15354919433594
y: 254.44271850585938
z: -0.3070928454399109
visibility: 0.9999536275863647
","x: 185.87782287597656
y: 254.3960723876953
z: -0.3069414496421814
visibility: 0.9999513626098633
","x: 196.82118225097656
y: 257.2128601074219
z: -0.19795095920562744
visibility: 0.9999151825904846
","x: 184.4540252685547
y: 256.301025390625
z: -0.1885136067867279
visibility: 0.9999346137046814
","x: 191.85211181640625
y: 267.48065185546875
z: -0.2755354046821594
visibility: 0.9999698996543884
","x: 188.10650634765625
y: 267.2234802246094
z: -0.2716839015483856
visibility: 0.9999679923057556
","x: 210.52574157714844
y: 290.00714111328125
z: -0.10356535762548447
visibility: 0.9999438524246216
","x: 172.64920043945312
y: 291.0050048828125
z: -0.09260936826467514
visibility: 0.9999213218688965
","x: 221.065673828125
y: 324.9422912597656
z: -0.10715556144714355
visibility: 0.9676149487495422
","x: 161.5880126953125
y: 331.0431213378906
z: -0.07006223499774933
visibility: 0.9768519997596741
","x: 218.3675537109375
y: 359.6449279785156
z: -0.28412097692489624
visibility: 0.9559500217437744
","x: 166.03469848632812
y: 359.5505065917969
z: -0.18012657761573792
visibility: 0.9749739766120911
","x: 214.67550659179688
y: 361.18902587890625
z: -0.3258334696292877
visibility: 0.9249672889709473
","x: 168.9181365966797
y: 371.5121154785156
z: -0.21923096477985382
visibility: 0.9538921117782593
","x: 212.43606567382812
y: 357.652587890625
z: -0.3364909291267395
visibility: 0.9302212595939636
","x: 163.9210968017578
y: 370.98046875
z: -0.24127082526683807
visibility: 0.9569518566131592
","x: 212.99136352539062
y: 355.50823974609375
z: -0.29003027081489563
visibility: 0.9184474945068359
","x: 165.29275512695312
y: 367.32049560546875
z: -0.18434497714042664
visibility: 0.9475222229957581
","x: 208.14230346679688
y: 382.27099609375
z: -0.0023976494558155537
visibility: 0.9995399713516235
","x: 187.01223754882812
y: 385.4742736816406
z: 0.002355714328587055
visibility: 0.9997130036354065
","x: 210.4688262939453
y: 459.04736328125
z: -0.04532439634203911
visibility: 0.9857699871063232
","x: 177.7574462890625
y: 457.1533508300781
z: -0.028752172365784645
visibility: 0.994362473487854
","x: 211.75506591796875
y: 532.8609619140625
z: 0.007032368332147598
visibility: 0.989208459854126
","x: 179.36740112304688
y: 521.3302001953125
z: 0.11334680020809174
visibility: 0.9934114217758179
","x: 208.8042755126953
y: 547.284912109375
z: 0.00546411145478487
visibility: 0.9225890636444092
","x: 182.821044921875
y: 528.1174926757812
z: 0.11251489818096161
visibility: 0.9146049618721008
","x: 226.75323486328125
y: 544.0294189453125
z: -0.10282430797815323
visibility: 0.9877016544342041
","x: 173.5093994140625
y: 548.4769897460938
z: 0.008152133785188198
visibility: 0.9899343252182007
",,,,,,,,,,,,,,,,,,,,,,,,,,,,,,,,,,,,,,,,,,
23,"x: 182.63113403320312
y: 268.104248046875
z: -0.312430202960968
visibility: 0.9999855160713196
","x: 184.4893341064453
y: 261.5654296875
z: -0.2996857762336731
visibility: 0.999959409236908
","x: 185.84356689453125
y: 261.4660949707031
z: -0.29969680309295654
visibility: 0.9999568462371826
","x: 187.3877716064453
y: 261.407958984375
z: -0.29974859952926636
visibility: 0.9999514222145081
","x: 181.5424041748047
y: 261.9464111328125
z: -0.29760733246803284
visibility: 0.9999579787254333
","x: 180.5229034423828
y: 262.20684814453125
z: -0.2976536452770233
visibility: 0.9999565482139587
","x: 179.48931884765625
y: 262.46697998046875
z: -0.29760751128196716
visibility: 0.9999546408653259
","x: 190.53561401367188
y: 263.8213806152344
z: -0.20542678236961365
visibility: 0.9999209046363831
","x: 179.1785125732422
y: 265.29449462890625
z: -0.19318030774593353
visibility: 0.9999393820762634
","x: 185.4019317626953
y: 274.421630859375
z: -0.2753998637199402
visibility: 0.9999723434448242
","x: 181.6964111328125
y: 274.842041015625
z: -0.27186116576194763
visibility: 0.999970555305481
","x: 206.4968719482422
y: 302.240966796875
z: -0.1462608277797699
visibility: 0.9999476671218872
","x: 168.30718994140625
y: 305.4885559082031
z: -0.12176509201526642
visibility: 0.9999279975891113
","x: 223.1784210205078
y: 340.74127197265625
z: -0.22220256924629211
visibility: 0.9706624150276184
","x: 150.51483154296875
y: 334.8827819824219
z: -0.19855819642543793
visibility: 0.978563666343689
","x: 205.29624938964844
y: 359.47100830078125
z: -0.3762062191963196
visibility: 0.9592795968055725
","x: 164.66551208496094
y: 367.1650695800781
z: -0.36972498893737793
visibility: 0.9744871854782104
","x: 199.21482849121094
y: 363.93133544921875
z: -0.4163840711116791
visibility: 0.9289451241493225
","x: 161.60011291503906
y: 380.1199035644531
z: -0.4062364995479584
visibility: 0.9515778422355652
","x: 196.54783630371094
y: 359.1363830566406
z: -0.4135622978210449
visibility: 0.9335727691650391
","x: 161.8692169189453
y: 377.94195556640625
z: -0.4151841104030609
visibility: 0.9539867639541626
","x: 198.1861572265625
y: 357.1900939941406
z: -0.3771492540836334
visibility: 0.9201909899711609
","x: 162.53317260742188
y: 373.6335754394531
z: -0.3769395351409912
visibility: 0.9431494474411011
","x: 204.27127075195312
y: 390.4168395996094
z: -0.002655553165823221
visibility: 0.9995794892311096
","x: 183.0059814453125
y: 396.4560546875
z: 0.0025739932898432016
visibility: 0.999734103679657
","x: 210.49697875976562
y: 458.92645263671875
z: -0.15927687287330627
visibility: 0.9867718815803528
","x: 175.6053924560547
y: 463.0987854003906
z: -0.06556268036365509
visibility: 0.9943346977233887
","x: 215.00396728515625
y: 534.758056640625
z: -0.10831539332866669
visibility: 0.9899424314498901
","x: 179.1746826171875
y: 522.553466796875
z: 0.04527340829372406
visibility: 0.9933494329452515
","x: 213.07110595703125
y: 550.9320678710938
z: -0.11017640680074692
visibility: 0.9275242686271667
","x: 182.97064208984375
y: 528.9711303710938
z: 0.04854954406619072
visibility: 0.9164662957191467
","x: 225.8580322265625
y: 544.0485229492188
z: -0.23184868693351746
visibility: 0.9882768988609314
","x: 171.86215209960938
y: 548.087646484375
z: -0.050900984555482864
visibility: 0.9896396994590759
",,,,,,,,,,,,,,,,,,,,,,,,,,,,,,,,,,,,,,,,,,
24,"x: 185.17819213867188
y: 273.2213134765625
z: -0.24550655484199524
visibility: 0.9999462366104126
","x: 187.05291748046875
y: 265.9458312988281
z: -0.23127058148384094
visibility: 0.9998921751976013
","x: 188.50973510742188
y: 265.8949890136719
z: -0.2313191145658493
visibility: 0.9998865723609924
","x: 189.98193359375
y: 265.90582275390625
z: -0.23139190673828125
visibility: 0.9998940825462341
","x: 183.28536987304688
y: 266.34173583984375
z: -0.22880657017230988
visibility: 0.9998627305030823
","x: 182.13357543945312
y: 266.65643310546875
z: -0.22882962226867676
visibility: 0.9998325109481812
","x: 181.06727600097656
y: 266.9468994140625
z: -0.2288358211517334
visibility: 0.9998136162757874
","x: 192.31666564941406
y: 267.9934387207031
z: -0.13754521310329437
visibility: 0.9998635053634644
","x: 180.05941772460938
y: 269.621337890625
z: -0.12659312784671783
visibility: 0.9996606111526489
","x: 188.24374389648438
y: 279.3258972167969
z: -0.2099887877702713
visibility: 0.9999338388442993
","x: 183.39463806152344
y: 279.8730163574219
z: -0.20699362456798553
visibility: 0.9998707175254822
","x: 206.54270935058594
y: 306.05242919921875
z: -0.09857604652643204
visibility: 0.9999175071716309
","x: 170.13941955566406
y: 309.3393859863281
z: -0.059074919670820236
visibility: 0.9997353553771973
","x: 210.78147888183594
y: 356.66998291015625
z: -0.1685740202665329
visibility: 0.9717341661453247
","x: 164.75889587402344
y: 355.6146240234375
z: -0.14406056702136993
visibility: 0.9366447329521179
","x: 192.58847045898438
y: 353.2823181152344
z: -0.3478744328022003
visibility: 0.9578307271003723
","x: 172.3072052001953
y: 359.1283874511719
z: -0.31475311517715454
visibility: 0.9196940660476685
","x: 187.13323974609375
y: 359.52569580078125
z: -0.37605443596839905
visibility: 0.924045979976654
","x: 174.81204223632812
y: 358.23828125
z: -0.35126835107803345
visibility: 0.8948124051094055
","x: 186.58419799804688
y: 357.31146240234375
z: -0.33901315927505493
visibility: 0.9284073114395142
","x: 171.4951171875
y: 349.48236083984375
z: -0.36072030663490295
visibility: 0.8966668248176575
","x: 188.2170867919922
y: 353.0927734375
z: -0.3208619952201843
visibility: 0.9093157649040222
","x: 172.29420471191406
y: 349.0176086425781
z: -0.32387226819992065
visibility: 0.8824890851974487
","x: 203.23031616210938
y: 392.1382141113281
z: -0.004510110709816217
visibility: 0.9995672106742859
","x: 182.2622833251953
y: 396.14013671875
z: 0.004485377110540867
visibility: 0.9996968507766724
","x: 210.10421752929688
y: 458.97161865234375
z: -0.1301833689212799
visibility: 0.9874547719955444
","x: 174.06231689453125
y: 465.13897705078125
z: -0.0895375981926918
visibility: 0.9943561553955078
","x: 214.58692932128906
y: 534.0686645507812
z: -0.02672426402568817
visibility: 0.9904041290283203
","x: 179.40467834472656
y: 523.687255859375
z: 0.042914874851703644
visibility: 0.9935373663902283
","x: 212.72198486328125
y: 548.3551635742188
z: -0.023176390677690506
visibility: 0.9293168783187866
","x: 183.9778289794922
y: 531.7228393554688
z: 0.048713259398937225
visibility: 0.9195941686630249
","x: 222.7755889892578
y: 544.6995849609375
z: -0.1418977677822113
visibility: 0.9884483218193054
","x: 171.2786865234375
y: 547.8681030273438
z: -0.055843502283096313
visibility: 0.9896479249000549
",,,,,,,,,,,,,,,,,,,,,,,,,,,,,,,,,,,,,,,,,,
25,"x: 186.429931640625
y: 260.57574462890625
z: -0.08390133082866669
visibility: 0.9999138116836548
","x: 187.79351806640625
y: 254.5344696044922
z: -0.06860126554965973
visibility: 0.9998372197151184
","x: 189.29730224609375
y: 254.24481201171875
z: -0.06862333416938782
visibility: 0.9998193979263306
","x: 191.14491271972656
y: 254.08570861816406
z: -0.06862703710794449
visibility: 0.9998252987861633
","x: 183.40428161621094
y: 255.87582397460938
z: -0.06695252656936646
visibility: 0.9998100996017456
","x: 182.81143188476562
y: 256.6086730957031
z: -0.06695100665092468
visibility: 0.9997791647911072
","x: 181.41156005859375
y: 257.3034362792969
z: -0.06696676462888718
visibility: 0.9997774362564087
","x: 194.29348754882812
y: 257.8516845703125
z: 0.01686132326722145
visibility: 0.9997801780700684
","x: 182.60745239257812
y: 261.7101745605469
z: 0.0266675166785717
visibility: 0.9996182322502136
","x: 190.24180603027344
y: 267.2052917480469
z: -0.05138460546731949
visibility: 0.9998445510864258
","x: 184.91297912597656
y: 268.9246826171875
z: -0.04878073185682297
visibility: 0.9997954964637756
","x: 209.18663024902344
y: 293.41741943359375
z: 0.03363090008497238
visibility: 0.9998418688774109
","x: 172.36477661132812
y: 299.1793212890625
z: 0.0500190444290638
visibility: 0.9996948838233948
","x: 211.7418212890625
y: 340.1142578125
z: -0.08205857127904892
visibility: 0.965715229511261
","x: 175.11282348632812
y: 344.64898681640625
z: -0.06658239662647247
visibility: 0.9378238320350647
","x: 192.51100158691406
y: 304.83465576171875
z: -0.20563776791095734
visibility: 0.9520761370658875
","x: 188.32211303710938
y: 302.45123291015625
z: -0.20662394165992737
visibility: 0.9222971200942993
","x: 188.0178680419922
y: 295.0660095214844
z: -0.2359401285648346
visibility: 0.9149932265281677
","x: 190.5395965576172
y: 291.03277587890625
z: -0.2423698604106903
visibility: 0.8928641080856323
","x: 189.08108520507812
y: 291.34564208984375
z: -0.22365252673625946
visibility: 0.9176496267318726
","x: 189.66802978515625
y: 286.9521484375
z: -0.2299916297197342
visibility: 0.893009603023529
","x: 190.6303253173828
y: 295.6312255859375
z: -0.20327627658843994
visibility: 0.8943467736244202
","x: 189.25819396972656
y: 291.10443115234375
z: -0.20579805970191956
visibility: 0.8755479454994202
","x: 204.5100860595703
y: 384.68218994140625
z: -0.008837607689201832
visibility: 0.9995933771133423
","x: 183.24354553222656
y: 387.74896240234375
z: 0.00887352880090475
visibility: 0.9997082352638245
","x: 211.57955932617188
y: 456.0378723144531
z: -0.07503855228424072
visibility: 0.9883156418800354
","x: 175.7132568359375
y: 458.25262451171875
z: -0.05089902877807617
visibility: 0.9946321249008179
","x: 214.2313690185547
y: 528.5150146484375
z: 0.03893627971410751
visibility: 0.9909626841545105
","x: 179.29632568359375
y: 522.8438110351562
z: 0.06870119273662567
visibility: 0.9937981963157654
","x: 212.4335174560547
y: 540.6322631835938
z: 0.04462670162320137
visibility: 0.9222871661186218
","x: 183.74241638183594
y: 530.9910888671875
z: 0.07586782425642014
visibility: 0.9200384616851807
","x: 217.30238342285156
y: 545.1543579101562
z: -0.06773371994495392
visibility: 0.9887768626213074
","x: 171.21804809570312
y: 547.3162841796875
z: -0.01653161644935608
visibility: 0.9899036288261414
",,,,,,,,,,,,,,,,,,,,,,,,,,,,,,,,,,,,,,,,,,
26,"x: 200.30624389648438
y: 260.84210205078125
z: -0.018665101379156113
visibility: 0.999914288520813
","x: 201.94195556640625
y: 254.66217041015625
z: -0.0017524182330816984
visibility: 0.9998384118080139
","x: 203.03504943847656
y: 254.2733612060547
z: -0.0017637076089158654
visibility: 0.9998181462287903
","x: 204.2465057373047
y: 254.2862548828125
z: -0.0017220579320564866
visibility: 0.9998245239257812
","x: 197.90911865234375
y: 255.92050170898438
z: 0.00043003246537409723
visibility: 0.9998190402984619
","x: 196.5267333984375
y: 256.58831787109375
z: 0.0003966911172028631
visibility: 0.9997915029525757
","x: 195.14849853515625
y: 257.2455139160156
z: 0.00035289968946017325
visibility: 0.999792754650116
","x: 206.8402557373047
y: 259.107421875
z: 0.07622672617435455
visibility: 0.9997738003730774
","x: 194.04180908203125
y: 261.6293640136719
z: 0.08688267320394516
visibility: 0.9996438026428223
","x: 203.34625244140625
y: 267.4435729980469
z: 0.010098554193973541
visibility: 0.9998016357421875
","x: 197.9883270263672
y: 268.9743347167969
z: 0.012778358533978462
visibility: 0.9997836351394653
","x: 218.03257751464844
y: 292.86669921875
z: 0.05395994335412979
visibility: 0.9996762871742249
","x: 183.31639099121094
y: 297.771484375
z: 0.08582092076539993
visibility: 0.9996967911720276
","x: 215.07176208496094
y: 324.04962158203125
z: -0.08307601511478424
visibility: 0.9653019905090332
","x: 186.3389434814453
y: 316.62664794921875
z: -0.0698447972536087
visibility: 0.9416595697402954
","x: 187.454833984375
y: 296.34844970703125
z: -0.15658044815063477
visibility: 0.9509172439575195
","x: 205.64532470703125
y: 286.980712890625
z: -0.19181299209594727
visibility: 0.9254102110862732
","x: 181.09719848632812
y: 294.9289245605469
z: -0.18296346068382263
visibility: 0.911327600479126
","x: 210.16940307617188
y: 279.2032470703125
z: -0.2249792069196701
visibility: 0.8909658789634705
","x: 180.01211547851562
y: 290.8246154785156
z: -0.16837060451507568
visibility: 0.9125637412071228
","x: 210.249755859375
y: 277.8310241699219
z: -0.20549356937408447
visibility: 0.8892136216163635
","x: 182.5919189453125
y: 292.12701416015625
z: -0.15291501581668854
visibility: 0.886553168296814
","x: 208.69285583496094
y: 280.3913269042969
z: -0.18787039816379547
visibility: 0.8688835501670837
","x: 213.2158660888672
y: 386.6650390625
z: -0.012297866865992546
visibility: 0.9996156692504883
","x: 192.28921508789062
y: 387.7456970214844
z: 0.01233634166419506
visibility: 0.9997320771217346
","x: 215.27066040039062
y: 457.4287109375
z: -0.03402477130293846
visibility: 0.9887955188751221
","x: 182.2125244140625
y: 455.9782409667969
z: -0.07154832035303116
visibility: 0.9949858784675598
","x: 216.75204467773438
y: 526.1170043945312
z: 0.05069427564740181
visibility: 0.9908368587493896
","x: 178.58509826660156
y: 526.9188842773438
z: -0.016237957403063774
visibility: 0.9941038489341736
","x: 216.2303924560547
y: 538.4653930664062
z: 0.05349775031208992
visibility: 0.9099398851394653
","x: 180.73915100097656
y: 543.18212890625
z: -0.01643105037510395
visibility: 0.9209532737731934
","x: 217.7074432373047
y: 545.0855102539062
z: -0.04906601831316948
visibility: 0.9881448149681091
","x: 168.00808715820312
y: 539.0589599609375
z: -0.11633920669555664
visibility: 0.990247368812561
",,,,,,,,,,,,,,,,,,,,,,,,,,,,,,,,,,,,,,,,,,
27,"x: 209.8354034423828
y: 268.5702819824219
z: -0.09229026734828949
visibility: 0.9999023675918579
","x: 212.0477752685547
y: 264.4771728515625
z: -0.07457371801137924
visibility: 0.9998216032981873
","x: 213.4994659423828
y: 265.1153259277344
z: -0.07458609342575073
visibility: 0.9997872114181519
","x: 214.89483642578125
y: 265.8313293457031
z: -0.07455116510391235
visibility: 0.9997979402542114
","x: 208.51779174804688
y: 263.2519226074219
z: -0.07295210659503937
visibility: 0.9998134970664978
","x: 207.26699829101562
y: 263.2333679199219
z: -0.07296712696552277
visibility: 0.9997848272323608
","x: 205.9165496826172
y: 263.35675048828125
z: -0.07297796756029129
visibility: 0.9997930526733398
","x: 217.09140014648438
y: 270.5693359375
z: 0.010362976230680943
visibility: 0.9996961355209351
","x: 204.357421875
y: 267.0483093261719
z: 0.016771283000707626
visibility: 0.9996240735054016
","x: 211.798095703125
y: 276.4281005859375
z: -0.06200607493519783
visibility: 0.9997329115867615
","x: 206.7180633544922
y: 274.714111328125
z: -0.060305725783109665
visibility: 0.9997533559799194
","x: 225.01971435546875
y: 304.96527099609375
z: -0.0012988236267119646
visibility: 0.9993622303009033
","x: 193.065185546875
y: 303.6173095703125
z: 0.043366529047489166
visibility: 0.9996215105056763
","x: 216.3933563232422
y: 328.25433349609375
z: -0.12578238546848297
visibility: 0.9617437720298767
","x: 189.31016540527344
y: 336.134765625
z: -0.08204146474599838
visibility: 0.9322829246520996
","x: 196.1432342529297
y: 309.27618408203125
z: -0.23412486910820007
visibility: 0.9511072039604187
","x: 194.74276733398438
y: 305.7648010253906
z: -0.24862249195575714
visibility: 0.9174824953079224
","x: 188.17498779296875
y: 305.7995910644531
z: -0.2710660696029663
visibility: 0.9128297567367554
","x: 194.0631561279297
y: 306.9765930175781
z: -0.2888532280921936
visibility: 0.8768620491027832
","x: 187.52935791015625
y: 303.10687255859375
z: -0.24729272723197937
visibility: 0.9135689735412598
","x: 194.2892303466797
y: 304.4780578613281
z: -0.2773536443710327
visibility: 0.8743050694465637
","x: 189.3055419921875
y: 304.1049499511719
z: -0.22927173972129822
visibility: 0.8858286738395691
","x: 194.72364807128906
y: 305.24591064453125
z: -0.24994564056396484
visibility: 0.8516324162483215
","x: 219.11862182617188
y: 391.6070861816406
z: -0.011414958164095879
visibility: 0.9996278285980225
","x: 198.8217315673828
y: 390.61181640625
z: 0.011416162364184856
visibility: 0.9997454881668091
","x: 217.25234985351562
y: 463.95684814453125
z: -0.019426168873906136
visibility: 0.9893009662628174
","x: 183.62039184570312
y: 456.32122802734375
z: -0.06483523547649384
visibility: 0.9951255917549133
","x: 216.46783447265625
y: 525.5052490234375
z: 0.1175607442855835
visibility: 0.9908075928688049
","x: 178.75653076171875
y: 526.4406127929688
z: 0.03566667065024376
visibility: 0.9943127632141113
","x: 215.0890350341797
y: 536.192626953125
z: 0.12538425624370575
visibility: 0.9005011916160583
","x: 181.15628051757812
y: 542.0894775390625
z: 0.041414663195610046
visibility: 0.9214099049568176
","x: 218.5163116455078
y: 545.25
z: 0.02445584163069725
visibility: 0.9877488017082214
","x: 167.3607635498047
y: 540.5921630859375
z: -0.05371742323040962
visibility: 0.9904763102531433
",,,,,,,,,,,,,,,,,,,,,,,,,,,,,,,,,,,,,,,,,,
28,"x: 217.10487365722656
y: 261.40130615234375
z: -0.2742954194545746
visibility: 0.9999086260795593
","x: 219.747802734375
y: 259.7951354980469
z: -0.25846949219703674
visibility: 0.9998301863670349
","x: 221.0464324951172
y: 261.2970275878906
z: -0.2584964632987976
visibility: 0.9997982382774353
","x: 222.32308959960938
y: 263.1612854003906
z: -0.25854891538619995
visibility: 0.9998063445091248
","x: 216.39476013183594
y: 257.0373840332031
z: -0.25862595438957214
visibility: 0.9998227953910828
","x: 215.1770782470703
y: 256.6149597167969
z: -0.2586611807346344
visibility: 0.9997976422309875
","x: 213.8959503173828
y: 256.3970031738281
z: -0.2586784064769745
visibility: 0.9998058080673218
","x: 224.49366760253906
y: 268.7572326660156
z: -0.15711282193660736
visibility: 0.9997082948684692
","x: 211.99777221679688
y: 261.0035400390625
z: -0.1585606038570404
visibility: 0.9996533393859863
","x: 218.7088623046875
y: 269.4353332519531
z: -0.23678696155548096
visibility: 0.9997559785842896
","x: 213.8334503173828
y: 266.3092041015625
z: -0.23729202151298523
visibility: 0.9997749328613281
","x: 231.66622924804688
y: 304.5299377441406
z: -0.09297849237918854
visibility: 0.9993879199028015
","x: 195.9433135986328
y: 300.9644775390625
z: -0.08030803501605988
visibility: 0.9996388554573059
","x: 244.1488494873047
y: 332.9859924316406
z: -0.17076462507247925
visibility: 0.956379234790802
","x: 184.63558959960938
y: 334.6999816894531
z: -0.12140200287103653
visibility: 0.9361405968666077
","x: 242.92974853515625
y: 321.916748046875
z: -0.36636537313461304
visibility: 0.9322344064712524
","x: 172.8756561279297
y: 325.7891540527344
z: -0.29667750000953674
visibility: 0.9213036298751831
","x: 241.4686737060547
y: 317.581787109375
z: -0.4059572219848633
visibility: 0.889193058013916
","x: 166.65582275390625
y: 327.3191833496094
z: -0.33362168073654175
visibility: 0.8815206289291382
","x: 239.1630859375
y: 312.6693420410156
z: -0.4149215817451477
visibility: 0.8914137482643127
","x: 167.6454315185547
y: 322.1720886230469
z: -0.35051631927490234
visibility: 0.8800509572029114
","x: 238.46360778808594
y: 314.0400085449219
z: -0.3754863142967224
visibility: 0.8618795275688171
","x: 164.0409698486328
y: 325.35943603515625
z: -0.30884575843811035
visibility: 0.8583905696868896
","x: 220.2208251953125
y: 391.3365478515625
z: -0.006518410053104162
visibility: 0.9996378421783447
","x: 200.42724609375
y: 386.2176513671875
z: 0.006447318010032177
visibility: 0.9997463822364807
","x: 218.03933715820312
y: 463.50445556640625
z: -0.03815945237874985
visibility: 0.9899879693984985
","x: 186.10208129882812
y: 456.2591247558594
z: -0.06859450042247772
visibility: 0.9954501986503601
","x: 216.6309356689453
y: 523.2052001953125
z: 0.14819832146167755
visibility: 0.9913343787193298
","x: 189.01690673828125
y: 512.5272827148438
z: 0.1456887423992157
visibility: 0.9944136738777161
","x: 214.57498168945312
y: 531.5953369140625
z: 0.16136717796325684
visibility: 0.9016665816307068
","x: 192.74485778808594
y: 517.7507934570312
z: 0.1624474972486496
visibility: 0.9206371307373047
","x: 218.6216583251953
y: 545.3456420898438
z: 0.050993405282497406
visibility: 0.9882287979125977
","x: 188.03399658203125
y: 539.0517578125
z: 0.065005362033844
visibility: 0.9906235337257385
",,,,,,,,,,,,,,,,,,,,,,,,,,,,,,,,,,,,,,,,,,
29,"x: 218.4754180908203
y: 256.90045166015625
z: -0.22861376404762268
visibility: 0.9999166131019592
","x: 221.52943420410156
y: 255.10171508789062
z: -0.21389134228229523
visibility: 0.9998409748077393
","x: 223.01300048828125
y: 256.70361328125
z: -0.21389588713645935
visibility: 0.9998121857643127
","x: 224.31362915039062
y: 258.6478271484375
z: -0.21391797065734863
visibility: 0.9998180866241455
","x: 217.69509887695312
y: 251.90216064453125
z: -0.21181829273700714
visibility: 0.9998347759246826
","x: 216.6764373779297
y: 251.2677764892578
z: -0.2118532955646515
visibility: 0.999812662601471
","x: 215.63571166992188
y: 250.71878051757812
z: -0.21187207102775574
visibility: 0.9998198747634888
","x: 225.76454162597656
y: 265.64141845703125
z: -0.12173841893672943
visibility: 0.9997284412384033
","x: 214.2052459716797
y: 255.0894775390625
z: -0.11428829282522202
visibility: 0.9996811151504517
","x: 219.96600341796875
y: 266.0010070800781
z: -0.19330522418022156
visibility: 0.9997767210006714
","x: 215.43563842773438
y: 261.8277587890625
z: -0.19105149805545807
visibility: 0.9997934699058533
","x: 233.70875549316406
y: 299.2171936035156
z: -0.04714825749397278
visibility: 0.9994432330131531
","x: 196.07196044921875
y: 289.21685791015625
z: -0.0538647286593914
visibility: 0.9996562600135803
","x: 255.63998413085938
y: 315.3689880371094
z: -0.030749833211302757
visibility: 0.9605783820152283
","x: 177.3810577392578
y: 299.0313415527344
z: -0.052766911685466766
visibility: 0.9420613050460815
","x: 277.9779357910156
y: 317.11370849609375
z: -0.1236981526017189
visibility: 0.9386889934539795
","x: 155.2997283935547
y: 296.54522705078125
z: -0.1641634702682495
visibility: 0.9285871386528015
","x: 283.2637023925781
y: 317.876220703125
z: -0.14128118753433228
visibility: 0.8988670110702515
","x: 148.47511291503906
y: 298.8926086425781
z: -0.1882757842540741
visibility: 0.8915961980819702
","x: 283.708984375
y: 314.7826843261719
z: -0.17311981320381165
visibility: 0.9011487364768982
