uscmakers/ReverseChoreography/data/4_woman_doja_cat.csv
,NOSE,LEFT_EYE_INNER,LEFT_EYE,LEFT_EYE_OUTER,RIGHT_EYE_INNER,RIGHT_EYE,RIGHT_EYE_OUTER,LEFT_EAR,RIGHT_EAR,MOUTH_LEFT,MOUTH_RIGHT,LEFT_SHOULDER,RIGHT_SHOULDER,LEFT_ELBOW,RIGHT_ELBOW,LEFT_WRIST,RIGHT_WRIST,LEFT_PINKY,RIGHT_PINKY,LEFT_INDEX,RIGHT_INDEX,LEFT_THUMB,RIGHT_THUMB,LEFT_HIP,RIGHT_HIP,LEFT_KNEE,RIGHT_KNEE,LEFT_ANKLE,RIGHT_ANKLE,LEFT_HEEL,RIGHT_HEEL,LEFT_FOOT_INDEX,RIGHT_FOOT_INDEX,WRIST,THUMB_CPC,THUMB_MCP,THUMB_IP,THUMB_TIP,INDEX_FINGER_MCP,INDEX_FINGER_PIP,INDEX_FINGER_DIP,INDEX_FINGER_TIP,MIDDLE_FINGER_MCP,MIDDLE_FINGER_PIP,MIDDLE_FINGER_DIP,MIDDLE_FINGER_TIP,RING_FINGER_PIP,RING_FINGER_DIP,RING_FINGER_TIP,RING_FINGER_MCP,PINKY_MCP,PINKY_PIP,PINKY_DIP,PINKY_TIP,WRIST2,THUMB_CPC2,THUMB_MCP2,THUMB_IP2,THUMB_TIP2,INDEX_FINGER_MCP2,INDEX_FINGER_PIP2,INDEX_FINGER_DIP2,INDEX_FINGER_TIP2,MIDDLE_FINGER_MCP2,MIDDLE_FINGER_PIP2,MIDDLE_FINGER_DIP2,MIDDLE_FINGER_TIP2,RING_FINGER_PIP2,RING_FINGER_DIP2,RING_FINGER_TIP2,RING_FINGER_MCP2,PINKY_MCP2,PINKY_PIP2,PINKY_DIP2,PINKY_TIP2
0,"x: 207.69076538085938
y: 256.7663879394531
z: -0.23542213439941406
visibility: 0.9999830722808838
","x: 209.77947998046875
y: 251.7290496826172
z: -0.22114796936511993
visibility: 0.9999512434005737
","x: 211.14398193359375
y: 252.3461151123047
z: -0.22122490406036377
visibility: 0.9999493360519409
","x: 212.41656494140625
y: 253.00418090820312
z: -0.2213033139705658
visibility: 0.9999436140060425
","x: 205.45166015625
y: 251.0137939453125
z: -0.22174131870269775
visibility: 0.999944806098938
","x: 203.9329833984375
y: 251.2425994873047
z: -0.22176948189735413
visibility: 0.9999345541000366
","x: 202.5428466796875
y: 251.5685272216797
z: -0.2217625081539154
visibility: 0.9999144077301025
","x: 213.4951629638672
y: 257.8348693847656
z: -0.12820002436637878
visibility: 0.9999257326126099
","x: 199.80145263671875
y: 256.0367431640625
z: -0.13062907755374908
visibility: 0.9998971223831177
","x: 209.965576171875
y: 265.74151611328125
z: -0.20008794963359833
visibility: 0.9999644756317139
","x: 204.15676879882812
y: 264.6612243652344
z: -0.20070059597492218
visibility: 0.9999582767486572
","x: 223.06613159179688
y: 302.1004943847656
z: -0.060673344880342484
visibility: 0.9999654293060303
","x: 185.1890869140625
y: 298.9771423339844
z: -0.07862570881843567
visibility: 0.9999293088912964
","x: 231.36717224121094
y: 345.5212097167969
z: -0.05014330893754959
visibility: 0.9713065028190613
","x: 161.78298950195312
y: 329.5684814453125
z: -0.11606816947460175
visibility: 0.9906486868858337
","x: 251.67630004882812
y: 357.3765563964844
z: -0.15858635306358337
visibility: 0.9822283387184143
","x: 139.31837463378906
y: 320.57537841796875
z: -0.2639419734477997
visibility: 0.9915695786476135
","x: 259.3796081542969
y: 362.4398498535156
z: -0.1816541850566864
visibility: 0.9642716646194458
","x: 131.5086212158203
y: 320.00146484375
z: -0.2916581928730011
visibility: 0.9828416109085083
","x: 260.7272644042969
y: 358.80572509765625
z: -0.21104200184345245
visibility: 0.9716876745223999
","x: 131.837646484375
y: 316.09051513671875
z: -0.31896623969078064
visibility: 0.9857169389724731
","x: 258.0754089355469
y: 356.7297668457031
z: -0.17448318004608154
visibility: 0.9688063263893127
","x: 134.7041473388672
y: 316.2843017578125
z: -0.2804277837276459
visibility: 0.9832586050033569
","x: 211.8391571044922
y: 400.2310791015625
z: 0.01563105545938015
visibility: 0.9998332262039185
","x: 189.55812072753906
y: 400.62353515625
z: -0.015641741454601288
visibility: 0.9996588230133057
","x: 223.93978881835938
y: 466.8481750488281
z: -0.09107986092567444
visibility: 0.9972911477088928
","x: 182.5405731201172
y: 473.06207275390625
z: -0.0004467046237550676
visibility: 0.9948034882545471
","x: 219.55599975585938
y: 535.3404541015625
z: 0.032069139182567596
visibility: 0.996046245098114
","x: 177.55828857421875
y: 532.0325317382812
z: 0.16474738717079163
visibility: 0.9923959970474243
","x: 214.1480255126953
y: 546.3701171875
z: 0.03884025290608406
visibility: 0.9752868413925171
","x: 177.94540405273438
y: 538.74462890625
z: 0.17549632489681244
visibility: 0.8796026110649109
","x: 227.80014038085938
y: 556.3020629882812
z: -0.06631748378276825
visibility: 0.9939306974411011
","x: 175.560302734375
y: 554.12890625
z: 0.07638724148273468
visibility: 0.985964298248291
",,,,,,,,,,,,,,,,,,,,,,,,,,,,,,,,,,,,,,,,,,
1,"x: 233.8721923828125
y: 254.32217407226562
z: 0.027509430423378944
visibility: 0.9999778270721436
","x: 231.8585205078125
y: 247.72828674316406
z: 0.03984200209379196
visibility: 0.9999470114707947
","x: 231.4794158935547
y: 247.8578338623047
z: 0.03982466831803322
visibility: 0.999943196773529
","x: 231.0045623779297
y: 247.98135375976562
z: 0.03980947658419609
visibility: 0.999943733215332
","x: 231.2763671875
y: 247.2874298095703
z: 0.012430720962584019
visibility: 0.9999422430992126
","x: 230.5751953125
y: 247.1432342529297
z: 0.01240918692201376
visibility: 0.9999326467514038
","x: 229.79173278808594
y: 247.02667236328125
z: 0.01232351828366518
visibility: 0.999915361404419
","x: 225.3676300048828
y: 251.86668395996094
z: 0.10467461496591568
visibility: 0.9999135732650757
","x: 223.9384765625
y: 251.1644744873047
z: -0.021382059901952744
visibility: 0.999900758266449
","x: 232.71934509277344
y: 262.275390625
z: 0.05459495633840561
visibility: 0.9999525547027588
","x: 231.54095458984375
y: 262.2478942871094
z: 0.0176302008330822
visibility: 0.9999470114707947
","x: 224.20326232910156
y: 296.77935791015625
z: 0.19083139300346375
visibility: 0.9999631643295288
","x: 216.32958984375
y: 280.6509094238281
z: -0.10157139599323273
visibility: 0.9999330639839172
","x: 228.23391723632812
y: 339.91265869140625
z: 0.28656700253486633
visibility: 0.9040687680244446
","x: 231.8607635498047
y: 307.14349365234375
z: -0.2404565066099167
visibility: 0.9914413094520569
","x: 241.76547241210938
y: 354.22100830078125
z: 0.32480183243751526
visibility: 0.9659218192100525
","x: 260.50201416015625
y: 303.7774353027344
z: -0.30059558153152466
visibility: 0.9920991659164429
","x: 246.3557586669922
y: 358.722412109375
z: 0.33961084485054016
visibility: 0.9499804973602295
","x: 267.963134765625
y: 306.61334228515625
z: -0.33234018087387085
visibility: 0.9839088916778564
","x: 247.385009765625
y: 356.8229675292969
z: 0.3143107295036316
visibility: 0.9575303792953491
","x: 268.8198547363281
y: 304.844970703125
z: -0.3211255967617035
visibility: 0.9864091873168945
","x: 245.52508544921875
y: 354.9913330078125
z: 0.3153572678565979
visibility: 0.9530715346336365
","x: 266.645751953125
y: 304.5124206542969
z: -0.2962779998779297
visibility: 0.9834907054901123
","x: 218.13853454589844
y: 390.67938232421875
z: 0.08494386076927185
visibility: 0.9998483657836914
","x: 204.4580841064453
y: 383.9873962402344
z: -0.08482665568590164
visibility: 0.9996849894523621
","x: 226.43035888671875
y: 464.3038330078125
z: -0.02478417381644249
visibility: 0.9939889907836914
","x: 222.50277709960938
y: 426.2535095214844
z: -0.22615590691566467
visibility: 0.9948707222938538
","x: 215.31466674804688
y: 538.4351806640625
z: -0.007820980623364449
visibility: 0.995351254940033
","x: 203.44021606445312
y: 472.8648376464844
z: -0.09885698556900024
visibility: 0.9903238415718079
","x: 208.4007568359375
y: 550.8380737304688
z: -0.011004548519849777
visibility: 0.9752255082130432
","x: 197.49920654296875
y: 473.703857421875
z: -0.08553607761859894
visibility: 0.8821970820426941
","x: 227.78091430664062
y: 558.2444458007812
z: -0.08072565495967865
visibility: 0.9937735795974731
","x: 206.24966430664062
y: 503.6180114746094
z: -0.12179189920425415
visibility: 0.9859364628791809
",,,,,,,,,,,,,,,,,,,,,,,,,,,,,,,,,,,,,,,,,,
2,"x: 238.43247985839844
y: 255.81434631347656
z: 0.044148169457912445
visibility: 0.9999767541885376
","x: 236.69869995117188
y: 248.4799041748047
z: 0.06072919815778732
visibility: 0.9999507069587708
","x: 236.27304077148438
y: 248.09884643554688
z: 0.06063368171453476
visibility: 0.9999464750289917
","x: 235.70449829101562
y: 248.36935424804688
z: 0.06059522554278374
visibility: 0.9999478459358215
","x: 235.97048950195312
y: 248.32025146484375
z: 0.03593039885163307
visibility: 0.9999462366104126
","x: 235.1146697998047
y: 247.91307067871094
z: 0.035938866436481476
visibility: 0.9999373555183411
","x: 234.08444213867188
y: 247.46392822265625
z: 0.0358918234705925
visibility: 0.9999223947525024
","x: 230.25509643554688
y: 252.61981201171875
z: 0.14158879220485687
visibility: 0.9999164938926697
","x: 228.46591186523438
y: 251.70423889160156
z: 0.028832146897912025
visibility: 0.999908983707428
","x: 236.56491088867188
y: 262.3880615234375
z: 0.07698492705821991
visibility: 0.9999529719352722
","x: 235.38424682617188
y: 262.376953125
z: 0.044050365686416626
visibility: 0.9999493956565857
","x: 227.8125762939453
y: 292.8583984375
z: 0.20765773952007294
visibility: 0.9999529719352722
","x: 218.26551818847656
y: 283.00701904296875
z: -0.033525992184877396
visibility: 0.9999388456344604
","x: 228.5963897705078
y: 338.14691162109375
z: 0.18441566824913025
visibility: 0.8184449672698975
","x: 220.95782470703125
y: 310.0619812011719
z: -0.1744236946105957
visibility: 0.9908943772315979
","x: 242.61468505859375
y: 348.7342834472656
z: 0.06647081673145294
visibility: 0.9033032059669495
","x: 240.1668243408203
y: 315.33935546875
z: -0.25388601422309875
visibility: 0.9917407631874084
","x: 248.8418731689453
y: 339.1165771484375
z: 0.04986317828297615
visibility: 0.8958898782730103
","x: 248.00425720214844
y: 316.847412109375
z: -0.2827342450618744
visibility: 0.9836971163749695
","x: 249.91123962402344
y: 334.1024169921875
z: 0.0326564684510231
visibility: 0.9024660587310791
","x: 247.6109161376953
y: 314.53643798828125
z: -0.2705610394477844
visibility: 0.9857099652290344
","x: 246.2312774658203
y: 335.20623779296875
z: 0.05444399267435074
visibility: 0.8956485986709595
","x: 243.97744750976562
y: 313.7224426269531
z: -0.24794885516166687
visibility: 0.9809677004814148
","x: 223.6748504638672
y: 388.0757141113281
z: 0.06372561305761337
visibility: 0.9998593330383301
","x: 207.987060546875
y: 380.3054504394531
z: -0.06366516649723053
visibility: 0.9997144341468811
","x: 228.6341552734375
y: 462.4674987792969
z: -0.05437467619776726
visibility: 0.9903869032859802
","x: 211.10946655273438
y: 431.7245178222656
z: -0.3591601252555847
visibility: 0.9949461221694946
","x: 213.60252380371094
y: 538.8969116210938
z: -0.11599390208721161
visibility: 0.9918017387390137
","x: 200.2020263671875
y: 498.9062805175781
z: -0.5460005402565002
visibility: 0.99001145362854
","x: 206.12716674804688
y: 554.16064453125
z: -0.12832851707935333
visibility: 0.9710986018180847
","x: 196.89483642578125
y: 500.9258728027344
z: -0.5686702728271484
visibility: 0.8868501782417297
","x: 228.13031005859375
y: 558.494873046875
z: -0.222598597407341
visibility: 0.9918674230575562
","x: 205.38377380371094
y: 525.728271484375
z: -0.6895207166671753
visibility: 0.9868671894073486
",,,,,,,,,,,,,,,,,,,,,,,,,,,,,,,,,,,,,,,,,,
3,"x: 239.07162475585938
y: 244.917236328125
z: -0.10127904266119003
visibility: 0.9999790191650391
","x: 237.3575897216797
y: 238.79367065429688
z: -0.08517144620418549
visibility: 0.9999554753303528
","x: 237.27772521972656
y: 238.77464294433594
z: -0.08521817624568939
visibility: 0.9999516606330872
","x: 237.11395263671875
y: 238.87579345703125
z: -0.0852644145488739
visibility: 0.9999529123306274
","x: 235.81570434570312
y: 238.78111267089844
z: -0.0967225506901741
visibility: 0.9999515414237976
","x: 234.56143188476562
y: 238.85464477539062
z: -0.09675098955631256
visibility: 0.9999435544013977
","x: 233.10328674316406
y: 239.04344177246094
z: -0.09675716608762741
visibility: 0.9999300837516785
","x: 232.71449279785156
y: 243.80628967285156
z: 0.012284565716981888
visibility: 0.9999244809150696
","x: 227.2003936767578
y: 244.9412841796875
z: -0.07134810090065002
visibility: 0.9999180436134338
","x: 238.6099090576172
y: 252.84584045410156
z: -0.06518171727657318
visibility: 0.9999575614929199
","x: 236.03883361816406
y: 252.7942657470703
z: -0.08000095188617706
visibility: 0.9999544024467468
","x: 238.5628204345703
y: 289.48040771484375
z: 0.13180537521839142
visibility: 0.9999576210975647
","x: 211.93496704101562
y: 279.7823486328125
z: -0.11745218187570572
visibility: 0.9999448657035828
","x: 244.79566955566406
y: 325.59637451171875
z: 0.26644808053970337
visibility: 0.8340797424316406
","x: 201.58489990234375
y: 307.2845458984375
z: -0.17936481535434723
visibility: 0.9917532801628113
","x: 264.5528869628906
y: 302.5434265136719
z: 0.32167738676071167
visibility: 0.9128230214118958
","x: 169.10183715820312
y: 324.26922607421875
z: -0.25051650404930115
visibility: 0.9924730658531189
","x: 271.09100341796875
y: 297.76177978515625
z: 0.3450351655483246
visibility: 0.9058383703231812
","x: 160.77406311035156
y: 329.1413879394531
z: -0.26768389344215393
visibility: 0.9850166440010071
","x: 271.1060485839844
y: 293.5127868652344
z: 0.3310772776603699
visibility: 0.9118224382400513
","x: 160.64407348632812
y: 328.49267578125
z: -0.28654545545578003
visibility: 0.9868478178977966
","x: 268.3047180175781
y: 294.47235107421875
z: 0.3167745769023895
visibility: 0.9056150913238525
","x: 163.27935791015625
y: 327.85577392578125
z: -0.2575702965259552
visibility: 0.982487678527832
","x: 223.0843963623047
y: 384.3271484375
z: 0.09092047810554504
visibility: 0.9998730421066284
","x: 206.53160095214844
y: 373.2433776855469
z: -0.09116525948047638
visibility: 0.9997401833534241
","x: 228.2475128173828
y: 465.8610534667969
z: 0.047143109142780304
visibility: 0.9834495186805725
","x: 216.6094207763672
y: 433.9677734375
z: -0.22382429242134094
visibility: 0.9953014850616455
","x: 213.03265380859375
y: 539.8841552734375
z: 0.10364736616611481
visibility: 0.9920899868011475
","x: 178.7431182861328
y: 445.4375915527344
z: -0.08024197071790695
visibility: 0.9903181791305542
","x: 205.91934204101562
y: 554.01318359375
z: 0.10431107133626938
visibility: 0.9720882773399353
","x: 169.89437866210938
y: 436.2557373046875
z: -0.07225023210048676
visibility: 0.8957114815711975
","x: 228.69778442382812
y: 559.1121826171875
z: 0.04725032299757004
visibility: 0.9923161864280701
","x: 169.17239379882812
y: 472.0605163574219
z: -0.17881281673908234
visibility: 0.9878085255622864
",,,,,,,,,,,,,,,,,,,,,,,,,,,,,,,,,,,,,,,,,,
4,"x: 235.58482360839844
y: 240.50909423828125
z: -0.17801973223686218
visibility: 0.9999805092811584
","x: 234.76016235351562
y: 233.40538024902344
z: -0.16185177862644196
visibility: 0.9999545216560364
","x: 235.11863708496094
y: 233.2916259765625
z: -0.16189874708652496
visibility: 0.9999529719352722
","x: 235.44749450683594
y: 233.17910766601562
z: -0.16188907623291016
visibility: 0.9999515414237976
","x: 232.46920776367188
y: 233.983642578125
z: -0.17295891046524048
visibility: 0.9999524354934692
","x: 231.1780548095703
y: 234.47393798828125
z: -0.17299683392047882
visibility: 0.9999462962150574
","x: 229.72544860839844
y: 235.13006591796875
z: -0.17301926016807556
visibility: 0.9999313950538635
","x: 233.13844299316406
y: 238.04364013671875
z: -0.056299664080142975
visibility: 0.9999186396598816
","x: 224.99464416503906
y: 240.60789489746094
z: -0.11210092157125473
visibility: 0.999925434589386
","x: 236.18545532226562
y: 248.19256591796875
z: -0.13761013746261597
visibility: 0.999959409236908
","x: 232.64163208007812
y: 249.02194213867188
z: -0.15203483402729034
visibility: 0.999957799911499
","x: 244.08811950683594
y: 284.3118896484375
z: 0.07099128514528275
visibility: 0.9999617338180542
","x: 208.8827362060547
y: 277.23150634765625
z: -0.10201241075992584
visibility: 0.9999500513076782
","x: 260.08673095703125
y: 309.8861389160156
z: -0.02835835888981819
visibility: 0.8502078056335449
","x: 196.83642578125
y: 308.09002685546875
z: -0.10558724403381348
visibility: 0.9924522042274475
","x: 277.828125
y: 286.51983642578125
z: -0.2169705182313919
visibility: 0.9214044809341431
","x: 158.2921905517578
y: 326.1463623046875
z: -0.13606798648834229
visibility: 0.9928430318832397
","x: 286.25994873046875
y: 284.9517517089844
z: -0.2421104907989502
visibility: 0.9148305058479309
","x: 149.62197875976562
y: 330.79888916015625
z: -0.1423325389623642
visibility: 0.9852830767631531
","x: 285.77532958984375
y: 281.71728515625
z: -0.25288575887680054
visibility: 0.9202820658683777
","x: 149.94944763183594
y: 329.1252136230469
z: -0.17131856083869934
visibility: 0.9870731234550476
","x: 282.52764892578125
y: 281.66387939453125
z: -0.22731585800647736
visibility: 0.9146180748939514
","x: 152.91238403320312
y: 328.4639892578125
z: -0.14734020829200745
visibility: 0.9830009937286377
","x: 224.73587036132812
y: 380.78680419921875
z: 0.07019834220409393
visibility: 0.9998843669891357
","x: 206.18255615234375
y: 366.54156494140625
z: -0.07025542110204697
visibility: 0.9997613430023193
","x: 226.25404357910156
y: 466.6387634277344
z: 0.04435665160417557
visibility: 0.9752869606018066
","x: 216.94619750976562
y: 416.4169921875
z: -0.26012158393859863
visibility: 0.9956114292144775
","x: 213.11878967285156
y: 540.162353515625
z: 0.11426371335983276
visibility: 0.9920430779457092
","x: 179.33816528320312
y: 426.25970458984375
z: -0.11225999891757965
visibility: 0.9904663562774658
","x: 206.0654296875
y: 553.830322265625
z: 0.11543625593185425
visibility: 0.9727327823638916
","x: 173.2876739501953
y: 419.04766845703125
z: -0.09843306243419647
visibility: 0.9018623232841492
","x: 228.66966247558594
y: 559.9675903320312
z: 0.04924945905804634
visibility: 0.9920393228530884
","x: 167.912109375
y: 450.2748107910156
z: -0.1399841457605362
visibility: 0.9882291555404663
","x: 155.01324462890625
y: 328.56060791015625
z: 0.0
","x: 151.6334991455078
y: 336.7417907714844
z: 1.7313286662101746e-05
","x: 147.56411743164062
y: 341.1126403808594
z: -0.001651558792218566
","x: 144.4498748779297
y: 342.96759033203125
z: -0.0036315699107944965
","x: 142.39630126953125
y: 341.8519592285156
z: -0.004872437100857496
","x: 141.27084350585938
y: 328.50390625
z: -0.0035012103617191315
","x: 139.8005828857422
y: 338.6144714355469
z: -0.006357014644891024
","x: 142.9488525390625
y: 341.364990234375
z: -0.006469971500337124
","x: 145.5661163330078
y: 340.6192321777344
z: -0.005959714762866497
","x: 141.44961547851562
y: 325.9075927734375
z: -0.005217339843511581
","x: 140.34420776367188
y: 336.9169616699219
z: -0.007410829421132803
","x: 143.07083129882812
y: 339.8595886230469
z: -0.006071448791772127
","x: 145.22396850585938
y: 339.50982666015625
z: -0.005038794130086899
","x: 142.57656860351562
y: 324.75982666015625
z: -0.007039232179522514
","x: 141.67938232421875
y: 335.50054931640625
z: -0.009142221882939339
","x: 144.36509704589844
y: 337.9908752441406
z: -0.007092603016644716
","x: 146.4893798828125
y: 337.72216796875
z: -0.005473642144352198
","x: 144.19264221191406
y: 324.8872375488281
z: -0.008954217657446861
","x: 143.42356872558594
y: 333.41937255859375
z: -0.010160420089960098
","x: 145.4668731689453
y: 336.0818786621094
z: -0.008599427528679371
","x: 147.34718322753906
y: 336.4131164550781
z: -0.00714991195127368
",,,,,,,,,,,,,,,,,,,,,
5,"x: 235.58482360839844
y: 240.50909423828125
z: -0.17801973223686218
visibility: 0.9999805092811584
","x: 234.76016235351562
y: 233.40538024902344
z: -0.16185177862644196
visibility: 0.9999545216560364
","x: 235.11863708496094
y: 233.2916259765625
z: -0.16189874708652496
visibility: 0.9999529719352722
","x: 235.44749450683594
y: 233.17910766601562
z: -0.16188907623291016
visibility: 0.9999515414237976
","x: 232.46920776367188
y: 233.983642578125
z: -0.17295891046524048
visibility: 0.9999524354934692
","x: 231.1780548095703
y: 234.47393798828125
z: -0.17299683392047882
visibility: 0.9999462962150574
","x: 229.72544860839844
y: 235.13006591796875
z: -0.17301926016807556
visibility: 0.9999313950538635
","x: 233.13844299316406
y: 238.04364013671875
z: -0.056299664080142975
visibility: 0.9999186396598816
","x: 224.99464416503906
y: 240.60789489746094
z: -0.11210092157125473
visibility: 0.999925434589386
","x: 236.18545532226562
y: 248.19256591796875
z: -0.13761013746261597
visibility: 0.999959409236908
","x: 232.64163208007812
y: 249.02194213867188
z: -0.15203483402729034
visibility: 0.999957799911499
","x: 244.08811950683594
y: 284.3118896484375
z: 0.07099128514528275
visibility: 0.9999617338180542
","x: 208.8827362060547
y: 277.23150634765625
z: -0.10201241075992584
visibility: 0.9999500513076782
","x: 260.08673095703125
y: 309.8861389160156
z: -0.02835835888981819
visibility: 0.8502078056335449
","x: 196.83642578125
y: 308.09002685546875
z: -0.10558724403381348
visibility: 0.9924522042274475
","x: 277.828125
y: 286.51983642578125
z: -0.2169705182313919
visibility: 0.9214044809341431
","x: 158.2921905517578
y: 326.1463623046875
z: -0.13606798648834229
visibility: 0.9928430318832397
","x: 286.25994873046875
y: 284.9517517089844
z: -0.2421104907989502
visibility: 0.9148305058479309
","x: 149.62197875976562
y: 330.79888916015625
z: -0.1423325389623642
visibility: 0.9852830767631531
","x: 285.77532958984375
y: 281.71728515625
z: -0.25288575887680054
visibility: 0.9202820658683777
","x: 149.94944763183594
y: 329.1252136230469
z: -0.17131856083869934
visibility: 0.9870731234550476
","x: 282.52764892578125
y: 281.66387939453125
z: -0.22731585800647736
visibility: 0.9146180748939514
","x: 152.91238403320312
y: 328.4639892578125
z: -0.14734020829200745
visibility: 0.9830009937286377
","x: 224.73587036132812
y: 380.78680419921875
z: 0.07019834220409393
visibility: 0.9998843669891357
","x: 206.18255615234375
y: 366.54156494140625
z: -0.07025542110204697
visibility: 0.9997613430023193
","x: 226.25404357910156
y: 466.6387634277344
z: 0.04435665160417557
visibility: 0.9752869606018066
","x: 216.94619750976562
y: 416.4169921875
z: -0.26012158393859863
visibility: 0.9956114292144775
","x: 213.11878967285156
y: 540.162353515625
z: 0.11426371335983276
visibility: 0.9920430779457092
","x: 179.33816528320312
y: 426.25970458984375
z: -0.11225999891757965
visibility: 0.9904663562774658
","x: 206.0654296875
y: 553.830322265625
z: 0.11543625593185425
visibility: 0.9727327823638916
","x: 173.2876739501953
y: 419.04766845703125
z: -0.09843306243419647
visibility: 0.9018623232841492
","x: 228.66966247558594
y: 559.9675903320312
z: 0.04924945905804634
visibility: 0.9920393228530884
","x: 167.912109375
y: 450.2748107910156
z: -0.1399841457605362
visibility: 0.9882291555404663
","x: 155.01324462890625
y: 328.56060791015625
z: 0.0
","x: 151.6334991455078
y: 336.7417907714844
z: 1.7313286662101746e-05
","x: 147.56411743164062
y: 341.1126403808594
z: -0.001651558792218566
","x: 144.4498748779297
y: 342.96759033203125
z: -0.0036315699107944965
","x: 142.39630126953125
y: 341.8519592285156
z: -0.004872437100857496
","x: 141.27084350585938
y: 328.50390625
z: -0.0035012103617191315
","x: 139.8005828857422
y: 338.6144714355469
z: -0.006357014644891024
","x: 142.9488525390625
y: 341.364990234375
z: -0.006469971500337124
","x: 145.5661163330078
y: 340.6192321777344
z: -0.005959714762866497
","x: 141.44961547851562
y: 325.9075927734375
z: -0.005217339843511581
","x: 140.34420776367188
y: 336.9169616699219
z: -0.007410829421132803
","x: 143.07083129882812
y: 339.8595886230469
z: -0.006071448791772127
","x: 145.22396850585938
y: 339.50982666015625
z: -0.005038794130086899
","x: 142.57656860351562
y: 324.75982666015625
z: -0.007039232179522514
","x: 141.67938232421875
y: 335.50054931640625
z: -0.009142221882939339
","x: 144.36509704589844
y: 337.9908752441406
z: -0.007092603016644716
","x: 146.4893798828125
y: 337.72216796875
z: -0.005473642144352198
","x: 144.19264221191406
y: 324.8872375488281
z: -0.008954217657446861
","x: 143.42356872558594
y: 333.41937255859375
z: -0.010160420089960098
","x: 145.4668731689453
y: 336.0818786621094
z: -0.008599427528679371
","x: 147.34718322753906
y: 336.4131164550781
z: -0.00714991195127368
",,,,,,,,,,,,,,,,,,,,,
6,"x: 234.98208618164062
y: 243.9840545654297
z: -0.22874665260314941
visibility: 0.9999822378158569
","x: 234.514892578125
y: 237.3904266357422
z: -0.20651519298553467
visibility: 0.9999575614929199
","x: 235.10009765625
y: 237.5007781982422
z: -0.2065749615430832
visibility: 0.9999563694000244
","x: 235.68511962890625
y: 237.61532592773438
z: -0.20661747455596924
visibility: 0.999954104423523
","x: 231.68026733398438
y: 237.4504852294922
z: -0.21531787514686584
visibility: 0.9999561905860901
","x: 230.1769256591797
y: 237.76254272460938
z: -0.21535468101501465
visibility: 0.9999508857727051
","x: 228.5297393798828
y: 238.2307586669922
z: -0.2153519093990326
visibility: 0.9999370574951172
","x: 234.29603576660156
y: 242.3077392578125
z: -0.09260722994804382
visibility: 0.9999223947525024
","x: 223.44235229492188
y: 243.47779846191406
z: -0.1365615427494049
visibility: 0.9999326467514038
","x: 236.1072235107422
y: 251.77162170410156
z: -0.18796293437480927
visibility: 0.9999630451202393
","x: 231.88938903808594
y: 252.07496643066406
z: -0.2004871815443039
visibility: 0.9999618530273438
","x: 244.30194091796875
y: 287.1692199707031
z: -0.037769366055727005
visibility: 0.9999643564224243
","x: 205.8061065673828
y: 280.64300537109375
z: -0.09919445961713791
visibility: 0.9999539256095886
","x: 267.2508544921875
y: 317.6748962402344
z: -0.14842748641967773
visibility: 0.8649600148200989
","x: 192.6346893310547
y: 310.24822998046875
z: -0.12167765945196152
visibility: 0.9920542240142822
","x: 280.71466064453125
y: 283.53521728515625
z: -0.3206309676170349
visibility: 0.9289842844009399
","x: 159.96746826171875
y: 337.3592834472656
z: -0.1586010903120041
visibility: 0.9916055798530579
","x: 287.0347595214844
y: 278.8268127441406
z: -0.3535333275794983
visibility: 0.922099232673645
","x: 152.85862731933594
y: 343.13006591796875
z: -0.1629614382982254
visibility: 0.9822689890861511
","x: 285.54010009765625
y: 276.2273864746094
z: -0.348518431186676
visibility: 0.9270247220993042
","x: 153.53489685058594
y: 341.5548400878906
z: -0.20875613391399384
visibility: 0.9841350317001343
","x: 282.5921630859375
y: 277.4689636230469
z: -0.324588418006897
visibility: 0.9214348196983337
","x: 156.23477172851562
y: 340.70758056640625
z: -0.17597463726997375
visibility: 0.9793894290924072
","x: 227.50144958496094
y: 383.77301025390625
z: 0.012264551594853401
visibility: 0.9998888969421387
","x: 206.0352325439453
y: 374.79962158203125
z: -0.012099162675440311
visibility: 0.9997828602790833
","x: 227.0397491455078
y: 468.01141357421875
z: -0.037848927080631256
visibility: 0.9761793613433838
","x: 201.26315307617188
y: 404.5548095703125
z: -0.3666764497756958
visibility: 0.995840847492218
","x: 213.1403350830078
y: 540.2706298828125
z: 0.10451420396566391
visibility: 0.9921190142631531
","x: 194.7955780029297
y: 462.4429016113281
z: -0.17638738453388214
visibility: 0.9908012747764587
","x: 206.76792907714844
y: 553.4862670898438
z: 0.1126900166273117
visibility: 0.9725648760795593
","x: 198.09494018554688
y: 466.1875
z: -0.1619504988193512
visibility: 0.9082752466201782
","x: 228.26309204101562
y: 559.9473266601562
z: 0.004344054963439703
visibility: 0.9917840957641602
","x: 184.023193359375
y: 488.8946533203125
z: -0.2689092755317688
visibility: 0.9887394309043884
",,,,,,,,,,,,,,,,,,,,,,,,,,,,,,,,,,,,,,,,,,
7,"x: 231.69985961914062
y: 253.12547302246094
z: -0.2711060643196106
visibility: 0.9999838471412659
","x: 230.9785919189453
y: 247.31143188476562
z: -0.25083449482917786
visibility: 0.9999609589576721
","x: 231.76287841796875
y: 247.46408081054688
z: -0.25087833404541016
visibility: 0.9999600052833557
","x: 232.5590057373047
y: 247.6532745361328
z: -0.25092825293540955
visibility: 0.9999576210975647
","x: 228.21109008789062
y: 247.81861877441406
z: -0.25316596031188965
visibility: 0.9999599456787109
","x: 226.8203887939453
y: 248.51356506347656
z: -0.25319308042526245
visibility: 0.9999552369117737
","x: 225.30239868164062
y: 249.29513549804688
z: -0.253184974193573
visibility: 0.9999425411224365
","x: 232.63621520996094
y: 253.32827758789062
z: -0.1392413228750229
visibility: 0.9999287128448486
","x: 220.69468688964844
y: 254.36492919921875
z: -0.15047074854373932
visibility: 0.9999390244483948
","x: 232.09365844726562
y: 260.98028564453125
z: -0.2304697483778
visibility: 0.9999662637710571
","x: 228.31613159179688
y: 261.87396240234375
z: -0.23352225124835968
visibility: 0.9999653100967407
","x: 243.76596069335938
y: 301.97705078125
z: -0.07885734736919403
visibility: 0.9999657869338989
","x: 204.56094360351562
y: 293.33245849609375
z: -0.08402086794376373
visibility: 0.9999571442604065
","x: 263.3822937011719
y: 343.57196044921875
z: -0.19182762503623962
visibility: 0.8783490061759949
","x: 188.1306915283203
y: 335.490234375
z: -0.0912899523973465
visibility: 0.9908769726753235
","x: 275.052978515625
y: 303.0953063964844
z: -0.37498122453689575
visibility: 0.935905396938324
","x: 161.9259490966797
y: 355.526611328125
z: -0.19225189089775085
visibility: 0.9900854825973511
","x: 279.8140563964844
y: 296.20770263671875
z: -0.41223812103271484
visibility: 0.9290452003479004
","x: 155.30677795410156
y: 363.0538330078125
z: -0.21055343747138977
visibility: 0.9784259796142578
","x: 278.3125
y: 290.9083251953125
z: -0.4088444113731384
visibility: 0.9335095882415771
","x: 155.40231323242188
y: 360.962646484375
z: -0.24015633761882782
visibility: 0.980539083480835
","x: 275.8009948730469
y: 293.8627014160156
z: -0.3797309398651123
visibility: 0.9280022382736206
","x: 157.9782257080078
y: 358.74249267578125
z: -0.20684003829956055
visibility: 0.9752098917961121
","x: 231.0004119873047
y: 395.34710693359375
z: -0.007587756030261517
visibility: 0.999883234500885
","x: 208.2587432861328
y: 387.6752014160156
z: 0.007719960995018482
visibility: 0.9998008012771606
","x: 229.85829162597656
y: 468.6610412597656
z: -0.1286771446466446
visibility: 0.97545325756073
","x: 190.3046112060547
y: 418.1445007324219
z: -0.28034624457359314
visibility: 0.9956659078598022
","x: 213.4583740234375
y: 540.8529052734375
z: -0.047425828874111176
visibility: 0.9907922148704529
","x: 191.3108673095703
y: 516.04931640625
z: -0.19300030171871185
visibility: 0.9910137057304382
","x: 206.4493865966797
y: 553.67724609375
z: -0.04756401851773262
visibility: 0.9679154753684998
","x: 193.77285766601562
y: 535.463134765625
z: -0.19267117977142334
visibility: 0.9138715267181396
","x: 228.10711669921875
y: 559.0012817382812
z: -0.173007994890213
visibility: 0.9904992580413818
","x: 170.4256591796875
y: 520.810546875
z: -0.31402871012687683
visibility: 0.9889904260635376
",,,,,,,,,,,,,,,,,,,,,,,,,,,,,,,,,,,,,,,,,,
8,"x: 223.3948211669922
y: 253.07778930664062
z: -0.2758307456970215
visibility: 0.9999672770500183
","x: 226.09600830078125
y: 247.31170654296875
z: -0.2612481713294983
visibility: 0.9999223947525024
","x: 227.9791717529297
y: 247.6095428466797
z: -0.2613135278224945
visibility: 0.9999105334281921
","x: 230.11634826660156
y: 248.00778198242188
z: -0.2613335847854614
visibility: 0.9999070167541504
","x: 222.30255126953125
y: 247.6032257080078
z: -0.25666263699531555
visibility: 0.999936044216156
","x: 221.01806640625
y: 248.19419860839844
z: -0.256716251373291
visibility: 0.999923050403595
","x: 219.8125
y: 248.87060546875
z: -0.2567712664604187
visibility: 0.9999139904975891
","x: 230.643310546875
y: 253.6971893310547
z: -0.16695669293403625
visibility: 0.9998115301132202
","x: 219.05052185058594
y: 253.90774536132812
z: -0.14489209651947021
visibility: 0.9998604655265808
","x: 226.39369201660156
y: 261.1195068359375
z: -0.2404664307832718
visibility: 0.9999102354049683
","x: 220.9013214111328
y: 261.7240295410156
z: -0.23393169045448303
visibility: 0.9999117851257324
","x: 240.73275756835938
y: 301.396240234375
z: -0.1326601505279541
visibility: 0.9997149705886841
","x: 203.83499145507812
y: 295.082763671875
z: -0.05618239566683769
visibility: 0.9999397993087769
","x: 235.33877563476562
y: 347.486572265625
z: -0.20905466377735138
visibility: 0.8768836259841919
","x: 189.01541137695312
y: 342.60736083984375
z: -0.008024071343243122
visibility: 0.9749930500984192
","x: 220.77223205566406
y: 346.5679931640625
z: -0.3770536780357361
visibility: 0.9223471283912659
","x: 166.2414093017578
y: 371.0815124511719
z: -0.09607060998678207
visibility: 0.9733960628509521
","x: 217.98843383789062
y: 347.40240478515625
z: -0.4162212014198303
visibility: 0.9119572639465332
","x: 157.658203125
y: 379.2028503417969
z: -0.11673413217067719
visibility: 0.9560454487800598
","x: 217.72999572753906
y: 339.7102355957031
z: -0.4290180206298828
visibility: 0.9165976643562317
","x: 156.94882202148438
y: 378.26702880859375
z: -0.15318556129932404
visibility: 0.960040271282196
","x: 218.5770263671875
y: 339.5283508300781
z: -0.3860465884208679
visibility: 0.9033101797103882
","x: 159.79737854003906
y: 375.6958312988281
z: -0.11369834095239639
visibility: 0.954655110836029
","x: 231.1485595703125
y: 396.951416015625
z: -0.019925368949770927
visibility: 0.9997153282165527
","x: 208.68768310546875
y: 391.788330078125
z: 0.01996675506234169
visibility: 0.9997817277908325
","x: 229.6295623779297
y: 471.10833740234375
z: -0.09002097696065903
visibility: 0.97605299949646
","x: 192.40553283691406
y: 457.38336181640625
z: -0.05798253417015076
visibility: 0.995069682598114
","x: 213.60519409179688
y: 541.1469116210938
z: -0.015881463885307312
visibility: 0.9901780486106873
","x: 185.63951110839844
y: 535.5292358398438
z: 0.03436096012592316
visibility: 0.9914585947990417
","x: 206.90524291992188
y: 554.119140625
z: -0.004612530581653118
visibility: 0.9632092118263245
","x: 190.38723754882812
y: 552.9434814453125
z: 0.03452860936522484
visibility: 0.9186827540397644
","x: 227.41099548339844
y: 559.7069702148438
z: -0.0996507778763771
visibility: 0.9892969727516174
","x: 163.1209716796875
y: 540.3077392578125
z: -0.07904712855815887
visibility: 0.9891864657402039
",,,,,,,,,,,,,,,,,,,,,,,,,,,,,,,,,,,,,,,,,,
9,"x: 215.84561157226562
y: 251.3357696533203
z: -0.19815170764923096
visibility: 0.9999691247940063
","x: 218.79962158203125
y: 246.02906799316406
z: -0.18618789315223694
visibility: 0.9999263286590576
","x: 220.41165161132812
y: 246.33840942382812
z: -0.1862148642539978
visibility: 0.9999147057533264
","x: 222.2976837158203
y: 246.80157470703125
z: -0.18616706132888794
visibility: 0.9999114871025085
","x: 215.33428955078125
y: 246.29702758789062
z: -0.17126047611236572
visibility: 0.999938428401947
","x: 214.2293701171875
y: 246.80784606933594
z: -0.17126944661140442
visibility: 0.9999260306358337
","x: 213.13751220703125
y: 247.28150939941406
z: -0.17126597464084625
visibility: 0.9999181628227234
","x: 228.30491638183594
y: 253.66079711914062
z: -0.12737686932086945
visibility: 0.9998239874839783
","x: 214.7407989501953
y: 252.8453826904297
z: -0.054605066776275635
visibility: 0.9998621940612793
","x: 218.7266845703125
y: 260.0402526855469
z: -0.1722315400838852
visibility: 0.9999178051948547
","x: 213.99716186523438
y: 259.80047607421875
z: -0.15214617550373077
visibility: 0.999918520450592
","x: 239.27166748046875
y: 300.4959716796875
z: -0.085479736328125
visibility: 0.9997395873069763
","x: 203.38157653808594
y: 295.74322509765625
z: 0.02852834202349186
visibility: 0.9999298453330994
","x: 228.33392333984375
y: 344.3966979980469
z: -0.14625847339630127
visibility: 0.8880065083503723
","x: 189.82374572753906
y: 337.9525146484375
z: -0.022986184805631638
visibility: 0.9492281675338745
","x: 198.466796875
y: 338.79339599609375
z: -0.2576037645339966
visibility: 0.9288935661315918
","x: 184.57080078125
y: 354.0292053222656
z: -0.1938515603542328
visibility: 0.9492765665054321
","x: 190.78872680664062
y: 340.054931640625
z: -0.29496026039123535
visibility: 0.9181321263313293
","x: 183.05630493164062
y: 359.62957763671875
z: -0.25100407004356384
visibility: 0.9291713237762451
","x: 190.22637939453125
y: 333.37548828125
z: -0.2976243197917938
visibility: 0.9223390221595764
","x: 184.2611083984375
y: 357.32373046875
z: -0.25772616267204285
visibility: 0.9324301481246948
","x: 193.04934692382812
y: 333.30828857421875
z: -0.26034051179885864
visibility: 0.9081235527992249
","x: 185.71743774414062
y: 355.9213562011719
z: -0.203162282705307
visibility: 0.9241672158241272
","x: 230.09417724609375
y: 396.9496154785156
z: -0.02092951536178589
visibility: 0.9997348785400391
","x: 208.4644012451172
y: 392.0425109863281
z: 0.020796215161681175
visibility: 0.9997944235801697
","x: 226.06732177734375
y: 474.6841125488281
z: -0.07989513874053955
visibility: 0.978135347366333
","x: 189.437744140625
y: 462.0451354980469
z: -0.06332199275493622
visibility: 0.9952651262283325
","x: 220.22735595703125
y: 539.5216674804688
z: 0.1734813153743744
visibility: 0.9906509518623352
","x: 186.55667114257812
y: 525.078857421875
z: 0.15446658432483673
visibility: 0.9918876886367798
","x: 217.99447631835938
y: 546.8209228515625
z: 0.19238793849945068
visibility: 0.9572572708129883
","x: 191.13624572753906
y: 533.61376953125
z: 0.1712408810853958
visibility: 0.9202851057052612
","x: 225.2447052001953
y: 561.9141845703125
z: 0.08471769094467163
visibility: 0.989611029624939
","x: 176.07479858398438
y: 552.835693359375
z: 0.07276123017072678
visibility: 0.9895181655883789
",,,,,,,,,,,,,,,,,,,,,,,,,,,,,,,,,,,,,,,,,,
10,"x: 210.48411560058594
y: 263.3007507324219
z: -0.12658022344112396
visibility: 0.9999679327011108
","x: 213.58444213867188
y: 257.8460388183594
z: -0.11262392997741699
visibility: 0.9999206066131592
","x: 214.96490478515625
y: 258.0071105957031
z: -0.11260863393545151
visibility: 0.9999100565910339
","x: 216.42544555664062
y: 258.2548828125
z: -0.11253730207681656
visibility: 0.9999037384986877
","x: 210.19139099121094
y: 258.1542663574219
z: -0.10507625341415405
visibility: 0.9999300241470337
","x: 209.0540008544922
y: 258.5284729003906
z: -0.10512256622314453
visibility: 0.9999210238456726
","x: 207.9506378173828
y: 258.929931640625
z: -0.10515880584716797
visibility: 0.9999143481254578
","x: 221.50950622558594
y: 264.79229736328125
z: -0.044362813234329224
visibility: 0.9998070597648621
","x: 209.61260986328125
y: 263.8788757324219
z: -0.009166128002107143
visibility: 0.9998363852500916
","x: 213.2978057861328
y: 271.3309326171875
z: -0.1017460972070694
visibility: 0.9999145269393921
","x: 208.95213317871094
y: 272.05419921875
z: -0.09197910875082016
visibility: 0.9999120831489563
","x: 234.224853515625
y: 303.5546569824219
z: -0.05579446628689766
visibility: 0.9997550845146179
","x: 200.78829956054688
y: 310.3817138671875
z: 0.030993353575468063
visibility: 0.9999133944511414
","x: 227.05014038085938
y: 333.982421875
z: -0.16845642030239105
visibility: 0.8975328207015991
","x: 179.75816345214844
y: 348.51171875
z: -0.06502780318260193
visibility: 0.9526195526123047
","x: 202.28103637695312
y: 315.3518371582031
z: -0.2996639311313629
visibility: 0.9347951412200928
","x: 188.69891357421875
y: 331.4027404785156
z: -0.23327091336250305
visibility: 0.9522054195404053
","x: 197.86231994628906
y: 314.05340576171875
z: -0.3306032717227936
visibility: 0.9236412048339844
","x: 192.41510009765625
y: 326.46661376953125
z: -0.2717340588569641
visibility: 0.9306856989860535
","x: 197.7652587890625
y: 312.4316101074219
z: -0.32097935676574707
visibility: 0.9271551370620728
","x: 194.2267608642578
y: 323.024658203125
z: -0.2577923536300659
visibility: 0.9329201579093933
","x: 198.99124145507812
y: 313.9356384277344
z: -0.2973272204399109
visibility: 0.9127301573753357
","x: 193.93429565429688
y: 325.03411865234375
z: -0.22773757576942444
visibility: 0.9236046671867371
","x: 228.45574951171875
y: 406.4161682128906
z: -0.014963464811444283
visibility: 0.9997570514678955
","x: 207.37591552734375
y: 404.3944091796875
z: 0.01466340571641922
visibility: 0.9998096227645874
","x: 215.25164794921875
y: 485.00811767578125
z: -0.07498683035373688
visibility: 0.979452908039093
","x: 192.0527801513672
y: 479.09320068359375
z: -0.059943147003650665
visibility: 0.9945724606513977
","x: 221.68540954589844
y: 536.9819946289062
z: 0.2088758647441864
visibility: 0.9885962605476379
","x: 180.56588745117188
y: 523.4451904296875
z: 0.14388465881347656
visibility: 0.9901010990142822
","x: 222.3313751220703
y: 541.371337890625
z: 0.23244747519493103
visibility: 0.9224663972854614
","x: 180.00904846191406
y: 528.7359008789062
z: 0.16203506290912628
visibility: 0.8989375829696655
","x: 223.34371948242188
y: 562.4028930664062
z: 0.14832624793052673
visibility: 0.9856314063072205
","x: 177.02366638183594
y: 553.137451171875
z: 0.0782770961523056
visibility: 0.9867563843727112
",,,,,,,,,,,,,,,,,,,,,,,,,,,,,,,,,,,,,,,,,,
11,"x: 207.8832550048828
y: 273.76422119140625
z: -0.15487942099571228
visibility: 0.9999666810035706
","x: 210.41773986816406
y: 267.1124572753906
z: -0.1429852992296219
visibility: 0.9999176263809204
","x: 211.78775024414062
y: 267.1416015625
z: -0.1430017054080963
visibility: 0.9999061822891235
","x: 213.4046630859375
y: 267.28619384765625
z: -0.14297577738761902
visibility: 0.9998984336853027
","x: 206.82049560546875
y: 267.3711242675781
z: -0.13547948002815247
visibility: 0.9999252557754517
","x: 205.7066650390625
y: 267.56512451171875
z: -0.13551539182662964
visibility: 0.9999166131019592
","x: 204.5787353515625
y: 267.8194580078125
z: -0.13553588092327118
visibility: 0.9999118447303772
","x: 217.85133361816406
y: 271.2649230957031
z: -0.06948758661746979
visibility: 0.9997970461845398
","x: 205.72691345214844
y: 271.4858093261719
z: -0.03508072718977928
visibility: 0.9998126029968262
","x: 211.13882446289062
y: 280.77496337890625
z: -0.12790755927562714
visibility: 0.999914824962616
","x: 206.90061950683594
y: 281.75433349609375
z: -0.11815996468067169
visibility: 0.9999096989631653
","x: 232.36849975585938
y: 306.3445739746094
z: -0.08833219110965729
visibility: 0.9997701644897461
","x: 199.878662109375
y: 317.5296630859375
z: 0.03501703590154648
visibility: 0.9999066591262817
","x: 223.59661865234375
y: 337.5402526855469
z: -0.19888031482696533
visibility: 0.9060779213905334
","x: 180.21890258789062
y: 361.2591247558594
z: -0.04754136875271797
visibility: 0.9503301978111267
","x: 199.80621337890625
y: 316.5111999511719
z: -0.3178435266017914
visibility: 0.9404170513153076
","x: 181.49998474121094
y: 332.1202087402344
z: -0.2461920976638794
visibility: 0.9536665678024292
","x: 193.3485107421875
y: 313.3747253417969
z: -0.3518327474594116
visibility: 0.9293608069419861
","x: 181.54029846191406
y: 324.4619140625
z: -0.2822560966014862
visibility: 0.9312223792076111
","x: 192.5276641845703
y: 312.1731262207031
z: -0.3427446782588959
visibility: 0.9323551058769226
","x: 183.20077514648438
y: 321.97314453125
z: -0.27893438935279846
visibility: 0.9327097535133362
","x: 194.53338623046875
y: 313.6969299316406
z: -0.315492182970047
visibility: 0.9177000522613525
","x: 183.5835418701172
y: 325.271484375
z: -0.24974925816059113
visibility: 0.9227268695831299
","x: 231.13232421875
y: 410.6714172363281
z: -0.029187733307480812
visibility: 0.9997724890708923
","x: 210.92234802246094
y: 408.38018798828125
z: 0.028948817402124405
visibility: 0.9998197555541992
","x: 214.71774291992188
y: 483.36370849609375
z: -0.05135878920555115
visibility: 0.980853259563446
","x: 197.72457885742188
y: 477.2237548828125
z: -0.02760896645486355
visibility: 0.9935660362243652
","x: 222.14625549316406
y: 536.7029418945312
z: 0.20326924324035645
visibility: 0.9884375333786011
","x: 181.0384063720703
y: 524.7611083984375
z: 0.15222784876823425
visibility: 0.9895073771476746
","x: 222.85723876953125
y: 541.9136962890625
z: 0.22390827536582947
visibility: 0.9105399250984192
","x: 181.8733367919922
y: 530.6964111328125
z: 0.16669318079948425
visibility: 0.8947129249572754
","x: 221.86268615722656
y: 562.1885986328125
z: 0.13818946480751038
visibility: 0.9850773215293884
","x: 177.55502319335938
y: 553.0316772460938
z: 0.07918661087751389
visibility: 0.9861325025558472
",,,,,,,,,,,,,,,,,,,,,,,,,,,,,,,,,,,,,,,,,,
12,"x: 210.05935668945312
y: 269.0067443847656
z: -0.2564454674720764
visibility: 0.9999608397483826
","x: 212.28346252441406
y: 261.89373779296875
z: -0.24374079704284668
visibility: 0.9999014735221863
","x: 213.8234405517578
y: 262.031005859375
z: -0.24376919865608215
visibility: 0.999889075756073
","x: 215.52032470703125
y: 262.2283630371094
z: -0.2437698096036911
visibility: 0.9998828768730164
","x: 208.5052032470703
y: 261.8945617675781
z: -0.23604531586170197
visibility: 0.9999076724052429
","x: 207.37445068359375
y: 262.0254211425781
z: -0.2361057996749878
visibility: 0.999897301197052
","x: 206.2107696533203
y: 262.27264404296875
z: -0.23615944385528564
visibility: 0.9998936653137207
","x: 219.36639404296875
y: 266.41009521484375
z: -0.16313812136650085
visibility: 0.9997594356536865
","x: 206.27439880371094
y: 266.4434509277344
z: -0.12782734632492065
visibility: 0.9997620582580566
","x: 213.4674072265625
y: 275.56866455078125
z: -0.22657594084739685
visibility: 0.9999118447303772
","x: 208.46481323242188
y: 275.9664306640625
z: -0.2165025770664215
visibility: 0.9998957514762878
","x: 232.5189208984375
y: 305.1791076660156
z: -0.15593186020851135
visibility: 0.9997817873954773
","x: 199.15618896484375
y: 313.1976623535156
z: -0.019542977213859558
visibility: 0.9998706579208374
","x: 223.31959533691406
y: 343.71954345703125
z: -0.19520290195941925
visibility: 0.9129267930984497
","x: 186.31085205078125
y: 351.15777587890625
z: -0.02823028340935707
visibility: 0.9325352907180786
","x: 195.12326049804688
y: 345.69830322265625
z: -0.28924959897994995
visibility: 0.9429965019226074
","x: 178.95944213867188
y: 369.8207092285156
z: -0.15640458464622498
visibility: 0.9338019490242004
","x: 187.089111328125
y: 348.4402770996094
z: -0.3262234032154083
visibility: 0.9307287931442261
","x: 178.42721557617188
y: 373.5264892578125
z: -0.18583978712558746
visibility: 0.9089045524597168
","x: 186.0276336669922
y: 345.15478515625
z: -0.33003729581832886
visibility: 0.9335744976997375
","x: 177.42715454101562
y: 372.2467346191406
z: -0.21129369735717773
visibility: 0.9111778736114502
","x: 187.99082946777344
y: 345.5789794921875
z: -0.2914901077747345
visibility: 0.9166296124458313
","x: 180.56491088867188
y: 370.69232177734375
z: -0.17075403034687042
visibility: 0.9021390676498413
","x: 236.20162963867188
y: 409.79534912109375
z: -0.03366900235414505
visibility: 0.9997788071632385
","x: 214.7920684814453
y: 403.6458740234375
z: 0.03349624201655388
visibility: 0.9998181462287903
","x: 221.83779907226562
y: 479.6826171875
z: -0.07449544966220856
visibility: 0.9811254143714905
","x: 206.8688507080078
y: 471.6751708984375
z: -0.025279324501752853
visibility: 0.9903597831726074
","x: 223.47116088867188
y: 536.2069091796875
z: 0.1236795037984848
visibility: 0.9879041314125061
","x: 213.2645721435547
y: 520.8416137695312
z: 0.22760868072509766
visibility: 0.9804103374481201
","x: 223.77932739257812
y: 542.7348022460938
z: 0.14097635447978973
visibility: 0.900061309337616
","x: 216.98443603515625
y: 526.781494140625
z: 0.24980345368385315
visibility: 0.8743014931678772
","x: 221.91543579101562
y: 562.065185546875
z: 0.04093411564826965
visibility: 0.9841179251670837
","x: 204.47596740722656
y: 546.761474609375
z: 0.18838097155094147
visibility: 0.9776841402053833
",,,,,,,,,,,,,,,,,,,,,,,,,,,,,,,,,,,,,,,,,,
13,"x: 213.5301971435547
y: 265.6600646972656
z: -0.2676076889038086
visibility: 0.9999621510505676
","x: 217.11993408203125
y: 259.14117431640625
z: -0.2503829300403595
visibility: 0.999906063079834
","x: 218.66635131835938
y: 259.2984619140625
z: -0.250404417514801
visibility: 0.9998931884765625
","x: 220.2667999267578
y: 259.58880615234375
z: -0.25043538212776184
visibility: 0.9998870491981506
","x: 212.65994262695312
y: 259.349853515625
z: -0.2486146241426468
visibility: 0.999913215637207
","x: 211.00437927246094
y: 259.5792236328125
z: -0.2486794888973236
visibility: 0.9999035596847534
","x: 209.33535766601562
y: 259.8876953125
z: -0.24872973561286926
visibility: 0.999901533126831
","x: 223.701171875
y: 264.6615905761719
z: -0.14378105103969574
visibility: 0.9997661113739014
","x: 207.50167846679688
y: 264.22235107421875
z: -0.1362178772687912
visibility: 0.9997820854187012
","x: 216.6101837158203
y: 273.08978271484375
z: -0.22685809433460236
visibility: 0.9999169111251831
","x: 209.38427734375
y: 273.28070068359375
z: -0.22513243556022644
visibility: 0.999903678894043
","x: 235.18765258789062
y: 305.82421875
z: -0.10358598083257675
visibility: 0.9997472763061523
","x: 199.25003051757812
y: 310.7322998046875
z: -0.0492166131734848
visibility: 0.9998781681060791
","x: 225.59425354003906
y: 355.77398681640625
z: -0.1575796753168106
visibility: 0.8731589317321777
","x: 188.45054626464844
y: 349.1644287109375
z: -0.11351742595434189
visibility: 0.9328367710113525
","x: 206.97116088867188
y: 359.94873046875
z: -0.32316046953201294
visibility: 0.8782638907432556
","x: 192.57113647460938
y: 363.19500732421875
z: -0.3229822516441345
visibility: 0.925605833530426
","x: 206.78567504882812
y: 364.9520568847656
z: -0.36482423543930054
visibility: 0.8744222521781921
","x: 194.11468505859375
y: 368.517822265625
z: -0.3713308274745941
visibility: 0.8993504047393799
","x: 204.00653076171875
y: 358.2589111328125
z: -0.37981462478637695
visibility: 0.8781483173370361
","x: 196.48104858398438
y: 364.9096374511719
z: -0.38235583901405334
visibility: 0.9021984934806824
","x: 203.9867401123047
y: 356.70654296875
z: -0.3331528604030609
visibility: 0.8567356467247009
","x: 196.93963623046875
y: 363.140869140625
z: -0.33284875750541687
visibility: 0.8904803395271301
","x: 237.42286682128906
y: 402.30328369140625
z: -0.02508310042321682
visibility: 0.9997854828834534
","x: 216.05824279785156
y: 401.7322082519531
z: 0.024967510253190994
visibility: 0.9998242259025574
","x: 230.74205017089844
y: 478.4704284667969
z: -0.0845303162932396
visibility: 0.982114315032959
","x: 218.13226318359375
y: 477.79986572265625
z: -0.011301894672214985
visibility: 0.9902553558349609
","x: 225.79627990722656
y: 536.0528564453125
z: 0.10024216026067734
visibility: 0.9885812401771545
","x: 243.1350555419922
y: 518.894287109375
z: 0.2561870217323303
visibility: 0.9798413515090942
","x: 224.95997619628906
y: 542.9216918945312
z: 0.11420073360204697
visibility: 0.8992645740509033
","x: 251.47430419921875
y: 517.3638305664062
z: 0.2796791195869446
visibility: 0.8801688551902771
","x: 222.34878540039062
y: 562.8020629882812
z: -0.007069463841617107
visibility: 0.9848695397377014
","x: 244.5609893798828
y: 544.852783203125
z: 0.20893892645835876
visibility: 0.976783037185669
",,,,,,,,,,,,,,,,,,,,,,,,,,,,,,,,,,,,,,,,,,
14,"x: 221.66162109375
y: 282.19122314453125
z: -0.30268776416778564
visibility: 0.9999653100967407
","x: 224.709228515625
y: 274.3829345703125
z: -0.283955454826355
visibility: 0.9999136924743652
","x: 226.22030639648438
y: 274.9182434082031
z: -0.2839597761631012
visibility: 0.9999023079872131
","x: 227.55560302734375
y: 275.561279296875
z: -0.2839969992637634
visibility: 0.9998955726623535
","x: 220.61550903320312
y: 272.87921142578125
z: -0.2868989109992981
visibility: 0.9999202489852905
","x: 219.1917724609375
y: 272.4156799316406
z: -0.28696364164352417
visibility: 0.9999118447303772
","x: 217.8734893798828
y: 271.9759826660156
z: -0.28694379329681396
visibility: 0.9999096989631653
","x: 229.053466796875
y: 279.0015563964844
z: -0.1617148220539093
visibility: 0.999786376953125
","x: 214.94549560546875
y: 273.44384765625
z: -0.17684656381607056
visibility: 0.9998024106025696
","x: 223.4809112548828
y: 289.0777282714844
z: -0.25521954894065857
visibility: 0.9999244809150696
","x: 218.58082580566406
y: 287.999755859375
z: -0.2599765360355377
visibility: 0.9999127984046936
","x: 238.58668518066406
y: 318.49273681640625
z: -0.09469622373580933
visibility: 0.9997709393501282
","x: 199.87770080566406
y: 313.45587158203125
z: -0.07988597452640533
visibility: 0.999889075756073
","x: 244.26390075683594
y: 373.8938903808594
z: -0.18309445679187775
visibility: 0.8828601837158203
","x: 187.91061401367188
y: 359.4769592285156
z: -0.19583497941493988
visibility: 0.9390257000923157
","x: 251.37686157226562
y: 354.06854248046875
z: -0.4023677706718445
visibility: 0.8854036331176758
","x: 203.6481170654297
y: 353.72235107421875
z: -0.4125679135322571
visibility: 0.9322590231895447
","x: 253.98863220214844
y: 350.7522277832031
z: -0.4486325681209564
visibility: 0.8787161707878113
","x: 208.8536834716797
y: 345.19610595703125
z: -0.4556686282157898
visibility: 0.9069628715515137
","x: 253.95355224609375
y: 345.7705383300781
z: -0.4482439160346985
visibility: 0.8821030855178833
","x: 210.17816162109375
y: 339.66796875
z: -0.4471573829650879
visibility: 0.9094574451446533
","x: 252.7284393310547
y: 345.179443359375
z: -0.40794938802719116
visibility: 0.8582653999328613
","x: 209.39389038085938
y: 341.7454833984375
z: -0.4129708707332611
visibility: 0.897213876247406
","x: 237.16282653808594
y: 405.5413513183594
z: -0.027720008045434952
visibility: 0.9997941851615906
","x: 217.0968017578125
y: 410.14947509765625
z: 0.027756964787840843
visibility: 0.9998137354850769
","x: 229.9009552001953
y: 477.6342468261719
z: -0.16216185688972473
visibility: 0.9837313890457153
","x: 231.2728729248047
y: 479.7955627441406
z: 0.08698801696300507
visibility: 0.9899500012397766
","x: 225.88719177246094
y: 537.5132446289062
z: -0.05062902718782425
visibility: 0.9896414279937744
","x: 259.6930236816406
y: 525.2291259765625
z: 0.3002803325653076
visibility: 0.9812051653862
","x: 226.44711303710938
y: 545.661376953125
z: -0.04582953825592995
visibility: 0.9075741171836853
","x: 267.3221435546875
y: 529.7822265625
z: 0.31749337911605835
visibility: 0.8912965059280396
","x: 222.7672576904297
y: 562.7564086914062
z: -0.1826288104057312
visibility: 0.985938549041748
","x: 250.9140625
y: 548.9561157226562
z: 0.22131013870239258
visibility: 0.9779118299484253
",,,,,,,,,,,,,,,,,,,,,,,,,,,,,,,,,,,,,,,,,,
15,"x: 223.56651306152344
y: 280.7107238769531
z: -0.4154431223869324
visibility: 0.9999685883522034
","x: 226.15432739257812
y: 273.3901672363281
z: -0.39587730169296265
visibility: 0.999921977519989
","x: 227.63023376464844
y: 274.0238342285156
z: -0.39588409662246704
visibility: 0.9999117851257324
","x: 228.910400390625
y: 274.65234375
z: -0.39593589305877686
visibility: 0.9999054670333862
","x: 222.12063598632812
y: 271.8721618652344
z: -0.4017903208732605
visibility: 0.999927818775177
","x: 220.71884155273438
y: 271.544677734375
z: -0.4018884301185608
visibility: 0.9999203681945801
","x: 219.34375
y: 271.2674255371094
z: -0.4019201397895813
visibility: 0.9999183416366577
","x: 230.1181182861328
y: 278.3371276855469
z: -0.2640768587589264
visibility: 0.9998068809509277
","x: 216.05282592773438
y: 274.66754150390625
z: -0.29381805658340454
visibility: 0.9998219013214111
","x: 225.2064208984375
y: 288.09796142578125
z: -0.3645966649055481
visibility: 0.9999318718910217
","x: 220.62899780273438
y: 287.46875
z: -0.3734742999076843
visibility: 0.9999213814735413
","x: 239.94583129882812
y: 322.1104431152344
z: -0.16931825876235962
visibility: 0.999791145324707
","x: 200.02186584472656
y: 315.54736328125
z: -0.2035059928894043
visibility: 0.9998979568481445
","x: 243.45654296875
y: 377.99615478515625
z: -0.23609459400177002
visibility: 0.8866196870803833
","x: 191.07958984375
y: 370.3904724121094
z: -0.3253825604915619
visibility: 0.9448588490486145
","x: 253.4768524169922
y: 368.5655517578125
z: -0.457379013299942
visibility: 0.8903983235359192
","x: 204.9744110107422
y: 354.26812744140625
z: -0.5606414079666138
visibility: 0.9386816620826721
","x: 256.8115234375
y: 364.466064453125
z: -0.5019515752792358
visibility: 0.8831108212471008
","x: 210.57508850097656
y: 349.5525817871094
z: -0.6118544936180115
visibility: 0.9153971076011658
","x: 257.7947692871094
y: 357.7679138183594
z: -0.5168448090553284
visibility: 0.8862529397010803
","x: 211.56829833984375
y: 342.6720886230469
z: -0.6079996824264526
visibility: 0.9176025986671448
","x: 256.3461608886719
y: 358.72674560546875
z: -0.4687281548976898
visibility: 0.8610566854476929
","x: 210.41806030273438
y: 343.9615173339844
z: -0.5630398988723755
visibility: 0.9057765603065491
","x: 235.5225830078125
y: 407.69580078125
z: -0.024776119738817215
visibility: 0.9998103976249695
","x: 214.9698486328125
y: 411.2911376953125
z: 0.024875998497009277
visibility: 0.9998188018798828
","x: 228.14749145507812
y: 478.7137451171875
z: -0.14313437044620514
visibility: 0.9851972460746765
","x: 218.97280883789062
y: 484.90655517578125
z: 0.026699602603912354
visibility: 0.9904537200927734
","x: 224.91192626953125
y: 537.2483520507812
z: 0.030962875112891197
visibility: 0.9904776215553284
","x: 237.8892059326172
y: 513.4639282226562
z: 0.3471652567386627
visibility: 0.9796575903892517
","x: 224.3777618408203
y: 545.7926025390625
z: 0.041271887719631195
visibility: 0.9132209420204163
","x: 244.81900024414062
y: 510.6021423339844
z: 0.37648874521255493
visibility: 0.8960316777229309
","x: 223.3128662109375
y: 562.6476440429688
z: -0.07987438142299652
visibility: 0.9866226315498352
","x: 241.65350341796875
y: 541.8644409179688
z: 0.3019573986530304
visibility: 0.9744919538497925
",,,,,,,,,,,,,,,,,,,,,,,,,,,,,,,,,,,,,,,,,,
16,"x: 216.55921936035156
y: 276.6494140625
z: -0.30935829877853394
visibility: 0.999964714050293
","x: 219.479248046875
y: 269.25006103515625
z: -0.2965405583381653
visibility: 0.9999096989631653
","x: 221.01947021484375
y: 269.921142578125
z: -0.2965555191040039
visibility: 0.9998995065689087
","x: 222.5018310546875
y: 270.6107177734375
z: -0.29659366607666016
visibility: 0.9998974204063416
","x: 215.51852416992188
y: 267.624267578125
z: -0.29277104139328003
visibility: 0.999911904335022
","x: 214.4252471923828
y: 267.3834533691406
z: -0.29282695055007935
visibility: 0.9999024271965027
","x: 213.41552734375
y: 267.2555236816406
z: -0.292877197265625
visibility: 0.999905526638031
","x: 225.86192321777344
y: 274.6277160644531
z: -0.20555762946605682
visibility: 0.9997897744178772
","x: 212.86659240722656
y: 271.16534423828125
z: -0.18797864019870758
visibility: 0.999806821346283
","x: 219.78213500976562
y: 283.60009765625
z: -0.2733137011528015
visibility: 0.9999322891235352
","x: 214.27098083496094
y: 282.9103698730469
z: -0.2688755393028259
visibility: 0.9999184608459473
","x: 239.1962432861328
y: 319.9723205566406
z: -0.15331701934337616
visibility: 0.9998050928115845
","x: 200.01812744140625
y: 313.4388427734375
z: -0.15006548166275024
visibility: 0.9998970031738281
","x: 242.37344360351562
y: 368.6331481933594
z: -0.15538915991783142
visibility: 0.8932239413261414
","x: 192.21408081054688
y: 368.3545227050781
z: -0.03459515422582626
visibility: 0.9379252791404724
","x: 243.51353454589844
y: 390.97613525390625
z: -0.23290398716926575
visibility: 0.8830323815345764
","x: 195.76181030273438
y: 387.4440002441406
z: -0.12505018711090088
visibility: 0.9207753539085388
","x: 244.35398864746094
y: 403.9632568359375
z: -0.26045218110084534
visibility: 0.8697425723075867
","x: 198.74722290039062
y: 400.14703369140625
z: -0.14808577299118042
visibility: 0.8914031982421875
","x: 244.9235382080078
y: 401.59735107421875
z: -0.2826208174228668
visibility: 0.8734423518180847
","x: 199.8068389892578
y: 399.87860107421875
z: -0.17982687056064606
visibility: 0.8946108222007751
","x: 244.51113891601562
y: 397.94110107421875
z: -0.2429642230272293
visibility: 0.8450917601585388
","x: 198.83926391601562
y: 396.54364013671875
z: -0.14035966992378235
visibility: 0.8833009600639343
","x: 235.10687255859375
y: 404.9853515625
z: -0.028057489544153214
visibility: 0.9998126029968262
","x: 214.79063415527344
y: 405.9007263183594
z: 0.028055623173713684
visibility: 0.9998158812522888
","x: 227.1807861328125
y: 475.0188903808594
z: -0.11904577165842056
visibility: 0.9850360751152039
","x: 196.44232177734375
y: 468.3448791503906
z: -0.07164280861616135
visibility: 0.9902026653289795
","x: 224.3866424560547
y: 537.236572265625
z: 0.07980993390083313
visibility: 0.9901584982872009
","x: 219.7010498046875
y: 510.10308837890625
z: 0.22471067309379578
visibility: 0.9717254638671875
","x: 224.09632873535156
y: 545.8916625976562
z: 0.09265550225973129
visibility: 0.9084404706954956
","x: 227.44430541992188
y: 508.19927978515625
z: 0.24295330047607422
visibility: 0.8847478628158569
","x: 223.46160888671875
y: 562.5682983398438
z: -0.00879766047000885
visibility: 0.9857573509216309
","x: 213.38172912597656
y: 537.9719848632812
z: 0.17008401453495026
visibility: 0.9667572975158691
",,,,,,,,,,,,,,,,,,,,,,,,,,,,,,,,,,,,,,,,,,
17,"x: 211.2832489013672
y: 273.6752624511719
z: -0.3193911612033844
visibility: 0.999966561794281
","x: 212.86544799804688
y: 266.7698059082031
z: -0.3068814277648926
visibility: 0.9999150037765503
","x: 214.38853454589844
y: 267.1971740722656
z: -0.30689913034439087
visibility: 0.9999052882194519
","x: 216.00357055664062
y: 267.7281494140625
z: -0.3069148659706116
visibility: 0.9999040961265564
","x: 209.40711975097656
y: 266.2895812988281
z: -0.3025680184364319
visibility: 0.9999157786369324
","x: 208.2240753173828
y: 266.510986328125
z: -0.302635133266449
visibility: 0.9999070763587952
","x: 207.16932678222656
y: 266.846923828125
z: -0.30266237258911133
visibility: 0.999910831451416
","x: 219.760986328125
y: 272.2394104003906
z: -0.21136638522148132
visibility: 0.9998046159744263
","x: 206.38519287109375
y: 271.78997802734375
z: -0.19079260528087616
visibility: 0.9998155832290649
","x: 214.7309112548828
y: 281.10784912109375
z: -0.2823457419872284
visibility: 0.9999377727508545
","x: 210.003173828125
y: 281.0921325683594
z: -0.2765141725540161
visibility: 0.99992436170578
","x: 236.244384765625
y: 310.4112548828125
z: -0.15997199714183807
visibility: 0.9998227953910828
","x: 197.83755493164062
y: 315.2972717285156
z: -0.10250447690486908
visibility: 0.9998985528945923
","x: 241.5149383544922
y: 365.13128662109375
z: -0.2042696475982666
visibility: 0.903320848941803
","x: 190.75624084472656
y: 360.8880310058594
z: -0.047969646751880646
visibility: 0.9392130374908447
","x: 222.78948974609375
y: 374.0932922363281
z: -0.34487730264663696
visibility: 0.8934767842292786
","x: 173.69241333007812
y: 384.4705810546875
z: -0.17735695838928223
visibility: 0.9224201440811157
","x: 217.9098358154297
y: 381.7711181640625
z: -0.3856699466705322
visibility: 0.8799299597740173
","x: 166.288818359375
y: 390.81781005859375
z: -0.2099507749080658
visibility: 0.8920861482620239
","x: 215.33401489257812
y: 377.1382141113281
z: -0.39667630195617676
visibility: 0.8833196759223938
","x: 165.32887268066406
y: 389.7349853515625
z: -0.2428237646818161
visibility: 0.8961042165756226
","x: 216.11160278320312
y: 374.921630859375
z: -0.3512299656867981
visibility: 0.8557294011116028
","x: 168.19285583496094
y: 388.1455078125
z: -0.19458186626434326
visibility: 0.8845526576042175
","x: 233.3795166015625
y: 402.9236145019531
z: -0.02646968886256218
visibility: 0.9998185634613037
","x: 211.74990844726562
y: 400.9364013671875
z: 0.02644551917910576
visibility: 0.9998239278793335
","x: 221.38592529296875
y: 474.04345703125
z: -0.04479923099279404
visibility: 0.9861370921134949
","x: 189.31988525390625
y: 463.4045104980469
z: -0.0673825591802597
visibility: 0.9906834363937378
","x: 224.15245056152344
y: 537.8185424804688
z: 0.1283148229122162
visibility: 0.9907845854759216
","x: 173.8810577392578
y: 519.4533081054688
z: 0.09031929075717926
visibility: 0.9741984605789185
","x: 223.3994598388672
y: 545.912109375
z: 0.13843049108982086
visibility: 0.9052236080169678
","x: 175.6627655029297
y: 525.5777587890625
z: 0.09633214771747589
visibility: 0.8904720544815063
","x: 223.16058349609375
y: 562.673828125
z: 0.02113703079521656
visibility: 0.9864448308944702
","x: 167.7755126953125
y: 546.9129028320312
z: -0.015368682332336903
visibility: 0.9695191383361816
",,,,,,,,,,,,,,,,,,,,,,,,,,,,,,,,,,,,,,,,,,
18,"x: 206.5216064453125
y: 291.03265380859375
z: -0.32906895875930786
visibility: 0.9999610781669617
","x: 208.08392333984375
y: 283.1100769042969
z: -0.3202810287475586
visibility: 0.999907374382019
","x: 209.55810546875
y: 282.70208740234375
z: -0.32029950618743896
visibility: 0.9998986721038818
","x: 211.21653747558594
y: 282.40643310546875
z: -0.3203204572200775
visibility: 0.9998988509178162
","x: 204.87289428710938
y: 284.6864013671875
z: -0.31529003381729126
visibility: 0.9998962879180908
","x: 203.7562255859375
y: 285.4522705078125
z: -0.3153601288795471
visibility: 0.999886691570282
","x: 202.6512451171875
y: 286.1917724609375
z: -0.31540220975875854
visibility: 0.9998918175697327
","x: 215.49082946777344
y: 284.0792236328125
z: -0.2319016456604004
visibility: 0.9997996687889099
","x: 202.48126220703125
y: 288.9725341796875
z: -0.20840060710906982
visibility: 0.9997798800468445
","x: 209.94056701660156
y: 297.0880126953125
z: -0.2936915159225464
visibility: 0.9999398589134216
","x: 205.76422119140625
y: 298.859619140625
z: -0.2870018482208252
visibility: 0.999923586845398
","x: 233.20220947265625
y: 320.5907897949219
z: -0.1720782369375229
visibility: 0.9998383522033691
","x: 193.37359619140625
y: 329.03173828125
z: -0.10534735023975372
visibility: 0.9999024868011475
","x: 238.8682098388672
y: 375.75604248046875
z: -0.24228210747241974
visibility: 0.9122723937034607
","x: 182.9338836669922
y: 376.24249267578125
z: -0.04623644798994064
visibility: 0.9442192912101746
","x: 219.9208526611328
y: 369.0440368652344
z: -0.4300536513328552
visibility: 0.903212308883667
","x: 158.79872131347656
y: 381.2493591308594
z: -0.1345498114824295
visibility: 0.9283045530319214
","x: 214.07101440429688
y: 371.2658386230469
z: -0.47136902809143066
visibility: 0.8898301720619202
","x: 150.229736328125
y: 383.75787353515625
z: -0.1588214784860611
visibility: 0.8988505601882935
","x: 213.49327087402344
y: 367.5161437988281
z: -0.47628483176231384
visibility: 0.8928839564323425
","x: 149.4620361328125
y: 380.8038330078125
z: -0.19064508378505707
visibility: 0.9030196666717529
","x: 214.4816436767578
y: 365.417236328125
z: -0.4350878596305847
visibility: 0.8666780591011047
","x: 152.63238525390625
y: 379.7716064453125
z: -0.1505630761384964
visibility: 0.8920046091079712
","x: 229.51382446289062
y: 410.5224304199219
z: -0.019150253385305405
visibility: 0.9998177886009216
","x: 205.92518615722656
y: 408.4715576171875
z: 0.019132843241095543
visibility: 0.9998272657394409
","x: 219.33261108398438
y: 478.63262939453125
z: -0.006439664401113987
visibility: 0.9868749976158142
","x: 187.78550720214844
y: 475.1875
z: -0.05450654774904251
visibility: 0.9912471175193787
","x: 223.80198669433594
y: 537.6929321289062
z: 0.22536727786064148
visibility: 0.9906470775604248
","x: 168.66412353515625
y: 526.0859985351562
z: 0.1278655081987381
visibility: 0.975827157497406
","x: 223.10523986816406
y: 544.5308837890625
z: 0.2440813034772873
visibility: 0.8987252116203308
","x: 168.131103515625
y: 532.369873046875
z: 0.1407041847705841
visibility: 0.8863089680671692
","x: 223.23814392089844
y: 562.6314697265625
z: 0.14626243710517883
visibility: 0.9858765602111816
","x: 164.32118225097656
y: 552.5797119140625
z: 0.04131016880273819
visibility: 0.9709323644638062
",,,,,,,,,,,,,,,,,,,,,,"x: 220.47024536132812
y: 370.3577880859375
z: 0.0
","x: 217.62594604492188
y: 363.6145324707031
z: 0.0008427784778177738
","x: 213.7046661376953
y: 359.3671875
z: 0.00031778396805748343
","x: 210.36288452148438
y: 357.32159423828125
z: -0.0004295667458791286
","x: 207.82089233398438
y: 356.2154846191406
z: -0.0012288163416087627
","x: 212.6949005126953
y: 360.2144775390625
z: -0.002545471303164959
","x: 208.3731689453125
y: 357.61029052734375
z: -0.00438070110976696
","x: 205.72686767578125
y: 356.5091247558594
z: -0.004836071282625198
","x: 203.79788208007812
y: 355.8229064941406
z: -0.005000344477593899
","x: 212.07455444335938
y: 364.02752685546875
z: -0.0042843446135520935
","x: 206.76878356933594
y: 362.1824951171875
z: -0.005981954280287027
","x: 203.43896484375
y: 361.1709289550781
z: -0.006229394115507603
","x: 200.92880249023438
y: 360.3297119140625
z: -0.006556538864970207
","x: 211.84580993652344
y: 368.25018310546875
z: -0.005858771037310362
","x: 206.82891845703125
y: 367.4170227050781
z: -0.00768246129155159
","x: 203.7965087890625
y: 366.47393798828125
z: -0.008088196627795696
","x: 201.4093475341797
y: 365.4659729003906
z: -0.008459643460810184
","x: 212.05560302734375
y: 372.534423828125
z: -0.0073167914524674416
","x: 208.3108673095703
y: 373.2939453125
z: -0.00897417776286602
","x: 206.16818237304688
y: 373.3382568359375
z: -0.009349863976240158
","x: 204.32275390625
y: 373.0596618652344
z: -0.009632453322410583
"
19,"x: 206.5216064453125
y: 291.03265380859375
z: -0.32906895875930786
visibility: 0.9999610781669617
","x: 208.08392333984375
y: 283.1100769042969
z: -0.3202810287475586
visibility: 0.999907374382019
","x: 209.55810546875
y: 282.70208740234375
z: -0.32029950618743896
visibility: 0.9998986721038818
","x: 211.21653747558594
y: 282.40643310546875
z: -0.3203204572200775
visibility: 0.9998988509178162
","x: 204.87289428710938
y: 284.6864013671875
z: -0.31529003381729126
visibility: 0.9998962879180908
","x: 203.7562255859375
y: 285.4522705078125
z: -0.3153601288795471
visibility: 0.999886691570282
","x: 202.6512451171875
y: 286.1917724609375
z: -0.31540220975875854
visibility: 0.9998918175697327
","x: 215.49082946777344
y: 284.0792236328125
z: -0.2319016456604004
visibility: 0.9997996687889099
","x: 202.48126220703125
y: 288.9725341796875
z: -0.20840060710906982
visibility: 0.9997798800468445
","x: 209.94056701660156
y: 297.0880126953125
z: -0.2936915159225464
visibility: 0.9999398589134216
","x: 205.76422119140625
y: 298.859619140625
z: -0.2870018482208252
visibility: 0.999923586845398
","x: 233.20220947265625
y: 320.5907897949219
z: -0.1720782369375229
visibility: 0.9998383522033691
","x: 193.37359619140625
y: 329.03173828125
z: -0.10534735023975372
visibility: 0.9999024868011475
","x: 238.8682098388672
y: 375.75604248046875
z: -0.24228210747241974
visibility: 0.9122723937034607
","x: 182.9338836669922
y: 376.24249267578125
z: -0.04623644798994064
visibility: 0.9442192912101746
","x: 219.9208526611328
y: 369.0440368652344
z: -0.4300536513328552
visibility: 0.903212308883667
","x: 158.79872131347656
y: 381.2493591308594
z: -0.1345498114824295
visibility: 0.9283045530319214
","x: 214.07101440429688
y: 371.2658386230469
z: -0.47136902809143066
visibility: 0.8898301720619202
","x: 150.229736328125
y: 383.75787353515625
z: -0.1588214784860611
visibility: 0.8988505601882935
","x: 213.49327087402344
y: 367.5161437988281
z: -0.47628483176231384
visibility: 0.8928839564323425
","x: 149.4620361328125
y: 380.8038330078125
z: -0.19064508378505707
visibility: 0.9030196666717529
","x: 214.4816436767578
y: 365.417236328125
z: -0.4350878596305847
visibility: 0.8666780591011047
","x: 152.63238525390625
y: 379.7716064453125
z: -0.1505630761384964
visibility: 0.8920046091079712
","x: 229.51382446289062
y: 410.5224304199219
z: -0.019150253385305405
visibility: 0.9998177886009216
","x: 205.92518615722656
y: 408.4715576171875
z: 0.019132843241095543
visibility: 0.9998272657394409
","x: 219.33261108398438
y: 478.63262939453125
z: -0.006439664401113987
visibility: 0.9868749976158142
","x: 187.78550720214844
y: 475.1875
z: -0.05450654774904251
visibility: 0.9912471175193787
","x: 223.80198669433594
y: 537.6929321289062
z: 0.22536727786064148
visibility: 0.9906470775604248
","x: 168.66412353515625
y: 526.0859985351562
z: 0.1278655081987381
visibility: 0.975827157497406
","x: 223.10523986816406
y: 544.5308837890625
z: 0.2440813034772873
visibility: 0.8987252116203308
","x: 168.131103515625
y: 532.369873046875
z: 0.1407041847705841
visibility: 0.8863089680671692
","x: 223.23814392089844
y: 562.6314697265625
z: 0.14626243710517883
visibility: 0.9858765602111816
","x: 164.32118225097656
y: 552.5797119140625
z: 0.04131016880273819
visibility: 0.9709323644638062
",,,,,,,,,,,,,,,,,,,,,,"x: 220.47024536132812
y: 370.3577880859375
z: 0.0
","x: 217.62594604492188
y: 363.6145324707031
z: 0.0008427784778177738
","x: 213.7046661376953
y: 359.3671875
z: 0.00031778396805748343
","x: 210.36288452148438
y: 357.32159423828125
z: -0.0004295667458791286
","x: 207.82089233398438
y: 356.2154846191406
z: -0.0012288163416087627
","x: 212.6949005126953
y: 360.2144775390625
z: -0.002545471303164959
","x: 208.3731689453125
y: 357.61029052734375
z: -0.00438070110976696
","x: 205.72686767578125
y: 356.5091247558594
z: -0.004836071282625198
","x: 203.79788208007812
y: 355.8229064941406
z: -0.005000344477593899
","x: 212.07455444335938
y: 364.02752685546875
z: -0.0042843446135520935
","x: 206.76878356933594
y: 362.1824951171875
z: -0.005981954280287027
","x: 203.43896484375
y: 361.1709289550781
z: -0.006229394115507603
","x: 200.92880249023438
y: 360.3297119140625
z: -0.006556538864970207
","x: 211.84580993652344
y: 368.25018310546875
z: -0.005858771037310362
","x: 206.82891845703125
y: 367.4170227050781
z: -0.00768246129155159
","x: 203.7965087890625
y: 366.47393798828125
z: -0.008088196627795696
","x: 201.4093475341797
y: 365.4659729003906
z: -0.008459643460810184
","x: 212.05560302734375
y: 372.534423828125
z: -0.0073167914524674416
","x: 208.3108673095703
y: 373.2939453125
z: -0.00897417776286602
","x: 206.16818237304688
y: 373.3382568359375
z: -0.009349863976240158
","x: 204.32275390625
y: 373.0596618652344
z: -0.009632453322410583
"
20,"x: 206.9425048828125
y: 293.980712890625
z: -0.45521169900894165
visibility: 0.9999615550041199
","x: 208.42300415039062
y: 286.27056884765625
z: -0.44319015741348267
visibility: 0.9999087452888489
","x: 209.907958984375
y: 285.78460693359375
z: -0.4431823194026947
visibility: 0.9999004006385803
","x: 211.48655700683594
y: 285.4136047363281
z: -0.44320082664489746
visibility: 0.9999012351036072
","x: 204.8663787841797
y: 288.18310546875
z: -0.43866339325904846
visibility: 0.9998978972434998
","x: 203.6942138671875
y: 289.126220703125
z: -0.4387832581996918
visibility: 0.9998904466629028
","x: 202.45849609375
y: 290.07958984375
z: -0.43884390592575073
visibility: 0.9998961091041565
","x: 215.30149841308594
y: 287.17340087890625
z: -0.34683674573898315
visibility: 0.9998018145561218
","x: 201.8723602294922
y: 293.313720703125
z: -0.325278103351593
visibility: 0.9997861385345459
","x: 210.2537384033203
y: 299.7415466308594
z: -0.418125718832016
visibility: 0.9999420642852783
","x: 205.79238891601562
y: 301.9418029785156
z: -0.4119274616241455
visibility: 0.9999265670776367
","x: 232.51553344726562
y: 322.98773193359375
z: -0.28928011655807495
visibility: 0.999847948551178
","x: 193.2879638671875
y: 333.41412353515625
z: -0.20392271876335144
visibility: 0.9999008774757385
","x: 236.39625549316406
y: 371.3801574707031
z: -0.3623639941215515
visibility: 0.9193598628044128
","x: 181.3711395263672
y: 382.36578369140625
z: -0.17724259197711945
visibility: 0.9481736421585083
","x: 220.77609252929688
y: 393.35986328125
z: -0.5071442723274231
visibility: 0.9088266491889954
","x: 157.8289794921875
y: 407.7987365722656
z: -0.2665463387966156
visibility: 0.9309768080711365
","x: 217.1673583984375
y: 402.6541442871094
z: -0.5486083626747131
visibility: 0.893782913684845
","x: 151.09231567382812
y: 415.97430419921875
z: -0.2902117669582367
visibility: 0.900091826915741
","x: 214.3930206298828
y: 397.29254150390625
z: -0.5572788119316101
visibility: 0.8966434597969055
","x: 150.46380615234375
y: 413.4010314941406
z: -0.327553927898407
visibility: 0.9047943353652954
","x: 214.72146606445312
y: 394.2344665527344
z: -0.5132429599761963
visibility: 0.8691243529319763
","x: 152.87551879882812
y: 411.369140625
z: -0.28450343012809753
visibility: 0.8939617872238159
","x: 230.96612548828125
y: 408.440673828125
z: -0.02139214053750038
visibility: 0.9998111724853516
","x: 207.23033142089844
y: 407.0959167480469
z: 0.021393371745944023
visibility: 0.9998177289962769
","x: 219.818603515625
y: 478.12921142578125
z: -0.08176480233669281
visibility: 0.9873005151748657
","x: 191.0392303466797
y: 474.6856384277344
z: -0.0571223609149456
visibility: 0.990906834602356
","x: 223.7355194091797
y: 538.4736328125
z: 0.14215721189975739
visibility: 0.9907471537590027
","x: 172.09707641601562
y: 526.8492431640625
z: 0.09351306408643723
visibility: 0.9776113033294678
","x: 222.9210205078125
y: 545.8753662109375
z: 0.1548883318901062
visibility: 0.8953680992126465
","x: 173.2943115234375
y: 535.4384765625
z: 0.10123418271541595
visibility: 0.8899625539779663
","x: 223.30223083496094
y: 562.5707397460938
z: 0.016811802983283997
visibility: 0.9857204556465149
","x: 164.73406982421875
y: 552.10888671875
z: -0.01672079786658287
visibility: 0.9728265404701233
",,,,,,,,,,,,,,,,,,,,,,,,,,,,,,,,,,,,,,,,,,
21,"x: 209.11392211914062
y: 286.78399658203125
z: -0.47729676961898804
visibility: 0.9999595880508423
","x: 210.785400390625
y: 279.3440856933594
z: -0.4671371877193451
visibility: 0.9999056458473206
","x: 212.23883056640625
y: 279.12408447265625
z: -0.4671289324760437
visibility: 0.9998970627784729
","x: 213.76278686523438
y: 279.02783203125
z: -0.46719956398010254
visibility: 0.9998997449874878
","x: 207.25997924804688
y: 280.4903869628906
z: -0.46094512939453125
visibility: 0.9998937845230103
","x: 206.05982971191406
y: 281.0979309082031
z: -0.461049884557724
visibility: 0.9998845458030701
","x: 204.82498168945312
y: 281.7108459472656
z: -0.4611280858516693
visibility: 0.9998902082443237
","x: 216.9690704345703
y: 281.8701171875
z: -0.3723730444908142
visibility: 0.9997841715812683
","x: 203.80816650390625
y: 285.3941955566406
z: -0.34526413679122925
visibility: 0.9997602105140686
","x: 212.06849670410156
y: 293.2850341796875
z: -0.4402458071708679
visibility: 0.9999424815177917
","x: 207.58538818359375
y: 294.7510070800781
z: -0.4324314594268799
visibility: 0.9999223351478577
","x: 232.99868774414062
y: 319.48193359375
z: -0.2975969612598419
visibility: 0.9998584985733032
","x: 195.44027709960938
y: 328.13226318359375
z: -0.2256128042936325
visibility: 0.9999009966850281
","x: 236.4868927001953
y: 370.55804443359375
z: -0.2791370749473572
visibility: 0.9215160608291626
","x: 188.41921997070312
y: 379.7703857421875
z: -0.1740952581167221
visibility: 0.9488544464111328
","x: 232.9752960205078
y: 414.1854553222656
z: -0.34302061796188354
visibility: 0.8895827531814575
","x: 184.75057983398438
y: 417.7579345703125
z: -0.2543867826461792
visibility: 0.9116309881210327
","x: 235.8025360107422
y: 426.6656188964844
z: -0.3637402653694153
visibility: 0.8677031993865967
","x: 184.13758850097656
y: 430.2481689453125
z: -0.2614087462425232
visibility: 0.8675765991210938
","x: 232.26605224609375
y: 427.22894287109375
z: -0.3907656669616699
visibility: 0.8717293739318848
","x: 185.38040161132812
y: 431.0557556152344
z: -0.30844444036483765
visibility: 0.873496413230896
","x: 230.59739685058594
y: 422.9852600097656
z: -0.3527020812034607
visibility: 0.8389691114425659
","x: 186.7259521484375
y: 426.50628662109375
z: -0.28089553117752075
visibility: 0.8636975884437561
","x: 233.17105102539062
y: 401.8957824707031
z: -0.02563878335058689
visibility: 0.9998238682746887
","x: 211.46319580078125
y: 401.31475830078125
z: 0.02570330537855625
visibility: 0.999803900718689
","x: 225.4456024169922
y: 468.69073486328125
z: -0.13115563988685608
visibility: 0.9867509007453918
","x: 202.5391845703125
y: 467.28289794921875
z: 0.07876444607973099
visibility: 0.983525276184082
","x: 223.71060180664062
y: 538.1755981445312
z: -0.017375754192471504
visibility: 0.9906280636787415
","x: 203.0448760986328
y: 511.2501525878906
z: 0.39329126477241516
visibility: 0.9429299235343933
","x: 222.9898223876953
y: 545.8886108398438
z: -0.013881191611289978
visibility: 0.8846449255943298
","x: 207.69200134277344
y: 519.1849975585938
z: 0.42015862464904785
visibility: 0.8525513410568237
","x: 223.2447509765625
y: 561.1649780273438
z: -0.1463271677494049
visibility: 0.9844605922698975
","x: 196.6792755126953
y: 538.25537109375
z: 0.34604573249816895
visibility: 0.9461585283279419
",,,,,,,,,,,,,,,,,,,,,,,,,,,,,,,,,,,,,,,,,,
22,"x: 213.6754608154297
y: 275.2432861328125
z: -0.455843061208725
visibility: 0.9999619722366333
","x: 215.3298797607422
y: 268.5846252441406
z: -0.44392186403274536
visibility: 0.9999117851257324
","x: 216.7146759033203
y: 268.6277160644531
z: -0.4439120292663574
visibility: 0.9999035596847534
","x: 218.15089416503906
y: 268.8271484375
z: -0.443969190120697
visibility: 0.9999064207077026
","x: 211.7723846435547
y: 269.11590576171875
z: -0.4409445822238922
visibility: 0.9999004006385803
","x: 210.49818420410156
y: 269.5563049316406
z: -0.4410432279109955
visibility: 0.999890923500061
","x: 209.15625
y: 270.06903076171875
z: -0.4411415159702301
visibility: 0.9998971819877625
","x: 220.85781860351562
y: 272.09637451171875
z: -0.3432740569114685
visibility: 0.9997976422309875
","x: 208.4475860595703
y: 273.4982604980469
z: -0.3291938602924347
visibility: 0.9997743964195251
","x: 216.06207275390625
y: 281.7969055175781
z: -0.4154563546180725
visibility: 0.9999467134475708
","x: 212.08982849121094
y: 282.74609375
z: -0.4115106463432312
visibility: 0.9999275207519531
","x: 237.30441284179688
y: 317.1168212890625
z: -0.25754743814468384
visibility: 0.9998701810836792
","x: 198.57879638671875
y: 312.654052734375
z: -0.2389565259218216
visibility: 0.9999046325683594
","x: 243.2018585205078
y: 368.92138671875
z: -0.24296414852142334
visibility: 0.9277050495147705
","x: 202.49618530273438
y: 378.0465393066406
z: -0.23954525589942932
visibility: 0.9530141949653625
","x: 251.80055236816406
y: 403.20330810546875
z: -0.31610268354415894
visibility: 0.8956968784332275
","x: 219.23477172851562
y: 403.5074462890625
z: -0.32364678382873535
visibility: 0.9176614880561829
","x: 256.39178466796875
y: 414.5531005859375
z: -0.34374871850013733
visibility: 0.8736950755119324
","x: 223.97433471679688
y: 415.99932861328125
z: -0.351497620344162
visibility: 0.8745187520980835
","x: 255.5343780517578
y: 414.96331787109375
z: -0.3718242049217224
visibility: 0.8778101205825806
","x: 227.3441162109375
y: 413.83856201171875
z: -0.3743836283683777
visibility: 0.8800628185272217
","x: 253.45126342773438
y: 411.2667236328125
z: -0.32827314734458923
visibility: 0.8460680246353149
","x: 226.6966094970703
y: 409.7803955078125
z: -0.3334658741950989
visibility: 0.8688944578170776
","x: 233.26364135742188
y: 398.804443359375
z: -0.029008403420448303
visibility: 0.9998310208320618
","x: 212.655029296875
y: 400.5543212890625
z: 0.029060665518045425
visibility: 0.9997591376304626
","x: 226.55499267578125
y: 462.8469543457031
z: -0.1797715127468109
visibility: 0.9863492250442505
","x: 215.36941528320312
y: 467.6702575683594
z: 0.06669168174266815
visibility: 0.9796268939971924
","x: 226.22752380371094
y: 537.046630859375
z: -0.08872245252132416
visibility: 0.9911919832229614
","x: 238.1217498779297
y: 510.7267761230469
z: 0.30046501755714417
visibility: 0.9420756697654724
","x: 226.52540588378906
y: 545.9105834960938
z: -0.0886312946677208
visibility: 0.8867056965827942
","x: 243.4109344482422
y: 512.494140625
z: 0.3191611170768738
visibility: 0.858741819858551
","x: 224.29461669921875
y: 559.53955078125
z: -0.22919325530529022
visibility: 0.9850441813468933
","x: 239.6276092529297
y: 537.5184326171875
z: 0.22992269694805145
visibility: 0.9455593824386597
",,,,,,,,,,,,,,,,,,,,,,,,,,,,,,,,,,,,,,,,,,
23,"x: 219.59884643554688
y: 278.1136779785156
z: -0.39396706223487854
visibility: 0.9999605417251587
","x: 221.87649536132812
y: 270.73419189453125
z: -0.38114693760871887
visibility: 0.9999135136604309
","x: 223.2967987060547
y: 271.0309143066406
z: -0.38114994764328003
visibility: 0.9999068975448608
","x: 224.68482971191406
y: 271.41400146484375
z: -0.38119053840637207
visibility: 0.9999092817306519
","x: 218.23814392089844
y: 270.38629150390625
z: -0.3785405158996582
visibility: 0.9999004602432251
","x: 217.0131378173828
y: 270.53680419921875
z: -0.37862783670425415
visibility: 0.9998915791511536
","x: 215.7402801513672
y: 270.8871765136719
z: -0.3786999583244324
visibility: 0.9998980164527893
","x: 226.8167266845703
y: 274.582763671875
z: -0.2833075225353241
visibility: 0.9998064637184143
","x: 214.3439178466797
y: 274.5747985839844
z: -0.2709118127822876
visibility: 0.9997803568840027
","x: 221.48028564453125
y: 285.0085754394531
z: -0.3551936149597168
visibility: 0.9999431371688843
","x: 217.5607452392578
y: 285.8139953613281
z: -0.35182464122772217
visibility: 0.9999240040779114
","x: 240.36192321777344
y: 318.41229248046875
z: -0.23123899102210999
visibility: 0.9998668432235718
","x: 202.02301025390625
y: 313.195068359375
z: -0.19079366326332092
visibility: 0.9998718500137329
","x: 247.4563446044922
y: 368.21826171875
z: -0.2034268081188202
visibility: 0.9325681924819946
","x: 206.6558837890625
y: 371.0959167480469
z: -0.2521840035915375
visibility: 0.9543078541755676
","x: 259.1151428222656
y: 395.9622802734375
z: -0.29599547386169434
visibility: 0.899832546710968
","x: 233.47096252441406
y: 399.2239685058594
z: -0.3947623372077942
visibility: 0.9203216433525085
","x: 265.03948974609375
y: 405.5945129394531
z: -0.3260543942451477
visibility: 0.8771218657493591
","x: 239.73167419433594
y: 409.2599182128906
z: -0.43424588441848755
visibility: 0.8777133822441101
","x: 265.34246826171875
y: 404.2117919921875
z: -0.35400375723838806
visibility: 0.8814900517463684
","x: 242.94119262695312
y: 395.30767822265625
z: -0.441394180059433
visibility: 0.882764995098114
","x: 263.0377502441406
y: 401.0327453613281
z: -0.3091021478176117
visibility: 0.85147625207901
","x: 241.50140380859375
y: 392.9598388671875
z: -0.3999343514442444
visibility: 0.8685132265090942
","x: 233.9530792236328
y: 398.76019287109375
z: -0.0296253003180027
visibility: 0.9997785687446594
","x: 214.28250122070312
y: 400.57684326171875
z: 0.029645543545484543
visibility: 0.9996703863143921
","x: 227.75448608398438
y: 464.7626953125
z: -0.07900926470756531
visibility: 0.9844182133674622
","x: 224.36105346679688
y: 468.13275146484375
z: 0.04404449462890625
visibility: 0.9752650260925293
","x: 227.3072509765625
y: 536.63671875
z: 0.011998921632766724
visibility: 0.9912009239196777
","x: 247.75376892089844
y: 516.609619140625
z: 0.18565066158771515
visibility: 0.9456951022148132
","x: 228.09422302246094
y: 546.3072509765625
z: 0.018753426149487495
visibility: 0.8867985606193542
","x: 255.37576293945312
y: 519.143310546875
z: 0.19193440675735474
visibility: 0.8681126236915588
","x: 226.3458709716797
y: 557.754638671875
z: -0.10317587852478027
visibility: 0.9848069548606873
","x: 242.97425842285156
y: 542.880126953125
z: 0.09417933970689774
visibility: 0.9484347701072693
",,,,,,,,,,,,,,,,,,,,,,,,,,,,,,,,,,,,,,,,,,
24,"x: 222.86151123046875
y: 283.6285400390625
z: -0.4636581838130951
visibility: 0.9999632835388184
","x: 225.23748779296875
y: 274.863525390625
z: -0.45127177238464355
visibility: 0.9999189376831055
","x: 226.6656036376953
y: 274.99090576171875
z: -0.4512708783149719
visibility: 0.9999129176139832
","x: 228.02642822265625
y: 275.0948791503906
z: -0.4513664245605469
visibility: 0.9999155402183533
","x: 221.40406799316406
y: 273.51690673828125
z: -0.4510681629180908
visibility: 0.9999058246612549
","x: 220.09677124023438
y: 272.9250793457031
z: -0.45115789771080017
visibility: 0.9998964667320251
","x: 218.7876434326172
y: 272.6142578125
z: -0.45123133063316345
visibility: 0.9999025464057922
","x: 229.6958770751953
y: 276.7305603027344
z: -0.34665581583976746
visibility: 0.9998195767402649
","x: 216.81887817382812
y: 275.07757568359375
z: -0.3458333909511566
visibility: 0.9997918009757996
","x: 224.5407257080078
y: 288.9236145019531
z: -0.42131200432777405
visibility: 0.9999474287033081
","x: 220.62387084960938
y: 289.20916748046875
z: -0.42122530937194824
visibility: 0.9999287128448486
","x: 241.92587280273438
y: 319.416015625
z: -0.25728413462638855
visibility: 0.9998788833618164
","x: 203.82174682617188
y: 313.2454528808594
z: -0.2511109709739685
visibility: 0.9998735189437866
","x: 247.2266845703125
y: 374.3728332519531
z: -0.22942352294921875
visibility: 0.9378110766410828
","x: 207.430908203125
y: 370.1791076660156
z: -0.24594299495220184
visibility: 0.9558843374252319
","x: 257.05487060546875
y: 417.9366760253906
z: -0.31509795784950256
visibility: 0.9056447148323059
","x: 220.34056091308594
y: 410.8883056640625
z: -0.33038896322250366
visibility: 0.9171908497810364
","x: 261.7674560546875
y: 429.54669189453125
z: -0.34426194429397583
visibility: 0.8831620812416077
","x: 222.4958038330078
y: 423.1741638183594
z: -0.35945191979408264
visibility: 0.8709859848022461
","x: 261.3169860839844
y: 429.54156494140625
z: -0.36996883153915405
visibility: 0.8877573013305664
","x: 226.66835021972656
y: 422.39453125
z: -0.38127365708351135
visibility: 0.876522958278656
","x: 259.4073486328125
y: 425.8967590332031
z: -0.3269221782684326
visibility: 0.8590459823608398
","x: 226.6107940673828
y: 417.710693359375
z: -0.34021908044815063
visibility: 0.8599718809127808
","x: 234.54891967773438
y: 403.9685363769531
z: -0.025706056505441666
visibility: 0.9997947812080383
","x: 214.05128479003906
y: 405.41558837890625
z: 0.025761336088180542
visibility: 0.9996626377105713
","x: 227.45335388183594
y: 469.335693359375
z: -0.17989550530910492
visibility: 0.9843840003013611
","x: 215.18898010253906
y: 474.74749755859375
z: 0.022210584953427315
visibility: 0.9739327430725098
","x: 228.2552032470703
y: 536.5947265625
z: -0.06346330791711807
visibility: 0.9915333390235901
","x: 235.16647338867188
y: 515.608154296875
z: 0.2798777222633362
visibility: 0.9415726661682129
","x: 228.9612274169922
y: 550.5201416015625
z: -0.05947902053594589
visibility: 0.8862372636795044
","x: 240.56900024414062
y: 513.9630737304688
z: 0.3017447590827942
visibility: 0.8662123084068298
","x: 226.1147918701172
y: 557.482666015625
z: -0.19233594834804535
visibility: 0.984887957572937
","x: 234.7504119873047
y: 542.5205078125
z: 0.2223614901304245
visibility: 0.9429541230201721
",,,,,,,,,,,,,,,,,,,,,,,,,,,,,,,,,,,,,,,,,,
25,"x: 220.9455108642578
y: 271.2088317871094
z: -0.3528631031513214
visibility: 0.9999586939811707
","x: 223.21453857421875
y: 264.177734375
z: -0.34197211265563965
visibility: 0.9998986124992371
","x: 224.65283203125
y: 264.4530029296875
z: -0.34201309084892273
visibility: 0.999891459941864
","x: 226.0898895263672
y: 264.9049072265625
z: -0.34208324551582336
visibility: 0.9998986721038818
","x: 219.59739685058594
y: 263.6855163574219
z: -0.33496421575546265
visibility: 0.9998884797096252
","x: 218.36639404296875
y: 263.6466369628906
z: -0.3350333571434021
visibility: 0.9998784065246582
","x: 217.17237854003906
y: 263.7340087890625
z: -0.3350946605205536
visibility: 0.9998928308486938
","x: 228.93104553222656
y: 268.6591796875
z: -0.2547092139720917
visibility: 0.9998083710670471
","x: 215.95596313476562
y: 267.0436706542969
z: -0.21945014595985413
visibility: 0.9997832775115967
","x: 223.2236785888672
y: 278.6739807128906
z: -0.318182110786438
visibility: 0.9999469518661499
","x: 218.93898010253906
y: 278.08392333984375
z: -0.3082035183906555
visibility: 0.99992835521698
","x: 242.20945739746094
y: 305.88604736328125
z: -0.22913038730621338
visibility: 0.999888002872467
","x: 203.74246215820312
y: 307.15191650390625
z: -0.1030433177947998
visibility: 0.9998800158500671
","x: 248.2930145263672
y: 356.2850341796875
z: -0.2585633397102356
visibility: 0.9434375166893005
","x: 192.07508850097656
y: 347.9443359375
z: -0.0863129049539566
visibility: 0.9555164575576782
","x: 230.61618041992188
y: 391.0216064453125
z: -0.3723044693470001
visibility: 0.9111266732215881
","x: 178.16537475585938
y: 386.2388916015625
z: -0.2184096872806549
visibility: 0.917212963104248
","x: 225.51364135742188
y: 405.46209716796875
z: -0.4116957187652588
visibility: 0.8880212306976318
","x: 173.97592163085938
y: 400.40203857421875
z: -0.2520568072795868
visibility: 0.8701197504997253
","x: 221.84963989257812
y: 396.1126708984375
z: -0.4209120273590088
visibility: 0.8921209573745728
","x: 176.0204620361328
y: 402.11920166015625
z: -0.2827432155609131
visibility: 0.876222550868988
","x: 222.9681396484375
y: 391.6673583984375
z: -0.3778207004070282
visibility: 0.8616495728492737
","x: 178.01478576660156
y: 397.7749938964844
z: -0.23559506237506866
visibility: 0.8605907559394836
","x: 234.26614379882812
y: 401.887451171875
z: -0.037649963051080704
visibility: 0.999800980091095
","x: 213.802001953125
y: 400.21240234375
z: 0.03766997903585434
visibility: 0.9996875524520874
","x: 228.1707763671875
y: 467.945068359375
z: -0.1519574522972107
visibility: 0.9855489134788513
","x: 196.28445434570312
y: 459.8396301269531
z: -0.11976702511310577
visibility: 0.9761372804641724
","x: 227.66232299804688
y: 535.9775390625
z: 0.038739509880542755
visibility: 0.9921863675117493
","x: 201.3380126953125
y: 515.5768432617188
z: 0.07514708489179611
visibility: 0.9470508694648743
","x: 228.90870666503906
y: 549.7830810546875
z: 0.047202736139297485
visibility: 0.8854964971542358
","x: 206.8484344482422
y: 518.595458984375
z: 0.08773820847272873
visibility: 0.8769643902778625
","x: 221.83607482910156
y: 557.6591796875
z: -0.08546970784664154
visibility: 0.9859344363212585
","x: 189.36244201660156
y: 542.609130859375
z: -0.0111038563773036
visibility: 0.9482179284095764
",,,,,,,,,,,,,,,,,,,,,,,,,,,,,,,,,,,,,,,,,,
26,"x: 220.70236206054688
y: 253.78482055664062
z: -0.3678629696369171
visibility: 0.9999627470970154
","x: 222.4401397705078
y: 248.07171630859375
z: -0.3496640920639038
visibility: 0.9999086260795593
","x: 223.79017639160156
y: 248.85438537597656
z: -0.3496364653110504
visibility: 0.9999021291732788
","x: 225.21182250976562
y: 249.80628967285156
z: -0.3496839106082916
visibility: 0.9999086856842041
","x: 219.5482177734375
y: 247.52687072753906
z: -0.3467809557914734
visibility: 0.9998995065689087
","x: 218.29989624023438
y: 247.88851928710938
z: -0.34683242440223694
visibility: 0.9998904466629028
","x: 216.95887756347656
y: 248.28370666503906
z: -0.34673306345939636
visibility: 0.9999034404754639
","x: 227.82089233398438
y: 256.46014404296875
z: -0.24958887696266174
visibility: 0.9998273849487305
","x: 215.6708984375
y: 253.90469360351562
z: -0.23342716693878174
visibility: 0.9998048543930054
","x: 222.69891357421875
y: 262.9186706542969
z: -0.32030659914016724
visibility: 0.9999522566795349
","x: 217.43545532226562
y: 263.45709228515625
z: -0.3184315860271454
visibility: 0.999935507774353
","x: 240.70021057128906
y: 295.04083251953125
z: -0.2053786814212799
visibility: 0.9998984336853027
","x: 200.8721466064453
y: 290.0884704589844
z: -0.13089457154273987
visibility: 0.9998912215232849
","x: 257.994873046875
y: 322.9737854003906
z: -0.3516063988208771
visibility: 0.9490267038345337
","x: 175.8617706298828
y: 301.35675048828125
z: -0.25101977586746216
visibility: 0.9594209790229797
","x: 233.4392852783203
y: 317.2841491699219
z: -0.5640009641647339
visibility: 0.919586181640625
","x: 169.12753295898438
y: 315.1943664550781
z: -0.5074204206466675
visibility: 0.9222460985183716
","x: 228.5870819091797
y: 314.4151611328125
z: -0.6134248375892639
visibility: 0.8978098034858704
","x: 165.66737365722656
y: 327.0238952636719
z: -0.5573661923408508
visibility: 0.8762192726135254
","x: 226.4773406982422
y: 311.1389465332031
z: -0.6049602627754211
visibility: 0.9013723731040955
","x: 170.10446166992188
y: 327.76629638671875
z: -0.5667763352394104
visibility: 0.8817821741104126
","x: 227.87979125976562
y: 312.8818664550781
z: -0.5646299719810486
visibility: 0.872358500957489
","x: 172.32504272460938
y: 325.4350280761719
z: -0.5181814432144165
visibility: 0.8652092814445496
","x: 232.04232788085938
y: 393.96588134765625
z: -0.02022041566669941
visibility: 0.9998164176940918
","x: 209.7173309326172
y: 391.63531494140625
z: 0.020024314522743225
visibility: 0.9997166991233826
","x: 232.0071258544922
y: 467.93133544921875
z: 0.003602260258048773
visibility: 0.9866527915000916
","x: 189.96356201171875
y: 459.4348449707031
z: -0.10735338926315308
visibility: 0.978297770023346
","x: 228.18539428710938
y: 535.8018798828125
z: 0.22782929241657257
visibility: 0.9922924041748047
","x: 168.9757080078125
y: 522.0458374023438
z: 0.016613628715276718
visibility: 0.9520910978317261
","x: 228.16360473632812
y: 546.8299560546875
z: 0.24211326241493225
visibility: 0.8711052536964417
","x: 167.5372772216797
y: 529.7659912109375
z: 0.021400459110736847
visibility: 0.8801068067550659
","x: 225.56289672851562
y: 557.6795043945312
z: 0.10994084179401398
visibility: 0.9861541390419006
","x: 167.36402893066406
y: 551.7265625
z: -0.11888781934976578
visibility: 0.9530295133590698
",,,,,,,,,,,,,,,,,,,,,,,,,,,,,,,,,,,,,,,,,,
27,"x: 218.11953735351562
y: 260.271728515625
z: -0.24381180107593536
visibility: 0.9999661445617676
","x: 220.78419494628906
y: 254.47039794921875
z: -0.22228720784187317
visibility: 0.9999173879623413
","x: 222.3995819091797
y: 254.9611053466797
z: -0.22227874398231506
visibility: 0.999911367893219
","x: 224.0950927734375
y: 255.57330322265625
z: -0.22231647372245789
visibility: 0.9999173283576965
","x: 217.2571258544922
y: 254.1577911376953
z: -0.22147829830646515
visibility: 0.9999090433120728
","x: 216.05035400390625
y: 254.42654418945312
z: -0.22151418030261993
visibility: 0.9999008774757385
","x: 214.86988830566406
y: 254.7429656982422
z: -0.2214682549238205
visibility: 0.9999125599861145
","x: 226.5093231201172
y: 259.3228759765625
z: -0.11906234174966812
visibility: 0.9998440742492676
","x: 212.47508239746094
y: 259.364501953125
z: -0.1167830377817154
visibility: 0.9998235702514648
","x: 220.72921752929688
y: 268.7525329589844
z: -0.2081563025712967
visibility: 0.9999568462371826
","x: 214.7944793701172
y: 269.0462951660156
z: -0.20763139426708221
visibility: 0.9999417066574097
","x: 235.95042419433594
y: 295.5299987792969
z: -0.08032484352588654
visibility: 0.9999050498008728
","x: 197.3474578857422
y: 296.5567626953125
z: -0.08058677613735199
visibility: 0.9998884797096252
","x: 264.8814392089844
y: 318.4603576660156
z: -0.24891535937786102
visibility: 0.9540390372276306
","x: 178.9558563232422
y: 315.90252685546875
z: -0.22746646404266357
visibility: 0.9631799459457397
","x: 243.73211669921875
y: 303.25732421875
z: -0.4322524964809418
visibility: 0.9271930456161499
","x: 171.52601623535156
y: 304.5830993652344
z: -0.42620307207107544
visibility: 0.9293757677078247
","x: 235.48291015625
y: 301.6004333496094
z: -0.4697442650794983
visibility: 0.9057918190956116
","x: 167.56288146972656
y: 300.9056701660156
z: -0.4672645926475525
visibility: 0.8866994380950928
","x: 233.0482177734375
y: 301.1612243652344
z: -0.4766896665096283
visibility: 0.9087097644805908
","x: 168.57089233398438
y: 298.0926208496094
z: -0.4641966223716736
visibility: 0.8915368318557739
","x: 235.44342041015625
y: 301.9702453613281
z: -0.4605541229248047
visibility: 0.8814612627029419
","x: 170.65524291992188
y: 300.303466796875
z: -0.4311179518699646
visibility: 0.8756270408630371
","x: 230.31707763671875
y: 402.6566162109375
z: 0.006847367621958256
visibility: 0.9998331665992737
","x: 206.7576904296875
y: 405.0569152832031
z: -0.007035969290882349
visibility: 0.9997396469116211
","x: 238.1270294189453
y: 470.34161376953125
z: -0.15258771181106567
visibility: 0.9878126382827759
","x: 187.9862518310547
y: 475.9429626464844
z: -0.09753869473934174
visibility: 0.9802729487419128
","x: 228.4070587158203
y: 535.810302734375
z: 0.05570629984140396
visibility: 0.9926411509513855
","x: 166.06610107421875
y: 530.44970703125
z: 0.03909146040678024
visibility: 0.9565686583518982
","x: 224.65658569335938
y: 546.823974609375
z: 0.07433205097913742
visibility: 0.8800807595252991
","x: 164.06092834472656
y: 537.8544311523438
z: 0.046958934515714645
visibility: 0.8778129816055298
","x: 232.4090576171875
y: 559.9771728515625
z: 0.017547549679875374
visibility: 0.9868161082267761
