uscmakers/ReverseChoreography/data/4_ymca_village people.csv
,NOSE,LEFT_EYE_INNER,LEFT_EYE,LEFT_EYE_OUTER,RIGHT_EYE_INNER,RIGHT_EYE,RIGHT_EYE_OUTER,LEFT_EAR,RIGHT_EAR,MOUTH_LEFT,MOUTH_RIGHT,LEFT_SHOULDER,RIGHT_SHOULDER,LEFT_ELBOW,RIGHT_ELBOW,LEFT_WRIST,RIGHT_WRIST,LEFT_PINKY,RIGHT_PINKY,LEFT_INDEX,RIGHT_INDEX,LEFT_THUMB,RIGHT_THUMB,LEFT_HIP,RIGHT_HIP,LEFT_KNEE,RIGHT_KNEE,LEFT_ANKLE,RIGHT_ANKLE,LEFT_HEEL,RIGHT_HEEL,LEFT_FOOT_INDEX,RIGHT_FOOT_INDEX,WRIST,THUMB_CPC,THUMB_MCP,THUMB_IP,THUMB_TIP,INDEX_FINGER_MCP,INDEX_FINGER_PIP,INDEX_FINGER_DIP,INDEX_FINGER_TIP,MIDDLE_FINGER_MCP,MIDDLE_FINGER_PIP,MIDDLE_FINGER_DIP,MIDDLE_FINGER_TIP,RING_FINGER_PIP,RING_FINGER_DIP,RING_FINGER_TIP,RING_FINGER_MCP,PINKY_MCP,PINKY_PIP,PINKY_DIP,PINKY_TIP,WRIST2,THUMB_CPC2,THUMB_MCP2,THUMB_IP2,THUMB_TIP2,INDEX_FINGER_MCP2,INDEX_FINGER_PIP2,INDEX_FINGER_DIP2,INDEX_FINGER_TIP2,MIDDLE_FINGER_MCP2,MIDDLE_FINGER_PIP2,MIDDLE_FINGER_DIP2,MIDDLE_FINGER_TIP2,RING_FINGER_PIP2,RING_FINGER_DIP2,RING_FINGER_TIP2,RING_FINGER_MCP2,PINKY_MCP2,PINKY_PIP2,PINKY_DIP2,PINKY_TIP2
0,"x: 225.33619689941406
y: 244.45233154296875
z: -0.3740551769733429
visibility: 0.999985933303833
","x: 227.53085327148438
y: 237.9087677001953
z: -0.35801824927330017
visibility: 0.999927282333374
","x: 228.8583984375
y: 238.10096740722656
z: -0.35802847146987915
visibility: 0.9999260902404785
","x: 230.07571411132812
y: 238.34689331054688
z: -0.3581139147281647
visibility: 0.9999253749847412
","x: 223.21286010742188
y: 238.01210021972656
z: -0.3615977168083191
visibility: 0.9999197721481323
","x: 221.74984741210938
y: 238.32400512695312
z: -0.3616509437561035
visibility: 0.9999146461486816
","x: 220.49853515625
y: 238.6524658203125
z: -0.3616330623626709
visibility: 0.9998975992202759
","x: 231.63734436035156
y: 242.36456298828125
z: -0.24317951500415802
visibility: 0.9999109506607056
","x: 217.89454650878906
y: 241.56402587890625
z: -0.25988730788230896
visibility: 0.9998453855514526
","x: 228.03866577148438
y: 252.83245849609375
z: -0.32946741580963135
visibility: 0.9999535083770752
","x: 222.35137939453125
y: 252.67864990234375
z: -0.33429524302482605
visibility: 0.9999405145645142
","x: 243.12692260742188
y: 281.5511169433594
z: -0.15404903888702393
visibility: 0.9999730587005615
","x: 202.44252014160156
y: 273.4954833984375
z: -0.1718866527080536
visibility: 0.9997251629829407
","x: 272.4546203613281
y: 293.2339172363281
z: -0.13904345035552979
visibility: 0.9994581341743469
","x: 170.30203247070312
y: 271.495361328125
z: -0.16954389214515686
visibility: 0.9986066222190857
","x: 299.57000732421875
y: 291.01239013671875
z: -0.23522236943244934
visibility: 0.9992222785949707
","x: 144.35568237304688
y: 263.390380859375
z: -0.2755919396877289
visibility: 0.9956594109535217
","x: 307.64886474609375
y: 290.7294616699219
z: -0.2581382393836975
visibility: 0.9960809350013733
","x: 136.5282440185547
y: 263.1607666015625
z: -0.301127165555954
visibility: 0.9839757680892944
","x: 308.55816650390625
y: 288.81634521484375
z: -0.29427340626716614
visibility: 0.9968300461769104
","x: 136.22604370117188
y: 262.9410095214844
z: -0.33670154213905334
visibility: 0.9870957136154175
","x: 305.3214111328125
y: 290.16302490234375
z: -0.2548646628856659
visibility: 0.9966873526573181
","x: 138.78884887695312
y: 263.5386962890625
z: -0.2950698137283325
visibility: 0.9866577982902527
","x: 232.44692993164062
y: 378.2272033691406
z: 0.0004472619912121445
visibility: 0.9988917708396912
","x: 210.38436889648438
y: 378.0716247558594
z: -0.0004563705006148666
visibility: 0.9984819293022156
","x: 229.43655395507812
y: 461.1046142578125
z: -0.022306058555841446
visibility: 0.9939420819282532
","x: 209.17291259765625
y: 460.0201110839844
z: -0.008666487410664558
visibility: 0.9894184470176697
","x: 228.0809326171875
y: 534.3963623046875
z: 0.12054163217544556
visibility: 0.9911388754844666
","x: 209.0131072998047
y: 535.0951538085938
z: 0.12099757045507431
visibility: 0.9888566136360168
","x: 225.90090942382812
y: 545.5121459960938
z: 0.12710164487361908
visibility: 0.9008898735046387
","x: 210.30747985839844
y: 546.458251953125
z: 0.12670551240444183
visibility: 0.8817651271820068
","x: 226.25144958496094
y: 561.6602172851562
z: -0.0018803055863827467
visibility: 0.9881933331489563
","x: 208.90713500976562
y: 562.2223510742188
z: 0.000857619394082576
visibility: 0.9853378534317017
",,,,,,,,,,,,,,,,,,,,,,,,,,,,,,,,,,,,,,,,,,
1,"x: 207.18350219726562
y: 239.30763244628906
z: -0.15996167063713074
visibility: 0.999984860420227
","x: 209.37876892089844
y: 232.9381103515625
z: -0.14385177195072174
visibility: 0.9999273419380188
","x: 210.6627960205078
y: 233.13885498046875
z: -0.1438239961862564
visibility: 0.999923825263977
","x: 211.9716339111328
y: 233.4787139892578
z: -0.14385731518268585
visibility: 0.9999245405197144
","x: 205.54603576660156
y: 233.4961700439453
z: -0.13872644305229187
visibility: 0.9999212026596069
","x: 204.17315673828125
y: 234.0663299560547
z: -0.1387200653553009
visibility: 0.999914288520813
","x: 202.88775634765625
y: 234.67210388183594
z: -0.1387111395597458
visibility: 0.9999017119407654
","x: 214.6105194091797
y: 238.63424682617188
z: -0.056357305496931076
visibility: 0.9999057054519653
","x: 201.64955139160156
y: 239.49798583984375
z: -0.033524248749017715
visibility: 0.9998484253883362
","x: 210.18714904785156
y: 247.6547393798828
z: -0.12876373529434204
visibility: 0.9999514222145081
","x: 204.98504638671875
y: 247.65444946289062
z: -0.12247228622436523
visibility: 0.9999416470527649
","x: 228.5631561279297
y: 280.1080322265625
z: -0.009248166345059872
visibility: 0.9999371767044067
","x: 191.2205047607422
y: 275.8187255859375
z: 0.015351897105574608
visibility: 0.9997222423553467
","x: 250.99688720703125
y: 292.0133056640625
z: -0.10182078927755356
visibility: 0.999271035194397
","x: 169.00892639160156
y: 290.67462158203125
z: -0.08420342952013016
visibility: 0.9985269904136658
","x: 246.747802734375
y: 252.55197143554688
z: -0.22268478572368622
visibility: 0.9989389777183533
","x: 173.1663055419922
y: 254.5345458984375
z: -0.23690655827522278
visibility: 0.995590329170227
","x: 247.1875762939453
y: 240.33836364746094
z: -0.2505507171154022
visibility: 0.9947810173034668
","x: 174.10305786132812
y: 244.36044311523438
z: -0.27461177110671997
visibility: 0.9829521179199219
","x: 244.99769592285156
y: 237.40264892578125
z: -0.2442363053560257
visibility: 0.9952412843704224
","x: 175.9015350341797
y: 243.1417694091797
z: -0.25526994466781616
visibility: 0.9853623509407043
","x: 243.9795379638672
y: 242.12310791015625
z: -0.22414855659008026
visibility: 0.9944064021110535
","x: 176.4121856689453
y: 246.01815795898438
z: -0.23590917885303497
visibility: 0.9841883182525635
","x: 222.07498168945312
y: 378.3146667480469
z: -0.0013473344733938575
visibility: 0.9989383816719055
","x: 199.8341064453125
y: 378.6207275390625
z: 0.0012671404983848333
visibility: 0.9985808730125427
","x: 224.9647979736328
y: 460.9951171875
z: -0.026355993002653122
visibility: 0.9935681819915771
","x: 198.10702514648438
y: 460.712890625
z: -0.01382800005376339
visibility: 0.9896578788757324
","x: 225.72731018066406
y: 531.4832153320312
z: 0.11894719302654266
visibility: 0.9904156923294067
","x: 197.97889709472656
y: 535.781005859375
z: 0.10476509481668472
visibility: 0.9892117381095886
","x: 223.6428680419922
y: 539.804443359375
z: 0.12684784829616547
visibility: 0.8945726752281189
","x: 200.05355834960938
y: 546.2549438476562
z: 0.11058346927165985
visibility: 0.882555365562439
","x: 226.46385192871094
y: 561.3275756835938
z: 0.012558422982692719
visibility: 0.987621009349823
","x: 197.29495239257812
y: 563.3276977539062
z: -0.001755522913299501
visibility: 0.9855446219444275
","x: 173.24948120117188
y: 252.54640197753906
z: 0.0
","x: 176.7849884033203
y: 250.56031799316406
z: -0.0011700568720698357
","x: 179.23150634765625
y: 245.91635131835938
z: -0.002176818437874317
","x: 180.75979614257812
y: 241.35723876953125
z: -0.0033668603282421827
","x: 181.88815307617188
y: 238.27517700195312
z: -0.003909319639205933
","x: 175.54322814941406
y: 237.0651092529297
z: -0.0013470849953591824
","x: 179.44284057617188
y: 235.21002197265625
z: -0.0029476031195372343
","x: 179.8489227294922
y: 239.4609832763672
z: -0.0031686772126704454
","x: 178.9314727783203
y: 241.3864288330078
z: -0.0032002367079257965
","x: 174.1479034423828
y: 236.1314239501953
z: -0.002033425960689783
","x: 178.33981323242188
y: 235.47259521484375
z: -0.003693794598802924
","x: 178.7770538330078
y: 239.64718627929688
z: -0.0032165723387151957
","x: 177.88255310058594
y: 241.4580535888672
z: -0.002758275717496872
","x: 173.11721801757812
y: 236.36207580566406
z: -0.002979854354634881
","x: 177.17697143554688
y: 236.12872314453125
z: -0.004676223266869783
","x: 177.56529235839844
y: 239.76104736328125
z: -0.0038814416620880365
","x: 176.78012084960938
y: 241.26495361328125
z: -0.00320163881406188
","x: 172.41122436523438
y: 237.36065673828125
z: -0.004149899818003178
","x: 175.68907165527344
y: 237.19549560546875
z: -0.005289255641400814
","x: 176.10052490234375
y: 239.90908813476562
z: -0.004786248784512281
","x: 175.4883270263672
y: 241.3282012939453
z: -0.004167376551777124
",,,,,,,,,,,,,,,,,,,,,
2,"x: 207.18350219726562
y: 239.30763244628906
z: -0.15996167063713074
visibility: 0.999984860420227
","x: 209.37876892089844
y: 232.9381103515625
z: -0.14385177195072174
visibility: 0.9999273419380188
","x: 210.6627960205078
y: 233.13885498046875
z: -0.1438239961862564
visibility: 0.999923825263977
","x: 211.9716339111328
y: 233.4787139892578
z: -0.14385731518268585
visibility: 0.9999245405197144
","x: 205.54603576660156
y: 233.4961700439453
z: -0.13872644305229187
visibility: 0.9999212026596069
","x: 204.17315673828125
y: 234.0663299560547
z: -0.1387200653553009
visibility: 0.999914288520813
","x: 202.88775634765625
y: 234.67210388183594
z: -0.1387111395597458
visibility: 0.9999017119407654
","x: 214.6105194091797
y: 238.63424682617188
z: -0.056357305496931076
visibility: 0.9999057054519653
","x: 201.64955139160156
y: 239.49798583984375
z: -0.033524248749017715
visibility: 0.9998484253883362
","x: 210.18714904785156
y: 247.6547393798828
z: -0.12876373529434204
visibility: 0.9999514222145081
","x: 204.98504638671875
y: 247.65444946289062
z: -0.12247228622436523
visibility: 0.9999416470527649
","x: 228.5631561279297
y: 280.1080322265625
z: -0.009248166345059872
visibility: 0.9999371767044067
","x: 191.2205047607422
y: 275.8187255859375
z: 0.015351897105574608
visibility: 0.9997222423553467
","x: 250.99688720703125
y: 292.0133056640625
z: -0.10182078927755356
visibility: 0.999271035194397
","x: 169.00892639160156
y: 290.67462158203125
z: -0.08420342952013016
visibility: 0.9985269904136658
","x: 246.747802734375
y: 252.55197143554688
z: -0.22268478572368622
visibility: 0.9989389777183533
","x: 173.1663055419922
y: 254.5345458984375
z: -0.23690655827522278
visibility: 0.995590329170227
","x: 247.1875762939453
y: 240.33836364746094
z: -0.2505507171154022
visibility: 0.9947810173034668
","x: 174.10305786132812
y: 244.36044311523438
z: -0.27461177110671997
visibility: 0.9829521179199219
","x: 244.99769592285156
y: 237.40264892578125
z: -0.2442363053560257
visibility: 0.9952412843704224
","x: 175.9015350341797
y: 243.1417694091797
z: -0.25526994466781616
visibility: 0.9853623509407043
","x: 243.9795379638672
y: 242.12310791015625
z: -0.22414855659008026
visibility: 0.9944064021110535
","x: 176.4121856689453
y: 246.01815795898438
z: -0.23590917885303497
visibility: 0.9841883182525635
","x: 222.07498168945312
y: 378.3146667480469
z: -0.0013473344733938575
visibility: 0.9989383816719055
","x: 199.8341064453125
y: 378.6207275390625
z: 0.0012671404983848333
visibility: 0.9985808730125427
","x: 224.9647979736328
y: 460.9951171875
z: -0.026355993002653122
visibility: 0.9935681819915771
","x: 198.10702514648438
y: 460.712890625
z: -0.01382800005376339
visibility: 0.9896578788757324
","x: 225.72731018066406
y: 531.4832153320312
z: 0.11894719302654266
visibility: 0.9904156923294067
","x: 197.97889709472656
y: 535.781005859375
z: 0.10476509481668472
visibility: 0.9892117381095886
","x: 223.6428680419922
y: 539.804443359375
z: 0.12684784829616547
visibility: 0.8945726752281189
","x: 200.05355834960938
y: 546.2549438476562
z: 0.11058346927165985
visibility: 0.882555365562439
","x: 226.46385192871094
y: 561.3275756835938
z: 0.012558422982692719
visibility: 0.987621009349823
","x: 197.29495239257812
y: 563.3276977539062
z: -0.001755522913299501
visibility: 0.9855446219444275
","x: 173.24948120117188
y: 252.54640197753906
z: 0.0
","x: 176.7849884033203
y: 250.56031799316406
z: -0.0011700568720698357
","x: 179.23150634765625
y: 245.91635131835938
z: -0.002176818437874317
","x: 180.75979614257812
y: 241.35723876953125
z: -0.0033668603282421827
","x: 181.88815307617188
y: 238.27517700195312
z: -0.003909319639205933
","x: 175.54322814941406
y: 237.0651092529297
z: -0.0013470849953591824
","x: 179.44284057617188
y: 235.21002197265625
z: -0.0029476031195372343
","x: 179.8489227294922
y: 239.4609832763672
z: -0.0031686772126704454
","x: 178.9314727783203
y: 241.3864288330078
z: -0.0032002367079257965
","x: 174.1479034423828
y: 236.1314239501953
z: -0.002033425960689783
","x: 178.33981323242188
y: 235.47259521484375
z: -0.003693794598802924
","x: 178.7770538330078
y: 239.64718627929688
z: -0.0032165723387151957
","x: 177.88255310058594
y: 241.4580535888672
z: -0.002758275717496872
","x: 173.11721801757812
y: 236.36207580566406
z: -0.002979854354634881
","x: 177.17697143554688
y: 236.12872314453125
z: -0.004676223266869783
","x: 177.56529235839844
y: 239.76104736328125
z: -0.0038814416620880365
","x: 176.78012084960938
y: 241.26495361328125
z: -0.00320163881406188
","x: 172.41122436523438
y: 237.36065673828125
z: -0.004149899818003178
","x: 175.68907165527344
y: 237.19549560546875
z: -0.005289255641400814
","x: 176.10052490234375
y: 239.90908813476562
z: -0.004786248784512281
","x: 175.4883270263672
y: 241.3282012939453
z: -0.004167376551777124
",,,,,,,,,,,,,,,,,,,,,
3,"x: 204.80258178710938
y: 239.48391723632812
z: -0.2033955156803131
visibility: 0.9999822974205017
","x: 206.50326538085938
y: 233.31800842285156
z: -0.18444938957691193
visibility: 0.9999270439147949
","x: 207.98089599609375
y: 233.54092407226562
z: -0.18446126580238342
visibility: 0.9999215006828308
","x: 209.61676025390625
y: 233.87551879882812
z: -0.18450284004211426
visibility: 0.9999222755432129
","x: 202.9597930908203
y: 233.83938598632812
z: -0.18505491316318512
visibility: 0.9999229907989502
","x: 201.73007202148438
y: 234.41041564941406
z: -0.18506065011024475
visibility: 0.9999163150787354
","x: 200.3722381591797
y: 235.00967407226562
z: -0.18503206968307495
visibility: 0.9999064803123474
","x: 212.9558563232422
y: 238.7841796875
z: -0.0706794336438179
visibility: 0.9999001622200012
","x: 198.9766845703125
y: 239.74200439453125
z: -0.07382228970527649
visibility: 0.999858021736145
","x: 207.52682495117188
y: 247.69412231445312
z: -0.1611843705177307
visibility: 0.999952495098114
","x: 203.20486450195312
y: 248.01687622070312
z: -0.16209597885608673
visibility: 0.9999452829360962
","x: 226.7455291748047
y: 280.1510009765625
z: -0.0033951825462281704
visibility: 0.9999274015426636
","x: 186.90248107910156
y: 279.09375
z: -0.01985090598464012
visibility: 0.9997423887252808
","x: 245.68382263183594
y: 310.4453430175781
z: -0.10787305980920792
visibility: 0.9972881078720093
","x: 170.2133026123047
y: 316.1792297363281
z: -0.10683945566415787
visibility: 0.9977660775184631
","x: 234.58645629882812
y: 302.92138671875
z: -0.32464519143104553
visibility: 0.992118239402771
","x: 184.2801513671875
y: 324.2676086425781
z: -0.2881757616996765
visibility: 0.993510365486145
","x: 230.3335418701172
y: 302.93878173828125
z: -0.3768148422241211
visibility: 0.9799314141273499
","x: 186.66058349609375
y: 329.5568542480469
z: -0.33671075105667114
visibility: 0.9785630702972412
","x: 227.45933532714844
y: 298.48779296875
z: -0.37498992681503296
visibility: 0.9804719090461731
","x: 188.90541076660156
y: 327.4276428222656
z: -0.3314693570137024
visibility: 0.9806484580039978
","x: 228.27682495117188
y: 298.9656982421875
z: -0.3299925923347473
visibility: 0.9752792119979858
","x: 188.6295166015625
y: 324.7138977050781
z: -0.28785571455955505
visibility: 0.977092981338501
","x: 219.97805786132812
y: 378.90155029296875
z: 0.002723397221416235
visibility: 0.9990081787109375
","x: 197.53201293945312
y: 379.13629150390625
z: -0.002737381961196661
visibility: 0.9986900687217712
","x: 222.5343017578125
y: 461.68658447265625
z: -0.026030709967017174
visibility: 0.9936297535896301
","x: 196.6006622314453
y: 462.6573486328125
z: -0.02061331644654274
visibility: 0.990176796913147
","x: 224.8839569091797
y: 533.3787841796875
z: 0.11903953552246094
visibility: 0.9908022284507751
","x: 196.13722229003906
y: 537.1753540039062
z: 0.10870355367660522
visibility: 0.9897552728652954
","x: 222.70220947265625
y: 542.1588745117188
z: 0.12702879309654236
visibility: 0.8984752297401428
","x: 198.85162353515625
y: 547.3865966796875
z: 0.11446420103311539
visibility: 0.8825942277908325
","x: 226.93089294433594
y: 560.3930053710938
z: 0.009790703654289246
visibility: 0.9879805445671082
","x: 195.3145751953125
y: 563.3252563476562
z: -0.009053358808159828
visibility: 0.9859054088592529
",,,,,,,,,,,,,,,,,,,,,,,,,,,,,,,,,,,,,,,,,,
4,"x: 206.55032348632812
y: 239.97598266601562
z: -0.257070928812027
visibility: 0.9999833106994629
","x: 208.76480102539062
y: 233.80592346191406
z: -0.23791038990020752
visibility: 0.9999330639839172
","x: 210.1563720703125
y: 234.14248657226562
z: -0.23789918422698975
visibility: 0.999927818775177
","x: 211.54014587402344
y: 234.5596466064453
z: -0.2379206120967865
visibility: 0.9999286532402039
","x: 204.41998291015625
y: 233.8859405517578
z: -0.24178239703178406
visibility: 0.9999293684959412
","x: 202.98825073242188
y: 234.57315063476562
z: -0.24181345105171204
visibility: 0.9999233484268188
","x: 201.79237365722656
y: 235.229736328125
z: -0.2417839765548706
visibility: 0.9999145269393921
","x: 213.6101837158203
y: 239.0150604248047
z: -0.11666876077651978
visibility: 0.9999080300331116
","x: 199.64678955078125
y: 239.8146209716797
z: -0.13646358251571655
visibility: 0.9998698234558105
","x: 209.26560974121094
y: 247.8038330078125
z: -0.2111963927745819
visibility: 0.9999560117721558
","x: 203.73992919921875
y: 248.3281707763672
z: -0.21691501140594482
visibility: 0.9999496340751648
","x: 225.83279418945312
y: 281.8750305175781
z: -0.03398972377181053
visibility: 0.9999303817749023
","x: 184.93081665039062
y: 282.5001220703125
z: -0.0701039656996727
visibility: 0.9997530579566956
","x: 239.57057189941406
y: 326.16510009765625
z: -0.02350199595093727
visibility: 0.9951350688934326
","x: 169.98248291015625
y: 315.354736328125
z: -0.15167509019374847
visibility: 0.9965718388557434
","x: 232.21340942382812
y: 354.5101623535156
z: -0.14974333345890045
visibility: 0.9888560771942139
","x: 185.61282348632812
y: 324.512451171875
z: -0.3643009662628174
visibility: 0.990781843662262
","x: 232.5535888671875
y: 369.6468505859375
z: -0.18303315341472626
visibility: 0.9727978706359863
","x: 189.34124755859375
y: 329.566650390625
z: -0.41158634424209595
visibility: 0.973473846912384
","x: 230.18679809570312
y: 367.2352294921875
z: -0.20866923034191132
visibility: 0.9738042950630188
","x: 191.1569366455078
y: 326.5404052734375
z: -0.4135163724422455
visibility: 0.9751589298248291
","x: 229.107177734375
y: 361.4603271484375
z: -0.16199800372123718
visibility: 0.9659043550491333
","x: 189.9222869873047
y: 324.3702697753906
z: -0.3685973286628723
visibility: 0.968632698059082
","x: 220.27438354492188
y: 378.96429443359375
z: 0.006399252917617559
visibility: 0.9990708231925964
","x: 197.862060546875
y: 379.4462890625
z: -0.006382090505212545
visibility: 0.9987856149673462
","x: 222.3269805908203
y: 461.21722412109375
z: -0.02055155672132969
visibility: 0.9938395023345947
","x: 197.60409545898438
y: 462.05126953125
z: -0.021068768575787544
visibility: 0.9905408620834351
","x: 224.58950805664062
y: 533.836181640625
z: 0.1190548911690712
visibility: 0.9912552833557129
","x: 196.15765380859375
y: 537.8118286132812
z: 0.10358363389968872
visibility: 0.9903168082237244
","x: 222.091552734375
y: 542.2301635742188
z: 0.12676554918289185
visibility: 0.9025313854217529
","x: 198.8661346435547
y: 548.041015625
z: 0.10797148942947388
visibility: 0.883901059627533
","x: 226.99795532226562
y: 559.9132080078125
z: 0.00040326901944354177
visibility: 0.9884566068649292
","x: 195.1717529296875
y: 563.3609619140625
z: -0.02529941499233246
visibility: 0.9864557385444641
",,,,,,,,,,,,,,,,,,,,,,,,,,,,,,,,,,,,,,,,,,
5,"x: 210.56106567382812
y: 238.96218872070312
z: -0.26252371072769165
visibility: 0.9999842643737793
","x: 212.54458618164062
y: 233.77926635742188
z: -0.2623841166496277
visibility: 0.9999382495880127
","x: 213.7993621826172
y: 234.3052520751953
z: -0.2624964118003845
visibility: 0.9999328255653381
","x: 215.0581512451172
y: 234.77784729003906
z: -0.2626461982727051
visibility: 0.9999338388442993
","x: 208.54563903808594
y: 232.6741180419922
z: -0.252934992313385
visibility: 0.9999344944953918
","x: 207.09683227539062
y: 232.70262145996094
z: -0.25283896923065186
visibility: 0.999928891658783
","x: 205.72634887695312
y: 232.7436981201172
z: -0.2526094317436218
visibility: 0.9999212026596069
","x: 216.3926239013672
y: 239.1586151123047
z: -0.14732061326503754
visibility: 0.9999140501022339
","x: 202.67776489257812
y: 238.67694091796875
z: -0.15775099396705627
visibility: 0.9998805522918701
","x: 212.75978088378906
y: 247.50030517578125
z: -0.22789201140403748
visibility: 0.9999593496322632
","x: 207.3919677734375
y: 246.525634765625
z: -0.24359536170959473
visibility: 0.9999539852142334
","x: 226.99610900878906
y: 286.62249755859375
z: -0.06892737746238708
visibility: 0.9999334216117859
","x: 186.2791290283203
y: 278.12261962890625
z: -0.1331833004951477
visibility: 0.9997729063034058
","x: 233.88865661621094
y: 338.9718933105469
z: -0.05941850692033768
visibility: 0.9945021271705627
","x: 159.2130889892578
y: 271.1108703613281
z: -0.2979717552661896
visibility: 0.9968976974487305
","x: 233.08058166503906
y: 383.5541076660156
z: -0.14121225476264954
visibility: 0.9881871342658997
","x: 179.2700653076172
y: 232.96835327148438
z: -0.45734673738479614
visibility: 0.9913832545280457
","x: 234.03965759277344
y: 398.71331787109375
z: -0.16862988471984863
visibility: 0.9703947305679321
","x: 182.4817657470703
y: 220.2578887939453
z: -0.5077858567237854
visibility: 0.9739595651626587
","x: 231.0648651123047
y: 396.8432312011719
z: -0.19618520140647888
visibility: 0.9714343547821045
","x: 184.60415649414062
y: 220.75350952148438
z: -0.488356351852417
visibility: 0.975064218044281
","x: 230.06069946289062
y: 391.7076416015625
z: -0.15445445477962494
visibility: 0.9627055525779724
","x: 184.5402374267578
y: 226.37301635742188
z: -0.45640531182289124
visibility: 0.9682472944259644
","x: 221.42291259765625
y: 379.9911804199219
z: 0.014559617266058922
visibility: 0.9991569519042969
","x: 198.41921997070312
y: 382.8348388671875
z: -0.01471271924674511
visibility: 0.9989021420478821
","x: 223.07220458984375
y: 460.37725830078125
z: -0.029763588681817055
visibility: 0.994290828704834
","x: 197.4481658935547
y: 465.9173278808594
z: -0.02200680412352085
visibility: 0.9910656213760376
","x: 224.75953674316406
y: 532.364501953125
z: 0.15354326367378235
visibility: 0.9918323159217834
","x: 196.37046813964844
y: 537.9900512695312
z: 0.12887462973594666
visibility: 0.9909072518348694
","x: 222.07530212402344
y: 540.005615234375
z: 0.16631995141506195
visibility: 0.908169686794281
","x: 198.76083374023438
y: 548.01611328125
z: 0.1368623822927475
visibility: 0.8845999240875244
","x: 227.25320434570312
y: 559.9329833984375
z: 0.03529955819249153
visibility: 0.9892565011978149
","x: 195.59088134765625
y: 563.851318359375
z: -0.0035763136111199856
visibility: 0.9872826933860779
","x: 179.07980346679688
y: 230.21697998046875
z: 0.0
","x: 183.0648651123047
y: 228.450439453125
z: -0.001743944943882525
","x: 186.03623962402344
y: 222.56173706054688
z: -0.002735804533585906
","x: 187.40029907226562
y: 217.120849609375
z: -0.003912596497684717
","x: 188.29208374023438
y: 212.39944458007812
z: -0.005047860089689493
","x: 185.7358856201172
y: 213.40089416503906
z: -0.0009564457577653229
","x: 186.81544494628906
y: 206.0074005126953
z: -0.003238694742321968
","x: 187.3066864013672
y: 201.1219482421875
z: -0.004765890538692474
","x: 187.67381286621094
y: 197.04055786132812
z: -0.005646154284477234
","x: 183.7606201171875
y: 212.2921905517578
z: -0.0018524323822930455
","x: 184.57115173339844
y: 204.65664672851562
z: -0.003826114581897855
","x: 185.2447052001953
y: 199.46998596191406
z: -0.004988451953977346
","x: 185.83621215820312
y: 195.08746337890625
z: -0.005843845196068287
","x: 181.7412872314453
y: 212.68869018554688
z: -0.003237813012674451
","x: 182.2772674560547
y: 205.11724853515625
z: -0.005765496753156185
","x: 182.77037048339844
y: 200.16867065429688
z: -0.007095807231962681
","x: 183.25296020507812
y: 195.96630859375
z: -0.007856074720621109
","x: 179.61819458007812
y: 214.3916015625
z: -0.004887095186859369
","x: 179.5286102294922
y: 208.27102661132812
z: -0.007137153763324022
","x: 179.49124145507812
y: 204.25570678710938
z: -0.008090234361588955
","x: 179.62322998046875
y: 200.83778381347656
z: -0.008612385019659996
",,,,,,,,,,,,,,,,,,,,,
6,"x: 210.56106567382812
y: 238.96218872070312
z: -0.26252371072769165
visibility: 0.9999842643737793
","x: 212.54458618164062
y: 233.77926635742188
z: -0.2623841166496277
visibility: 0.9999382495880127
","x: 213.7993621826172
y: 234.3052520751953
z: -0.2624964118003845
visibility: 0.9999328255653381
","x: 215.0581512451172
y: 234.77784729003906
z: -0.2626461982727051
visibility: 0.9999338388442993
","x: 208.54563903808594
y: 232.6741180419922
z: -0.252934992313385
visibility: 0.9999344944953918
","x: 207.09683227539062
y: 232.70262145996094
z: -0.25283896923065186
visibility: 0.999928891658783
","x: 205.72634887695312
y: 232.7436981201172
z: -0.2526094317436218
visibility: 0.9999212026596069
","x: 216.3926239013672
y: 239.1586151123047
z: -0.14732061326503754
visibility: 0.9999140501022339
","x: 202.67776489257812
y: 238.67694091796875
z: -0.15775099396705627
visibility: 0.9998805522918701
","x: 212.75978088378906
y: 247.50030517578125
z: -0.22789201140403748
visibility: 0.9999593496322632
","x: 207.3919677734375
y: 246.525634765625
z: -0.24359536170959473
visibility: 0.9999539852142334
","x: 226.99610900878906
y: 286.62249755859375
z: -0.06892737746238708
visibility: 0.9999334216117859
","x: 186.2791290283203
y: 278.12261962890625
z: -0.1331833004951477
visibility: 0.9997729063034058
","x: 233.88865661621094
y: 338.9718933105469
z: -0.05941850692033768
visibility: 0.9945021271705627
","x: 159.2130889892578
y: 271.1108703613281
z: -0.2979717552661896
visibility: 0.9968976974487305
","x: 233.08058166503906
y: 383.5541076660156
z: -0.14121225476264954
visibility: 0.9881871342658997
","x: 179.2700653076172
y: 232.96835327148438
z: -0.45734673738479614
visibility: 0.9913832545280457
","x: 234.03965759277344
y: 398.71331787109375
z: -0.16862988471984863
visibility: 0.9703947305679321
","x: 182.4817657470703
y: 220.2578887939453
z: -0.5077858567237854
visibility: 0.9739595651626587
","x: 231.0648651123047
y: 396.8432312011719
z: -0.19618520140647888
visibility: 0.9714343547821045
","x: 184.60415649414062
y: 220.75350952148438
z: -0.488356351852417
visibility: 0.975064218044281
","x: 230.06069946289062
y: 391.7076416015625
z: -0.15445445477962494
visibility: 0.9627055525779724
","x: 184.5402374267578
y: 226.37301635742188
z: -0.45640531182289124
visibility: 0.9682472944259644
","x: 221.42291259765625
y: 379.9911804199219
z: 0.014559617266058922
visibility: 0.9991569519042969
","x: 198.41921997070312
y: 382.8348388671875
z: -0.01471271924674511
visibility: 0.9989021420478821
","x: 223.07220458984375
y: 460.37725830078125
z: -0.029763588681817055
visibility: 0.994290828704834
","x: 197.4481658935547
y: 465.9173278808594
z: -0.02200680412352085
visibility: 0.9910656213760376
","x: 224.75953674316406
y: 532.364501953125
z: 0.15354326367378235
visibility: 0.9918323159217834
","x: 196.37046813964844
y: 537.9900512695312
z: 0.12887462973594666
visibility: 0.9909072518348694
","x: 222.07530212402344
y: 540.005615234375
z: 0.16631995141506195
visibility: 0.908169686794281
","x: 198.76083374023438
y: 548.01611328125
z: 0.1368623822927475
visibility: 0.8845999240875244
","x: 227.25320434570312
y: 559.9329833984375
z: 0.03529955819249153
visibility: 0.9892565011978149
","x: 195.59088134765625
y: 563.851318359375
z: -0.0035763136111199856
visibility: 0.9872826933860779
","x: 179.07980346679688
y: 230.21697998046875
z: 0.0
","x: 183.0648651123047
y: 228.450439453125
z: -0.001743944943882525
","x: 186.03623962402344
y: 222.56173706054688
z: -0.002735804533585906
","x: 187.40029907226562
y: 217.120849609375
z: -0.003912596497684717
","x: 188.29208374023438
y: 212.39944458007812
z: -0.005047860089689493
","x: 185.7358856201172
y: 213.40089416503906
z: -0.0009564457577653229
","x: 186.81544494628906
y: 206.0074005126953
z: -0.003238694742321968
","x: 187.3066864013672
y: 201.1219482421875
z: -0.004765890538692474
","x: 187.67381286621094
y: 197.04055786132812
z: -0.005646154284477234
","x: 183.7606201171875
y: 212.2921905517578
z: -0.0018524323822930455
","x: 184.57115173339844
y: 204.65664672851562
z: -0.003826114581897855
","x: 185.2447052001953
y: 199.46998596191406
z: -0.004988451953977346
","x: 185.83621215820312
y: 195.08746337890625
z: -0.005843845196068287
","x: 181.7412872314453
y: 212.68869018554688
z: -0.003237813012674451
","x: 182.2772674560547
y: 205.11724853515625
z: -0.005765496753156185
","x: 182.77037048339844
y: 200.16867065429688
z: -0.007095807231962681
","x: 183.25296020507812
y: 195.96630859375
z: -0.007856074720621109
","x: 179.61819458007812
y: 214.3916015625
z: -0.004887095186859369
","x: 179.5286102294922
y: 208.27102661132812
z: -0.007137153763324022
","x: 179.49124145507812
y: 204.25570678710938
z: -0.008090234361588955
","x: 179.62322998046875
y: 200.83778381347656
z: -0.008612385019659996
",,,,,,,,,,,,,,,,,,,,,
7,"x: 211.91102600097656
y: 235.7240447998047
z: -0.3704003691673279
visibility: 0.9999850988388062
","x: 212.70533752441406
y: 230.50296020507812
z: -0.34842056035995483
visibility: 0.9999434351921082
","x: 213.9828643798828
y: 231.66578674316406
z: -0.34838664531707764
visibility: 0.999937891960144
","x: 215.59657287597656
y: 232.72332763671875
z: -0.34838563203811646
visibility: 0.9999391436576843
","x: 208.80511474609375
y: 227.8773651123047
z: -0.3533436059951782
visibility: 0.9999392628669739
","x: 207.67794799804688
y: 227.46853637695312
z: -0.35343509912490845
visibility: 0.9999337196350098
","x: 206.30130004882812
y: 227.12359619140625
z: -0.35345029830932617
visibility: 0.9999271631240845
","x: 217.01690673828125
y: 238.14927673339844
z: -0.21268907189369202
visibility: 0.9999198913574219
","x: 203.62002563476562
y: 231.16270446777344
z: -0.24153468012809753
visibility: 0.9998905062675476
","x: 214.7156524658203
y: 245.1809539794922
z: -0.3206252455711365
visibility: 0.9999619126319885
","x: 209.0785675048828
y: 243.2144012451172
z: -0.330276757478714
visibility: 0.9999570250511169
","x: 228.34474182128906
y: 285.8361511230469
z: -0.10636838525533676
visibility: 0.9999259114265442
","x: 189.36598205566406
y: 264.817138671875
z: -0.19715601205825806
visibility: 0.9997876286506653
","x: 232.85464477539062
y: 339.442626953125
z: -0.07014631479978561
visibility: 0.9933586120605469
","x: 166.74945068359375
y: 222.1300048828125
z: -0.301298052072525
visibility: 0.9971818923950195
","x: 236.09861755371094
y: 387.0013732910156
z: -0.11860133707523346
visibility: 0.9843642711639404
","x: 181.51429748535156
y: 169.94668579101562
z: -0.37457168102264404
visibility: 0.9920194149017334
","x: 237.70285034179688
y: 401.852294921875
z: -0.1372150331735611
visibility: 0.9619266390800476
","x: 181.80091857910156
y: 159.12034606933594
z: -0.416759729385376
visibility: 0.9754230380058289
","x: 236.34640502929688
y: 402.8359680175781
z: -0.16897907853126526
visibility: 0.9640336036682129
","x: 183.9960479736328
y: 159.22805786132812
z: -0.40852752327919006
visibility: 0.9762641787528992
","x: 235.07339477539062
y: 397.478759765625
z: -0.1336258202791214
visibility: 0.9557608366012573
","x: 184.7157440185547
y: 162.15451049804688
z: -0.3773004114627838
visibility: 0.9700491428375244
","x: 220.18446350097656
y: 378.872314453125
z: 0.021588841453194618
visibility: 0.9992282390594482
","x: 198.5775604248047
y: 380.9331970214844
z: -0.021795932203531265
visibility: 0.9990053772926331
","x: 222.09808349609375
y: 459.74786376953125
z: 0.02796187624335289
visibility: 0.994173526763916
","x: 197.4357147216797
y: 465.79327392578125
z: -0.019663076847791672
visibility: 0.9915951490402222
","x: 224.32369995117188
y: 533.3065185546875
z: 0.19332370162010193
visibility: 0.9920920133590698
","x: 195.3090362548828
y: 537.986083984375
z: 0.1352536380290985
visibility: 0.9914626479148865
","x: 221.957275390625
y: 542.025146484375
z: 0.20326097309589386
visibility: 0.9136695265769958
","x: 197.1722412109375
y: 547.986083984375
z: 0.14345361292362213
visibility: 0.8890113234519958
","x: 227.3814697265625
y: 559.5990600585938
z: 0.07410690188407898
visibility: 0.9894929528236389
","x: 195.7152557373047
y: 563.8390502929688
z: 0.006574580911546946
visibility: 0.9880724549293518
",,,,,,,,,,,,,,,,,,,,,,,,,,,,,,,,,,,,,,,,,,
8,"x: 215.96575927734375
y: 234.68040466308594
z: -0.3669150471687317
visibility: 0.9999845027923584
","x: 217.0117950439453
y: 231.15719604492188
z: -0.3435647189617157
visibility: 0.9999462366104126
","x: 217.94522094726562
y: 232.16688537597656
z: -0.3435656428337097
visibility: 0.9999395608901978
","x: 219.12698364257812
y: 233.07981872558594
z: -0.3435218930244446
visibility: 0.9999416470527649
","x: 214.50137329101562
y: 229.15386962890625
z: -0.34802305698394775
visibility: 0.999940037727356
","x: 213.67877197265625
y: 228.9883270263672
z: -0.3481231927871704
visibility: 0.9999337196350098
","x: 212.56607055664062
y: 228.87925720214844
z: -0.3481767177581787
visibility: 0.9999281167984009
","x: 220.71014404296875
y: 239.94482421875
z: -0.21452262997627258
visibility: 0.9999169111251831
","x: 210.84483337402344
y: 232.76904296875
z: -0.23796169459819794
visibility: 0.9998931884765625
","x: 216.96377563476562
y: 244.0233612060547
z: -0.31963929533958435
visibility: 0.9999596476554871
","x: 213.1900634765625
y: 242.2130126953125
z: -0.326662540435791
visibility: 0.9999538064002991
","x: 229.97543334960938
y: 289.205810546875
z: -0.11113005876541138
visibility: 0.9998865723609924
","x: 192.00645446777344
y: 263.31103515625
z: -0.20030947029590607
visibility: 0.9997909069061279
","x: 233.74424743652344
y: 345.187255859375
z: -0.058113813400268555
visibility: 0.9928286075592041
","x: 179.09051513671875
y: 214.7635498046875
z: -0.2545669376850128
visibility: 0.9974342584609985
","x: 237.8062744140625
y: 393.7378234863281
z: -0.07458730787038803
visibility: 0.9834589958190918
","x: 180.14248657226562
y: 157.91714477539062
z: -0.26253825426101685
visibility: 0.9926995038986206
","x: 240.16165161132812
y: 407.4970703125
z: -0.0845838412642479
visibility: 0.9602818489074707
","x: 177.09844970703125
y: 147.48629760742188
z: -0.2948443591594696
visibility: 0.9773845672607422
","x: 238.84463500976562
y: 408.06036376953125
z: -0.11791064590215683
visibility: 0.9631062746047974
","x: 178.19517517089844
y: 146.79669189453125
z: -0.2928324341773987
visibility: 0.9781121015548706
","x: 237.1710205078125
y: 403.2539367675781
z: -0.08981075882911682
visibility: 0.9559215307235718
","x: 179.568359375
y: 149.8857421875
z: -0.26732391119003296
visibility: 0.9725966453552246
","x: 220.76919555664062
y: 379.8861389160156
z: 0.02527664043009281
visibility: 0.9992935061454773
","x: 199.14999389648438
y: 380.79266357421875
z: -0.025478247553110123
visibility: 0.9990988373756409
","x: 222.15390014648438
y: 459.8013610839844
z: 0.047757625579833984
visibility: 0.9944627285003662
","x: 197.3101806640625
y: 465.3194580078125
z: -0.014249647967517376
visibility: 0.9923684597015381
","x: 223.12420654296875
y: 535.6676635742188
z: 0.19336912035942078
visibility: 0.9926629066467285
","x: 194.9617462158203
y: 538.5433349609375
z: 0.13052856922149658
visibility: 0.992242693901062
","x: 220.47909545898438
y: 545.3733520507812
z: 0.20151829719543457
visibility: 0.9215711951255798
","x: 196.9164276123047
y: 548.4560546875
z: 0.13768357038497925
visibility: 0.898593544960022
","x: 228.57138061523438
y: 559.5447387695312
z: 0.0828474685549736
visibility: 0.9902461171150208
","x: 195.68743896484375
y: 563.4386596679688
z: 0.006186583545058966
visibility: 0.9891677498817444
",,,,,,,,,,,,,,,,,,,,,,,,,,,,,,,,,,,,,,,,,,
9,"x: 220.88113403320312
y: 239.0240478515625
z: -0.3072866201400757
visibility: 0.9999850392341614
","x: 223.3630828857422
y: 235.92236328125
z: -0.29107803106307983
visibility: 0.9999500513076782
","x: 224.6733856201172
y: 237.28146362304688
z: -0.29100391268730164
visibility: 0.9999438524246216
","x: 225.7687225341797
y: 238.5703125
z: -0.2910885810852051
visibility: 0.9999459981918335
","x: 219.28211975097656
y: 232.72796630859375
z: -0.2956133782863617
visibility: 0.9999427199363708
","x: 217.8162384033203
y: 231.98843383789062
z: -0.29566746950149536
visibility: 0.9999362230300903
","x: 216.4746551513672
y: 231.20901489257812
z: -0.2955690622329712
visibility: 0.9999310374259949
","x: 226.71170043945312
y: 244.5819091796875
z: -0.17937947809696198
visibility: 0.999921977519989
","x: 214.16905212402344
y: 232.93643188476562
z: -0.2102888524532318
visibility: 0.9998996257781982
","x: 222.26156616210938
y: 248.62586975097656
z: -0.2654971182346344
visibility: 0.9999613165855408
","x: 217.2454071044922
y: 244.85572814941406
z: -0.273924320936203
visibility: 0.9999554753303528
","x: 230.42916870117188
y: 290.6322021484375
z: -0.07463144510984421
visibility: 0.9998842477798462
","x: 194.83909606933594
y: 264.98931884765625
z: -0.09093357622623444
visibility: 0.9997686743736267
","x: 234.06993103027344
y: 338.45172119140625
z: 0.0874205231666565
visibility: 0.988055408000946
","x: 177.95172119140625
y: 236.69036865234375
z: 0.07074015587568283
visibility: 0.9964178800582886
","x: 235.9132843017578
y: 371.5404052734375
z: 0.17175278067588806
visibility: 0.9713647365570068
","x: 175.78176879882812
y: 251.9644317626953
z: 0.21463342010974884
visibility: 0.9592991471290588
","x: 238.78421020507812
y: 382.7856140136719
z: 0.1809692531824112
visibility: 0.9332493543624878
","x: 172.58763122558594
y: 255.8616485595703
z: 0.22913026809692383
visibility: 0.9144939184188843
","x: 237.57508850097656
y: 381.1597900390625
z: 0.14516612887382507
visibility: 0.9383348822593689
","x: 174.20062255859375
y: 261.5045471191406
z: 0.21684333682060242
visibility: 0.915120542049408
","x: 235.62828063964844
y: 377.598388671875
z: 0.15973703563213348
visibility: 0.9290673732757568
","x: 175.18194580078125
y: 261.0546875
z: 0.21118906140327454
visibility: 0.915505051612854
","x: 221.25477600097656
y: 381.9229736328125
z: 0.017936455085873604
visibility: 0.9993365406990051
","x: 199.0990447998047
y: 380.7648010253906
z: -0.0180501826107502
visibility: 0.9991616606712341
","x: 222.22030639648438
y: 460.5657653808594
z: 0.04247955232858658
visibility: 0.9943106770515442
","x: 195.9980010986328
y: 464.8636169433594
z: -0.03899814933538437
visibility: 0.9926074743270874
","x: 222.23309326171875
y: 536.5064697265625
z: 0.1758420765399933
visibility: 0.9927183985710144
","x: 193.1169891357422
y: 538.0369262695312
z: 0.12444818019866943
visibility: 0.9923242926597595
","x: 219.01431274414062
y: 545.810302734375
z: 0.18730013072490692
visibility: 0.9248012900352478
","x: 193.6473846435547
y: 546.66064453125
z: 0.13661536574363708
visibility: 0.8945947885513306
","x: 228.52096557617188
y: 559.9628295898438
z: 0.0572342686355114
visibility: 0.9903309345245361
","x: 196.61090087890625
y: 563.2733154296875
z: 0.0067378683015704155
visibility: 0.9893996119499207
",,,,,,,,,,,,,,,,,,,,,,,,,,,,,,,,,,,,,,,,,,
10,"x: 213.5716552734375
y: 235.59719848632812
z: -0.24087531864643097
visibility: 0.9999862313270569
","x: 216.39564514160156
y: 229.47100830078125
z: -0.222214013338089
visibility: 0.99995356798172
","x: 217.8266143798828
y: 230.188720703125
z: -0.22218790650367737
visibility: 0.9999481439590454
","x: 219.0116729736328
y: 230.9871063232422
z: -0.2221871316432953
visibility: 0.9999497532844543
","x: 212.36553955078125
y: 228.36228942871094
z: -0.22394195199012756
visibility: 0.999947190284729
","x: 210.87835693359375
y: 228.2249755859375
z: -0.22391554713249207
visibility: 0.999941349029541
","x: 209.64031982421875
y: 228.03518676757812
z: -0.22390083968639374
visibility: 0.9999364614486694
","x: 221.37379455566406
y: 235.8846893310547
z: -0.10640637576580048
visibility: 0.9999250769615173
","x: 207.73370361328125
y: 231.4508056640625
z: -0.1168612390756607
visibility: 0.9999085068702698
","x: 216.249267578125
y: 244.1389617919922
z: -0.19778510928153992
visibility: 0.9999644756317139
","x: 210.6264190673828
y: 242.8741455078125
z: -0.2008453607559204
visibility: 0.9999595284461975
","x: 231.00474548339844
y: 280.3868408203125
z: -0.028004687279462814
visibility: 0.9998939037322998
","x: 192.48004150390625
y: 266.00225830078125
z: -0.03730389103293419
visibility: 0.9997903108596802
","x: 250.93280029296875
y: 307.74847412109375
z: -0.10138227045536041
visibility: 0.9891371726989746
","x: 176.80474853515625
y: 309.2982177734375
z: -0.0010258000111207366
visibility: 0.9964297413825989
","x: 246.79441833496094
y: 260.5924377441406
z: -0.31575241684913635
visibility: 0.9740611910820007
","x: 176.13438415527344
y: 360.6539611816406
z: -0.06557495146989822
visibility: 0.9623715281486511
","x: 247.88694763183594
y: 245.39781188964844
z: -0.3608182668685913
visibility: 0.939062774181366
","x: 172.65185546875
y: 375.201904296875
z: -0.08329597860574722
visibility: 0.9196105003356934
","x: 239.8583526611328
y: 243.64410400390625
z: -0.36004745960235596
visibility: 0.943668782711029
","x: 175.30052185058594
y: 376.410888671875
z: -0.10307268053293228
visibility: 0.9202591180801392
","x: 239.45751953125
y: 248.51829528808594
z: -0.3217514157295227
visibility: 0.9349457621574402
","x: 177.3152313232422
y: 371.39111328125
z: -0.07403791695833206
visibility: 0.9196216464042664
","x: 221.76620483398438
y: 378.3424072265625
z: 0.016186881810426712
visibility: 0.9993818402290344
","x: 199.62574768066406
y: 377.17547607421875
z: -0.016241952776908875
visibility: 0.9992274641990662
","x: 222.42160034179688
y: 460.1376953125
z: 0.011792701669037342
visibility: 0.9937235713005066
","x: 196.82899475097656
y: 463.75341796875
z: -0.03158048540353775
visibility: 0.9927321076393127
","x: 222.4490203857422
y: 536.4800415039062
z: 0.14840564131736755
visibility: 0.9924932718276978
","x: 193.6743927001953
y: 537.7234497070312
z: 0.12335612624883652
visibility: 0.9922536611557007
","x: 219.4873809814453
y: 545.8197631835938
z: 0.15721620619297028
visibility: 0.926486611366272
","x: 193.99334716796875
y: 546.5056762695312
z: 0.1343017816543579
visibility: 0.8900389671325684
","x: 228.50930786132812
y: 559.7643432617188
z: 0.03231050446629524
visibility: 0.9901304244995117
","x: 197.1467742919922
y: 563.2095947265625
z: 0.0034537040628492832
visibility: 0.9890686869621277
",,,,,,,,,,,,,,,,,,,,,,,,,,,,,,,,,,,,,,,,,,
11,"x: 204.55685424804688
y: 236.20327758789062
z: -0.24830445647239685
visibility: 0.9999839663505554
","x: 205.8109130859375
y: 229.66888427734375
z: -0.2323613166809082
visibility: 0.9999282956123352
","x: 207.06253051757812
y: 230.78387451171875
z: -0.2323712557554245
visibility: 0.999931812286377
","x: 208.4308319091797
y: 231.67703247070312
z: -0.23237387835979462
visibility: 0.9999271035194397
","x: 202.60894775390625
y: 230.12474060058594
z: -0.22989478707313538
visibility: 0.999934196472168
","x: 201.4705810546875
y: 230.71035766601562
z: -0.2298908233642578
visibility: 0.9999321103096008
","x: 200.34677124023438
y: 231.30796813964844
z: -0.22988930344581604
visibility: 0.9999232888221741
","x: 211.84132385253906
y: 236.51930236816406
z: -0.13381145894527435
visibility: 0.9998809099197388
","x: 199.80203247070312
y: 236.76683044433594
z: -0.12318599224090576
visibility: 0.9998968243598938
","x: 208.20559692382812
y: 244.5584716796875
z: -0.2122718095779419
visibility: 0.9999497532844543
","x: 203.05307006835938
y: 244.17356872558594
z: -0.20902971923351288
visibility: 0.9999496936798096
","x: 228.89341735839844
y: 275.7442626953125
z: -0.04817267507314682
visibility: 0.9998950362205505
","x: 189.57366943359375
y: 285.4864196777344
z: -0.04889180511236191
visibility: 0.9997968077659607
","x: 254.9209442138672
y: 262.0513610839844
z: -0.1482546478509903
visibility: 0.9901363253593445
","x: 184.16485595703125
y: 341.1669921875
z: 0.018801849335432053
visibility: 0.9937137365341187
","x: 261.88970947265625
y: 216.6850128173828
z: -0.2893435060977936
visibility: 0.9763546586036682
","x: 181.18167114257812
y: 387.0152587890625
z: -0.01693199761211872
visibility: 0.9596239328384399
","x: 267.4767761230469
y: 206.3068389892578
z: -0.3246876299381256
visibility: 0.9436265230178833
","x: 177.27691650390625
y: 401.03692626953125
z: -0.02707325853407383
visibility: 0.9137457013130188
","x: 265.36083984375
y: 204.78607177734375
z: -0.3363892436027527
visibility: 0.9478452801704407
","x: 178.22854614257812
y: 401.4688720703125
z: -0.053333837538957596
visibility: 0.9153375029563904
","x: 263.22796630859375
y: 208.16641235351562
z: -0.30048397183418274
visibility: 0.9398870468139648
","x: 180.10025024414062
y: 397.26458740234375
z: -0.02810252644121647
visibility: 0.9128598570823669
","x: 222.06494140625
y: 379.185791015625
z: -0.0032404332887381315
visibility: 0.9994101524353027
","x: 199.76608276367188
y: 380.7436828613281
z: 0.0032439976930618286
visibility: 0.9992770552635193
","x: 222.69534301757812
y: 461.4037780761719
z: -0.01690717227756977
visibility: 0.9936354756355286
","x: 197.36558532714844
y: 465.9148864746094
z: -0.005351531319320202
visibility: 0.9929822087287903
","x: 222.70870971679688
y: 536.4581298828125
z: 0.12377844750881195
visibility: 0.9924010634422302
","x: 194.52801513671875
y: 539.6953735351562
z: 0.13688340783119202
visibility: 0.9921914339065552
","x: 219.802001953125
y: 545.766357421875
z: 0.13213567435741425
visibility: 0.9269909858703613
","x: 195.392578125
y: 548.3704223632812
z: 0.14386937022209167
visibility: 0.8877994418144226
","x: 228.13067626953125
y: 559.6591796875
z: 0.008366246707737446
visibility: 0.9901494383811951
","x: 197.12644958496094
y: 564.2154541015625
z: 0.020961854606866837
visibility: 0.9887388944625854
",,,,,,,,,,,,,,,,,,,,,,,,,,,,,,,,,,,,,,,,,,
12,"x: 203.76654052734375
y: 239.28709411621094
z: -0.25727757811546326
visibility: 0.9999845623970032
","x: 205.47921752929688
y: 232.2086181640625
z: -0.23973242938518524
visibility: 0.9999322891235352
","x: 206.99990844726562
y: 232.361572265625
z: -0.23973457515239716
visibility: 0.9999355673789978
","x: 208.46798706054688
y: 232.52786254882812
z: -0.23976345360279083
visibility: 0.9999311566352844
","x: 201.43283081054688
y: 234.10531616210938
z: -0.23975114524364471
visibility: 0.9999374747276306
","x: 200.21224975585938
y: 234.9669647216797
z: -0.23977485299110413
visibility: 0.9999358057975769
","x: 198.93360900878906
y: 235.84703063964844
z: -0.23972627520561218
visibility: 0.9999275207519531
","x: 211.1207275390625
y: 236.94619750976562
z: -0.13418512046337128
visibility: 0.9998878836631775
","x: 197.91542053222656
y: 240.97219848632812
z: -0.13327613472938538
visibility: 0.9999000430107117
","x: 207.28892517089844
y: 246.0777587890625
z: -0.21849563717842102
visibility: 0.9999527931213379
","x: 201.6129913330078
y: 248.31195068359375
z: -0.21827414631843567
visibility: 0.9999518394470215
","x: 226.05625915527344
y: 276.7750244140625
z: -0.0657578855752945
visibility: 0.9998983144760132
","x: 188.4993896484375
y: 287.20513916015625
z: -0.07090891897678375
visibility: 0.9997889995574951
","x: 253.3119354248047
y: 283.21087646484375
z: -0.193194180727005
visibility: 0.9908064603805542
","x: 183.4872589111328
y: 339.46832275390625
z: -0.1547161340713501
visibility: 0.993489146232605
","x: 255.15780639648438
y: 264.80255126953125
z: -0.39914068579673767
visibility: 0.9780874252319336
","x: 173.63204956054688
y: 324.00677490234375
z: -0.38130757212638855
visibility: 0.963209331035614
","x: 256.1034240722656
y: 262.46905517578125
z: -0.4447549283504486
visibility: 0.9470930099487305
","x: 164.9818878173828
y: 322.3650817871094
z: -0.4274429678916931
visibility: 0.9213191270828247
","x: 251.7267608642578
y: 261.5245666503906
z: -0.4469655454158783
visibility: 0.9509531855583191
","x: 164.82888793945312
y: 322.9794921875
z: -0.4380282759666443
visibility: 0.9228154420852661
","x: 251.39939880371094
y: 262.7169189453125
z: -0.4059709906578064
visibility: 0.9433844089508057
","x: 167.12867736816406
y: 321.181884765625
z: -0.39184969663619995
visibility: 0.9201867580413818
","x: 222.0851593017578
y: 379.4354248046875
z: -0.0012513211695477366
visibility: 0.9994475245475769
","x: 199.89219665527344
y: 382.19366455078125
z: 0.0011978488182649016
visibility: 0.9993129372596741
","x: 224.6354217529297
y: 463.5252380371094
z: -0.035426147282123566
visibility: 0.9938002228736877
","x: 197.5874786376953
y: 466.71636962890625
z: -0.005689216777682304
visibility: 0.9931191802024841
","x: 222.9385986328125
y: 535.1226196289062
z: 0.13833649456501007
visibility: 0.992384135723114
","x: 195.06533813476562
y: 538.9038696289062
z: 0.14551110565662384
visibility: 0.9922621846199036
","x: 220.0035400390625
y: 542.1954345703125
z: 0.15305514633655548
visibility: 0.9248727560043335
","x: 196.01473999023438
y: 546.04345703125
z: 0.155175119638443
visibility: 0.8830685019493103
","x: 228.1106414794922
y: 562.1964721679688
z: 0.04077620059251785
visibility: 0.990227460861206
","x: 197.3340606689453
y: 565.8851318359375
z: 0.040495939552783966
visibility: 0.9887101650238037
",,,,,,,,,,,,,,,,,,,,,,,,,,,,,,,,,,,,,,,,,,
13,"x: 207.12371826171875
y: 239.26919555664062
z: -0.26154229044914246
visibility: 0.9999852776527405
","x: 208.9740753173828
y: 232.24063110351562
z: -0.23904287815093994
visibility: 0.9999375343322754
","x: 210.31893920898438
y: 232.40614318847656
z: -0.23904231190681458
visibility: 0.9999399781227112
","x: 211.65890502929688
y: 232.61474609375
z: -0.23906210064888
visibility: 0.9999362230300903
","x: 205.05006408691406
y: 233.8372039794922
z: -0.24139516055583954
visibility: 0.9999419450759888
","x: 203.70755004882812
y: 234.6788787841797
z: -0.24142403900623322
visibility: 0.9999402761459351
","x: 202.29290771484375
y: 235.61441040039062
z: -0.24137254059314728
visibility: 0.9999329447746277
","x: 213.7083740234375
y: 237.13861083984375
z: -0.11600016057491302
visibility: 0.9998959302902222
","x: 200.02024841308594
y: 240.94577026367188
z: -0.12860643863677979
visibility: 0.9999061226844788
","x: 210.1556396484375
y: 246.2124786376953
z: -0.21713308990001678
visibility: 0.9999561309814453
","x: 204.7357635498047
y: 248.40570068359375
z: -0.22065500915050507
visibility: 0.9999552369117737
","x: 227.07513427734375
y: 277.6624755859375
z: -0.051676589995622635
visibility: 0.9999058842658997
","x: 187.61268615722656
y: 285.7558898925781
z: -0.06498286128044128
visibility: 0.9997862577438354
","x: 247.09677124023438
y: 306.58258056640625
z: -0.14217570424079895
visibility: 0.9912770986557007
","x: 162.76124572753906
y: 296.6753845214844
z: -0.1848706603050232
visibility: 0.9940904974937439
","x: 248.3054656982422
y: 333.07452392578125
z: -0.2792609632015228
visibility: 0.979646623134613
","x: 165.90570068359375
y: 241.357177734375
z: -0.37813860177993774
visibility: 0.9666538834571838
","x: 248.85598754882812
y: 348.03399658203125
z: -0.3189868628978729
visibility: 0.9502201080322266
","x: 164.62986755371094
y: 233.6831817626953
z: -0.426094114780426
visibility: 0.9279176592826843
","x: 245.11502075195312
y: 345.7397766113281
z: -0.33804911375045776
visibility: 0.9538906812667847
","x: 166.00999450683594
y: 231.66329956054688
z: -0.42325344681739807
visibility: 0.9291475415229797
","x: 243.9755859375
y: 341.66680908203125
z: -0.29100364446640015
visibility: 0.9462363719940186
","x: 167.6400146484375
y: 234.53329467773438
z: -0.3828476667404175
visibility: 0.9261698126792908
","x: 222.49508666992188
y: 379.4642333984375
z: -0.0008014956256374717
visibility: 0.9994944334030151
","x: 199.98965454101562
y: 383.544189453125
z: 0.000770862796343863
visibility: 0.9993709325790405
","x: 226.04351806640625
y: 462.31573486328125
z: -0.03846358135342598
visibility: 0.9941609501838684
","x: 197.78421020507812
y: 466.3948059082031
z: -0.016892757266759872
visibility: 0.9934837222099304
","x: 223.69442749023438
y: 534.5389404296875
z: 0.13739441335201263
visibility: 0.9927692413330078
","x: 195.05072021484375
y: 538.79052734375
z: 0.13219067454338074
visibility: 0.9925792217254639
","x: 220.61935424804688
y: 541.7022705078125
z: 0.15032994747161865
visibility: 0.9270886778831482
","x: 196.33148193359375
y: 545.9734497070312
z: 0.14044038951396942
visibility: 0.8821117877960205
","x: 228.09120178222656
y: 562.1415405273438
z: 0.026589691638946533
visibility: 0.9906628727912903
","x: 196.89739990234375
y: 565.681396484375
z: 0.00953718088567257
visibility: 0.9891600012779236
","x: 166.59292602539062
y: 229.6048583984375
z: 0.0
","x: 163.5420684814453
y: 229.42953491210938
z: -0.004936101846396923
","x: 160.78013610839844
y: 230.37802124023438
z: -0.010195610113441944
","x: 160.1758575439453
y: 232.901123046875
z: -0.0149780148640275
","x: 161.13345336914062
y: 235.35462951660156
z: -0.019281571730971336
","x: 161.22984313964844
y: 219.15252685546875
z: -0.01207574363797903
","x: 162.08506774902344
y: 227.8890380859375
z: -0.01739548332989216
","x: 162.40817260742188
y: 231.44253540039062
z: -0.019361106678843498
","x: 162.27659606933594
y: 230.27687072753906
z: -0.02042693831026554
","x: 164.72879028320312
y: 217.7561798095703
z: -0.012876846827566624
","x: 165.3173065185547
y: 228.4276123046875
z: -0.017804548144340515
","x: 165.30055236816406
y: 231.3019561767578
z: -0.01667875237762928
","x: 164.84971618652344
y: 229.3829345703125
z: -0.016099486500024796
","x: 168.01486206054688
y: 218.85374450683594
z: -0.013731888495385647
","x: 168.23468017578125
y: 228.79876708984375
z: -0.016635537147521973
","x: 167.91712951660156
y: 230.99749755859375
z: -0.014162331819534302
","x: 167.28089904785156
y: 228.9952392578125
z: -0.012795735150575638
","x: 170.8450164794922
y: 221.02059936523438
z: -0.015212411992251873
","x: 170.8305206298828
y: 229.26889038085938
z: -0.015977855771780014
","x: 170.25363159179688
y: 231.21142578125
z: -0.01463247649371624
","x: 169.59976196289062
y: 229.54605102539062
z: -0.013949830085039139
",,,,,,,,,,,,,,,,,,,,,
14,"x: 207.12371826171875
y: 239.26919555664062
z: -0.26154229044914246
visibility: 0.9999852776527405
","x: 208.9740753173828
y: 232.24063110351562
z: -0.23904287815093994
visibility: 0.9999375343322754
","x: 210.31893920898438
y: 232.40614318847656
z: -0.23904231190681458
visibility: 0.9999399781227112
","x: 211.65890502929688
y: 232.61474609375
z: -0.23906210064888
visibility: 0.9999362230300903
","x: 205.05006408691406
y: 233.8372039794922
z: -0.24139516055583954
visibility: 0.9999419450759888
","x: 203.70755004882812
y: 234.6788787841797
z: -0.24142403900623322
visibility: 0.9999402761459351
","x: 202.29290771484375
y: 235.61441040039062
z: -0.24137254059314728
visibility: 0.9999329447746277
","x: 213.7083740234375
y: 237.13861083984375
z: -0.11600016057491302
visibility: 0.9998959302902222
","x: 200.02024841308594
y: 240.94577026367188
z: -0.12860643863677979
visibility: 0.9999061226844788
","x: 210.1556396484375
y: 246.2124786376953
z: -0.21713308990001678
visibility: 0.9999561309814453
","x: 204.7357635498047
y: 248.40570068359375
z: -0.22065500915050507
visibility: 0.9999552369117737
","x: 227.07513427734375
y: 277.6624755859375
z: -0.051676589995622635
visibility: 0.9999058842658997
","x: 187.61268615722656
y: 285.7558898925781
z: -0.06498286128044128
visibility: 0.9997862577438354
","x: 247.09677124023438
y: 306.58258056640625
z: -0.14217570424079895
visibility: 0.9912770986557007
","x: 162.76124572753906
y: 296.6753845214844
z: -0.1848706603050232
visibility: 0.9940904974937439
","x: 248.3054656982422
y: 333.07452392578125
z: -0.2792609632015228
visibility: 0.979646623134613
","x: 165.90570068359375
y: 241.357177734375
z: -0.37813860177993774
visibility: 0.9666538834571838
","x: 248.85598754882812
y: 348.03399658203125
z: -0.3189868628978729
visibility: 0.9502201080322266
","x: 164.62986755371094
y: 233.6831817626953
z: -0.426094114780426
visibility: 0.9279176592826843
","x: 245.11502075195312
y: 345.7397766113281
z: -0.33804911375045776
visibility: 0.9538906812667847
","x: 166.00999450683594
y: 231.66329956054688
z: -0.42325344681739807
visibility: 0.9291475415229797
","x: 243.9755859375
y: 341.66680908203125
z: -0.29100364446640015
visibility: 0.9462363719940186
","x: 167.6400146484375
y: 234.53329467773438
z: -0.3828476667404175
visibility: 0.9261698126792908
","x: 222.49508666992188
y: 379.4642333984375
z: -0.0008014956256374717
visibility: 0.9994944334030151
","x: 199.98965454101562
y: 383.544189453125
z: 0.000770862796343863
visibility: 0.9993709325790405
","x: 226.04351806640625
y: 462.31573486328125
z: -0.03846358135342598
visibility: 0.9941609501838684
","x: 197.78421020507812
y: 466.3948059082031
z: -0.016892757266759872
visibility: 0.9934837222099304
","x: 223.69442749023438
y: 534.5389404296875
z: 0.13739441335201263
visibility: 0.9927692413330078
","x: 195.05072021484375
y: 538.79052734375
z: 0.13219067454338074
visibility: 0.9925792217254639
","x: 220.61935424804688
y: 541.7022705078125
z: 0.15032994747161865
visibility: 0.9270886778831482
","x: 196.33148193359375
y: 545.9734497070312
z: 0.14044038951396942
visibility: 0.8821117877960205
","x: 228.09120178222656
y: 562.1415405273438
z: 0.026589691638946533
visibility: 0.9906628727912903
","x: 196.89739990234375
y: 565.681396484375
z: 0.00953718088567257
visibility: 0.9891600012779236
","x: 166.59292602539062
y: 229.6048583984375
z: 0.0
","x: 163.5420684814453
y: 229.42953491210938
z: -0.004936101846396923
","x: 160.78013610839844
y: 230.37802124023438
z: -0.010195610113441944
","x: 160.1758575439453
y: 232.901123046875
z: -0.0149780148640275
","x: 161.13345336914062
y: 235.35462951660156
z: -0.019281571730971336
","x: 161.22984313964844
y: 219.15252685546875
z: -0.01207574363797903
","x: 162.08506774902344
y: 227.8890380859375
z: -0.01739548332989216
","x: 162.40817260742188
y: 231.44253540039062
z: -0.019361106678843498
","x: 162.27659606933594
y: 230.27687072753906
z: -0.02042693831026554
","x: 164.72879028320312
y: 217.7561798095703
z: -0.012876846827566624
","x: 165.3173065185547
y: 228.4276123046875
z: -0.017804548144340515
","x: 165.30055236816406
y: 231.3019561767578
z: -0.01667875237762928
","x: 164.84971618652344
y: 229.3829345703125
z: -0.016099486500024796
","x: 168.01486206054688
y: 218.85374450683594
z: -0.013731888495385647
","x: 168.23468017578125
y: 228.79876708984375
z: -0.016635537147521973
","x: 167.91712951660156
y: 230.99749755859375
z: -0.014162331819534302
","x: 167.28089904785156
y: 228.9952392578125
z: -0.012795735150575638
","x: 170.8450164794922
y: 221.02059936523438
z: -0.015212411992251873
","x: 170.8305206298828
y: 229.26889038085938
z: -0.015977855771780014
","x: 170.25363159179688
y: 231.21142578125
z: -0.01463247649371624
","x: 169.59976196289062
y: 229.54605102539062
z: -0.013949830085039139
",,,,,,,,,,,,,,,,,,,,,
15,"x: 213.82431030273438
y: 239.25747680664062
z: -0.3725437819957733
visibility: 0.9999861121177673
","x: 215.66627502441406
y: 232.52587890625
z: -0.3493441641330719
visibility: 0.9999427199363708
","x: 216.99168395996094
y: 232.88189697265625
z: -0.3493536114692688
visibility: 0.9999444484710693
","x: 218.27456665039062
y: 233.3128662109375
z: -0.34934478998184204
visibility: 0.9999410510063171
","x: 211.39837646484375
y: 233.65472412109375
z: -0.3553657531738281
visibility: 0.9999459385871887
","x: 209.95068359375
y: 234.03799438476562
z: -0.3554605543613434
visibility: 0.9999440908432007
","x: 208.3293914794922
y: 234.31175231933594
z: -0.3554624021053314
visibility: 0.9999372363090515
","x: 218.4759063720703
y: 238.00332641601562
z: -0.21664853394031525
visibility: 0.9999017715454102
","x: 205.1004180908203
y: 238.72979736328125
z: -0.247470885515213
visibility: 0.9999116063117981
","x: 215.26092529296875
y: 246.23146057128906
z: -0.32284262776374817
visibility: 0.9999573826789856
","x: 210.1479034423828
y: 247.92782592773438
z: -0.3317621648311615
visibility: 0.9999556541442871
","x: 227.78656005859375
y: 284.00506591796875
z: -0.11075469106435776
visibility: 0.9998875856399536
","x: 188.0805206298828
y: 269.6484680175781
z: -0.179314985871315
visibility: 0.999784529209137
","x: 234.70291137695312
y: 339.20391845703125
z: -0.06498032808303833
visibility: 0.9906595349311829
","x: 167.65179443359375
y: 231.380859375
z: -0.1952417939901352
visibility: 0.9946048855781555
","x: 238.21212768554688
y: 384.99090576171875
z: -0.11059395968914032
visibility: 0.9792279005050659
","x: 156.2771453857422
y: 186.1328887939453
z: -0.26176056265830994
visibility: 0.9698413610458374
","x: 241.30677795410156
y: 398.6861572265625
z: -0.12264128774404526
visibility: 0.9493834972381592
","x: 152.08103942871094
y: 174.41458129882812
z: -0.2929815649986267
visibility: 0.9346490502357483
","x: 240.32151794433594
y: 399.31591796875
z: -0.15734082460403442
visibility: 0.9537442326545715
","x: 151.93214416503906
y: 171.90773010253906
z: -0.3064294755458832
visibility: 0.935782253742218
","x: 238.20982360839844
y: 394.8135681152344
z: -0.12650887668132782
visibility: 0.9469870328903198
","x: 153.32339477539062
y: 176.61859130859375
z: -0.27154919505119324
visibility: 0.9331381320953369
","x: 221.78631591796875
y: 379.3929443359375
z: 0.01534569077193737
visibility: 0.9995294809341431
","x: 199.93710327148438
y: 382.4978942871094
z: -0.015534493140876293
visibility: 0.9994237422943115
","x: 224.1935577392578
y: 459.9804382324219
z: 0.01837286166846752
visibility: 0.99442058801651
","x: 197.57220458984375
y: 463.77728271484375
z: -0.018423354253172874
visibility: 0.994005560874939
","x: 223.72894287109375
y: 534.9736328125
z: 0.1568860113620758
visibility: 0.9932471513748169
","x: 194.94224548339844
y: 538.733642578125
z: 0.10777567327022552
visibility: 0.9931871294975281
","x: 220.64479064941406
y: 543.7626342773438
z: 0.16494128108024597
visibility: 0.9328435063362122
","x: 196.53515625
y: 546.0123901367188
z: 0.11282779276371002
visibility: 0.8907291889190674
","x: 228.3083953857422
y: 560.5817260742188
z: 0.047003839164972305
visibility: 0.9912362694740295
","x: 196.57989501953125
y: 565.3502807617188
z: -0.016223786398768425
visibility: 0.9900453686714172
","x: 156.09686279296875
y: 183.72552490234375
z: 0.0
","x: 153.87994384765625
y: 176.172119140625
z: 0.0025147765409201384
","x: 151.3970947265625
y: 168.90298461914062
z: 0.0022408668883144855
","x: 149.5452423095703
y: 163.76272583007812
z: 0.0010347110219299793
","x: 148.3918914794922
y: 159.90704345703125
z: -3.316479342174716e-05
","x: 151.33291625976562
y: 167.65272521972656
z: 0.0011396640911698341
","x: 149.86117553710938
y: 161.28553771972656
z: -0.0007627276936545968
","x: 149.40447998046875
y: 157.86679077148438
z: -0.0017377728363499045
","x: 149.57281494140625
y: 155.3332977294922
z: -0.002381672151386738
","x: 151.16859436035156
y: 169.4921112060547
z: -0.001844711834564805
","x: 148.32720947265625
y: 163.778076171875
z: -0.003824727376922965
","x: 147.2819366455078
y: 161.03070068359375
z: -0.004528572782874107
","x: 147.25680541992188
y: 159.21266174316406
z: -0.005057481117546558
","x: 150.71322631835938
y: 172.77847290039062
z: -0.004830542951822281
","x: 147.65673828125
y: 168.18386840820312
z: -0.0067018913105130196
","x: 146.323974609375
y: 165.97669982910156
z: -0.007061688229441643
","x: 146.0129852294922
y: 164.12437438964844
z: -0.007421533577144146
","x: 150.1978759765625
y: 177.31396484375
z: -0.007707460783421993
","x: 147.2568817138672
y: 175.7047882080078
z: -0.00920921005308628
","x: 145.86277770996094
y: 174.85110473632812
z: -0.009522411972284317
","x: 145.12838745117188
y: 174.1226348876953
z: -0.009807798080146313
",,,,,,,,,,,,,,,,,,,,,
16,"x: 213.82431030273438
y: 239.25747680664062
z: -0.3725437819957733
visibility: 0.9999861121177673
","x: 215.66627502441406
y: 232.52587890625
z: -0.3493441641330719
visibility: 0.9999427199363708
","x: 216.99168395996094
y: 232.88189697265625
z: -0.3493536114692688
visibility: 0.9999444484710693
","x: 218.27456665039062
y: 233.3128662109375
z: -0.34934478998184204
visibility: 0.9999410510063171
","x: 211.39837646484375
y: 233.65472412109375
z: -0.3553657531738281
visibility: 0.9999459385871887
","x: 209.95068359375
y: 234.03799438476562
z: -0.3554605543613434
visibility: 0.9999440908432007
","x: 208.3293914794922
y: 234.31175231933594
z: -0.3554624021053314
visibility: 0.9999372363090515
","x: 218.4759063720703
y: 238.00332641601562
z: -0.21664853394031525
visibility: 0.9999017715454102
","x: 205.1004180908203
y: 238.72979736328125
z: -0.247470885515213
visibility: 0.9999116063117981
","x: 215.26092529296875
y: 246.23146057128906
z: -0.32284262776374817
visibility: 0.9999573826789856
","x: 210.1479034423828
y: 247.92782592773438
z: -0.3317621648311615
visibility: 0.9999556541442871
","x: 227.78656005859375
y: 284.00506591796875
z: -0.11075469106435776
visibility: 0.9998875856399536
","x: 188.0805206298828
y: 269.6484680175781
z: -0.179314985871315
visibility: 0.999784529209137
","x: 234.70291137695312
y: 339.20391845703125
z: -0.06498032808303833
visibility: 0.9906595349311829
","x: 167.65179443359375
y: 231.380859375
z: -0.1952417939901352
visibility: 0.9946048855781555
","x: 238.21212768554688
y: 384.99090576171875
z: -0.11059395968914032
visibility: 0.9792279005050659
","x: 156.2771453857422
y: 186.1328887939453
z: -0.26176056265830994
visibility: 0.9698413610458374
","x: 241.30677795410156
y: 398.6861572265625
z: -0.12264128774404526
visibility: 0.9493834972381592
","x: 152.08103942871094
y: 174.41458129882812
z: -0.2929815649986267
visibility: 0.9346490502357483
","x: 240.32151794433594
y: 399.31591796875
z: -0.15734082460403442
visibility: 0.9537442326545715
","x: 151.93214416503906
y: 171.90773010253906
z: -0.3064294755458832
visibility: 0.935782253742218
","x: 238.20982360839844
y: 394.8135681152344
z: -0.12650887668132782
visibility: 0.9469870328903198
","x: 153.32339477539062
y: 176.61859130859375
z: -0.27154919505119324
visibility: 0.9331381320953369
","x: 221.78631591796875
y: 379.3929443359375
z: 0.01534569077193737
visibility: 0.9995294809341431
","x: 199.93710327148438
y: 382.4978942871094
z: -0.015534493140876293
visibility: 0.9994237422943115
","x: 224.1935577392578
y: 459.9804382324219
z: 0.01837286166846752
visibility: 0.99442058801651
","x: 197.57220458984375
y: 463.77728271484375
z: -0.018423354253172874
visibility: 0.994005560874939
","x: 223.72894287109375
y: 534.9736328125
z: 0.1568860113620758
visibility: 0.9932471513748169
","x: 194.94224548339844
y: 538.733642578125
z: 0.10777567327022552
visibility: 0.9931871294975281
","x: 220.64479064941406
y: 543.7626342773438
z: 0.16494128108024597
visibility: 0.9328435063362122
","x: 196.53515625
y: 546.0123901367188
z: 0.11282779276371002
visibility: 0.8907291889190674
","x: 228.3083953857422
y: 560.5817260742188
z: 0.047003839164972305
visibility: 0.9912362694740295
","x: 196.57989501953125
y: 565.3502807617188
z: -0.016223786398768425
visibility: 0.9900453686714172
","x: 156.09686279296875
y: 183.72552490234375
z: 0.0
","x: 153.87994384765625
y: 176.172119140625
z: 0.0025147765409201384
","x: 151.3970947265625
y: 168.90298461914062
z: 0.0022408668883144855
","x: 149.5452423095703
y: 163.76272583007812
z: 0.0010347110219299793
","x: 148.3918914794922
y: 159.90704345703125
z: -3.316479342174716e-05
","x: 151.33291625976562
y: 167.65272521972656
z: 0.0011396640911698341
","x: 149.86117553710938
y: 161.28553771972656
z: -0.0007627276936545968
","x: 149.40447998046875
y: 157.86679077148438
z: -0.0017377728363499045
","x: 149.57281494140625
y: 155.3332977294922
z: -0.002381672151386738
","x: 151.16859436035156
y: 169.4921112060547
z: -0.001844711834564805
","x: 148.32720947265625
y: 163.778076171875
z: -0.003824727376922965
","x: 147.2819366455078
y: 161.03070068359375
z: -0.004528572782874107
","x: 147.25680541992188
y: 159.21266174316406
z: -0.005057481117546558
","x: 150.71322631835938
y: 172.77847290039062
z: -0.004830542951822281
","x: 147.65673828125
y: 168.18386840820312
z: -0.0067018913105130196
","x: 146.323974609375
y: 165.97669982910156
z: -0.007061688229441643
","x: 146.0129852294922
y: 164.12437438964844
z: -0.007421533577144146
","x: 150.1978759765625
y: 177.31396484375
z: -0.007707460783421993
","x: 147.2568817138672
y: 175.7047882080078
z: -0.00920921005308628
","x: 145.86277770996094
y: 174.85110473632812
z: -0.009522411972284317
","x: 145.12838745117188
y: 174.1226348876953
z: -0.009807798080146313
",,,,,,,,,,,,,,,,,,,,,
17,"x: 222.4977264404297
y: 243.6573944091797
z: -0.2665688991546631
visibility: 0.9999868273735046
","x: 224.77818298339844
y: 237.55929565429688
z: -0.24126920104026794
visibility: 0.9999476075172424
","x: 225.86154174804688
y: 238.0193328857422
z: -0.24123556911945343
visibility: 0.9999487996101379
","x: 226.619873046875
y: 238.47634887695312
z: -0.24122574925422668
visibility: 0.9999457597732544
","x: 220.97503662109375
y: 236.68458557128906
z: -0.25310105085372925
visibility: 0.9999498724937439
","x: 219.26780700683594
y: 236.24029541015625
z: -0.2531614601612091
visibility: 0.9999478459358215
","x: 217.6758270263672
y: 235.7305908203125
z: -0.2531336545944214
visibility: 0.9999416470527649
","x: 225.81871032714844
y: 241.8944091796875
z: -0.1057853251695633
visibility: 0.9999086856842041
","x: 213.70367431640625
y: 238.76348876953125
z: -0.1635381281375885
visibility: 0.9999183416366577
","x: 222.9787139892578
y: 251.32354736328125
z: -0.21561264991760254
visibility: 0.9999595284461975
","x: 218.3752899169922
y: 250.1197509765625
z: -0.2325173169374466
visibility: 0.9999579191207886
","x: 227.8888702392578
y: 287.2889404296875
z: -0.009963341988623142
visibility: 0.9998922944068909
","x: 192.46620178222656
y: 266.2930908203125
z: -0.16639366745948792
visibility: 0.9997962713241577
","x: 231.12002563476562
y: 341.60528564453125
z: 0.02622823975980282
visibility: 0.9885625243186951
","x: 169.2167510986328
y: 245.90740966796875
z: -0.23429575562477112
visibility: 0.9951121807098389
","x: 237.61129760742188
y: 382.54229736328125
z: -0.05012495443224907
visibility: 0.9790757298469543
","x: 172.21994018554688
y: 196.1964111328125
z: -0.35881680250167847
visibility: 0.9727374315261841
","x: 241.2967071533203
y: 393.0654602050781
z: -0.06509532034397125
visibility: 0.9482819437980652
","x: 171.2319793701172
y: 183.83059692382812
z: -0.4005090296268463
visibility: 0.9405447840690613
","x: 241.27120971679688
y: 392.9792785644531
z: -0.09721248596906662
visibility: 0.9528261423110962
","x: 173.3694305419922
y: 183.19769287109375
z: -0.38620489835739136
visibility: 0.9414671659469604
","x: 239.4629669189453
y: 389.99066162109375
z: -0.06544264405965805
visibility: 0.9458621740341187
","x: 174.554931640625
y: 187.37942504882812
z: -0.35859161615371704
visibility: 0.9388560652732849
","x: 220.7372589111328
y: 379.7952880859375
z: 0.03451013192534447
visibility: 0.9995539784431458
","x: 199.8289794921875
y: 381.7166748046875
z: -0.03462020307779312
visibility: 0.9994654655456543
","x: 223.91102600097656
y: 460.46942138671875
z: 0.032697893679142
visibility: 0.9933969378471375
","x: 197.57542419433594
y: 463.7202453613281
z: -0.04744013398885727
visibility: 0.9940905570983887
","x: 223.75062561035156
y: 535.636962890625
z: 0.15610498189926147
visibility: 0.9929279685020447
","x: 193.90464782714844
y: 539.0728149414062
z: 0.057815175503492355
visibility: 0.9933795928955078
","x: 220.68035888671875
y: 544.3936767578125
z: 0.16298678517341614
visibility: 0.9352707862854004
","x: 194.654541015625
y: 546.2883911132812
z: 0.06183048337697983
visibility: 0.8914424180984497
","x: 228.9923858642578
y: 560.5771484375
z: 0.048227086663246155
visibility: 0.9907752275466919
","x: 196.7333221435547
y: 565.30859375
z: -0.06660913676023483
visibility: 0.9902657270431519
",,,,,,,,,,,,,,,,,,,,,,,,,,,,,,,,,,,,,,,,,,
18,"x: 224.34791564941406
y: 249.6994171142578
z: -0.22426478564739227
visibility: 0.9999877214431763
","x: 227.25967407226562
y: 245.18019104003906
z: -0.19670972228050232
visibility: 0.9999521374702454
","x: 228.41912841796875
y: 246.37648010253906
z: -0.19666841626167297
visibility: 0.9999527335166931
","x: 229.3315887451172
y: 247.50526428222656
z: -0.19667774438858032
visibility: 0.9999501705169678
","x: 223.37559509277344
y: 241.72781372070312
z: -0.20834796130657196
visibility: 0.9999536871910095
","x: 221.84521484375
y: 240.607421875
z: -0.20836777985095978
visibility: 0.9999513626098633
","x: 220.35316467285156
y: 239.6060333251953
z: -0.20833806693553925
visibility: 0.9999459385871887
","x: 228.47747802734375
y: 251.5277862548828
z: -0.056997381150722504
visibility: 0.999915599822998
","x: 216.66424560546875
y: 240.88870239257812
z: -0.11410845816135406
visibility: 0.9999251365661621
","x: 224.80979919433594
y: 258.4073181152344
z: -0.1735130250453949
visibility: 0.999962329864502
","x: 220.13438415527344
y: 254.3077392578125
z: -0.19025565683841705
visibility: 0.999961256980896
","x: 228.21102905273438
y: 291.563232421875
z: 0.02645435370504856
visibility: 0.9999005198478699
","x: 193.97682189941406
y: 265.8936767578125
z: -0.08914082497358322
visibility: 0.9998136162757874
","x: 231.87091064453125
y: 341.26800537109375
z: 0.05004843324422836
visibility: 0.9853687286376953
","x: 169.6237030029297
y: 248.773193359375
z: -0.21102125942707062
visibility: 0.9955754280090332
","x: 240.75930786132812
y: 372.1688232421875
z: -0.05725686997175217
visibility: 0.9782516956329346
","x: 185.16964721679688
y: 212.27560424804688
z: -0.32713910937309265
visibility: 0.9752126336097717
","x: 244.09217834472656
y: 383.0478515625
z: -0.08409631252288818
visibility: 0.9469408988952637
","x: 187.12924194335938
y: 202.2844696044922
z: -0.3744698166847229
visibility: 0.944699764251709
","x: 244.1541748046875
y: 381.4100341796875
z: -0.11861163377761841
visibility: 0.9516460299491882
","x: 189.8356170654297
y: 203.82183837890625
z: -0.35959821939468384
visibility: 0.9452988505363464
","x: 242.53660583496094
y: 378.1634521484375
z: -0.07600148022174835
visibility: 0.9446974992752075
","x: 189.8843536376953
y: 207.7819061279297
z: -0.3284929394721985
visibility: 0.9425132870674133
","x: 220.271728515625
y: 383.937255859375
z: 0.03551860526204109
visibility: 0.9995927810668945
","x: 198.81744384765625
y: 384.16815185546875
z: -0.03557492792606354
visibility: 0.99951171875
","x: 225.54270935058594
y: 462.9403381347656
z: 0.004025616683065891
visibility: 0.9938007593154907
","x: 196.42047119140625
y: 465.95556640625
z: -0.03930855169892311
visibility: 0.994417667388916
","x: 223.84384155273438
y: 535.4865112304688
z: 0.16516287624835968
visibility: 0.9932190179824829
","x: 192.5959014892578
y: 535.7425537109375
z: 0.11660631746053696
visibility: 0.9937484264373779
","x: 220.62464904785156
y: 544.4365234375
z: 0.1763211041688919
visibility: 0.9386612772941589
","x: 193.05538940429688
y: 540.479248046875
z: 0.12804879248142242
visibility: 0.8942286968231201
","x: 230.0614471435547
y: 560.5509643554688
z: 0.055295705795288086
visibility: 0.9911372661590576
","x: 196.82986450195312
y: 564.4257202148438
z: -0.003339078277349472
visibility: 0.9908354878425598
",,,,,,,,,,,,,,,,,,,,,,,,,,,,,,,,,,,,,,,,,,
19,"x: 223.57144165039062
y: 247.793212890625
z: -0.2478594034910202
visibility: 0.9999885559082031
","x: 226.95751953125
y: 243.0261993408203
z: -0.223785400390625
visibility: 0.9999565482139587
","x: 228.16024780273438
y: 244.0211639404297
z: -0.22377252578735352
visibility: 0.9999568462371826
","x: 229.19155883789062
y: 244.98202514648438
z: -0.22379200160503387
visibility: 0.9999546408653259
","x: 223.23129272460938
y: 240.54965209960938
z: -0.23222415149211884
visibility: 0.9999574422836304
","x: 221.98794555664062
y: 240.04861450195312
z: -0.2322860062122345
visibility: 0.9999549984931946
","x: 220.76614379882812
y: 239.21995544433594
z: -0.23224952816963196
visibility: 0.9999500513076782
","x: 228.91163635253906
y: 249.4334259033203
z: -0.09746511280536652
visibility: 0.9999229907989502
","x: 218.44924926757812
y: 239.7598419189453
z: -0.13812288641929626
visibility: 0.9999312162399292
","x: 224.08599853515625
y: 256.32342529296875
z: -0.20083265006542206
visibility: 0.999965250492096
","x: 219.82968139648438
y: 253.0845489501953
z: -0.21285434067249298
visibility: 0.9999638199806213
","x: 228.65989685058594
y: 290.3331298828125
z: -0.021599508821964264
visibility: 0.9999088644981384
","x: 196.5515899658203
y: 259.5789794921875
z: -0.09481304883956909
visibility: 0.9998269081115723
","x: 235.42140197753906
y: 336.3226013183594
z: -0.015147941187024117
visibility: 0.9861229658126831
","x: 175.05686950683594
y: 217.58070373535156
z: -0.14428964257240295
visibility: 0.9959820508956909
","x: 242.23193359375
y: 370.468994140625
z: -0.11204264312982559
visibility: 0.9792816638946533
","x: 177.5640106201172
y: 170.12103271484375
z: -0.1580040603876114
visibility: 0.9776085615158081
","x: 244.3347930908203
y: 385.3155212402344
z: -0.13791868090629578
visibility: 0.948837399482727
","x: 171.2476348876953
y: 158.0277557373047
z: -0.1869148313999176
visibility: 0.9498145580291748
","x: 243.29632568359375
y: 384.843017578125
z: -0.16441427171230316
visibility: 0.9535250067710876
","x: 170.14402770996094
y: 156.8738250732422
z: -0.2024485319852829
visibility: 0.9503470659255981
","x: 241.87716674804688
y: 380.9212646484375
z: -0.1266784518957138
visibility: 0.9470919966697693
","x: 171.91574096679688
y: 160.95721435546875
z: -0.16903997957706451
visibility: 0.9478484988212585
","x: 219.68502807617188
y: 382.7731628417969
z: 0.028893839567899704
visibility: 0.9996300935745239
","x: 198.6324005126953
y: 380.68585205078125
z: -0.028971955180168152
visibility: 0.9995567798614502
","x: 225.2399139404297
y: 462.9149169921875
z: -0.00121957843657583
visibility: 0.9940285682678223
","x: 195.4516143798828
y: 464.2931823730469
z: -0.04106181487441063
visibility: 0.9947425723075867
","x: 223.85093688964844
y: 535.50244140625
z: 0.13613510131835938
visibility: 0.9935229420661926
","x: 191.8662872314453
y: 534.8295288085938
z: 0.09019523859024048
visibility: 0.9940022826194763
","x: 220.62030029296875
y: 544.91796875
z: 0.14425083994865417
visibility: 0.9420638084411621
","x: 191.7814483642578
y: 540.6844482421875
z: 0.09694737941026688
visibility: 0.8960212469100952
","x: 229.887451171875
y: 560.3514404296875
z: 0.026623114943504333
visibility: 0.9913602471351624
","x: 196.87435913085938
y: 563.3526611328125
z: -0.028973987326025963
visibility: 0.9912014007568359
","x: 171.78506469726562
y: 169.9362335205078
z: 0.0
","x: 167.57518005371094
y: 166.90750122070312
z: 0.0012710310984402895
","x: 163.88278198242188
y: 163.9396514892578
z: -6.564116483787075e-05
","x: 160.33627319335938
y: 163.53384399414062
z: -0.0020225585903972387
","x: 157.32754516601562
y: 163.71849060058594
z: -0.0040717050433158875
","x: 163.8521728515625
y: 155.68560791015625
z: -0.0021401201374828815
","x: 161.19586181640625
y: 149.70068359375
z: -0.004617735277861357
","x: 158.9224090576172
y: 146.321044921875
z: -0.006492051295936108
","x: 156.92263793945312
y: 143.6739959716797
z: -0.007927277125418186
","x: 164.4520263671875
y: 156.11448669433594
z: -0.004740997217595577
","x: 161.77317810058594
y: 149.5625
z: -0.0069160060957074165
","x: 159.22177124023438
y: 146.16653442382812
z: -0.00834327656775713
","x: 156.92440795898438
y: 143.5601043701172
z: -0.00978791993111372
","x: 165.12867736816406
y: 158.37210083007812
z: -0.007195483893156052
","x: 162.29403686523438
y: 153.41940307617188
z: -0.009594214148819447
","x: 159.89186096191406
y: 150.6137237548828
z: -0.011087581515312195
","x: 157.86837768554688
y: 148.4204559326172
z: -0.012398053891956806
","x: 165.7355194091797
y: 162.19952392578125
z: -0.009503249078989029
","x: 162.970458984375
y: 161.7454376220703
z: -0.011429749429225922
","x: 160.6956024169922
y: 161.80245971679688
z: -0.0121467811986804
","x: 158.70904541015625
y: 161.81231689453125
z: -0.012936294078826904
",,,,,,,,,,,,,,,,,,,,,
20,"x: 223.57144165039062
y: 247.793212890625
z: -0.2478594034910202
visibility: 0.9999885559082031
","x: 226.95751953125
y: 243.0261993408203
z: -0.223785400390625
visibility: 0.9999565482139587
","x: 228.16024780273438
y: 244.0211639404297
z: -0.22377252578735352
visibility: 0.9999568462371826
","x: 229.19155883789062
y: 244.98202514648438
z: -0.22379200160503387
visibility: 0.9999546408653259
","x: 223.23129272460938
y: 240.54965209960938
z: -0.23222415149211884
visibility: 0.9999574422836304
","x: 221.98794555664062
y: 240.04861450195312
z: -0.2322860062122345
visibility: 0.9999549984931946
","x: 220.76614379882812
y: 239.21995544433594
z: -0.23224952816963196
visibility: 0.9999500513076782
","x: 228.91163635253906
y: 249.4334259033203
z: -0.09746511280536652
visibility: 0.9999229907989502
","x: 218.44924926757812
y: 239.7598419189453
z: -0.13812288641929626
visibility: 0.9999312162399292
","x: 224.08599853515625
y: 256.32342529296875
z: -0.20083265006542206
visibility: 0.999965250492096
","x: 219.82968139648438
y: 253.0845489501953
z: -0.21285434067249298
visibility: 0.9999638199806213
","x: 228.65989685058594
y: 290.3331298828125
z: -0.021599508821964264
visibility: 0.9999088644981384
","x: 196.5515899658203
y: 259.5789794921875
z: -0.09481304883956909
visibility: 0.9998269081115723
","x: 235.42140197753906
y: 336.3226013183594
z: -0.015147941187024117
visibility: 0.9861229658126831
","x: 175.05686950683594
y: 217.58070373535156
z: -0.14428964257240295
visibility: 0.9959820508956909
","x: 242.23193359375
y: 370.468994140625
z: -0.11204264312982559
visibility: 0.9792816638946533
","x: 177.5640106201172
y: 170.12103271484375
z: -0.1580040603876114
visibility: 0.9776085615158081
","x: 244.3347930908203
y: 385.3155212402344
z: -0.13791868090629578
visibility: 0.948837399482727
","x: 171.2476348876953
y: 158.0277557373047
z: -0.1869148313999176
visibility: 0.9498145580291748
","x: 243.29632568359375
y: 384.843017578125
z: -0.16441427171230316
visibility: 0.9535250067710876
","x: 170.14402770996094
y: 156.8738250732422
z: -0.2024485319852829
visibility: 0.9503470659255981
","x: 241.87716674804688
y: 380.9212646484375
z: -0.1266784518957138
visibility: 0.9470919966697693
","x: 171.91574096679688
y: 160.95721435546875
z: -0.16903997957706451
visibility: 0.9478484988212585
","x: 219.68502807617188
y: 382.7731628417969
z: 0.028893839567899704
visibility: 0.9996300935745239
","x: 198.6324005126953
y: 380.68585205078125
z: -0.028971955180168152
visibility: 0.9995567798614502
","x: 225.2399139404297
y: 462.9149169921875
z: -0.00121957843657583
visibility: 0.9940285682678223
","x: 195.4516143798828
y: 464.2931823730469
z: -0.04106181487441063
visibility: 0.9947425723075867
","x: 223.85093688964844
y: 535.50244140625
z: 0.13613510131835938
visibility: 0.9935229420661926
","x: 191.8662872314453
y: 534.8295288085938
z: 0.09019523859024048
visibility: 0.9940022826194763
","x: 220.62030029296875
y: 544.91796875
z: 0.14425083994865417
visibility: 0.9420638084411621
","x: 191.7814483642578
y: 540.6844482421875
z: 0.09694737941026688
visibility: 0.8960212469100952
","x: 229.887451171875
y: 560.3514404296875
z: 0.026623114943504333
visibility: 0.9913602471351624
","x: 196.87435913085938
y: 563.3526611328125
z: -0.028973987326025963
visibility: 0.9912014007568359
","x: 171.78506469726562
y: 169.9362335205078
z: 0.0
","x: 167.57518005371094
y: 166.90750122070312
z: 0.0012710310984402895
","x: 163.88278198242188
y: 163.9396514892578
z: -6.564116483787075e-05
","x: 160.33627319335938
y: 163.53384399414062
z: -0.0020225585903972387
","x: 157.32754516601562
y: 163.71849060058594
z: -0.0040717050433158875
","x: 163.8521728515625
y: 155.68560791015625
z: -0.0021401201374828815
","x: 161.19586181640625
y: 149.70068359375
z: -0.004617735277861357
","x: 158.9224090576172
y: 146.321044921875
z: -0.006492051295936108
","x: 156.92263793945312
y: 143.6739959716797
z: -0.007927277125418186
","x: 164.4520263671875
y: 156.11448669433594
z: -0.004740997217595577
","x: 161.77317810058594
y: 149.5625
z: -0.0069160060957074165
","x: 159.22177124023438
y: 146.16653442382812
z: -0.00834327656775713
","x: 156.92440795898438
y: 143.5601043701172
z: -0.00978791993111372
","x: 165.12867736816406
y: 158.37210083007812
z: -0.007195483893156052
","x: 162.29403686523438
y: 153.41940307617188
z: -0.009594214148819447
","x: 159.89186096191406
y: 150.6137237548828
z: -0.011087581515312195
","x: 157.86837768554688
y: 148.4204559326172
z: -0.012398053891956806
","x: 165.7355194091797
y: 162.19952392578125
z: -0.009503249078989029
","x: 162.970458984375
y: 161.7454376220703
z: -0.011429749429225922
","x: 160.6956024169922
y: 161.80245971679688
z: -0.0121467811986804
","x: 158.70904541015625
y: 161.81231689453125
z: -0.012936294078826904
",,,,,,,,,,,,,,,,,,,,,
21,"x: 223.0743408203125
y: 252.7097930908203
z: -0.38029712438583374
visibility: 0.9999890923500061
","x: 226.2988739013672
y: 248.13778686523438
z: -0.35729819536209106
visibility: 0.9999599456787109
","x: 227.5348663330078
y: 249.20945739746094
z: -0.35726189613342285
visibility: 0.9999598860740662
","x: 228.62608337402344
y: 250.18527221679688
z: -0.3572801649570465
visibility: 0.9999577403068542
","x: 222.5701904296875
y: 244.7203369140625
z: -0.36719468235969543
visibility: 0.9999603033065796
","x: 221.29417419433594
y: 243.65333557128906
z: -0.36728689074516296
visibility: 0.9999577403068542
","x: 220.0019989013672
y: 242.4771728515625
z: -0.3672359883785248
visibility: 0.9999527335166931
","x: 229.05921936035156
y: 254.59007263183594
z: -0.21872568130493164
visibility: 0.9999276995658875
","x: 217.71942138671875
y: 242.7528076171875
z: -0.2689608931541443
visibility: 0.9999349117279053
","x: 223.8138885498047
y: 261.1745300292969
z: -0.3273622393608093
visibility: 0.9999648332595825
","x: 219.4936981201172
y: 257.4991455078125
z: -0.3419819474220276
visibility: 0.9999630451202393
","x: 228.91014099121094
y: 296.0245056152344
z: -0.11462108790874481
visibility: 0.9999018311500549
","x: 196.4046173095703
y: 260.3545227050781
z: -0.1949903666973114
visibility: 0.9998284578323364
","x: 232.68719482421875
y: 348.4600524902344
z: -0.0926828384399414
visibility: 0.9843946099281311
","x: 171.56951904296875
y: 229.98785400390625
z: -0.26863643527030945
visibility: 0.9962798357009888
","x: 236.66139221191406
y: 386.9310302734375
z: -0.19854393601417542
visibility: 0.9783555269241333
","x: 159.2955322265625
y: 199.78187561035156
z: -0.4069092273712158
visibility: 0.979644238948822
","x: 240.47254943847656
y: 398.6790466308594
z: -0.21949128806591034
visibility: 0.9464186429977417
","x: 155.25784301757812
y: 189.07528686523438
z: -0.4456225335597992
visibility: 0.9540996551513672
","x: 239.98855590820312
y: 397.91217041015625
z: -0.25232937932014465
visibility: 0.9517459869384766
","x: 155.57801818847656
y: 187.6885986328125
z: -0.45717859268188477
visibility: 0.9546144008636475
","x: 237.88128662109375
y: 394.36846923828125
z: -0.21510669589042664
visibility: 0.9457002878189087
","x: 156.8170623779297
y: 191.5424346923828
z: -0.4180125296115875
visibility: 0.9522923231124878
","x: 219.65249633789062
y: 383.47021484375
z: 0.029707739129662514
visibility: 0.9996462464332581
","x: 198.3589324951172
y: 381.3258361816406
z: -0.029846414923667908
visibility: 0.9995885491371155
","x: 223.2645263671875
y: 462.8048400878906
z: 0.024164993315935135
visibility: 0.9941343665122986
","x: 193.9738311767578
y: 462.87786865234375
z: -0.03758474811911583
visibility: 0.9950568675994873
","x: 223.9104461669922
y: 536.0234985351562
z: 0.14621111750602722
visibility: 0.9937078952789307
","x: 191.22760009765625
y: 535.3861083984375
z: 0.08478517085313797
visibility: 0.9943481087684631
","x: 220.6753692626953
y: 546.8944702148438
z: 0.15222665667533875
visibility: 0.9452685117721558
","x: 190.86366271972656
y: 543.2274780273438
z: 0.08971021324396133
visibility: 0.9002439379692078
","x: 230.21693420410156
y: 559.9874267578125
z: 0.04247889295220375
visibility: 0.9915959239006042
","x: 196.5911407470703
y: 562.858642578125
z: -0.03538094460964203
visibility: 0.9916395545005798
",,,,,,,,,,,,,,,,,,,,,,,,,,,,,,,,,,,,,,,,,,
22,"x: 222.2637939453125
y: 257.85009765625
z: -0.17693528532981873
visibility: 0.999989926815033
","x: 225.11668395996094
y: 252.3151397705078
z: -0.15945403277873993
visibility: 0.9999635815620422
","x: 226.35498046875
y: 253.14344787597656
z: -0.1594734936952591
visibility: 0.9999634027481079
","x: 227.46446228027344
y: 253.92330932617188
z: -0.15949390828609467
visibility: 0.9999615550041199
","x: 221.34152221679688
y: 248.79026794433594
z: -0.16484743356704712
visibility: 0.9999635219573975
","x: 220.03509521484375
y: 247.33168029785156
z: -0.16486072540283203
visibility: 0.9999610185623169
","x: 218.7281494140625
y: 245.81321716308594
z: -0.1647711992263794
visibility: 0.9999566078186035
","x: 228.0584716796875
y: 256.3656311035156
z: -0.04496278241276741
visibility: 0.999934196472168
","x: 216.45779418945312
y: 244.09390258789062
z: -0.07439487427473068
visibility: 0.999940037727356
","x: 223.70993041992188
y: 265.0307922363281
z: -0.13318321108818054
visibility: 0.9999676942825317
","x: 218.8663787841797
y: 261.42138671875
z: -0.14164553582668304
visibility: 0.9999662041664124
","x: 229.0904541015625
y: 295.60894775390625
z: 0.007009619381278753
visibility: 0.9999106526374817
","x: 195.57723999023438
y: 264.62286376953125
z: 0.0024290699511766434
visibility: 0.9998432397842407
","x: 229.6614990234375
y: 345.42535400390625
z: -0.0680047944188118
visibility: 0.9826705455780029
","x: 171.10348510742188
y: 283.5207824707031
z: -0.06472961604595184
visibility: 0.9965372681617737
","x: 236.4124298095703
y: 372.758544921875
z: -0.27491647005081177
visibility: 0.9795531034469604
","x: 156.3168182373047
y: 254.7694549560547
z: -0.2924747169017792
visibility: 0.9815412759780884
","x: 240.4744110107422
y: 393.96099853515625
z: -0.3247181177139282
visibility: 0.9499130249023438
","x: 151.50326538085938
y: 247.58705139160156
z: -0.3830147087574005
visibility: 0.9581717252731323
","x: 240.2601776123047
y: 383.8222961425781
z: -0.3506844639778137
visibility: 0.9549389481544495
","x: 153.58946228027344
y: 239.52178955078125
z: -0.4046453833580017
visibility: 0.958684504032135
","x: 238.0284423828125
y: 385.31048583984375
z: -0.29171544313430786
visibility: 0.9489027261734009
","x: 155.56956481933594
y: 242.42391967773438
z: -0.3159386217594147
visibility: 0.9564694166183472
","x: 219.36798095703125
y: 383.77392578125
z: 0.021669352427124977
visibility: 0.9996680617332458
","x: 198.45863342285156
y: 381.8467712402344
z: -0.021686691790819168
visibility: 0.9996168613433838
","x: 223.09962463378906
y: 464.1637878417969
z: -0.02263491600751877
visibility: 0.994384765625
","x: 194.17636108398438
y: 463.8570861816406
z: -0.05155184119939804
visibility: 0.9952214360237122
","x: 223.9189453125
y: 536.0386352539062
z: 0.09812986850738525
visibility: 0.9937436580657959
","x: 191.1737518310547
y: 537.93994140625
z: 0.0626746416091919
visibility: 0.994262158870697
","x: 220.71688842773438
y: 546.8851318359375
z: 0.10447265207767487
visibility: 0.9447590112686157
","x: 190.687744140625
y: 546.4609985351562
z: 0.06773833930492401
visibility: 0.8952178955078125
","x: 230.20335388183594
y: 559.9898071289062
z: -0.009833330288529396
visibility: 0.9916164875030518
","x: 196.63343811035156
y: 563.2258911132812
z: -0.05744123458862305
visibility: 0.9914929866790771
",,,,,,,,,,,,,,,,,,,,,,,,,,,,,,,,,,,,,,,,,,
23,"x: 204.8412628173828
y: 256.81884765625
z: -0.24253173172473907
visibility: 0.9999905824661255
","x: 207.24288940429688
y: 249.99688720703125
z: -0.24620071053504944
visibility: 0.9999657869338989
","x: 208.839111328125
y: 250.33499145507812
z: -0.24621796607971191
visibility: 0.9999658465385437
","x: 210.5565643310547
y: 250.98121643066406
z: -0.2462683916091919
visibility: 0.9999639391899109
","x: 203.44175720214844
y: 249.10360717773438
z: -0.22566628456115723
visibility: 0.9999653697013855
","x: 202.34376525878906
y: 248.74891662597656
z: -0.22539551556110382
visibility: 0.9999628663063049
","x: 201.13687133789062
y: 248.36886596679688
z: -0.22538641095161438
visibility: 0.9999580383300781
","x: 213.96556091308594
y: 255.56552124023438
z: -0.14774243533611298
visibility: 0.9999383687973022
","x: 200.8050537109375
y: 248.76100158691406
z: -0.13149581849575043
visibility: 0.9999438524246216
","x: 208.0614471435547
y: 263.1896667480469
z: -0.20774540305137634
visibility: 0.9999701976776123
","x: 203.55613708496094
y: 262.0699768066406
z: -0.17666414380073547
visibility: 0.9999687671661377
","x: 226.27151489257812
y: 291.41949462890625
z: -0.06220805644989014
visibility: 0.9999188184738159
","x: 190.62962341308594
y: 281.8716735839844
z: -0.048894234001636505
visibility: 0.9998564720153809
","x: 248.34483337402344
y: 317.8537292480469
z: -0.17101794481277466
visibility: 0.9843007922172546
","x: 181.3353271484375
y: 329.5787048339844
z: 0.03467622026801109
visibility: 0.9955206513404846
","x: 243.32562255859375
y: 266.6919250488281
z: -0.38150277733802795
visibility: 0.9814251065254211
","x: 165.53842163085938
y: 358.02471923828125
z: 0.0035798889584839344
visibility: 0.9815463423728943
","x: 242.01882934570312
y: 253.77359008789062
z: -0.42573875188827515
visibility: 0.9540703892707825
","x: 160.675537109375
y: 370.9890441894531
z: -0.006776073481887579
visibility: 0.9577966928482056
","x: 240.6136016845703
y: 251.58087158203125
z: -0.4262436330318451
visibility: 0.9585850238800049
","x: 161.00399780273438
y: 370.21588134765625
z: -0.037798166275024414
visibility: 0.958590567111969
","x: 239.83645629882812
y: 256.45623779296875
z: -0.38776880502700806
visibility: 0.95270836353302
","x: 162.6416778564453
y: 366.5545654296875
z: -0.00902673788368702
visibility: 0.9556295871734619
","x: 219.5028533935547
y: 383.8938903808594
z: 0.005607989616692066
visibility: 0.9996891021728516
","x: 198.14979553222656
y: 385.335205078125
z: -0.005635356064885855
visibility: 0.9996374845504761
","x: 223.7445068359375
y: 464.8309326171875
z: -0.03080635331571102
visibility: 0.9944798350334167
","x: 194.55067443847656
y: 467.986328125
z: -0.03401967138051987
visibility: 0.9952581524848938
","x: 224.31643676757812
y: 536.1412353515625
z: 0.11702781915664673
visibility: 0.9937230348587036
","x: 191.3358917236328
y: 537.9080810546875
z: 0.13346843421459198
visibility: 0.9938246607780457
","x: 221.15692138671875
y: 546.8713989257812
z: 0.12454032897949219
visibility: 0.9444830417633057
","x: 191.0410614013672
y: 545.4521484375
z: 0.14317366480827332
visibility: 0.8890162110328674
","x: 229.8318328857422
y: 560.1851806640625
z: 0.007238220423460007
visibility: 0.9916579127311707
","x: 196.67068481445312
y: 563.1874389648438
z: 0.023303722962737083
visibility: 0.9908540844917297
",,,,,,,,,,,,,,,,,,,,,,,,,,,,,,,,,,,,,,,,,,
24,"x: 192.2266082763672
y: 255.55458068847656
z: -0.22967424988746643
visibility: 0.9999904632568359
","x: 193.60752868652344
y: 248.55288696289062
z: -0.22170031070709229
visibility: 0.9999645352363586
","x: 195.0333709716797
y: 248.8868865966797
z: -0.22172601521015167
visibility: 0.9999653697013855
","x: 196.56277465820312
y: 250.35440063476562
z: -0.22176635265350342
visibility: 0.9999629855155945
","x: 190.0550079345703
y: 248.55654907226562
z: -0.21224446594715118
visibility: 0.9999648332595825
","x: 189.08030700683594
y: 248.51828002929688
z: -0.2121998518705368
visibility: 0.9999624490737915
","x: 188.14151000976562
y: 248.52017211914062
z: -0.21216852962970734
visibility: 0.999957263469696
","x: 200.22792053222656
y: 249.70884704589844
z: -0.13621008396148682
visibility: 0.9999381899833679
","x: 189.1520538330078
y: 248.98434448242188
z: -0.09566864371299744
visibility: 0.9999459385871887
","x: 196.36370849609375
y: 261.6061096191406
z: -0.19414541125297546
visibility: 0.9999698996543884
","x: 191.99703979492188
y: 261.19488525390625
z: -0.18181458115577698
visibility: 0.9999691843986511
","x: 222.5287322998047
y: 272.3905029296875
z: -0.06247851252555847
visibility: 0.9999251365661621
","x: 186.1699981689453
y: 287.1481018066406
z: -0.013849151320755482
visibility: 0.9998622536659241
","x: 250.61361694335938
y: 256.6129455566406
z: -0.13459542393684387
visibility: 0.9857484102249146
","x: 185.64794921875
y: 339.9475402832031
z: 0.03848373889923096
visibility: 0.9869116544723511
","x: 254.88916015625
y: 206.51730346679688
z: -0.26504987478256226
visibility: 0.9830201268196106
","x: 182.6570587158203
y: 382.55029296875
z: -0.036310046911239624
visibility: 0.9697761535644531
","x: 258.6999816894531
y: 193.37637329101562
z: -0.3014516532421112
visibility: 0.9574918150901794
","x: 179.7209014892578
y: 396.4619445800781
z: -0.05114345997571945
visibility: 0.9395104646682739
","x: 257.8605041503906
y: 192.1196746826172
z: -0.31357118487358093
visibility: 0.9616048336029053
","x: 179.55950927734375
y: 396.35107421875
z: -0.07758577167987823
visibility: 0.9417696595191956
","x: 255.6017303466797
y: 195.9923553466797
z: -0.2754090428352356
visibility: 0.9560270309448242
","x: 181.23194885253906
y: 392.1891784667969
z: -0.04828905314207077
visibility: 0.9365546107292175
","x: 219.611572265625
y: 381.7339782714844
z: -0.008283552713692188
visibility: 0.9997101426124573
","x: 198.2234344482422
y: 384.763427734375
z: 0.00833033211529255
visibility: 0.9996576309204102
","x: 222.61782836914062
y: 464.7705383300781
z: -0.049874547868967056
visibility: 0.9945729970932007
","x: 194.80197143554688
y: 465.2471618652344
z: -0.027923300862312317
visibility: 0.9951896667480469
","x: 224.54620361328125
y: 536.3880004882812
z: 0.08396261185407639
visibility: 0.9936401844024658
","x: 191.55345153808594
y: 537.5615844726562
z: 0.1187344640493393
visibility: 0.9934520721435547
","x: 221.45138549804688
y: 547.5294799804688
z: 0.09132720530033112
visibility: 0.9434055089950562
","x: 191.5001678466797
y: 545.4183349609375
z: 0.12642650306224823
visibility: 0.8851704597473145
","x: 229.69187927246094
y: 560.1844482421875
z: -0.033492859452962875
visibility: 0.9914699196815491
","x: 196.67721557617188
y: 562.6734008789062
z: 0.006644687615334988
visibility: 0.9900646805763245
",,,,,,,,,,,,,,,,,,,,,,,,,,,,,,,,,,,,,,,,,,
25,"x: 189.24305725097656
y: 256.3815612792969
z: -0.22817981243133545
visibility: 0.9999905824661255
","x: 189.30349731445312
y: 248.58541870117188
z: -0.21738150715827942
visibility: 0.9999631643295288
","x: 190.58782958984375
y: 248.20965576171875
z: -0.21741287410259247
visibility: 0.9999644756317139
","x: 191.82342529296875
y: 249.1620635986328
z: -0.21744029223918915
visibility: 0.9999611973762512
","x: 185.63917541503906
y: 251.3438720703125
z: -0.21129865944385529
visibility: 0.9999645948410034
","x: 184.51564025878906
y: 252.3974609375
z: -0.211298868060112
visibility: 0.9999628067016602
","x: 183.52342224121094
y: 253.43585205078125
z: -0.21127991378307343
