uscmakers/ReverseChoreography/data/5_a_thousand_miles_vanessa_carlton.csv
,NOSE,LEFT_EYE_INNER,LEFT_EYE,LEFT_EYE_OUTER,RIGHT_EYE_INNER,RIGHT_EYE,RIGHT_EYE_OUTER,LEFT_EAR,RIGHT_EAR,MOUTH_LEFT,MOUTH_RIGHT,LEFT_SHOULDER,RIGHT_SHOULDER,LEFT_ELBOW,RIGHT_ELBOW,LEFT_WRIST,RIGHT_WRIST,LEFT_PINKY,RIGHT_PINKY,LEFT_INDEX,RIGHT_INDEX,LEFT_THUMB,RIGHT_THUMB,LEFT_HIP,RIGHT_HIP,LEFT_KNEE,RIGHT_KNEE,LEFT_ANKLE,RIGHT_ANKLE,LEFT_HEEL,RIGHT_HEEL,LEFT_FOOT_INDEX,RIGHT_FOOT_INDEX,WRIST,THUMB_CPC,THUMB_MCP,THUMB_IP,THUMB_TIP,INDEX_FINGER_MCP,INDEX_FINGER_PIP,INDEX_FINGER_DIP,INDEX_FINGER_TIP,MIDDLE_FINGER_MCP,MIDDLE_FINGER_PIP,MIDDLE_FINGER_DIP,MIDDLE_FINGER_TIP,RING_FINGER_PIP,RING_FINGER_DIP,RING_FINGER_TIP,RING_FINGER_MCP,PINKY_MCP,PINKY_PIP,PINKY_DIP,PINKY_TIP,WRIST2,THUMB_CPC2,THUMB_MCP2,THUMB_IP2,THUMB_TIP2,INDEX_FINGER_MCP2,INDEX_FINGER_PIP2,INDEX_FINGER_DIP2,INDEX_FINGER_TIP2,MIDDLE_FINGER_MCP2,MIDDLE_FINGER_PIP2,MIDDLE_FINGER_DIP2,MIDDLE_FINGER_TIP2,RING_FINGER_PIP2,RING_FINGER_DIP2,RING_FINGER_TIP2,RING_FINGER_MCP2,PINKY_MCP2,PINKY_PIP2,PINKY_DIP2,PINKY_TIP2
0,"x: 209.94122314453125
y: 226.33245849609375
z: -0.1372309923171997
visibility: 0.9998772144317627
","x: 211.8932647705078
y: 217.8612060546875
z: -0.12348930537700653
visibility: 0.9997199177742004
","x: 213.09788513183594
y: 217.83975219726562
z: -0.12349794059991837
visibility: 0.9996819496154785
","x: 214.276123046875
y: 217.9048309326172
z: -0.12349139153957367
visibility: 0.9996953010559082
","x: 208.15501403808594
y: 217.06358337402344
z: -0.12265898287296295
visibility: 0.9997003078460693
","x: 206.90670776367188
y: 216.5050048828125
z: -0.12267114222049713
visibility: 0.9996566772460938
","x: 205.65859985351562
y: 216.0349884033203
z: -0.12264865636825562
visibility: 0.9996877908706665
","x: 215.29949951171875
y: 220.20303344726562
z: -0.028602782636880875
visibility: 0.9996086955070496
","x: 202.96636962890625
y: 218.5509490966797
z: -0.024418259039521217
visibility: 0.9993752837181091
","x: 212.05398559570312
y: 232.2434844970703
z: -0.09956557303667068
visibility: 0.9998162388801575
","x: 206.67042541503906
y: 230.9456024169922
z: -0.09849059581756592
visibility: 0.9998019337654114
","x: 229.23045349121094
y: 259.84283447265625
z: 0.018312837928533554
visibility: 0.9999661445617676
","x: 188.27537536621094
y: 254.216796875
z: 0.02683425322175026
visibility: 0.9998893737792969
","x: 233.93666076660156
y: 315.3736267089844
z: -0.009015166200697422
visibility: 0.9823706150054932
","x: 176.17681884765625
y: 308.783447265625
z: -0.06384202092885971
visibility: 0.9884998202323914
","x: 221.52340698242188
y: 338.71160888671875
z: -0.13233472406864166
visibility: 0.9821180105209351
","x: 198.1875457763672
y: 287.4450988769531
z: -0.24306869506835938
visibility: 0.9903572201728821
","x: 217.49098205566406
y: 349.1961975097656
z: -0.16679638624191284
visibility: 0.9595180749893188
","x: 205.32008361816406
y: 287.4331359863281
z: -0.2856515049934387
visibility: 0.976632833480835
","x: 214.29144287109375
y: 342.393798828125
z: -0.1824783831834793
visibility: 0.958368718624115
","x: 206.70848083496094
y: 280.4406433105469
z: -0.28160735964775085
visibility: 0.974741518497467
","x: 214.916748046875
y: 338.88763427734375
z: -0.13992692530155182
visibility: 0.9389846324920654
","x: 204.8894805908203
y: 279.8245544433594
z: -0.24533089995384216
visibility: 0.9615543484687805
","x: 219.84251403808594
y: 367.2587585449219
z: 0.00113097601570189
visibility: 0.9995861649513245
","x: 195.3988037109375
y: 365.2160339355469
z: -0.0010674933437258005
visibility: 0.9996824264526367
","x: 220.9416046142578
y: 455.49676513671875
z: -0.04361423850059509
visibility: 0.9966666102409363
","x: 189.01229858398438
y: 449.9905090332031
z: -0.032039813697338104
visibility: 0.9963602423667908
","x: 218.96990966796875
y: 529.7220458984375
z: 0.10102786868810654
visibility: 0.9931836724281311
","x: 186.29339599609375
y: 525.827880859375
z: 0.0956379696726799
visibility: 0.9952772855758667
","x: 214.60353088378906
y: 539.0245361328125
z: 0.10874839127063751
visibility: 0.9251605868339539
","x: 189.4927520751953
y: 536.4691772460938
z: 0.10181166976690292
visibility: 0.9150535464286804
","x: 226.39447021484375
y: 552.7673950195312
z: -0.0070366100408136845
visibility: 0.987936794757843
","x: 180.67771911621094
y: 549.394775390625
z: -0.012334545142948627
visibility: 0.9901204109191895
","x: 200.95431518554688
y: 285.0805358886719
z: 0.0
","x: 201.9590606689453
y: 277.80181884765625
z: -4.374667696538381e-05
","x: 204.54376220703125
y: 273.2149353027344
z: -0.0007019653567112982
","x: 207.08462524414062
y: 270.6177062988281
z: -0.0014503634301945567
","x: 208.60678100585938
y: 267.6771545410156
z: -0.0020852703601121902
","x: 209.89459228515625
y: 276.82110595703125
z: -0.0011818730272352695
","x: 214.11343383789062
y: 275.3090515136719
z: -0.0021644914522767067
","x: 216.6788330078125
y: 275.1603088378906
z: -0.002233484759926796
","x: 218.54815673828125
y: 275.41827392578125
z: -0.002177473157644272
","x: 210.44993591308594
y: 281.8282775878906
z: -0.00223128916695714
","x: 215.3955078125
y: 282.4371643066406
z: -0.002737929578870535
","x: 218.104736328125
y: 283.72674560546875
z: -0.002487919060513377
","x: 219.8716278076172
y: 285.0229187011719
z: -0.002453213557600975
","x: 210.1315460205078
y: 286.54669189453125
z: -0.003317513968795538
","x: 214.35986328125
y: 288.4857482910156
z: -0.004490434192121029
","x: 216.7509002685547
y: 290.01080322265625
z: -0.004960044287145138
","x: 218.36639404296875
y: 291.0589294433594
z: -0.005202026106417179
","x: 209.0912322998047
y: 290.8890686035156
z: -0.004460930358618498
","x: 212.05776977539062
y: 293.6887512207031
z: -0.006009952165186405
","x: 213.77642822265625
y: 295.5514831542969
z: -0.006700948812067509
","x: 215.0171661376953
y: 296.82183837890625
z: -0.00693936413154006
","x: 218.88955688476562
y: 334.8165283203125
z: 0.0
","x: 215.1875
y: 335.3251647949219
z: -0.00012277610949240625
","x: 211.1907958984375
y: 339.4404296875
z: -0.0013390645617619157
","x: 208.6673126220703
y: 344.19842529296875
z: -0.0025860245805233717
","x: 206.8112030029297
y: 348.33917236328125
z: -0.0038508246652781963
","x: 211.1190185546875
y: 339.9218444824219
z: -0.004565098322927952
","x: 207.90821838378906
y: 345.5068359375
z: -0.007234462071210146
","x: 207.0531768798828
y: 350.5060119628906
z: -0.007905859500169754
","x: 206.943115234375
y: 354.66571044921875
z: -0.008103381842374802
","x: 213.00299072265625
y: 342.0007019042969
z: -0.0061030760407447815
","x: 209.7747802734375
y: 349.34136962890625
z: -0.008741921745240688
","x: 208.86703491210938
y: 354.8849792480469
z: -0.008843098767101765
","x: 208.566162109375
y: 359.0899963378906
z: -0.008866880089044571
","x: 215.3092498779297
y: 344.27471923828125
z: -0.0075246118940413
","x: 212.44418334960938
y: 351.60009765625
z: -0.009979634545743465
","x: 211.42459106445312
y: 356.471435546875
z: -0.009663139469921589
","x: 210.78970336914062
y: 360.1625061035156
z: -0.009398489259183407
","x: 217.87416076660156
y: 346.44000244140625
z: -0.00891788024455309
","x: 215.806396484375
y: 352.55999755859375
z: -0.011225408874452114
","x: 214.7622528076172
y: 356.2322692871094
z: -0.011360934935510159
","x: 213.89096069335938
y: 359.2333679199219
z: -0.011232067830860615
"
1,"x: 209.94122314453125
y: 226.33245849609375
z: -0.1372309923171997
visibility: 0.9998772144317627
","x: 211.8932647705078
y: 217.8612060546875
z: -0.12348930537700653
visibility: 0.9997199177742004
","x: 213.09788513183594
y: 217.83975219726562
z: -0.12349794059991837
visibility: 0.9996819496154785
","x: 214.276123046875
y: 217.9048309326172
z: -0.12349139153957367
visibility: 0.9996953010559082
","x: 208.15501403808594
y: 217.06358337402344
z: -0.12265898287296295
visibility: 0.9997003078460693
","x: 206.90670776367188
y: 216.5050048828125
z: -0.12267114222049713
visibility: 0.9996566772460938
","x: 205.65859985351562
y: 216.0349884033203
z: -0.12264865636825562
visibility: 0.9996877908706665
","x: 215.29949951171875
y: 220.20303344726562
z: -0.028602782636880875
visibility: 0.9996086955070496
","x: 202.96636962890625
y: 218.5509490966797
z: -0.024418259039521217
visibility: 0.9993752837181091
","x: 212.05398559570312
y: 232.2434844970703
z: -0.09956557303667068
visibility: 0.9998162388801575
","x: 206.67042541503906
y: 230.9456024169922
z: -0.09849059581756592
visibility: 0.9998019337654114
","x: 229.23045349121094
y: 259.84283447265625
z: 0.018312837928533554
visibility: 0.9999661445617676
","x: 188.27537536621094
y: 254.216796875
z: 0.02683425322175026
visibility: 0.9998893737792969
","x: 233.93666076660156
y: 315.3736267089844
z: -0.009015166200697422
visibility: 0.9823706150054932
","x: 176.17681884765625
y: 308.783447265625
z: -0.06384202092885971
visibility: 0.9884998202323914
","x: 221.52340698242188
y: 338.71160888671875
z: -0.13233472406864166
visibility: 0.9821180105209351
","x: 198.1875457763672
y: 287.4450988769531
z: -0.24306869506835938
visibility: 0.9903572201728821
","x: 217.49098205566406
y: 349.1961975097656
z: -0.16679638624191284
visibility: 0.9595180749893188
","x: 205.32008361816406
y: 287.4331359863281
z: -0.2856515049934387
visibility: 0.976632833480835
","x: 214.29144287109375
y: 342.393798828125
z: -0.1824783831834793
visibility: 0.958368718624115
","x: 206.70848083496094
y: 280.4406433105469
z: -0.28160735964775085
visibility: 0.974741518497467
","x: 214.916748046875
y: 338.88763427734375
z: -0.13992692530155182
visibility: 0.9389846324920654
","x: 204.8894805908203
y: 279.8245544433594
z: -0.24533089995384216
visibility: 0.9615543484687805
","x: 219.84251403808594
y: 367.2587585449219
z: 0.00113097601570189
visibility: 0.9995861649513245
","x: 195.3988037109375
y: 365.2160339355469
z: -0.0010674933437258005
visibility: 0.9996824264526367
","x: 220.9416046142578
y: 455.49676513671875
z: -0.04361423850059509
visibility: 0.9966666102409363
","x: 189.01229858398438
y: 449.9905090332031
z: -0.032039813697338104
visibility: 0.9963602423667908
","x: 218.96990966796875
y: 529.7220458984375
z: 0.10102786868810654
visibility: 0.9931836724281311
","x: 186.29339599609375
y: 525.827880859375
z: 0.0956379696726799
visibility: 0.9952772855758667
","x: 214.60353088378906
y: 539.0245361328125
z: 0.10874839127063751
visibility: 0.9251605868339539
","x: 189.4927520751953
y: 536.4691772460938
z: 0.10181166976690292
visibility: 0.9150535464286804
","x: 226.39447021484375
y: 552.7673950195312
z: -0.0070366100408136845
visibility: 0.987936794757843
","x: 180.67771911621094
y: 549.394775390625
z: -0.012334545142948627
visibility: 0.9901204109191895
","x: 200.95431518554688
y: 285.0805358886719
z: 0.0
","x: 201.9590606689453
y: 277.80181884765625
z: -4.374667696538381e-05
","x: 204.54376220703125
y: 273.2149353027344
z: -0.0007019653567112982
","x: 207.08462524414062
y: 270.6177062988281
z: -0.0014503634301945567
","x: 208.60678100585938
y: 267.6771545410156
z: -0.0020852703601121902
","x: 209.89459228515625
y: 276.82110595703125
z: -0.0011818730272352695
","x: 214.11343383789062
y: 275.3090515136719
z: -0.0021644914522767067
","x: 216.6788330078125
y: 275.1603088378906
z: -0.002233484759926796
","x: 218.54815673828125
y: 275.41827392578125
z: -0.002177473157644272
","x: 210.44993591308594
y: 281.8282775878906
z: -0.00223128916695714
","x: 215.3955078125
y: 282.4371643066406
z: -0.002737929578870535
","x: 218.104736328125
y: 283.72674560546875
z: -0.002487919060513377
","x: 219.8716278076172
y: 285.0229187011719
z: -0.002453213557600975
","x: 210.1315460205078
y: 286.54669189453125
z: -0.003317513968795538
","x: 214.35986328125
y: 288.4857482910156
z: -0.004490434192121029
","x: 216.7509002685547
y: 290.01080322265625
z: -0.004960044287145138
","x: 218.36639404296875
y: 291.0589294433594
z: -0.005202026106417179
","x: 209.0912322998047
y: 290.8890686035156
z: -0.004460930358618498
","x: 212.05776977539062
y: 293.6887512207031
z: -0.006009952165186405
","x: 213.77642822265625
y: 295.5514831542969
z: -0.006700948812067509
","x: 215.0171661376953
y: 296.82183837890625
z: -0.00693936413154006
","x: 218.88955688476562
y: 334.8165283203125
z: 0.0
","x: 215.1875
y: 335.3251647949219
z: -0.00012277610949240625
","x: 211.1907958984375
y: 339.4404296875
z: -0.0013390645617619157
","x: 208.6673126220703
y: 344.19842529296875
z: -0.0025860245805233717
","x: 206.8112030029297
y: 348.33917236328125
z: -0.0038508246652781963
","x: 211.1190185546875
y: 339.9218444824219
z: -0.004565098322927952
","x: 207.90821838378906
y: 345.5068359375
z: -0.007234462071210146
","x: 207.0531768798828
y: 350.5060119628906
z: -0.007905859500169754
","x: 206.943115234375
y: 354.66571044921875
z: -0.008103381842374802
","x: 213.00299072265625
y: 342.0007019042969
z: -0.0061030760407447815
","x: 209.7747802734375
y: 349.34136962890625
z: -0.008741921745240688
","x: 208.86703491210938
y: 354.8849792480469
z: -0.008843098767101765
","x: 208.566162109375
y: 359.0899963378906
z: -0.008866880089044571
","x: 215.3092498779297
y: 344.27471923828125
z: -0.0075246118940413
","x: 212.44418334960938
y: 351.60009765625
z: -0.009979634545743465
","x: 211.42459106445312
y: 356.471435546875
z: -0.009663139469921589
","x: 210.78970336914062
y: 360.1625061035156
z: -0.009398489259183407
","x: 217.87416076660156
y: 346.44000244140625
z: -0.00891788024455309
","x: 215.806396484375
y: 352.55999755859375
z: -0.011225408874452114
","x: 214.7622528076172
y: 356.2322692871094
z: -0.011360934935510159
","x: 213.89096069335938
y: 359.2333679199219
z: -0.011232067830860615
"
2,"x: 209.94122314453125
y: 226.33245849609375
z: -0.1372309923171997
visibility: 0.9998772144317627
","x: 211.8932647705078
y: 217.8612060546875
z: -0.12348930537700653
visibility: 0.9997199177742004
","x: 213.09788513183594
y: 217.83975219726562
z: -0.12349794059991837
visibility: 0.9996819496154785
","x: 214.276123046875
y: 217.9048309326172
z: -0.12349139153957367
visibility: 0.9996953010559082
","x: 208.15501403808594
y: 217.06358337402344
z: -0.12265898287296295
visibility: 0.9997003078460693
","x: 206.90670776367188
y: 216.5050048828125
z: -0.12267114222049713
visibility: 0.9996566772460938
","x: 205.65859985351562
y: 216.0349884033203
z: -0.12264865636825562
visibility: 0.9996877908706665
","x: 215.29949951171875
y: 220.20303344726562
z: -0.028602782636880875
visibility: 0.9996086955070496
","x: 202.96636962890625
y: 218.5509490966797
z: -0.024418259039521217
visibility: 0.9993752837181091
","x: 212.05398559570312
y: 232.2434844970703
z: -0.09956557303667068
visibility: 0.9998162388801575
","x: 206.67042541503906
y: 230.9456024169922
z: -0.09849059581756592
visibility: 0.9998019337654114
","x: 229.23045349121094
y: 259.84283447265625
z: 0.018312837928533554
visibility: 0.9999661445617676
","x: 188.27537536621094
y: 254.216796875
z: 0.02683425322175026
visibility: 0.9998893737792969
","x: 233.93666076660156
y: 315.3736267089844
z: -0.009015166200697422
visibility: 0.9823706150054932
","x: 176.17681884765625
y: 308.783447265625
z: -0.06384202092885971
visibility: 0.9884998202323914
","x: 221.52340698242188
y: 338.71160888671875
z: -0.13233472406864166
visibility: 0.9821180105209351
","x: 198.1875457763672
y: 287.4450988769531
z: -0.24306869506835938
visibility: 0.9903572201728821
","x: 217.49098205566406
y: 349.1961975097656
z: -0.16679638624191284
visibility: 0.9595180749893188
","x: 205.32008361816406
y: 287.4331359863281
z: -0.2856515049934387
visibility: 0.976632833480835
","x: 214.29144287109375
y: 342.393798828125
z: -0.1824783831834793
visibility: 0.958368718624115
","x: 206.70848083496094
y: 280.4406433105469
z: -0.28160735964775085
visibility: 0.974741518497467
","x: 214.916748046875
y: 338.88763427734375
z: -0.13992692530155182
visibility: 0.9389846324920654
","x: 204.8894805908203
y: 279.8245544433594
z: -0.24533089995384216
visibility: 0.9615543484687805
","x: 219.84251403808594
y: 367.2587585449219
z: 0.00113097601570189
visibility: 0.9995861649513245
","x: 195.3988037109375
y: 365.2160339355469
z: -0.0010674933437258005
visibility: 0.9996824264526367
","x: 220.9416046142578
y: 455.49676513671875
z: -0.04361423850059509
visibility: 0.9966666102409363
","x: 189.01229858398438
y: 449.9905090332031
z: -0.032039813697338104
visibility: 0.9963602423667908
","x: 218.96990966796875
y: 529.7220458984375
z: 0.10102786868810654
visibility: 0.9931836724281311
","x: 186.29339599609375
y: 525.827880859375
z: 0.0956379696726799
visibility: 0.9952772855758667
","x: 214.60353088378906
y: 539.0245361328125
z: 0.10874839127063751
visibility: 0.9251605868339539
","x: 189.4927520751953
y: 536.4691772460938
z: 0.10181166976690292
visibility: 0.9150535464286804
","x: 226.39447021484375
y: 552.7673950195312
z: -0.0070366100408136845
visibility: 0.987936794757843
","x: 180.67771911621094
y: 549.394775390625
z: -0.012334545142948627
visibility: 0.9901204109191895
","x: 200.95431518554688
y: 285.0805358886719
z: 0.0
","x: 201.9590606689453
y: 277.80181884765625
z: -4.374667696538381e-05
","x: 204.54376220703125
y: 273.2149353027344
z: -0.0007019653567112982
","x: 207.08462524414062
y: 270.6177062988281
z: -0.0014503634301945567
","x: 208.60678100585938
y: 267.6771545410156
z: -0.0020852703601121902
","x: 209.89459228515625
y: 276.82110595703125
z: -0.0011818730272352695
","x: 214.11343383789062
y: 275.3090515136719
z: -0.0021644914522767067
","x: 216.6788330078125
y: 275.1603088378906
z: -0.002233484759926796
","x: 218.54815673828125
y: 275.41827392578125
z: -0.002177473157644272
","x: 210.44993591308594
y: 281.8282775878906
z: -0.00223128916695714
","x: 215.3955078125
y: 282.4371643066406
z: -0.002737929578870535
","x: 218.104736328125
y: 283.72674560546875
z: -0.002487919060513377
","x: 219.8716278076172
y: 285.0229187011719
z: -0.002453213557600975
","x: 210.1315460205078
y: 286.54669189453125
z: -0.003317513968795538
","x: 214.35986328125
y: 288.4857482910156
z: -0.004490434192121029
","x: 216.7509002685547
y: 290.01080322265625
z: -0.004960044287145138
","x: 218.36639404296875
y: 291.0589294433594
z: -0.005202026106417179
","x: 209.0912322998047
y: 290.8890686035156
z: -0.004460930358618498
","x: 212.05776977539062
y: 293.6887512207031
z: -0.006009952165186405
","x: 213.77642822265625
y: 295.5514831542969
z: -0.006700948812067509
","x: 215.0171661376953
y: 296.82183837890625
z: -0.00693936413154006
","x: 218.88955688476562
y: 334.8165283203125
z: 0.0
","x: 215.1875
y: 335.3251647949219
z: -0.00012277610949240625
","x: 211.1907958984375
y: 339.4404296875
z: -0.0013390645617619157
","x: 208.6673126220703
y: 344.19842529296875
z: -0.0025860245805233717
","x: 206.8112030029297
y: 348.33917236328125
z: -0.0038508246652781963
","x: 211.1190185546875
y: 339.9218444824219
z: -0.004565098322927952
","x: 207.90821838378906
y: 345.5068359375
z: -0.007234462071210146
","x: 207.0531768798828
y: 350.5060119628906
z: -0.007905859500169754
","x: 206.943115234375
y: 354.66571044921875
z: -0.008103381842374802
","x: 213.00299072265625
y: 342.0007019042969
z: -0.0061030760407447815
","x: 209.7747802734375
y: 349.34136962890625
z: -0.008741921745240688
","x: 208.86703491210938
y: 354.8849792480469
z: -0.008843098767101765
","x: 208.566162109375
y: 359.0899963378906
z: -0.008866880089044571
","x: 215.3092498779297
y: 344.27471923828125
z: -0.0075246118940413
","x: 212.44418334960938
y: 351.60009765625
z: -0.009979634545743465
","x: 211.42459106445312
y: 356.471435546875
z: -0.009663139469921589
","x: 210.78970336914062
y: 360.1625061035156
z: -0.009398489259183407
","x: 217.87416076660156
y: 346.44000244140625
z: -0.00891788024455309
","x: 215.806396484375
y: 352.55999755859375
z: -0.011225408874452114
","x: 214.7622528076172
y: 356.2322692871094
z: -0.011360934935510159
","x: 213.89096069335938
y: 359.2333679199219
z: -0.011232067830860615
"
3,"x: 202.91824340820312
y: 224.118896484375
z: -0.21602876484394073
visibility: 0.9998874068260193
","x: 205.3362579345703
y: 215.28097534179688
z: -0.20723450183868408
visibility: 0.9997394680976868
","x: 206.89414978027344
y: 214.88461303710938
z: -0.20724359154701233
visibility: 0.9997051954269409
","x: 208.47349548339844
y: 214.59658813476562
z: -0.20723894238471985
visibility: 0.9997153878211975
","x: 201.56561279296875
y: 215.57081604003906
z: -0.20272882282733917
visibility: 0.9997206926345825
","x: 200.51609802246094
y: 215.28289794921875
z: -0.20275577902793884
visibility: 0.9996803998947144
","x: 199.55992126464844
y: 214.997314453125
z: -0.2027573585510254
visibility: 0.9997066855430603
","x: 212.2548065185547
y: 216.1295166015625
z: -0.11285795271396637
visibility: 0.9996374845504761
","x: 200.11793518066406
y: 215.7626495361328
z: -0.0926949605345726
visibility: 0.9994091987609863
","x: 206.39895629882812
y: 229.77500915527344
z: -0.17696848511695862
visibility: 0.9998302459716797
","x: 201.57070922851562
y: 229.43118286132812
z: -0.17137500643730164
visibility: 0.9998146891593933
","x: 229.04888916015625
y: 256.36151123046875
z: -0.02197188511490822
visibility: 0.9999668002128601
","x: 187.8581085205078
y: 253.81455993652344
z: -0.02193344011902809
visibility: 0.999891996383667
","x: 238.79908752441406
y: 313.9184265136719
z: 0.008264281786978245
visibility: 0.9838191270828247
","x: 176.09031677246094
y: 308.7926025390625
z: -0.11248363554477692
visibility: 0.9881241917610168
","x: 247.90325927734375
y: 356.9259338378906
z: -0.06805253773927689
visibility: 0.9835104942321777
","x: 185.7489013671875
y: 277.9369812011719
z: -0.339840292930603
visibility: 0.9908588528633118
","x: 250.88919067382812
y: 373.4985046386719
z: -0.08458656817674637
visibility: 0.9622114300727844
","x: 191.54759216308594
y: 274.17950439453125
z: -0.382394015789032
visibility: 0.9778887629508972
","x: 248.26194763183594
y: 372.7506103515625
z: -0.1156669408082962
visibility: 0.9612765908241272
","x: 192.88876342773438
y: 266.10125732421875
z: -0.3887055516242981
visibility: 0.976132333278656
","x: 247.00750732421875
y: 368.9524841308594
z: -0.08031819015741348
visibility: 0.9434996843338013
","x: 191.1934356689453
y: 267.17449951171875
z: -0.34705978631973267
visibility: 0.963554322719574
","x: 216.68392944335938
y: 368.9394836425781
z: 0.0017535050865262747
visibility: 0.9996004104614258
","x: 193.1541748046875
y: 367.573974609375
z: -0.001748696668073535
visibility: 0.9996975660324097
","x: 219.55963134765625
y: 455.49853515625
z: 0.01565166562795639
visibility: 0.9960592985153198
","x: 190.4929656982422
y: 452.8953857421875
z: -0.021588915959000587
visibility: 0.9963566660881042
","x: 219.76217651367188
y: 529.682861328125
z: 0.15775015950202942
visibility: 0.992954432964325
","x: 191.69566345214844
y: 532.11767578125
z: 0.09677836298942566
visibility: 0.995402455329895
","x: 215.3338165283203
y: 540.6563720703125
z: 0.16396549344062805
visibility: 0.9266806244850159
","x: 195.57151794433594
y: 544.6836547851562
z: 0.10197784006595612
visibility: 0.918538510799408
","x: 226.29608154296875
y: 552.8021850585938
z: 0.045138005167245865
visibility: 0.9878764748573303
","x: 181.28904724121094
y: 555.8875122070312
z: -0.018592163920402527
visibility: 0.9904753565788269
","x: 183.7812042236328
y: 268.9490051269531
z: 0.0
","x: 187.4782257080078
y: 263.1723937988281
z: 0.0025219593662768602
","x: 192.03526306152344
y: 260.1478271484375
z: 0.002490951679646969
","x: 195.70228576660156
y: 258.982666015625
z: 0.001732483971863985
","x: 198.16897583007812
y: 258.00384521484375
z: 0.0009646565886214375
","x: 194.2652587890625
y: 260.8236389160156
z: -0.0016494743758812547
","x: 199.57208251953125
y: 259.47637939453125
z: -0.003685670904815197
","x: 202.83226013183594
y: 259.7028503417969
z: -0.00431035878136754
","x: 205.37283325195312
y: 260.1189880371094
z: -0.0046273875050246716
","x: 194.22760009765625
y: 264.9617919921875
z: -0.004573478363454342
","x: 200.2343292236328
y: 265.71624755859375
z: -0.006696371361613274
","x: 203.7374725341797
y: 267.5708923339844
z: -0.00686825904995203
","x: 206.3409423828125
y: 269.1332702636719
z: -0.007082837633788586
","x: 193.6893768310547
y: 269.4195861816406
z: -0.0072133103385567665
","x: 199.22552490234375
y: 271.1101379394531
z: -0.00942973978817463
","x: 202.32667541503906
y: 272.97967529296875
z: -0.009482041001319885
","x: 204.62295532226562
y: 274.3765563964844
z: -0.009529011324048042
","x: 192.72732543945312
y: 273.91693115234375
z: -0.009667934849858284
","x: 196.78265380859375
y: 276.11346435546875
z: -0.011650213040411472
","x: 199.25860595703125
y: 277.64483642578125
z: -0.011945819482207298
","x: 201.37384033203125
y: 278.8320007324219
z: -0.012056252919137478
","x: 250.31309509277344
y: 359.451904296875
z: 0.0
","x: 247.1363067626953
y: 361.2713317871094
z: -0.003700762987136841
","x: 245.41171264648438
y: 365.61163330078125
z: -0.005652350373566151
","x: 245.01992797851562
y: 371.08868408203125
z: -0.006850070785731077
","x: 244.76597595214844
y: 375.78369140625
z: -0.007767159957438707
","x: 249.12640380859375
y: 372.294677734375
z: -0.006069663446396589
","x: 248.72543334960938
y: 380.974365234375
z: -0.007585844956338406
","x: 248.338623046875
y: 386.25885009765625
z: -0.007756238803267479
","x: 248.24429321289062
y: 390.5343933105469
z: -0.007607159670442343
","x: 251.3900146484375
y: 374.174072265625
z: -0.004956519231200218
","x: 250.96487426757812
y: 382.9100036621094
z: -0.006536433007568121
","x: 250.34474182128906
y: 388.0555725097656
z: -0.0064725917764008045
","x: 250.0155487060547
y: 392.0435791015625
z: -0.006288963370025158
","x: 252.79051208496094
y: 375.5180358886719
z: -0.003871869295835495
","x: 252.454345703125
y: 383.510986328125
z: -0.005501194857060909
","x: 251.92327880859375
y: 388.229248046875
z: -0.005730430595576763
","x: 251.4808807373047
y: 391.7758483886719
z: -0.00576107669621706
","x: 253.50906372070312
y: 376.5196533203125
z: -0.0030707484111189842
","x: 253.51034545898438
y: 383.6103515625
z: -0.004407767206430435
","x: 253.05508422851562
y: 387.8564758300781
z: -0.004811579827219248
","x: 252.4889373779297
y: 390.9422607421875
z: -0.004917404614388943
"
4,"x: 202.91824340820312
y: 224.118896484375
z: -0.21602876484394073
visibility: 0.9998874068260193
","x: 205.3362579345703
y: 215.28097534179688
z: -0.20723450183868408
visibility: 0.9997394680976868
","x: 206.89414978027344
y: 214.88461303710938
z: -0.20724359154701233
visibility: 0.9997051954269409
","x: 208.47349548339844
y: 214.59658813476562
z: -0.20723894238471985
visibility: 0.9997153878211975
","x: 201.56561279296875
y: 215.57081604003906
z: -0.20272882282733917
visibility: 0.9997206926345825
","x: 200.51609802246094
y: 215.28289794921875
z: -0.20275577902793884
visibility: 0.9996803998947144
","x: 199.55992126464844
y: 214.997314453125
z: -0.2027573585510254
visibility: 0.9997066855430603
","x: 212.2548065185547
y: 216.1295166015625
z: -0.11285795271396637
visibility: 0.9996374845504761
","x: 200.11793518066406
y: 215.7626495361328
z: -0.0926949605345726
visibility: 0.9994091987609863
","x: 206.39895629882812
y: 229.77500915527344
z: -0.17696848511695862
visibility: 0.9998302459716797
","x: 201.57070922851562
y: 229.43118286132812
z: -0.17137500643730164
visibility: 0.9998146891593933
","x: 229.04888916015625
y: 256.36151123046875
z: -0.02197188511490822
visibility: 0.9999668002128601
","x: 187.8581085205078
y: 253.81455993652344
z: -0.02193344011902809
visibility: 0.999891996383667
","x: 238.79908752441406
y: 313.9184265136719
z: 0.008264281786978245
visibility: 0.9838191270828247
","x: 176.09031677246094
y: 308.7926025390625
z: -0.11248363554477692
visibility: 0.9881241917610168
","x: 247.90325927734375
y: 356.9259338378906
z: -0.06805253773927689
visibility: 0.9835104942321777
","x: 185.7489013671875
y: 277.9369812011719
z: -0.339840292930603
visibility: 0.9908588528633118
","x: 250.88919067382812
y: 373.4985046386719
z: -0.08458656817674637
visibility: 0.9622114300727844
","x: 191.54759216308594
y: 274.17950439453125
z: -0.382394015789032
visibility: 0.9778887629508972
","x: 248.26194763183594
y: 372.7506103515625
z: -0.1156669408082962
visibility: 0.9612765908241272
","x: 192.88876342773438
y: 266.10125732421875
z: -0.3887055516242981
visibility: 0.976132333278656
","x: 247.00750732421875
y: 368.9524841308594
z: -0.08031819015741348
visibility: 0.9434996843338013
","x: 191.1934356689453
y: 267.17449951171875
z: -0.34705978631973267
visibility: 0.963554322719574
","x: 216.68392944335938
y: 368.9394836425781
z: 0.0017535050865262747
visibility: 0.9996004104614258
","x: 193.1541748046875
y: 367.573974609375
z: -0.001748696668073535
visibility: 0.9996975660324097
","x: 219.55963134765625
y: 455.49853515625
z: 0.01565166562795639
visibility: 0.9960592985153198
","x: 190.4929656982422
y: 452.8953857421875
z: -0.021588915959000587
visibility: 0.9963566660881042
","x: 219.76217651367188
y: 529.682861328125
z: 0.15775015950202942
visibility: 0.992954432964325
","x: 191.69566345214844
y: 532.11767578125
z: 0.09677836298942566
visibility: 0.995402455329895
","x: 215.3338165283203
y: 540.6563720703125
z: 0.16396549344062805
visibility: 0.9266806244850159
","x: 195.57151794433594
y: 544.6836547851562
z: 0.10197784006595612
visibility: 0.918538510799408
","x: 226.29608154296875
y: 552.8021850585938
z: 0.045138005167245865
visibility: 0.9878764748573303
","x: 181.28904724121094
y: 555.8875122070312
z: -0.018592163920402527
visibility: 0.9904753565788269
","x: 183.7812042236328
y: 268.9490051269531
z: 0.0
","x: 187.4782257080078
y: 263.1723937988281
z: 0.0025219593662768602
","x: 192.03526306152344
y: 260.1478271484375
z: 0.002490951679646969
","x: 195.70228576660156
y: 258.982666015625
z: 0.001732483971863985
","x: 198.16897583007812
y: 258.00384521484375
z: 0.0009646565886214375
","x: 194.2652587890625
y: 260.8236389160156
z: -0.0016494743758812547
","x: 199.57208251953125
y: 259.47637939453125
z: -0.003685670904815197
","x: 202.83226013183594
y: 259.7028503417969
z: -0.00431035878136754
","x: 205.37283325195312
y: 260.1189880371094
z: -0.0046273875050246716
","x: 194.22760009765625
y: 264.9617919921875
z: -0.004573478363454342
","x: 200.2343292236328
y: 265.71624755859375
z: -0.006696371361613274
","x: 203.7374725341797
y: 267.5708923339844
z: -0.00686825904995203
","x: 206.3409423828125
y: 269.1332702636719
z: -0.007082837633788586
","x: 193.6893768310547
y: 269.4195861816406
z: -0.0072133103385567665
","x: 199.22552490234375
y: 271.1101379394531
z: -0.00942973978817463
","x: 202.32667541503906
y: 272.97967529296875
z: -0.009482041001319885
","x: 204.62295532226562
y: 274.3765563964844
z: -0.009529011324048042
","x: 192.72732543945312
y: 273.91693115234375
z: -0.009667934849858284
","x: 196.78265380859375
y: 276.11346435546875
z: -0.011650213040411472
","x: 199.25860595703125
y: 277.64483642578125
z: -0.011945819482207298
","x: 201.37384033203125
y: 278.8320007324219
z: -0.012056252919137478
","x: 250.31309509277344
y: 359.451904296875
z: 0.0
","x: 247.1363067626953
y: 361.2713317871094
z: -0.003700762987136841
","x: 245.41171264648438
y: 365.61163330078125
z: -0.005652350373566151
","x: 245.01992797851562
y: 371.08868408203125
z: -0.006850070785731077
","x: 244.76597595214844
y: 375.78369140625
z: -0.007767159957438707
","x: 249.12640380859375
y: 372.294677734375
z: -0.006069663446396589
","x: 248.72543334960938
y: 380.974365234375
z: -0.007585844956338406
","x: 248.338623046875
y: 386.25885009765625
z: -0.007756238803267479
","x: 248.24429321289062
y: 390.5343933105469
z: -0.007607159670442343
","x: 251.3900146484375
y: 374.174072265625
z: -0.004956519231200218
","x: 250.96487426757812
y: 382.9100036621094
z: -0.006536433007568121
","x: 250.34474182128906
y: 388.0555725097656
z: -0.0064725917764008045
","x: 250.0155487060547
y: 392.0435791015625
z: -0.006288963370025158
","x: 252.79051208496094
y: 375.5180358886719
z: -0.003871869295835495
","x: 252.454345703125
y: 383.510986328125
z: -0.005501194857060909
","x: 251.92327880859375
y: 388.229248046875
z: -0.005730430595576763
","x: 251.4808807373047
y: 391.7758483886719
z: -0.00576107669621706
","x: 253.50906372070312
y: 376.5196533203125
z: -0.0030707484111189842
","x: 253.51034545898438
y: 383.6103515625
z: -0.004407767206430435
","x: 253.05508422851562
y: 387.8564758300781
z: -0.004811579827219248
","x: 252.4889373779297
y: 390.9422607421875
z: -0.004917404614388943
"
5,"x: 202.91824340820312
y: 224.118896484375
z: -0.21602876484394073
visibility: 0.9998874068260193
","x: 205.3362579345703
y: 215.28097534179688
z: -0.20723450183868408
visibility: 0.9997394680976868
","x: 206.89414978027344
y: 214.88461303710938
z: -0.20724359154701233
visibility: 0.9997051954269409
","x: 208.47349548339844
y: 214.59658813476562
z: -0.20723894238471985
visibility: 0.9997153878211975
","x: 201.56561279296875
y: 215.57081604003906
z: -0.20272882282733917
visibility: 0.9997206926345825
","x: 200.51609802246094
y: 215.28289794921875
z: -0.20275577902793884
visibility: 0.9996803998947144
","x: 199.55992126464844
y: 214.997314453125
z: -0.2027573585510254
visibility: 0.9997066855430603
","x: 212.2548065185547
y: 216.1295166015625
z: -0.11285795271396637
visibility: 0.9996374845504761
","x: 200.11793518066406
y: 215.7626495361328
z: -0.0926949605345726
visibility: 0.9994091987609863
","x: 206.39895629882812
y: 229.77500915527344
z: -0.17696848511695862
visibility: 0.9998302459716797
","x: 201.57070922851562
y: 229.43118286132812
z: -0.17137500643730164
visibility: 0.9998146891593933
","x: 229.04888916015625
y: 256.36151123046875
z: -0.02197188511490822
visibility: 0.9999668002128601
","x: 187.8581085205078
y: 253.81455993652344
z: -0.02193344011902809
visibility: 0.999891996383667
","x: 238.79908752441406
y: 313.9184265136719
z: 0.008264281786978245
visibility: 0.9838191270828247
","x: 176.09031677246094
y: 308.7926025390625
z: -0.11248363554477692
visibility: 0.9881241917610168
","x: 247.90325927734375
y: 356.9259338378906
z: -0.06805253773927689
visibility: 0.9835104942321777
","x: 185.7489013671875
y: 277.9369812011719
z: -0.339840292930603
visibility: 0.9908588528633118
","x: 250.88919067382812
y: 373.4985046386719
z: -0.08458656817674637
visibility: 0.9622114300727844
","x: 191.54759216308594
y: 274.17950439453125
z: -0.382394015789032
visibility: 0.9778887629508972
","x: 248.26194763183594
y: 372.7506103515625
z: -0.1156669408082962
visibility: 0.9612765908241272
","x: 192.88876342773438
y: 266.10125732421875
z: -0.3887055516242981
visibility: 0.976132333278656
","x: 247.00750732421875
y: 368.9524841308594
z: -0.08031819015741348
visibility: 0.9434996843338013
","x: 191.1934356689453
y: 267.17449951171875
z: -0.34705978631973267
visibility: 0.963554322719574
","x: 216.68392944335938
y: 368.9394836425781
z: 0.0017535050865262747
visibility: 0.9996004104614258
","x: 193.1541748046875
y: 367.573974609375
z: -0.001748696668073535
visibility: 0.9996975660324097
","x: 219.55963134765625
y: 455.49853515625
z: 0.01565166562795639
visibility: 0.9960592985153198
","x: 190.4929656982422
y: 452.8953857421875
z: -0.021588915959000587
visibility: 0.9963566660881042
","x: 219.76217651367188
y: 529.682861328125
z: 0.15775015950202942
visibility: 0.992954432964325
","x: 191.69566345214844
y: 532.11767578125
z: 0.09677836298942566
visibility: 0.995402455329895
","x: 215.3338165283203
y: 540.6563720703125
z: 0.16396549344062805
visibility: 0.9266806244850159
","x: 195.57151794433594
y: 544.6836547851562
z: 0.10197784006595612
visibility: 0.918538510799408
","x: 226.29608154296875
y: 552.8021850585938
z: 0.045138005167245865
visibility: 0.9878764748573303
","x: 181.28904724121094
y: 555.8875122070312
z: -0.018592163920402527
visibility: 0.9904753565788269
","x: 183.7812042236328
y: 268.9490051269531
z: 0.0
","x: 187.4782257080078
y: 263.1723937988281
z: 0.0025219593662768602
","x: 192.03526306152344
y: 260.1478271484375
z: 0.002490951679646969
","x: 195.70228576660156
y: 258.982666015625
z: 0.001732483971863985
","x: 198.16897583007812
y: 258.00384521484375
z: 0.0009646565886214375
","x: 194.2652587890625
y: 260.8236389160156
z: -0.0016494743758812547
","x: 199.57208251953125
y: 259.47637939453125
z: -0.003685670904815197
","x: 202.83226013183594
y: 259.7028503417969
z: -0.00431035878136754
","x: 205.37283325195312
y: 260.1189880371094
z: -0.0046273875050246716
","x: 194.22760009765625
y: 264.9617919921875
z: -0.004573478363454342
","x: 200.2343292236328
y: 265.71624755859375
z: -0.006696371361613274
","x: 203.7374725341797
y: 267.5708923339844
z: -0.00686825904995203
","x: 206.3409423828125
y: 269.1332702636719
z: -0.007082837633788586
","x: 193.6893768310547
y: 269.4195861816406
z: -0.0072133103385567665
","x: 199.22552490234375
y: 271.1101379394531
z: -0.00942973978817463
","x: 202.32667541503906
y: 272.97967529296875
z: -0.009482041001319885
","x: 204.62295532226562
y: 274.3765563964844
z: -0.009529011324048042
","x: 192.72732543945312
y: 273.91693115234375
z: -0.009667934849858284
","x: 196.78265380859375
y: 276.11346435546875
z: -0.011650213040411472
","x: 199.25860595703125
y: 277.64483642578125
z: -0.011945819482207298
","x: 201.37384033203125
y: 278.8320007324219
z: -0.012056252919137478
","x: 250.31309509277344
y: 359.451904296875
z: 0.0
","x: 247.1363067626953
y: 361.2713317871094
z: -0.003700762987136841
","x: 245.41171264648438
y: 365.61163330078125
z: -0.005652350373566151
","x: 245.01992797851562
y: 371.08868408203125
z: -0.006850070785731077
","x: 244.76597595214844
y: 375.78369140625
z: -0.007767159957438707
","x: 249.12640380859375
y: 372.294677734375
z: -0.006069663446396589
","x: 248.72543334960938
y: 380.974365234375
z: -0.007585844956338406
","x: 248.338623046875
y: 386.25885009765625
z: -0.007756238803267479
","x: 248.24429321289062
y: 390.5343933105469
z: -0.007607159670442343
","x: 251.3900146484375
y: 374.174072265625
z: -0.004956519231200218
","x: 250.96487426757812
y: 382.9100036621094
z: -0.006536433007568121
","x: 250.34474182128906
y: 388.0555725097656
z: -0.0064725917764008045
","x: 250.0155487060547
y: 392.0435791015625
z: -0.006288963370025158
","x: 252.79051208496094
y: 375.5180358886719
z: -0.003871869295835495
","x: 252.454345703125
y: 383.510986328125
z: -0.005501194857060909
","x: 251.92327880859375
y: 388.229248046875
z: -0.005730430595576763
","x: 251.4808807373047
y: 391.7758483886719
z: -0.00576107669621706
","x: 253.50906372070312
y: 376.5196533203125
z: -0.0030707484111189842
","x: 253.51034545898438
y: 383.6103515625
z: -0.004407767206430435
","x: 253.05508422851562
y: 387.8564758300781
z: -0.004811579827219248
","x: 252.4889373779297
y: 390.9422607421875
z: -0.004917404614388943
"
6,"x: 199.3482666015625
y: 222.85891723632812
z: -0.26481303572654724
visibility: 0.9998970031738281
","x: 201.5536651611328
y: 213.8943328857422
z: -0.2531978189945221
visibility: 0.9997584819793701
","x: 203.1881561279297
y: 213.42050170898438
z: -0.2532151937484741
visibility: 0.9997273683547974
","x: 204.79930114746094
y: 213.0594024658203
z: -0.2532203793525696
visibility: 0.999734103679657
","x: 197.5374298095703
y: 214.62217712402344
z: -0.24888262152671814
visibility: 0.9997403621673584
","x: 196.26805114746094
y: 214.53224182128906
z: -0.24890682101249695
visibility: 0.9997038841247559
","x: 195.01976013183594
y: 214.4261932373047
z: -0.2489195317029953
visibility: 0.9997256994247437
","x: 208.47918701171875
y: 214.72128295898438
z: -0.1520886868238449
visibility: 0.9996656179428101
","x: 195.103271484375
y: 215.54782104492188
z: -0.1333290934562683
visibility: 0.9994440674781799
","x: 202.71652221679688
y: 228.718017578125
z: -0.22423772513866425
visibility: 0.999843955039978
","x: 198.1108856201172
y: 228.85194396972656
z: -0.21912901103496552
visibility: 0.9998273849487305
","x: 224.46566772460938
y: 256.1333312988281
z: -0.06341646611690521
visibility: 0.9999669790267944
","x: 184.1439971923828
y: 256.2860412597656
z: -0.05832841247320175
visibility: 0.9998932480812073
","x: 238.33946228027344
y: 313.9371337890625
z: -0.01431130152195692
visibility: 0.9849404096603394
","x: 175.49720764160156
y: 309.96337890625
z: -0.17104259133338928
visibility: 0.9874737858772278
","x: 248.82254028320312
y: 361.03277587890625
z: -0.08635585010051727
visibility: 0.9847120046615601
","x: 180.69161987304688
y: 275.974853515625
z: -0.4203043580055237
visibility: 0.9914579391479492
","x: 254.11268615722656
y: 375.5751953125
z: -0.10177645832300186
visibility: 0.9645925760269165
","x: 185.83119201660156
y: 270.667236328125
z: -0.465533584356308
visibility: 0.9794150590896606
","x: 253.45635986328125
y: 375.10748291015625
z: -0.1331711709499359
visibility: 0.963850736618042
","x: 187.36099243164062
y: 262.7938537597656
z: -0.4694565236568451
visibility: 0.9777999520301819
","x: 251.42852783203125
y: 371.43115234375
z: -0.09858104586601257
visibility: 0.9475715756416321
","x: 185.9794464111328
y: 264.1689758300781
z: -0.42734479904174805
visibility: 0.9659956097602844
","x: 212.03494262695312
y: 372.391357421875
z: -0.005813332740217447
visibility: 0.9996169805526733
","x: 189.2584991455078
y: 370.5613708496094
z: 0.0057236370630562305
visibility: 0.9997162818908691
","x: 212.8272705078125
y: 458.2040100097656
z: 0.029110217466950417
visibility: 0.9954542517662048
","x: 189.89051818847656
y: 455.29461669921875
z: -0.002475571818649769
visibility: 0.9962482452392578
","x: 219.50436401367188
y: 529.6551513671875
z: 0.2292104959487915
visibility: 0.992409884929657
","x: 193.21766662597656
y: 535.0429077148438
z: 0.1403912603855133
visibility: 0.9954835176467896
","x: 215.28872680664062
y: 540.6260375976562
z: 0.24172672629356384
visibility: 0.9257798194885254
","x: 197.94772338867188
y: 547.3268432617188
z: 0.14777174592018127
visibility: 0.9227726459503174
","x: 226.27313232421875
y: 552.8222045898438
z: 0.13035885989665985
visibility: 0.9875583648681641
","x: 181.3733367919922
y: 558.2621459960938
z: 0.026792556047439575
visibility: 0.990807056427002
","x: 178.590087890625
y: 269.2640380859375
z: 0.0
","x: 182.2282257080078
y: 263.57806396484375
z: 0.0022224453277885914
","x: 186.7353973388672
y: 261.23211669921875
z: 0.0017638831632211804
","x: 190.3887176513672
y: 261.7896728515625
z: 0.0006842039874754846
","x: 192.91836547851562
y: 263.6358642578125
z: -0.00039910213672555983
","x: 188.14468383789062
y: 259.54095458984375
z: -0.0028004839550703764
","x: 193.48329162597656
y: 258.5984191894531
z: -0.0049368576146662235
","x: 196.62814331054688
y: 259.0208740234375
z: -0.0055028717033565044
","x: 198.98013305664062
y: 259.7165222167969
z: -0.005712199956178665
","x: 187.97706604003906
y: 263.2532043457031
z: -0.005582768004387617
","x: 193.9591064453125
y: 264.00604248046875
z: -0.007588936947286129
","x: 197.20071411132812
y: 265.77783203125
z: -0.00743835000321269
","x: 199.51437377929688
y: 267.4633483886719
z: -0.007404098752886057
","x: 187.43112182617188
y: 267.6156005859375
z: -0.008040090091526508
","x: 193.0118865966797
y: 268.800537109375
z: -0.009939867071807384
","x: 195.97958374023438
y: 270.4621887207031
z: -0.009633069857954979
","x: 198.13648986816406
y: 271.74017333984375
z: -0.009489182382822037
","x: 186.60626220703125
y: 272.19390869140625
z: -0.010337673127651215
","x: 190.74496459960938
y: 273.820068359375
z: -0.01202932558953762
","x: 193.23556518554688
y: 275.1246337890625
z: -0.012028118595480919
","x: 195.3333740234375
y: 276.0953369140625
z: -0.011943526566028595
",,,,,,,,,,,,,,,,,,,,,
7,"x: 199.3482666015625
y: 222.85891723632812
z: -0.26481303572654724
visibility: 0.9998970031738281
","x: 201.5536651611328
y: 213.8943328857422
z: -0.2531978189945221
visibility: 0.9997584819793701
","x: 203.1881561279297
y: 213.42050170898438
z: -0.2532151937484741
visibility: 0.9997273683547974
","x: 204.79930114746094
y: 213.0594024658203
z: -0.2532203793525696
visibility: 0.999734103679657
","x: 197.5374298095703
y: 214.62217712402344
z: -0.24888262152671814
visibility: 0.9997403621673584
","x: 196.26805114746094
y: 214.53224182128906
z: -0.24890682101249695
visibility: 0.9997038841247559
","x: 195.01976013183594
y: 214.4261932373047
z: -0.2489195317029953
visibility: 0.9997256994247437
","x: 208.47918701171875
y: 214.72128295898438
z: -0.1520886868238449
visibility: 0.9996656179428101
","x: 195.103271484375
y: 215.54782104492188
z: -0.1333290934562683
visibility: 0.9994440674781799
","x: 202.71652221679688
y: 228.718017578125
z: -0.22423772513866425
visibility: 0.999843955039978
","x: 198.1108856201172
y: 228.85194396972656
z: -0.21912901103496552
visibility: 0.9998273849487305
","x: 224.46566772460938
y: 256.1333312988281
z: -0.06341646611690521
visibility: 0.9999669790267944
","x: 184.1439971923828
y: 256.2860412597656
z: -0.05832841247320175
visibility: 0.9998932480812073
","x: 238.33946228027344
y: 313.9371337890625
z: -0.01431130152195692
visibility: 0.9849404096603394
","x: 175.49720764160156
y: 309.96337890625
z: -0.17104259133338928
visibility: 0.9874737858772278
","x: 248.82254028320312
y: 361.03277587890625
z: -0.08635585010051727
visibility: 0.9847120046615601
","x: 180.69161987304688
y: 275.974853515625
z: -0.4203043580055237
visibility: 0.9914579391479492
","x: 254.11268615722656
y: 375.5751953125
z: -0.10177645832300186
visibility: 0.9645925760269165
","x: 185.83119201660156
y: 270.667236328125
z: -0.465533584356308
visibility: 0.9794150590896606
","x: 253.45635986328125
y: 375.10748291015625
z: -0.1331711709499359
visibility: 0.963850736618042
","x: 187.36099243164062
y: 262.7938537597656
z: -0.4694565236568451
visibility: 0.9777999520301819
","x: 251.42852783203125
y: 371.43115234375
z: -0.09858104586601257
visibility: 0.9475715756416321
","x: 185.9794464111328
y: 264.1689758300781
z: -0.42734479904174805
visibility: 0.9659956097602844
","x: 212.03494262695312
y: 372.391357421875
z: -0.005813332740217447
visibility: 0.9996169805526733
","x: 189.2584991455078
y: 370.5613708496094
z: 0.0057236370630562305
visibility: 0.9997162818908691
","x: 212.8272705078125
y: 458.2040100097656
z: 0.029110217466950417
visibility: 0.9954542517662048
","x: 189.89051818847656
y: 455.29461669921875
z: -0.002475571818649769
visibility: 0.9962482452392578
","x: 219.50436401367188
y: 529.6551513671875
z: 0.2292104959487915
visibility: 0.992409884929657
","x: 193.21766662597656
y: 535.0429077148438
z: 0.1403912603855133
visibility: 0.9954835176467896
","x: 215.28872680664062
y: 540.6260375976562
z: 0.24172672629356384
visibility: 0.9257798194885254
","x: 197.94772338867188
y: 547.3268432617188
z: 0.14777174592018127
visibility: 0.9227726459503174
","x: 226.27313232421875
y: 552.8222045898438
z: 0.13035885989665985
visibility: 0.9875583648681641
","x: 181.3733367919922
y: 558.2621459960938
z: 0.026792556047439575
visibility: 0.990807056427002
","x: 178.590087890625
y: 269.2640380859375
z: 0.0
","x: 182.2282257080078
y: 263.57806396484375
z: 0.0022224453277885914
","x: 186.7353973388672
y: 261.23211669921875
z: 0.0017638831632211804
","x: 190.3887176513672
y: 261.7896728515625
z: 0.0006842039874754846
","x: 192.91836547851562
y: 263.6358642578125
z: -0.00039910213672555983
","x: 188.14468383789062
y: 259.54095458984375
z: -0.0028004839550703764
","x: 193.48329162597656
y: 258.5984191894531
z: -0.0049368576146662235
","x: 196.62814331054688
y: 259.0208740234375
z: -0.0055028717033565044
","x: 198.98013305664062
y: 259.7165222167969
z: -0.005712199956178665
","x: 187.97706604003906
y: 263.2532043457031
z: -0.005582768004387617
","x: 193.9591064453125
y: 264.00604248046875
z: -0.007588936947286129
","x: 197.20071411132812
y: 265.77783203125
z: -0.00743835000321269
","x: 199.51437377929688
y: 267.4633483886719
z: -0.007404098752886057
","x: 187.43112182617188
y: 267.6156005859375
z: -0.008040090091526508
","x: 193.0118865966797
y: 268.800537109375
z: -0.009939867071807384
","x: 195.97958374023438
y: 270.4621887207031
z: -0.009633069857954979
","x: 198.13648986816406
y: 271.74017333984375
z: -0.009489182382822037
","x: 186.60626220703125
y: 272.19390869140625
z: -0.010337673127651215
","x: 190.74496459960938
y: 273.820068359375
z: -0.01202932558953762
","x: 193.23556518554688
y: 275.1246337890625
z: -0.012028118595480919
","x: 195.3333740234375
y: 276.0953369140625
z: -0.011943526566028595
",,,,,,,,,,,,,,,,,,,,,
8,"x: 197.26336669921875
y: 220.50296020507812
z: -0.2412746399641037
visibility: 0.9999065399169922
","x: 199.87950134277344
y: 211.75946044921875
z: -0.22662794589996338
visibility: 0.9997798800468445
","x: 201.5240478515625
y: 211.50808715820312
z: -0.2266407459974289
visibility: 0.9997516870498657
","x: 203.1724090576172
y: 211.4014434814453
z: -0.22661490738391876
visibility: 0.9997565746307373
","x: 195.7889862060547
y: 212.06640625
z: -0.22607073187828064
visibility: 0.9997631311416626
","x: 194.41302490234375
y: 211.9065704345703
z: -0.22606857120990753
visibility: 0.9997301697731018
","x: 192.99359130859375
y: 211.74884033203125
z: -0.22607286274433136
visibility: 0.999748706817627
","x: 206.55038452148438
y: 213.80404663085938
z: -0.11641875654459
visibility: 0.9996955990791321
","x: 192.008544921875
y: 213.759765625
z: -0.1154041737318039
visibility: 0.9994935393333435
","x: 200.3380584716797
y: 226.862548828125
z: -0.1976308524608612
visibility: 0.9998583793640137
","x: 195.48423767089844
y: 226.8599090576172
z: -0.19767925143241882
visibility: 0.9998429417610168
","x: 220.57827758789062
y: 255.3990478515625
z: -0.031726449728012085
visibility: 0.9999688267707825
","x: 179.8729248046875
y: 255.98252868652344
z: -0.057508684694767
visibility: 0.999897837638855
","x: 233.7926788330078
y: 312.90362548828125
z: 0.014301419258117676
visibility: 0.9860217571258545
","x: 171.73841857910156
y: 305.63800048828125
z: -0.17763039469718933
visibility: 0.9872089624404907
","x: 241.97811889648438
y: 358.84454345703125
z: -0.06343413889408112
visibility: 0.9859787225723267
","x: 180.70010375976562
y: 277.7295837402344
z: -0.41978341341018677
visibility: 0.9918981790542603
","x: 244.80528259277344
y: 374.1619873046875
z: -0.07975658029317856
visibility: 0.9673097729682922
","x: 186.5335693359375
y: 280.98382568359375
z: -0.46522632241249084
visibility: 0.9806598424911499
","x: 242.76197814941406
y: 373.5949401855469
z: -0.11157046258449554
visibility: 0.9666774272918701
","x: 189.02330017089844
y: 275.3313903808594
z: -0.47159576416015625
visibility: 0.979170560836792
","x: 241.36570739746094
y: 369.4542236328125
z: -0.07610078155994415
visibility: 0.9517747759819031
","x: 187.5309600830078
y: 273.82952880859375
z: -0.4271618723869324
visibility: 0.968031644821167
","x: 209.33322143554688
y: 374.4126892089844
z: 0.00013408945233095437
visibility: 0.9996423125267029
","x: 186.06568908691406
y: 372.6560974121094
z: -0.00027409091126173735
visibility: 0.9997373819351196
","x: 212.43115234375
y: 459.3148498535156
z: 0.0356721468269825
visibility: 0.9955573678016663
","x: 188.4785614013672
y: 457.2445068359375
z: -0.005188947077840567
visibility: 0.9963825941085815
","x: 218.16871643066406
y: 529.810302734375
z: 0.22825691103935242
visibility: 0.9926402568817139
","x: 193.84629821777344
y: 535.6429443359375
z: 0.14127175509929657
visibility: 0.9957312941551208
","x: 213.8284149169922
y: 540.8934936523438
z: 0.23937034606933594
visibility: 0.9299632906913757
","x: 198.9508819580078
y: 546.8497314453125
z: 0.14834007620811462
visibility: 0.9276360273361206
","x: 226.436279296875
y: 552.8216552734375
z: 0.1279766857624054
visibility: 0.9881012439727783
","x: 182.22418212890625
y: 559.4649658203125
z: 0.025476768612861633
visibility: 0.9913679957389832
","x: 182.35409545898438
y: 281.5732116699219
z: 0.0
","x: 186.40928649902344
y: 279.12347412109375
z: 0.0015289010480046272
","x: 190.94894409179688
y: 279.5489807128906
z: 0.0002439524105284363
","x: 193.96615600585938
y: 282.0011291503906
z: -0.0016930749407038093
","x: 195.670166015625
y: 284.91650390625
z: -0.0036214387509971857
","x: 192.10391235351562
y: 278.65216064453125
z: -0.004666127730160952
","x: 196.4852752685547
y: 280.005859375
z: -0.008181164972484112
","x: 198.67869567871094
y: 283.3973083496094
z: -0.009595658630132675
","x: 199.72206115722656
y: 286.39776611328125
z: -0.010215387679636478
","x: 190.6903839111328
y: 281.80047607421875
z: -0.007540344260632992
","x: 194.8768310546875
y: 285.7480163574219
z: -0.011050944216549397
","x: 197.06097412109375
y: 289.9023742675781
z: -0.011390396393835545
","x: 198.27581787109375
y: 292.97906494140625
z: -0.011545122601091862
","x: 188.65200805664062
y: 285.298095703125
z: -0.010132264345884323
","x: 192.404541015625
y: 289.5422058105469
z: -0.01328244898468256
","x: 194.49839782714844
y: 293.45037841796875
z: -0.012892366386950016
","x: 195.70919799804688
y: 296.1006164550781
z: -0.012511256150901318
","x: 186.28369140625
y: 288.7865295410156
z: -0.012600021436810493
","x: 188.7431640625
y: 292.64813232421875
z: -0.015151621773838997
","x: 190.23374938964844
y: 295.51690673828125
z: -0.015063071623444557
","x: 191.1947784423828
y: 297.59027099609375
z: -0.014766015112400055
",,,,,,,,,,,,,,,,,,,,,
9,"x: 197.26336669921875
y: 220.50296020507812
z: -0.2412746399641037
visibility: 0.9999065399169922
","x: 199.87950134277344
y: 211.75946044921875
z: -0.22662794589996338
visibility: 0.9997798800468445
","x: 201.5240478515625
y: 211.50808715820312
z: -0.2266407459974289
visibility: 0.9997516870498657
","x: 203.1724090576172
y: 211.4014434814453
z: -0.22661490738391876
visibility: 0.9997565746307373
","x: 195.7889862060547
y: 212.06640625
z: -0.22607073187828064
visibility: 0.9997631311416626
","x: 194.41302490234375
y: 211.9065704345703
z: -0.22606857120990753
visibility: 0.9997301697731018
","x: 192.99359130859375
y: 211.74884033203125
z: -0.22607286274433136
visibility: 0.999748706817627
","x: 206.55038452148438
y: 213.80404663085938
z: -0.11641875654459
visibility: 0.9996955990791321
","x: 192.008544921875
y: 213.759765625
z: -0.1154041737318039
visibility: 0.9994935393333435
","x: 200.3380584716797
y: 226.862548828125
z: -0.1976308524608612
visibility: 0.9998583793640137
","x: 195.48423767089844
y: 226.8599090576172
z: -0.19767925143241882
visibility: 0.9998429417610168
","x: 220.57827758789062
y: 255.3990478515625
z: -0.031726449728012085
visibility: 0.9999688267707825
","x: 179.8729248046875
y: 255.98252868652344
z: -0.057508684694767
visibility: 0.999897837638855
","x: 233.7926788330078
y: 312.90362548828125
z: 0.014301419258117676
visibility: 0.9860217571258545
","x: 171.73841857910156
y: 305.63800048828125
z: -0.17763039469718933
visibility: 0.9872089624404907
","x: 241.97811889648438
y: 358.84454345703125
z: -0.06343413889408112
visibility: 0.9859787225723267
","x: 180.70010375976562
y: 277.7295837402344
z: -0.41978341341018677
visibility: 0.9918981790542603
","x: 244.80528259277344
y: 374.1619873046875
z: -0.07975658029317856
visibility: 0.9673097729682922
","x: 186.5335693359375
y: 280.98382568359375
z: -0.46522632241249084
visibility: 0.9806598424911499
","x: 242.76197814941406
y: 373.5949401855469
z: -0.11157046258449554
visibility: 0.9666774272918701
","x: 189.02330017089844
y: 275.3313903808594
z: -0.47159576416015625
visibility: 0.979170560836792
","x: 241.36570739746094
y: 369.4542236328125
z: -0.07610078155994415
visibility: 0.9517747759819031
","x: 187.5309600830078
y: 273.82952880859375
z: -0.4271618723869324
visibility: 0.968031644821167
","x: 209.33322143554688
y: 374.4126892089844
z: 0.00013408945233095437
visibility: 0.9996423125267029
","x: 186.06568908691406
y: 372.6560974121094
z: -0.00027409091126173735
visibility: 0.9997373819351196
","x: 212.43115234375
y: 459.3148498535156
z: 0.0356721468269825
visibility: 0.9955573678016663
","x: 188.4785614013672
y: 457.2445068359375
z: -0.005188947077840567
visibility: 0.9963825941085815
","x: 218.16871643066406
y: 529.810302734375
z: 0.22825691103935242
visibility: 0.9926402568817139
","x: 193.84629821777344
y: 535.6429443359375
z: 0.14127175509929657
visibility: 0.9957312941551208
","x: 213.8284149169922
y: 540.8934936523438
z: 0.23937034606933594
visibility: 0.9299632906913757
","x: 198.9508819580078
y: 546.8497314453125
z: 0.14834007620811462
visibility: 0.9276360273361206
","x: 226.436279296875
y: 552.8216552734375
z: 0.1279766857624054
visibility: 0.9881012439727783
","x: 182.22418212890625
y: 559.4649658203125
z: 0.025476768612861633
visibility: 0.9913679957389832
","x: 182.35409545898438
y: 281.5732116699219
z: 0.0
","x: 186.40928649902344
y: 279.12347412109375
z: 0.0015289010480046272
","x: 190.94894409179688
y: 279.5489807128906
z: 0.0002439524105284363
","x: 193.96615600585938
y: 282.0011291503906
z: -0.0016930749407038093
","x: 195.670166015625
y: 284.91650390625
z: -0.0036214387509971857
","x: 192.10391235351562
y: 278.65216064453125
z: -0.004666127730160952
","x: 196.4852752685547
y: 280.005859375
z: -0.008181164972484112
","x: 198.67869567871094
y: 283.3973083496094
z: -0.009595658630132675
","x: 199.72206115722656
y: 286.39776611328125
z: -0.010215387679636478
","x: 190.6903839111328
y: 281.80047607421875
z: -0.007540344260632992
","x: 194.8768310546875
y: 285.7480163574219
z: -0.011050944216549397
","x: 197.06097412109375
y: 289.9023742675781
z: -0.011390396393835545
","x: 198.27581787109375
y: 292.97906494140625
z: -0.011545122601091862
","x: 188.65200805664062
y: 285.298095703125
z: -0.010132264345884323
","x: 192.404541015625
y: 289.5422058105469
z: -0.01328244898468256
","x: 194.49839782714844
y: 293.45037841796875
z: -0.012892366386950016
","x: 195.70919799804688
y: 296.1006164550781
z: -0.012511256150901318
","x: 186.28369140625
y: 288.7865295410156
z: -0.012600021436810493
","x: 188.7431640625
y: 292.64813232421875
z: -0.015151621773838997
","x: 190.23374938964844
y: 295.51690673828125
z: -0.015063071623444557
","x: 191.1947784423828
y: 297.59027099609375
z: -0.014766015112400055
",,,,,,,,,,,,,,,,,,,,,
10,"x: 197.4370574951172
y: 217.08238220214844
z: -0.29958203434944153
visibility: 0.9999153017997742
","x: 200.16062927246094
y: 209.115234375
z: -0.28133681416511536
visibility: 0.9998003244400024
","x: 201.85733032226562
y: 209.27957153320312
z: -0.2813335359096527
visibility: 0.9997744560241699
","x: 203.48936462402344
y: 209.5712127685547
z: -0.28131014108657837
visibility: 0.9997783303260803
","x: 195.64959716796875
y: 208.67506408691406
z: -0.2835663855075836
visibility: 0.9997854828834534
","x: 194.17202758789062
y: 208.41552734375
z: -0.283594012260437
visibility: 0.9997556209564209
","x: 192.72532653808594
y: 208.17063903808594
z: -0.28362131118774414
visibility: 0.9997722506523132
","x: 206.01158142089844
y: 212.52291870117188
z: -0.15400174260139465
visibility: 0.9997231364250183
","x: 190.7611083984375
y: 210.64390563964844
z: -0.16567499935626984
visibility: 0.9995422959327698
","x: 200.31044006347656
y: 223.9438018798828
z: -0.25006309151649475
visibility: 0.9998719096183777
","x: 194.7178955078125
y: 224.02513122558594
z: -0.2535812258720398
visibility: 0.9998582005500793
","x: 219.99057006835938
y: 254.2686767578125
z: -0.05400684475898743
visibility: 0.9999700784683228
","x: 176.76121520996094
y: 255.82327270507812
z: -0.10197087377309799
visibility: 0.9999063611030579
","x: 232.1374969482422
y: 310.07666015625
z: -0.03474264591932297
visibility: 0.9860852360725403
","x: 166.8724365234375
y: 303.41705322265625
z: -0.19471921026706696
visibility: 0.9878166317939758
","x: 233.90655517578125
y: 357.24609375
z: -0.1894516795873642
visibility: 0.9862967133522034
","x: 180.20260620117188
y: 309.4908447265625
z: -0.42990168929100037
visibility: 0.9921128153800964
","x: 235.92559814453125
y: 373.85748291015625
z: -0.22810348868370056
visibility: 0.9683015942573547
","x: 184.01852416992188
y: 325.6551818847656
z: -0.48377880454063416
visibility: 0.981418251991272
","x: 232.34585571289062
y: 371.5508728027344
z: -0.26130959391593933
visibility: 0.9677916765213013
","x: 188.45953369140625
y: 321.7220764160156
z: -0.49418139457702637
visibility: 0.9800645112991333
","x: 230.5975341796875
y: 368.9420166015625
z: -0.20509357750415802
visibility: 0.9534294009208679
","x: 188.07650756835938
y: 316.5775146484375
z: -0.437982976436615
visibility: 0.969344437122345
","x: 211.0166473388672
y: 372.9785461425781
z: 0.007393436972051859
visibility: 0.9996494650840759
","x: 187.42076110839844
y: 372.1746520996094
z: -0.00741249043494463
visibility: 0.9997546076774597
","x: 213.8636474609375
y: 458.0211181640625
z: 0.01709340699017048
visibility: 0.9954018592834473
","x: 188.98074340820312
y: 456.6651611328125
z: -0.03289255499839783
visibility: 0.9961584806442261
","x: 215.19020080566406
y: 526.9048461914062
z: 0.2293158769607544
visibility: 0.9920230507850647
","x: 194.1022491455078
y: 535.6803588867188
z: 0.1370181143283844
visibility: 0.9956961274147034
","x: 210.89488220214844
y: 537.44580078125
z: 0.24270007014274597
visibility: 0.9289237260818481
","x: 198.15432739257812
y: 546.8068237304688
z: 0.14335843920707703
visibility: 0.9285688996315002
","x: 221.96888732910156
y: 551.167724609375
z: 0.12033279240131378
visibility: 0.9878814220428467
","x: 183.66127014160156
y: 560.5277099609375
z: -0.01597054861485958
visibility: 0.9914868474006653
","x: 180.37440490722656
y: 313.66436767578125
z: 0.0
","x: 186.3625946044922
y: 314.5323486328125
z: 0.0017353042494505644
","x: 191.26080322265625
y: 320.5357666015625
z: 0.001242217724211514
","x: 193.3344268798828
y: 327.72698974609375
z: -0.00023588771000504494
","x: 193.24095153808594
y: 333.04632568359375
z: -0.001287825871258974
","x: 192.25303649902344
y: 325.24365234375
z: -0.0014945208095014095
","x: 193.85472106933594
y: 336.1016845703125
z: -0.004071475006639957
","x: 192.52659606933594
y: 336.4864807128906
z: -0.004051701165735722
","x: 191.2150421142578
y: 333.82098388671875
z: -0.003454394405707717
","x: 189.14988708496094
y: 329.1570739746094
z: -0.004155891016125679
","x: 190.9357452392578
y: 339.8763732910156
z: -0.00690907146781683
","x: 189.9660186767578
y: 339.96234130859375
z: -0.005865713581442833
","x: 189.0067901611328
y: 337.7642822265625
z: -0.004504272248595953
","x: 185.71090698242188
y: 332.3604736328125
z: -0.006782538257539272
","x: 187.62222290039062
y: 342.69586181640625
z: -0.009070122614502907
","x: 186.9778594970703
y: 342.51654052734375
z: -0.0067400699481368065
","x: 186.04266357421875
y: 340.13763427734375
z: -0.004641861654818058
","x: 182.1904296875
y: 334.5776672363281
z: -0.009489703923463821
","x: 183.8138427734375
y: 342.9338073730469
z: -0.010845963843166828
","x: 183.4422149658203
y: 343.0119323730469
z: -0.009230278432369232
","x: 182.67355346679688
y: 341.4013977050781
z: -0.0075036706402897835
",,,,,,,,,,,,,,,,,,,,,
11,"x: 197.4370574951172
y: 217.08238220214844
z: -0.29958203434944153
visibility: 0.9999153017997742
","x: 200.16062927246094
y: 209.115234375
z: -0.28133681416511536
visibility: 0.9998003244400024
","x: 201.85733032226562
y: 209.27957153320312
z: -0.2813335359096527
visibility: 0.9997744560241699
","x: 203.48936462402344
y: 209.5712127685547
z: -0.28131014108657837
visibility: 0.9997783303260803
","x: 195.64959716796875
y: 208.67506408691406
z: -0.2835663855075836
visibility: 0.9997854828834534
","x: 194.17202758789062
y: 208.41552734375
z: -0.283594012260437
visibility: 0.9997556209564209
","x: 192.72532653808594
y: 208.17063903808594
z: -0.28362131118774414
visibility: 0.9997722506523132
","x: 206.01158142089844
y: 212.52291870117188
z: -0.15400174260139465
visibility: 0.9997231364250183
","x: 190.7611083984375
y: 210.64390563964844
z: -0.16567499935626984
visibility: 0.9995422959327698
","x: 200.31044006347656
y: 223.9438018798828
z: -0.25006309151649475
visibility: 0.9998719096183777
","x: 194.7178955078125
y: 224.02513122558594
z: -0.2535812258720398
visibility: 0.9998582005500793
","x: 219.99057006835938
y: 254.2686767578125
z: -0.05400684475898743
visibility: 0.9999700784683228
","x: 176.76121520996094
y: 255.82327270507812
z: -0.10197087377309799
visibility: 0.9999063611030579
","x: 232.1374969482422
y: 310.07666015625
z: -0.03474264591932297
visibility: 0.9860852360725403
","x: 166.8724365234375
y: 303.41705322265625
z: -0.19471921026706696
visibility: 0.9878166317939758
","x: 233.90655517578125
y: 357.24609375
z: -0.1894516795873642
visibility: 0.9862967133522034
","x: 180.20260620117188
y: 309.4908447265625
z: -0.42990168929100037
visibility: 0.9921128153800964
","x: 235.92559814453125
y: 373.85748291015625
z: -0.22810348868370056
visibility: 0.9683015942573547
","x: 184.01852416992188
y: 325.6551818847656
z: -0.48377880454063416
visibility: 0.981418251991272
","x: 232.34585571289062
y: 371.5508728027344
z: -0.26130959391593933
visibility: 0.9677916765213013
","x: 188.45953369140625
y: 321.7220764160156
z: -0.49418139457702637
visibility: 0.9800645112991333
","x: 230.5975341796875
y: 368.9420166015625
z: -0.20509357750415802
visibility: 0.9534294009208679
","x: 188.07650756835938
y: 316.5775146484375
z: -0.437982976436615
visibility: 0.969344437122345
","x: 211.0166473388672
y: 372.9785461425781
z: 0.007393436972051859
visibility: 0.9996494650840759
","x: 187.42076110839844
y: 372.1746520996094
z: -0.00741249043494463
visibility: 0.9997546076774597
","x: 213.8636474609375
y: 458.0211181640625
z: 0.01709340699017048
visibility: 0.9954018592834473
","x: 188.98074340820312
y: 456.6651611328125
z: -0.03289255499839783
visibility: 0.9961584806442261
","x: 215.19020080566406
y: 526.9048461914062
z: 0.2293158769607544
visibility: 0.9920230507850647
","x: 194.1022491455078
y: 535.6803588867188
z: 0.1370181143283844
visibility: 0.9956961274147034
","x: 210.89488220214844
y: 537.44580078125
z: 0.24270007014274597
visibility: 0.9289237260818481
","x: 198.15432739257812
y: 546.8068237304688
z: 0.14335843920707703
visibility: 0.9285688996315002
","x: 221.96888732910156
y: 551.167724609375
z: 0.12033279240131378
visibility: 0.9878814220428467
","x: 183.66127014160156
y: 560.5277099609375
z: -0.01597054861485958
visibility: 0.9914868474006653
","x: 180.37440490722656
y: 313.66436767578125
z: 0.0
","x: 186.3625946044922
y: 314.5323486328125
z: 0.0017353042494505644
","x: 191.26080322265625
y: 320.5357666015625
z: 0.001242217724211514
","x: 193.3344268798828
y: 327.72698974609375
z: -0.00023588771000504494
","x: 193.24095153808594
y: 333.04632568359375
z: -0.001287825871258974
","x: 192.25303649902344
y: 325.24365234375
z: -0.0014945208095014095
","x: 193.85472106933594
y: 336.1016845703125
z: -0.004071475006639957
","x: 192.52659606933594
y: 336.4864807128906
z: -0.004051701165735722
","x: 191.2150421142578
y: 333.82098388671875
z: -0.003454394405707717
","x: 189.14988708496094
y: 329.1570739746094
z: -0.004155891016125679
","x: 190.9357452392578
y: 339.8763732910156
z: -0.00690907146781683
","x: 189.9660186767578
y: 339.96234130859375
z: -0.005865713581442833
","x: 189.0067901611328
y: 337.7642822265625
z: -0.004504272248595953
","x: 185.71090698242188
y: 332.3604736328125
z: -0.006782538257539272
","x: 187.62222290039062
y: 342.69586181640625
z: -0.009070122614502907
","x: 186.9778594970703
y: 342.51654052734375
z: -0.0067400699481368065
","x: 186.04266357421875
y: 340.13763427734375
z: -0.004641861654818058
","x: 182.1904296875
y: 334.5776672363281
z: -0.009489703923463821
","x: 183.8138427734375
y: 342.9338073730469
z: -0.010845963843166828
","x: 183.4422149658203
y: 343.0119323730469
z: -0.009230278432369232
","x: 182.67355346679688
y: 341.4013977050781
z: -0.0075036706402897835
",,,,,,,,,,,,,,,,,,,,,
12,"x: 197.6875762939453
y: 215.86996459960938
z: -0.3025962710380554
visibility: 0.9999210834503174
","x: 200.40509033203125
y: 208.4303436279297
z: -0.28681081533432007
visibility: 0.9998119473457336
","x: 202.0465087890625
y: 208.66241455078125
z: -0.2868364453315735
visibility: 0.9997872710227966
","x: 203.67672729492188
y: 209.00277709960938
z: -0.28686219453811646
visibility: 0.9997901916503906
","x: 195.8272705078125
y: 207.95570373535156
z: -0.2862478792667389
visibility: 0.9997998476028442
","x: 194.455810546875
y: 207.75570678710938
z: -0.2862606346607208
visibility: 0.9997713565826416
","x: 193.17950439453125
y: 207.6104736328125
z: -0.2862834930419922
visibility: 0.9997865557670593
","x: 206.22940063476562
y: 212.38783264160156
z: -0.17111392319202423
visibility: 0.9997364282608032
","x: 191.4108123779297
y: 210.6037139892578
z: -0.16822797060012817
visibility: 0.999573290348053
","x: 200.76907348632812
y: 222.70001220703125
z: -0.25773829221725464
visibility: 0.9998824596405029
","x: 194.90733337402344
y: 222.7644500732422
z: -0.2569371163845062
visibility: 0.9998703002929688
","x: 221.25453186035156
y: 253.38340759277344
z: -0.09225422143936157
visibility: 0.999970018863678
","x: 177.59609985351562
y: 255.76907348632812
z: -0.08521196991205215
visibility: 0.9999114274978638
","x: 232.87152099609375
y: 303.7823486328125
z: -0.14088019728660583
visibility: 0.9869396090507507
","x: 168.6275177001953
y: 304.96368408203125
z: -0.1203431487083435
visibility: 0.9878324270248413
","x: 226.695068359375
y: 328.457763671875
z: -0.34730902314186096
visibility: 0.9871780276298523
","x: 176.19427490234375
y: 343.8941650390625
z: -0.28688985109329224
visibility: 0.9915494322776794
","x: 224.70899963378906
y: 343.379150390625
z: -0.4012672007083893
visibility: 0.9703587293624878
","x: 177.24009704589844
y: 363.641357421875
z: -0.3347269892692566
visibility: 0.9807708859443665
","x: 220.37193298339844
y: 338.471923828125
z: -0.4244692325592041
visibility: 0.9699240922927856
","x: 181.6080322265625
y: 360.5311584472656
z: -0.36403796076774597
visibility: 0.979603111743927
","x: 219.8292999267578
y: 333.62359619140625
z: -0.3602871298789978
visibility: 0.956257164478302
","x: 182.43728637695312
y: 353.9471435546875
z: -0.3006507158279419
visibility: 0.9688714146614075
","x: 212.48728942871094
y: 370.8664245605469
z: 0.0028158151544630527
visibility: 0.9996118545532227
","x: 188.44088745117188
y: 371.57659912109375
z: -0.0027176665607839823
visibility: 0.9997552037239075
","x: 214.5159149169922
y: 454.7193908691406
z: -0.0020649905782192945
visibility: 0.9949899911880493
","x: 190.39132690429688
y: 456.26776123046875
z: -0.03140335530042648
visibility: 0.9958140850067139
","x: 212.18177795410156
y: 525.3455200195312
z: 0.20623186230659485
visibility: 0.9905080199241638
","x: 194.74522399902344
y: 535.6471557617188
z: 0.11958648264408112
visibility: 0.995415449142456
","x: 209.14340209960938
y: 535.4461059570312
z: 0.21492186188697815
visibility: 0.9233433604240417
","x: 197.8497314453125
y: 547.505859375
z: 0.12241717427968979
visibility: 0.9272933006286621
","x: 217.3341522216797
y: 549.01220703125
z: 0.11171497404575348
visibility: 0.9863708019256592
","x: 185.06028747558594
y: 560.1572265625
z: -0.02459467574954033
visibility: 0.9909735321998596
",,,,,,,,,,,,,,,,,,,,,,"x: 221.90966796875
y: 325.49505615234375
z: 0.0
","x: 218.02987670898438
y: 326.05718994140625
z: -0.0008434134651906788
","x: 214.95132446289062
y: 330.6689453125
z: -0.0016471921699121594
","x: 214.0885772705078
y: 336.1745910644531
z: -0.003014292800799012
","x: 214.2287139892578
y: 340.3851623535156
z: -0.004137963987886906
","x: 213.8668212890625
y: 337.6476745605469
z: 0.00017250208475161344
","x: 212.05160522460938
y: 344.6351318359375
z: -0.002134807640686631
","x: 212.51837158203125
y: 347.20721435546875
z: -0.003222044324502349
","x: 213.5409698486328
y: 347.731201171875
z: -0.003579591168090701
","x: 216.318359375
y: 340.0090026855469
z: -0.001183000742457807
","x: 214.96751403808594
y: 347.8168029785156
z: -0.0037447873037308455
","x: 215.3741455078125
y: 348.46484375
z: -0.004384084139019251
","x: 216.12655639648438
y: 346.599853515625
z: -0.00412313686683774
","x: 219.03016662597656
y: 341.2049865722656
z: -0.002998560667037964
","x: 218.46255493164062
y: 348.466064453125
z: -0.005005689803510904
","x: 218.88619995117188
y: 348.155517578125
z: -0.004537010565400124
","x: 219.34007263183594
y: 345.8975524902344
z: -0.0036997071001678705
","x: 222.0240478515625
y: 341.24725341796875
z: -0.0051812375895679
","x: 221.96461486816406
y: 347.2224426269531
z: -0.006414240691810846
","x: 222.1765899658203
y: 347.2674255371094
z: -0.005996983032673597
","x: 222.39947509765625
y: 345.56048583984375
z: -0.005264172796159983
"
13,"x: 197.6875762939453
y: 215.86996459960938
z: -0.3025962710380554
visibility: 0.9999210834503174
","x: 200.40509033203125
y: 208.4303436279297
z: -0.28681081533432007
visibility: 0.9998119473457336
","x: 202.0465087890625
y: 208.66241455078125
z: -0.2868364453315735
visibility: 0.9997872710227966
","x: 203.67672729492188
y: 209.00277709960938
z: -0.28686219453811646
visibility: 0.9997901916503906
","x: 195.8272705078125
y: 207.95570373535156
z: -0.2862478792667389
visibility: 0.9997998476028442
","x: 194.455810546875
y: 207.75570678710938
z: -0.2862606346607208
visibility: 0.9997713565826416
","x: 193.17950439453125
y: 207.6104736328125
z: -0.2862834930419922
visibility: 0.9997865557670593
","x: 206.22940063476562
y: 212.38783264160156
z: -0.17111392319202423
visibility: 0.9997364282608032
","x: 191.4108123779297
y: 210.6037139892578
z: -0.16822797060012817
visibility: 0.999573290348053
","x: 200.76907348632812
y: 222.70001220703125
z: -0.25773829221725464
visibility: 0.9998824596405029
","x: 194.90733337402344
y: 222.7644500732422
z: -0.2569371163845062
visibility: 0.9998703002929688
","x: 221.25453186035156
y: 253.38340759277344
z: -0.09225422143936157
visibility: 0.999970018863678
","x: 177.59609985351562
y: 255.76907348632812
z: -0.08521196991205215
visibility: 0.9999114274978638
","x: 232.87152099609375
y: 303.7823486328125
z: -0.14088019728660583
visibility: 0.9869396090507507
","x: 168.6275177001953
y: 304.96368408203125
z: -0.1203431487083435
visibility: 0.9878324270248413
","x: 226.695068359375
y: 328.457763671875
z: -0.34730902314186096
visibility: 0.9871780276298523
","x: 176.19427490234375
y: 343.8941650390625
z: -0.28688985109329224
visibility: 0.9915494322776794
","x: 224.70899963378906
y: 343.379150390625
z: -0.4012672007083893
visibility: 0.9703587293624878
","x: 177.24009704589844
y: 363.641357421875
z: -0.3347269892692566
visibility: 0.9807708859443665
","x: 220.37193298339844
y: 338.471923828125
z: -0.4244692325592041
visibility: 0.9699240922927856
","x: 181.6080322265625
y: 360.5311584472656
z: -0.36403796076774597
visibility: 0.979603111743927
","x: 219.8292999267578
y: 333.62359619140625
z: -0.3602871298789978
visibility: 0.956257164478302
","x: 182.43728637695312
y: 353.9471435546875
z: -0.3006507158279419
visibility: 0.9688714146614075
","x: 212.48728942871094
y: 370.8664245605469
z: 0.0028158151544630527
visibility: 0.9996118545532227
","x: 188.44088745117188
y: 371.57659912109375
z: -0.0027176665607839823
visibility: 0.9997552037239075
","x: 214.5159149169922
y: 454.7193908691406
z: -0.0020649905782192945
visibility: 0.9949899911880493
","x: 190.39132690429688
y: 456.26776123046875
z: -0.03140335530042648
visibility: 0.9958140850067139
","x: 212.18177795410156
y: 525.3455200195312
z: 0.20623186230659485
visibility: 0.9905080199241638
","x: 194.74522399902344
y: 535.6471557617188
z: 0.11958648264408112
visibility: 0.995415449142456
","x: 209.14340209960938
y: 535.4461059570312
z: 0.21492186188697815
visibility: 0.9233433604240417
","x: 197.8497314453125
y: 547.505859375
z: 0.12241717427968979
visibility: 0.9272933006286621
","x: 217.3341522216797
y: 549.01220703125
z: 0.11171497404575348
visibility: 0.9863708019256592
","x: 185.06028747558594
y: 560.1572265625
z: -0.02459467574954033
visibility: 0.9909735321998596
",,,,,,,,,,,,,,,,,,,,,,"x: 221.90966796875
y: 325.49505615234375
z: 0.0
","x: 218.02987670898438
y: 326.05718994140625
z: -0.0008434134651906788
","x: 214.95132446289062
y: 330.6689453125
z: -0.0016471921699121594
","x: 214.0885772705078
y: 336.1745910644531
z: -0.003014292800799012
","x: 214.2287139892578
y: 340.3851623535156
z: -0.004137963987886906
","x: 213.8668212890625
y: 337.6476745605469
z: 0.00017250208475161344
","x: 212.05160522460938
y: 344.6351318359375
z: -0.002134807640686631
","x: 212.51837158203125
y: 347.20721435546875
z: -0.003222044324502349
","x: 213.5409698486328
y: 347.731201171875
z: -0.003579591168090701
","x: 216.318359375
y: 340.0090026855469
z: -0.001183000742457807
","x: 214.96751403808594
y: 347.8168029785156
z: -0.0037447873037308455
","x: 215.3741455078125
y: 348.46484375
z: -0.004384084139019251
","x: 216.12655639648438
y: 346.599853515625
z: -0.00412313686683774
","x: 219.03016662597656
y: 341.2049865722656
z: -0.002998560667037964
","x: 218.46255493164062
y: 348.466064453125
z: -0.005005689803510904
","x: 218.88619995117188
y: 348.155517578125
z: -0.004537010565400124
","x: 219.34007263183594
y: 345.8975524902344
z: -0.0036997071001678705
","x: 222.0240478515625
y: 341.24725341796875
z: -0.0051812375895679
","x: 221.96461486816406
y: 347.2224426269531
z: -0.006414240691810846
","x: 222.1765899658203
y: 347.2674255371094
z: -0.005996983032673597
","x: 222.39947509765625
y: 345.56048583984375
z: -0.005264172796159983
"
14,"x: 199.37046813964844
y: 215.6098175048828
z: -0.3075527846813202
visibility: 0.9999261498451233
","x: 201.7397003173828
y: 208.29754638671875
z: -0.29195135831832886
visibility: 0.999822199344635
","x: 202.9273681640625
y: 208.56231689453125
z: -0.2919914126396179
visibility: 0.9998000264167786
","x: 204.4446258544922
y: 208.93719482421875
z: -0.2920228838920593
visibility: 0.9998025894165039
","x: 197.11111450195312
y: 207.82958984375
z: -0.29038944840431213
visibility: 0.999811589717865
","x: 195.21435546875
y: 207.69815063476562
z: -0.29039037227630615
visibility: 0.9997837543487549
","x: 193.3162078857422
y: 207.64178466796875
z: -0.2904098331928253
visibility: 0.9997968077659607
","x: 206.55410766601562
y: 212.59164428710938
z: -0.1780121624469757
visibility: 0.9997478723526001
","x: 192.587890625
y: 211.05308532714844
z: -0.1697617769241333
visibility: 0.9995973706245422
","x: 201.92886352539062
y: 222.3681640625
z: -0.2634568214416504
visibility: 0.9998915791511536
","x: 195.6595916748047
y: 222.57737731933594
z: -0.26117852330207825
visibility: 0.9998801946640015
","x: 221.2998504638672
y: 252.6652374267578
z: -0.11111284792423248
visibility: 0.9999701976776123
","x: 177.72201538085938
y: 256.1903991699219
z: -0.06708002835512161
visibility: 0.9999151229858398
","x: 235.37713623046875
y: 304.17626953125
z: -0.20240788161754608
visibility: 0.9880033135414124
","x: 170.77134704589844
y: 312.80340576171875
z: -0.013211597688496113
visibility: 0.9877132177352905
","x: 219.1156768798828
y: 302.77691650390625
z: -0.43142789602279663
visibility: 0.9882486462593079
","x: 169.65931701660156
y: 365.9954528808594
z: -0.10882115364074707
visibility: 0.9906922578811646
","x: 212.45742797851562
y: 311.12750244140625
z: -0.48391398787498474
visibility: 0.9726912975311279
","x: 165.5573272705078
y: 382.84649658203125
z: -0.13737228512763977
visibility: 0.9790880084037781
","x: 209.0687713623047
y: 304.4653015136719
z: -0.49349331855773926
visibility: 0.9723043441772461
","x: 168.21861267089844
y: 383.57708740234375
z: -0.16948546469211578
visibility: 0.9782295227050781
","x: 210.05917358398438
y: 301.57647705078125
z: -0.4388815760612488
visibility: 0.9594087600708008
","x: 170.44155883789062
y: 378.6861572265625
z: -0.12295572459697723
visibility: 0.9672808647155762
","x: 216.1267852783203
y: 369.9316101074219
z: -0.0008627808419987559
visibility: 0.9995694756507874
","x: 190.946533203125
y: 371.0877685546875
z: 0.0009075204143300653
visibility: 0.999744713306427
","x: 214.99652099609375
y: 452.3896484375
z: -0.0029978982638567686
visibility: 0.9947959780693054
","x: 192.0179443359375
y: 455.25531005859375
z: -0.031230634078383446
visibility: 0.9957919120788574
","x: 211.296875
y: 525.5888671875
z: 0.18076352775096893
visibility: 0.9904811382293701
","x: 194.96546936035156
y: 535.395751953125
z: 0.11713278293609619
visibility: 0.9954217672348022
","x: 208.714111328125
y: 535.641845703125
z: 0.18837866187095642
visibility: 0.9245485067367554
","x: 197.82037353515625
y: 547.1535034179688
z: 0.1211032047867775
visibility: 0.9263107776641846
","x: 217.04666137695312
y: 548.7097778320312
z: 0.0610598623752594
visibility: 0.9864562153816223
","x: 185.06996154785156
y: 559.8511352539062
z: -0.02003016695380211
visibility: 0.9910001158714294
",,,,,,,,,,,,,,,,,,,,,,,,,,,,,,,,,,,,,,,,,,
15,"x: 203.67059326171875
y: 216.2257537841797
z: -0.2881506383419037
visibility: 0.9999322891235352
","x: 205.79800415039062
y: 209.9462890625
z: -0.27125000953674316
visibility: 0.9998355507850647
","x: 206.83299255371094
y: 210.4189910888672
z: -0.2712877690792084
visibility: 0.9998153448104858
","x: 207.85340881347656
y: 210.92835998535156
z: -0.2713035047054291
visibility: 0.999817430973053
","x: 202.01126098632812
y: 209.0914306640625
z: -0.27041521668434143
visibility: 0.9998266696929932
","x: 200.2569580078125
y: 208.86349487304688
z: -0.2704164683818817
visibility: 0.9998006224632263
","x: 198.43515014648438
y: 208.75955200195312
z: -0.27044111490249634
visibility: 0.9998121857643127
","x: 209.9080810546875
y: 215.20066833496094
z: -0.15750248730182648
visibility: 0.9997611045837402
","x: 195.3662109375
y: 213.31814575195312
z: -0.1543695479631424
visibility: 0.9996305108070374
","x: 205.4919891357422
y: 223.8050994873047
z: -0.24490804970264435
visibility: 0.9999006986618042
","x: 200.5987091064453
y: 224.09039306640625
z: -0.24416127800941467
visibility: 0.9998908042907715
","x: 223.24850463867188
y: 254.5445098876953
z: -0.10007558017969131
visibility: 0.9999693632125854
","x: 180.0220184326172
y: 260.0265808105469
z: -0.05907800793647766
visibility: 0.999921441078186
","x: 235.7983856201172
y: 309.36248779296875
z: -0.21055790781974792
visibility: 0.9888964891433716
","x: 173.16461181640625
y: 318.71343994140625
z: -0.014393066056072712
visibility: 0.9874377250671387
","x: 219.5039520263672
y: 291.4895935058594
z: -0.43946439027786255
visibility: 0.9892088174819946
","x: 169.37619018554688
y: 374.0414733886719
z: -0.10755505412817001
visibility: 0.9894394278526306
","x: 213.23977661132812
y: 289.0707092285156
z: -0.49096861481666565
visibility: 0.9747763276100159
","x: 165.72084045410156
y: 388.7757568359375
z: -0.13374152779579163
visibility: 0.9766139984130859
","x: 211.5087890625
y: 280.5942687988281
z: -0.4943757951259613
visibility: 0.9744263887405396
","x: 168.41380310058594
y: 389.95892333984375
z: -0.1636056900024414
visibility: 0.976049542427063
","x: 212.34754943847656
y: 281.08477783203125
z: -0.4451781213283539
visibility: 0.9622275829315186
","x: 170.44078063964844
y: 385.282958984375
z: -0.12076783180236816
visibility: 0.9646872878074646
","x: 219.24862670898438
y: 372.1979064941406
z: -0.0007614960195496678
visibility: 0.9995554685592651
","x: 194.056396484375
y: 372.2140197753906
z: 0.0008076055673882365
visibility: 0.9997546076774597
","x: 215.2281951904297
y: 452.5749206542969
z: 0.015295055694878101
visibility: 0.9939002990722656
","x: 193.16116333007812
y: 454.9120788574219
z: -0.07304473221302032
visibility: 0.9957739114761353
","x: 210.90170288085938
y: 526.7316284179688
z: 0.1965084671974182
visibility: 0.989754319190979
","x: 195.32093811035156
y: 535.8011474609375
z: 0.07196588814258575
visibility: 0.9953651428222656
","x: 208.46896362304688
y: 537.6203002929688
z: 0.20755577087402344
visibility: 0.9252729415893555
","x: 198.0289764404297
y: 547.6952514648438
z: 0.07737033069133759
visibility: 0.9261364936828613
","x: 217.9944305419922
y: 548.8714599609375
z: 0.09188559651374817
visibility: 0.9860683679580688
","x: 185.1018829345703
y: 559.7059936523438
z: -0.05842204764485359
visibility: 0.990985631942749
","x: 167.60508728027344
y: 375.6795654296875
z: 0.0
","x: 170.63270568847656
y: 379.5028381347656
z: -0.0010747432243078947
","x: 172.59837341308594
y: 385.515869140625
z: -0.002128472551703453
","x: 173.0876922607422
y: 390.53839111328125
z: -0.0039924075827002525
","x: 173.12982177734375
y: 394.1806640625
z: -0.005670127458870411
","x: 169.9667205810547
y: 394.1443176269531
z: 0.000737650552764535
","x: 170.22042846679688
y: 401.5343017578125
z: -0.001788681955076754
","x: 170.64801025390625
y: 403.64508056640625
z: -0.0030302279628813267
","x: 170.84251403808594
y: 404.326416015625
z: -0.0034985884558409452
","x: 167.51907348632812
y: 394.195556640625
z: -0.0007644235738553107
","x: 167.1919708251953
y: 402.0426940917969
z: -0.003786054439842701
","x: 167.4278564453125
y: 399.87799072265625
z: -0.004371972288936377
","x: 167.58103942871094
y: 396.3392639160156
z: -0.0037626211997121572
","x: 165.19430541992188
y: 392.923095703125
z: -0.002871105680242181
","x: 164.5618133544922
y: 399.8201904296875
z: -0.005704102572053671
","x: 165.02731323242188
y: 397.07403564453125
z: -0.005090049002319574
","x: 165.3712921142578
y: 393.4984130859375
z: -0.0037757998798042536
","x: 163.0775146484375
y: 390.3773193359375
z: -0.005386656150221825
","x: 162.53543090820312
y: 395.259521484375
z: -0.0069683208130300045
","x: 163.01004028320312
y: 393.5827331542969
z: -0.00648038974031806
","x: 163.39932250976562
y: 390.89764404296875
z: -0.005475347861647606
","x: 217.7575225830078
y: 286.7199401855469
z: 0.0
","x: 215.62469482421875
y: 280.5827941894531
z: 2.0949648387613706e-05
","x: 212.0399932861328
y: 276.33367919921875
z: -0.0011405337136238813
","x: 209.04432678222656
y: 274.75732421875
z: -0.0023797345347702503
","x: 207.07598876953125
y: 275.2611999511719
z: -0.0035607977770268917
","x: 209.53294372558594
y: 278.3293151855469
z: -0.005233548581600189
","x: 203.39053344726562
y: 277.5645751953125
z: -0.007408967241644859
","x: 201.0602264404297
y: 279.3307189941406
z: -0.007359060924500227
","x: 200.177978515625
y: 281.59344482421875
z: -0.00698262732475996
","x: 209.4182586669922
y: 282.7502746582031
z: -0.006655835546553135
","x: 203.04063415527344
y: 282.7169189453125
z: -0.008592012338340282
","x: 200.6655731201172
y: 284.4448547363281
z: -0.00777198001742363
","x: 199.876953125
y: 286.324462890625
z: -0.0070373364724218845
","x: 209.6222686767578
y: 287.3929443359375
z: -0.00787209440022707
","x: 203.87548828125
y: 287.5828857421875
z: -0.009811953641474247
","x: 201.3757781982422
y: 289.2349548339844
z: -0.00908941775560379
","x: 200.2069854736328
y: 290.9469909667969
z: -0.008488195948302746
","x: 210.18252563476562
y: 291.91717529296875
z: -0.009050632826983929
","x: 205.863525390625
y: 292.7592468261719
z: -0.01097465306520462
","x: 203.78775024414062
y: 294.0788879394531
z: -0.010822828859090805
","x: 202.61326599121094
y: 295.5465087890625
z: -0.010438288561999798
"
16,"x: 203.67059326171875
y: 216.2257537841797
z: -0.2881506383419037
visibility: 0.9999322891235352
","x: 205.79800415039062
y: 209.9462890625
z: -0.27125000953674316
visibility: 0.9998355507850647
","x: 206.83299255371094
y: 210.4189910888672
z: -0.2712877690792084
visibility: 0.9998153448104858
","x: 207.85340881347656
y: 210.92835998535156
z: -0.2713035047054291
visibility: 0.999817430973053
","x: 202.01126098632812
y: 209.0914306640625
z: -0.27041521668434143
visibility: 0.9998266696929932
","x: 200.2569580078125
y: 208.86349487304688
z: -0.2704164683818817
visibility: 0.9998006224632263
","x: 198.43515014648438
y: 208.75955200195312
z: -0.27044111490249634
visibility: 0.9998121857643127
","x: 209.9080810546875
y: 215.20066833496094
z: -0.15750248730182648
visibility: 0.9997611045837402
","x: 195.3662109375
y: 213.31814575195312
z: -0.1543695479631424
visibility: 0.9996305108070374
","x: 205.4919891357422
y: 223.8050994873047
z: -0.24490804970264435
visibility: 0.9999006986618042
","x: 200.5987091064453
y: 224.09039306640625
z: -0.24416127800941467
visibility: 0.9998908042907715
","x: 223.24850463867188
y: 254.5445098876953
z: -0.10007558017969131
visibility: 0.9999693632125854
","x: 180.0220184326172
y: 260.0265808105469
z: -0.05907800793647766
visibility: 0.999921441078186
","x: 235.7983856201172
y: 309.36248779296875
z: -0.21055790781974792
visibility: 0.9888964891433716
","x: 173.16461181640625
y: 318.71343994140625
z: -0.014393066056072712
visibility: 0.9874377250671387
","x: 219.5039520263672
y: 291.4895935058594
z: -0.43946439027786255
visibility: 0.9892088174819946
","x: 169.37619018554688
y: 374.0414733886719
z: -0.10755505412817001
visibility: 0.9894394278526306
","x: 213.23977661132812
y: 289.0707092285156
z: -0.49096861481666565
visibility: 0.9747763276100159
","x: 165.72084045410156
y: 388.7757568359375
z: -0.13374152779579163
visibility: 0.9766139984130859
","x: 211.5087890625
y: 280.5942687988281
z: -0.4943757951259613
visibility: 0.9744263887405396
","x: 168.41380310058594
y: 389.95892333984375
z: -0.1636056900024414
visibility: 0.976049542427063
","x: 212.34754943847656
y: 281.08477783203125
z: -0.4451781213283539
visibility: 0.9622275829315186
","x: 170.44078063964844
y: 385.282958984375
z: -0.12076783180236816
visibility: 0.9646872878074646
","x: 219.24862670898438
y: 372.1979064941406
z: -0.0007614960195496678
visibility: 0.9995554685592651
","x: 194.056396484375
y: 372.2140197753906
z: 0.0008076055673882365
visibility: 0.9997546076774597
","x: 215.2281951904297
y: 452.5749206542969
z: 0.015295055694878101
visibility: 0.9939002990722656
","x: 193.16116333007812
y: 454.9120788574219
z: -0.07304473221302032
visibility: 0.9957739114761353
","x: 210.90170288085938
y: 526.7316284179688
z: 0.1965084671974182
visibility: 0.989754319190979
","x: 195.32093811035156
y: 535.8011474609375
z: 0.07196588814258575
visibility: 0.9953651428222656
","x: 208.46896362304688
y: 537.6203002929688
z: 0.20755577087402344
visibility: 0.9252729415893555
","x: 198.0289764404297
y: 547.6952514648438
z: 0.07737033069133759
visibility: 0.9261364936828613
","x: 217.9944305419922
y: 548.8714599609375
z: 0.09188559651374817
visibility: 0.9860683679580688
","x: 185.1018829345703
y: 559.7059936523438
z: -0.05842204764485359
visibility: 0.990985631942749
","x: 167.60508728027344
y: 375.6795654296875
z: 0.0
","x: 170.63270568847656
y: 379.5028381347656
z: -0.0010747432243078947
","x: 172.59837341308594
y: 385.515869140625
z: -0.002128472551703453
","x: 173.0876922607422
y: 390.53839111328125
z: -0.0039924075827002525
","x: 173.12982177734375
y: 394.1806640625
z: -0.005670127458870411
","x: 169.9667205810547
y: 394.1443176269531
z: 0.000737650552764535
","x: 170.22042846679688
y: 401.5343017578125
z: -0.001788681955076754
","x: 170.64801025390625
y: 403.64508056640625
z: -0.0030302279628813267
","x: 170.84251403808594
y: 404.326416015625
z: -0.0034985884558409452
","x: 167.51907348632812
y: 394.195556640625
z: -0.0007644235738553107
","x: 167.1919708251953
y: 402.0426940917969
z: -0.003786054439842701
","x: 167.4278564453125
y: 399.87799072265625
z: -0.004371972288936377
","x: 167.58103942871094
y: 396.3392639160156
z: -0.0037626211997121572
","x: 165.19430541992188
y: 392.923095703125
z: -0.002871105680242181
","x: 164.5618133544922
y: 399.8201904296875
z: -0.005704102572053671
","x: 165.02731323242188
y: 397.07403564453125
z: -0.005090049002319574
","x: 165.3712921142578
y: 393.4984130859375
z: -0.0037757998798042536
","x: 163.0775146484375
y: 390.3773193359375
z: -0.005386656150221825
","x: 162.53543090820312
y: 395.259521484375
z: -0.0069683208130300045
","x: 163.01004028320312
y: 393.5827331542969
z: -0.00648038974031806
","x: 163.39932250976562
y: 390.89764404296875
z: -0.005475347861647606
","x: 217.7575225830078
y: 286.7199401855469
z: 0.0
","x: 215.62469482421875
y: 280.5827941894531
z: 2.0949648387613706e-05
","x: 212.0399932861328
y: 276.33367919921875
z: -0.0011405337136238813
","x: 209.04432678222656
y: 274.75732421875
z: -0.0023797345347702503
","x: 207.07598876953125
y: 275.2611999511719
z: -0.0035607977770268917
","x: 209.53294372558594
y: 278.3293151855469
z: -0.005233548581600189
","x: 203.39053344726562
y: 277.5645751953125
z: -0.007408967241644859
","x: 201.0602264404297
y: 279.3307189941406
z: -0.007359060924500227
","x: 200.177978515625
y: 281.59344482421875
z: -0.00698262732475996
","x: 209.4182586669922
y: 282.7502746582031
z: -0.006655835546553135
","x: 203.04063415527344
y: 282.7169189453125
z: -0.008592012338340282
","x: 200.6655731201172
y: 284.4448547363281
z: -0.00777198001742363
","x: 199.876953125
y: 286.324462890625
z: -0.0070373364724218845
","x: 209.6222686767578
y: 287.3929443359375
z: -0.00787209440022707
","x: 203.87548828125
y: 287.5828857421875
z: -0.009811953641474247
","x: 201.3757781982422
y: 289.2349548339844
z: -0.00908941775560379
","x: 200.2069854736328
y: 290.9469909667969
z: -0.008488195948302746
","x: 210.18252563476562
y: 291.91717529296875
z: -0.009050632826983929
","x: 205.863525390625
y: 292.7592468261719
z: -0.01097465306520462
","x: 203.78775024414062
y: 294.0788879394531
z: -0.010822828859090805
","x: 202.61326599121094
y: 295.5465087890625
z: -0.010438288561999798
"
17,"x: 203.67059326171875
y: 216.2257537841797
z: -0.2881506383419037
visibility: 0.9999322891235352
","x: 205.79800415039062
y: 209.9462890625
z: -0.27125000953674316
visibility: 0.9998355507850647
","x: 206.83299255371094
y: 210.4189910888672
z: -0.2712877690792084
visibility: 0.9998153448104858
","x: 207.85340881347656
y: 210.92835998535156
z: -0.2713035047054291
visibility: 0.999817430973053
","x: 202.01126098632812
y: 209.0914306640625
z: -0.27041521668434143
visibility: 0.9998266696929932
","x: 200.2569580078125
y: 208.86349487304688
z: -0.2704164683818817
visibility: 0.9998006224632263
","x: 198.43515014648438
y: 208.75955200195312
z: -0.27044111490249634
visibility: 0.9998121857643127
","x: 209.9080810546875
y: 215.20066833496094
z: -0.15750248730182648
visibility: 0.9997611045837402
","x: 195.3662109375
y: 213.31814575195312
z: -0.1543695479631424
visibility: 0.9996305108070374
","x: 205.4919891357422
y: 223.8050994873047
z: -0.24490804970264435
visibility: 0.9999006986618042
","x: 200.5987091064453
y: 224.09039306640625
z: -0.24416127800941467
visibility: 0.9998908042907715
","x: 223.24850463867188
y: 254.5445098876953
z: -0.10007558017969131
visibility: 0.9999693632125854
","x: 180.0220184326172
y: 260.0265808105469
z: -0.05907800793647766
visibility: 0.999921441078186
","x: 235.7983856201172
y: 309.36248779296875
z: -0.21055790781974792
visibility: 0.9888964891433716
","x: 173.16461181640625
y: 318.71343994140625
z: -0.014393066056072712
visibility: 0.9874377250671387
","x: 219.5039520263672
y: 291.4895935058594
z: -0.43946439027786255
visibility: 0.9892088174819946
","x: 169.37619018554688
y: 374.0414733886719
z: -0.10755505412817001
visibility: 0.9894394278526306
","x: 213.23977661132812
y: 289.0707092285156
z: -0.49096861481666565
visibility: 0.9747763276100159
","x: 165.72084045410156
y: 388.7757568359375
z: -0.13374152779579163
visibility: 0.9766139984130859
","x: 211.5087890625
y: 280.5942687988281
z: -0.4943757951259613
visibility: 0.9744263887405396
","x: 168.41380310058594
y: 389.95892333984375
z: -0.1636056900024414
visibility: 0.976049542427063
","x: 212.34754943847656
y: 281.08477783203125
z: -0.4451781213283539
visibility: 0.9622275829315186
","x: 170.44078063964844
y: 385.282958984375
z: -0.12076783180236816
visibility: 0.9646872878074646
","x: 219.24862670898438
y: 372.1979064941406
z: -0.0007614960195496678
visibility: 0.9995554685592651
","x: 194.056396484375
y: 372.2140197753906
z: 0.0008076055673882365
visibility: 0.9997546076774597
","x: 215.2281951904297
y: 452.5749206542969
z: 0.015295055694878101
visibility: 0.9939002990722656
","x: 193.16116333007812
y: 454.9120788574219
z: -0.07304473221302032
visibility: 0.9957739114761353
","x: 210.90170288085938
y: 526.7316284179688
z: 0.1965084671974182
visibility: 0.989754319190979
","x: 195.32093811035156
y: 535.8011474609375
z: 0.07196588814258575
visibility: 0.9953651428222656
","x: 208.46896362304688
y: 537.6203002929688
z: 0.20755577087402344
visibility: 0.9252729415893555
","x: 198.0289764404297
y: 547.6952514648438
z: 0.07737033069133759
visibility: 0.9261364936828613
","x: 217.9944305419922
y: 548.8714599609375
z: 0.09188559651374817
visibility: 0.9860683679580688
","x: 185.1018829345703
y: 559.7059936523438
z: -0.05842204764485359
visibility: 0.990985631942749
","x: 167.60508728027344
y: 375.6795654296875
z: 0.0
","x: 170.63270568847656
y: 379.5028381347656
z: -0.0010747432243078947
","x: 172.59837341308594
y: 385.515869140625
z: -0.002128472551703453
","x: 173.0876922607422
y: 390.53839111328125
z: -0.0039924075827002525
","x: 173.12982177734375
y: 394.1806640625
z: -0.005670127458870411
","x: 169.9667205810547
y: 394.1443176269531
z: 0.000737650552764535
","x: 170.22042846679688
y: 401.5343017578125
z: -0.001788681955076754
","x: 170.64801025390625
y: 403.64508056640625
z: -0.0030302279628813267
","x: 170.84251403808594
y: 404.326416015625
z: -0.0034985884558409452
","x: 167.51907348632812
y: 394.195556640625
z: -0.0007644235738553107
","x: 167.1919708251953
y: 402.0426940917969
z: -0.003786054439842701
","x: 167.4278564453125
y: 399.87799072265625
z: -0.004371972288936377
","x: 167.58103942871094
y: 396.3392639160156
z: -0.0037626211997121572
","x: 165.19430541992188
y: 392.923095703125
z: -0.002871105680242181
","x: 164.5618133544922
y: 399.8201904296875
z: -0.005704102572053671
","x: 165.02731323242188
y: 397.07403564453125
z: -0.005090049002319574
","x: 165.3712921142578
y: 393.4984130859375
z: -0.0037757998798042536
","x: 163.0775146484375
y: 390.3773193359375
z: -0.005386656150221825
","x: 162.53543090820312
y: 395.259521484375
z: -0.0069683208130300045
","x: 163.01004028320312
y: 393.5827331542969
z: -0.00648038974031806
","x: 163.39932250976562
y: 390.89764404296875
z: -0.005475347861647606
","x: 217.7575225830078
y: 286.7199401855469
z: 0.0
","x: 215.62469482421875
y: 280.5827941894531
z: 2.0949648387613706e-05
","x: 212.0399932861328
y: 276.33367919921875
z: -0.0011405337136238813
","x: 209.04432678222656
y: 274.75732421875
z: -0.0023797345347702503
","x: 207.07598876953125
y: 275.2611999511719
z: -0.0035607977770268917
","x: 209.53294372558594
y: 278.3293151855469
z: -0.005233548581600189
","x: 203.39053344726562
y: 277.5645751953125
z: -0.007408967241644859
","x: 201.0602264404297
y: 279.3307189941406
z: -0.007359060924500227
","x: 200.177978515625
y: 281.59344482421875
z: -0.00698262732475996
","x: 209.4182586669922
y: 282.7502746582031
z: -0.006655835546553135
","x: 203.04063415527344
y: 282.7169189453125
z: -0.008592012338340282
","x: 200.6655731201172
y: 284.4448547363281
z: -0.00777198001742363
","x: 199.876953125
y: 286.324462890625
z: -0.0070373364724218845
","x: 209.6222686767578
y: 287.3929443359375
z: -0.00787209440022707
","x: 203.87548828125
y: 287.5828857421875
z: -0.009811953641474247
","x: 201.3757781982422
y: 289.2349548339844
z: -0.00908941775560379
","x: 200.2069854736328
y: 290.9469909667969
z: -0.008488195948302746
","x: 210.18252563476562
y: 291.91717529296875
z: -0.009050632826983929
","x: 205.863525390625
y: 292.7592468261719
z: -0.01097465306520462
","x: 203.78775024414062
y: 294.0788879394531
z: -0.010822828859090805
","x: 202.61326599121094
y: 295.5465087890625
z: -0.010438288561999798
"
18,"x: 206.61880493164062
y: 216.8350372314453
z: -0.28661149740219116
visibility: 0.9999380707740784
","x: 208.6139678955078
y: 211.2523651123047
z: -0.26989448070526123
visibility: 0.9998489618301392
","x: 209.75289916992188
y: 211.76473999023438
z: -0.26991525292396545
visibility: 0.9998306632041931
","x: 210.99716186523438
y: 212.31118774414062
z: -0.26992541551589966
visibility: 0.999832272529602
","x: 205.00750732421875
y: 210.2729034423828
z: -0.2694258987903595
visibility: 0.9998410940170288
","x: 203.63360595703125
y: 210.0534210205078
z: -0.26942694187164307
visibility: 0.9998169541358948
","x: 202.0817413330078
y: 209.9305419921875
z: -0.26945361495018005
visibility: 0.9998270869255066
","x: 213.05224609375
y: 216.91270446777344
z: -0.1535935401916504
visibility: 0.9997761249542236
","x: 199.05123901367188
y: 215.19778442382812
z: -0.15252384543418884
visibility: 0.999662458896637
","x: 208.55062866210938
y: 224.8343505859375
z: -0.24224407970905304
visibility: 0.9999091625213623
","x: 204.05699157714844
y: 225.14187622070312
z: -0.24203553795814514
visibility: 0.9999005198478699
","x: 225.7544403076172
y: 257.5042724609375
z: -0.0837538093328476
visibility: 0.9999681115150452
","x: 184.01272583007812
