uscmakers/ReverseChoreography/data/5_all_i_wanna_do_jay_park.csv
,NOSE,LEFT_EYE_INNER,LEFT_EYE,LEFT_EYE_OUTER,RIGHT_EYE_INNER,RIGHT_EYE,RIGHT_EYE_OUTER,LEFT_EAR,RIGHT_EAR,MOUTH_LEFT,MOUTH_RIGHT,LEFT_SHOULDER,RIGHT_SHOULDER,LEFT_ELBOW,RIGHT_ELBOW,LEFT_WRIST,RIGHT_WRIST,LEFT_PINKY,RIGHT_PINKY,LEFT_INDEX,RIGHT_INDEX,LEFT_THUMB,RIGHT_THUMB,LEFT_HIP,RIGHT_HIP,LEFT_KNEE,RIGHT_KNEE,LEFT_ANKLE,RIGHT_ANKLE,LEFT_HEEL,RIGHT_HEEL,LEFT_FOOT_INDEX,RIGHT_FOOT_INDEX,WRIST,THUMB_CPC,THUMB_MCP,THUMB_IP,THUMB_TIP,INDEX_FINGER_MCP,INDEX_FINGER_PIP,INDEX_FINGER_DIP,INDEX_FINGER_TIP,MIDDLE_FINGER_MCP,MIDDLE_FINGER_PIP,MIDDLE_FINGER_DIP,MIDDLE_FINGER_TIP,RING_FINGER_PIP,RING_FINGER_DIP,RING_FINGER_TIP,RING_FINGER_MCP,PINKY_MCP,PINKY_PIP,PINKY_DIP,PINKY_TIP,WRIST2,THUMB_CPC2,THUMB_MCP2,THUMB_IP2,THUMB_TIP2,INDEX_FINGER_MCP2,INDEX_FINGER_PIP2,INDEX_FINGER_DIP2,INDEX_FINGER_TIP2,MIDDLE_FINGER_MCP2,MIDDLE_FINGER_PIP2,MIDDLE_FINGER_DIP2,MIDDLE_FINGER_TIP2,RING_FINGER_PIP2,RING_FINGER_DIP2,RING_FINGER_TIP2,RING_FINGER_MCP2,PINKY_MCP2,PINKY_PIP2,PINKY_DIP2,PINKY_TIP2
0,"x: 205.26515197753906
y: 197.7983856201172
z: -0.3959507644176483
visibility: 0.999967098236084
","x: 207.14266967773438
y: 190.91209411621094
z: -0.37543997168540955
visibility: 0.9998934268951416
","x: 208.2025604248047
y: 191.41336059570312
z: -0.37547197937965393
visibility: 0.999873161315918
","x: 209.22618103027344
y: 191.9547119140625
z: -0.3754863440990448
visibility: 0.9998486042022705
","x: 203.0863494873047
y: 189.08389282226562
z: -0.38501113653182983
visibility: 0.9998973608016968
","x: 201.24664306640625
y: 188.2998809814453
z: -0.3850453794002533
visibility: 0.9998878240585327
","x: 199.2726287841797
y: 187.54432678222656
z: -0.38510292768478394
visibility: 0.999881386756897
","x: 208.26548767089844
y: 195.67037963867188
z: -0.22962959110736847
visibility: 0.9996746778488159
","x: 194.1171112060547
y: 189.8294677734375
z: -0.2770414650440216
visibility: 0.9998369216918945
","x: 205.66555786132812
y: 205.75518798828125
z: -0.33865565061569214
visibility: 0.9999363422393799
","x: 200.80892944335938
y: 204.24624633789062
z: -0.3523697853088379
visibility: 0.9999604225158691
","x: 218.7326202392578
y: 249.83726501464844
z: -0.10415776073932648
visibility: 0.999919056892395
","x: 172.65501403808594
y: 237.6938018798828
z: -0.1877843737602234
visibility: 0.999968409538269
","x: 218.9761505126953
y: 317.53369140625
z: -0.020273519679903984
visibility: 0.9166273474693298
","x: 160.8741455078125
y: 308.75341796875
z: -0.1560393124818802
visibility: 0.9903011322021484
","x: 225.44674682617188
y: 373.6868591308594
z: -0.14024591445922852
visibility: 0.9461261630058289
","x: 154.14463806152344
y: 362.4459533691406
z: -0.2669782340526581
visibility: 0.9830070734024048
","x: 230.9264678955078
y: 387.3016662597656
z: -0.16800731420516968
visibility: 0.9089889526367188
","x: 148.22364807128906
y: 379.8277282714844
z: -0.3041573166847229
visibility: 0.9670580625534058
","x: 230.71200561523438
y: 387.64642333984375
z: -0.2127220183610916
visibility: 0.9162830710411072
","x: 149.14964294433594
y: 380.18572998046875
z: -0.3389001488685608
visibility: 0.9694855213165283
","x: 227.06854248046875
y: 383.4797668457031
z: -0.16110718250274658
visibility: 0.9067406058311462
","x: 152.822998046875
y: 374.717041015625
z: -0.28275471925735474
visibility: 0.962492048740387
","x: 204.53684997558594
y: 373.25030517578125
z: 0.03239183872938156
visibility: 0.9993718266487122
","x: 178.7809295654297
y: 370.3061218261719
z: -0.03243090584874153
visibility: 0.9996625185012817
","x: 203.10342407226562
y: 467.94073486328125
z: 0.0356077216565609
visibility: 0.9563639760017395
","x: 181.84927368164062
y: 469.6951904296875
z: -0.03944143280386925
visibility: 0.983765184879303
","x: 192.86839294433594
y: 536.741455078125
z: 0.29517656564712524
visibility: 0.9190938472747803
","x: 188.82525634765625
y: 553.6127319335938
z: 0.158606618642807
visibility: 0.9810046553611755
","x: 189.24407958984375
y: 543.5478515625
z: 0.31472763419151306
visibility: 0.8196067810058594
","x: 188.95953369140625
y: 564.1271362304688
z: 0.17088213562965393
visibility: 0.8460555672645569
","x: 201.84056091308594
y: 566.072265625
z: 0.20796434581279755
visibility: 0.9290629625320435
","x: 192.11691284179688
y: 581.8005981445312
z: 0.028953924775123596
visibility: 0.97008216381073
",,,,,,,,,,,,,,,,,,,,,,,,,,,,,,,,,,,,,,,,,,
1,"x: 190.21670532226562
y: 212.98703002929688
z: -0.23413360118865967
visibility: 0.9999632835388184
","x: 192.28237915039062
y: 205.86669921875
z: -0.21589183807373047
visibility: 0.9998780488967896
","x: 193.0001678466797
y: 206.14967346191406
z: -0.21590092778205872
visibility: 0.9998501539230347
","x: 193.68496704101562
y: 206.27023315429688
z: -0.21591386198997498
visibility: 0.9998278021812439
","x: 189.18113708496094
y: 203.39837646484375
z: -0.22838561236858368
visibility: 0.9998912811279297
","x: 187.68309020996094
y: 201.9949493408203
z: -0.22838768362998962
visibility: 0.9998780488967896
","x: 186.13414001464844
y: 200.48666381835938
z: -0.22843852639198303
visibility: 0.9998722076416016
","x: 192.35809326171875
y: 206.5867919921875
z: -0.08863060176372528
visibility: 0.9996296167373657
","x: 180.90164184570312
y: 200.54019165039062
z: -0.14911121129989624
visibility: 0.9998301267623901
","x: 189.4521484375
y: 219.6659698486328
z: -0.1831924468278885
visibility: 0.9999191761016846
","x: 185.92800903320312
y: 216.44715881347656
z: -0.20080427825450897
visibility: 0.9999523758888245
","x: 198.35025024414062
y: 250.26345825195312
z: 0.016372578218579292
visibility: 0.9999181032180786
","x: 158.9495849609375
y: 237.6583251953125
z: -0.09883521497249603
visibility: 0.9999675154685974
","x: 208.0791473388672
y: 305.9476318359375
z: 0.07672716677188873
visibility: 0.9222515821456909
","x: 142.1593475341797
y: 290.19842529296875
z: -0.20425978302955627
visibility: 0.9910461902618408
","x: 219.91246032714844
y: 346.43414306640625
z: -0.03738025575876236
visibility: 0.9504680037498474
","x: 157.41551208496094
y: 297.6294250488281
z: -0.4099472463130951
visibility: 0.9845534563064575
","x: 227.28221130371094
y: 358.7118835449219
z: -0.06209510564804077
visibility: 0.9156434535980225
","x: 163.74693298339844
y: 304.3670959472656
z: -0.4553616940975189
visibility: 0.969914436340332
","x: 227.67364501953125
y: 358.5374755859375
z: -0.10027726739645004
visibility: 0.9224435091018677
","x: 167.0155029296875
y: 297.0467834472656
z: -0.4631427824497223
visibility: 0.9720723628997803
","x: 224.4429931640625
y: 354.85736083984375
z: -0.055521268397569656
visibility: 0.9132040739059448
","x: 165.54254150390625
y: 294.245361328125
z: -0.4155708849430084
visibility: 0.9654307961463928
","x: 184.6347198486328
y: 371.4510803222656
z: 0.025755394250154495
visibility: 0.9994106888771057
","x: 160.1291961669922
y: 367.8580322265625
z: -0.025606775656342506
visibility: 0.9996773600578308
","x: 187.8543701171875
y: 460.5045166015625
z: -0.03802613168954849
visibility: 0.9602165818214417
","x: 160.7971649169922
y: 453.9171142578125
z: 0.01727563701570034
visibility: 0.9848318099975586
","x: 188.88739013671875
y: 541.3280639648438
z: 0.014224429614841938
visibility: 0.9262430667877197
","x: 163.2860870361328
y: 533.8048095703125
z: 0.18743881583213806
visibility: 0.9821959733963013
","x: 183.47064208984375
y: 553.2984008789062
z: 0.010473007336258888
visibility: 0.8348048329353333
","x: 167.46466064453125
y: 546.860107421875
z: 0.19592924416065216
visibility: 0.8551925420761108
","x: 201.80319213867188
y: 566.2743530273438
z: -0.12130063772201538
visibility: 0.935183048248291
","x: 150.94659423828125
y: 560.0830688476562
z: 0.07390327751636505
visibility: 0.9720737338066101
","x: 158.5142364501953
y: 292.0748596191406
z: 0.0
","x: 163.17752075195312
y: 289.1419677734375
z: 0.0011985180899500847
","x: 168.11102294921875
y: 287.048828125
z: -3.611700230976567e-05
","x: 172.04302978515625
y: 285.0986022949219
z: -0.0016446156660094857
","x: 174.57240295410156
y: 282.0657653808594
z: -0.0030637425370514393
","x: 169.2500762939453
y: 288.0697326660156
z: -0.004472571890801191
","x: 174.8071746826172
y: 290.2337646484375
z: -0.007024883292615414
","x: 177.6011505126953
y: 293.4883117675781
z: -0.007608679123222828
","x: 179.57579040527344
y: 296.3966064453125
z: -0.00781725812703371
","x: 167.8485870361328
y: 291.6440734863281
z: -0.006949464324861765
","x: 173.4198455810547
y: 296.1947021484375
z: -0.009711410850286484
","x: 176.074462890625
y: 300.7566833496094
z: -0.009564664214849472
","x: 177.77951049804688
y: 304.6097106933594
z: -0.009412377141416073
","x: 166.26397705078125
y: 295.8226013183594
z: -0.009072588756680489
","x: 171.21194458007812
y: 300.6383361816406
z: -0.011524262838065624
","x: 173.58587646484375
y: 304.7604675292969
z: -0.010849994607269764
","x: 175.11485290527344
y: 307.9394836425781
z: -0.010361306369304657
","x: 164.572021484375
y: 300.2532043457031
z: -0.011088223196566105
","x: 168.17864990234375
y: 304.6217041015625
z: -0.012868204154074192
","x: 170.04869079589844
y: 307.453125
z: -0.012532288208603859
","x: 171.42901611328125
y: 309.8550720214844
z: -0.012220354750752449
",,,,,,,,,,,,,,,,,,,,,
2,"x: 190.21670532226562
y: 212.98703002929688
z: -0.23413360118865967
visibility: 0.9999632835388184
","x: 192.28237915039062
y: 205.86669921875
z: -0.21589183807373047
visibility: 0.9998780488967896
","x: 193.0001678466797
y: 206.14967346191406
z: -0.21590092778205872
visibility: 0.9998501539230347
","x: 193.68496704101562
y: 206.27023315429688
z: -0.21591386198997498
visibility: 0.9998278021812439
","x: 189.18113708496094
y: 203.39837646484375
z: -0.22838561236858368
visibility: 0.9998912811279297
","x: 187.68309020996094
y: 201.9949493408203
z: -0.22838768362998962
visibility: 0.9998780488967896
","x: 186.13414001464844
y: 200.48666381835938
z: -0.22843852639198303
visibility: 0.9998722076416016
","x: 192.35809326171875
y: 206.5867919921875
z: -0.08863060176372528
visibility: 0.9996296167373657
","x: 180.90164184570312
y: 200.54019165039062
z: -0.14911121129989624
visibility: 0.9998301267623901
","x: 189.4521484375
y: 219.6659698486328
z: -0.1831924468278885
visibility: 0.9999191761016846
","x: 185.92800903320312
y: 216.44715881347656
z: -0.20080427825450897
visibility: 0.9999523758888245
","x: 198.35025024414062
y: 250.26345825195312
z: 0.016372578218579292
visibility: 0.9999181032180786
","x: 158.9495849609375
y: 237.6583251953125
z: -0.09883521497249603
visibility: 0.9999675154685974
","x: 208.0791473388672
y: 305.9476318359375
z: 0.07672716677188873
visibility: 0.9222515821456909
","x: 142.1593475341797
y: 290.19842529296875
z: -0.20425978302955627
visibility: 0.9910461902618408
","x: 219.91246032714844
y: 346.43414306640625
z: -0.03738025575876236
visibility: 0.9504680037498474
","x: 157.41551208496094
y: 297.6294250488281
z: -0.4099472463130951
visibility: 0.9845534563064575
","x: 227.28221130371094
y: 358.7118835449219
z: -0.06209510564804077
visibility: 0.9156434535980225
","x: 163.74693298339844
y: 304.3670959472656
z: -0.4553616940975189
visibility: 0.969914436340332
","x: 227.67364501953125
y: 358.5374755859375
z: -0.10027726739645004
visibility: 0.9224435091018677
","x: 167.0155029296875
y: 297.0467834472656
z: -0.4631427824497223
visibility: 0.9720723628997803
","x: 224.4429931640625
y: 354.85736083984375
z: -0.055521268397569656
visibility: 0.9132040739059448
","x: 165.54254150390625
y: 294.245361328125
z: -0.4155708849430084
visibility: 0.9654307961463928
","x: 184.6347198486328
y: 371.4510803222656
z: 0.025755394250154495
visibility: 0.9994106888771057
","x: 160.1291961669922
y: 367.8580322265625
z: -0.025606775656342506
visibility: 0.9996773600578308
","x: 187.8543701171875
y: 460.5045166015625
z: -0.03802613168954849
visibility: 0.9602165818214417
","x: 160.7971649169922
y: 453.9171142578125
z: 0.01727563701570034
visibility: 0.9848318099975586
","x: 188.88739013671875
y: 541.3280639648438
z: 0.014224429614841938
visibility: 0.9262430667877197
","x: 163.2860870361328
y: 533.8048095703125
z: 0.18743881583213806
visibility: 0.9821959733963013
","x: 183.47064208984375
y: 553.2984008789062
z: 0.010473007336258888
visibility: 0.8348048329353333
","x: 167.46466064453125
y: 546.860107421875
z: 0.19592924416065216
visibility: 0.8551925420761108
","x: 201.80319213867188
y: 566.2743530273438
z: -0.12130063772201538
visibility: 0.935183048248291
","x: 150.94659423828125
y: 560.0830688476562
z: 0.07390327751636505
visibility: 0.9720737338066101
","x: 158.5142364501953
y: 292.0748596191406
z: 0.0
","x: 163.17752075195312
y: 289.1419677734375
z: 0.0011985180899500847
","x: 168.11102294921875
y: 287.048828125
z: -3.611700230976567e-05
","x: 172.04302978515625
y: 285.0986022949219
z: -0.0016446156660094857
","x: 174.57240295410156
y: 282.0657653808594
z: -0.0030637425370514393
","x: 169.2500762939453
y: 288.0697326660156
z: -0.004472571890801191
","x: 174.8071746826172
y: 290.2337646484375
z: -0.007024883292615414
","x: 177.6011505126953
y: 293.4883117675781
z: -0.007608679123222828
","x: 179.57579040527344
y: 296.3966064453125
z: -0.00781725812703371
","x: 167.8485870361328
y: 291.6440734863281
z: -0.006949464324861765
","x: 173.4198455810547
y: 296.1947021484375
z: -0.009711410850286484
","x: 176.074462890625
y: 300.7566833496094
z: -0.009564664214849472
","x: 177.77951049804688
y: 304.6097106933594
z: -0.009412377141416073
","x: 166.26397705078125
y: 295.8226013183594
z: -0.009072588756680489
","x: 171.21194458007812
y: 300.6383361816406
z: -0.011524262838065624
","x: 173.58587646484375
y: 304.7604675292969
z: -0.010849994607269764
","x: 175.11485290527344
y: 307.9394836425781
z: -0.010361306369304657
","x: 164.572021484375
y: 300.2532043457031
z: -0.011088223196566105
","x: 168.17864990234375
y: 304.6217041015625
z: -0.012868204154074192
","x: 170.04869079589844
y: 307.453125
z: -0.012532288208603859
","x: 171.42901611328125
y: 309.8550720214844
z: -0.012220354750752449
",,,,,,,,,,,,,,,,,,,,,
3,"x: 179.4125213623047
y: 216.2976837158203
z: -0.2956025302410126
visibility: 0.9999659657478333
","x: 182.85543823242188
y: 210.44342041015625
z: -0.27521198987960815
visibility: 0.9998866319656372
","x: 184.07215881347656
y: 210.94290161132812
z: -0.2752179205417633
visibility: 0.9998605847358704
","x: 185.16375732421875
y: 211.23472595214844
z: -0.27522605657577515
visibility: 0.9998401403427124
","x: 178.99969482421875
y: 207.4850311279297
z: -0.2821970582008362
visibility: 0.9998992085456848
","x: 177.6217803955078
y: 206.10684204101562
z: -0.28220826387405396
visibility: 0.9998868107795715
","x: 176.30662536621094
y: 204.68589782714844
z: -0.2822090983390808
visibility: 0.9998810291290283
","x: 185.53517150878906
y: 212.17282104492188
z: -0.1406553089618683
visibility: 0.9996556639671326
","x: 173.62025451660156
y: 204.87367248535156
z: -0.1772642880678177
visibility: 0.9998419880867004
","x: 179.58570861816406
y: 223.50762939453125
z: -0.2436170130968094
visibility: 0.9999238848686218
","x: 175.56283569335938
y: 219.9327392578125
z: -0.2544584572315216
visibility: 0.9999549984931946
","x: 193.03501892089844
y: 253.99855041503906
z: -0.0351070836186409
visibility: 0.9999227523803711
","x: 153.8382568359375
y: 238.87237548828125
z: -0.1146329864859581
visibility: 0.999967098236084
","x: 207.7281494140625
y: 303.73052978515625
z: 0.0666859894990921
visibility: 0.9294724464416504
","x: 137.93516540527344
y: 285.7449951171875
z: -0.21504172682762146
visibility: 0.9916325211524963
","x: 218.7568359375
y: 347.32916259765625
z: -0.09864704310894012
visibility: 0.9550055265426636
","x: 152.84417724609375
y: 303.8963623046875
z: -0.4386625289916992
visibility: 0.9858460426330566
","x: 223.06317138671875
y: 362.177490234375
z: -0.13526269793510437
visibility: 0.9227961301803589
","x: 159.24473571777344
y: 315.7256164550781
z: -0.48738232254981995
visibility: 0.972258448600769
","x: 221.2701416015625
y: 362.07269287109375
z: -0.15653599798679352
visibility: 0.9290721416473389
","x: 161.10073852539062
y: 310.1755676269531
z: -0.49746426939964294
visibility: 0.9741987586021423
","x: 219.281005859375
y: 357.19854736328125
z: -0.10797429084777832
visibility: 0.9204216599464417
","x: 162.3984375
y: 306.6545715332031
z: -0.44587618112564087
visibility: 0.967823326587677
","x: 177.88088989257812
y: 370.31072998046875
z: 0.018366223201155663
visibility: 0.9994491338729858
","x: 154.21817016601562
y: 364.4906311035156
z: -0.018292291089892387
visibility: 0.9996895790100098
","x: 182.43515014648438
y: 455.4515380859375
z: -0.03534189984202385
visibility: 0.9629307389259338
","x: 155.5085906982422
y: 450.0107116699219
z: 0.004091516602784395
visibility: 0.9853036403656006
","x: 187.3248748779297
y: 543.7750854492188
z: 0.03247983008623123
visibility: 0.932227611541748
","x: 159.76031494140625
y: 529.0004272460938
z: 0.17126455903053284
visibility: 0.9828101992607117
","x: 181.7646942138672
y: 555.9880981445312
z: 0.030569860711693764
visibility: 0.8473125696182251
","x: 164.05059814453125
y: 543.0946044921875
z: 0.17587397992610931
visibility: 0.8595850467681885
","x: 201.68392944335938
y: 566.2479248046875
z: -0.10331449657678604
visibility: 0.9401116371154785
","x: 151.05430603027344
y: 557.0545654296875
z: 0.068208709359169
visibility: 0.973107099533081
","x: 149.27040100097656
y: 306.6871643066406
z: 0.0
","x: 152.5740966796875
y: 303.7411804199219
z: -0.001179480692371726
","x: 156.4521942138672
y: 302.9906005859375
z: -0.0036460678093135357
","x: 159.264404296875
y: 302.4040832519531
z: -0.0063972389325499535
","x: 161.34564208984375
y: 300.5880432128906
z: -0.008971834555268288
","x: 158.68714904785156
y: 308.8893127441406
z: -0.006876204628497362
","x: 162.62451171875
y: 315.4277648925781
z: -0.010531578212976456
","x: 161.82371520996094
y: 317.3077087402344
z: -0.011198378168046474
","x: 160.519775390625
y: 316.6506652832031
z: -0.011188799515366554
","x: 156.60203552246094
y: 312.7148132324219
z: -0.008575689047574997
","x: 160.11703491210938
y: 319.83013916015625
z: -0.012457900680601597
","x: 159.41848754882812
y: 320.80621337890625
z: -0.012009883299469948
","x: 158.28822326660156
y: 319.6365966796875
z: -0.01111634261906147
","x: 154.08154296875
y: 315.737548828125
z: -0.010204796679317951
","x: 156.93182373046875
y: 322.4434814453125
z: -0.013934927992522717
","x: 156.93685913085938
y: 323.8301086425781
z: -0.012882939539849758
","x: 156.50997924804688
y: 323.2708740234375
z: -0.011598922312259674
","x: 151.3858184814453
y: 317.9727478027344
z: -0.01193880196660757
","x: 152.97535705566406
y: 323.6077880859375
z: -0.015084817074239254
","x: 153.2125701904297
y: 325.3152770996094
z: -0.014766422100365162
","x: 153.187255859375
y: 325.52001953125
z: -0.01388499140739441
",,,,,,,,,,,,,,,,,,,,,
4,"x: 179.4125213623047
y: 216.2976837158203
z: -0.2956025302410126
visibility: 0.9999659657478333
","x: 182.85543823242188
y: 210.44342041015625
z: -0.27521198987960815
visibility: 0.9998866319656372
","x: 184.07215881347656
y: 210.94290161132812
z: -0.2752179205417633
visibility: 0.9998605847358704
","x: 185.16375732421875
y: 211.23472595214844
z: -0.27522605657577515
visibility: 0.9998401403427124
","x: 178.99969482421875
y: 207.4850311279297
z: -0.2821970582008362
visibility: 0.9998992085456848
","x: 177.6217803955078
y: 206.10684204101562
z: -0.28220826387405396
visibility: 0.9998868107795715
","x: 176.30662536621094
y: 204.68589782714844
z: -0.2822090983390808
visibility: 0.9998810291290283
","x: 185.53517150878906
y: 212.17282104492188
z: -0.1406553089618683
visibility: 0.9996556639671326
","x: 173.62025451660156
y: 204.87367248535156
z: -0.1772642880678177
visibility: 0.9998419880867004
","x: 179.58570861816406
y: 223.50762939453125
z: -0.2436170130968094
visibility: 0.9999238848686218
","x: 175.56283569335938
y: 219.9327392578125
z: -0.2544584572315216
visibility: 0.9999549984931946
","x: 193.03501892089844
y: 253.99855041503906
z: -0.0351070836186409
visibility: 0.9999227523803711
","x: 153.8382568359375
y: 238.87237548828125
z: -0.1146329864859581
visibility: 0.999967098236084
","x: 207.7281494140625
y: 303.73052978515625
z: 0.0666859894990921
visibility: 0.9294724464416504
","x: 137.93516540527344
y: 285.7449951171875
z: -0.21504172682762146
visibility: 0.9916325211524963
","x: 218.7568359375
y: 347.32916259765625
z: -0.09864704310894012
visibility: 0.9550055265426636
","x: 152.84417724609375
y: 303.8963623046875
z: -0.4386625289916992
visibility: 0.9858460426330566
","x: 223.06317138671875
y: 362.177490234375
z: -0.13526269793510437
visibility: 0.9227961301803589
","x: 159.24473571777344
y: 315.7256164550781
z: -0.48738232254981995
visibility: 0.972258448600769
","x: 221.2701416015625
y: 362.07269287109375
z: -0.15653599798679352
visibility: 0.9290721416473389
","x: 161.10073852539062
y: 310.1755676269531
z: -0.49746426939964294
visibility: 0.9741987586021423
","x: 219.281005859375
y: 357.19854736328125
z: -0.10797429084777832
visibility: 0.9204216599464417
","x: 162.3984375
y: 306.6545715332031
z: -0.44587618112564087
visibility: 0.967823326587677
","x: 177.88088989257812
y: 370.31072998046875
z: 0.018366223201155663
visibility: 0.9994491338729858
","x: 154.21817016601562
y: 364.4906311035156
z: -0.018292291089892387
visibility: 0.9996895790100098
","x: 182.43515014648438
y: 455.4515380859375
z: -0.03534189984202385
visibility: 0.9629307389259338
","x: 155.5085906982422
y: 450.0107116699219
z: 0.004091516602784395
visibility: 0.9853036403656006
","x: 187.3248748779297
y: 543.7750854492188
z: 0.03247983008623123
visibility: 0.932227611541748
","x: 159.76031494140625
y: 529.0004272460938
z: 0.17126455903053284
visibility: 0.9828101992607117
","x: 181.7646942138672
y: 555.9880981445312
z: 0.030569860711693764
visibility: 0.8473125696182251
","x: 164.05059814453125
y: 543.0946044921875
z: 0.17587397992610931
visibility: 0.8595850467681885
","x: 201.68392944335938
y: 566.2479248046875
z: -0.10331449657678604
visibility: 0.9401116371154785
","x: 151.05430603027344
y: 557.0545654296875
z: 0.068208709359169
visibility: 0.973107099533081
","x: 149.27040100097656
y: 306.6871643066406
z: 0.0
","x: 152.5740966796875
y: 303.7411804199219
z: -0.001179480692371726
","x: 156.4521942138672
y: 302.9906005859375
z: -0.0036460678093135357
","x: 159.264404296875
y: 302.4040832519531
z: -0.0063972389325499535
","x: 161.34564208984375
y: 300.5880432128906
z: -0.008971834555268288
","x: 158.68714904785156
y: 308.8893127441406
z: -0.006876204628497362
","x: 162.62451171875
y: 315.4277648925781
z: -0.010531578212976456
","x: 161.82371520996094
y: 317.3077087402344
z: -0.011198378168046474
","x: 160.519775390625
y: 316.6506652832031
z: -0.011188799515366554
","x: 156.60203552246094
y: 312.7148132324219
z: -0.008575689047574997
","x: 160.11703491210938
y: 319.83013916015625
z: -0.012457900680601597
","x: 159.41848754882812
y: 320.80621337890625
z: -0.012009883299469948
","x: 158.28822326660156
y: 319.6365966796875
z: -0.01111634261906147
","x: 154.08154296875
y: 315.737548828125
z: -0.010204796679317951
","x: 156.93182373046875
y: 322.4434814453125
z: -0.013934927992522717
","x: 156.93685913085938
y: 323.8301086425781
z: -0.012882939539849758
","x: 156.50997924804688
y: 323.2708740234375
z: -0.011598922312259674
","x: 151.3858184814453
y: 317.9727478027344
z: -0.01193880196660757
","x: 152.97535705566406
y: 323.6077880859375
z: -0.015084817074239254
","x: 153.2125701904297
y: 325.3152770996094
z: -0.014766422100365162
","x: 153.187255859375
y: 325.52001953125
z: -0.01388499140739441
",,,,,,,,,,,,,,,,,,,,,
5,"x: 172.7491912841797
y: 216.09994506835938
z: -0.30022087693214417
visibility: 0.9999664425849915
","x: 176.0946044921875
y: 210.41986083984375
z: -0.2812452018260956
visibility: 0.9998870491981506
","x: 177.49615478515625
y: 210.92999267578125
z: -0.2812574803829193
visibility: 0.9998622536659241
","x: 178.79095458984375
y: 211.30047607421875
z: -0.2812962234020233
visibility: 0.999842643737793
","x: 172.19937133789062
y: 208.29153442382812
z: -0.28450530767440796
visibility: 0.9999004602432251
","x: 170.86634826660156
y: 207.52728271484375
z: -0.2845109701156616
visibility: 0.9998887777328491
","x: 169.5604705810547
y: 206.76271057128906
z: -0.2844952344894409
visibility: 0.9998830556869507
","x: 180.3717041015625
y: 213.4052276611328
z: -0.15674038231372833
visibility: 0.9996653199195862
","x: 168.01242065429688
y: 207.9789581298828
z: -0.1753038913011551
visibility: 0.9998432993888855
","x: 174.02749633789062
y: 223.70370483398438
z: -0.2528151869773865
visibility: 0.9999246597290039
","x: 169.51507568359375
y: 221.60333251953125
z: -0.25823846459388733
visibility: 0.999954879283905
","x: 190.75930786132812
y: 258.8045654296875
z: -0.05162519961595535
visibility: 0.9999237656593323
","x: 148.95249938964844
y: 243.8603515625
z: -0.10647803544998169
visibility: 0.999966025352478
","x: 202.84820556640625
y: 307.0821533203125
z: -0.021307600662112236
visibility: 0.9350267648696899
","x: 133.80459594726562
y: 288.90606689453125
z: -0.1977575272321701
visibility: 0.991278350353241
","x: 212.0438232421875
y: 352.7313537597656
z: -0.1585892140865326
visibility: 0.9574092626571655
","x: 144.68301391601562
y: 319.59515380859375
z: -0.4029506742954254
visibility: 0.9862586855888367
","x: 215.5315704345703
y: 367.4326171875
z: -0.19467288255691528
visibility: 0.9256312847137451
","x: 147.8386688232422
y: 330.41259765625
z: -0.4535408914089203
visibility: 0.9728754162788391
","x: 214.20875549316406
y: 367.3445129394531
z: -0.2280656397342682
visibility: 0.931784451007843
","x: 150.23619079589844
y: 326.1452941894531
z: -0.46769779920578003
visibility: 0.9746471643447876
","x: 212.27078247070312
y: 362.0445251464844
z: -0.17527900636196136
visibility: 0.9230493307113647
","x: 150.1378631591797
y: 322.99652099609375
z: -0.41298967599868774
visibility: 0.9680466055870056
","x: 174.21092224121094
y: 368.5690612792969
z: 0.005638233385980129
visibility: 0.9994699954986572
","x: 150.5990753173828
y: 364.4530029296875
z: -0.005622208118438721
visibility: 0.9996945858001709
","x: 177.56948852539062
y: 454.0638732910156
z: -0.013145096600055695
visibility: 0.965911865234375
","x: 153.95382690429688
y: 451.1190185546875
z: 0.026264185085892677
visibility: 0.985920250415802
","x: 181.82168579101562
y: 542.4024047851562
z: 0.10490459203720093
visibility: 0.9381573796272278
","x: 159.93844604492188
y: 530.6220092773438
z: 0.18018946051597595
visibility: 0.9837035536766052
","x: 177.7999267578125
y: 555.3926391601562
z: 0.10715977847576141
visibility: 0.8551170229911804
","x: 163.71588134765625
y: 542.2811279296875
z: 0.18612773716449738
visibility: 0.8651552796363831
","x: 189.75201416015625
y: 564.934814453125
z: -0.02757534757256508
visibility: 0.9449580311775208
","x: 150.47341918945312
y: 556.4600219726562
z: 0.06525231152772903
visibility: 0.9746570587158203
",,,,,,,,,,,,,,,,,,,,,,,,,,,,,,,,,,,,,,,,,,
6,"x: 169.82080078125
y: 217.94290161132812
z: -0.3549749553203583
visibility: 0.999965488910675
","x: 172.51063537597656
y: 211.8846893310547
z: -0.3436867594718933
visibility: 0.999878466129303
","x: 173.8457489013672
y: 212.20115661621094
z: -0.3437040150165558
visibility: 0.9998570680618286
","x: 175.09571838378906
y: 212.46432495117188
z: -0.343752920627594
visibility: 0.9998372197151184
","x: 168.53982543945312
y: 210.45372009277344
z: -0.3422875702381134
visibility: 0.9998903870582581
","x: 167.19949340820312
y: 209.89332580566406
z: -0.3423047661781311
visibility: 0.9998784065246582
","x: 165.86599731445312
y: 209.39942932128906
z: -0.3423151969909668
visibility: 0.9998692274093628
","x: 177.18142700195312
y: 214.506103515625
z: -0.23609741032123566
visibility: 0.9996557235717773
","x: 164.28555297851562
y: 210.4694366455078
z: -0.2339920699596405
visibility: 0.9998084902763367
","x: 171.81057739257812
y: 225.00352478027344
z: -0.312714546918869
visibility: 0.9999209642410278
","x: 166.92677307128906
y: 223.91355895996094
z: -0.31165698170661926
visibility: 0.9999472498893738
","x: 188.20623779296875
y: 259.10711669921875
z: -0.14169035851955414
visibility: 0.9999231100082397
","x: 147.07681274414062
y: 246.56954956054688
z: -0.11992845684289932
visibility: 0.9999639987945557
","x: 192.7696533203125
y: 314.19256591796875
z: -0.07344546169042587
visibility: 0.9401390552520752
","x: 133.94674682617188
y: 290.5457763671875
z: -0.11109771579504013
visibility: 0.9899318218231201
","x: 201.1603240966797
y: 362.87310791015625
z: -0.1582242101430893
visibility: 0.9593636393547058
","x: 127.65956115722656
y: 341.61376953125
z: -0.19821497797966003
visibility: 0.9852117300033569
","x: 206.35360717773438
y: 378.1088562011719
z: -0.18436525762081146
visibility: 0.9277331829071045
","x: 123.55380249023438
y: 356.0400390625
z: -0.22484150528907776
visibility: 0.9707211256027222
","x: 205.4190673828125
y: 378.2559509277344
z: -0.22166159749031067
visibility: 0.9338204264640808
","x: 124.83624267578125
y: 356.239013671875
z: -0.26197177171707153
visibility: 0.9727191925048828
","x: 203.0544891357422
y: 374.50872802734375
z: -0.1753225028514862
visibility: 0.925149142742157
","x: 126.98189544677734
y: 350.91790771484375
z: -0.2151481807231903
visibility: 0.9660968780517578
","x: 171.42300415039062
y: 366.8275146484375
z: -0.00454021105542779
visibility: 0.9994392395019531
","x: 149.4593505859375
y: 363.5665283203125
z: 0.0044458769261837006
visibility: 0.9996680617332458
","x: 171.08859252929688
y: 453.7093811035156
z: -0.002079006750136614
visibility: 0.9679451584815979
","x: 152.25909423828125
y: 452.1017761230469
z: 0.03121141716837883
visibility: 0.9857377409934998
","x: 174.12962341308594
y: 534.9585571289062
z: 0.14439164102077484
visibility: 0.9430842399597168
","x: 159.08924865722656
y: 528.7081298828125
z: 0.18112921714782715
visibility: 0.9840468168258667
","x: 171.75933837890625
y: 546.52001953125
z: 0.1507590115070343
visibility: 0.8603980541229248
","x: 162.3295135498047
y: 539.4737548828125
z: 0.1879872977733612
visibility: 0.8684348464012146
","x: 181.54388427734375
y: 558.3264770507812
z: 0.02903272584080696
visibility: 0.9488317370414734
","x: 149.35183715820312
y: 556.016357421875
z: 0.0687418207526207
visibility: 0.9754881262779236
",,,,,,,,,,,,,,,,,,,,,,,,,,,,,,,,,,,,,,,,,,
7,"x: 165.97459411621094
y: 224.93048095703125
z: -0.34610557556152344
visibility: 0.9999606609344482
","x: 168.56275939941406
y: 217.9202423095703
z: -0.3391231596469879
visibility: 0.9998478293418884
","x: 169.98553466796875
y: 217.94921875
z: -0.3391363024711609
visibility: 0.9998306035995483
","x: 171.34559631347656
y: 217.93724060058594
z: -0.33916208148002625
visibility: 0.9998058676719666
","x: 164.7397918701172
y: 216.93678283691406
z: -0.3350243866443634
visibility: 0.9998599886894226
","x: 163.59132385253906
y: 216.35536193847656
z: -0.33505183458328247
visibility: 0.9998458623886108
","x: 162.47218322753906
y: 215.73446655273438
z: -0.33507463335990906
visibility: 0.999828577041626
","x: 174.11207580566406
y: 218.1876983642578
z: -0.23049040138721466
visibility: 0.9996047019958496
","x: 161.84228515625
y: 215.24105834960938
z: -0.2269953191280365
visibility: 0.9997295141220093
","x: 168.52264404296875
y: 230.44012451171875
z: -0.3067918121814728
visibility: 0.9999126195907593
","x: 163.7162628173828
y: 229.87586975097656
z: -0.3016745448112488
visibility: 0.9999333024024963
","x: 187.29551696777344
y: 260.9631652832031
z: -0.13952818512916565
visibility: 0.999924898147583
","x: 145.32774353027344
y: 252.52027893066406
z: -0.12699969112873077
visibility: 0.9999644756317139
","x: 190.0435028076172
y: 321.5729064941406
z: -0.07898746430873871
visibility: 0.9449857473373413
","x: 131.67239379882812
y: 304.6301574707031
z: -0.08041392266750336
visibility: 0.9888988137245178
","x: 195.80117797851562
y: 371.1215515136719
z: -0.16045597195625305
visibility: 0.961401641368866
","x: 118.71269226074219
y: 349.56195068359375
z: -0.1644364297389984
visibility: 0.984631359577179
","x: 199.58985900878906
y: 387.7584228515625
z: -0.18439054489135742
visibility: 0.9301034808158875
","x: 113.88280487060547
y: 365.59820556640625
z: -0.19059166312217712
visibility: 0.9695578217506409
","x: 198.09759521484375
y: 387.9478759765625
z: -0.22111515700817108
visibility: 0.9360753893852234
","x: 114.9417724609375
y: 366.2992858886719
z: -0.22870349884033203
visibility: 0.9717647433280945
","x: 195.8719482421875
y: 383.5742492675781
z: -0.17693842947483063
visibility: 0.9275376200675964
","x: 116.69538879394531
y: 360.5147705078125
z: -0.18241944909095764
visibility: 0.9652754664421082
","x: 171.73141479492188
y: 369.3420104980469
z: -0.005113386549055576
visibility: 0.9994063973426819
","x: 149.99099731445312
y: 366.9200439453125
z: 0.005046316888183355
visibility: 0.9996567964553833
","x: 172.67945861816406
y: 454.9439697265625
z: 0.02693757973611355
visibility: 0.9699300527572632
","x: 150.7775115966797
y: 453.4327697753906
z: 0.028895070776343346
visibility: 0.9861619472503662
","x: 176.3210906982422
y: 531.7945556640625
z: 0.15173453092575073
visibility: 0.9474260807037354
","x: 159.13746643066406
y: 530.487548828125
z: 0.17817631363868713
visibility: 0.9845548868179321
","x: 174.85971069335938
y: 543.5897216796875
z: 0.15248404443264008
visibility: 0.8659127950668335
","x: 163.279296875
y: 540.7960205078125
z: 0.18590529263019562
visibility: 0.872488796710968
","x: 184.27037048339844
y: 555.0009765625
z: 0.052693866193294525
visibility: 0.9522507190704346
","x: 150.2550811767578
y: 555.9295043945312
z: 0.06788604706525803
visibility: 0.9763603806495667
",,,,,,,,,,,,,,,,,,,,,,,,,,,,,,,,,,,,,,,,,,
8,"x: 164.89588928222656
y: 220.69151306152344
z: -0.2946966290473938
visibility: 0.9999619126319885
","x: 167.56040954589844
y: 213.91558837890625
z: -0.283809632062912
visibility: 0.9998498558998108
","x: 168.92335510253906
y: 214.14224243164062
z: -0.2838498055934906
visibility: 0.9998350739479065
","x: 170.28396606445312
y: 214.3074951171875
z: -0.28386005759239197
visibility: 0.9998112916946411
","x: 163.71249389648438
y: 212.49594116210938
z: -0.28062570095062256
visibility: 0.9998599290847778
","x: 162.54400634765625
y: 211.83926391601562
z: -0.28063422441482544
visibility: 0.9998448491096497
","x: 161.37399291992188
y: 211.19813537597656
z: -0.28063496947288513
visibility: 0.9998258948326111
","x: 172.91140747070312
y: 215.40679931640625
z: -0.1876561939716339
visibility: 0.999622642993927
","x: 159.94334411621094
y: 212.25115966796875
z: -0.17105187475681305
visibility: 0.9997125267982483
","x: 167.32394409179688
y: 226.9879913330078
z: -0.2558286786079407
visibility: 0.9999157786369324
","x: 162.27694702148438
y: 225.8904266357422
z: -0.2513408660888672
visibility: 0.999932050704956
","x: 186.1791534423828
y: 259.7717590332031
z: -0.11627107858657837
visibility: 0.9999302625656128
","x: 145.28759765625
y: 251.841796875
z: -0.07734555751085281
visibility: 0.9999634027481079
","x: 192.23049926757812
y: 315.8707275390625
z: -0.07656256854534149
visibility: 0.9498368501663208
","x: 133.12899780273438
y: 305.15496826171875
z: -0.02374836802482605
visibility: 0.9875945448875427
","x: 193.35264587402344
y: 360.3082275390625
z: -0.188497394323349
visibility: 0.964367687702179
","x: 118.53109741210938
y: 347.6210021972656
z: -0.11858715116977692
visibility: 0.9841642379760742
","x: 194.8728790283203
y: 374.62628173828125
z: -0.2198481559753418
visibility: 0.9348496198654175
","x: 112.37065887451172
y: 363.2371520996094
z: -0.1478864848613739
visibility: 0.9687259793281555
","x: 192.60581970214844
y: 374.1674499511719
z: -0.2543138861656189
visibility: 0.9404104351997375
","x: 112.8213882446289
y: 362.56781005859375
z: -0.1867411881685257
visibility: 0.971111536026001
","x: 191.09523010253906
y: 368.828369140625
z: -0.2045745849609375
visibility: 0.9321428537368774
","x: 115.26948547363281
y: 357.3279113769531
z: -0.1375674605369568
visibility: 0.9648964405059814
","x: 174.12779235839844
y: 368.1675720214844
z: -0.0071365064941346645
visibility: 0.9994093179702759
","x: 151.7216796875
y: 366.7547302246094
z: 0.007103474345058203
visibility: 0.9996565580368042
","x: 177.63099670410156
y: 453.8009338378906
z: 0.023723667487502098
visibility: 0.9724714159965515
","x: 153.38436889648438
y: 453.93841552734375
z: 0.02075444534420967
visibility: 0.9870659708976746
","x: 177.3778533935547
y: 530.492431640625
z: 0.15054796636104584
visibility: 0.9520502090454102
","x: 159.73422241210938
y: 532.2587890625
z: 0.16325870156288147
visibility: 0.985630989074707
","x: 175.48538208007812
y: 541.6704711914062
z: 0.1559089869260788
visibility: 0.8713963627815247
","x: 163.25146484375
y: 542.1741943359375
z: 0.16857820749282837
visibility: 0.8784037232398987
","x: 185.30728149414062
y: 554.4498901367188
z: 0.03621845319867134
visibility: 0.9560962319374084
","x: 149.0983123779297
y: 556.5671997070312
z: 0.05055490881204605
visibility: 0.9779101610183716
",,,,,,,,,,,,,,,,,,,,,,,,,,,,,,,,,,,,,,,,,,
9,"x: 163.031494140625
y: 218.61386108398438
z: -0.29833221435546875
visibility: 0.9999650120735168
","x: 165.8785400390625
y: 211.95802307128906
z: -0.2869439125061035
visibility: 0.9998626112937927
","x: 167.38587951660156
y: 212.3016357421875
z: -0.28697171807289124
visibility: 0.999849259853363
","x: 168.92335510253906
y: 212.59844970703125
z: -0.28698816895484924
visibility: 0.9998278021812439
","x: 161.8951416015625
y: 210.51145935058594
z: -0.2828678488731384
visibility: 0.9998711943626404
","x: 160.769775390625
y: 209.939453125
z: -0.28287410736083984
visibility: 0.9998568296432495
","x: 159.72897338867188
y: 209.42938232421875
z: -0.282855361700058
visibility: 0.999839186668396
","x: 172.315185546875
y: 213.98851013183594
z: -0.18631792068481445
visibility: 0.9996575713157654
","x: 159.05422973632812
y: 211.36456298828125
z: -0.1658814251422882
visibility: 0.9997332692146301
","x: 166.0618896484375
y: 225.22854614257812
z: -0.25808221101760864
visibility: 0.9999235272407532
","x: 160.6800994873047
y: 224.13629150390625
z: -0.2526474595069885
visibility: 0.9999377131462097
","x: 187.9725341796875
y: 258.54339599609375
z: -0.11514709889888763
visibility: 0.999936580657959
","x: 145.84646606445312
y: 251.9549560546875
z: -0.07176167517900467
visibility: 0.9999644756317139
","x: 196.41741943359375
y: 311.9131774902344
z: -0.12489154189825058
visibility: 0.9545661807060242
","x: 132.82315063476562
y: 304.6930847167969
z: -0.06406238675117493
visibility: 0.986405611038208
","x: 190.59666442871094
y: 342.3019104003906
z: -0.27903109788894653
visibility: 0.9674875736236572
","x: 117.85753631591797
y: 341.1119079589844
z: -0.21479515731334686
visibility: 0.9836314916610718
","x: 187.17202758789062
y: 350.3994445800781
z: -0.3211158812046051
visibility: 0.94009929895401
","x: 111.99235534667969
y: 350.6684875488281
z: -0.24936774373054504
visibility: 0.9680643677711487
","x: 184.77574157714844
y: 344.2388916015625
z: -0.3469499945640564
visibility: 0.9451615214347839
","x: 112.26374816894531
y: 350.10137939453125
z: -0.2803943157196045
visibility: 0.9705373048782349
","x: 185.04727172851562
y: 341.22637939453125
z: -0.29144927859306335
visibility: 0.9370506405830383
","x: 114.7915267944336
y: 347.38299560546875
z: -0.2303546965122223
visibility: 0.9643300771713257
","x: 176.8415985107422
y: 367.8341064453125
z: -0.00497801648452878
visibility: 0.9994462132453918
","x: 153.95675659179688
y: 366.7374267578125
z: 0.00492912856861949
visibility: 0.9996763467788696
","x: 179.6039276123047
y: 452.44989013671875
z: -0.005532880313694477
visibility: 0.9750348925590515
","x: 155.1824951171875
y: 453.5638732910156
z: 0.012208102270960808
visibility: 0.9881364107131958
","x: 190.1044158935547
y: 530.621826171875
z: 0.13764546811580658
visibility: 0.9565366506576538
","x: 160.51504516601562
y: 532.7111206054688
z: 0.15351833403110504
visibility: 0.9868231415748596
","x: 187.08526611328125
y: 541.892333984375
z: 0.1441323459148407
visibility: 0.8788432478904724
","x: 164.27603149414062
y: 542.3919067382812
z: 0.15955612063407898
visibility: 0.8857901692390442
","x: 197.04721069335938
y: 555.5416259765625
z: 0.012813093140721321
visibility: 0.9599593281745911
","x: 149.31028747558594
y: 557.1021728515625
z: 0.03669673949480057
visibility: 0.979633092880249
",,,,,,,,,,,,,,,,,,,,,,,,,,,,,,,,,,,,,,,,,,
10,"x: 164.89794921875
y: 217.56838989257812
z: -0.2654280960559845
visibility: 0.999967634677887
","x: 167.33961486816406
y: 211.1678924560547
z: -0.2540152668952942
visibility: 0.9998736381530762
","x: 168.90231323242188
y: 211.9940185546875
z: -0.2540472149848938
visibility: 0.9998615384101868
","x: 170.4440460205078
y: 212.1861572265625
z: -0.25405675172805786
visibility: 0.9998422265052795
","x: 163.47137451171875
y: 209.4772491455078
z: -0.24863019585609436
visibility: 0.9998810887336731
","x: 162.3787841796875
y: 209.03993225097656
z: -0.24862582981586456
visibility: 0.99986732006073
","x: 161.31076049804688
y: 208.70843505859375
z: -0.2485942542552948
visibility: 0.9998511672019958
","x: 173.70797729492188
y: 213.62425231933594
z: -0.158542662858963
visibility: 0.9996883869171143
","x: 160.72019958496094
y: 210.98472595214844
z: -0.13138914108276367
visibility: 0.999751627445221
","x: 168.27340698242188
y: 224.32130432128906
z: -0.22786259651184082
visibility: 0.9999302625656128
","x: 163.00253295898438
y: 223.1753692626953
z: -0.22020094096660614
visibility: 0.9999424815177917
","x: 190.54734802246094
y: 253.03994750976562
z: -0.11176609992980957
visibility: 0.9999421834945679
","x: 148.3462371826172
y: 252.6564178466797
z: -0.04010383039712906
visibility: 0.9999649524688721
","x: 200.8066864013672
y: 300.150634765625
z: -0.12938065826892853
visibility: 0.9588004946708679
","x: 132.63197326660156
y: 303.0917663574219
z: -0.024311967194080353
visibility: 0.9862504005432129
","x: 193.3482666015625
y: 327.9295349121094
z: -0.29477256536483765
visibility: 0.9703214764595032
","x: 115.41934967041016
y: 336.24285888671875
z: -0.17191669344902039
visibility: 0.9839478135108948
","x: 189.96095275878906
y: 336.7410888671875
z: -0.33816972374916077
visibility: 0.9449390172958374
","x: 107.41548919677734
y: 345.26513671875
z: -0.20937876403331757
visibility: 0.9684974551200867
","x: 187.29580688476562
y: 328.3186340332031
z: -0.3616700768470764
visibility: 0.9495433568954468
","x: 107.85758972167969
y: 344.2100830078125
z: -0.24176493287086487
visibility: 0.9709905982017517
","x: 187.7177734375
y: 325.4979248046875
z: -0.30675190687179565
visibility: 0.941618025302887
","x: 111.04750061035156
y: 341.7052917480469
z: -0.18990817666053772
visibility: 0.9650218486785889
","x: 178.74777221679688
y: 367.5175476074219
z: -0.008284004405140877
visibility: 0.99947589635849
","x: 155.50120544433594
y: 366.7419128417969
z: 0.008254652842879295
visibility: 0.9996912479400635
","x: 186.33628845214844
y: 452.7038879394531
z: -0.014213001355528831
visibility: 0.9773596525192261
","x: 156.77752685546875
y: 452.24200439453125
z: 0.01056885439902544
visibility: 0.98912513256073
","x: 194.27728271484375
y: 531.1859130859375
z: 0.11544909328222275
visibility: 0.9606067538261414
","x: 160.53549194335938
y: 532.3051147460938
z: 0.13894140720367432
visibility: 0.9879109859466553
","x: 191.52359008789062
y: 542.01806640625
z: 0.12021256983280182
visibility: 0.8853740692138672
","x: 164.93695068359375
y: 541.865478515625
z: 0.14376820623874664
visibility: 0.8927748799324036
","x: 200.63998413085938
y: 556.3318481445312
z: -0.012476375326514244
visibility: 0.9634425044059753
","x: 149.7645263671875
y: 556.5693969726562
z: 0.022828543558716774
visibility: 0.9811956882476807
",,,,,,,,,,,,,,,,,,,,,,"x: 195.47401428222656
y: 327.69622802734375
z: 0.0
","x: 191.98333740234375
y: 322.1795654296875
z: 0.00023945541761349887
","x: 187.95835876464844
y: 319.87860107421875
z: -0.0011441997485235333
","x: 185.01840209960938
y: 319.085205078125
z: -0.0030728525016456842
","x: 182.74270629882812
y: 318.75933837890625
z: -0.004206619691103697
","x: 183.2598114013672
y: 328.64837646484375
z: -0.0015021230792626739
","x: 183.17721557617188
y: 321.0858459472656
z: -0.00449812225997448
","x: 185.8040771484375
y: 319.27685546875
z: -0.005605408456176519
","x: 187.6499481201172
y: 320.03594970703125
z: -0.006117536686360836
","x: 184.1104736328125
y: 330.1756286621094
z: -0.0036785234697163105
","x: 184.95291137695312
y: 320.9854431152344
z: -0.006816310808062553
","x: 187.4038543701172
y: 319.8216857910156
z: -0.0064605530351400375
","x: 188.6778106689453
y: 321.1824035644531
z: -0.006167333573102951
","x: 185.79856872558594
y: 330.61480712890625
z: -0.0060382564552128315
","x: 187.08193969726562
y: 321.80938720703125
z: -0.008689599111676216
","x: 189.02859497070312
y: 321.0874938964844
z: -0.007257504854351282
","x: 189.73928833007812
y: 322.4903564453125
z: -0.00620245048776269
","x: 188.05270385742188
y: 330.13909912109375
z: -0.008578166365623474
","x: 189.09771728515625
y: 323.4594421386719
z: -0.01014284323900938
","x: 190.67242431640625
y: 322.80853271484375
z: -0.00906731653958559
","x: 191.36248779296875
y: 324.05767822265625
z: -0.008113707415759563
"
11,"x: 164.89794921875
y: 217.56838989257812
z: -0.2654280960559845
visibility: 0.999967634677887
","x: 167.33961486816406
y: 211.1678924560547
z: -0.2540152668952942
visibility: 0.9998736381530762
","x: 168.90231323242188
y: 211.9940185546875
z: -0.2540472149848938
visibility: 0.9998615384101868
","x: 170.4440460205078
y: 212.1861572265625
z: -0.25405675172805786
visibility: 0.9998422265052795
","x: 163.47137451171875
y: 209.4772491455078
z: -0.24863019585609436
visibility: 0.9998810887336731
","x: 162.3787841796875
y: 209.03993225097656
z: -0.24862582981586456
visibility: 0.99986732006073
","x: 161.31076049804688
y: 208.70843505859375
z: -0.2485942542552948
visibility: 0.9998511672019958
","x: 173.70797729492188
y: 213.62425231933594
z: -0.158542662858963
visibility: 0.9996883869171143
","x: 160.72019958496094
y: 210.98472595214844
z: -0.13138914108276367
visibility: 0.999751627445221
","x: 168.27340698242188
y: 224.32130432128906
z: -0.22786259651184082
visibility: 0.9999302625656128
","x: 163.00253295898438
y: 223.1753692626953
z: -0.22020094096660614
visibility: 0.9999424815177917
","x: 190.54734802246094
y: 253.03994750976562
z: -0.11176609992980957
visibility: 0.9999421834945679
","x: 148.3462371826172
y: 252.6564178466797
z: -0.04010383039712906
visibility: 0.9999649524688721
","x: 200.8066864013672
y: 300.150634765625
z: -0.12938065826892853
visibility: 0.9588004946708679
","x: 132.63197326660156
y: 303.0917663574219
z: -0.024311967194080353
visibility: 0.9862504005432129
","x: 193.3482666015625
y: 327.9295349121094
z: -0.29477256536483765
visibility: 0.9703214764595032
","x: 115.41934967041016
y: 336.24285888671875
z: -0.17191669344902039
visibility: 0.9839478135108948
","x: 189.96095275878906
y: 336.7410888671875
z: -0.33816972374916077
visibility: 0.9449390172958374
","x: 107.41548919677734
y: 345.26513671875
z: -0.20937876403331757
visibility: 0.9684974551200867
","x: 187.29580688476562
y: 328.3186340332031
z: -0.3616700768470764
visibility: 0.9495433568954468
","x: 107.85758972167969
y: 344.2100830078125
z: -0.24176493287086487
visibility: 0.9709905982017517
","x: 187.7177734375
y: 325.4979248046875
z: -0.30675190687179565
visibility: 0.941618025302887
","x: 111.04750061035156
y: 341.7052917480469
z: -0.18990817666053772
visibility: 0.9650218486785889
","x: 178.74777221679688
y: 367.5175476074219
z: -0.008284004405140877
visibility: 0.99947589635849
","x: 155.50120544433594
y: 366.7419128417969
z: 0.008254652842879295
visibility: 0.9996912479400635
","x: 186.33628845214844
y: 452.7038879394531
z: -0.014213001355528831
visibility: 0.9773596525192261
","x: 156.77752685546875
y: 452.24200439453125
z: 0.01056885439902544
visibility: 0.98912513256073
","x: 194.27728271484375
y: 531.1859130859375
z: 0.11544909328222275
visibility: 0.9606067538261414
","x: 160.53549194335938
y: 532.3051147460938
z: 0.13894140720367432
visibility: 0.9879109859466553
","x: 191.52359008789062
y: 542.01806640625
z: 0.12021256983280182
visibility: 0.8853740692138672
","x: 164.93695068359375
y: 541.865478515625
z: 0.14376820623874664
visibility: 0.8927748799324036
","x: 200.63998413085938
y: 556.3318481445312
z: -0.012476375326514244
visibility: 0.9634425044059753
","x: 149.7645263671875
y: 556.5693969726562
z: 0.022828543558716774
visibility: 0.9811956882476807
",,,,,,,,,,,,,,,,,,,,,,"x: 195.47401428222656
y: 327.69622802734375
z: 0.0
","x: 191.98333740234375
y: 322.1795654296875
z: 0.00023945541761349887
","x: 187.95835876464844
y: 319.87860107421875
z: -0.0011441997485235333
","x: 185.01840209960938
y: 319.085205078125
z: -0.0030728525016456842
","x: 182.74270629882812
y: 318.75933837890625
z: -0.004206619691103697
","x: 183.2598114013672
y: 328.64837646484375
z: -0.0015021230792626739
","x: 183.17721557617188
y: 321.0858459472656
z: -0.00449812225997448
","x: 185.8040771484375
y: 319.27685546875
z: -0.005605408456176519
","x: 187.6499481201172
y: 320.03594970703125
z: -0.006117536686360836
","x: 184.1104736328125
y: 330.1756286621094
z: -0.0036785234697163105
","x: 184.95291137695312
y: 320.9854431152344
z: -0.006816310808062553
","x: 187.4038543701172
y: 319.8216857910156
z: -0.0064605530351400375
","x: 188.6778106689453
y: 321.1824035644531
z: -0.006167333573102951
","x: 185.79856872558594
y: 330.61480712890625
z: -0.0060382564552128315
","x: 187.08193969726562
y: 321.80938720703125
z: -0.008689599111676216
","x: 189.02859497070312
y: 321.0874938964844
z: -0.007257504854351282
","x: 189.73928833007812
y: 322.4903564453125
z: -0.00620245048776269
","x: 188.05270385742188
y: 330.13909912109375
z: -0.008578166365623474
","x: 189.09771728515625
y: 323.4594421386719
z: -0.01014284323900938
","x: 190.67242431640625
y: 322.80853271484375
z: -0.00906731653958559
","x: 191.36248779296875
y: 324.05767822265625
z: -0.008113707415759563
"
12,"x: 166.2238006591797
y: 216.9443359375
z: -0.2425202876329422
visibility: 0.9999691843986511
","x: 168.74014282226562
y: 210.36660766601562
z: -0.23153889179229736
visibility: 0.9998816251754761
","x: 170.3199920654297
y: 211.31898498535156
z: -0.23158371448516846
visibility: 0.9998703002929688
","x: 171.85289001464844
y: 212.0100555419922
z: -0.23159904778003693
visibility: 0.9998531341552734
","x: 164.872802734375
y: 209.21470642089844
z: -0.22462098300457
visibility: 0.9998879432678223
","x: 163.8076171875
y: 208.97607421875
z: -0.2246132344007492
visibility: 0.9998739361763
","x: 162.85733032226562
y: 208.82127380371094
z: -0.22459200024604797
visibility: 0.9998592138290405
","x: 175.76734924316406
y: 213.36691284179688
z: -0.14098553359508514
visibility: 0.9997134208679199
","x: 162.81338500976562
y: 211.0454559326172
z: -0.10725019127130508
visibility: 0.9997626543045044
","x: 169.85113525390625
y: 223.68536376953125
z: -0.20715868473052979
visibility: 0.9999356865882874
","x: 164.8105926513672
y: 222.93089294433594
z: -0.19749639928340912
visibility: 0.9999457597732544
","x: 191.85690307617188
y: 251.26373291015625
z: -0.09656598418951035
visibility: 0.9999470114707947
","x: 149.19383239746094
y: 252.53662109375
z: -0.01762644574046135
visibility: 0.9999642372131348
","x: 206.43878173828125
y: 296.43902587890625
z: -0.12902481853961945
visibility: 0.9626438617706299
","x: 133.15139770507812
y: 300.9634094238281
z: -0.0010934022720903158
visibility: 0.9856926798820496
","x: 195.8515167236328
y: 321.9683532714844
z: -0.29079511761665344
visibility: 0.9729143977165222
","x: 114.9356918334961
y: 332.68170166015625
z: -0.1496037393808365
visibility: 0.9840298295021057
","x: 191.7108154296875
y: 331.60369873046875
z: -0.3332235515117645
visibility: 0.9493592977523804
","x: 106.59928894042969
y: 340.9811096191406
z: -0.18591395020484924
visibility: 0.9684871435165405
","x: 189.09393310546875
y: 323.2987976074219
z: -0.3526589572429657
visibility: 0.9535226225852966
","x: 107.20748901367188
y: 339.6756591796875
z: -0.2171510010957718
visibility: 0.9710169434547424
","x: 189.63076782226562
y: 320.346435546875
z: -0.30070725083351135
visibility: 0.9457283020019531
","x: 110.66051483154297
y: 337.5828857421875
z: -0.16729938983917236
visibility: 0.965262770652771
","x: 183.32786560058594
y: 367.54571533203125
z: -0.009950647130608559
visibility: 0.9995006322860718
","x: 159.89161682128906
y: 367.75390625
z: 0.009934710338711739
visibility: 0.999701738357544
","x: 191.04916381835938
y: 453.05810546875
z: -0.014059538953006268
visibility: 0.979386568069458
","x: 157.5799560546875
y: 452.3443603515625
z: 0.00674534123390913
visibility: 0.9899583458900452
","x: 195.42796325683594
y: 531.2965087890625
z: 0.10964993387460709
visibility: 0.9641667008399963
","x: 160.6591339111328
y: 532.2514038085938
z: 0.13008086383342743
visibility: 0.9888351559638977
","x: 192.66458129882812
y: 542.6112670898438
z: 0.11407583951950073
visibility: 0.8905983567237854
","x: 165.4346923828125
y: 541.637939453125
z: 0.13478562235832214
visibility: 0.8984653949737549
","x: 201.8333740234375
y: 556.8365478515625
z: -0.01450781524181366
visibility: 0.9663755297660828
","x: 150.12176513671875
y: 556.2025146484375
z: 0.016408419236540794
visibility: 0.9824943542480469
",,,,,,,,,,,,,,,,,,,,,,,,,,,,,,,,,,,,,,,,,,
13,"x: 168.97091674804688
y: 216.72915649414062
z: -0.26300376653671265
visibility: 0.999969482421875
","x: 171.5269317626953
y: 209.834716796875
z: -0.25150182843208313
visibility: 0.9998859167098999
","x: 173.0027313232422
y: 210.7727813720703
z: -0.25153806805610657
visibility: 0.9998748302459717
","x: 174.424072265625
y: 211.7544403076172
z: -0.2515564262866974
visibility: 0.9998599290847778
","x: 167.64390563964844
y: 209.30116271972656
z: -0.2449476420879364
visibility: 0.9998912215232849
","x: 166.4451904296875
y: 209.32952880859375
z: -0.2449590265750885
visibility: 0.9998763203620911
","x: 165.3014678955078
y: 209.46412658691406
z: -0.24495308101177216
visibility: 0.9998632669448853
","x: 176.3451690673828
y: 212.99234008789062
z: -0.15541568398475647
visibility: 0.9997303485870361
","x: 163.71701049804688
y: 211.73606872558594
z: -0.1247742623090744
visibility: 0.9997633099555969
","x: 171.38929748535156
y: 223.63694763183594
z: -0.22565484046936035
visibility: 0.9999392628669739
","x: 165.95675659179688
y: 223.59677124023438
z: -0.21687093377113342
visibility: 0.9999474287033081
","x: 196.54586791992188
y: 251.187255859375
z: -0.10175760090351105
visibility: 0.9999502897262573
","x: 154.83799743652344
y: 251.9143524169922
z: -0.03160608559846878
visibility: 0.999962329864502
","x: 208.86997985839844
y: 299.90838623046875
z: -0.13282069563865662
visibility: 0.9658067226409912
","x: 136.1898651123047
y: 300.57647705078125
z: -0.021867426112294197
visibility: 0.984359860420227
","x: 196.2107391357422
y: 330.6521911621094
z: -0.28009161353111267
visibility: 0.9749020338058472
","x: 120.47946166992188
y: 333.2779235839844
z: -0.17928661406040192
visibility: 0.982991099357605
","x: 192.65304565429688
y: 341.4449462890625
z: -0.32306724786758423
visibility: 0.9526065587997437
","x: 113.56767272949219
y: 342.708251953125
z: -0.21860960125923157
visibility: 0.9667567014694214
","x: 189.93954467773438
y: 334.7424621582031
z: -0.3471427857875824
visibility: 0.9563971161842346
","x: 114.28929901123047
y: 341.3090515136719
z: -0.24990561604499817
visibility: 0.9694425463676453
","x: 190.19375610351562
y: 330.9067077636719
z: -0.2916203737258911
visibility: 0.9482653141021729
","x: 117.4496078491211
y: 338.5289306640625
z: -0.19706189632415771
visibility: 0.9636114239692688
","x: 189.7119598388672
y: 367.6092834472656
z: -0.008927248418331146
visibility: 0.999523401260376
","x: 165.96469116210938
y: 367.7667236328125
z: 0.0089114960283041
visibility: 0.9997157454490662
","x: 195.37637329101562
y: 453.4253234863281
z: -0.010621164925396442
visibility: 0.9811837673187256
","x: 160.5727081298828
y: 451.7805480957031
z: -6.653840682702139e-05
visibility: 0.9906957745552063
","x: 196.04794311523438
y: 531.994384765625
z: 0.12621711194515228
visibility: 0.9673436880111694
","x: 160.96127319335938
y: 532.3014526367188
z: 0.1324925571680069
visibility: 0.9896925091743469
","x: 192.1016387939453
y: 542.724365234375
z: 0.1320524960756302
visibility: 0.8949078917503357
","x: 165.8058319091797
y: 541.633544921875
z: 0.13774864375591278
visibility: 0.9030567407608032
","x: 202.6178436279297
y: 557.1636352539062
z: 0.002907709451392293
visibility: 0.9689959287643433
","x: 150.54124450683594
y: 556.0396728515625
z: 0.013343460857868195
visibility: 0.9837170243263245
",,,,,,,,,,,,,,,,,,,,,,,,,,,,,,,,,,,,,,,,,,
14,"x: 175.2960662841797
y: 216.46176147460938
z: -0.3140126168727875
visibility: 0.9999623894691467
","x: 177.39926147460938
y: 209.50624084472656
z: -0.30385881662368774
visibility: 0.9998535513877869
","x: 178.71485900878906
y: 210.4219207763672
z: -0.3038753867149353
visibility: 0.9998394846916199
","x: 180.08848571777344
y: 211.52366638183594
z: -0.30387094616889954
visibility: 0.9998206496238708
","x: 173.9142303466797
y: 209.11767578125
z: -0.3010404109954834
visibility: 0.9998647570610046
","x: 172.75328063964844
y: 209.17189025878906
z: -0.3011006712913513
visibility: 0.9998502731323242
","x: 171.59445190429688
y: 209.30780029296875
z: -0.30115804076194763
visibility: 0.9998400211334229
","x: 182.77386474609375
y: 212.55674743652344
z: -0.2061651051044464
visibility: 0.9996373057365417
","x: 171.63780212402344
y: 211.76556396484375
z: -0.1939896196126938
visibility: 0.9997040629386902
","x: 177.97711181640625
y: 223.41111755371094
z: -0.27502015233039856
visibility: 0.9999169111251831
","x: 173.57058715820312
y: 223.66537475585938
z: -0.27120643854141235
visibility: 0.9999293684959412
","x: 201.03993225097656
y: 251.22007751464844
z: -0.13049492239952087
visibility: 0.9999436736106873
","x: 159.65240478515625
y: 253.2852783203125
z: -0.09778495877981186
visibility: 0.9999580979347229
","x: 208.56399536132812
y: 305.6517333984375
z: -0.11061413586139679
visibility: 0.9664019346237183
","x: 142.92593383789062
y: 308.3577880859375
z: -0.042040638625621796
visibility: 0.9843950271606445
","x: 200.66085815429688
y: 348.7893981933594
z: -0.22905202209949493
visibility: 0.9738170504570007
","x: 121.04168701171875
y: 341.4723205566406
z: -0.1630692034959793
visibility: 0.9826199412345886
","x: 200.22552490234375
y: 364.2008972167969
z: -0.255193293094635
visibility: 0.9500501751899719
","x: 115.37883758544922
y: 350.4119873046875
z: -0.19215726852416992
visibility: 0.9655281901359558
","x: 196.8548126220703
y: 363.2377624511719
z: -0.28966695070266724
visibility: 0.9539481401443481
","x: 117.29800415039062
y: 348.9992980957031
z: -0.22781720757484436
visibility: 0.9684502482414246
","x: 196.53579711914062
y: 358.180419921875
z: -0.2448701411485672
visibility: 0.9451107978820801
","x: 120.33303833007812
y: 345.4718322753906
z: -0.18049971759319305
visibility: 0.9627378582954407
","x: 194.8255157470703
y: 368.3894348144531
z: -0.007202761713415384
visibility: 0.9995189905166626
","x: 171.65159606933594
y: 368.83807373046875
z: 0.007216928992420435
visibility: 0.999718964099884
","x: 198.1847381591797
y: 453.46307373046875
z: 0.009455771185457706
visibility: 0.9826083779335022
","x: 163.4868927001953
y: 451.9765930175781
z: -0.00021179168834351003
visibility: 0.9912334680557251
","x: 196.2168731689453
y: 532.5475463867188
z: 0.16296632587909698
visibility: 0.9700443744659424
","x: 161.05648803710938
y: 532.5800170898438
z: 0.13850754499435425
visibility: 0.9903892278671265
","x: 192.40113830566406
y: 542.7650756835938
z: 0.17046520113945007
visibility: 0.8979300856590271
","x: 165.12754821777344
y: 542.0399169921875
z: 0.14456745982170105
visibility: 0.9055661559104919
","x: 203.2438201904297
y: 557.37060546875
z: 0.04757733643054962
visibility: 0.9711886048316956
","x: 150.37184143066406
y: 556.6063842773438
z: 0.020023001357913017
visibility: 0.9847168326377869
",,,,,,,,,,,,,,,,,,,,,,,,,,,,,,,,,,,,,,,,,,
15,"x: 179.5482177734375
y: 226.2028350830078
z: -0.35874131321907043
visibility: 0.9999648332595825
","x: 181.8419189453125
y: 217.7867431640625
z: -0.3488464653491974
visibility: 0.999862551689148
","x: 183.43991088867188
y: 217.725830078125
z: -0.348826140165329
visibility: 0.999849259853363
","x: 185.13478088378906
y: 217.74853515625
z: -0.3488200306892395
visibility: 0.9998313188552856
","x: 177.99761962890625
y: 217.7202606201172
z: -0.34803634881973267
visibility: 0.9998724460601807
","x: 176.81689453125
y: 217.51731872558594
z: -0.34808555245399475
visibility: 0.9998593926429749
","x: 175.6893310546875
y: 217.34783935546875
z: -0.3481060862541199
visibility: 0.9998493194580078
","x: 189.1008758544922
y: 218.34120178222656
z: -0.24288377165794373
visibility: 0.9996563196182251
","x: 176.68666076660156
y: 217.24639892578125
z: -0.2423301637172699
visibility: 0.9997214078903198
","x: 182.86610412597656
y: 232.2929229736328
z: -0.3155640661716461
visibility: 0.9999218583106995
","x: 178.4302978515625
y: 232.6417236328125
z: -0.31526339054107666
visibility: 0.9999331831932068
","x: 205.74752807617188
y: 258.5863952636719
z: -0.14183834195137024
visibility: 0.9999473094940186
","x: 163.6568603515625
y: 256.5869445800781
z: -0.14363911747932434
visibility: 0.9999602437019348
","x: 212.5684356689453
y: 318.2921142578125
z: -0.08421264588832855
visibility: 0.968799352645874
","x: 147.86907958984375
y: 313.5735778808594
z: -0.09664057195186615
visibility: 0.9847438931465149
","x: 219.6800537109375
y: 370.5276184082031
z: -0.15861886739730835
visibility: 0.9755569100379944
","x: 127.34355926513672
y: 356.7397766113281
z: -0.18567141890525818
visibility: 0.9824226498603821
","x: 224.04296875
y: 385.702392578125
z: -0.17926523089408875
visibility: 0.9527685046195984
","x: 122.13555145263672
y: 366.7919921875
z: -0.2164006233215332
visibility: 0.964677631855011
","x: 221.6345977783203
y: 386.3122863769531
z: -0.2185724675655365
visibility: 0.956542432308197
","x: 122.58113098144531
y: 367.64813232421875
z: -0.25219419598579407
visibility: 0.9677793383598328
","x: 219.2401580810547
y: 381.2259216308594
z: -0.17568150162696838
visibility: 0.9481648802757263
","x: 124.98988342285156
y: 364.2461853027344
z: -0.20225317776203156
visibility: 0.9621826410293579
","x: 199.82835388183594
y: 372.0095520019531
z: 0.00374961132183671
visibility: 0.9995469450950623
","x: 176.30125427246094
y: 372.7282409667969
z: -0.003821947844699025
visibility: 0.9997290968894958
","x: 201.3054962158203
y: 455.6016540527344
z: 0.011202520690858364
visibility: 0.9837629795074463
","x: 166.91705322265625
y: 453.9717102050781
z: -0.014063799753785133
visibility: 0.9917663335800171
","x: 196.66053771972656
y: 533.6016235351562
z: 0.1703656017780304
visibility: 0.9724846482276917
","x: 161.28079223632812
y: 532.7758178710938
z: 0.13915373384952545
visibility: 0.9910072088241577
","x: 192.7045135498047
y: 543.474365234375
z: 0.17831072211265564
visibility: 0.9035536050796509
","x: 165.5157928466797
y: 542.0039672851562
z: 0.14640730619430542
visibility: 0.9080101847648621
","x: 203.6354522705078
y: 557.4967041015625
z: 0.060597456991672516
visibility: 0.9732224941253662
","x: 151.51947021484375
y: 556.9599609375
z: 0.022223711013793945
visibility: 0.9856536984443665
",,,,,,,,,,,,,,,,,,,,,,,,,,,,,,,,,,,,,,,,,,
16,"x: 182.6284942626953
y: 231.02325439453125
z: -0.3460264801979065
visibility: 0.9999663233757019
","x: 185.0264434814453
y: 222.5735321044922
z: -0.3353964686393738
visibility: 0.9998672604560852
","x: 186.62246704101562
y: 222.33895874023438
z: -0.3353893458843231
visibility: 0.999854564666748
","x: 188.17135620117188
y: 222.12045288085938
z: -0.3353854715824127
visibility: 0.9998372197151184
","x: 180.77317810058594
y: 222.0781707763672
z: -0.3362921178340912
visibility: 0.999875545501709
","x: 179.38612365722656
y: 221.57273864746094
z: -0.3363291025161743
visibility: 0.9998636245727539
","x: 178.01275634765625
y: 221.06605529785156
z: -0.3363473415374756
visibility: 0.9998528361320496
","x: 191.4164581298828
y: 222.05047607421875
z: -0.22880002856254578
visibility: 0.9996678829193115
","x: 178.04161071777344
y: 220.2306365966797
z: -0.23588044941425323
visibility: 0.9997291564941406
","x: 185.47772216796875
y: 236.69253540039062
z: -0.3026353120803833
visibility: 0.9999241828918457
","x: 180.88998413085938
y: 236.47247314453125
z: -0.30441826581954956
visibility: 0.9999340772628784
","x: 207.95753479003906
y: 260.780517578125
z: -0.13118204474449158
visibility: 0.9999498724937439
","x: 164.61239624023438
y: 258.47430419921875
z: -0.13795877993106842
visibility: 0.99996018409729
","x: 215.82882690429688
y: 321.1999206542969
z: -0.06309988349676132
visibility: 0.970941960811615
","x: 149.57003784179688
y: 314.4607849121094
z: -0.09589196741580963
visibility: 0.9844469428062439
","x: 225.42723083496094
y: 373.8684387207031
z: -0.14007213711738586
visibility: 0.9769799709320068
","x: 131.2412109375
y: 357.6167297363281
z: -0.18873989582061768
visibility: 0.981375515460968
","x: 230.5663604736328
y: 387.585693359375
z: -0.16048838198184967
visibility: 0.9548984169960022
","x: 125.97806549072266
y: 367.67938232421875
z: -0.2140452116727829
visibility: 0.9625191688537598
","x: 228.28419494628906
y: 388.16278076171875
z: -0.19936707615852356
visibility: 0.9586397409439087
","x: 125.99537658691406
y: 367.73687744140625
z: -0.2551616132259369
visibility: 0.9660334587097168
","x: 225.72344970703125
y: 383.644287109375
z: -0.15720559656620026
visibility: 0.9506548643112183
","x: 128.58404541015625
y: 364.2718200683594
z: -0.20734897255897522
visibility: 0.9605591893196106
","x: 201.06614685058594
y: 373.5273742675781
z: 0.004806023556739092
visibility: 0.9995644092559814
","x: 177.2783660888672
y: 373.7384033203125
z: -0.004860757850110531
visibility: 0.9997294545173645
","x: 202.35667419433594
y: 457.1011962890625
z: 0.006064266432076693
visibility: 0.9848495721817017
","x: 169.02989196777344
y: 455.376220703125
z: -0.016180379316210747
visibility: 0.9921960830688477
","x: 196.89862060546875
y: 534.6260986328125
z: 0.12066078186035156
visibility: 0.9747925996780396
","x: 161.61083984375
y: 534.0525512695312
z: 0.11684640496969223
visibility: 0.9915181994438171
","x: 192.4633026123047
y: 544.616943359375
z: 0.12356913089752197
visibility: 0.9086970090866089
","x: 165.7051544189453
y: 542.449462890625
z: 0.1216023787856102
visibility: 0.9104896783828735
","x: 203.15821838378906
y: 557.8589477539062
z: 0.005120398942381144
visibility: 0.9751623868942261
","x: 151.95619201660156
y: 557.0736083984375
z: 0.002172143431380391
visibility: 0.986404538154602
",,,,,,,,,,,,,,,,,,,,,,,,,,,,,,,,,,,,,,,,,,
17,"x: 182.16281127929688
y: 227.78591918945312
z: -0.3442958891391754
visibility: 0.9999586939811707
","x: 184.927734375
y: 220.43673706054688
z: -0.3333360552787781
visibility: 0.9998456835746765
","x: 186.5168914794922
y: 220.5888671875
z: -0.33334261178970337
visibility: 0.9998309016227722
","x: 188.14772033691406
y: 220.75106811523438
z: -0.33334583044052124
visibility: 0.9998127222061157
","x: 180.98292541503906
y: 219.52264404296875
z: -0.3325057327747345
visibility: 0.9998481273651123
","x: 179.8249969482422
y: 219.03912353515625
z: -0.33256345987319946
visibility: 0.9998343586921692
","x: 178.71656799316406
y: 218.5889892578125
z: -0.33261623978614807
visibility: 0.999821662902832
","x: 191.86668395996094
y: 220.25921630859375
z: -0.2277647703886032
visibility: 0.9996076822280884
","x: 178.95559692382812
y: 218.32400512695312
z: -0.2268631011247635
visibility: 0.9996656775474548
","x: 185.18588256835938
y: 233.74960327148438
z: -0.30182188749313354
visibility: 0.9999095797538757
","x: 180.65650939941406
y: 233.579345703125
z: -0.3014823794364929
visibility: 0.9999170303344727
","x: 208.57089233398438
y: 259.8939208984375
z: -0.13349434733390808
visibility: 0.9999445080757141
","x: 165.86636352539062
y: 257.3480529785156
z: -0.1339530646800995
visibility: 0.999951183795929
","x: 216.00738525390625
y: 319.00689697265625
z: -0.06446828693151474
visibility: 0.972220778465271
","x: 149.8565673828125
y: 311.6240539550781
z: -0.10317875444889069
visibility: 0.9839155077934265
","x: 219.6053466796875
y: 370.8282470703125
z: -0.15937605500221252
visibility: 0.9777394533157349
","x: 131.8592987060547
y: 351.46051025390625
z: -0.20436573028564453
visibility: 0.9803953766822815
","x: 221.7688446044922
y: 384.5623779296875
z: -0.1825687736272812
visibility: 0.9558635354042053
","x: 125.64967346191406
y: 358.5328369140625
z: -0.22772128880023956
visibility: 0.9607993960380554
","x: 219.3768768310547
y: 383.8725280761719
z: -0.21708181500434875
visibility: 0.9595366716384888
","x: 125.82286834716797
y: 357.1923522949219
z: -0.269835501909256
visibility: 0.9646198153495789
","x: 217.6668243408203
y: 379.62261962890625
z: -0.1742003709077835
visibility: 0.9515209197998047
","x: 128.37167358398438
y: 354.9031066894531
z: -0.2233310043811798
visibility: 0.959080696105957
","x: 200.2825927734375
y: 373.39227294921875
z: 0.008067825809121132
visibility: 0.9995703101158142
","x: 176.3095703125
y: 373.2713317871094
z: -0.0081339031457901
visibility: 0.999728262424469
","x: 201.42233276367188
y: 457.18756103515625
z: 0.007127978838980198
visibility: 0.9853830337524414
","x: 168.5277099609375
y: 454.95355224609375
z: -0.0532357282936573
visibility: 0.9925087094306946
","x: 197.15777587890625
y: 534.677001953125
z: 0.147504523396492
visibility: 0.976571798324585
","x: 161.688720703125
y: 533.8347778320312
z: 0.08550122380256653
visibility: 0.9919651746749878
","x: 193.339599609375
y: 544.698974609375
z: 0.15358762443065643
visibility: 0.9132254123687744
","x: 165.90574645996094
y: 542.5853271484375
z: 0.09187672287225723
visibility: 0.9117924571037292
","x: 203.85643005371094
y: 557.927001953125
z: 0.04162704199552536
visibility: 0.9764585494995117
","x: 152.1476287841797
y: 556.8535766601562
z: -0.03365869075059891
visibility: 0.9870264530181885
",,,,,,,,,,,,,,,,,,,,,,,,,,,,,,,,,,,,,,,,,,
18,"x: 182.77635192871094
y: 224.01296997070312
z: -0.3456406593322754
visibility: 0.9999517202377319
","x: 185.7801971435547
y: 216.19305419921875
z: -0.33229315280914307
visibility: 0.9998340606689453
","x: 187.3626708984375
y: 216.25257873535156
z: -0.3323138952255249
visibility: 0.9998169541358948
","x: 188.96356201171875
y: 216.44769287109375
z: -0.3323208689689636
visibility: 0.9997996687889099
","x: 181.77432250976562
y: 215.93585205078125
z: -0.3316003084182739
visibility: 0.9998331069946289
","x: 180.60186767578125
y: 215.71292114257812
z: -0.331668883562088
visibility: 0.9998175501823425
","x: 179.4716796875
y: 215.529052734375
z: -0.33173996210098267
visibility: 0.9998073577880859
","x: 192.4207763671875
y: 218.95933532714844
z: -0.22151248157024384
visibility: 0.9995709657669067
","x: 179.28392028808594
y: 218.23141479492188
z: -0.22034306824207306
visibility: 0.9996398687362671
","x: 185.9890594482422
y: 230.73683166503906
z: -0.30184537172317505
visibility: 0.9999008774757385
","x: 181.11924743652344
y: 230.9224853515625
z: -0.30148422718048096
visibility: 0.9999088644981384
","x: 208.52719116210938
y: 258.19024658203125
z: -0.1329546570777893
visibility: 0.9999395608901978
","x: 166.1593780517578
y: 256.8856201171875
z: -0.12743878364562988
visibility: 0.9999430179595947
","x: 214.54806518554688
y: 317.9701843261719
z: -0.11065623909235
visibility: 0.9717394113540649
","x: 148.52877807617188
y: 309.9136962890625
z: -0.09988526999950409
visibility: 0.9841288924217224
","x: 208.7790069580078
y: 369.8416748046875
z: -0.2429792881011963
visibility: 0.9774052500724792
","x: 131.17320251464844
y: 345.0596923828125
z: -0.21651986241340637
visibility: 0.980549156665802
","x: 205.6336212158203
y: 384.02349853515625
z: -0.2795376777648926
visibility: 0.9553417563438416
","x: 123.65607452392578
y: 351.3218994140625
z: -0.249579519033432
visibility: 0.961229145526886
","x: 202.54124450683594
y: 375.7417297363281
z: -0.31059303879737854
visibility: 0.958842396736145
","x: 124.10862731933594
y: 348.896728515625
z: -0.2876628041267395
visibility: 0.965070366859436
","x: 202.93701171875
y: 371.21575927734375
z: -0.2573699653148651
visibility: 0.9498156905174255
","x: 126.85272216796875
y: 347.4653625488281
z: -0.23507896065711975
visibility: 0.9595058560371399
","x: 201.8165283203125
y: 372.9019470214844
z: 0.010399525985121727
visibility: 0.9995778203010559
","x: 177.85084533691406
y: 372.57928466796875
z: -0.010455506853759289
visibility: 0.9997329115867615
","x: 203.32489013671875
y: 456.9595031738281
z: 0.009685912169516087
visibility: 0.9862217903137207
","x: 170.25440979003906
y: 454.9641418457031
z: -0.03554065153002739
visibility: 0.992832601070404
","x: 197.53562927246094
y: 534.6796875
z: 0.17375494539737701
visibility: 0.9782460331916809
","x: 161.7823486328125
y: 533.9215087890625
z: 0.10272922366857529
visibility: 0.9924011826515198
","x: 193.73690795898438
y: 544.6612548828125
z: 0.18207904696464539
visibility: 0.9168539047241211
","x: 165.84625244140625
y: 542.729248046875
z: 0.10544998943805695
visibility: 0.9113283157348633
","x: 204.32638549804688
y: 558.0128173828125
z: 0.06259603798389435
visibility: 0.9777495265007019
","x: 152.33004760742188
y: 556.890380859375
z: -0.010503673925995827
visibility: 0.9876160621643066
",,,,,,,,,,,,,,,,,,,,,,,,,,,,,,,,,,,,,,,,,,
19,"x: 182.21205139160156
y: 226.67013549804688
z: -0.35734596848487854
visibility: 0.9999467730522156
","x: 185.22872924804688
y: 217.94851684570312
z: -0.34581616520881653
visibility: 0.999826192855835
","x: 186.8054656982422
y: 217.74314880371094
z: -0.34584733843803406
visibility: 0.9998050928115845
","x: 188.40635681152344
y: 217.58749389648438
z: -0.3458666205406189
visibility: 0.9997894167900085
","x: 181.16775512695312
y: 217.79676818847656
z: -0.34335857629776
visibility: 0.9998206496238708
","x: 179.96694946289062
y: 217.46286010742188
z: -0.34341543912887573
visibility: 0.9997991919517517
","x: 178.840576171875
y: 217.125732421875
z: -0.3434680700302124
visibility: 0.9997885823249817
","x: 191.91732788085938
y: 219.36224365234375
z: -0.23410463333129883
visibility: 0.9995560646057129
","x: 178.62313842773438
y: 218.75146484375
z: -0.22576308250427246
visibility: 0.999611496925354
","x: 185.44712829589844
y: 233.26637268066406
z: -0.312292218208313
visibility: 0.9998990893363953
","x: 180.3738555908203
y: 233.42388916015625
z: -0.30981019139289856
visibility: 0.9999048113822937
","x: 208.2783966064453
y: 257.9422912597656
z: -0.14908775687217712
visibility: 0.9999414086341858
","x: 165.89947509765625
y: 256.71392822265625
z: -0.12268640100955963
visibility: 0.9999384880065918
","x: 215.4766387939453
y: 317.19244384765625
z: -0.139352485537529
visibility: 0.9731972217559814
","x: 147.9894561767578
y: 307.2681884765625
z: -0.07921406626701355
visibility: 0.9830788969993591
","x: 203.84112548828125
y: 359.68896484375
z: -0.2674040198326111
visibility: 0.9785322546958923
","x: 128.61285400390625
y: 343.40594482421875
z: -0.19559183716773987
visibility: 0.9782857298851013
","x: 199.23426818847656
y: 374.35009765625
z: -0.3040318489074707
visibility: 0.9571239948272705
","x: 119.55854797363281
y: 349.2657470703125
z: -0.2277153730392456
visibility: 0.9575614333152771
","x: 196.34320068359375
y: 363.0575256347656
z: -0.33034810423851013
visibility: 0.9603341817855835
","x: 119.33084106445312
y: 347.03631591796875
z: -0.2669253945350647
visibility: 0.9619067311286926
","x: 196.9055938720703
y: 358.259033203125
z: -0.2790406346321106
visibility: 0.9507638216018677
","x: 123.33191680908203
y: 345.630615234375
z: -0.2149888575077057
visibility: 0.9562681317329407
","x: 205.8571014404297
y: 373.3832092285156
z: 0.010022466070950031
visibility: 0.9995779991149902
","x: 182.18984985351562
y: 373.12994384765625
z: -0.010120697319507599
visibility: 0.9997292757034302
","x: 205.84381103515625
y: 457.50811767578125
z: 0.00873084831982851
visibility: 0.9869338274002075
","x: 175.51734924316406
y: 456.14178466796875
z: -0.03935211896896362
visibility: 0.9930559992790222
","x: 198.62063598632812
y: 534.6998291015625
z: 0.18765345215797424
visibility: 0.9794518351554871
","x: 163.48863220214844
y: 533.8777465820312
z: 0.11328530311584473
visibility: 0.9927385449409485
","x: 195.14491271972656
y: 544.6895751953125
z: 0.19832533597946167
visibility: 0.9196923971176147
","x: 166.28758239746094
y: 542.71630859375
z: 0.1144486665725708
visibility: 0.9124942421913147
","x: 204.93807983398438
y: 558.0654296875
z: 0.08127196133136749
visibility: 0.9784497618675232
","x: 152.3815155029297
y: 556.8831787109375
z: -0.0016269872430711985
visibility: 0.9880162477493286
",,,,,,,,,,,,,,,,,,,,,,,,,,,,,,,,,,,,,,,,,,
20,"x: 181.8921356201172
y: 229.39382934570312
z: -0.37624219059944153
visibility: 0.9999440908432007
","x: 185.11581420898438
y: 220.3706512451172
z: -0.36485832929611206
visibility: 0.9998190999031067
","x: 186.6026611328125
y: 219.9993896484375
z: -0.3648596405982971
visibility: 0.9997960925102234
","x: 188.2184600830078
y: 219.68060302734375
z: -0.36485743522644043
visibility: 0.9997808933258057
","x: 181.13584899902344
y: 220.48971557617188
z: -0.36343103647232056
visibility: 0.9998122453689575
","x: 179.86012268066406
y: 220.2437744140625
z: -0.3635031580924988
visibility: 0.9997907876968384
","x: 178.63978576660156
y: 219.97796630859375
z: -0.36355823278427124
visibility: 0.9997801780700684
","x: 191.55914306640625
y: 220.98895263671875
z: -0.25517719984054565
visibility: 0.9995297789573669
","x: 177.9547882080078
y: 221.26280212402344
z: -0.25227081775665283
visibility: 0.9995949268341064
","x: 185.21693420410156
y: 235.93016052246094
z: -0.33237990736961365
visibility: 0.9998968243598938
","x: 180.17225646972656
y: 236.42239379882812
z: -0.33136969804763794
visibility: 0.9999021291732788
","x: 207.36451721191406
y: 259.5531921386719
z: -0.1666347235441208
visibility: 0.9999423623085022
","x: 165.0626983642578
y: 261.4420166015625
z: -0.14733010530471802
visibility: 0.9999373555183411
","x: 215.56747436523438
y: 318.4070129394531
z: -0.13492856919765472
visibility: 0.9743819832801819
","x: 147.91488647460938
y: 312.29217529296875
z: -0.09995867311954498
visibility: 0.9833513498306274
","x: 204.55087280273438
y: 363.19964599609375
z: -0.24690763652324677
visibility: 0.9789736866950989
","x: 127.77650451660156
y: 347.0712890625
z: -0.19670502841472626
visibility: 0.9778124690055847
","x: 202.26846313476562
y: 376.2842102050781
z: -0.2798454165458679
visibility: 0.9574786424636841
","x: 119.37039184570312
y: 354.93023681640625
z: -0.22951439023017883
visibility: 0.95658940076828
","x: 199.24102783203125
y: 368.8517761230469
z: -0.31043463945388794
visibility: 0.960586667060852
","x: 118.95010375976562
y: 354.1347961425781
z: -0.2670167088508606
visibility: 0.9611026048660278
","x: 199.43016052246094
y: 364.2210388183594
z: -0.2602832615375519
visibility: 0.9506558179855347
","x: 122.54158782958984
y: 350.81866455078125
z: -0.21638186275959015
visibility: 0.9555385708808899
","x: 206.2305908203125
y: 373.628662109375
z: 0.010267527773976326
visibility: 0.9995881915092468
","x: 183.34576416015625
y: 374.57861328125
z: -0.010334918275475502
visibility: 0.999731183052063
","x: 206.54017639160156
y: 457.9745178222656
z: 0.008213313296437263
visibility: 0.9872398972511292
","x: 179.9292449951172
y: 457.24298095703125
z: -0.034110501408576965
visibility: 0.9929761290550232
","x: 198.966796875
y: 534.734375
z: 0.17652936279773712
visibility: 0.9804551601409912
","x: 165.5399627685547
y: 533.302734375
z: 0.12255372852087021
visibility: 0.9927911162376404
","x: 194.63612365722656
y: 544.765625
z: 0.18538442254066467
visibility: 0.9227418899536133
","x: 167.7261199951172
y: 542.521728515625
z: 0.13027718663215637
visibility: 0.9105913043022156
","x: 204.80984497070312
y: 557.98974609375
z: 0.06789746135473251
visibility: 0.9789995551109314
","x: 153.2900390625
y: 555.4597778320312
z: 0.012972881086170673
visibility: 0.9879647493362427
",,,,,,,,,,,,,,,,,,,,,,,,,,,,,,,,,,,,,,,,,,
21,"x: 181.4455108642578
y: 228.82962036132812
z: -0.3619438707828522
visibility: 0.9999455213546753
","x: 184.81515502929688
y: 219.8468017578125
z: -0.34836918115615845
visibility: 0.9998223781585693
","x: 186.13978576660156
y: 219.4685516357422
z: -0.34834563732147217
visibility: 0.9997985363006592
","x: 187.4564666748047
y: 219.13473510742188
z: -0.34831589460372925
visibility: 0.9997831583023071
","x: 180.6877899169922
y: 219.87881469726562
z: -0.36079198122024536
visibility: 0.9998142123222351
","x: 179.19406127929688
y: 219.55355834960938
z: -0.36091870069503784
visibility: 0.9997938871383667
","x: 177.78341674804688
y: 219.2262420654297
z: -0.3609832227230072
visibility: 0.9997827410697937
","x: 189.9163055419922
y: 220.52703857421875
z: -0.22229555249214172
visibility: 0.9995213150978088
","x: 176.95733642578125
y: 220.53402709960938
z: -0.23546640574932098
visibility: 0.9996011853218079
","x: 184.36097717285156
y: 234.97779846191406
z: -0.30833855271339417
visibility: 0.9998970627784729
","x: 179.07815551757812
y: 235.71571350097656
z: -0.3248070478439331
visibility: 0.9999027848243713
","x: 205.39401245117188
y: 259.3234558105469
z: -0.11321085691452026
visibility: 0.9999446868896484
","x: 162.67002868652344
y: 260.51397705078125
z: -0.1366502344608307
visibility: 0.9999389052391052
","x: 214.01339721679688
y: 316.7919006347656
z: -0.05131091549992561
visibility: 0.9744765162467957
","x: 145.96339416503906
y: 312.1081237792969
z: -0.10094942152500153
visibility: 0.9838907718658447
","x: 212.52349853515625
y: 363.39013671875
z: -0.14901216328144073
visibility: 0.9790957570075989
","x: 127.55965423583984
y: 347.16790771484375
z: -0.19678686559200287
visibility: 0.9782623052597046
","x: 215.93826293945312
y: 378.143310546875
z: -0.1734583079814911
visibility: 0.9573039412498474
","x: 119.66004943847656
y: 356.13421630859375
z: -0.2306046187877655
visibility: 0.9572451710700989
","x: 213.1348419189453
y: 376.5635681152344
z: -0.21118755638599396
visibility: 0.9605966210365295
","x: 118.9529037475586
y: 355.6904296875
z: -0.26728421449661255
visibility: 0.9618141651153564
","x: 211.47549438476562
y: 372.58685302734375
z: -0.166031152009964
visibility: 0.9508181810379028
","x: 122.62730407714844
y: 351.3240051269531
z: -0.2167169749736786
visibility: 0.9563217759132385
","x: 204.1882781982422
y: 373.5389404296875
z: 0.015203466638922691
visibility: 0.9996076822280884
","x: 180.42515563964844
y: 374.7134704589844
z: -0.015269572846591473
visibility: 0.9997316598892212
","x: 204.61143493652344
y: 457.94927978515625
z: 0.01370299607515335
visibility: 0.9875537157058716
","x: 176.3775634765625
y: 457.2809143066406
z: -0.029262211173772812
visibility: 0.9929726123809814
","x: 198.67787170410156
y: 534.990966796875
z: 0.17219224572181702
visibility: 0.9815700650215149
","x: 165.08847045898438
y: 533.333251953125
z: 0.1331290453672409
visibility: 0.9929671287536621
","x: 194.23818969726562
y: 545.326171875
z: 0.1804741472005844
visibility: 0.9258691072463989
","x: 167.50518798828125
y: 542.5458984375
z: 0.14191076159477234
visibility: 0.9102335572242737
","x: 204.86785888671875
y: 558.0550537109375
z: 0.06379272788763046
visibility: 0.9799394011497498
","x: 153.4625701904297
y: 555.499755859375
z: 0.02221643552184105
visibility: 0.9882571697235107
",,,,,,,,,,,,,,,,,,,,,,,,,,,,,,,,,,,,,,,,,,
22,"x: 181.17404174804688
y: 224.4092559814453
z: -0.3544718623161316
visibility: 0.9999473094940186
","x: 184.63900756835938
y: 216.5946807861328
z: -0.3415425419807434
visibility: 0.999823272228241
","x: 185.84255981445312
y: 216.75477600097656
z: -0.3415334224700928
visibility: 0.9998008012771606
","x: 186.97088623046875
y: 216.97340393066406
z: -0.3415202498435974
visibility: 0.9997848272323608
","x: 180.17808532714844
y: 215.5848388671875
z: -0.34596723318099976
visibility: 0.9998123049736023
","x: 178.4481658935547
y: 215.06060791015625
z: -0.346035897731781
visibility: 0.9997933506965637
","x: 176.79669189453125
y: 214.6209716796875
z: -0.3460807204246521
visibility: 0.9997812509536743
","x: 188.7721405029297
y: 219.94146728515625
z: -0.22412355244159698
visibility: 0.9995205998420715
","x: 174.81442260742188
y: 216.9083251953125
z: -0.23570308089256287
visibility: 0.9995940923690796
","x: 183.6884002685547
y: 231.3516845703125
z: -0.30672740936279297
visibility: 0.9998953938484192
","x: 177.82711791992188
y: 231.53623962402344
z: -0.3135206997394562
visibility: 0.9999014139175415
","x: 202.64108276367188
y: 259.28564453125
z: -0.11610658466815948
visibility: 0.9999462366104126
","x: 159.48727416992188
y: 256.3683776855469
z: -0.1382482647895813
visibility: 0.9999396204948425
","x: 213.1634521484375
y: 314.35003662109375
z: -0.07085325568914413
visibility: 0.9759319424629211
","x: 141.33123779296875
y: 302.0439758300781
z: -0.10173966735601425
visibility: 0.9846935868263245
","x: 221.255859375
y: 362.863525390625
z: -0.1773594319820404
visibility: 0.9802024960517883
","x: 120.2757568359375
y: 336.29779052734375
z: -0.2020334005355835
visibility: 0.9795430302619934
","x: 226.5725555419922
y: 377.8729553222656
z: -0.20365865528583527
visibility: 0.9590323567390442
","x: 111.6357192993164
y: 344.9110412597656
z: -0.23245033621788025
visibility: 0.9593912363052368
","x: 224.9491424560547
y: 375.04248046875
z: -0.241026371717453
visibility: 0.9623439311981201
","x: 111.31053924560547
y: 343.0017395019531
z: -0.2725147008895874
visibility: 0.9638636708259583
","x: 222.7295684814453
y: 371.490478515625
z: -0.19431038200855255
visibility: 0.9531762599945068
","x: 114.74151611328125
y: 340.1983947753906
z: -0.22263917326927185
visibility: 0.9586730003356934
","x: 196.61260986328125
y: 371.8943786621094
z: 0.015053771436214447
visibility: 0.9996214509010315
","x: 173.58045959472656
y: 371.4996643066406
z: -0.015191981568932533
visibility: 0.9997326135635376
","x: 200.49578857421875
y: 454.89361572265625
z: 0.011442054063081741
visibility: 0.9881255626678467
","x: 169.9799041748047
y: 455.86724853515625
z: -0.03047749400138855
visibility: 0.9932435750961304
","x: 198.4381866455078
y: 535.0494384765625
z: 0.1352696716785431
visibility: 0.9829175472259521
","x: 163.6127471923828
y: 533.3494873046875
z: 0.11766098439693451
visibility: 0.9932764172554016
","x: 194.02487182617188
y: 545.381591796875
z: 0.13936841487884521
visibility: 0.9264847636222839
","x: 166.82638549804688
y: 542.7306518554688
z: 0.1244526132941246
visibility: 0.9109681248664856
","x: 204.6726837158203
y: 558.00390625
z: 0.012752212584018707
visibility: 0.981240451335907
","x: 153.37228393554688
y: 555.764404296875
z: -0.0011581683065742254
visibility: 0.9888660311698914
",,,,,,,,,,,,,,,,,,,,,,,,,,,,,,,,,,,,,,,,,,
23,"x: 179.41148376464844
y: 222.038330078125
z: -0.3520256280899048
visibility: 0.999949038028717
","x: 183.14151000976562
y: 214.9087677001953
z: -0.34098246693611145
visibility: 0.9998218417167664
","x: 184.49685668945312
y: 215.3962860107422
z: -0.3409843146800995
visibility: 0.9998019933700562
","x: 185.6991729736328
y: 215.99810791015625
z: -0.340977281332016
visibility: 0.9997857213020325
","x: 178.4808807373047
y: 213.2445068359375
z: -0.34426599740982056
visibility: 0.9998071193695068
","x: 176.80332946777344
y: 212.62265014648438
z: -0.34430503845214844
visibility: 0.999787449836731
","x: 175.192138671875
y: 212.1298370361328
z: -0.3443377912044525
visibility: 0.9997724890708923
","x: 187.5614776611328
y: 219.8709716796875
z: -0.22446632385253906
visibility: 0.9995296001434326
","x: 173.27975463867188
y: 214.21487426757812
z: -0.2309669703245163
visibility: 0.999577522277832
","x: 181.87899780273438
y: 229.2094268798828
z: -0.3052276074886322
visibility: 0.9998953938484192
","x: 175.69244384765625
y: 228.52073669433594
z: -0.3112134635448456
visibility: 0.9998999238014221
","x: 199.82382202148438
y: 259.3190612792969
z: -0.13178834319114685
visibility: 0.9999479651451111
","x: 156.9883270263672
y: 251.03163146972656
z: -0.13437317311763763
visibility: 0.9999393820762634
","x: 213.09718322753906
y: 313.1473083496094
z: -0.10528387129306793
visibility: 0.977767825126648
","x: 134.7286376953125
y: 292.9320983886719
z: -0.09938256442546844
visibility: 0.9854637384414673
","x: 227.2411651611328
y: 357.3835754394531
z: -0.23213127255439758
visibility: 0.9814954400062561
","x: 112.10499572753906
y: 326.1399841308594
z: -0.20340637862682343
visibility: 0.980898916721344
","x: 233.32183837890625
y: 368.437744140625
z: -0.26089173555374146
visibility: 0.9612085223197937
","x: 103.7823257446289
y: 333.5020446777344
z: -0.2326544225215912
visibility: 0.961725115776062
","x: 232.95506286621094
y: 367.360107421875
z: -0.30080538988113403
visibility: 0.9644778966903687
","x: 103.30494689941406
y: 332.48260498046875
z: -0.273520290851593
visibility: 0.9660623073577881
","x: 230.78173828125
y: 364.8250732421875
z: -0.2517685890197754
visibility: 0.9560043811798096
","x: 106.82144165039062
y: 330.7996826171875
z: -0.22462689876556396
visibility: 0.9612372517585754
","x: 189.10707092285156
y: 371.7076110839844
z: 0.004196381662040949
visibility: 0.9996286630630493
","x: 165.63076782226562
y: 371.01922607421875
z: -0.004315263591706753
visibility: 0.999730110168457
","x: 194.35372924804688
y: 454.4625549316406
z: -0.002411163179203868
visibility: 0.98875892162323
","x: 162.36294555664062
y: 455.8272705078125
z: -0.01159628201276064
visibility: 0.9935854077339172
","x: 198.18429565429688
y: 535.0896606445312
z: 0.09600706398487091
visibility: 0.9842824339866638
","x: 163.1195068359375
y: 533.3741455078125
z: 0.1219375878572464
visibility: 0.9935840964317322
","x: 193.84735107421875
y: 545.9215698242188
z: 0.09767793864011765
visibility: 0.9280915260314941
","x: 167.00111389160156
y: 542.7559814453125
z: 0.12508124113082886
visibility: 0.9139556884765625
","x: 204.5531463623047
y: 558.0321655273438
z: -0.03274615854024887
visibility: 0.9826066493988037
","x: 153.27685546875
y: 555.8872680664062
z: 0.008033392019569874
visibility: 0.9894307255744934
",,,,,,,,,,,,,,,,,,,,,,,,,,,,,,,,,,,,,,,,,,
24,"x: 176.8690948486328
y: 222.0415496826172
z: -0.3716610074043274
visibility: 0.9999509453773499
","x: 180.67510986328125
y: 215.09072875976562
z: -0.3606005012989044
visibility: 0.9998230934143066
","x: 182.09217834472656
y: 215.67442321777344
z: -0.36061930656433105
visibility: 0.9998058080673218
","x: 183.382080078125
y: 216.3742218017578
z: -0.36066585779190063
visibility: 0.9997900128364563
","x: 176.1894073486328
y: 213.26751708984375
z: -0.3597840368747711
visibility: 0.9998058080673218
","x: 174.66380310058594
y: 212.66969299316406
z: -0.3598374128341675
visibility: 0.9997838139533997
","x: 173.23214721679688
y: 212.15234375
z: -0.35986843705177307
visibility: 0.9997650980949402
","x: 184.8281707763672
y: 220.31185913085938
z: -0.2536277174949646
visibility: 0.9995520710945129
","x: 171.1965789794922
y: 214.23928833007812
z: -0.2511308789253235
visibility: 0.9995708465576172
","x: 179.12753295898438
y: 229.4033203125
z: -0.32869330048561096
visibility: 0.9998971223831177
","x: 173.2294921875
y: 228.51809692382812
z: -0.32864463329315186
visibility: 0.9998996257781982
","x: 195.21913146972656
y: 261.981201171875
z: -0.16595683991909027
visibility: 0.9999492168426514
","x: 153.1549530029297
y: 250.23291015625
z: -0.14611218869686127
visibility: 0.9999408721923828
","x: 211.63572692871094
y: 312.9225769042969
z: -0.14807838201522827
visibility: 0.979704737663269
","x: 128.8734893798828
y: 284.6124572753906
z: -0.11177463829517365
visibility: 0.9862821102142334
","x: 230.1146697998047
y: 353.9465026855469
z: -0.2766653895378113
visibility: 0.9829086661338806
","x: 103.44319152832031
y: 312.3251647949219
z: -0.2222181260585785
visibility: 0.9822200536727905
","x: 236.93655395507812
y: 363.22607421875
z: -0.30566900968551636
visibility: 0.9636902809143066
","x: 95.37797546386719
y: 317.64453125
z: -0.24897518754005432
visibility: 0.9639609456062317
","x: 237.04681396484375
y: 362.33013916015625
z: -0.3472151756286621
visibility: 0.9668407440185547
","x: 94.98572540283203
y: 317.6684265136719
z: -0.29122453927993774
visibility: 0.96815425157547
","x: 234.34146118164062
y: 360.13470458984375
z: -0.297031044960022
visibility: 0.9590662717819214
","x: 98.45281219482422
y: 318.12371826171875
z: -0.24387912452220917
visibility: 0.9637244939804077
","x: 178.57569885253906
y: 371.4694519042969
z: -0.0008596548577770591
visibility: 0.9996204972267151
","x: 155.61642456054688
y: 369.5119934082031
z: 0.0007799603627063334
visibility: 0.999733030796051
","x: 185.77366638183594
y: 455.4034118652344
z: -0.006734874099493027
visibility: 0.9893132448196411
","x: 156.38455200195312
y: 455.7318115234375
z: -0.01355986762791872
visibility: 0.9939590692520142
","x: 195.650390625
y: 535.098388671875
z: 0.0999537780880928
visibility: 0.985407292842865
","x: 162.83412170410156
y: 533.743896484375
z: 0.1199425682425499
visibility: 0.9939444661140442
","x: 192.5848846435547
y: 546.0491943359375
z: 0.10235897451639175
visibility: 0.9303008913993835
","x: 166.54232788085938
y: 543.0565795898438
z: 0.12439557164907455
visibility: 0.9185271263122559
","x: 204.4537811279297
y: 557.9572143554688
z: -0.025308389216661453
visibility: 0.9836233854293823
","x: 151.98391723632812
y: 556.6334228515625
z: 0.001732909120619297
visibility: 0.9900035858154297
",,,,,,,,,,,,,,,,,,,,,,,,,,,,,,,,,,,,,,,,,,
25,"x: 172.937255859375
y: 226.85626220703125
z: -0.41135963797569275
visibility: 0.9999549388885498
","x: 176.34922790527344
y: 219.56373596191406
z: -0.4009879231452942
visibility: 0.999836802482605
","x: 177.88864135742188
y: 219.9774932861328
z: -0.4010048508644104
visibility: 0.9998217225074768
","x: 179.26217651367188
y: 220.40936279296875
z: -0.40106385946273804
visibility: 0.9998071193695068
","x: 171.69076538085938
y: 217.79847717285156
z: -0.3991151750087738
visibility: 0.9998195171356201
","x: 170.32846069335938
y: 217.0849609375
z: -0.3991656005382538
visibility: 0.9997986555099487
","x: 169.1453094482422
y: 216.40313720703125
z: -0.3991639018058777
visibility: 0.999779462814331
","x: 181.27725219726562
y: 222.6180419921875
z: -0.292611300945282
visibility: 0.9995916485786438
","x: 167.68177795410156
y: 217.74264526367188
z: -0.28559109568595886
visibility: 0.9995982050895691
","x: 175.2831573486328
y: 234.55059814453125
z: -0.36732017993927
visibility: 0.9999052286148071
","x: 169.66380310058594
y: 233.17083740234375
z: -0.3654983639717102
visibility: 0.9999064803123474
","x: 191.9834747314453
y: 265.4605407714844
z: -0.1929117739200592
visibility: 0.9999527931213379
","x: 150.3050994873047
y: 250.5050811767578
z: -0.17755936086177826
visibility: 0.9999433755874634
","x: 206.81324768066406
y: 314.0444641113281
z: -0.1640601009130478
visibility: 0.9815347790718079
","x: 125.76901245117188
y: 286.0738830566406
z: -0.13912078738212585
visibility: 0.9870738387107849
","x: 224.97723388671875
y: 354.33587646484375
z: -0.2867181897163391
visibility: 0.9842994213104248
","x: 102.03167724609375
y: 314.519775390625
z: -0.25092777609825134
visibility: 0.9832934141159058
","x: 230.53546142578125
y: 364.3859558105469
z: -0.31644606590270996
visibility: 0.9662079811096191
","x: 94.76553344726562
y: 320.35675048828125
z: -0.2803734540939331
visibility: 0.9657149910926819
","x: 230.49977111816406
y: 363.05810546875
z: -0.3586762845516205
visibility: 0.969221293926239
","x: 94.25354766845703
y: 318.87493896484375
z: -0.3222096860408783
visibility: 0.9698059558868408
","x: 228.03955078125
y: 360.595947265625
z: -0.306966096162796
visibility: 0.9620655179023743
","x: 98.08747100830078
y: 318.44232177734375
z: -0.27210092544555664
visibility: 0.9656795859336853
","x: 173.8414306640625
y: 371.737548828125
z: -0.0015037975972518325
visibility: 0.99961918592453
","x: 151.887451171875
y: 369.5501708984375
z: 0.0014279434690251946
visibility: 0.9997268915176392
","x: 176.33326721191406
y: 455.19476318359375
z: 0.006461232900619507
visibility: 0.9898814558982849
","x: 154.62420654296875
y: 456.0166931152344
z: 0.017423707991838455
visibility: 0.9942210912704468
","x: 188.0205078125
y: 534.2206420898438
z: 0.1127375140786171
visibility: 0.9865419268608093
","x: 161.2415771484375
y: 533.4527587890625
z: 0.15565946698188782
visibility: 0.9942014813423157
","x: 185.3807830810547
y: 544.122314453125
z: 0.1194436326622963
visibility: 0.9325757622718811
","x: 165.30267333984375
y: 542.594482421875
z: 0.16072024405002594
visibility: 0.9208623170852661
","x: 197.36380004882812
y: 557.939697265625
z: -0.002688951324671507
visibility: 0.9847548007965088
","x: 152.0126495361328
y: 557.01220703125
z: 0.030528027564287186
visibility: 0.9904337525367737
",,,,,,,,,,,,,,,,,,,,,,,,,,,,,,,,,,,,,,,,,,
26,"x: 170.073974609375
y: 226.7328643798828
z: -0.31886690855026245
visibility: 0.999958872795105
","x: 173.3951873779297
y: 219.30398559570312
z: -0.3079693019390106
visibility: 0.9998502135276794
","x: 174.9752197265625
y: 219.69937133789062
z: -0.3080194890499115
visibility: 0.9998369216918945
","x: 176.3800048828125
y: 220.14767456054688
z: -0.3080548942089081
visibility: 0.9998235106468201
","x: 168.8472137451172
y: 217.7364959716797
z: -0.30489030480384827
visibility: 0.999833345413208
","x: 167.5728302001953
y: 216.94627380371094
z: -0.30488771200180054
visibility: 0.9998136162757874
","x: 166.31813049316406
y: 216.10958862304688
z: -0.3048573136329651
visibility: 0.9997948408126831
","x: 178.88592529296875
y: 222.001220703125
z: -0.20484478771686554
visibility: 0.999629020690918
","x: 165.10638427734375
y: 216.66558837890625
z: -0.1897314488887787
visibility: 0.9996259212493896
","x: 172.67864990234375
y: 234.05152893066406
z: -0.2771739065647125
visibility: 0.9999136328697205
","x: 167.1320343017578
y: 232.42938232421875
z: -0.2729349732398987
visibility: 0.9999140501022339
","x: 190.5288848876953
y: 264.0523986816406
z: -0.12745331227779388
visibility: 0.9999569654464722
","x: 148.94056701660156
y: 248.83908081054688
z: -0.08796563744544983
visibility: 0.999944806098938
","x: 204.508056640625
y: 309.1130676269531
z: -0.16143539547920227
visibility: 0.9831515550613403
","x: 126.06283569335938
y: 285.782470703125
z: -0.051649101078510284
visibility: 0.9874516725540161
","x: 220.60218811035156
y: 350.18133544921875
z: -0.27199798822402954
visibility: 0.9855988025665283
","x: 102.05410766601562
y: 315.4999084472656
z: -0.16244813799858093
visibility: 0.9842060804367065
","x: 226.5198516845703
y: 361.53912353515625
z: -0.3069714903831482
visibility: 0.9687749147415161
","x: 94.51371002197266
y: 319.94830322265625
z: -0.19098174571990967
visibility: 0.9672821164131165
","x: 225.11474609375
y: 360.0838928222656
z: -0.3448936343193054
visibility: 0.9716087579727173
","x: 93.66898345947266
y: 318.50274658203125
z: -0.2326517105102539
visibility: 0.9712526798248291
","x: 223.0385284423828
y: 356.6993408203125
z: -0.2905471622943878
visibility: 0.9649989008903503
","x: 97.0231704711914
y: 318.2431335449219
z: -0.18317030370235443
visibility: 0.9674167633056641
","x: 175.2864990234375
y: 369.6141052246094
z: -0.00636141374707222
visibility: 0.9996135830879211
","x: 152.8268280029297
y: 367.56573486328125
z: 0.006315163336694241
visibility: 0.9996943473815918
","x: 178.47647094726562
y: 455.2840576171875
z: -0.003734840080142021
visibility: 0.9904658198356628
","x: 155.10552978515625
y: 455.99359130859375
z: 0.018594393506646156
visibility: 0.9942786693572998
","x: 183.84033203125
y: 534.2568359375
z: 0.13548465073108673
visibility: 0.9873573184013367
","x: 160.51229858398438
y: 533.5498657226562
z: 0.16603633761405945
visibility: 0.9942578077316284
","x: 181.82180786132812
y: 544.1822509765625
z: 0.14443698525428772
visibility: 0.9311810731887817
","x: 165.21917724609375
y: 542.801025390625
z: 0.1729135811328888
visibility: 0.9221364259719849
","x: 188.7105255126953
y: 558.3367919921875
z: 0.012251490727066994
visibility: 0.9854565858840942
","x: 151.99737548828125
y: 557.452392578125
z: 0.04811764508485794
visibility: 0.9906154274940491
",,,,,,,,,,,,,,,,,,,,,,,,,,,,,,,,,,,,,,,,,,
27,"x: 166.3052978515625
y: 223.8422393798828
