uscmakers/ReverseChoreography/data/5_easily_bruno_major.csv
,NOSE,LEFT_EYE_INNER,LEFT_EYE,LEFT_EYE_OUTER,RIGHT_EYE_INNER,RIGHT_EYE,RIGHT_EYE_OUTER,LEFT_EAR,RIGHT_EAR,MOUTH_LEFT,MOUTH_RIGHT,LEFT_SHOULDER,RIGHT_SHOULDER,LEFT_ELBOW,RIGHT_ELBOW,LEFT_WRIST,RIGHT_WRIST,LEFT_PINKY,RIGHT_PINKY,LEFT_INDEX,RIGHT_INDEX,LEFT_THUMB,RIGHT_THUMB,LEFT_HIP,RIGHT_HIP,LEFT_KNEE,RIGHT_KNEE,LEFT_ANKLE,RIGHT_ANKLE,LEFT_HEEL,RIGHT_HEEL,LEFT_FOOT_INDEX,RIGHT_FOOT_INDEX,WRIST,THUMB_CPC,THUMB_MCP,THUMB_IP,THUMB_TIP,INDEX_FINGER_MCP,INDEX_FINGER_PIP,INDEX_FINGER_DIP,INDEX_FINGER_TIP,MIDDLE_FINGER_MCP,MIDDLE_FINGER_PIP,MIDDLE_FINGER_DIP,MIDDLE_FINGER_TIP,RING_FINGER_PIP,RING_FINGER_DIP,RING_FINGER_TIP,RING_FINGER_MCP,PINKY_MCP,PINKY_PIP,PINKY_DIP,PINKY_TIP,WRIST2,THUMB_CPC2,THUMB_MCP2,THUMB_IP2,THUMB_TIP2,INDEX_FINGER_MCP2,INDEX_FINGER_PIP2,INDEX_FINGER_DIP2,INDEX_FINGER_TIP2,MIDDLE_FINGER_MCP2,MIDDLE_FINGER_PIP2,MIDDLE_FINGER_DIP2,MIDDLE_FINGER_TIP2,RING_FINGER_PIP2,RING_FINGER_DIP2,RING_FINGER_TIP2,RING_FINGER_MCP2,PINKY_MCP2,PINKY_PIP2,PINKY_DIP2,PINKY_TIP2
0,"x: 218.03741455078125
y: 206.3714599609375
z: -0.17480231821537018
visibility: 0.9995390176773071
","x: 221.96665954589844
y: 198.51194763183594
z: -0.16041725873947144
visibility: 0.9986529350280762
","x: 223.52821350097656
y: 198.9151153564453
z: -0.16043877601623535
visibility: 0.9987390637397766
","x: 225.00814819335938
y: 199.41790771484375
z: -0.1604328602552414
visibility: 0.9984960556030273
","x: 217.03204345703125
y: 197.0518341064453
z: -0.15811751782894135
visibility: 0.9989816546440125
","x: 215.3985595703125
y: 196.33058166503906
z: -0.15815295279026031
visibility: 0.9990414977073669
","x: 213.99957275390625
y: 195.65283203125
z: -0.15816348791122437
visibility: 0.9991046786308289
","x: 226.51048278808594
y: 204.01065063476562
z: -0.055689264088869095
visibility: 0.9989274144172668
","x: 212.11758422851562
y: 198.21678161621094
z: -0.04366619512438774
visibility: 0.9978027939796448
","x: 220.41409301757812
y: 214.5128631591797
z: -0.13255548477172852
visibility: 0.9990671277046204
","x: 214.18736267089844
y: 212.68359375
z: -0.12956979870796204
visibility: 0.9989929795265198
","x: 237.99899291992188
y: 246.75503540039062
z: -0.02577495574951172
visibility: 0.9997473359107971
","x: 197.04190063476562
y: 241.249267578125
z: 0.045862868428230286
visibility: 0.9994211196899414
","x: 237.195556640625
y: 306.89886474609375
z: -0.07291510701179504
visibility: 0.9849527478218079
","x: 181.8466796875
y: 296.00164794921875
z: -0.054020293056964874
visibility: 0.963419497013092
","x: 203.5282745361328
y: 312.98681640625
z: -0.16614282131195068
visibility: 0.9564982056617737
","x: 204.00611877441406
y: 260.32928466796875
z: -0.2581629157066345
visibility: 0.9757610559463501
","x: 195.36663818359375
y: 322.79718017578125
z: -0.1998697817325592
visibility: 0.9005098938941956
","x: 211.0140838623047
y: 256.47088623046875
z: -0.30385273694992065
visibility: 0.9477398991584778
","x: 193.4139404296875
y: 318.27197265625
z: -0.20360419154167175
visibility: 0.8920638561248779
","x: 212.01412963867188
y: 248.916748046875
z: -0.2971205413341522
visibility: 0.9422904849052429
","x: 196.1945343017578
y: 315.48321533203125
z: -0.16751272976398468
visibility: 0.8481906652450562
","x: 210.39381408691406
y: 249.61941528320312
z: -0.2600407898426056
visibility: 0.9143350720405579
","x: 225.22491455078125
y: 367.9289245605469
z: -0.03353937342762947
visibility: 0.9982110261917114
","x: 200.36407470703125
y: 365.2808837890625
z: 0.033634256571531296
visibility: 0.9987167119979858
","x: 222.27296447753906
y: 455.8193664550781
z: -0.05456259101629257
visibility: 0.9969584941864014
","x: 188.44252014160156
y: 457.2557067871094
z: 0.026203159242868423
visibility: 0.9924554824829102
","x: 219.71595764160156
y: 545.3165283203125
z: 0.06707152724266052
visibility: 0.9939781427383423
","x: 178.12974548339844
y: 544.2706909179688
z: 0.12333983182907104
visibility: 0.9933496117591858
","x: 222.21705627441406
y: 559.3099365234375
z: 0.07060221582651138
visibility: 0.8311103582382202
","x: 180.8240966796875
y: 556.8502197265625
z: 0.1249220222234726
visibility: 0.9315064549446106
","x: 204.44064331054688
y: 565.836669921875
z: -0.06735285371541977
visibility: 0.9895473718643188
","x: 164.97193908691406
y: 565.536376953125
z: 0.0029072528705000877
visibility: 0.9873199462890625
","x: 205.478759765625
y: 259.1077575683594
z: 0.0
","x: 207.27297973632812
y: 252.02481079101562
z: 0.001049098209477961
","x: 210.2893829345703
y: 247.36167907714844
z: 0.00040548533434048295
","x: 212.8807373046875
y: 243.7601318359375
z: -0.0006486345082521439
","x: 214.06813049316406
y: 239.86732482910156
z: -0.0017075547948479652
","x: 215.60394287109375
y: 250.12966918945312
z: -0.00156337337102741
","x: 220.84422302246094
y: 247.1324920654297
z: -0.0030041520949453115
","x: 223.77870178222656
y: 246.05690002441406
z: -0.0035160852130502462
","x: 226.07196044921875
y: 245.39260864257812
z: -0.003885574173182249
","x: 216.25457763671875
y: 254.54698181152344
z: -0.0036783856339752674
","x: 222.0778045654297
y: 252.49139404296875
z: -0.004771970212459564
","x: 225.43714904785156
y: 252.049560546875
z: -0.004900061059743166
","x: 227.89935302734375
y: 251.9319305419922
z: -0.005279818084090948
","x: 216.09532165527344
y: 259.09979248046875
z: -0.00569415045902133
","x: 221.46832275390625
y: 258.81719970703125
z: -0.007247502915561199
","x: 224.53857421875
y: 259.11480712890625
z: -0.00787694938480854
","x: 226.7689208984375
y: 259.2277526855469
z: -0.008470062166452408
","x: 215.15304565429688
y: 263.4019470214844
z: -0.0076643312349915504
","x: 218.9898223876953
y: 265.5063781738281
z: -0.009439426474273205
","x: 221.35122680664062
y: 266.9064636230469
z: -0.010117869824171066
","x: 223.27520751953125
y: 267.9027099609375
z: -0.010580228641629219
",,,,,,,,,,,,,,,,,,,,,
1,"x: 218.03741455078125
y: 206.3714599609375
z: -0.17480231821537018
visibility: 0.9995390176773071
","x: 221.96665954589844
y: 198.51194763183594
z: -0.16041725873947144
visibility: 0.9986529350280762
","x: 223.52821350097656
y: 198.9151153564453
z: -0.16043877601623535
visibility: 0.9987390637397766
","x: 225.00814819335938
y: 199.41790771484375
z: -0.1604328602552414
visibility: 0.9984960556030273
","x: 217.03204345703125
y: 197.0518341064453
z: -0.15811751782894135
visibility: 0.9989816546440125
","x: 215.3985595703125
y: 196.33058166503906
z: -0.15815295279026031
visibility: 0.9990414977073669
","x: 213.99957275390625
y: 195.65283203125
z: -0.15816348791122437
visibility: 0.9991046786308289
","x: 226.51048278808594
y: 204.01065063476562
z: -0.055689264088869095
visibility: 0.9989274144172668
","x: 212.11758422851562
y: 198.21678161621094
z: -0.04366619512438774
visibility: 0.9978027939796448
","x: 220.41409301757812
y: 214.5128631591797
z: -0.13255548477172852
visibility: 0.9990671277046204
","x: 214.18736267089844
y: 212.68359375
z: -0.12956979870796204
visibility: 0.9989929795265198
","x: 237.99899291992188
y: 246.75503540039062
z: -0.02577495574951172
visibility: 0.9997473359107971
","x: 197.04190063476562
y: 241.249267578125
z: 0.045862868428230286
visibility: 0.9994211196899414
","x: 237.195556640625
y: 306.89886474609375
z: -0.07291510701179504
visibility: 0.9849527478218079
","x: 181.8466796875
y: 296.00164794921875
z: -0.054020293056964874
visibility: 0.963419497013092
","x: 203.5282745361328
y: 312.98681640625
z: -0.16614282131195068
visibility: 0.9564982056617737
","x: 204.00611877441406
y: 260.32928466796875
z: -0.2581629157066345
visibility: 0.9757610559463501
","x: 195.36663818359375
y: 322.79718017578125
z: -0.1998697817325592
visibility: 0.9005098938941956
","x: 211.0140838623047
y: 256.47088623046875
z: -0.30385273694992065
visibility: 0.9477398991584778
","x: 193.4139404296875
y: 318.27197265625
z: -0.20360419154167175
visibility: 0.8920638561248779
","x: 212.01412963867188
y: 248.916748046875
z: -0.2971205413341522
visibility: 0.9422904849052429
","x: 196.1945343017578
y: 315.48321533203125
z: -0.16751272976398468
visibility: 0.8481906652450562
","x: 210.39381408691406
y: 249.61941528320312
z: -0.2600407898426056
visibility: 0.9143350720405579
","x: 225.22491455078125
y: 367.9289245605469
z: -0.03353937342762947
visibility: 0.9982110261917114
","x: 200.36407470703125
y: 365.2808837890625
z: 0.033634256571531296
visibility: 0.9987167119979858
","x: 222.27296447753906
y: 455.8193664550781
z: -0.05456259101629257
visibility: 0.9969584941864014
","x: 188.44252014160156
y: 457.2557067871094
z: 0.026203159242868423
visibility: 0.9924554824829102
","x: 219.71595764160156
y: 545.3165283203125
z: 0.06707152724266052
visibility: 0.9939781427383423
","x: 178.12974548339844
y: 544.2706909179688
z: 0.12333983182907104
visibility: 0.9933496117591858
","x: 222.21705627441406
y: 559.3099365234375
z: 0.07060221582651138
visibility: 0.8311103582382202
","x: 180.8240966796875
y: 556.8502197265625
z: 0.1249220222234726
visibility: 0.9315064549446106
","x: 204.44064331054688
y: 565.836669921875
z: -0.06735285371541977
visibility: 0.9895473718643188
","x: 164.97193908691406
y: 565.536376953125
z: 0.0029072528705000877
visibility: 0.9873199462890625
","x: 205.478759765625
y: 259.1077575683594
z: 0.0
","x: 207.27297973632812
y: 252.02481079101562
z: 0.001049098209477961
","x: 210.2893829345703
y: 247.36167907714844
z: 0.00040548533434048295
","x: 212.8807373046875
y: 243.7601318359375
z: -0.0006486345082521439
","x: 214.06813049316406
y: 239.86732482910156
z: -0.0017075547948479652
","x: 215.60394287109375
y: 250.12966918945312
z: -0.00156337337102741
","x: 220.84422302246094
y: 247.1324920654297
z: -0.0030041520949453115
","x: 223.77870178222656
y: 246.05690002441406
z: -0.0035160852130502462
","x: 226.07196044921875
y: 245.39260864257812
z: -0.003885574173182249
","x: 216.25457763671875
y: 254.54698181152344
z: -0.0036783856339752674
","x: 222.0778045654297
y: 252.49139404296875
z: -0.004771970212459564
","x: 225.43714904785156
y: 252.049560546875
z: -0.004900061059743166
","x: 227.89935302734375
y: 251.9319305419922
z: -0.005279818084090948
","x: 216.09532165527344
y: 259.09979248046875
z: -0.00569415045902133
","x: 221.46832275390625
y: 258.81719970703125
z: -0.007247502915561199
","x: 224.53857421875
y: 259.11480712890625
z: -0.00787694938480854
","x: 226.7689208984375
y: 259.2277526855469
z: -0.008470062166452408
","x: 215.15304565429688
y: 263.4019470214844
z: -0.0076643312349915504
","x: 218.9898223876953
y: 265.5063781738281
z: -0.009439426474273205
","x: 221.35122680664062
y: 266.9064636230469
z: -0.010117869824171066
","x: 223.27520751953125
y: 267.9027099609375
z: -0.010580228641629219
",,,,,,,,,,,,,,,,,,,,,
2,"x: 202.38604736328125
y: 211.88330078125
z: -0.20781287550926208
visibility: 0.999576985836029
","x: 206.31724548339844
y: 204.5863037109375
z: -0.1927717626094818
visibility: 0.9987616539001465
","x: 207.5943145751953
y: 205.20596313476562
z: -0.1927659511566162
visibility: 0.9988374710083008
","x: 208.8073272705078
y: 205.7211151123047
z: -0.19275596737861633
visibility: 0.9986125826835632
","x: 202.21408081054688
y: 201.521484375
z: -0.19373133778572083
visibility: 0.9990566968917847
","x: 200.7197265625
y: 200.2183380126953
z: -0.19373247027397156
visibility: 0.9991104602813721
","x: 199.2462615966797
y: 198.96624755859375
z: -0.19373999536037445
visibility: 0.9991694092750549
","x: 210.1708221435547
y: 207.40997314453125
z: -0.07605838775634766
visibility: 0.9990084171295166
","x: 197.43377685546875
y: 200.1117706298828
z: -0.08099716901779175
visibility: 0.9979873895645142
","x: 204.258544921875
y: 218.85089111328125
z: -0.1603671759366989
visibility: 0.9991488456726074
","x: 198.5562286376953
y: 215.5009765625
z: -0.16234014928340912
visibility: 0.9990846514701843
","x: 219.6958465576172
y: 253.8969268798828
z: -0.005648318212479353
visibility: 0.9997696280479431
","x: 177.5833282470703
y: 238.2439422607422
z: -0.0026057646609842777
visibility: 0.999470055103302
","x: 228.24867248535156
y: 311.10809326171875
z: 0.017178822308778763
visibility: 0.9855136871337891
","x: 158.02862548828125
y: 288.8644714355469
z: -0.12853185832500458
visibility: 0.9658946394920349
","x: 229.24252319335938
y: 357.9501647949219
z: -0.08804724365472794
visibility: 0.9592221975326538
","x: 183.8016357421875
y: 261.20904541015625
z: -0.3723657429218292
visibility: 0.977742612361908
","x: 233.1144561767578
y: 376.4800720214844
z: -0.11300655454397202
visibility: 0.9067916870117188
","x: 190.8804473876953
y: 259.421630859375
z: -0.4220154881477356
visibility: 0.9518394470214844
","x: 231.22772216796875
y: 375.780029296875
z: -0.14171169698238373
visibility: 0.8992713093757629
","x: 193.3018798828125
y: 253.47943115234375
z: -0.42191094160079956
visibility: 0.9468724727630615
","x: 228.97254943847656
y: 371.3573913574219
z: -0.10097763687372208
visibility: 0.858869731426239
","x: 191.65542602539062
y: 253.27066040039062
z: -0.3767159581184387
visibility: 0.9210441708564758
","x: 198.25758361816406
y: 370.73492431640625
z: -0.023447377607226372
visibility: 0.9983617663383484
","x: 174.05152893066406
y: 365.9660339355469
z: 0.023428181186318398
visibility: 0.998805820941925
","x: 203.5992889404297
y: 460.7374572753906
z: -0.04352416470646858
visibility: 0.9969843626022339
","x: 174.80618286132812
y: 459.4865417480469
z: 0.028375152498483658
visibility: 0.9922863245010376
","x: 216.87156677246094
y: 546.6947631835938
z: 0.06623245030641556
visibility: 0.9941918849945068
","x: 177.99034118652344
y: 544.5612182617188
z: 0.16603638231754303
visibility: 0.9933340549468994
","x: 221.3887481689453
y: 561.7650146484375
z: 0.06795122474431992
visibility: 0.8320935964584351
","x: 180.81797790527344
y: 556.8543090820312
z: 0.17267897725105286
visibility: 0.9329653978347778
","x: 202.33944702148438
y: 569.0156860351562
z: -0.07753346860408783
visibility: 0.9898074269294739
","x: 164.77386474609375
y: 568.5977783203125
z: 0.047855883836746216
visibility: 0.9876734018325806
","x: 184.8360137939453
y: 261.18499755859375
z: 0.0
","x: 186.3938446044922
y: 253.94058227539062
z: 0.00027355816564522684
","x: 189.50155639648438
y: 249.60147094726562
z: -0.00031163645326159894
","x: 192.4223175048828
y: 246.52081298828125
z: -0.0010655681835487485
","x: 194.11940002441406
y: 243.27622985839844
z: -0.001813532318919897
","x: 194.81349182128906
y: 254.72891235351562
z: -0.0017527135787531734
","x: 199.63278198242188
y: 253.09654235839844
z: -0.0029682680033147335
","x: 202.527099609375
y: 252.3365936279297
z: -0.0034115074668079615
","x: 204.8463592529297
y: 251.99917602539062
z: -0.0037439872976392508
","x: 195.5288848876953
y: 259.5560302734375
z: -0.003217121120542288
","x: 201.0950469970703
y: 259.5535888671875
z: -0.0043245954439044
","x: 204.50704956054688
y: 259.9734802246094
z: -0.004673662129789591
","x: 207.12747192382812
y: 260.6484375
z: -0.0052008978091180325
","x: 195.45193481445312
y: 263.9404602050781
z: -0.004618238657712936
","x: 200.46543884277344
y: 265.1044921875
z: -0.006265927106142044
","x: 203.60195922851562
y: 266.14752197265625
z: -0.007198471110314131
","x: 205.96356201171875
y: 266.9849548339844
z: -0.00793036725372076
","x: 194.5758056640625
y: 267.7950744628906
z: -0.006003502756357193
","x: 198.09690856933594
y: 270.4737854003906
z: -0.007864299230277538
","x: 200.37591552734375
y: 272.377197265625
z: -0.008765121921896935
","x: 202.22152709960938
y: 273.9121398925781
z: -0.009320941753685474
",,,,,,,,,,,,,,,,,,,,,
3,"x: 202.38604736328125
y: 211.88330078125
z: -0.20781287550926208
visibility: 0.999576985836029
","x: 206.31724548339844
y: 204.5863037109375
z: -0.1927717626094818
visibility: 0.9987616539001465
","x: 207.5943145751953
y: 205.20596313476562
z: -0.1927659511566162
visibility: 0.9988374710083008
","x: 208.8073272705078
y: 205.7211151123047
z: -0.19275596737861633
visibility: 0.9986125826835632
","x: 202.21408081054688
y: 201.521484375
z: -0.19373133778572083
visibility: 0.9990566968917847
","x: 200.7197265625
y: 200.2183380126953
z: -0.19373247027397156
visibility: 0.9991104602813721
","x: 199.2462615966797
y: 198.96624755859375
z: -0.19373999536037445
visibility: 0.9991694092750549
","x: 210.1708221435547
y: 207.40997314453125
z: -0.07605838775634766
visibility: 0.9990084171295166
","x: 197.43377685546875
y: 200.1117706298828
z: -0.08099716901779175
visibility: 0.9979873895645142
","x: 204.258544921875
y: 218.85089111328125
z: -0.1603671759366989
visibility: 0.9991488456726074
","x: 198.5562286376953
y: 215.5009765625
z: -0.16234014928340912
visibility: 0.9990846514701843
","x: 219.6958465576172
y: 253.8969268798828
z: -0.005648318212479353
visibility: 0.9997696280479431
","x: 177.5833282470703
y: 238.2439422607422
z: -0.0026057646609842777
visibility: 0.999470055103302
","x: 228.24867248535156
y: 311.10809326171875
z: 0.017178822308778763
visibility: 0.9855136871337891
","x: 158.02862548828125
y: 288.8644714355469
z: -0.12853185832500458
visibility: 0.9658946394920349
","x: 229.24252319335938
y: 357.9501647949219
z: -0.08804724365472794
visibility: 0.9592221975326538
","x: 183.8016357421875
y: 261.20904541015625
z: -0.3723657429218292
visibility: 0.977742612361908
","x: 233.1144561767578
y: 376.4800720214844
z: -0.11300655454397202
visibility: 0.9067916870117188
","x: 190.8804473876953
y: 259.421630859375
z: -0.4220154881477356
visibility: 0.9518394470214844
","x: 231.22772216796875
y: 375.780029296875
z: -0.14171169698238373
visibility: 0.8992713093757629
","x: 193.3018798828125
y: 253.47943115234375
z: -0.42191094160079956
visibility: 0.9468724727630615
","x: 228.97254943847656
y: 371.3573913574219
z: -0.10097763687372208
visibility: 0.858869731426239
","x: 191.65542602539062
y: 253.27066040039062
z: -0.3767159581184387
visibility: 0.9210441708564758
","x: 198.25758361816406
y: 370.73492431640625
z: -0.023447377607226372
visibility: 0.9983617663383484
","x: 174.05152893066406
y: 365.9660339355469
z: 0.023428181186318398
visibility: 0.998805820941925
","x: 203.5992889404297
y: 460.7374572753906
z: -0.04352416470646858
visibility: 0.9969843626022339
","x: 174.80618286132812
y: 459.4865417480469
z: 0.028375152498483658
visibility: 0.9922863245010376
","x: 216.87156677246094
y: 546.6947631835938
z: 0.06623245030641556
visibility: 0.9941918849945068
","x: 177.99034118652344
y: 544.5612182617188
z: 0.16603638231754303
visibility: 0.9933340549468994
","x: 221.3887481689453
y: 561.7650146484375
z: 0.06795122474431992
visibility: 0.8320935964584351
","x: 180.81797790527344
y: 556.8543090820312
z: 0.17267897725105286
visibility: 0.9329653978347778
","x: 202.33944702148438
y: 569.0156860351562
z: -0.07753346860408783
visibility: 0.9898074269294739
","x: 164.77386474609375
y: 568.5977783203125
z: 0.047855883836746216
visibility: 0.9876734018325806
","x: 184.8360137939453
y: 261.18499755859375
z: 0.0
","x: 186.3938446044922
y: 253.94058227539062
z: 0.00027355816564522684
","x: 189.50155639648438
y: 249.60147094726562
z: -0.00031163645326159894
","x: 192.4223175048828
y: 246.52081298828125
z: -0.0010655681835487485
","x: 194.11940002441406
y: 243.27622985839844
z: -0.001813532318919897
","x: 194.81349182128906
y: 254.72891235351562
z: -0.0017527135787531734
","x: 199.63278198242188
y: 253.09654235839844
z: -0.0029682680033147335
","x: 202.527099609375
y: 252.3365936279297
z: -0.0034115074668079615
","x: 204.8463592529297
y: 251.99917602539062
z: -0.0037439872976392508
","x: 195.5288848876953
y: 259.5560302734375
z: -0.003217121120542288
","x: 201.0950469970703
y: 259.5535888671875
z: -0.0043245954439044
","x: 204.50704956054688
y: 259.9734802246094
z: -0.004673662129789591
","x: 207.12747192382812
y: 260.6484375
z: -0.0052008978091180325
","x: 195.45193481445312
y: 263.9404602050781
z: -0.004618238657712936
","x: 200.46543884277344
y: 265.1044921875
z: -0.006265927106142044
","x: 203.60195922851562
y: 266.14752197265625
z: -0.007198471110314131
","x: 205.96356201171875
y: 266.9849548339844
z: -0.00793036725372076
","x: 194.5758056640625
y: 267.7950744628906
z: -0.006003502756357193
","x: 198.09690856933594
y: 270.4737854003906
z: -0.007864299230277538
","x: 200.37591552734375
y: 272.377197265625
z: -0.008765121921896935
","x: 202.22152709960938
y: 273.9121398925781
z: -0.009320941753685474
",,,,,,,,,,,,,,,,,,,,,
4,"x: 200.4664764404297
y: 214.63705444335938
z: -0.28380072116851807
visibility: 0.9996150732040405
","x: 205.09384155273438
y: 208.90780639648438
z: -0.2632419466972351
visibility: 0.9988685846328735
","x: 206.55198669433594
y: 209.8501739501953
z: -0.26321133971214294
visibility: 0.998934805393219
","x: 207.81581115722656
y: 210.60264587402344
z: -0.2631972134113312
visibility: 0.9987242221832275
","x: 200.36370849609375
y: 204.28396606445312
z: -0.26939254999160767
visibility: 0.999136209487915
","x: 198.7982635498047
y: 202.30740356445312
z: -0.2694123685359955
visibility: 0.9991865754127502
","x: 197.32403564453125
y: 200.426513671875
z: -0.2694181799888611
visibility: 0.9992404580116272
","x: 208.6444854736328
y: 211.42233276367188
z: -0.12341965734958649
visibility: 0.999083399772644
","x: 194.67445373535156
y: 200.65289306640625
z: -0.15344694256782532
visibility: 0.9981739521026611
","x: 201.30108642578125
y: 221.4822235107422
z: -0.22875407338142395
visibility: 0.9992265701293945
","x: 195.45904541015625
y: 216.9759979248047
z: -0.23804278671741486
visibility: 0.9991723895072937
","x: 213.58299255371094
y: 257.96453857421875
z: -0.011810140684247017
visibility: 0.9997892379760742
","x: 171.466796875
y: 235.8851318359375
z: -0.07653963565826416
visibility: 0.999519407749176
","x: 224.58599853515625
y: 312.45556640625
z: 0.02120504155755043
visibility: 0.9855372905731201
","x: 148.81918334960938
y: 276.4248046875
z: -0.22224171459674835
visibility: 0.9688647985458374
","x: 237.3126983642578
y: 354.6419677734375
z: -0.08912774175405502
visibility: 0.9614377021789551
","x: 178.82571411132812
y: 259.8105773925781
z: -0.4732775092124939
visibility: 0.9797521233558655
","x: 243.93893432617188
y: 371.10101318359375
z: -0.11117806285619736
visibility: 0.9115246534347534
","x: 186.1448211669922
y: 259.300537109375
z: -0.5275540351867676
visibility: 0.9559904932975769
","x: 243.635986328125
y: 371.08526611328125
z: -0.14406408369541168
visibility: 0.9050027132034302
","x: 188.15516662597656
y: 253.0474853515625
z: -0.5213721394538879
visibility: 0.951496958732605
","x: 241.08346557617188
y: 365.3514404296875
z: -0.10451744496822357
visibility: 0.8677821159362793
","x: 186.13198852539062
y: 252.98973083496094
z: -0.4754104018211365
visibility: 0.9277971386909485
","x: 191.87252807617188
y: 370.6529235839844
z: -0.004696783144026995
visibility: 0.9984769225120544
","x: 166.49041748046875
y: 366.1917419433594
z: 0.004541721194982529
visibility: 0.9988865852355957
","x: 195.52725219726562
y: 461.1673583984375
z: 0.0017557942774146795
visibility: 0.997073769569397
","x: 170.0242156982422
y: 460.1316833496094
z: 0.012828725390136242
visibility: 0.9924416542053223
","x: 211.63719177246094
y: 545.8450927734375
z: 0.20782610774040222
visibility: 0.994370698928833
","x: 176.966552734375
y: 544.560302734375
z: 0.19502554833889008
visibility: 0.9935169219970703
","x: 216.21937561035156
y: 557.9472045898438
z: 0.22023363411426544
visibility: 0.834202229976654
","x: 180.54205322265625
y: 556.787841796875
z: 0.20690056681632996
visibility: 0.9342926740646362
","x: 202.25204467773438
y: 568.8038940429688
z: 0.07347922027111053
visibility: 0.9901118874549866
","x: 167.88291931152344
y: 571.2061767578125
z: 0.06762801110744476
visibility: 0.98822420835495
","x: 179.67347717285156
y: 256.75799560546875
z: 0.0
","x: 181.8210906982422
y: 250.8625946044922
z: 0.0009691279847174883
","x: 184.98765563964844
y: 248.11724853515625
z: 0.0006812329520471394
","x: 187.78866577148438
y: 246.95315551757812
z: 8.25656607048586e-05
","x: 189.50436401367188
y: 245.5201416015625
z: -0.0004886624519713223
","x: 189.53306579589844
y: 252.95779418945312
z: -0.0010591843165457249
","x: 194.27536010742188
y: 253.4767303466797
z: -0.0023268102668225765
","x: 196.857666015625
y: 254.41307067871094
z: -0.002678816905245185
","x: 198.84188842773438
y: 255.34486389160156
z: -0.002878892235457897
","x: 189.6041259765625
y: 257.61065673828125
z: -0.002784585114568472
","x: 194.95521545410156
y: 259.5697937011719
z: -0.0039008178282529116
","x: 198.00433349609375
y: 261.5771789550781
z: -0.004057107027620077
","x: 200.30020141601562
y: 263.2632751464844
z: -0.004363092593848705
","x: 189.10595703125
y: 261.9984130859375
z: -0.004435119219124317
","x: 193.86276245117188
y: 264.89825439453125
z: -0.005904561374336481
","x: 196.65155029296875
y: 267.3421936035156
z: -0.0064355963841080666
","x: 198.8055877685547
y: 269.1450500488281
z: -0.006894777994602919
","x: 188.02517700195312
y: 265.7960205078125
z: -0.006041170097887516
","x: 191.40008544921875
y: 269.17132568359375
z: -0.007680724840611219
","x: 193.47915649414062
y: 271.4626159667969
z: -0.008332595229148865
","x: 195.30679321289062
y: 273.2864074707031
z: -0.00873075146228075
",,,,,,,,,,,,,,,,,,,,,
5,"x: 200.4664764404297
y: 214.63705444335938
z: -0.28380072116851807
visibility: 0.9996150732040405
","x: 205.09384155273438
y: 208.90780639648438
z: -0.2632419466972351
visibility: 0.9988685846328735
","x: 206.55198669433594
y: 209.8501739501953
z: -0.26321133971214294
visibility: 0.998934805393219
","x: 207.81581115722656
y: 210.60264587402344
z: -0.2631972134113312
visibility: 0.9987242221832275
","x: 200.36370849609375
y: 204.28396606445312
z: -0.26939254999160767
visibility: 0.999136209487915
","x: 198.7982635498047
y: 202.30740356445312
z: -0.2694123685359955
visibility: 0.9991865754127502
","x: 197.32403564453125
y: 200.426513671875
z: -0.2694181799888611
visibility: 0.9992404580116272
","x: 208.6444854736328
y: 211.42233276367188
z: -0.12341965734958649
visibility: 0.999083399772644
","x: 194.67445373535156
y: 200.65289306640625
z: -0.15344694256782532
visibility: 0.9981739521026611
","x: 201.30108642578125
y: 221.4822235107422
z: -0.22875407338142395
visibility: 0.9992265701293945
","x: 195.45904541015625
y: 216.9759979248047
z: -0.23804278671741486
visibility: 0.9991723895072937
","x: 213.58299255371094
y: 257.96453857421875
z: -0.011810140684247017
visibility: 0.9997892379760742
","x: 171.466796875
y: 235.8851318359375
z: -0.07653963565826416
visibility: 0.999519407749176
","x: 224.58599853515625
y: 312.45556640625
z: 0.02120504155755043
visibility: 0.9855372905731201
","x: 148.81918334960938
y: 276.4248046875
z: -0.22224171459674835
visibility: 0.9688647985458374
","x: 237.3126983642578
y: 354.6419677734375
z: -0.08912774175405502
visibility: 0.9614377021789551
","x: 178.82571411132812
y: 259.8105773925781
z: -0.4732775092124939
visibility: 0.9797521233558655
","x: 243.93893432617188
y: 371.10101318359375
z: -0.11117806285619736
visibility: 0.9115246534347534
","x: 186.1448211669922
y: 259.300537109375
z: -0.5275540351867676
visibility: 0.9559904932975769
","x: 243.635986328125
y: 371.08526611328125
z: -0.14406408369541168
visibility: 0.9050027132034302
","x: 188.15516662597656
y: 253.0474853515625
z: -0.5213721394538879
visibility: 0.951496958732605
","x: 241.08346557617188
y: 365.3514404296875
z: -0.10451744496822357
visibility: 0.8677821159362793
","x: 186.13198852539062
y: 252.98973083496094
z: -0.4754104018211365
visibility: 0.9277971386909485
","x: 191.87252807617188
y: 370.6529235839844
z: -0.004696783144026995
visibility: 0.9984769225120544
","x: 166.49041748046875
y: 366.1917419433594
z: 0.004541721194982529
visibility: 0.9988865852355957
","x: 195.52725219726562
y: 461.1673583984375
z: 0.0017557942774146795
visibility: 0.997073769569397
","x: 170.0242156982422
y: 460.1316833496094
z: 0.012828725390136242
visibility: 0.9924416542053223
","x: 211.63719177246094
y: 545.8450927734375
z: 0.20782610774040222
visibility: 0.994370698928833
","x: 176.966552734375
y: 544.560302734375
z: 0.19502554833889008
visibility: 0.9935169219970703
","x: 216.21937561035156
y: 557.9472045898438
z: 0.22023363411426544
visibility: 0.834202229976654
","x: 180.54205322265625
y: 556.787841796875
z: 0.20690056681632996
visibility: 0.9342926740646362
","x: 202.25204467773438
y: 568.8038940429688
z: 0.07347922027111053
visibility: 0.9901118874549866
","x: 167.88291931152344
y: 571.2061767578125
z: 0.06762801110744476
visibility: 0.98822420835495
","x: 179.67347717285156
y: 256.75799560546875
z: 0.0
","x: 181.8210906982422
y: 250.8625946044922
z: 0.0009691279847174883
","x: 184.98765563964844
y: 248.11724853515625
z: 0.0006812329520471394
","x: 187.78866577148438
y: 246.95315551757812
z: 8.25656607048586e-05
","x: 189.50436401367188
y: 245.5201416015625
z: -0.0004886624519713223
","x: 189.53306579589844
y: 252.95779418945312
z: -0.0010591843165457249
","x: 194.27536010742188
y: 253.4767303466797
z: -0.0023268102668225765
","x: 196.857666015625
y: 254.41307067871094
z: -0.002678816905245185
","x: 198.84188842773438
y: 255.34486389160156
z: -0.002878892235457897
","x: 189.6041259765625
y: 257.61065673828125
z: -0.002784585114568472
","x: 194.95521545410156
y: 259.5697937011719
z: -0.0039008178282529116
","x: 198.00433349609375
y: 261.5771789550781
z: -0.004057107027620077
","x: 200.30020141601562
y: 263.2632751464844
z: -0.004363092593848705
","x: 189.10595703125
y: 261.9984130859375
z: -0.004435119219124317
","x: 193.86276245117188
y: 264.89825439453125
z: -0.005904561374336481
","x: 196.65155029296875
y: 267.3421936035156
z: -0.0064355963841080666
","x: 198.8055877685547
y: 269.1450500488281
z: -0.006894777994602919
","x: 188.02517700195312
y: 265.7960205078125
z: -0.006041170097887516
","x: 191.40008544921875
y: 269.17132568359375
z: -0.007680724840611219
","x: 193.47915649414062
y: 271.4626159667969
z: -0.008332595229148865
","x: 195.30679321289062
y: 273.2864074707031
z: -0.00873075146228075
",,,,,,,,,,,,,,,,,,,,,
6,"x: 201.73448181152344
y: 220.16561889648438
z: -0.2997221350669861
visibility: 0.9996491074562073
","x: 205.76744079589844
y: 215.03045654296875
z: -0.2811577022075653
visibility: 0.9989671111106873
","x: 206.8595428466797
y: 216.0008544921875
z: -0.2811345160007477
visibility: 0.9990257024765015
","x: 207.85157775878906
y: 216.67822265625
z: -0.28117284178733826
visibility: 0.99882972240448
","x: 201.74954223632812
y: 209.6487579345703
z: -0.287942111492157
visibility: 0.9992085695266724
","x: 200.19325256347656
y: 207.17459106445312
z: -0.2879817485809326
visibility: 0.9992549419403076
","x: 198.7061309814453
y: 204.6955108642578
z: -0.2879825532436371
visibility: 0.9993035197257996
","x: 207.77101135253906
y: 215.59547424316406
z: -0.1467084139585495
visibility: 0.9991621971130371
","x: 194.83065795898438
y: 202.77894592285156
z: -0.1788240373134613
visibility: 0.9983422756195068
","x: 202.05010986328125
y: 227.19606018066406
z: -0.24571135640144348
visibility: 0.9992974400520325
","x: 196.3861846923828
y: 221.29432678222656
z: -0.2555459141731262
visibility: 0.9992513060569763
","x: 211.3556671142578
y: 264.5797424316406
z: -0.04077773168683052
visibility: 0.9998084902763367
","x: 170.84054565429688
y: 235.63172912597656
z: -0.09439332783222198
visibility: 0.9995648860931396
","x: 219.246826171875
y: 324.7568359375
z: 0.0008042014087550342
visibility: 0.98532634973526
","x: 146.50759887695312
y: 274.50848388671875
z: -0.25695621967315674
visibility: 0.971143364906311
","x: 242.44920349121094
y: 358.9032287597656
z: -0.11276119947433472
visibility: 0.9637619853019714
","x: 175.8489227294922
y: 259.3188171386719
z: -0.5370952486991882
visibility: 0.9814063310623169
","x: 249.1477508544922
y: 371.3350830078125
z: -0.1380840539932251
visibility: 0.9171956777572632
","x: 183.68817138671875
y: 259.17462158203125
z: -0.5930372476577759
visibility: 0.9593764543533325
","x: 249.34825134277344
y: 369.2475891113281
z: -0.16110754013061523
visibility: 0.911700963973999
","x: 185.86351013183594
y: 253.37770080566406
z: -0.5919525623321533
visibility: 0.9553244113922119
","x: 247.1072998046875
y: 365.331787109375
z: -0.12496467679738998
visibility: 0.8775469064712524
","x: 183.7408905029297
y: 253.24496459960938
z: -0.542503833770752
visibility: 0.9334340691566467
","x: 185.7586669921875
y: 371.02398681640625
z: -0.010864673182368279
visibility: 0.9986066222190857
","x: 162.92086791992188
y: 366.8444519042969
z: 0.01080375351011753
visibility: 0.9989750981330872
","x: 187.19821166992188
y: 462.0808410644531
z: -0.052033912390470505
visibility: 0.9971356987953186
","x: 167.26524353027344
y: 460.50347900390625
z: 0.015176231972873211
visibility: 0.9916752576828003
","x: 207.1267547607422
y: 542.3126220703125
z: 0.14468500018119812
visibility: 0.9945112466812134
","x: 176.87313842773438
y: 545.4996337890625
z: 0.20715749263763428
visibility: 0.993346095085144
","x: 209.82769775390625
y: 552.3831787109375
z: 0.1564960926771164
visibility: 0.8372546434402466
","x: 180.18124389648438
y: 557.1857299804688
z: 0.21941538155078888
visibility: 0.9362733960151672
","x: 202.37728881835938
y: 568.5536499023438
z: 0.021827250719070435
visibility: 0.9904212355613708
","x: 167.6322021484375
y: 572.77197265625
z: 0.09281373769044876
visibility: 0.9884151816368103
","x: 178.3116455078125
y: 255.23435974121094
z: 0.0
","x: 181.1005401611328
y: 250.98223876953125
z: 0.0032657261472195387
","x: 184.3123016357422
y: 249.90411376953125
z: 0.003878783667460084
","x: 186.94906616210938
y: 249.5368194580078
z: 0.003744673915207386
","x: 188.2943878173828
y: 247.89801025390625
z: 0.0035059843212366104
","x: 188.12828063964844
y: 253.36843872070312
z: 0.0005109719932079315
","x: 192.8087615966797
y: 255.5740203857422
z: -0.0003972196427639574
","x: 195.04904174804688
y: 257.5596618652344
z: -0.0003218049823772162
","x: 196.45529174804688
y: 259.16021728515625
z: -0.0001910012651933357
","x: 187.93760681152344
y: 257.35784912109375
z: -0.002373570343479514
","x: 193.23641967773438
y: 261.07135009765625
z: -0.0030304878018796444
","x: 195.92015075683594
y: 264.0216979980469
z: -0.002662549028173089
","x: 197.82559204101562
y: 266.19525146484375
z: -0.002648117020726204
","x: 187.118896484375
y: 261.48223876953125
z: -0.005001584067940712
","x: 191.64205932617188
y: 265.98028564453125
z: -0.005987878423184156
","x: 194.0330047607422
y: 269.13677978515625
z: -0.005872609093785286
","x: 195.8130340576172
y: 271.2729187011719
z: -0.005967489443719387
","x: 185.76646423339844
y: 265.2459716796875
z: -0.007420254871249199
","x: 188.89657592773438
y: 269.824951171875
z: -0.008864467032253742
","x: 190.68226623535156
y: 272.77996826171875
z: -0.00909707322716713
","x: 192.23611450195312
y: 275.0351257324219
z: -0.009176529012620449
",,,,,,,,,,,,,,,,,,,,,
7,"x: 201.73448181152344
y: 220.16561889648438
z: -0.2997221350669861
visibility: 0.9996491074562073
","x: 205.76744079589844
y: 215.03045654296875
z: -0.2811577022075653
visibility: 0.9989671111106873
","x: 206.8595428466797
y: 216.0008544921875
z: -0.2811345160007477
visibility: 0.9990257024765015
","x: 207.85157775878906
y: 216.67822265625
z: -0.28117284178733826
visibility: 0.99882972240448
","x: 201.74954223632812
y: 209.6487579345703
z: -0.287942111492157
visibility: 0.9992085695266724
","x: 200.19325256347656
y: 207.17459106445312
z: -0.2879817485809326
visibility: 0.9992549419403076
","x: 198.7061309814453
y: 204.6955108642578
z: -0.2879825532436371
visibility: 0.9993035197257996
","x: 207.77101135253906
y: 215.59547424316406
z: -0.1467084139585495
visibility: 0.9991621971130371
","x: 194.83065795898438
y: 202.77894592285156
z: -0.1788240373134613
visibility: 0.9983422756195068
","x: 202.05010986328125
y: 227.19606018066406
z: -0.24571135640144348
visibility: 0.9992974400520325
","x: 196.3861846923828
y: 221.29432678222656
z: -0.2555459141731262
visibility: 0.9992513060569763
","x: 211.3556671142578
y: 264.5797424316406
z: -0.04077773168683052
visibility: 0.9998084902763367
","x: 170.84054565429688
y: 235.63172912597656
z: -0.09439332783222198
visibility: 0.9995648860931396
","x: 219.246826171875
y: 324.7568359375
z: 0.0008042014087550342
visibility: 0.98532634973526
","x: 146.50759887695312
y: 274.50848388671875
z: -0.25695621967315674
visibility: 0.971143364906311
","x: 242.44920349121094
y: 358.9032287597656
z: -0.11276119947433472
visibility: 0.9637619853019714
","x: 175.8489227294922
y: 259.3188171386719
z: -0.5370952486991882
visibility: 0.9814063310623169
","x: 249.1477508544922
y: 371.3350830078125
z: -0.1380840539932251
visibility: 0.9171956777572632
","x: 183.68817138671875
y: 259.17462158203125
z: -0.5930372476577759
visibility: 0.9593764543533325
","x: 249.34825134277344
y: 369.2475891113281
z: -0.16110754013061523
visibility: 0.911700963973999
","x: 185.86351013183594
y: 253.37770080566406
z: -0.5919525623321533
visibility: 0.9553244113922119
","x: 247.1072998046875
y: 365.331787109375
z: -0.12496467679738998
visibility: 0.8775469064712524
","x: 183.7408905029297
y: 253.24496459960938
z: -0.542503833770752
visibility: 0.9334340691566467
","x: 185.7586669921875
y: 371.02398681640625
z: -0.010864673182368279
visibility: 0.9986066222190857
","x: 162.92086791992188
y: 366.8444519042969
z: 0.01080375351011753
visibility: 0.9989750981330872
","x: 187.19821166992188
y: 462.0808410644531
z: -0.052033912390470505
visibility: 0.9971356987953186
","x: 167.26524353027344
y: 460.50347900390625
z: 0.015176231972873211
visibility: 0.9916752576828003
","x: 207.1267547607422
y: 542.3126220703125
z: 0.14468500018119812
visibility: 0.9945112466812134
","x: 176.87313842773438
y: 545.4996337890625
z: 0.20715749263763428
visibility: 0.993346095085144
","x: 209.82769775390625
y: 552.3831787109375
z: 0.1564960926771164
visibility: 0.8372546434402466
","x: 180.18124389648438
y: 557.1857299804688
z: 0.21941538155078888
visibility: 0.9362733960151672
","x: 202.37728881835938
y: 568.5536499023438
z: 0.021827250719070435
visibility: 0.9904212355613708
","x: 167.6322021484375
y: 572.77197265625
z: 0.09281373769044876
visibility: 0.9884151816368103
","x: 178.3116455078125
y: 255.23435974121094
z: 0.0
","x: 181.1005401611328
y: 250.98223876953125
z: 0.0032657261472195387
","x: 184.3123016357422
y: 249.90411376953125
z: 0.003878783667460084
","x: 186.94906616210938
y: 249.5368194580078
z: 0.003744673915207386
","x: 188.2943878173828
y: 247.89801025390625
z: 0.0035059843212366104
","x: 188.12828063964844
y: 253.36843872070312
z: 0.0005109719932079315
","x: 192.8087615966797
y: 255.5740203857422
z: -0.0003972196427639574
","x: 195.04904174804688
y: 257.5596618652344
z: -0.0003218049823772162
","x: 196.45529174804688
y: 259.16021728515625
z: -0.0001910012651933357
","x: 187.93760681152344
y: 257.35784912109375
z: -0.002373570343479514
","x: 193.23641967773438
y: 261.07135009765625
z: -0.0030304878018796444
","x: 195.92015075683594
y: 264.0216979980469
z: -0.002662549028173089
","x: 197.82559204101562
y: 266.19525146484375
z: -0.002648117020726204
","x: 187.118896484375
y: 261.48223876953125
z: -0.005001584067940712
","x: 191.64205932617188
y: 265.98028564453125
z: -0.005987878423184156
","x: 194.0330047607422
y: 269.13677978515625
z: -0.005872609093785286
","x: 195.8130340576172
y: 271.2729187011719
z: -0.005967489443719387
","x: 185.76646423339844
y: 265.2459716796875
z: -0.007420254871249199
","x: 188.89657592773438
y: 269.824951171875
z: -0.008864467032253742
","x: 190.68226623535156
y: 272.77996826171875
z: -0.00909707322716713
","x: 192.23611450195312
y: 275.0351257324219
z: -0.009176529012620449
",,,,,,,,,,,,,,,,,,,,,
8,"x: 200.1529541015625
y: 223.03659057617188
z: -0.26139357686042786
visibility: 0.9996823668479919
","x: 203.91868591308594
y: 218.11801147460938
z: -0.2430485039949417
visibility: 0.9990640878677368
","x: 205.02511596679688
y: 219.00051879882812
z: -0.24304361641407013
visibility: 0.9991162419319153
","x: 206.0984344482422
y: 219.65542602539062
z: -0.24308021366596222
visibility: 0.9989375472068787
","x: 200.37330627441406
y: 213.57322692871094
z: -0.24938686192035675
visibility: 0.9992812275886536
","x: 198.95933532714844
y: 211.4773712158203
z: -0.24940618872642517
visibility: 0.9993229508399963
","x: 197.635986328125
y: 209.35891723632812
z: -0.2493954598903656
visibility: 0.9993666410446167
","x: 206.35414123535156
y: 219.31985473632812
z: -0.11583773046731949
visibility: 0.9992387890815735
","x: 193.67578125
y: 206.37037658691406
z: -0.14598557353019714
visibility: 0.9985009431838989
","x: 200.68080139160156
y: 230.05990600585938
z: -0.21028688549995422
visibility: 0.9993644952774048
","x: 195.50323486328125
y: 224.4954833984375
z: -0.21951277554035187
visibility: 0.9993241429328918
","x: 209.54815673828125
y: 268.2967834472656
z: -0.011652299202978611
visibility: 0.9998264908790588
","x: 169.55618286132812
y: 236.7238006591797
z: -0.0747738853096962
visibility: 0.9996064305305481
","x: 212.4466552734375
y: 330.784912109375
z: 0.062075406312942505
visibility: 0.984550416469574
","x: 145.91348266601562
y: 276.7539367675781
z: -0.2249755561351776
visibility: 0.9736002087593079
","x: 237.07955932617188
y: 358.5290222167969
z: -0.04037565737962723
visibility: 0.966150164604187
","x: 176.00924682617188
y: 258.78179931640625
z: -0.4816810190677643
visibility: 0.9830525517463684
","x: 243.24929809570312
y: 367.73028564453125
z: -0.05876981094479561
visibility: 0.9228531122207642
","x: 183.4200439453125
y: 258.99029541015625
z: -0.534595787525177
visibility: 0.9627858996391296
","x: 243.89772033691406
y: 364.362060546875
z: -0.09521058201789856
visibility: 0.9181973338127136
","x: 185.32615661621094
y: 253.1558074951172
z: -0.5277541875839233
visibility: 0.959123432636261
","x: 241.79669189453125
y: 361.0624694824219
z: -0.057668887078762054
visibility: 0.8869240283966064
","x: 183.55316162109375
y: 253.09414672851562
z: -0.48446518182754517
visibility: 0.9390337467193604
","x: 183.80316162109375
y: 372.5604248046875
z: 0.002452653367072344
visibility: 0.9987164735794067
","x: 160.50035095214844
y: 369.04583740234375
z: -0.0025058852043002844
visibility: 0.9990377426147461
","x: 183.09152221679688
y: 463.40753173828125
z: -0.041624899953603745
visibility: 0.9968334436416626
","x: 166.69020080566406
y: 462.7491760253906
z: 0.004099523648619652
visibility: 0.9904672503471375
","x: 201.39434814453125
y: 541.830810546875
z: 0.1588548719882965
visibility: 0.9938443303108215
","x: 175.28514099121094
y: 545.8046875
z: 0.203398197889328
visibility: 0.9919582605361938
","x: 202.85829162597656
y: 550.8424072265625
z: 0.17128758132457733
visibility: 0.8317060470581055
","x: 179.226806640625
y: 557.2755737304688
z: 0.21796104311943054
visibility: 0.9307831525802612
","x: 202.34454345703125
y: 568.4448852539062
z: 0.03597239404916763
visibility: 0.9895540475845337
","x: 169.26220703125
y: 573.3504028320312
z: 0.09338236600160599
visibility: 0.9874213337898254
",,,,,,,,,,,,,,,,,,,,,,,,,,,,,,,,,,,,,,,,,,
9,"x: 197.5225830078125
y: 220.70535278320312
z: -0.1531282514333725
visibility: 0.9997081160545349
","x: 200.6035614013672
y: 215.09156799316406
z: -0.12931039929389954
visibility: 0.9991447329521179
","x: 201.51806640625
y: 215.90760803222656
z: -0.129344642162323
visibility: 0.999191403388977
","x: 202.39646911621094
y: 216.58322143554688
z: -0.12938866019248962
visibility: 0.9990311861038208
","x: 197.43350219726562
y: 211.2236785888672
z: -0.13527265191078186
visibility: 0.999335527420044
","x: 196.1521453857422
y: 209.5250244140625
z: -0.13524967432022095
visibility: 0.999371349811554
","x: 194.82620239257812
y: 207.8672637939453
z: -0.13519665598869324
visibility: 0.9994107484817505
","x: 201.9605255126953
y: 217.24351501464844
z: -0.0037071784026920795
visibility: 0.9993026256561279
","x: 190.0095672607422
y: 206.78216552734375
z: -0.031140923500061035
visibility: 0.998618483543396
","x: 197.9608612060547
y: 227.96533203125
z: -0.10565125942230225
visibility: 0.9994187355041504
","x: 193.0017852783203
y: 223.20005798339844
z: -0.1139974445104599
visibility: 0.9993817806243896
","x: 207.8504638671875
y: 264.78302001953125
z: 0.045909155160188675
visibility: 0.9998428821563721
","x: 167.80897521972656
y: 236.84292602539062
z: 0.019490191712975502
visibility: 0.9996218681335449
","x: 214.95608520507812
y: 317.6065673828125
z: 0.016724253073334694
visibility: 0.9849575757980347
","x: 143.27978515625
y: 268.7232360839844
z: -0.16819919645786285
visibility: 0.9756256341934204
","x: 230.5643768310547
y: 350.638916015625
z: -0.16802993416786194
visibility: 0.968967616558075
","x: 176.9886932373047
y: 249.78604125976562
z: -0.4541555941104889
visibility: 0.9842029213905334
","x: 233.5023651123047
y: 360.7496337890625
z: -0.20984038710594177
visibility: 0.929225504398346
","x: 183.51402282714844
y: 249.5515594482422
z: -0.4770832657814026
visibility: 0.9648826122283936
","x: 233.00552368164062
y: 357.6941223144531
z: -0.23796026408672333
visibility: 0.9251377582550049
","x: 185.6741180419922
y: 248.84063720703125
z: -0.48322683572769165
visibility: 0.961519181728363
","x: 231.71817016601562
y: 354.1018371582031
z: -0.18415404856204987
visibility: 0.8964723348617554
","x: 184.032958984375
y: 249.67510986328125
z: -0.4575287699699402
visibility: 0.9426741600036621
","x: 186.85572814941406
y: 370.79656982421875
z: -0.003367165569216013
visibility: 0.9987967014312744
","x: 162.94747924804688
y: 368.1670837402344
z: 0.0033811130560934544
visibility: 0.9990605115890503
","x: 184.84124755859375
y: 460.830322265625
z: -0.04880509153008461
visibility: 0.9967650771141052
","x: 168.2308349609375
y: 459.14129638671875
z: -0.01665005460381508
visibility: 0.9900901913642883
","x: 198.19528198242188
y: 539.8114624023438
z: 0.12599506974220276
visibility: 0.9935702085494995
","x: 175.4550323486328
y: 545.583984375
z: 0.13092128932476044
visibility: 0.9911706447601318
","x: 199.13143920898438
y: 549.56298828125
z: 0.1361357718706131
visibility: 0.8264161944389343
","x: 179.27220153808594
y: 556.7109985351562
z: 0.13939544558525085
visibility: 0.924419105052948
","x: 197.17247009277344
y: 567.9010620117188
z: -0.013841599225997925
visibility: 0.989172637462616
","x: 171.10015869140625
y: 572.94970703125
z: 0.01140708476305008
visibility: 0.9867420196533203
","x: 177.93621826171875
y: 246.91697692871094
z: 0.0
","x: 181.92654418945312
y: 247.5206298828125
z: 0.00460562389343977
","x: 185.74154663085938
y: 249.45249938964844
z: 0.005866386462002993
","x: 188.1802978515625
y: 252.6649169921875
z: 0.005487116985023022
","x: 189.45762634277344
y: 255.645751953125
z: 0.005063542630523443
","x: 188.34368896484375
y: 248.98135375976562
z: 0.004247555509209633
","x: 191.73304748535156
y: 256.3307800292969
z: 0.0030491903889924288
","x: 192.35040283203125
y: 261.64453125
z: 0.002407829277217388
","x: 192.25917053222656
y: 265.7417297363281
z: 0.0021746275015175343
","x: 188.38946533203125
y: 250.2643585205078
z: 0.0003657412307802588
","x: 191.84303283691406
y: 256.963623046875
z: -0.0008024475537240505
","x: 192.50901794433594
y: 262.3658752441406
z: -0.001015329034999013
","x: 192.50270080566406
y: 266.66473388671875
z: -0.001205834443680942
","x: 187.75926208496094
y: 252.14768981933594
z: -0.0034637711942195892
","x: 191.11190795898438
y: 258.5865173339844
z: -0.004515204578638077
","x: 191.77015686035156
y: 263.6401672363281
z: -0.003961824346333742
","x: 191.78578186035156
y: 267.7135314941406
z: -0.003703885246068239
","x: 186.61428833007812
y: 254.86021423339844
z: -0.007177353836596012
","x: 189.142333984375
y: 260.3777160644531
z: -0.008028515614569187
","x: 190.0340118408203
y: 264.34906005859375
z: -0.007481470238417387
","x: 190.38392639160156
y: 267.75592041015625
z: -0.0070358384400606155
",,,,,,,,,,,,,,,,,,,,,
10,"x: 197.5225830078125
y: 220.70535278320312
z: -0.1531282514333725
visibility: 0.9997081160545349
","x: 200.6035614013672
y: 215.09156799316406
z: -0.12931039929389954
visibility: 0.9991447329521179
","x: 201.51806640625
y: 215.90760803222656
z: -0.129344642162323
visibility: 0.999191403388977
","x: 202.39646911621094
y: 216.58322143554688
z: -0.12938866019248962
visibility: 0.9990311861038208
","x: 197.43350219726562
y: 211.2236785888672
z: -0.13527265191078186
visibility: 0.999335527420044
","x: 196.1521453857422
y: 209.5250244140625
z: -0.13524967432022095
visibility: 0.999371349811554
","x: 194.82620239257812
y: 207.8672637939453
z: -0.13519665598869324
visibility: 0.9994107484817505
","x: 201.9605255126953
y: 217.24351501464844
z: -0.0037071784026920795
visibility: 0.9993026256561279
","x: 190.0095672607422
y: 206.78216552734375
z: -0.031140923500061035
visibility: 0.998618483543396
","x: 197.9608612060547
y: 227.96533203125
z: -0.10565125942230225
visibility: 0.9994187355041504
","x: 193.0017852783203
y: 223.20005798339844
z: -0.1139974445104599
visibility: 0.9993817806243896
","x: 207.8504638671875
y: 264.78302001953125
z: 0.045909155160188675
visibility: 0.9998428821563721
","x: 167.80897521972656
y: 236.84292602539062
z: 0.019490191712975502
visibility: 0.9996218681335449
","x: 214.95608520507812
y: 317.6065673828125
z: 0.016724253073334694
visibility: 0.9849575757980347
","x: 143.27978515625
y: 268.7232360839844
z: -0.16819919645786285
visibility: 0.9756256341934204
","x: 230.5643768310547
y: 350.638916015625
z: -0.16802993416786194
visibility: 0.968967616558075
","x: 176.9886932373047
y: 249.78604125976562
z: -0.4541555941104889
visibility: 0.9842029213905334
","x: 233.5023651123047
y: 360.7496337890625
z: -0.20984038710594177
visibility: 0.929225504398346
","x: 183.51402282714844
y: 249.5515594482422
z: -0.4770832657814026
visibility: 0.9648826122283936
","x: 233.00552368164062
y: 357.6941223144531
z: -0.23796026408672333
visibility: 0.9251377582550049
","x: 185.6741180419922
y: 248.84063720703125
z: -0.48322683572769165
visibility: 0.961519181728363
","x: 231.71817016601562
y: 354.1018371582031
z: -0.18415404856204987
visibility: 0.8964723348617554
","x: 184.032958984375
y: 249.67510986328125
z: -0.4575287699699402
visibility: 0.9426741600036621
","x: 186.85572814941406
y: 370.79656982421875
z: -0.003367165569216013
visibility: 0.9987967014312744
","x: 162.94747924804688
y: 368.1670837402344
z: 0.0033811130560934544
visibility: 0.9990605115890503
","x: 184.84124755859375
y: 460.830322265625
z: -0.04880509153008461
visibility: 0.9967650771141052
","x: 168.2308349609375
y: 459.14129638671875
z: -0.01665005460381508
visibility: 0.9900901913642883
","x: 198.19528198242188
y: 539.8114624023438
z: 0.12599506974220276
visibility: 0.9935702085494995
","x: 175.4550323486328
y: 545.583984375
z: 0.13092128932476044
visibility: 0.9911706447601318
","x: 199.13143920898438
y: 549.56298828125
z: 0.1361357718706131
visibility: 0.8264161944389343
","x: 179.27220153808594
y: 556.7109985351562
z: 0.13939544558525085
visibility: 0.924419105052948
","x: 197.17247009277344
y: 567.9010620117188
z: -0.013841599225997925
visibility: 0.989172637462616
","x: 171.10015869140625
y: 572.94970703125
z: 0.01140708476305008
visibility: 0.9867420196533203
","x: 177.93621826171875
y: 246.91697692871094
z: 0.0
","x: 181.92654418945312
y: 247.5206298828125
z: 0.00460562389343977
","x: 185.74154663085938
y: 249.45249938964844
z: 0.005866386462002993
","x: 188.1802978515625
y: 252.6649169921875
z: 0.005487116985023022
","x: 189.45762634277344
y: 255.645751953125
z: 0.005063542630523443
","x: 188.34368896484375
y: 248.98135375976562
z: 0.004247555509209633
","x: 191.73304748535156
y: 256.3307800292969
z: 0.0030491903889924288
","x: 192.35040283203125
y: 261.64453125
z: 0.002407829277217388
","x: 192.25917053222656
y: 265.7417297363281
z: 0.0021746275015175343
","x: 188.38946533203125
y: 250.2643585205078
z: 0.0003657412307802588
","x: 191.84303283691406
y: 256.963623046875
z: -0.0008024475537240505
","x: 192.50901794433594
y: 262.3658752441406
z: -0.001015329034999013
","x: 192.50270080566406
y: 266.66473388671875
z: -0.001205834443680942
","x: 187.75926208496094
y: 252.14768981933594
z: -0.0034637711942195892
","x: 191.11190795898438
y: 258.5865173339844
z: -0.004515204578638077
","x: 191.77015686035156
y: 263.6401672363281
z: -0.003961824346333742
","x: 191.78578186035156
y: 267.7135314941406
z: -0.003703885246068239
","x: 186.61428833007812
y: 254.86021423339844
z: -0.007177353836596012
","x: 189.142333984375
y: 260.3777160644531
z: -0.008028515614569187
","x: 190.0340118408203
y: 264.34906005859375
z: -0.007481470238417387
","x: 190.38392639160156
y: 267.75592041015625
z: -0.0070358384400606155
",,,,,,,,,,,,,,,,,,,,,
11,"x: 195.39797973632812
y: 219.26513671875
z: -0.15303334593772888
visibility: 0.9997342228889465
","x: 198.38702392578125
y: 213.71031188964844
z: -0.12946060299873352
visibility: 0.9992239475250244
","x: 199.36756896972656
y: 214.3155517578125
z: -0.12948280572891235
visibility: 0.9992654323577881
","x: 200.30877685546875
y: 214.81886291503906
z: -0.12951184809207916
visibility: 0.9991208910942078
","x: 194.71913146972656
y: 210.5928192138672
z: -0.13685885071754456
visibility: 0.9993953704833984
","x: 193.2529754638672
y: 209.18917846679688
z: -0.13684701919555664
visibility: 0.9994270205497742
","x: 191.66407775878906
y: 207.73040771484375
z: -0.1367889940738678
visibility: 0.9994615316390991
","x: 200.52273559570312
y: 216.06712341308594
z: 0.004575691185891628
visibility: 0.9993659257888794
","x: 187.2874755859375
y: 206.38458251953125
z: -0.03057573176920414
visibility: 0.9987486600875854
","x: 196.32142639160156
y: 226.63946533203125
z: -0.10162188112735748
visibility: 0.9994727969169617
","x: 190.8397979736328
y: 222.9509735107422
z: -0.1119932159781456
visibility: 0.9994401335716248
","x: 207.7559051513672
y: 260.2123107910156
z: 0.06499818712472916
visibility: 0.999858021736145
","x: 166.77769470214844
y: 235.80242919921875
z: 0.009868080727756023
visibility: 0.9996504783630371
","x: 218.63235473632812
y: 301.72528076171875
z: 0.028433650732040405
visibility: 0.9860072135925293
","x: 142.3474884033203
y: 259.64276123046875
z: -0.17361053824424744
visibility: 0.9778851866722107
","x: 228.93658447265625
y: 346.3194274902344
z: -0.15420274436473846
visibility: 0.9718112945556641
","x: 175.61279296875
y: 244.6231689453125
z: -0.4127458930015564
visibility: 0.985453188419342
","x: 232.98316955566406
y: 359.176025390625
z: -0.1832064688205719
visibility: 0.935488760471344
","x: 182.64881896972656
y: 248.89920043945312
z: -0.46130794286727905
visibility: 0.9672459363937378
","x: 226.217041015625
y: 356.3757019042969
z: -0.20678341388702393
visibility: 0.9318580627441406
","x: 185.35731506347656
y: 248.27694702148438
z: -0.4551936686038971
visibility: 0.9641296863555908
","x: 224.21669006347656
y: 353.02008056640625
z: -0.16378402709960938
visibility: 0.905684769153595
","x: 183.51690673828125
y: 248.05288696289062
z: -0.4149063229560852
visibility: 0.9465035796165466
","x: 189.73976135253906
y: 369.8092041015625
z: 0.005505579989403486
visibility: 0.998894989490509
","x: 165.30337524414062
y: 367.222412109375
z: -0.005345194600522518
visibility: 0.9991270899772644
","x: 189.9910888671875
y: 461.00897216796875
z: -0.02582472562789917
visibility: 0.9967165589332581
","x: 169.5706329345703
y: 459.1446533203125
z: -0.010081208311021328
visibility: 0.9902756214141846
","x: 194.9623260498047
y: 542.6093139648438
z: 0.12154491990804672
visibility: 0.9933401942253113
","x: 175.4867401123047
y: 545.71875
z: 0.12964175641536713
visibility: 0.9910898804664612
","x: 193.0940704345703
y: 554.4569702148438
z: 0.12995105981826782
visibility: 0.8359277844429016
","x: 179.2961883544922
y: 557.0162353515625
z: 0.13600879907608032
visibility: 0.922964870929718
","x: 196.9439239501953
y: 568.5023803710938
z: -0.01358079630881548
visibility: 0.9890598058700562
","x: 171.22752380371094
y: 572.655029296875
z: 0.002591326367110014
visibility: 0.9867316484451294
","x: 177.12550354003906
y: 243.43408203125
z: 0.0
","x: 180.28567504882812
y: 245.00131225585938
z: 0.005067935213446617
","x: 183.61248779296875
y: 247.84844970703125
z: 0.006490669678896666
","x: 185.6052703857422
y: 251.04861450195312
z: 0.006277348380535841
","x: 186.73971557617188
y: 253.73614501953125
z: 0.0059347571805119514
","x: 186.8241424560547
y: 247.12294006347656
z: 0.0037587156984955072
","x: 190.08871459960938
y: 254.32456970214844
z: 0.0027264952659606934
","x: 190.38148498535156
y: 259.398193359375
z: 0.002357074059545994
","x: 189.833740234375
y: 262.8245544433594
z: 0.0023141130805015564
","x: 186.83998107910156
y: 248.08233642578125
z: -0.00017822049267124385
","x: 190.05682373046875
y: 255.45066833496094
z: -0.0012264699907973409
","x: 190.411865234375
y: 260.68084716796875
z: -0.0011047647567465901
","x: 190.02099609375
y: 264.19012451171875
z: -0.0010108714923262596
","x: 186.1512451171875
y: 249.67868041992188
z: -0.003916800022125244
","x: 189.19386291503906
y: 256.7828369140625
z: -0.004893253557384014
","x: 189.582763671875
y: 261.6690368652344
z: -0.004018784034997225
","x: 189.2027587890625
y: 265.1748962402344
z: -0.00350151932798326
","x: 184.91246032714844
y: 252.02499389648438
z: -0.007463385816663504
","x: 187.26132202148438
y: 257.9893798828125
z: -0.00841997005045414
","x: 187.92356872558594
y: 261.9037170410156
z: -0.0077479565516114235
","x: 187.94024658203125
y: 265.0325622558594
z: -0.007125131785869598
",,,,,,,,,,,,,,,,,,,,,
12,"x: 195.39797973632812
y: 219.26513671875
z: -0.15303334593772888
visibility: 0.9997342228889465
","x: 198.38702392578125
y: 213.71031188964844
z: -0.12946060299873352
visibility: 0.9992239475250244
","x: 199.36756896972656
y: 214.3155517578125
z: -0.12948280572891235
visibility: 0.9992654323577881
","x: 200.30877685546875
y: 214.81886291503906
z: -0.12951184809207916
visibility: 0.9991208910942078
","x: 194.71913146972656
y: 210.5928192138672
z: -0.13685885071754456
visibility: 0.9993953704833984
","x: 193.2529754638672
y: 209.18917846679688
z: -0.13684701919555664
visibility: 0.9994270205497742
","x: 191.66407775878906
y: 207.73040771484375
z: -0.1367889940738678
visibility: 0.9994615316390991
","x: 200.52273559570312
y: 216.06712341308594
z: 0.004575691185891628
visibility: 0.9993659257888794
","x: 187.2874755859375
y: 206.38458251953125
z: -0.03057573176920414
visibility: 0.9987486600875854
","x: 196.32142639160156
y: 226.63946533203125
z: -0.10162188112735748
visibility: 0.9994727969169617
","x: 190.8397979736328
y: 222.9509735107422
z: -0.1119932159781456
visibility: 0.9994401335716248
","x: 207.7559051513672
y: 260.2123107910156
z: 0.06499818712472916
visibility: 0.999858021736145
","x: 166.77769470214844
y: 235.80242919921875
z: 0.009868080727756023
visibility: 0.9996504783630371
","x: 218.63235473632812
y: 301.72528076171875
z: 0.028433650732040405
visibility: 0.9860072135925293
","x: 142.3474884033203
y: 259.64276123046875
z: -0.17361053824424744
visibility: 0.9778851866722107
","x: 228.93658447265625
y: 346.3194274902344
z: -0.15420274436473846
visibility: 0.9718112945556641
","x: 175.61279296875
y: 244.6231689453125
z: -0.4127458930015564
visibility: 0.985453188419342
","x: 232.98316955566406
y: 359.176025390625
z: -0.1832064688205719
visibility: 0.935488760471344
","x: 182.64881896972656
y: 248.89920043945312
z: -0.46130794286727905
visibility: 0.9672459363937378
","x: 226.217041015625
y: 356.3757019042969
z: -0.20678341388702393
visibility: 0.9318580627441406
","x: 185.35731506347656
y: 248.27694702148438
z: -0.4551936686038971
visibility: 0.9641296863555908
","x: 224.21669006347656
y: 353.02008056640625
z: -0.16378402709960938
visibility: 0.905684769153595
","x: 183.51690673828125
y: 248.05288696289062
z: -0.4149063229560852
visibility: 0.9465035796165466
","x: 189.73976135253906
y: 369.8092041015625
z: 0.005505579989403486
visibility: 0.998894989490509
","x: 165.30337524414062
y: 367.222412109375
z: -0.005345194600522518
visibility: 0.9991270899772644
","x: 189.9910888671875
y: 461.00897216796875
z: -0.02582472562789917
visibility: 0.9967165589332581
","x: 169.5706329345703
y: 459.1446533203125
z: -0.010081208311021328
visibility: 0.9902756214141846
","x: 194.9623260498047
y: 542.6093139648438
z: 0.12154491990804672
visibility: 0.9933401942253113
","x: 175.4867401123047
y: 545.71875
z: 0.12964175641536713
visibility: 0.9910898804664612
","x: 193.0940704345703
y: 554.4569702148438
z: 0.12995105981826782
visibility: 0.8359277844429016
","x: 179.2961883544922
y: 557.0162353515625
z: 0.13600879907608032
visibility: 0.922964870929718
","x: 196.9439239501953
y: 568.5023803710938
z: -0.01358079630881548
visibility: 0.9890598058700562
","x: 171.22752380371094
y: 572.655029296875
z: 0.002591326367110014
visibility: 0.9867316484451294
","x: 177.12550354003906
y: 243.43408203125
z: 0.0
","x: 180.28567504882812
y: 245.00131225585938
z: 0.005067935213446617
","x: 183.61248779296875
y: 247.84844970703125
z: 0.006490669678896666
","x: 185.6052703857422
y: 251.04861450195312
z: 0.006277348380535841
","x: 186.73971557617188
y: 253.73614501953125
z: 0.0059347571805119514
","x: 186.8241424560547
y: 247.12294006347656
z: 0.0037587156984955072
","x: 190.08871459960938
y: 254.32456970214844
z: 0.0027264952659606934
","x: 190.38148498535156
y: 259.398193359375
z: 0.002357074059545994
","x: 189.833740234375
y: 262.8245544433594
z: 0.0023141130805015564
","x: 186.83998107910156
y: 248.08233642578125
z: -0.00017822049267124385
","x: 190.05682373046875
y: 255.45066833496094
z: -0.0012264699907973409
","x: 190.411865234375
y: 260.68084716796875
z: -0.0011047647567465901
","x: 190.02099609375
y: 264.19012451171875
z: -0.0010108714923262596
","x: 186.1512451171875
y: 249.67868041992188
z: -0.003916800022125244
","x: 189.19386291503906
y: 256.7828369140625
z: -0.004893253557384014
","x: 189.582763671875
y: 261.6690368652344
z: -0.004018784034997225
","x: 189.2027587890625
y: 265.1748962402344
z: -0.00350151932798326
","x: 184.91246032714844
y: 252.02499389648438
z: -0.007463385816663504
","x: 187.26132202148438
y: 257.9893798828125
z: -0.00841997005045414
","x: 187.92356872558594
y: 261.9037170410156
z: -0.0077479565516114235
","x: 187.94024658203125
y: 265.0325622558594
z: -0.007125131785869598
",,,,,,,,,,,,,,,,,,,,,
13,"x: 195.57582092285156
y: 214.66928100585938
z: -0.21856136620044708
visibility: 0.9997583031654358
","x: 198.00582885742188
y: 208.72418212890625
z: -0.196086123585701
visibility: 0.999294638633728
","x: 198.96522521972656
y: 209.34185791015625
z: -0.19606363773345947
visibility: 0.9993301033973694
","x: 199.8968963623047
y: 209.95399475097656
z: -0.19604504108428955
visibility: 0.9991998076438904
","x: 194.4517364501953
y: 206.18832397460938
z: -0.20660419762134552
visibility: 0.9994498491287231
","x: 192.8263397216797
y: 205.12396240234375
z: -0.20658381283283234
visibility: 0.9994780421257019
","x: 191.19227600097656
y: 204.10154724121094
z: -0.20655854046344757
visibility: 0.9995087385177612
","x: 199.94387817382812
y: 212.04656982421875
z: -0.056303344666957855
visibility: 0.999418318271637
","x: 186.08628845214844
y: 204.3998565673828
z: -0.10824491828680038
visibility: 0.998866081237793
","x: 196.51123046875
y: 222.13502502441406
z: -0.16537758708000183
visibility: 0.9995222091674805
","x: 191.3157958984375
y: 219.50900268554688
z: -0.1799256056547165
visibility: 0.9994937777519226
","x: 208.1142120361328
y: 254.84117126464844
z: 0.043699271976947784
visibility: 0.9998708367347717
","x: 167.0137176513672
y: 234.77394104003906
z: -0.06909632682800293
visibility: 0.9996771216392517
","x: 220.26390075683594
y: 296.80633544921875
z: 0.027329569682478905
visibility: 0.9866881966590881
","x: 143.93922424316406
y: 258.16558837890625
z: -0.23790684342384338
visibility: 0.9799641370773315
","x: 225.6060333251953
y: 344.4167785644531
z: -0.08810663968324661
visibility: 0.9741166234016418
","x: 175.7884521484375
y: 247.13357543945312
z: -0.4478377401828766
visibility: 0.9866815209388733
","x: 229.3768768310547
y: 359.52508544921875
z: -0.11644656956195831
visibility: 0.9404408931732178
","x: 182.53802490234375
y: 249.46405029296875
z: -0.4985233247280121
visibility: 0.9697120189666748
","x: 221.597412109375
y: 356.92645263671875
z: -0.1439201533794403
visibility: 0.9372044205665588
","x: 185.84844970703125
y: 249.9825897216797
z: -0.49044284224510193
visibility: 0.9668190479278564
","x: 219.0313720703125
y: 352.545166015625
z: -0.10040704905986786
visibility: 0.9131158590316772
","x: 184.2736053466797
y: 249.04998779296875
z: -0.4483320116996765
visibility: 0.9503995776176453
","x: 192.63619995117188
y: 369.4378662109375
z: 0.010524719953536987
visibility: 0.9989892840385437
","x: 167.7297821044922
y: 367.19708251953125
z: -0.010483010672032833
visibility: 0.9991922378540039
","x: 193.01406860351562
y: 462.0895080566406
z: -0.011862775310873985
visibility: 0.9968706965446472
","x: 170.36558532714844
y: 459.1606140136719
z: 0.010377975180745125
visibility: 0.9907026290893555
","x: 194.0827178955078
y: 544.5750122070312
z: 0.1547604501247406
visibility: 0.9936054944992065
","x: 175.43482971191406
y: 545.0875244140625
z: 0.18775993585586548
visibility: 0.9914031624794006
","x: 190.98388671875
y: 556.3912353515625
z: 0.16369202733039856
visibility: 0.8471365571022034
","x: 179.30154418945312
y: 556.515380859375
z: 0.19823835790157318
visibility: 0.9229300022125244
","x: 197.10452270507812
y: 569.8631591796875
z: 0.024702658876776695
visibility: 0.9895943403244019
","x: 170.70602416992188
y: 572.5989379882812
z: 0.06697504222393036
visibility: 0.9873164892196655
","x: 176.85655212402344
y: 247.8621063232422
z: 0.0
","x: 179.04541015625
y: 251.6367950439453
z: 0.0022634617052972317
","x: 182.2584686279297
y: 252.72413635253906
z: 0.0023606137838214636
","x: 184.63975524902344
y: 253.83010864257812
z: 0.0011568357003852725
","x: 186.40716552734375
y: 255.14852905273438
z: 3.2001942599890754e-05
","x: 186.42381286621094
y: 250.986083984375
z: 0.002937128534540534
","x: 189.4666748046875
y: 256.8551025390625
z: 0.00015569785318803042
","x: 189.7378692626953
y: 262.82843017578125
z: -0.0021255873143672943
","x: 189.1230926513672
y: 267.7230224609375
z: -0.0033228700049221516
","x: 186.60018920898438
y: 250.90057373046875
z: -8.795558096608147e-05
","x: 189.87628173828125
y: 257.8057861328125
z: -0.0034396671690046787
","x: 190.34945678710938
y: 264.72296142578125
z: -0.005936803761869669
","x: 189.89353942871094
y: 270.1871337890625
z: -0.007360810413956642
","x: 186.5321044921875
y: 251.2749481201172
z: -0.003311419626697898
","x: 189.57330322265625
y: 257.9903259277344
z: -0.00598908169195056
","x: 189.60263061523438
y: 264.650390625
z: -0.006966226268559694
","x: 188.6410369873047
y: 269.75360107421875
z: -0.007417349610477686
","x: 185.99520874023438
y: 252.31967163085938
z: -0.006591941695660353
","x: 188.68409729003906
y: 256.9258117675781
z: -0.008330619893968105
","x: 189.0522003173828
y: 261.50421142578125
z: -0.00853998027741909
","x: 188.46095275878906
y: 265.4215087890625
z: -0.008545562624931335
",,,,,,,,,,,,,,,,,,,,,
14,"x: 195.57582092285156
y: 214.66928100585938
z: -0.21856136620044708
visibility: 0.9997583031654358
","x: 198.00582885742188
y: 208.72418212890625
z: -0.196086123585701
visibility: 0.999294638633728
","x: 198.96522521972656
y: 209.34185791015625
z: -0.19606363773345947
visibility: 0.9993301033973694
","x: 199.8968963623047
y: 209.95399475097656
z: -0.19604504108428955
visibility: 0.9991998076438904
","x: 194.4517364501953
y: 206.18832397460938
z: -0.20660419762134552
visibility: 0.9994498491287231
","x: 192.8263397216797
y: 205.12396240234375
z: -0.20658381283283234
visibility: 0.9994780421257019
","x: 191.19227600097656
y: 204.10154724121094
z: -0.20655854046344757
visibility: 0.9995087385177612
","x: 199.94387817382812
y: 212.04656982421875
z: -0.056303344666957855
visibility: 0.999418318271637
","x: 186.08628845214844
y: 204.3998565673828
z: -0.10824491828680038
visibility: 0.998866081237793
","x: 196.51123046875
y: 222.13502502441406
z: -0.16537758708000183
visibility: 0.9995222091674805
","x: 191.3157958984375
y: 219.50900268554688
z: -0.1799256056547165
visibility: 0.9994937777519226
","x: 208.1142120361328
y: 254.84117126464844
z: 0.043699271976947784
visibility: 0.9998708367347717
","x: 167.0137176513672
y: 234.77394104003906
z: -0.06909632682800293
visibility: 0.9996771216392517
","x: 220.26390075683594
y: 296.80633544921875
z: 0.027329569682478905
visibility: 0.9866881966590881
","x: 143.93922424316406
y: 258.16558837890625
z: -0.23790684342384338
visibility: 0.9799641370773315
","x: 225.6060333251953
y: 344.4167785644531
z: -0.08810663968324661
visibility: 0.9741166234016418
","x: 175.7884521484375
y: 247.13357543945312
z: -0.4478377401828766
visibility: 0.9866815209388733
","x: 229.3768768310547
y: 359.52508544921875
z: -0.11644656956195831
visibility: 0.9404408931732178
","x: 182.53802490234375
y: 249.46405029296875
z: -0.4985233247280121
visibility: 0.9697120189666748
","x: 221.597412109375
y: 356.92645263671875
z: -0.1439201533794403
visibility: 0.9372044205665588
","x: 185.84844970703125
y: 249.9825897216797
z: -0.49044284224510193
visibility: 0.9668190479278564
","x: 219.0313720703125
y: 352.545166015625
z: -0.10040704905986786
visibility: 0.9131158590316772
","x: 184.2736053466797
y: 249.04998779296875
z: -0.4483320116996765
visibility: 0.9503995776176453
","x: 192.63619995117188
y: 369.4378662109375
z: 0.010524719953536987
visibility: 0.9989892840385437
","x: 167.7297821044922
y: 367.19708251953125
z: -0.010483010672032833
visibility: 0.9991922378540039
","x: 193.01406860351562
y: 462.0895080566406
z: -0.011862775310873985
visibility: 0.9968706965446472
","x: 170.36558532714844
y: 459.1606140136719
z: 0.010377975180745125
visibility: 0.9907026290893555
","x: 194.0827178955078
y: 544.5750122070312
z: 0.1547604501247406
visibility: 0.9936054944992065
","x: 175.43482971191406
y: 545.0875244140625
z: 0.18775993585586548
visibility: 0.9914031624794006
","x: 190.98388671875
y: 556.3912353515625
z: 0.16369202733039856
visibility: 0.8471365571022034
","x: 179.30154418945312
y: 556.515380859375
z: 0.19823835790157318
visibility: 0.9229300022125244
","x: 197.10452270507812
y: 569.8631591796875
z: 0.024702658876776695
visibility: 0.9895943403244019
","x: 170.70602416992188
y: 572.5989379882812
z: 0.06697504222393036
visibility: 0.9873164892196655
","x: 176.85655212402344
y: 247.8621063232422
z: 0.0
","x: 179.04541015625
y: 251.6367950439453
z: 0.0022634617052972317
","x: 182.2584686279297
y: 252.72413635253906
z: 0.0023606137838214636
","x: 184.63975524902344
y: 253.83010864257812
z: 0.0011568357003852725
","x: 186.40716552734375
y: 255.14852905273438
z: 3.2001942599890754e-05
","x: 186.42381286621094
y: 250.986083984375
z: 0.002937128534540534
","x: 189.4666748046875
y: 256.8551025390625
z: 0.00015569785318803042
","x: 189.7378692626953
y: 262.82843017578125
z: -0.0021255873143672943
","x: 189.1230926513672
y: 267.7230224609375
z: -0.0033228700049221516
","x: 186.60018920898438
y: 250.90057373046875
z: -8.795558096608147e-05
","x: 189.87628173828125
y: 257.8057861328125
z: -0.0034396671690046787
","x: 190.34945678710938
y: 264.72296142578125
z: -0.005936803761869669
","x: 189.89353942871094
y: 270.1871337890625
z: -0.007360810413956642
","x: 186.5321044921875
y: 251.2749481201172
z: -0.003311419626697898
","x: 189.57330322265625
y: 257.9903259277344
z: -0.00598908169195056
","x: 189.60263061523438
y: 264.650390625
z: -0.006966226268559694
","x: 188.6410369873047
y: 269.75360107421875
z: -0.007417349610477686
","x: 185.99520874023438
y: 252.31967163085938
z: -0.006591941695660353
","x: 188.68409729003906
y: 256.9258117675781
z: -0.008330619893968105
","x: 189.0522003173828
y: 261.50421142578125
z: -0.00853998027741909
","x: 188.46095275878906
y: 265.4215087890625
z: -0.008545562624931335
",,,,,,,,,,,,,,,,,,,,,
15,"x: 194.44033813476562
y: 212.27239990234375
z: -0.22906915843486786
visibility: 0.9997819662094116
","x: 197.05563354492188
y: 206.06494140625
z: -0.20931825041770935
visibility: 0.9993637204170227
","x: 198.14859008789062
y: 206.80726623535156
z: -0.20929212868213654
visibility: 0.9993952512741089
","x: 199.2742919921875
y: 207.55677795410156
z: -0.2092568427324295
visibility: 0.999277651309967
","x: 193.3179473876953
y: 203.24151611328125
z: -0.2160884588956833
visibility: 0.9995034337043762
","x: 191.6509552001953
y: 202.09783935546875
z: -0.21607382595539093
visibility: 0.9995287656784058
","x: 189.9835662841797
y: 201.0440216064453
z: -0.21605512499809265
visibility: 0.9995562434196472
","x: 199.91485595703125
y: 209.83741760253906
z: -0.07582587003707886
visibility: 0.9994741082191467
","x: 185.4453582763672
y: 201.69210815429688
z: -0.11055022478103638
visibility: 0.9989777207374573
","x: 195.6806182861328
y: 219.6334228515625
z: -0.1770736575126648
visibility: 0.9995691180229187
","x: 190.3251953125
y: 216.7648162841797
z: -0.1871068775653839
visibility: 0.9995436668395996
","x: 209.0335693359375
y: 251.97959899902344
z: 0.023519981652498245
visibility: 0.9998829364776611
","x: 166.66978454589844
y: 234.45770263671875
z: -0.06362981349229813
visibility: 0.9997057914733887
","x: 220.97015380859375
y: 299.45965576171875
z: 0.060370273888111115
visibility: 0.9872632622718811
","x: 144.47573852539062
y: 263.2254333496094
z: -0.2167988121509552
visibility: 0.9817172288894653
","x: 225.35650634765625
y: 353.7310485839844
z: -0.025047719478607178
visibility: 0.9763383269309998
","x: 174.9722137451172
y: 255.42547607421875
z: -0.43845319747924805
visibility: 0.9877715110778809
","x: 228.22772216796875
y: 369.349853515625
z: -0.04327596351504326
visibility: 0.9453080296516418
","x: 180.79702758789062
y: 263.42083740234375
z: -0.48588743805885315
visibility: 0.9719936847686768
","x: 222.9528350830078
y: 368.8639831542969
z: -0.07573742419481277
visibility: 0.9424312114715576
","x: 185.20059204101562
y: 263.71624755859375
z: -0.4817592203617096
visibility: 0.9693243503570557
","x: 220.55245971679688
y: 363.2412414550781
z: -0.038331471383571625
visibility: 0.9203689694404602
","x: 184.0689239501953
y: 261.7640075683594
z: -0.4402732849121094
visibility: 0.9540525078773499
","x: 194.13490295410156
y: 369.40478515625
z: 0.011321770027279854
visibility: 0.9990779757499695
","x: 169.03309631347656
y: 367.2013854980469
z: -0.01135585829615593
visibility: 0.9992570877075195
","x: 194.4300079345703
y: 462.54071044921875
z: -0.0013380097225308418
visibility: 0.9968616366386414
","x: 171.24681091308594
y: 459.5152282714844
z: 0.014588494785130024
visibility: 0.9909420609474182
","x: 194.27963256835938
y: 547.36669921875
z: 0.15704560279846191
visibility: 0.9935621619224548
","x: 175.5782470703125
y: 545.084716796875
z: 0.1873939484357834
visibility: 0.9915346503257751
","x: 191.35536193847656
y: 559.279296875
z: 0.16437247395515442
visibility: 0.8561528921127319
","x: 179.3175506591797
y: 556.4887084960938
z: 0.19741329550743103
visibility: 0.9227375388145447
","x: 197.75015258789062
y: 571.2882690429688
z: 0.029073679819703102
visibility: 0.9897456169128418
","x: 170.36529541015625
y: 572.524658203125
z: 0.06890736520290375
visibility: 0.9877099990844727
",,,,,,,,,,,,,,,,,,,,,,"x: 223.15701293945312
y: 357.43621826171875
z: 0.0
","x: 220.12025451660156
y: 360.24609375
z: -0.0028547500260174274
","x: 218.16070556640625
y: 364.4287109375
z: -0.0044357553124427795
","x: 218.10032653808594
y: 367.711181640625
z: -0.006048290058970451
","x: 218.64743041992188
y: 370.7232971191406
z: -0.007641694508492947
","x: 221.40623474121094
y: 373.67047119140625
z: -0.00234879064373672
","x: 222.14198303222656
y: 379.5194091796875
z: -0.004331005737185478
","x: 222.70655822753906
y: 382.21087646484375
z: -0.005470816511660814
","x: 223.3925323486328
y: 384.3703918457031
z: -0.006103490479290485
","x: 223.91761779785156
y: 373.74676513671875
z: -0.0028354076202958822
","x: 224.7313995361328
y: 380.46197509765625
z: -0.004546424839645624
","x: 225.16476440429688
y: 384.1758728027344
z: -0.005554750096052885
","x: 225.79254150390625
y: 387.42034912109375
z: -0.006335957441478968
","x: 226.187744140625
y: 372.3943786621094
z: -0.0038370087277144194
","x: 227.40106201171875
y: 378.64337158203125
z: -0.00570735102519393
","x: 227.97593688964844
y: 382.315673828125
z: -0.006863412447273731
","x: 228.49566650390625
y: 385.3265075683594
z: -0.007719875779002905
","x: 228.2655029296875
y: 369.8040466308594
z: -0.005244636908173561
","x: 229.83428955078125
y: 374.47308349609375
z: -0.006920529529452324
","x: 230.73297119140625
y: 377.5616455078125
z: -0.007919247262179852
","x: 231.44210815429688
y: 380.1879577636719
z: -0.008631092496216297
"
16,"x: 194.44033813476562
y: 212.27239990234375
z: -0.22906915843486786
visibility: 0.9997819662094116
","x: 197.05563354492188
y: 206.06494140625
z: -0.20931825041770935
visibility: 0.9993637204170227
","x: 198.14859008789062
y: 206.80726623535156
z: -0.20929212868213654
visibility: 0.9993952512741089
","x: 199.2742919921875
y: 207.55677795410156
z: -0.2092568427324295
visibility: 0.999277651309967
","x: 193.3179473876953
y: 203.24151611328125
z: -0.2160884588956833
visibility: 0.9995034337043762
","x: 191.6509552001953
y: 202.09783935546875
z: -0.21607382595539093
visibility: 0.9995287656784058
","x: 189.9835662841797
y: 201.0440216064453
z: -0.21605512499809265
visibility: 0.9995562434196472
","x: 199.91485595703125
y: 209.83741760253906
z: -0.07582587003707886
visibility: 0.9994741082191467
","x: 185.4453582763672
y: 201.69210815429688
z: -0.11055022478103638
visibility: 0.9989777207374573
","x: 195.6806182861328
y: 219.6334228515625
z: -0.1770736575126648
visibility: 0.9995691180229187
","x: 190.3251953125
y: 216.7648162841797
z: -0.1871068775653839
visibility: 0.9995436668395996
","x: 209.0335693359375
y: 251.97959899902344
z: 0.023519981652498245
visibility: 0.9998829364776611
","x: 166.66978454589844
y: 234.45770263671875
z: -0.06362981349229813
visibility: 0.9997057914733887
","x: 220.97015380859375
y: 299.45965576171875
z: 0.060370273888111115
visibility: 0.9872632622718811
","x: 144.47573852539062
y: 263.2254333496094
z: -0.2167988121509552
visibility: 0.9817172288894653
","x: 225.35650634765625
y: 353.7310485839844
z: -0.025047719478607178
visibility: 0.9763383269309998
","x: 174.9722137451172
y: 255.42547607421875
z: -0.43845319747924805
visibility: 0.9877715110778809
","x: 228.22772216796875
y: 369.349853515625
z: -0.04327596351504326
visibility: 0.9453080296516418
","x: 180.79702758789062
y: 263.42083740234375
z: -0.48588743805885315
visibility: 0.9719936847686768
","x: 222.9528350830078
y: 368.8639831542969
z: -0.07573742419481277
visibility: 0.9424312114715576
","x: 185.20059204101562
y: 263.71624755859375
z: -0.4817592203617096
visibility: 0.9693243503570557
","x: 220.55245971679688
y: 363.2412414550781
z: -0.038331471383571625
visibility: 0.9203689694404602
","x: 184.0689239501953
y: 261.7640075683594
z: -0.4402732849121094
visibility: 0.9540525078773499
","x: 194.13490295410156
y: 369.40478515625
z: 0.011321770027279854
visibility: 0.9990779757499695
","x: 169.03309631347656
y: 367.2013854980469
z: -0.01135585829615593
visibility: 0.9992570877075195
","x: 194.4300079345703
y: 462.54071044921875
z: -0.0013380097225308418
visibility: 0.9968616366386414
","x: 171.24681091308594
y: 459.5152282714844
z: 0.014588494785130024
visibility: 0.9909420609474182
","x: 194.27963256835938
y: 547.36669921875
z: 0.15704560279846191
visibility: 0.9935621619224548
","x: 175.5782470703125
y: 545.084716796875
z: 0.1873939484357834
visibility: 0.9915346503257751
","x: 191.35536193847656
y: 559.279296875
z: 0.16437247395515442
visibility: 0.8561528921127319
","x: 179.3175506591797
y: 556.4887084960938
z: 0.19741329550743103
visibility: 0.9227375388145447
","x: 197.75015258789062
y: 571.2882690429688
z: 0.029073679819703102
visibility: 0.9897456169128418
","x: 170.36529541015625
y: 572.524658203125
z: 0.06890736520290375
visibility: 0.9877099990844727
",,,,,,,,,,,,,,,,,,,,,,"x: 223.15701293945312
y: 357.43621826171875
z: 0.0
","x: 220.12025451660156
y: 360.24609375
z: -0.0028547500260174274
","x: 218.16070556640625
y: 364.4287109375
z: -0.0044357553124427795
","x: 218.10032653808594
y: 367.711181640625
z: -0.006048290058970451
","x: 218.64743041992188
y: 370.7232971191406
z: -0.007641694508492947
","x: 221.40623474121094
y: 373.67047119140625
z: -0.00234879064373672
","x: 222.14198303222656
y: 379.5194091796875
z: -0.004331005737185478
","x: 222.70655822753906
y: 382.21087646484375
z: -0.005470816511660814
","x: 223.3925323486328
y: 384.3703918457031
z: -0.006103490479290485
","x: 223.91761779785156
y: 373.74676513671875
z: -0.0028354076202958822
","x: 224.7313995361328
y: 380.46197509765625
z: -0.004546424839645624
","x: 225.16476440429688
y: 384.1758728027344
z: -0.005554750096052885
","x: 225.79254150390625
y: 387.42034912109375
z: -0.006335957441478968
","x: 226.187744140625
y: 372.3943786621094
z: -0.0038370087277144194
","x: 227.40106201171875
y: 378.64337158203125
z: -0.00570735102519393
","x: 227.97593688964844
y: 382.315673828125
z: -0.006863412447273731
","x: 228.49566650390625
y: 385.3265075683594
z: -0.007719875779002905
","x: 228.2655029296875
y: 369.8040466308594
z: -0.005244636908173561
","x: 229.83428955078125
y: 374.47308349609375
z: -0.006920529529452324
","x: 230.73297119140625
y: 377.5616455078125
z: -0.007919247262179852
","x: 231.44210815429688
y: 380.1879577636719
z: -0.008631092496216297
"
17,"x: 195.1679229736328
y: 210.7746124267578
z: -0.3402537405490875
visibility: 0.9998024702072144
","x: 197.86801147460938
y: 204.05702209472656
z: -0.32366475462913513
visibility: 0.9994227886199951
","x: 198.98350524902344
y: 204.6767578125
z: -0.32364314794540405
visibility: 0.9994504451751709
","x: 200.10992431640625
y: 205.34056091308594
z: -0.3236388564109802
visibility: 0.9993433952331543
","x: 194.16513061523438
y: 201.56961059570312
z: -0.32830163836479187
visibility: 0.9995489120483398
","x: 192.55809020996094
y: 200.43016052246094
z: -0.32832884788513184
visibility: 0.9995715618133545
","x: 190.91476440429688
y: 199.32919311523438
z: -0.3283286988735199
visibility: 0.9995956420898438
","x: 200.8688507080078
y: 208.18563842773438
z: -0.1929563283920288
visibility: 0.9995188117027283
","x: 186.4786376953125
y: 200.25668334960938
z: -0.21832749247550964
visibility: 0.9990742802619934
","x: 196.31822204589844
y: 218.54412841796875
z: -0.2882612347602844
visibility: 0.9996098875999451
","x: 191.39471435546875
y: 215.72412109375
z: -0.29593339562416077
visibility: 0.9995877742767334
","x: 210.32418823242188
y: 250.56922912597656
z: -0.08832291513681412
visibility: 0.9998931288719177
","x: 167.25946044921875
y: 234.5318603515625
z: -0.13721628487110138
visibility: 0.9997303485870361
","x: 221.16700744628906
y: 301.4834289550781
z: -0.030314767733216286
visibility: 0.9879744648933411
","x: 141.2178192138672
y: 265.3111572265625
z: -0.25751832127571106
visibility: 0.9832156300544739
","x: 228.36419677734375
y: 360.2470397949219
z: -0.11609663814306259
visibility: 0.9782893061637878
","x: 169.79428100585938
y: 269.0120849609375
z: -0.4850688874721527
visibility: 0.9884694218635559
","x: 231.94871520996094
y: 376.0814208984375
z: -0.13740584254264832
visibility: 0.9495953917503357
","x: 174.7655792236328
y: 282.9158935546875
z: -0.5332939028739929
visibility: 0.9733971357345581
","x: 228.19796752929688
y: 375.84307861328125
z: -0.17926602065563202
visibility: 0.9470708966255188
","x: 179.73448181152344
y: 281.1716003417969
z: -0.5407073497772217
visibility: 0.970948338508606
","x: 225.6280517578125
y: 370.6064147949219
z: -0.13281169533729553
visibility: 0.9268412590026855
","x: 178.82858276367188
y: 277.76580810546875
z: -0.49194449186325073
visibility: 0.9564982056617737
","x: 195.00094604492188
y: 368.6926574707031
z: 0.008690500631928444
visibility: 0.9991410374641418
","x: 169.820068359375
y: 365.81097412109375
z: -0.008732037618756294
visibility: 0.9993017911911011
","x: 195.2753448486328
y: 462.372802734375
z: 0.017890429124236107
visibility: 0.996695339679718
","x: 171.59793090820312
y: 459.63323974609375
z: 0.014832990244030952
visibility: 0.9911550879478455
","x: 194.3668212890625
y: 547.449462890625
z: 0.1731315553188324
visibility: 0.9933899641036987
","x: 175.9093780517578
y: 544.99951171875
z: 0.17902728915214539
visibility: 0.9915897846221924
","x: 191.87608337402344
y: 559.6881713867188
z: 0.17977511882781982
visibility: 0.8637049198150635
","x: 179.40228271484375
y: 556.328857421875
z: 0.1880238950252533
visibility: 0.9219480156898499
","x: 198.0934295654297
y: 571.1905517578125
z: 0.04497388377785683
visibility: 0.9896626472473145
","x: 170.22933959960938
y: 572.3919067382812
z: 0.06328703463077545
visibility: 0.9877992868423462
","x: 173.2487335205078
y: 275.7815856933594
z: 0.0
","x: 177.64898681640625
y: 282.09124755859375
z: 0.003542049787938595
","x: 180.2064971923828
y: 289.97607421875
z: 0.002996730851009488
","x: 180.19944763183594
y: 297.3641662597656
z: 0.0009860479040071368
","x: 179.2292022705078
y: 302.2192077636719
z: -0.0007117275963537395
","x: 184.0502166748047
y: 289.35162353515625
z: -0.002029398689046502
","x: 185.31515502929688
y: 300.8937683105469
z: -0.00531459366902709
","x: 182.4797821044922
y: 303.83642578125
z: -0.005685753654688597
","x: 180.0974578857422
y: 303.7184143066406
z: -0.005375586450099945
","x: 182.5548095703125
y: 289.0090637207031
z: -0.00624041585251689
","x: 183.44419860839844
y: 300.6502990722656
z: -0.009539478458464146
","x: 180.78660583496094
y: 303.31219482421875
z: -0.008272330276668072
","x: 178.87774658203125
y: 302.7148132324219
z: -0.0068870410323143005
","x: 180.1594696044922
y: 288.3274230957031
z: -0.0102823656052351
","x: 180.4586639404297
y: 299.07940673828125
z: -0.013192692771553993
","x: 178.29747009277344
y: 301.76226806640625
z: -0.010818657465279102
","x: 176.89208984375
y: 301.3629455566406
z: -0.008803429082036018
","x: 177.22154235839844
y: 287.83770751953125
z: -0.014230038970708847
","x: 176.71116638183594
y: 296.62506103515625
z: -0.016502881422638893
","x: 175.41807556152344
y: 300.8891906738281
z: -0.01514330506324768
","x: 174.49444580078125
y: 302.95111083984375
z: -0.013567520305514336
",,,,,,,,,,,,,,,,,,,,,
18,"x: 195.1679229736328
y: 210.7746124267578
z: -0.3402537405490875
visibility: 0.9998024702072144
","x: 197.86801147460938
y: 204.05702209472656
z: -0.32366475462913513
visibility: 0.9994227886199951
","x: 198.98350524902344
y: 204.6767578125
z: -0.32364314794540405
visibility: 0.9994504451751709
","x: 200.10992431640625
y: 205.34056091308594
z: -0.3236388564109802
visibility: 0.9993433952331543
","x: 194.16513061523438
y: 201.56961059570312
z: -0.32830163836479187
visibility: 0.9995489120483398
","x: 192.55809020996094
y: 200.43016052246094
z: -0.32832884788513184
visibility: 0.9995715618133545
","x: 190.91476440429688
y: 199.32919311523438
z: -0.3283286988735199
visibility: 0.9995956420898438
","x: 200.8688507080078
y: 208.18563842773438
z: -0.1929563283920288
visibility: 0.9995188117027283
","x: 186.4786376953125
y: 200.25668334960938
z: -0.21832749247550964
visibility: 0.9990742802619934
","x: 196.31822204589844
y: 218.54412841796875
z: -0.2882612347602844
visibility: 0.9996098875999451
","x: 191.39471435546875
y: 215.72412109375
z: -0.29593339562416077
visibility: 0.9995877742767334
","x: 210.32418823242188
y: 250.56922912597656
z: -0.08832291513681412
visibility: 0.9998931288719177
","x: 167.25946044921875
y: 234.5318603515625
z: -0.13721628487110138
visibility: 0.9997303485870361
","x: 221.16700744628906
y: 301.4834289550781
z: -0.030314767733216286
visibility: 0.9879744648933411
","x: 141.2178192138672
y: 265.3111572265625
z: -0.25751832127571106
visibility: 0.9832156300544739
","x: 228.36419677734375
y: 360.2470397949219
z: -0.11609663814306259
visibility: 0.9782893061637878
","x: 169.79428100585938
y: 269.0120849609375
z: -0.4850688874721527
visibility: 0.9884694218635559
","x: 231.94871520996094
y: 376.0814208984375
z: -0.13740584254264832
visibility: 0.9495953917503357
","x: 174.7655792236328
y: 282.9158935546875
z: -0.5332939028739929
visibility: 0.9733971357345581
","x: 228.19796752929688
y: 375.84307861328125
z: -0.17926602065563202
visibility: 0.9470708966255188
","x: 179.73448181152344
y: 281.1716003417969
z: -0.5407073497772217
visibility: 0.970948338508606
","x: 225.6280517578125
y: 370.6064147949219
z: -0.13281169533729553
visibility: 0.9268412590026855
","x: 178.82858276367188
y: 277.76580810546875
z: -0.49194449186325073
visibility: 0.9564982056617737
","x: 195.00094604492188
y: 368.6926574707031
z: 0.008690500631928444
visibility: 0.9991410374641418
","x: 169.820068359375
y: 365.81097412109375
z: -0.008732037618756294
visibility: 0.9993017911911011
","x: 195.2753448486328
y: 462.372802734375
z: 0.017890429124236107
visibility: 0.996695339679718
","x: 171.59793090820312
y: 459.63323974609375
z: 0.014832990244030952
visibility: 0.9911550879478455
","x: 194.3668212890625
y: 547.449462890625
z: 0.1731315553188324
visibility: 0.9933899641036987
","x: 175.9093780517578
y: 544.99951171875
z: 0.17902728915214539
visibility: 0.9915897846221924
","x: 191.87608337402344
y: 559.6881713867188
z: 0.17977511882781982
visibility: 0.8637049198150635
","x: 179.40228271484375
y: 556.328857421875
z: 0.1880238950252533
visibility: 0.9219480156898499
","x: 198.0934295654297
y: 571.1905517578125
z: 0.04497388377785683
visibility: 0.9896626472473145
","x: 170.22933959960938
y: 572.3919067382812
z: 0.06328703463077545
visibility: 0.9877992868423462
","x: 173.2487335205078
y: 275.7815856933594
z: 0.0
","x: 177.64898681640625
y: 282.09124755859375
z: 0.003542049787938595
","x: 180.2064971923828
y: 289.97607421875
z: 0.002996730851009488
","x: 180.19944763183594
y: 297.3641662597656
z: 0.0009860479040071368
","x: 179.2292022705078
y: 302.2192077636719
z: -0.0007117275963537395
","x: 184.0502166748047
y: 289.35162353515625
z: -0.002029398689046502
","x: 185.31515502929688
y: 300.8937683105469
z: -0.00531459366902709
","x: 182.4797821044922
y: 303.83642578125
z: -0.005685753654688597
","x: 180.0974578857422
y: 303.7184143066406
z: -0.005375586450099945
","x: 182.5548095703125
y: 289.0090637207031
z: -0.00624041585251689
","x: 183.44419860839844
y: 300.6502990722656
z: -0.009539478458464146
","x: 180.78660583496094
y: 303.31219482421875
z: -0.008272330276668072
","x: 178.87774658203125
y: 302.7148132324219
z: -0.0068870410323143005
","x: 180.1594696044922
y: 288.3274230957031
z: -0.0102823656052351
","x: 180.4586639404297
y: 299.07940673828125
z: -0.013192692771553993
","x: 178.29747009277344
y: 301.76226806640625
z: -0.010818657465279102
","x: 176.89208984375
y: 301.3629455566406
z: -0.008803429082036018
","x: 177.22154235839844
y: 287.83770751953125
z: -0.014230038970708847
","x: 176.71116638183594
y: 296.62506103515625
z: -0.016502881422638893
","x: 175.41807556152344
y: 300.8891906738281
z: -0.01514330506324768
","x: 174.49444580078125
y: 302.95111083984375
z: -0.013567520305514336
",,,,,,,,,,,,,,,,,,,,,
19,"x: 196.41436767578125
y: 210.5633544921875
z: -0.38383257389068604
visibility: 0.999821126461029
","x: 198.97422790527344
y: 203.55325317382812
z: -0.36789757013320923
visibility: 0.9994763135910034
","x: 200.09939575195312
y: 204.04869079589844
z: -0.36787375807762146
visibility: 0.9995003938674927
","x: 201.24288940429688
y: 204.56175231933594
z: -0.36787286400794983
visibility: 0.9994023442268372
","x: 195.0900421142578
y: 201.1331787109375
z: -0.3735659718513489
visibility: 0.9995908141136169
","x: 193.49490356445312
y: 199.96400451660156
z: -0.3736097812652588
visibility: 0.9996113777160645
","x: 191.7116241455078
y: 198.74595642089844
z: -0.3736247420310974
visibility: 0.999632716178894
","x: 201.6058349609375
y: 207.10427856445312
z: -0.2347150295972824
visibility: 0.9995577335357666
","x: 186.86476135253906
y: 199.590576171875
z: -0.26432859897613525
visibility: 0.9991636872291565
","x: 197.437255859375
y: 218.326171875
z: -0.3302660882472992
visibility: 0.999646782875061
","x: 192.51168823242188
y: 215.71527099609375
z: -0.33907824754714966
visibility: 0.999627947807312
","x: 211.15557861328125
y: 249.66546630859375
z: -0.11260952055454254
visibility: 0.9999018311500549
","x: 166.90184020996094
y: 234.79913330078125
z: -0.17655618488788605
visibility: 0.9997551441192627
","x: 221.26231384277344
y: 304.8437805175781
z: -0.04037275165319443
visibility: 0.9884350299835205
","x: 143.72923278808594
y: 272.18963623046875
z: -0.26654601097106934
visibility: 0.9845840930938721
","x: 234.6747589111328
y: 362.8000183105469
z: -0.1456442028284073
visibility: 0.9798412919044495
","x: 165.91957092285156
y: 290.3082580566406
z: -0.48342013359069824
visibility: 0.9892696738243103
","x: 237.167236328125
y: 380.61346435546875
z: -0.17105646431446075
visibility: 0.9530282020568848
","x: 171.5062255859375
y: 303.41815185546875
z: -0.530902087688446
visibility: 0.9751719236373901
","x: 234.70428466796875
y: 380.26068115234375
z: -0.21161258220672607
visibility: 0.9508856534957886
","x: 175.9004669189453
y: 298.81475830078125
z: -0.5432338118553162
visibility: 0.9729641675949097
","x: 233.13217163085938
y: 374.7591552734375
z: -0.16313113272190094
visibility: 0.9322691559791565
","x: 174.8741455078125
y: 295.0527648925781
z: -0.4912433624267578
visibility: 0.9594244956970215
","x: 195.54843139648438
y: 368.6297912597656
z: 0.009641182608902454
visibility: 0.9991912245750427
","x: 170.3179473876953
y: 365.73785400390625
z: -0.009709474630653858
visibility: 0.9993414878845215
","x: 195.74420166015625
y: 462.33056640625
z: 0.027267705649137497
visibility: 0.9963767528533936
","x: 171.8861083984375
y: 460.2737731933594
z: 0.01627299003303051
visibility: 0.9911479949951172
","x: 194.52664184570312
y: 547.8974609375
z: 0.17372921109199524
visibility: 0.993151068687439
","x: 176.19601440429688
y: 544.9884643554688
z: 0.1769774854183197
visibility: 0.9914358258247375
","x: 192.47401428222656
y: 560.4971923828125
z: 0.1796153485774994
visibility: 0.8706387281417847
","x: 179.41261291503906
y: 556.3311157226562
z: 0.18558301031589508
visibility: 0.9197943806648254
","x: 198.32310485839844
y: 571.020263671875
z: 0.04532020539045334
visibility: 0.9894776940345764
","x: 170.06361389160156
y: 572.0597534179688
z: 0.057383935898542404
visibility: 0.9875897765159607
","x: 165.84136962890625
y: 292.798828125
z: 0.0
","x: 171.73953247070312
y: 294.5844421386719
z: 0.002426188439130783
","x: 175.78646850585938
y: 300.76385498046875
z: 0.0021457900293171406
","x: 177.221435546875
y: 307.88873291015625
z: 0.0010612733894959092
","x: 177.15821838378906
y: 312.7413330078125
z: 0.0005889977910555899
","x: 176.66604614257812
y: 304.0439147949219
z: -0.001957537606358528
","x: 178.74856567382812
y: 314.6826477050781
z: -0.0031670567113906145
","x: 177.33523559570312
y: 313.0075378417969
z: -0.0018313034670427442
","x: 176.44821166992188
y: 309.306884765625
z: -0.0005415052874013782
","x: 173.87535095214844
y: 307.08160400390625
z: -0.004392286296933889
","x: 175.99473571777344
y: 316.476806640625
z: -0.005155247636139393
","x: 174.90774536132812
y: 314.720703125
z: -0.0027891709469258785
","x: 174.1100311279297
y: 311.7089538574219
z: -0.0009374929359182715
","x: 171.03756713867188
y: 309.4530944824219
z: -0.006549891084432602
","x: 173.15328979492188
y: 317.96527099609375
z: -0.007064284756779671
","x: 172.3320770263672
y: 315.9177551269531
z: -0.004236998036503792
","x: 171.59523010253906
y: 312.93511962890625
z: -0.002265601186081767
","x: 168.36566162109375
y: 311.2265930175781
z: -0.008638933300971985
","x: 170.28578186035156
y: 318.30926513671875
z: -0.008567683398723602
","x: 169.6945343017578
y: 316.46258544921875
z: -0.006464376579970121
","x: 168.78036499023438
y: 313.705322265625
z: -0.004741267766803503
","x: 235.6585235595703
y: 366.7164306640625
z: 0.0
","x: 232.96766662597656
y: 371.0879821777344
z: -0.0025917289312928915
","x: 231.44766235351562
y: 376.7325439453125
z: -0.0034761957358568907
","x: 231.60826110839844
y: 381.6416015625
z: -0.00447132159024477
","x: 232.21141052246094
y: 385.2008361816406
z: -0.005364219658076763
","x: 234.33413696289062
y: 385.16156005859375
z: 0.0002494853688403964
","x: 234.21852111816406
y: 391.9056396484375
z: -0.0011491508921608329
","x: 234.16197204589844
y: 395.7763366699219
z: -0.002307850867509842
","x: 234.17506408691406
y: 399.2025451660156
z: -0.003094417741522193
","x: 236.5763702392578
y: 385.1319885253906
z: -0.00019283269648440182
","x: 236.90390014648438
y: 392.1249694824219
z: -0.0010019011097028852
","x: 236.90658569335938
y: 395.9154968261719
z: -0.0019669211469590664
","x: 236.98092651367188
y: 399.2186279296875
z: -0.002803099574521184
","x: 238.53341674804688
y: 383.484130859375
z: -0.0013225260190665722
","x: 239.66282653808594
y: 389.57659912109375
z: -0.0029228897765278816
","x: 240.33583068847656
y: 393.0404052734375
z: -0.004307528492063284
","x: 240.80523681640625
y: 395.7679443359375
z: -0.005192216951400042
","x: 240.30209350585938
y: 380.48394775390625
z: -0.002884466666728258
","x: 241.73663330078125
y: 384.4657897949219
z: -0.004481718875467777
","x: 242.44805908203125
y: 386.69708251953125
z: -0.005422033369541168
","x: 242.9015350341797
y: 388.41070556640625
z: -0.005970360711216927
"
20,"x: 196.41436767578125
y: 210.5633544921875
z: -0.38383257389068604
visibility: 0.999821126461029
","x: 198.97422790527344
y: 203.55325317382812
z: -0.36789757013320923
visibility: 0.9994763135910034
","x: 200.09939575195312
y: 204.04869079589844
z: -0.36787375807762146
visibility: 0.9995003938674927
","x: 201.24288940429688
y: 204.56175231933594
z: -0.36787286400794983
visibility: 0.9994023442268372
","x: 195.0900421142578
y: 201.1331787109375
z: -0.3735659718513489
visibility: 0.9995908141136169
","x: 193.49490356445312
y: 199.96400451660156
z: -0.3736097812652588
visibility: 0.9996113777160645
","x: 191.7116241455078
y: 198.74595642089844
z: -0.3736247420310974
visibility: 0.999632716178894
","x: 201.6058349609375
y: 207.10427856445312
z: -0.2347150295972824
visibility: 0.9995577335357666
","x: 186.86476135253906
y: 199.590576171875
z: -0.26432859897613525
visibility: 0.9991636872291565
","x: 197.437255859375
y: 218.326171875
z: -0.3302660882472992
visibility: 0.999646782875061
","x: 192.51168823242188
y: 215.71527099609375
z: -0.33907824754714966
visibility: 0.999627947807312
","x: 211.15557861328125
y: 249.66546630859375
z: -0.11260952055454254
visibility: 0.9999018311500549
","x: 166.90184020996094
y: 234.79913330078125
z: -0.17655618488788605
visibility: 0.9997551441192627
","x: 221.26231384277344
y: 304.8437805175781
z: -0.04037275165319443
visibility: 0.9884350299835205
","x: 143.72923278808594
y: 272.18963623046875
z: -0.26654601097106934
visibility: 0.9845840930938721
","x: 234.6747589111328
y: 362.8000183105469
z: -0.1456442028284073
visibility: 0.9798412919044495
","x: 165.91957092285156
y: 290.3082580566406
z: -0.48342013359069824
visibility: 0.9892696738243103
","x: 237.167236328125
y: 380.61346435546875
z: -0.17105646431446075
visibility: 0.9530282020568848
","x: 171.5062255859375
y: 303.41815185546875
z: -0.530902087688446
visibility: 0.9751719236373901
","x: 234.70428466796875
y: 380.26068115234375
z: -0.21161258220672607
visibility: 0.9508856534957886
","x: 175.9004669189453
y: 298.81475830078125
z: -0.5432338118553162
visibility: 0.9729641675949097
","x: 233.13217163085938
y: 374.7591552734375
z: -0.16313113272190094
visibility: 0.9322691559791565
","x: 174.8741455078125
y: 295.0527648925781
z: -0.4912433624267578
visibility: 0.9594244956970215
","x: 195.54843139648438
y: 368.6297912597656
z: 0.009641182608902454
visibility: 0.9991912245750427
","x: 170.3179473876953
y: 365.73785400390625
z: -0.009709474630653858
visibility: 0.9993414878845215
","x: 195.74420166015625
y: 462.33056640625
z: 0.027267705649137497
visibility: 0.9963767528533936
","x: 171.8861083984375
y: 460.2737731933594
z: 0.01627299003303051
visibility: 0.9911479949951172
","x: 194.52664184570312
y: 547.8974609375
z: 0.17372921109199524
visibility: 0.993151068687439
","x: 176.19601440429688
y: 544.9884643554688
z: 0.1769774854183197
visibility: 0.9914358258247375
","x: 192.47401428222656
y: 560.4971923828125
z: 0.1796153485774994
visibility: 0.8706387281417847
","x: 179.41261291503906
