uscmakers/ReverseChoreography/data/5_feed_the_fire_lucky_daye.csv
,NOSE,LEFT_EYE_INNER,LEFT_EYE,LEFT_EYE_OUTER,RIGHT_EYE_INNER,RIGHT_EYE,RIGHT_EYE_OUTER,LEFT_EAR,RIGHT_EAR,MOUTH_LEFT,MOUTH_RIGHT,LEFT_SHOULDER,RIGHT_SHOULDER,LEFT_ELBOW,RIGHT_ELBOW,LEFT_WRIST,RIGHT_WRIST,LEFT_PINKY,RIGHT_PINKY,LEFT_INDEX,RIGHT_INDEX,LEFT_THUMB,RIGHT_THUMB,LEFT_HIP,RIGHT_HIP,LEFT_KNEE,RIGHT_KNEE,LEFT_ANKLE,RIGHT_ANKLE,LEFT_HEEL,RIGHT_HEEL,LEFT_FOOT_INDEX,RIGHT_FOOT_INDEX,WRIST,THUMB_CPC,THUMB_MCP,THUMB_IP,THUMB_TIP,INDEX_FINGER_MCP,INDEX_FINGER_PIP,INDEX_FINGER_DIP,INDEX_FINGER_TIP,MIDDLE_FINGER_MCP,MIDDLE_FINGER_PIP,MIDDLE_FINGER_DIP,MIDDLE_FINGER_TIP,RING_FINGER_PIP,RING_FINGER_DIP,RING_FINGER_TIP,RING_FINGER_MCP,PINKY_MCP,PINKY_PIP,PINKY_DIP,PINKY_TIP,WRIST2,THUMB_CPC2,THUMB_MCP2,THUMB_IP2,THUMB_TIP2,INDEX_FINGER_MCP2,INDEX_FINGER_PIP2,INDEX_FINGER_DIP2,INDEX_FINGER_TIP2,MIDDLE_FINGER_MCP2,MIDDLE_FINGER_PIP2,MIDDLE_FINGER_DIP2,MIDDLE_FINGER_TIP2,RING_FINGER_PIP2,RING_FINGER_DIP2,RING_FINGER_TIP2,RING_FINGER_MCP2,PINKY_MCP2,PINKY_PIP2,PINKY_DIP2,PINKY_TIP2
0,"x: 248.5600128173828
y: 214.01309204101562
z: -0.24415917694568634
visibility: 0.9999966621398926
","x: 251.83816528320312
y: 205.92710876464844
z: -0.229213148355484
visibility: 0.9999884366989136
","x: 253.4454345703125
y: 206.05136108398438
z: -0.22925326228141785
visibility: 0.9999855756759644
","x: 254.80430603027344
y: 206.22988891601562
z: -0.22927026450634003
visibility: 0.9999829530715942
","x: 246.94290161132812
y: 205.41973876953125
z: -0.2270394116640091
visibility: 0.9999899864196777
","x: 245.4750518798828
y: 205.2207794189453
z: -0.22705034911632538
visibility: 0.9999891519546509
","x: 244.11228942871094
y: 205.11009216308594
z: -0.22707518935203552
visibility: 0.9999892711639404
","x: 257.48699951171875
y: 209.82363891601562
z: -0.1243799477815628
visibility: 0.9999836683273315
","x: 242.93246459960938
y: 208.13162231445312
z: -0.1148659959435463
visibility: 0.9999871253967285
","x: 252.21986389160156
y: 221.3409423828125
z: -0.20314374566078186
visibility: 0.9999957084655762
","x: 245.74693298339844
y: 220.75035095214844
z: -0.20063486695289612
visibility: 0.9999959468841553
","x: 272.84295654296875
y: 253.8426513671875
z: -0.049699004739522934
visibility: 0.9999736547470093
","x: 229.28201293945312
y: 255.81387329101562
z: -0.040591929107904434
visibility: 0.9999518394470215
","x: 285.8139343261719
y: 310.57415771484375
z: -0.016981717199087143
visibility: 0.9923471212387085
","x: 221.52191162109375
y: 307.7596130371094
z: -0.09588320553302765
visibility: 0.9707541465759277
","x: 288.4704895019531
y: 360.6070251464844
z: -0.11741314828395844
visibility: 0.9840375185012817
","x: 230.4303741455078
y: 326.1279602050781
z: -0.30592110753059387
visibility: 0.9882873892784119
","x: 288.7356262207031
y: 374.5791320800781
z: -0.14739836752414703
visibility: 0.9688957333564758
","x: 231.983642578125
y: 334.0473937988281
z: -0.35049062967300415
visibility: 0.9808623194694519
","x: 285.57073974609375
y: 373.5717468261719
z: -0.1754901111125946
visibility: 0.970529317855835
","x: 234.3852081298828
y: 326.9467468261719
z: -0.36921724677085876
visibility: 0.981025755405426
","x: 284.55755615234375
y: 368.7252197265625
z: -0.129794180393219
visibility: 0.9639410376548767
","x: 234.59881591796875
y: 323.55499267578125
z: -0.3171164393424988
visibility: 0.9722830057144165
","x: 260.4722595214844
y: 373.40838623046875
z: -0.01827009953558445
visibility: 0.9998279809951782
","x: 235.42222595214844
y: 371.47271728515625
z: 0.018243199214339256
visibility: 0.999819815158844
","x: 259.073486328125
y: 460.8863830566406
z: -0.04283718392252922
visibility: 0.9924081563949585
","x: 230.6226806640625
y: 458.0247802734375
z: 0.004621561150997877
visibility: 0.9930787682533264
","x: 254.7216796875
y: 537.9400024414062
z: 0.10552171617746353
visibility: 0.991690993309021
","x: 237.3600311279297
y: 532.4820556640625
z: 0.17692993581295013
visibility: 0.9940953254699707
","x: 253.35035705566406
y: 549.3768920898438
z: 0.11119113862514496
visibility: 0.9009782075881958
","x: 241.13754272460938
y: 543.75830078125
z: 0.18709485232830048
visibility: 0.9562458992004395
","x: 255.5277099609375
y: 565.3742065429688
z: -0.011106612160801888
visibility: 0.9871559143066406
","x: 221.21994018554688
y: 553.9224853515625
z: 0.07717254757881165
visibility: 0.9911751747131348
",,,,,,,,,,,,,,,,,,,,,,,,,,,,,,,,,,,,,,,,,,
1,"x: 244.4510955810547
y: 225.0369415283203
z: -0.3442906141281128
visibility: 0.9999948740005493
","x: 247.04815673828125
y: 216.8846893310547
z: -0.33501380681991577
visibility: 0.9999802112579346
","x: 248.5397491455078
y: 216.80764770507812
z: -0.3350185751914978
visibility: 0.9999784827232361
","x: 250.06570434570312
y: 216.81561279296875
z: -0.3350340723991394
visibility: 0.9999759793281555
","x: 242.93505859375
y: 216.4048614501953
z: -0.33126553893089294
visibility: 0.9999815821647644
","x: 241.40896606445312
y: 215.98008728027344
z: -0.33129602670669556
visibility: 0.9999800324440002
","x: 239.98606872558594
y: 215.6391143798828
z: -0.33130499720573425
visibility: 0.99997878074646
","x: 252.67626953125
y: 218.0203094482422
z: -0.23498360812664032
visibility: 0.9999697804450989
","x: 238.3750762939453
y: 216.76214599609375
z: -0.21633458137512207
visibility: 0.9999614953994751
","x: 246.83026123046875
y: 231.77137756347656
z: -0.3029860854148865
visibility: 0.9999934434890747
","x: 242.157958984375
y: 231.7057647705078
z: -0.2978776693344116
visibility: 0.9999921321868896
","x: 268.1294860839844
y: 260.2129821777344
z: -0.15784572064876556
visibility: 0.99997478723526
","x: 225.1080322265625
y: 260.28411865234375
z: -0.10194849967956543
visibility: 0.999953031539917
","x: 274.03533935546875
y: 319.9364318847656
z: -0.11768865585327148
visibility: 0.9926069974899292
","x: 218.7268829345703
y: 318.1181640625
z: -0.0401315838098526
visibility: 0.9705080986022949
","x: 269.6108703613281
y: 367.8504638671875
z: -0.21499833464622498
visibility: 0.9839051961898804
","x: 210.7953338623047
y: 367.4127502441406
z: -0.1348874717950821
visibility: 0.9863772392272949
","x: 268.6947326660156
y: 382.3443603515625
z: -0.2477765530347824
visibility: 0.9679332971572876
","x: 207.28915405273438
y: 382.03594970703125
z: -0.16297754645347595
visibility: 0.9773284196853638
","x: 265.01177978515625
y: 379.1365966796875
z: -0.27904239296913147
visibility: 0.9696038365364075
","x: 207.9014129638672
y: 381.8804931640625
z: -0.20252366364002228
visibility: 0.9778797626495361
","x: 264.4444274902344
y: 374.6766357421875
z: -0.22815409302711487
visibility: 0.9622533321380615
","x: 209.8971405029297
y: 377.47900390625
z: -0.1528620421886444
visibility: 0.9689375162124634
","x: 256.97003173828125
y: 373.48394775390625
z: -0.019646966829895973
visibility: 0.9998093247413635
","x: 232.69203186035156
y: 372.1434020996094
z: 0.01960013061761856
visibility: 0.9998014569282532
","x: 254.240478515625
y: 458.7982482910156
z: -0.02686573565006256
visibility: 0.9927746653556824
","x: 229.60020446777344
y: 457.1162414550781
z: 0.051786284893751144
visibility: 0.99302077293396
","x: 254.03575134277344
y: 539.0074462890625
z: 0.08625923842191696
visibility: 0.9921790957450867
","x: 237.15533447265625
y: 531.3567504882812
z: 0.2158469706773758
visibility: 0.9940187335014343
","x: 252.39492797851562
y: 549.5275268554688
z: 0.08800892531871796
visibility: 0.9044520258903503
","x: 240.5439910888672
y: 542.1681518554688
z: 0.2241404503583908
visibility: 0.9540505409240723
","x: 255.43997192382812
y: 565.23046875
z: -0.047322195023298264
visibility: 0.9878543019294739
","x: 222.67626953125
y: 552.5704345703125
z: 0.11071119457483292
visibility: 0.9911730289459229
",,,,,,,,,,,,,,,,,,,,,,,,,,,,,,,,,,,,,,,,,,
2,"x: 242.3865203857422
y: 223.1287384033203
z: -0.30589213967323303
visibility: 0.9999942183494568
","x: 245.04916381835938
y: 215.0533905029297
z: -0.2960854470729828
visibility: 0.9999781847000122
","x: 246.7019805908203
y: 214.96469116210938
z: -0.2961212694644928
visibility: 0.9999768733978271
","x: 248.36717224121094
y: 214.94337463378906
z: -0.29614076018333435
visibility: 0.9999746084213257
","x: 241.12283325195312
y: 214.77700805664062
z: -0.2896362543106079
visibility: 0.9999789595603943
","x: 239.9558563232422
y: 214.43978881835938
z: -0.28964561223983765
visibility: 0.9999765157699585
","x: 238.61737060546875
y: 214.19183349609375
z: -0.28965237736701965
visibility: 0.9999744892120361
","x: 251.77322387695312
y: 216.68643188476562
z: -0.2010817974805832
visibility: 0.9999679923057556
","x: 237.8631134033203
y: 215.598388671875
z: -0.17050468921661377
visibility: 0.9999500513076782
","x: 245.21624755859375
y: 229.82870483398438
z: -0.26721325516700745
visibility: 0.9999930262565613
","x: 240.48196411132812
y: 229.68136596679688
z: -0.2586436867713928
visibility: 0.9999907612800598
","x: 268.28643798828125
y: 259.3204040527344
z: -0.14317208528518677
visibility: 0.9999766945838928
","x: 225.05230712890625
y: 260.0509033203125
z: -0.07478579878807068
visibility: 0.9999540448188782
","x: 275.5578918457031
y: 318.1946716308594
z: -0.1337203085422516
visibility: 0.9930728077888489
","x: 217.84999084472656
y: 316.88702392578125
z: 0.023554552346467972
visibility: 0.9650296568870544
","x: 263.6199035644531
y: 360.0085144042969
z: -0.24985933303833008
visibility: 0.984634518623352
","x: 208.68698120117188
y: 364.1320495605469
z: -0.07980383187532425
visibility: 0.9828996658325195
","x: 261.1501770019531
y: 375.6274108886719
z: -0.28796231746673584
visibility: 0.9689114689826965
","x: 204.92955017089844
y: 378.82708740234375
z: -0.10589072853326797
visibility: 0.9718930125236511
","x: 258.25579833984375
y: 368.01922607421875
z: -0.30996468663215637
visibility: 0.9704465866088867
","x: 204.95864868164062
y: 377.8922119140625
z: -0.14698927104473114
visibility: 0.9728807210922241
","x: 258.2533874511719
y: 363.2217102050781
z: -0.2591325342655182
visibility: 0.9626178741455078
","x: 206.70285034179688
y: 373.4579162597656
z: -0.09889392554759979
visibility: 0.96353679895401
","x: 255.96620178222656
y: 373.4689636230469
z: -0.02718379721045494
visibility: 0.9998041987419128
","x: 232.33872985839844
y: 372.2250671386719
z: 0.0271807499229908
visibility: 0.9997872710227966
","x: 253.6676788330078
y: 458.65008544921875
z: -0.030111322179436684
visibility: 0.9930438995361328
","x: 231.27301025390625
y: 456.9691162109375
z: 0.06955381482839584
visibility: 0.9924797415733337
","x: 253.81082153320312
y: 540.2107543945312
z: 0.05173026770353317
visibility: 0.9926110506057739
","x: 237.3218994140625
y: 531.4248046875
z: 0.22275379300117493
visibility: 0.9938213229179382
","x: 252.21051025390625
y: 550.9650268554688
z: 0.05162162333726883
visibility: 0.9086235761642456
","x: 240.55360412597656
y: 542.211181640625
z: 0.22977140545845032
visibility: 0.9532031416893005
","x: 255.05662536621094
y: 565.22021484375
z: -0.08248730003833771
visibility: 0.9884775876998901
","x: 223.1046600341797
y: 551.9780883789062
z: 0.12189582735300064
visibility: 0.9911025166511536
",,,,,,,,,,,,,,,,,,,,,,,,,,,,,,,,,,,,,,,,,,
3,"x: 243.059326171875
y: 221.01559448242188
z: -0.2959675192832947
visibility: 0.999993622303009
","x: 245.953125
y: 213.31381225585938
z: -0.2852640151977539
visibility: 0.9999765753746033
","x: 247.57859802246094
y: 213.23439025878906
z: -0.28530436754226685
visibility: 0.9999755620956421
","x: 249.21112060546875
y: 213.3216094970703
z: -0.28531473875045776
visibility: 0.9999735355377197
","x: 241.5665283203125
y: 213.40036010742188
z: -0.2790254056453705
visibility: 0.999976396560669
","x: 240.3174285888672
y: 213.22048950195312
z: -0.2790314257144928
visibility: 0.9999731779098511
","x: 239.12049865722656
y: 213.14443969726562
z: -0.27903491258621216
visibility: 0.9999703764915466
","x: 252.37181091308594
y: 215.09786987304688
z: -0.189473956823349
visibility: 0.9999663233757019
","x: 238.25546264648438
y: 214.6112060546875
z: -0.16035433113574982
visibility: 0.9999378323554993
","x: 246.18435668945312
y: 227.7379608154297
z: -0.2577659487724304
visibility: 0.9999926090240479
","x: 240.74072265625
y: 227.88140869140625
z: -0.24952569603919983
visibility: 0.9999894499778748
","x: 268.7320556640625
y: 258.40185546875
z: -0.1368412971496582
visibility: 0.9999783635139465
","x: 225.40618896484375
y: 258.6937255859375
z: -0.06537801772356033
visibility: 0.9999545812606812
","x: 276.4900207519531
y: 318.10504150390625
z: -0.12851861119270325
visibility: 0.9935265183448792
","x: 216.79576110839844
y: 315.9072265625
z: 0.022797424346208572
visibility: 0.9626078009605408
","x: 262.40692138671875
y: 355.8681640625
z: -0.24475963413715363
visibility: 0.9855918288230896
","x: 205.40139770507812
y: 360.3398132324219
z: -0.084647037088871
visibility: 0.9807506799697876
","x: 259.9068298339844
y: 371.963623046875
z: -0.28410911560058594
visibility: 0.9704609513282776
","x: 201.0017852783203
y: 375.87847900390625
z: -0.1126994863152504
visibility: 0.9684356451034546
","x: 256.65826416015625
y: 363.91162109375
z: -0.3076499104499817
visibility: 0.971879780292511
","x: 201.40322875976562
y: 374.6700439453125
z: -0.15433552861213684
visibility: 0.9698008894920349
","x: 256.713623046875
y: 358.95501708984375
z: -0.2546660602092743
visibility: 0.9639847874641418
","x: 203.03890991210938
y: 369.4183044433594
z: -0.10416300594806671
visibility: 0.9604172706604004
","x: 256.38543701171875
y: 372.66357421875
z: -0.026126157492399216
visibility: 0.9997975826263428
","x: 232.56629943847656
y: 372.0987548828125
z: 0.026119593530893326
visibility: 0.9997782111167908
","x: 254.43658447265625
y: 457.8446960449219
z: -0.02123131789267063
visibility: 0.9930781126022339
","x: 232.860107421875
y: 456.31005859375
z: 0.04720389470458031
visibility: 0.9921157360076904
","x: 253.831298828125
y: 540.1612548828125
z: 0.06266720592975616
visibility: 0.9928195476531982
","x: 237.3743896484375
y: 531.9681396484375
z: 0.19399437308311462
visibility: 0.9936397671699524
","x: 252.05543518066406
y: 550.9482421875
z: 0.06939657032489777
visibility: 0.9117827415466309
","x: 240.5449676513672
y: 542.3607177734375
z: 0.19695839285850525
visibility: 0.9515305757522583
","x: 255.1121826171875
y: 564.8868408203125
z: -0.055182021111249924
visibility: 0.9887964725494385
","x: 223.2496337890625
y: 552.0540161132812
z: 0.081486776471138
visibility: 0.990915060043335
",,,,,,,,,,,,,,,,,,,,,,,,,,,,,,,,,,,,,,,,,,
4,"x: 243.64419555664062
y: 220.3383026123047
z: -0.2978522777557373
visibility: 0.9999917149543762
","x: 246.5998077392578
y: 212.58859252929688
z: -0.2873506247997284
visibility: 0.999968409538269
","x: 248.22683715820312
y: 212.5587615966797
z: -0.28738734126091003
visibility: 0.9999678134918213
","x: 249.80938720703125
y: 212.66212463378906
z: -0.2873912453651428
visibility: 0.9999657273292542
","x: 242.06137084960938
y: 212.50314331054688
z: -0.28273993730545044
visibility: 0.999967098236084
","x: 240.7046661376953
y: 212.3035888671875
z: -0.28274935483932495
visibility: 0.9999624490737915
","x: 239.4989776611328
y: 212.2064208984375
z: -0.2827607989311218
visibility: 0.9999582767486572
","x: 252.8153839111328
y: 214.66744995117188
z: -0.19179868698120117
visibility: 0.9999535083770752
","x: 238.46881103515625
y: 214.00811767578125
z: -0.1698167622089386
visibility: 0.9999093413352966
","x: 246.81295776367188
y: 227.14572143554688
z: -0.2592250108718872
visibility: 0.99998939037323
","x: 241.05711364746094
y: 227.16705322265625
z: -0.2530238926410675
visibility: 0.9999840259552002
","x: 269.04376220703125
y: 258.03961181640625
z: -0.13396196067333221
visibility: 0.9999780654907227
","x: 225.67303466796875
y: 258.4869689941406
z: -0.06340108811855316
visibility: 0.9999529719352722
","x: 274.9944763183594
y: 319.9909362792969
z: -0.10580696165561676
visibility: 0.9932998418807983
","x: 217.07748413085938
y: 315.5257568359375
z: 0.007933070883154869
visibility: 0.9593192934989929
","x: 269.0515441894531
y: 369.9426574707031
z: -0.2026386559009552
visibility: 0.984840452671051
","x: 203.95526123046875
y: 360.07342529296875
z: -0.08974973112344742
visibility: 0.97786545753479
","x: 267.8299560546875
y: 386.12481689453125
z: -0.23553025722503662
visibility: 0.9688740372657776
","x: 199.0459747314453
y: 375.41912841796875
z: -0.11392869800329208
visibility: 0.9641079306602478
","x: 264.5931091308594
y: 382.7889709472656
z: -0.2629583477973938
visibility: 0.9703878164291382
","x: 199.62872314453125
y: 374.46240234375
z: -0.15667274594306946
visibility: 0.9660674929618835
","x: 264.2743225097656
y: 377.7157287597656
z: -0.21456368267536163
visibility: 0.9619879126548767
","x: 201.52537536621094
y: 369.2930603027344
z: -0.10960134118795395
visibility: 0.9569085240364075
","x: 257.4960021972656
y: 372.9141845703125
z: -0.025838792324066162
visibility: 0.9997691512107849
","x: 233.44639587402344
y: 372.9065246582031
z: 0.02581738866865635
visibility: 0.9997573494911194
","x: 255.05764770507812
y: 457.93902587890625
z: -0.01754109002649784
visibility: 0.9930612444877625
","x: 232.73037719726562
y: 457.47113037109375
z: 0.04057355225086212
visibility: 0.9918790459632874
","x: 254.22372436523438
y: 540.0972290039062
z: 0.08329128473997116
visibility: 0.9929376840591431
","x: 237.5428009033203
y: 532.3529663085938
z: 0.17006994783878326
visibility: 0.9935311675071716
","x: 252.22506713867188
y: 550.8773193359375
z: 0.08586007356643677
visibility: 0.911518394947052
","x: 240.61984252929688
y: 542.5687255859375
z: 0.17474783957004547
visibility: 0.9505123496055603
","x: 255.08546447753906
y: 564.4996337890625
z: -0.03954198211431503
visibility: 0.9889596104621887
","x: 223.28025817871094
y: 552.3084106445312
z: 0.06308627128601074
visibility: 0.9908469319343567
",,,,,,,,,,,,,,,,,,,,,,,,,,,,,,,,,,,,,,,,,,
5,"x: 243.87820434570312
y: 220.1930389404297
z: -0.2897147536277771
visibility: 0.9999911189079285
","x: 246.85415649414062
y: 212.32989501953125
z: -0.27822136878967285
visibility: 0.9999643564224243
","x: 248.491943359375
y: 212.27276611328125
z: -0.2782573699951172
visibility: 0.9999642968177795
","x: 250.0657958984375
y: 212.31442260742188
z: -0.27826422452926636
visibility: 0.9999622106552124
","x: 242.2310028076172
y: 212.19117736816406
z: -0.2741413414478302
visibility: 0.9999624490737915
","x: 240.80059814453125
y: 211.97756958007812
z: -0.2741512358188629
visibility: 0.999957263469696
","x: 239.5830078125
y: 211.86077880859375
z: -0.274164617061615
visibility: 0.9999518394470215
","x: 252.8240509033203
y: 214.62399291992188
z: -0.1810789555311203
visibility: 0.9999451041221619
","x: 238.5095672607422
y: 213.9446258544922
z: -0.16284491121768951
visibility: 0.9998915195465088
","x: 246.9560089111328
y: 227.06948852539062
z: -0.25067442655563354
visibility: 0.9999879598617554
","x: 241.05462646484375
y: 227.07176208496094
z: -0.24537000060081482
visibility: 0.9999813437461853
","x: 268.9734191894531
y: 257.9079895019531
z: -0.12010365724563599
visibility: 0.9999788999557495
","x: 225.58360290527344
y: 258.6983642578125
z: -0.06154381483793259
visibility: 0.9999524354934692
","x: 275.5224914550781
y: 319.5233154296875
z: -0.09005644172430038
visibility: 0.9934790134429932
","x: 217.02227783203125
y: 315.82373046875
z: 0.0038844861555844545
visibility: 0.9588519334793091
","x: 271.4088134765625
y: 369.8424072265625
z: -0.19002288579940796
visibility: 0.9852766394615173
","x: 203.95892333984375
y: 359.5784912109375
z: -0.09041516482830048
visibility: 0.9770893454551697
","x: 268.8879089355469
y: 385.7922058105469
z: -0.22265319526195526
visibility: 0.9694788455963135
","x: 199.14825439453125
y: 375.1416320800781
z: -0.11622220277786255
visibility: 0.9626401662826538
","x: 265.65771484375
y: 383.6239013671875
z: -0.2506083846092224
visibility: 0.9710134863853455
","x: 199.90444946289062
y: 374.0753479003906
z: -0.15743164718151093
visibility: 0.9648732542991638
","x: 266.25714111328125
y: 378.8086242675781
z: -0.20247307419776917
visibility: 0.962710976600647
","x: 201.77149963378906
y: 368.7103576660156
z: -0.10963885486125946
visibility: 0.9559528231620789
","x: 257.6111755371094
y: 373.2953186035156
z: -0.024932850152254105
visibility: 0.9997687935829163
","x: 233.58563232421875
y: 373.3868713378906
z: 0.024890458211302757
visibility: 0.9997533559799194
","x: 255.3134307861328
y: 458.14813232421875
z: -0.020697778090834618
visibility: 0.9932103753089905
","x: 232.6691131591797
y: 458.4267883300781
z: 0.04376574233174324
visibility: 0.9917787909507751
","x: 254.20538330078125
y: 540.378173828125
z: 0.07899604737758636
visibility: 0.9931825399398804
","x: 237.55889892578125
y: 532.07861328125
z: 0.1925857961177826
visibility: 0.9934603571891785
","x: 252.23870849609375
y: 551.2595825195312
z: 0.08041698485612869
visibility: 0.9133874773979187
","x: 240.6162872314453
y: 542.0933837890625
z: 0.19894780218601227
visibility: 0.9488609433174133
","x: 255.04254150390625
y: 564.93798828125
z: -0.0478762686252594
visibility: 0.9893426895141602
","x: 223.4925079345703
y: 552.2517700195312
z: 0.09062089025974274
visibility: 0.9908461570739746
",,,,,,,,,,,,,,,,,,,,,,,,,,,,,,,,,,,,,,,,,,
6,"x: 243.21395874023438
y: 220.0706787109375
z: -0.28665614128112793
visibility: 0.9999905824661255
","x: 246.18902587890625
y: 212.10931396484375
z: -0.2757113575935364
visibility: 0.9999621510505676
","x: 247.77960205078125
y: 212.03468322753906
z: -0.27574804425239563
visibility: 0.999962329864502
","x: 249.41030883789062
y: 212.0433349609375
z: -0.2757580876350403
visibility: 0.9999603629112244
","x: 241.47982788085938
y: 211.99684143066406
z: -0.2710733413696289
visibility: 0.9999597668647766
","x: 240.12078857421875
y: 211.80474853515625
z: -0.27108269929885864
visibility: 0.9999538064002991
","x: 239.0178680419922
y: 211.66708374023438
z: -0.27109137177467346
visibility: 0.9999480247497559
","x: 252.36099243164062
y: 214.41131591796875
z: -0.1804443895816803
visibility: 0.9999428987503052
","x: 238.0533905029297
y: 213.70094299316406
z: -0.15830719470977783
visibility: 0.999882698059082
","x: 246.3969268798828
y: 226.83372497558594
z: -0.24790403246879578
visibility: 0.9999874234199524
","x: 240.47830200195312
y: 226.8611297607422
z: -0.24199512600898743
visibility: 0.9999801516532898
","x: 268.5714416503906
y: 257.79302978515625
z: -0.12054909765720367
visibility: 0.9999799728393555
","x: 225.26039123535156
y: 257.7651672363281
z: -0.05367182567715645
visibility: 0.9999526143074036
","x: 276.2917785644531
y: 319.1915588378906
z: -0.0939580649137497
visibility: 0.993779182434082
","x: 216.67811584472656
y: 315.2056579589844
z: 0.01887103170156479
visibility: 0.9574713706970215
","x: 272.5967102050781
y: 367.997802734375
z: -0.196818009018898
visibility: 0.9857724905014038
","x: 204.293701171875
y: 356.3431091308594
z: -0.08365003764629364
visibility: 0.9761930108070374
","x: 271.27734375
y: 385.2653503417969
z: -0.23018379509449005
visibility: 0.9702382683753967
","x: 199.62127685546875
y: 371.58184814453125
z: -0.110944963991642
visibility: 0.9611093401908875
","x: 267.93377685546875
y: 382.9719543457031
z: -0.25994473695755005
visibility: 0.9717334508895874
","x: 200.40740966796875
y: 370.23760986328125
z: -0.15289749205112457
visibility: 0.9635891318321228
","x: 267.7745361328125
y: 377.80780029296875
z: -0.20963482558727264
visibility: 0.9634226560592651
","x: 202.14663696289062
y: 364.6041564941406
z: -0.10329727828502655
visibility: 0.9548051953315735
","x: 256.4905090332031
y: 373.0848388671875
z: -0.025821641087532043
visibility: 0.9997609257698059
","x: 232.8288116455078
y: 372.7654724121094
z: 0.025797760114073753
visibility: 0.9997386932373047
","x: 254.56068420410156
y: 458.16754150390625
z: -0.02425474487245083
visibility: 0.9932936429977417
","x: 230.8685302734375
y: 458.340087890625
z: 0.04521343857049942
visibility: 0.9914730787277222
","x: 254.133056640625
y: 540.4224853515625
z: 0.06665711849927902
visibility: 0.993365466594696
","x: 237.53265380859375
y: 532.0003662109375
z: 0.19355282187461853
visibility: 0.9932591915130615
","x: 252.24783325195312
y: 551.2977905273438
z: 0.0671624168753624
visibility: 0.9133964776992798
","x: 240.66970825195312
y: 542.0982666015625
z: 0.19984202086925507
visibility: 0.9478594660758972
","x: 254.9891815185547
y: 564.9297485351562
z: -0.06404691934585571
visibility: 0.9895278215408325
","x: 223.43524169921875
y: 552.2770385742188
z: 0.09094630181789398
visibility: 0.9906603097915649
",,,,,,,,,,,,,,,,,,,,,,,,,,,,,,,,,,,,,,,,,,
7,"x: 240.3726806640625
y: 221.0863494873047
z: -0.28792864084243774
visibility: 0.9999902844429016
","x: 243.064208984375
y: 213.112060546875
z: -0.27960526943206787
visibility: 0.9999619126319885
","x: 244.80435180664062
y: 212.9891815185547
z: -0.27964940667152405
visibility: 0.9999622702598572
","x: 246.61187744140625
y: 212.9148712158203
z: -0.2796708941459656
visibility: 0.9999606013298035
","x: 238.86749267578125
y: 213.07003784179688
z: -0.2722785770893097
visibility: 0.9999589920043945
","x: 237.56752014160156
y: 212.86988830566406
z: -0.2722780108451843
visibility: 0.9999522566795349
","x: 236.4099578857422
y: 212.76307678222656
z: -0.27227523922920227
visibility: 0.9999461770057678
","x: 250.515625
y: 214.95233154296875
z: -0.19067659974098206
visibility: 0.9999443292617798
","x: 236.22036743164062
y: 214.53900146484375
z: -0.1564701497554779
visibility: 0.9998788237571716
","x: 243.55230712890625
y: 227.83071899414062
z: -0.2510193884372711
visibility: 0.9999874830245972
","x: 238.3477325439453
y: 227.80389404296875
z: -0.2417350560426712
visibility: 0.9999799728393555
","x: 266.6496276855469
y: 258.47564697265625
z: -0.13801375031471252
visibility: 0.999981164932251
","x: 223.51748657226562
y: 257.4969177246094
z: -0.0480676032602787
visibility: 0.9999531507492065
","x: 272.4706115722656
y: 319.20648193359375
z: -0.12418321520090103
visibility: 0.9940858483314514
","x: 214.9401397705078
y: 314.0152587890625
z: 0.0027324813418090343
visibility: 0.9541388154029846
","x: 266.6072998046875
y: 367.29864501953125
z: -0.22445771098136902
visibility: 0.9861451983451843
","x: 205.4377899169922
y: 354.56427001953125
z: -0.12720033526420593
visibility: 0.9743277430534363
","x: 263.9927978515625
y: 382.6236267089844
z: -0.26015612483024597
visibility: 0.9708150029182434
","x: 201.79884338378906
y: 368.8880615234375
z: -0.1576458364725113
visibility: 0.9584536552429199
","x: 260.97381591796875
y: 378.2790832519531
z: -0.28703317046165466
visibility: 0.9722392559051514
","x: 203.0569610595703
y: 367.0758056640625
z: -0.19475996494293213
visibility: 0.961139976978302
","x: 260.975830078125
y: 374.3551025390625
z: -0.23559048771858215
visibility: 0.9637017846107483
","x: 204.90472412109375
y: 361.6934814453125
z: -0.1452832669019699
visibility: 0.9520874619483948
","x: 250.64414978027344
y: 373.15802001953125
z: -0.028134962543845177
visibility: 0.9997633099555969
","x: 227.7173309326172
y: 372.6199951171875
z: 0.028135430067777634
visibility: 0.9997333884239197
","x: 251.83456420898438
y: 457.61309814453125
z: -0.04070757329463959
visibility: 0.9934952855110168
","x: 229.360107421875
y: 457.4852294921875
z: 0.06365877389907837
visibility: 0.991449236869812
","x: 253.60116577148438
y: 540.498779296875
z: 0.03883092850446701
visibility: 0.9936909675598145
","x: 237.38316345214844
y: 532.00439453125
z: 0.20583245158195496
visibility: 0.9933063387870789
","x: 252.08731079101562
y: 551.3553466796875
z: 0.037740278989076614
visibility: 0.9163625836372375
","x: 240.66427612304688
y: 542.118408203125
z: 0.21185943484306335
visibility: 0.9487031698226929
","x: 254.89102172851562
y: 564.92138671875
z: -0.095029316842556
visibility: 0.9899892210960388
","x: 223.26370239257812
y: 552.3637084960938
z: 0.10631220042705536
visibility: 0.9908056855201721
","x: 203.04983520507812
y: 352.49359130859375
z: 0.0
","x: 206.62982177734375
y: 358.7898254394531
z: 0.00016495426825713366
","x: 208.18177795410156
y: 366.20159912109375
z: -0.0006123474449850619
","x: 207.95889282226562
y: 372.37432861328125
z: -0.0016673402860760689
","x: 207.45681762695312
y: 376.4999694824219
z: -0.002075487282127142
","x: 206.27059936523438
y: 368.90478515625
z: -0.0017196264816448092
","x: 207.01412963867188
y: 376.7632751464844
z: -0.0031305889133363962
","x: 207.3396759033203
y: 373.60845947265625
z: -0.0024302382953464985
","x: 207.16592407226562
y: 369.9126892089844
z: -0.0015440753195434809
","x: 203.5736541748047
y: 368.2594299316406
z: -0.0026574470102787018
","x: 204.73394775390625
y: 374.94683837890625
z: -0.0036819931119680405
","x: 205.35797119140625
y: 372.070556640625
z: -0.0024957747664302588
","x: 205.32852172851562
y: 368.6968994140625
z: -0.0013707109028473496
","x: 201.26187133789062
y: 367.30841064453125
z: -0.003578686388209462
","x: 202.5459747314453
y: 372.1118469238281
z: -0.004323943983763456
","x: 203.31036376953125
y: 369.0071105957031
z: -0.0026823030784726143
","x: 203.34544372558594
y: 365.95452880859375
z: -0.0013901519123464823
","x: 199.2763214111328
y: 366.24658203125
z: -0.004572274163365364
","x: 200.52069091796875
y: 370.2880554199219
z: -0.00461878627538681
","x: 201.35157775878906
y: 367.7639465332031
z: -0.003334837267175317
","x: 201.51336669921875
y: 364.91156005859375
z: -0.002183129545301199
",,,,,,,,,,,,,,,,,,,,,
8,"x: 240.3726806640625
y: 221.0863494873047
z: -0.28792864084243774
visibility: 0.9999902844429016
","x: 243.064208984375
y: 213.112060546875
z: -0.27960526943206787
visibility: 0.9999619126319885
","x: 244.80435180664062
y: 212.9891815185547
z: -0.27964940667152405
visibility: 0.9999622702598572
","x: 246.61187744140625
y: 212.9148712158203
z: -0.2796708941459656
visibility: 0.9999606013298035
","x: 238.86749267578125
y: 213.07003784179688
z: -0.2722785770893097
visibility: 0.9999589920043945
","x: 237.56752014160156
y: 212.86988830566406
z: -0.2722780108451843
visibility: 0.9999522566795349
","x: 236.4099578857422
y: 212.76307678222656
z: -0.27227523922920227
visibility: 0.9999461770057678
","x: 250.515625
y: 214.95233154296875
z: -0.19067659974098206
visibility: 0.9999443292617798
","x: 236.22036743164062
y: 214.53900146484375
z: -0.1564701497554779
visibility: 0.9998788237571716
","x: 243.55230712890625
y: 227.83071899414062
z: -0.2510193884372711
visibility: 0.9999874830245972
","x: 238.3477325439453
y: 227.80389404296875
z: -0.2417350560426712
visibility: 0.9999799728393555
","x: 266.6496276855469
y: 258.47564697265625
z: -0.13801375031471252
visibility: 0.999981164932251
","x: 223.51748657226562
y: 257.4969177246094
z: -0.0480676032602787
visibility: 0.9999531507492065
","x: 272.4706115722656
y: 319.20648193359375
z: -0.12418321520090103
visibility: 0.9940858483314514
","x: 214.9401397705078
y: 314.0152587890625
z: 0.0027324813418090343
visibility: 0.9541388154029846
","x: 266.6072998046875
y: 367.29864501953125
z: -0.22445771098136902
visibility: 0.9861451983451843
","x: 205.4377899169922
y: 354.56427001953125
z: -0.12720033526420593
visibility: 0.9743277430534363
","x: 263.9927978515625
y: 382.6236267089844
z: -0.26015612483024597
visibility: 0.9708150029182434
","x: 201.79884338378906
y: 368.8880615234375
z: -0.1576458364725113
visibility: 0.9584536552429199
","x: 260.97381591796875
y: 378.2790832519531
z: -0.28703317046165466
visibility: 0.9722392559051514
","x: 203.0569610595703
y: 367.0758056640625
z: -0.19475996494293213
visibility: 0.961139976978302
","x: 260.975830078125
y: 374.3551025390625
z: -0.23559048771858215
visibility: 0.9637017846107483
","x: 204.90472412109375
y: 361.6934814453125
z: -0.1452832669019699
visibility: 0.9520874619483948
","x: 250.64414978027344
y: 373.15802001953125
z: -0.028134962543845177
visibility: 0.9997633099555969
","x: 227.7173309326172
y: 372.6199951171875
z: 0.028135430067777634
visibility: 0.9997333884239197
","x: 251.83456420898438
y: 457.61309814453125
z: -0.04070757329463959
visibility: 0.9934952855110168
","x: 229.360107421875
y: 457.4852294921875
z: 0.06365877389907837
visibility: 0.991449236869812
","x: 253.60116577148438
y: 540.498779296875
z: 0.03883092850446701
visibility: 0.9936909675598145
","x: 237.38316345214844
y: 532.00439453125
z: 0.20583245158195496
visibility: 0.9933063387870789
","x: 252.08731079101562
y: 551.3553466796875
z: 0.037740278989076614
visibility: 0.9163625836372375
","x: 240.66427612304688
y: 542.118408203125
z: 0.21185943484306335
visibility: 0.9487031698226929
","x: 254.89102172851562
y: 564.92138671875
z: -0.095029316842556
visibility: 0.9899892210960388
","x: 223.26370239257812
y: 552.3637084960938
z: 0.10631220042705536
visibility: 0.9908056855201721
","x: 203.04983520507812
y: 352.49359130859375
z: 0.0
","x: 206.62982177734375
y: 358.7898254394531
z: 0.00016495426825713366
","x: 208.18177795410156
y: 366.20159912109375
z: -0.0006123474449850619
","x: 207.95889282226562
y: 372.37432861328125
z: -0.0016673402860760689
","x: 207.45681762695312
y: 376.4999694824219
z: -0.002075487282127142
","x: 206.27059936523438
y: 368.90478515625
z: -0.0017196264816448092
","x: 207.01412963867188
y: 376.7632751464844
z: -0.0031305889133363962
","x: 207.3396759033203
y: 373.60845947265625
z: -0.0024302382953464985
","x: 207.16592407226562
y: 369.9126892089844
z: -0.0015440753195434809
","x: 203.5736541748047
y: 368.2594299316406
z: -0.0026574470102787018
","x: 204.73394775390625
y: 374.94683837890625
z: -0.0036819931119680405
","x: 205.35797119140625
y: 372.070556640625
z: -0.0024957747664302588
","x: 205.32852172851562
y: 368.6968994140625
z: -0.0013707109028473496
","x: 201.26187133789062
y: 367.30841064453125
z: -0.003578686388209462
","x: 202.5459747314453
y: 372.1118469238281
z: -0.004323943983763456
","x: 203.31036376953125
y: 369.0071105957031
z: -0.0026823030784726143
","x: 203.34544372558594
y: 365.95452880859375
z: -0.0013901519123464823
","x: 199.2763214111328
y: 366.24658203125
z: -0.004572274163365364
","x: 200.52069091796875
y: 370.2880554199219
z: -0.00461878627538681
","x: 201.35157775878906
y: 367.7639465332031
z: -0.003334837267175317
","x: 201.51336669921875
y: 364.91156005859375
z: -0.002183129545301199
",,,,,,,,,,,,,,,,,,,,,
9,"x: 238.16917419433594
y: 226.65280151367188
z: -0.2909776270389557
visibility: 0.9999893307685852
","x: 240.0551300048828
y: 218.06114196777344
z: -0.28397664427757263
visibility: 0.9999597668647766
","x: 241.5306396484375
y: 217.5619354248047
z: -0.28401118516921997
visibility: 0.9999608993530273
","x: 243.02569580078125
y: 217.1507568359375
z: -0.2840438485145569
visibility: 0.9999593496322632
","x: 236.34280395507812
y: 218.48544311523438
z: -0.27594295144081116
visibility: 0.9999551177024841
","x: 235.18167114257812
y: 218.4037628173828
z: -0.27595254778862
visibility: 0.9999473690986633
","x: 234.08944702148438
y: 218.33407592773438
z: -0.2759404480457306
visibility: 0.9999399185180664
","x: 247.00936889648438
y: 218.1700439453125
z: -0.19574357569217682
visibility: 0.9999451041221619
","x: 234.05545043945312
y: 218.927490234375
z: -0.15855222940444946
visibility: 0.9998664259910583
","x: 241.1329345703125
y: 232.6274871826172
z: -0.25426214933395386
visibility: 0.9999870657920837
","x: 236.70028686523438
y: 233.04930114746094
z: -0.24393165111541748
visibility: 0.9999783039093018
","x: 263.7786865234375
y: 260.732666015625
z: -0.14283373951911926
visibility: 0.9999824166297913
","x: 222.07252502441406
y: 258.37115478515625
z: -0.04835483804345131
visibility: 0.9999515414237976
","x: 267.70245361328125
y: 320.8200378417969
z: -0.1296621412038803
visibility: 0.9943868517875671
","x: 213.56353759765625
y: 311.12127685546875
z: -0.04170053452253342
visibility: 0.9474704265594482
","x: 262.1236877441406
y: 370.287109375
z: -0.21966400742530823
visibility: 0.9866423606872559
","x: 207.1300506591797
y: 349.2232971191406
z: -0.21262776851654053
visibility: 0.9710943102836609
","x: 260.4515686035156
y: 385.2373962402344
z: -0.25419938564300537
visibility: 0.9716841578483582
","x: 204.14927673339844
y: 361.71893310546875
z: -0.24806180596351624
visibility: 0.9545218348503113
","x: 256.8623962402344
y: 382.0399475097656
z: -0.280310720205307
visibility: 0.9730503559112549
","x: 205.50572204589844
y: 360.3089599609375
z: -0.2808951735496521
visibility: 0.9573799967765808
","x: 256.45428466796875
y: 377.9298095703125
z: -0.23026016354560852
visibility: 0.9645006656646729
","x: 207.13722229003906
y: 356.341796875
z: -0.23033273220062256
visibility: 0.9476245641708374
","x: 246.81692504882812
y: 373.210205078125
z: -0.03231734782457352
visibility: 0.9997685551643372
","x: 225.03456115722656
y: 372.3936767578125
z: 0.032311003655195236
visibility: 0.9997268319129944
","x: 244.7374267578125
y: 455.4328918457031
z: -0.05050108581781387
visibility: 0.9936183094978333
","x: 227.0984649658203
y: 456.505859375
z: 0.06635596603155136
visibility: 0.9908387660980225
","x: 251.37313842773438
y: 539.5087280273438
z: 0.02946598269045353
visibility: 0.9939819574356079
","x: 236.4947509765625
y: 530.8606567382812
z: 0.20237669348716736
visibility: 0.993118166923523
","x: 250.50161743164062
y: 550.4028930664062
z: 0.028488075360655785
visibility: 0.918259859085083
","x: 239.7333221435547
y: 540.4954833984375
z: 0.20856063067913055
visibility: 0.9485794901847839
","x: 253.94642639160156
y: 564.7975463867188
z: -0.10429074615240097
visibility: 0.9904277324676514
","x: 222.88836669921875
y: 552.27685546875
z: 0.1035824790596962
visibility: 0.9907169938087463
",,,,,,,,,,,,,,,,,,,,,,,,,,,,,,,,,,,,,,,,,,
10,"x: 234.09510803222656
y: 229.540771484375
z: -0.2695637047290802
visibility: 0.999984622001648
","x: 235.87733459472656
y: 221.24192810058594
z: -0.26478150486946106
visibility: 0.999953031539917
","x: 237.13821411132812
y: 220.64073181152344
z: -0.2648142874240875
visibility: 0.9999551773071289
","x: 238.43984985351562
y: 220.10934448242188
z: -0.2648998200893402
visibility: 0.9999542832374573
","x: 232.55982971191406
y: 221.73947143554688
z: -0.25464218854904175
visibility: 0.9999465942382812
","x: 231.45501708984375
y: 221.55015563964844
z: -0.25468605756759644
visibility: 0.9999375939369202
","x: 230.39883422851562
y: 221.41278076171875
z: -0.25467050075531006
visibility: 0.9999306201934814
","x: 242.16671752929688
y: 220.35955810546875
z: -0.177885964512825
visibility: 0.9999447464942932
","x: 230.4022979736328
y: 221.53994750976562
z: -0.12986847758293152
visibility: 0.9998423457145691
","x: 236.82586669921875
y: 235.30215454101562
z: -0.23080608248710632
visibility: 0.999981701374054
","x: 232.94970703125
y: 235.4947052001953
z: -0.21804742515087128
visibility: 0.9999649524688721
","x: 259.9266357421875
y: 260.54254150390625
z: -0.13192102313041687
visibility: 0.999983012676239
","x: 219.2577667236328
y: 258.7951354980469
z: -0.008170030079782009
visibility: 0.9999363422393799
","x: 262.4554138183594
y: 322.22412109375
z: -0.11638567596673965
visibility: 0.9943240880966187
","x: 211.73355102539062
y: 311.1365051269531
z: -0.06572363525629044
visibility: 0.9195871353149414
","x: 261.90380859375
y: 374.2732238769531
z: -0.17934365570545197
visibility: 0.984017550945282
","x: 208.0432891845703
y: 332.6474304199219
z: -0.29846060276031494
visibility: 0.9567124247550964
","x: 262.21612548828125
y: 388.96875
z: -0.20378832519054413
visibility: 0.9671157598495483
","x: 205.10841369628906
y: 339.67626953125
z: -0.3391569256782532
visibility: 0.9393985867500305
","x: 259.20611572265625
y: 387.70013427734375
z: -0.2266082763671875
visibility: 0.9688201546669006
","x: 206.89781188964844
y: 332.6224365234375
z: -0.3608512282371521
visibility: 0.943173885345459
","x: 258.2734375
y: 383.6542053222656
z: -0.18789377808570862
visibility: 0.9589641094207764
","x: 207.33370971679688
y: 331.192138671875
z: -0.31373605132102966
visibility: 0.9308456778526306
","x: 245.0781707763672
y: 370.3128356933594
z: -0.06330844014883041
visibility: 0.9997546076774597
","x: 223.8100128173828
y: 370.56817626953125
z: 0.06327244639396667
visibility: 0.9996679425239563
","x: 235.98178100585938
y: 451.2068176269531
z: -0.11047093570232391
visibility: 0.9923188090324402
","x: 226.74395751953125
y: 452.9373779296875
z: 0.06058122590184212
visibility: 0.9736001491546631
","x: 241.19825744628906
y: 537.3214111328125
z: -0.05585957691073418
visibility: 0.993534505367279
","x: 236.51495361328125
y: 529.2546997070312
z: 0.13473005592823029
visibility: 0.9884549975395203
","x: 244.34080505371094
y: 550.2734985351562
z: -0.05814230442047119
visibility: 0.9155434370040894
","x: 239.99981689453125
y: 540.1807250976562
z: 0.1365378201007843
visibility: 0.9458499550819397
","x: 228.43035888671875
y: 560.4105224609375
z: -0.1885678619146347
visibility: 0.9901248216629028
","x: 222.83554077148438
y: 551.0533447265625
z: 0.036459021270275116
visibility: 0.9877919554710388
",,,,,,,,,,,,,,,,,,,,,,,,,,,,,,,,,,,,,,,,,,
11,"x: 229.6453399658203
y: 228.4785614013672
z: -0.2274227887392044
visibility: 0.999977171421051
","x: 231.26046752929688
y: 220.2762451171875
z: -0.22218386828899384
visibility: 0.9999333620071411
","x: 232.5035858154297
y: 219.6092529296875
z: -0.22217261791229248
visibility: 0.9999377727508545
","x: 233.72207641601562
y: 219.01406860351562
z: -0.22221939265727997
visibility: 0.9999327659606934
","x: 228.16424560546875
y: 220.9281768798828
z: -0.21346931159496307
visibility: 0.99992835521698
","x: 227.21095275878906
y: 220.7541046142578
z: -0.21352975070476532
visibility: 0.999921441078186
","x: 226.29043579101562
y: 220.59194946289062
z: -0.21353104710578918
visibility: 0.9999125003814697
","x: 236.99058532714844
y: 219.55487060546875
z: -0.13846136629581451
visibility: 0.9999300241470337
","x: 226.86962890625
y: 220.7626495361328
z: -0.09789697825908661
visibility: 0.9997952580451965
","x: 232.87510681152344
y: 234.31265258789062
z: -0.19059285521507263
visibility: 0.9999687075614929
","x: 229.10614013671875
y: 234.18923950195312
z: -0.17936375737190247
visibility: 0.9999343752861023
","x: 254.96629333496094
y: 257.891357421875
z: -0.08154431730508804
visibility: 0.9999828934669495
","x: 217.0946502685547
y: 256.7853088378906
z: 0.0001069966092472896
visibility: 0.999923825263977
","x: 260.90863037109375
y: 319.77838134765625
z: -0.045335255563259125
visibility: 0.9940003752708435
","x: 208.13763427734375
y: 309.44970703125
z: -0.11221025139093399
visibility: 0.9208341240882874
","x: 264.3971862792969
y: 372.9848937988281
z: -0.07509276270866394
visibility: 0.9832487106323242
","x: 213.560791015625
y: 301.1082763671875
z: -0.3551606833934784
visibility: 0.9591692090034485
","x: 263.91827392578125
y: 387.10614013671875
z: -0.08779104799032211
visibility: 0.9655801653862
","x: 214.95899963378906
y: 299.7242126464844
z: -0.39725878834724426
visibility: 0.9422386884689331
","x: 261.396728515625
y: 385.4011535644531
z: -0.11257775872945786
visibility: 0.9673738479614258
","x: 216.79794311523438
y: 292.9219970703125
z: -0.40139371156692505
visibility: 0.9455918669700623
","x: 260.684326171875
y: 381.2066955566406
z: -0.08351627737283707
visibility: 0.9573211073875427
","x: 217.27487182617188
y: 293.2983093261719
z: -0.36255213618278503
visibility: 0.9327973127365112
","x: 243.88795471191406
y: 367.4123840332031
z: -0.05957818776369095
visibility: 0.9997520446777344
","x: 224.10057067871094
y: 367.1090393066406
z: 0.059570275247097015
visibility: 0.9996272325515747
","x: 234.234619140625
y: 450.5223083496094
z: -0.14220112562179565
visibility: 0.9903029203414917
","x: 226.90696716308594
y: 450.5342102050781
z: 0.07596971839666367
visibility: 0.9596289992332458
","x: 228.4162139892578
y: 537.4212646484375
z: -0.12439396232366562
visibility: 0.9928188323974609
","x: 236.64633178710938
y: 526.5368041992188
z: 0.15957507491111755
visibility: 0.9836736917495728
","x: 230.02627563476562
y: 551.1907958984375
z: -0.1308811604976654
visibility: 0.9144943952560425
","x: 245.3529510498047
y: 537.9219970703125
z: 0.16491743922233582
visibility: 0.9438083171844482
","x: 211.71939086914062
y: 559.2157592773438
z: -0.25902870297431946
visibility: 0.9891782402992249
","x: 223.82437133789062
y: 548.1548461914062
z: 0.07786301523447037
visibility: 0.9840642809867859
",,,,,,,,,,,,,,,,,,,,,,,,,,,,,,,,,,,,,,,,,,
12,"x: 226.4534912109375
y: 227.9493408203125
z: -0.18496869504451752
visibility: 0.9999732971191406
","x: 228.20826721191406
y: 219.58639526367188
z: -0.18086841702461243
visibility: 0.9999241828918457
","x: 229.48736572265625
y: 218.92210388183594
z: -0.18086303770542145
visibility: 0.9999307990074158
","x: 230.72332763671875
y: 218.33935546875
z: -0.18090002238750458
visibility: 0.999923586845398
","x: 224.9029998779297
y: 220.43975830078125
z: -0.16909079253673553
visibility: 0.9999178647994995
","x: 223.93211364746094
y: 220.35498046875
z: -0.16913679242134094
visibility: 0.9999122619628906
","x: 222.9957275390625
y: 220.27540588378906
z: -0.16911132633686066
visibility: 0.999901533126831
","x: 234.20318603515625
y: 219.0764617919922
z: -0.11085303127765656
visibility: 0.9999253749847412
","x: 223.98745727539062
y: 220.64492797851562
z: -0.05672801658511162
visibility: 0.9997525215148926
","x: 229.881591796875
y: 233.54013061523438
z: -0.15440189838409424
visibility: 0.999961256980896
","x: 225.957275390625
y: 233.51315307617188
z: -0.13910269737243652
visibility: 0.9999096989631653
","x: 251.9564208984375
y: 256.89935302734375
z: -0.06763572990894318
visibility: 0.9999830722808838
","x: 216.12953186035156
y: 257.8735046386719
z: 0.03552665561437607
visibility: 0.9998959898948669
","x: 260.31121826171875
y: 318.82122802734375
z: -0.035418637096881866
visibility: 0.9940738677978516
","x: 205.78070068359375
y: 311.0035400390625
z: -0.08674544841051102
visibility: 0.9187636971473694
","x: 265.7502136230469
y: 372.1313171386719
z: -0.04878713935613632
visibility: 0.9828432202339172
","x: 214.39593505859375
y: 284.863525390625
z: -0.33095088601112366
visibility: 0.9607471227645874
","x: 264.3800964355469
y: 386.4448547363281
z: -0.05744163319468498
visibility: 0.9642350077629089
","x: 216.77687072753906
y: 277.0010681152344
z: -0.37191230058670044
visibility: 0.9434897899627686
","x: 262.4582824707031
y: 385.8038024902344
z: -0.07976764440536499
visibility: 0.9660940170288086
","x: 218.875
y: 270.89593505859375
z: -0.37020283937454224
visibility: 0.9463051557540894
","x: 261.8105773925781
y: 381.90728759765625
z: -0.05546184629201889
visibility: 0.9561168551445007
","x: 219.05372619628906
y: 273.16583251953125
z: -0.33642885088920593
visibility: 0.9325300455093384
","x: 241.03860473632812
y: 366.05029296875
z: -0.06512314826250076
visibility: 0.999758243560791
","x: 222.55035400390625
y: 364.8295593261719
z: 0.06509150564670563
visibility: 0.9995985627174377
","x: 232.32449340820312
y: 448.9496154785156
z: -0.14543963968753815
visibility: 0.9872127771377563
","x: 227.07542419433594
y: 446.177001953125
z: 0.0779838114976883
visibility: 0.9385667443275452
","x: 225.7550048828125
y: 538.2228393554688
z: -0.13219192624092102
visibility: 0.9920033812522888
","x: 240.21714782714844
y: 525.1524658203125
z: 0.1612507551908493
visibility: 0.9774664044380188
","x: 228.6540069580078
y: 552.904541015625
z: -0.13815875351428986
visibility: 0.914223313331604
","x: 250.33326721191406
y: 535.3739624023438
z: 0.165725439786911
visibility: 0.9413087964057922
","x: 205.6197509765625
y: 559.5501708984375
z: -0.25869840383529663
visibility: 0.9881892204284668
","x: 229.42654418945312
y: 543.20361328125
z: 0.08341111242771149
visibility: 0.9797419905662537
",,,,,,,,,,,,,,,,,,,,,,,,,,,,,,,,,,,,,,,,,,
13,"x: 225.60479736328125
y: 226.74049377441406
z: -0.21777915954589844
visibility: 0.9999727606773376
","x: 227.2642364501953
y: 218.55108642578125
z: -0.21204669773578644
visibility: 0.9999248385429382
","x: 228.46014404296875
y: 217.92822265625
z: -0.21205559372901917
visibility: 0.9999321103096008
","x: 229.69189453125
y: 217.3872528076172
z: -0.21209940314292908
visibility: 0.9999247193336487
","x: 223.89349365234375
y: 219.6260223388672
z: -0.20162251591682434
visibility: 0.9999173283576965
","x: 222.84429931640625
y: 219.71815490722656
z: -0.20166094601154327
visibility: 0.9999120831489563
","x: 221.74903869628906
y: 219.74697875976562
z: -0.2016279697418213
visibility: 0.9999002814292908
","x: 233.12454223632812
y: 218.89425659179688
z: -0.1334000825881958
visibility: 0.9999290108680725
","x: 221.90628051757812
y: 220.51968383789062
z: -0.08620025217533112
visibility: 0.99974524974823
","x: 228.52633666992188
y: 232.66226196289062
z: -0.18433919548988342
visibility: 0.9999604821205139
","x: 224.5384521484375
y: 232.36952209472656
z: -0.17097923159599304
visibility: 0.9999042749404907
","x: 249.1707000732422
y: 255.83377075195312
z: -0.08745408058166504
visibility: 0.9999839067459106
","x: 214.0458526611328
y: 257.8690490722656
z: 0.026113811880350113
visibility: 0.9998668432235718
","x: 255.86367797851562
y: 318.8006286621094
z: -0.058249711990356445
visibility: 0.9943902492523193
","x: 204.5724334716797
y: 313.0758361816406
z: -0.08298046141862869
visibility: 0.9076454043388367
","x: 262.1701354980469
y: 375.96600341796875
z: -0.09347059577703476
visibility: 0.9832248687744141
","x: 214.08389282226562
y: 292.8290710449219
z: -0.33189743757247925
visibility: 0.9599987864494324
","x: 262.589111328125
y: 388.95733642578125
z: -0.10577823221683502
visibility: 0.9645131230354309
","x: 215.5982666015625
y: 287.1314697265625
z: -0.3696154057979584
visibility: 0.9422714710235596
","x: 258.46380615234375
y: 389.33770751953125
z: -0.12702038884162903
visibility: 0.966347336769104
","x: 217.33157348632812
y: 280.8437194824219
z: -0.37179651856422424
visibility: 0.9446644186973572
","x: 257.7867126464844
y: 385.2003479003906
z: -0.09971411526203156
visibility: 0.9565866589546204
","x: 217.76904296875
y: 282.06146240234375
z: -0.3388631045818329
visibility: 0.9292356967926025
","x: 238.4954833984375
y: 364.1204528808594
z: -0.07307750731706619
visibility: 0.9997652769088745
","x: 220.4761505126953
y: 363.35882568359375
z: 0.07302368432283401
visibility: 0.9995757341384888
","x: 229.6619415283203
y: 443.5223693847656
z: -0.15427502989768982
visibility: 0.9852902293205261
","x: 226.4940643310547
y: 444.93878173828125
z: 0.08270788937807083
visibility: 0.9146772623062134
","x: 227.1849822998047
y: 537.4732666015625
z: -0.13103105127811432
visibility: 0.9915433526039124
","x: 240.11666870117188
y: 525.6477661132812
z: 0.16326557099819183
visibility: 0.9713394045829773
","x: 230.22381591796875
y: 551.936767578125
z: -0.13567399978637695
visibility: 0.9156154990196228
","x: 249.560791015625
y: 535.0697631835938
z: 0.16677020490169525
visibility: 0.9392194747924805
","x: 208.23944091796875
y: 559.491943359375
z: -0.2507362961769104
visibility: 0.9877626299858093
","x: 228.30050659179688
y: 543.8353881835938
z: 0.08567945659160614
visibility: 0.9757677912712097
",,,,,,,,,,,,,,,,,,,,,,,,,,,,,,,,,,,,,,,,,,
14,"x: 222.7517852783203
y: 221.73561096191406
z: -0.1991906762123108
visibility: 0.9999710917472839
","x: 225.345947265625
y: 213.853759765625
z: -0.19561131298542023
visibility: 0.9999259114265442
","x: 226.8091278076172
y: 213.72402954101562
z: -0.1956562101840973
visibility: 0.9999335408210754
","x: 228.387939453125
y: 213.7161102294922
z: -0.19571241736412048
visibility: 0.9999274611473083
","x: 221.88624572753906
y: 214.38392639160156
z: -0.1792074590921402
visibility: 0.9999162554740906
","x: 220.96234130859375
y: 214.6617889404297
z: -0.17923086881637573
visibility: 0.9999099373817444
","x: 220.02520751953125
y: 214.86473083496094
z: -0.1792127788066864
visibility: 0.9998985528945923
","x: 232.76893615722656
y: 217.9254150390625
z: -0.1378435492515564
visibility: 0.9999326467514038
","x: 220.87106323242188
y: 218.56564331054688
z: -0.06573338806629181
visibility: 0.9997406005859375
","x: 226.14926147460938
y: 229.47396850585938
z: -0.1757662445306778
visibility: 0.9999611973762512
","x: 221.75582885742188
y: 228.72210693359375
z: -0.15468992292881012
visibility: 0.9999037384986877
","x: 247.65577697753906
y: 255.77230834960938
z: -0.14075279235839844
visibility: 0.999984860420227
","x: 213.25735473632812
y: 261.00567626953125
z: 0.05612320825457573
visibility: 0.9998393654823303
","x: 251.87799072265625
y: 318.7628173828125
z: -0.15701094269752502
visibility: 0.9947606921195984
","x: 205.4751434326172
y: 316.3064270019531
z: 0.020165864378213882
visibility: 0.8653349280357361
","x: 249.3678436279297
y: 376.13427734375
z: -0.20392727851867676
visibility: 0.9837722778320312
","x: 201.342041015625
y: 317.6566467285156
z: -0.19905169308185577
visibility: 0.9496872425079346
","x: 249.01905822753906
y: 389.9937438964844
z: -0.23206070065498352
visibility: 0.9657806158065796
","x: 200.72447204589844
y: 319.74615478515625
z: -0.23453059792518616
visibility: 0.9338542819023132
","x: 244.3314208984375
y: 390.01153564453125
z: -0.24871687591075897
visibility: 0.9675143361091614
","x: 199.41983032226562
y: 312.6885681152344
z: -0.2537936270236969
visibility: 0.9367973804473877
","x: 243.5121307373047
y: 385.252685546875
z: -0.20899741351604462
visibility: 0.9578543305397034
","x: 203.65379333496094
y: 306.96405029296875
z: -0.21377325057983398
visibility: 0.9197112321853638
","x: 235.4393768310547
y: 364.6826171875
z: -0.0858091413974762
visibility: 0.999773383140564
","x: 218.81512451171875
y: 363.9761047363281
z: 0.08578812330961227
visibility: 0.9995614290237427
","x: 226.7470245361328
y: 442.4427490234375
z: -0.1556338667869568
visibility: 0.9840758442878723
","x: 220.9284210205078
y: 445.1712646484375
z: 0.08242983371019363
visibility: 0.8970969319343567
","x: 228.1567840576172
y: 535.322998046875
z: -0.12467978149652481
visibility: 0.9915841817855835
","x: 238.19786071777344
y: 524.3926391601562
z: 0.17468957602977753
visibility: 0.9660690426826477
","x: 231.8006134033203
y: 548.54931640625
z: -0.12835073471069336
visibility: 0.9187067747116089
","x: 246.57901000976562
y: 533.5187377929688
z: 0.17877830564975739
visibility: 0.9377943277359009
","x: 207.80001831054688
y: 559.40625
z: -0.24570691585540771
visibility: 0.9878663420677185
","x: 224.45635986328125
y: 544.6688232421875
z: 0.11226214468479156
visibility: 0.9723361730575562
",,,,,,,,,,,,,,,,,,,,,,,,,,,,,,,,,,,,,,,,,,
15,"x: 221.6237335205078
y: 221.70999145507812
z: -0.21893484890460968
visibility: 0.999969482421875
","x: 224.35337829589844
y: 213.7430419921875
z: -0.212793231010437
visibility: 0.9999250173568726
","x: 225.8850860595703
y: 213.6031494140625
z: -0.21282127499580383
visibility: 0.9999339580535889
","x: 227.5403594970703
y: 213.58590698242188
z: -0.21286197006702423
visibility: 0.9999293088912964
","x: 221.00155639648438
y: 214.21987915039062
z: -0.2001061886548996
visibility: 0.9999111294746399
","x: 220.1535186767578
y: 214.43116760253906
z: -0.20011897385120392
visibility: 0.9999017715454102
","x: 219.33860778808594
y: 214.55081176757812
z: -0.2001059502363205
visibility: 0.9998899102210999
","x: 232.794921875
y: 217.86260986328125
z: -0.17201931774616241
visibility: 0.9999354481697083
","x: 221.46685791015625
y: 217.92074584960938
z: -0.08178558200597763
visibility: 0.9997230768203735
","x: 225.2455596923828
y: 229.45413208007812
z: -0.17884454131126404
visibility: 0.9999628067016602
","x: 221.33985900878906
y: 228.67922973632812
z: -0.17262586951255798
visibility: 0.9999053478240967
","x: 248.26910400390625
y: 256.72900390625
z: -0.18141978979110718
visibility: 0.9999861717224121
","x: 213.97781372070312
y: 260.8670349121094
z: 0.03830448165535927
visibility: 0.9998407363891602
","x: 249.0672149658203
y: 320.5176086425781
z: -0.2125801146030426
visibility: 0.9951721429824829
","x: 205.7041473388672
y: 313.3233947753906
z: 0.05084938928484917
visibility: 0.8454127311706543
","x: 240.12820434570312
y: 378.67181396484375
z: -0.276314914226532
visibility: 0.984930157661438
","x: 198.7244873046875
y: 343.7975769042969
z: -0.10775204747915268
visibility: 0.940824031829834
","x: 238.4508514404297
y: 394.8773193359375
z: -0.31304648518562317
visibility: 0.9681479930877686
","x: 195.99583435058594
y: 357.99578857421875
z: -0.13882175087928772
visibility: 0.9238492846488953
","x: 234.40628051757812
y: 393.12200927734375
z: -0.33060741424560547
visibility: 0.9697193503379822
","x: 197.36782836914062
y: 356.79254150390625
z: -0.16804440319538116
visibility: 0.9271517992019653
","x: 234.2523651123047
y: 387.3771667480469
z: -0.282291442155838
visibility: 0.9603205919265747
","x: 199.37652587890625
y: 351.7285461425781
z: -0.12508216500282288
visibility: 0.9093494415283203
","x: 232.20542907714844
y: 367.87615966796875
z: -0.08700389415025711
visibility: 0.9997897148132324
","x: 214.4875946044922
y: 364.54205322265625
z: 0.08702220022678375
visibility: 0.9995802044868469
","x: 223.55201721191406
y: 443.91790771484375
z: -0.1465364545583725
visibility: 0.9846051931381226
","x: 212.53712463378906
y: 447.4742126464844
z: 0.08416925370693207
visibility: 0.9021413922309875
","x: 226.2069854736328
y: 535.3673095703125
z: -0.10558371245861053
visibility: 0.992199718952179
","x: 237.14981079101562
y: 523.51904296875
z: 0.20843549072742462
visibility: 0.9669865965843201
","x: 228.41786193847656
y: 548.9943237304688
z: -0.10930275917053223
visibility: 0.9240192770957947
","x: 245.3391571044922
y: 530.8199462890625
z: 0.216019868850708
visibility: 0.9409403204917908
","x: 206.2889404296875
y: 559.5347290039062
z: -0.2387884110212326
visibility: 0.988670825958252
","x: 225.4578399658203
y: 544.2536010742188
z: 0.15059086680412292
visibility: 0.9730896949768066
",,,,,,,,,,,,,,,,,,,,,,,,,,,,,,,,,,,,,,,,,,
16,"x: 221.04478454589844
y: 221.53652954101562
z: -0.24077430367469788
visibility: 0.9999694228172302
","x: 224.10479736328125
y: 213.4752655029297
z: -0.23844332993030548
visibility: 0.9999279975891113
","x: 225.76828002929688
y: 213.38772583007812
z: -0.23851220309734344
visibility: 0.9999372363090515
","x: 227.54673767089844
y: 213.42715454101562
z: -0.2386043816804886
visibility: 0.9999337792396545
","x: 220.62637329101562
y: 213.74185180664062
z: -0.21720103919506073
visibility: 0.9999104738235474
","x: 219.74551391601562
y: 213.85067749023438
z: -0.21714787185192108
visibility: 0.9998987317085266
","x: 218.88648986816406
y: 213.86013793945312
z: -0.2171376645565033
visibility: 0.9998868703842163
","x: 233.0614776611328
y: 217.7581024169922
z: -0.18736810982227325
visibility: 0.9999403953552246
","x: 220.92759704589844
y: 217.1630096435547
z: -0.08852289617061615
visibility: 0.9997255802154541
","x: 224.68675231933594
y: 229.42665100097656
z: -0.2155933380126953
visibility: 0.9999653100967407
","x: 220.61917114257812
y: 228.54513549804688
z: -0.19027136266231537
visibility: 0.9999088048934937
","x: 248.3748779296875
y: 257.2241516113281
z: -0.18846395611763
visibility: 0.9999874830245972
","x: 213.3295135498047
y: 262.0090026855469
z: 0.037032030522823334
visibility: 0.9998073577880859
","x: 250.41183471679688
y: 320.62322998046875
z: -0.21576833724975586
visibility: 0.995591938495636
","x: 204.6772003173828
y: 317.5072021484375
z: 0.09958631545305252
visibility: 0.7916901111602783
","x: 228.56532287597656
y: 366.3790588378906
z: -0.2823522388935089
visibility: 0.9861708283424377
","x: 198.21263122558594
y: 350.5788879394531
z: -0.022527199238538742
visibility: 0.8953623175621033
","x: 222.79452514648438
y: 380.0683288574219
z: -0.3180757164955139
visibility: 0.9705994725227356
","x: 196.40708923339844
y: 365.2752380371094
z: -0.04828645661473274
visibility: 0.8768842220306396
","x: 218.93923950195312
y: 373.0561828613281
z: -0.3286523222923279
visibility: 0.9719879031181335
","x: 196.91983032226562
y: 362.2236328125
z: -0.07985793054103851
visibility: 0.8806782960891724
","x: 220.2184295654297
y: 368.3892517089844
z: -0.28444355726242065
visibility: 0.962859034538269
","x: 198.59141540527344
y: 358.84808349609375
z: -0.039813488721847534
visibility: 0.8625243306159973
","x: 232.4176788330078
y: 369.91522216796875
z: -0.07983597368001938
visibility: 0.9998041391372681
","x: 211.73680114746094
y: 367.2222595214844
z: 0.07986457645893097
visibility: 0.9995893836021423
","x: 222.82000732421875
y: 451.48443603515625
z: -0.15841735899448395
visibility: 0.9854741096496582
","x: 199.4709014892578
y: 448.2969665527344
z: -0.02935950830578804
visibility: 0.9096589684486389
","x: 224.99649047851562
y: 535.5223388671875
z: -0.09862391650676727
visibility: 0.9926477670669556
","x: 225.14630126953125
y: 516.4161987304688
z: 0.148277148604393
visibility: 0.9672130346298218
","x: 228.49148559570312
y: 550.1068115234375
z: -0.08527922630310059
visibility: 0.9233325719833374
","x: 230.78036499023438
y: 522.3740234375
z: 0.16201959550380707
visibility: 0.9403483271598816
","x: 208.35072326660156
y: 560.3539428710938
z: -0.2206905633211136
visibility: 0.9890785217285156
","x: 214.0363006591797
y: 544.5817260742188
z: 0.09593375027179718
visibility: 0.9729042649269104
",,,,,,,,,,,,,,,,,,,,,,,,,,,,,,,,,,,,,,,,,,
17,"x: 220.48953247070312
y: 212.42576599121094
z: -0.22952494025230408
visibility: 0.9999696016311646
","x: 223.69354248046875
y: 204.82553100585938
z: -0.22634240984916687
visibility: 0.9999284148216248
","x: 225.420654296875
y: 205.1090087890625
z: -0.22643928229808807
visibility: 0.9999375939369202
","x: 227.2731170654297
y: 205.43821716308594
z: -0.22652669250965118
visibility: 0.9999350905418396
","x: 219.7957305908203
y: 203.99566650390625
z: -0.20891913771629333
visibility: 0.9999105930328369
","x: 218.76828002929688
y: 203.7466278076172
z: -0.20886938273906708
visibility: 0.9998968839645386
","x: 217.7705078125
y: 203.45980834960938
z: -0.20885996520519257
visibility: 0.9998844265937805
","x: 232.27386474609375
y: 209.33241271972656
z: -0.16209504008293152
visibility: 0.9999444484710693
","x: 219.3529052734375
y: 205.96311950683594
z: -0.0794890969991684
visibility: 0.9997317790985107
","x: 223.7903289794922
y: 220.68814086914062
z: -0.2007606029510498
visibility: 0.9999673962593079
","x: 219.23976135253906
y: 219.4095001220703
z: -0.17803731560707092
visibility: 0.9999130964279175
","x: 247.2251739501953
y: 252.02218627929688
z: -0.18207505345344543
visibility: 0.9999883770942688
","x: 210.1537322998047
y: 251.73220825195312
z: 0.05677865073084831
visibility: 0.9998006224632263
","x: 252.72866821289062
y: 313.8037414550781
z: -0.17174917459487915
visibility: 0.9959450364112854
","x: 205.08010864257812
y: 312.00738525390625
z: 0.09557811170816422
visibility: 0.7417861223220825
","x: 226.62246704101562
y: 331.4089660644531
z: -0.25868913531303406
visibility: 0.9871165752410889
","x: 197.20220947265625
y: 343.2702331542969
z: -0.06861516088247299
visibility: 0.8647027015686035
","x: 219.59642028808594
y: 340.53070068359375
z: -0.29642733931541443
visibility: 0.9723032116889954
","x: 194.54116821289062
y: 353.605712890625
z: -0.10041308403015137
visibility: 0.8457086086273193
","x: 217.3469696044922
y: 333.10906982421875
z: -0.30428260564804077
visibility: 0.9735139608383179
","x: 194.67185974121094
y: 350.1177978515625
z: -0.13344338536262512
visibility: 0.850399374961853
","x: 218.27096557617188
y: 330.182373046875
z: -0.2605865001678467
visibility: 0.9642391800880432
","x: 196.02191162109375
y: 347.250244140625
z: -0.08765597641468048
visibility: 0.8316736221313477
","x: 231.44866943359375
y: 369.49481201171875
z: -0.07652615010738373
visibility: 0.9997681379318237
","x: 209.16558837890625
y: 366.29034423828125
z: 0.07690320909023285
visibility: 0.9995598196983337
","x: 226.9255828857422
y: 451.9578857421875
z: -0.08634877949953079
visibility: 0.986626386642456
","x: 199.16302490234375
y: 448.5118408203125
z: -0.005557962227612734
visibility: 0.9179501533508301
","x: 225.68673706054688
y: 537.164794921875
z: 0.022570354864001274
visibility: 0.9930629134178162
","x: 203.6304931640625
y: 523.884521484375
z: 0.1292111724615097
visibility: 0.9699710607528687
","x: 227.490234375
y: 552.91357421875
z: 0.024674955755472183
visibility: 0.9216622710227966
","x: 208.42434692382812
y: 534.8955688476562
z: 0.13465572893619537
visibility: 0.9437991976737976
","x: 208.9952850341797
y: 560.410400390625
z: -0.11568151414394379
visibility: 0.9894809722900391
","x: 188.486328125
y: 552.8264770507812
z: 0.03330022841691971
visibility: 0.9748768210411072
",,,,,,,,,,,,,,,,,,,,,,,,,,,,,,,,,,,,,,,,,,
18,"x: 220.21810913085938
y: 209.89309692382812
z: -0.2305469810962677
visibility: 0.9999701976776123
","x: 223.7054901123047
y: 202.0956268310547
z: -0.22373545169830322
visibility: 0.9999293684959412
","x: 225.4845733642578
y: 202.52394104003906
z: -0.22383224964141846
visibility: 0.9999377131462097
","x: 227.337646484375
y: 202.89395141601562
z: -0.22391435503959656
visibility: 0.9999358057975769
","x: 219.3678741455078
y: 200.53829956054688
z: -0.21131618320941925
visibility: 0.9999120831489563
","x: 218.04420471191406
y: 199.8228302001953
z: -0.21127919852733612
visibility: 0.9998966455459595
","x: 216.79393005371094
y: 199.09202575683594
z: -0.21126267313957214
visibility: 0.9998833537101746
","x: 231.68540954589844
y: 206.4432373046875
z: -0.1307167112827301
visibility: 0.9999473094940186
","x: 217.26931762695312
y: 200.32473754882812
z: -0.08281029760837555
visibility: 0.9997361898422241
","x: 222.93328857421875
y: 217.88088989257812
z: -0.19387087225914001
visibility: 0.9999690651893616
","x: 217.98138427734375
y: 216.56137084960938
z: -0.17911800742149353
visibility: 0.9999174475669861
","x: 244.29751586914062
y: 248.67413330078125
z: -0.09507329016923904
visibility: 0.9999889731407166
","x: 204.89895629882812
y: 247.0557403564453
z: 0.05506749078631401
visibility: 0.9997979402542114
","x: 253.45785522460938
y: 309.7244567871094
z: -0.12469172477722168
visibility: 0.996247410774231
","x: 201.4570770263672
y: 308.1534118652344
z: 0.10726670920848846
visibility: 0.7079997658729553
","x: 227.545654296875
y: 321.3410949707031
z: -0.236625075340271
visibility: 0.9879681468009949
","x: 195.64260864257812
y: 341.67047119140625
z: -0.03619607537984848
visibility: 0.8411568999290466
","x: 219.9863739013672
y: 329.1058044433594
z: -0.2751033306121826
visibility: 0.9737988114356995
","x: 193.23619079589844
y: 350.8084716796875
z: -0.06562889367341995
visibility: 0.8210591077804565
","x: 217.94369506835938
y: 321.515380859375
z: -0.2839668393135071
visibility: 0.9748525619506836
","x: 193.724853515625
y: 348.1149597167969
z: -0.10034795105457306
visibility: 0.8266652822494507
","x: 219.16226196289062
y: 319.16357421875
z: -0.23974499106407166
visibility: 0.9655464291572571
","x: 195.21070861816406
y: 344.579833984375
z: -0.05425431206822395
visibility: 0.8067715764045715
","x: 230.2687225341797
y: 369.4914245605469
z: -0.05267301946878433
visibility: 0.9997175335884094
","x: 206.36004638671875
y: 366.35882568359375
z: 0.05294495075941086
visibility: 0.9995022416114807
","x: 228.84994506835938
y: 454.6473693847656
z: -0.051479704678058624
visibility: 0.9875712394714355
","x: 199.6860809326172
y: 452.34637451171875
z: 0.017724763602018356
visibility: 0.925211489200592
","x: 226.1585693359375
y: 537.6829833984375
z: 0.06447859108448029
visibility: 0.9931116700172424
","x: 194.8592071533203
y: 535.656982421875
z: 0.13625994324684143
visibility: 0.9724105596542358
","x: 226.92901611328125
y: 553.6716918945312
z: 0.06704558432102203
visibility: 0.916185736656189
","x: 199.40281677246094
y: 548.71630859375
z: 0.139103502035141
visibility: 0.9458722472190857
","x: 210.61764526367188
y: 560.127197265625
z: -0.06429767608642578
visibility: 0.989260733127594
","x: 183.37612915039062
y: 561.7119750976562
z: 0.029581120237708092
visibility: 0.9764094948768616
",,,,,,,,,,,,,,,,,,,,,,,,,,,,,,,,,,,,,,,,,,
19,"x: 218.05712890625
y: 208.8907470703125
z: -0.23080217838287354
visibility: 0.9999653697013855
","x: 221.7058563232422
y: 200.8830108642578
z: -0.2229558527469635
visibility: 0.9999122619628906
","x: 223.44921875
y: 201.22886657714844
z: -0.2230367213487625
visibility: 0.9999219179153442
","x: 225.26242065429688
y: 201.53897094726562
z: -0.22310706973075867
visibility: 0.9999205470085144
","x: 217.0908966064453
y: 199.4327392578125
z: -0.2127493917942047
visibility: 0.999894917011261
","x: 215.47607421875
y: 198.6634063720703
z: -0.2127242535352707
visibility: 0.9998731017112732
","x: 214.03761291503906
y: 197.88160705566406
z: -0.21270790696144104
visibility: 0.9998580813407898
","x: 229.0484619140625
y: 204.57058715820312
z: -0.12871599197387695
visibility: 0.9999383687973022
","x: 213.70999145507812
y: 198.34779357910156
z: -0.08680451661348343
visibility: 0.9996877908706665
","x: 220.48495483398438
y: 216.55038452148438
z: -0.19213053584098816
visibility: 0.9999657273292542
","x: 215.23095703125
y: 215.56842041015625
z: -0.18059128522872925
visibility: 0.9999133944511414
","x: 241.540771484375
y: 244.96568298339844
z: -0.08477115631103516
visibility: 0.9999892115592957
","x: 199.9144744873047
y: 245.5867919921875
z: 0.0433683767914772
visibility: 0.999800980091095
","x: 248.64320373535156
y: 305.081298828125
z: -0.10265638679265976
visibility: 0.9963536858558655
","x: 193.67312622070312
y: 307.44195556640625
z: 0.08703821152448654
visibility: 0.709870457649231
","x: 225.80810546875
y: 328.69818115234375
z: -0.22583787143230438
visibility: 0.9881975650787354
","x: 188.81861877441406
y: 350.7423400878906
z: -0.029891859740018845
visibility: 0.8374645709991455
","x: 220.61660766601562
y: 338.86407470703125
z: -0.26561397314071655
visibility: 0.9741662740707397
","x: 187.97943115234375
y: 365.6533203125
z: -0.06073491647839546
visibility: 0.813684344291687
","x: 217.3523712158203
y: 331.27447509765625
z: -0.28163591027259827
visibility: 0.9750820994377136
","x: 189.76051330566406
y: 364.1632385253906
z: -0.09519220143556595
visibility: 0.8200117349624634
","x: 218.05148315429688
y: 327.6432800292969
z: -0.23205868899822235
visibility: 0.9653407335281372
","x: 190.6362762451172
y: 358.4669494628906
z: -0.04675710201263428
visibility: 0.8001348376274109
","x: 227.2199249267578
y: 368.3804931640625
z: -0.04656098037958145
visibility: 0.999659538269043
","x: 202.1851043701172
y: 365.5035400390625
z: 0.046746011823415756
visibility: 0.9994597434997559
","x: 228.62477111816406
y: 454.5501708984375
z: -0.05132842808961868
visibility: 0.9884759783744812
","x: 197.96713256835938
y: 453.7309265136719
z: 0.024461012333631516
visibility: 0.9315565228462219
","x: 226.3400115966797
y: 537.6888427734375
z: 0.05496419221162796
visibility: 0.9932966232299805
","x: 194.9696502685547
y: 538.2657470703125
z: 0.14105257391929626
visibility: 0.9745711088180542
","x: 227.16506958007812
y: 553.5505981445312
z: 0.056606363505125046
visibility: 0.9110737442970276
","x: 199.3978271484375
y: 551.6691284179688
z: 0.14305713772773743
visibility: 0.9473385810852051
","x: 211.42864990234375
y: 560.010498046875
z: -0.0774640291929245
visibility: 0.9892185926437378
","x: 182.1058349609375
y: 563.8922729492188
z: 0.030943691730499268
visibility: 0.9777317643165588
",,,,,,,,,,,,,,,,,,,,,,,,,,,,,,,,,,,,,,,,,,
20,"x: 215.03369140625
y: 208.32684326171875
z: -0.26399534940719604
visibility: 0.9999646544456482
","x: 218.50726318359375
y: 200.2059326171875
z: -0.25691765546798706
visibility: 0.9999046325683594
","x: 220.13404846191406
y: 200.48297119140625
z: -0.2569724917411804
visibility: 0.9999155402183533
","x: 221.86102294921875
y: 200.8329620361328
z: -0.25700992345809937
visibility: 0.9999144077301025
","x: 214.15916442871094
y: 198.74981689453125
z: -0.2487613707780838
visibility: 0.9998889565467834
","x: 212.59060668945312
y: 197.92333984375
z: -0.24874892830848694
visibility: 0.9998664259910583
","x: 211.1173095703125
y: 197.1333465576172
z: -0.24875986576080322
visibility: 0.9998508095741272
","x: 225.31434631347656
y: 203.99160766601562
z: -0.16979460418224335
visibility: 0.9999310374259949
","x: 210.40013122558594
y: 197.78749084472656
z: -0.13146518170833588
visibility: 0.9996635913848877
","x: 217.26333618164062
y: 215.60421752929688
z: -0.22764548659324646
visibility: 0.9999641180038452
","x: 212.2656707763672
y: 214.83030700683594
z: -0.21685905754566193
visibility: 0.99991375207901
","x: 237.26878356933594
y: 246.58050537109375
z: -0.1257399618625641
visibility: 0.9999883770942688
","x: 195.98226928710938
y: 245.72869873046875
z: -0.004643010441213846
visibility: 0.9998120665550232
","x: 238.70956420898438
y: 308.7408447265625
z: -0.10629767179489136
visibility: 0.9961693286895752
","x: 187.69041442871094
y: 307.69390869140625
z: 0.061916448175907135
visibility: 0.7225785255432129
","x: 233.73500061035156
y: 367.50750732421875
z: -0.18760719895362854
visibility: 0.9870547652244568
","x: 178.37681579589844
y: 358.79034423828125
z: -0.03907365724444389
visibility: 0.8458320498466492
","x: 229.0430450439453
y: 383.1775207519531
z: -0.2153090536594391
visibility: 0.9723638296127319
","x: 175.04953002929688
y: 373.65411376953125
z: -0.06191013380885124
visibility: 0.8208131790161133
","x: 224.80479431152344
y: 381.05877685546875
z: -0.24926702678203583
visibility: 0.9734057784080505
","x: 176.00267028808594
y: 373.58056640625
z: -0.10089757293462753
visibility: 0.8275324702262878
","x: 225.9928436279297
y: 376.0792236328125
z: -0.20119225978851318
visibility: 0.9634685516357422
","x: 177.97862243652344
y: 368.7393493652344
z: -0.057520847767591476
visibility: 0.808305025100708
","x: 221.95985412597656
y: 368.2891845703125
z: -0.04796594753861427
visibility: 0.9996240139007568
","x: 198.05667114257812
y: 365.57928466796875
z: 0.04803403466939926
visibility: 0.9994361400604248
","x: 223.74472045898438
y: 454.79669189453125
z: -0.05996917933225632
visibility: 0.9891233444213867
","x: 195.57911682128906
y: 454.6026611328125
z: 0.04875337332487106
visibility: 0.9366531372070312
","x: 225.5933074951172
y: 538.5806884765625
z: 0.04040423780679703
visibility: 0.9935086965560913
","x: 194.23660278320312
y: 538.90380859375
z: 0.1623712182044983
visibility: 0.9763202667236328
","x: 226.57215881347656
y: 554.243408203125
z: 0.04097764194011688
visibility: 0.907961368560791
","x: 198.03729248046875
y: 551.6758422851562
z: 0.1632944792509079
visibility: 0.9480753540992737
","x: 210.55198669433594
y: 560.0352783203125
z: -0.0923505574464798
visibility: 0.9893918633460999
","x: 180.9492645263672
y: 564.5865478515625
z: 0.04787006229162216
visibility: 0.9789019823074341
",,,,,,,,,,,,,,,,,,,,,,,,,,,,,,,,,,,,,,,,,,
21,"x: 211.1547393798828
y: 208.0413818359375
z: -0.2164451628923416
visibility: 0.9999666810035706
","x: 214.46356201171875
y: 200.25790405273438
z: -0.20830221474170685
visibility: 0.9999080896377563
","x: 216.03549194335938
y: 200.5734405517578
z: -0.2083788812160492
visibility: 0.9999189972877502
","x: 217.6375274658203
y: 200.974853515625
z: -0.20843073725700378
visibility: 0.9999184608459473
","x: 210.47874450683594
y: 198.74169921875
z: -0.20053553581237793
visibility: 0.9998924732208252
","x: 209.13986206054688
y: 197.9509735107422
z: -0.20049519836902618
visibility: 0.9998705387115479
","x: 207.86972045898438
y: 197.20166015625
z: -0.20047149062156677
visibility: 0.9998555183410645
","x: 220.50233459472656
y: 204.10482788085938
z: -0.125583678483963
visibility: 0.999934196472168
","x: 207.39862060546875
y: 198.55917358398438
z: -0.08717294782400131
visibility: 0.9996722936630249
","x: 213.17608642578125
y: 214.92022705078125
z: -0.18216213583946228
visibility: 0.9999663829803467
","x: 208.3820343017578
y: 213.93202209472656
z: -0.17141136527061462
visibility: 0.9999194145202637
","x: 232.02955627441406
y: 247.49513244628906
z: -0.09965138137340546
visibility: 0.9999892711639404
","x: 192.6671905517578
y: 246.26425170898438
z: 0.032094258815050125
visibility: 0.9998252391815186
","x: 239.2872314453125
y: 309.0787658691406
z: -0.08042619377374649
visibility: 0.996366024017334
","x: 183.8112030029297
y: 307.2967224121094
z: 0.10331816971302032
visibility: 0.7336602807044983
","x: 238.9888916015625
y: 365.1345520019531
z: -0.16357511281967163
visibility: 0.9876164197921753
","x: 170.8916778564453
y: 352.6533508300781
z: 0.011216815561056137
visibility: 0.8557806015014648
","x: 243.3569793701172
y: 380.1083068847656
z: -0.1932590901851654
visibility: 0.9735646843910217
","x: 165.82177734375
y: 365.3129577636719
z: -0.013022777624428272
visibility: 0.8309350609779358
","x: 239.451416015625
y: 378.8829040527344
z: -0.22730612754821777
visibility: 0.9746303558349609
","x: 165.8741455078125
y: 363.6703186035156
z: -0.05450011044740677
visibility: 0.837846040725708
","x: 237.29470825195312
y: 374.63616943359375
z: -0.17819394171237946
visibility: 0.9652420282363892
","x: 168.037109375
y: 359.4786376953125
z: -0.009316952899098396
visibility: 0.8196187615394592
","x: 212.5656280517578
y: 371.0447692871094
z: -0.050064969807863235
visibility: 0.9996322989463806
","x: 190.72789001464844
y: 365.98370361328125
z: 0.050103314220905304
visibility: 0.9994398951530457
","x: 210.4969024658203
y: 458.21099853515625
z: -0.06051693111658096
visibility: 0.9898253679275513
","x: 190.55862426757812
y: 457.3691101074219
z: 0.06340189278125763
visibility: 0.9412668943405151
","x: 223.64923095703125
y: 540.2056884765625
z: 0.03501458838582039
visibility: 0.9938183426856995
","x: 193.26113891601562
y: 538.6324462890625
z: 0.18871113657951355
visibility: 0.9777024984359741
","x: 227.10728454589844
y: 555.940185546875
z: 0.03578997403383255
visibility: 0.9044762849807739
","x: 196.91188049316406
y: 550.7518310546875
z: 0.19252517819404602
visibility: 0.9483887553215027
","x: 207.13705444335938
y: 562.8527221679688
z: -0.09794528782367706
visibility: 0.9897813200950623
","x: 180.03485107421875
y: 565.5446166992188
z: 0.08489994704723358
visibility: 0.979932427406311
",,,,,,,,,,,,,,,,,,,,,,,,,,,,,,,,,,,,,,,,,,
22,"x: 205.7907257080078
y: 208.1165313720703
z: -0.21419858932495117
visibility: 0.9999696612358093
","x: 209.46429443359375
y: 201.41680908203125
z: -0.20607595145702362
visibility: 0.9999158978462219
","x: 210.95584106445312
y: 202.0692596435547
z: -0.20614638924598694
visibility: 0.9999260306358337
","x: 212.57546997070312
y: 202.9144287109375
z: -0.20620417594909668
visibility: 0.9999256730079651
","x: 205.7611083984375
y: 199.13377380371094
z: -0.19471335411071777
visibility: 0.9999012351036072
","x: 204.607177734375
y: 198.11537170410156
z: -0.1946817934513092
visibility: 0.9998810291290283
","x: 203.52987670898438
y: 197.4526824951172
z: -0.19462896883487701
visibility: 0.9998672008514404
","x: 216.23895263671875
y: 207.7291717529297
z: -0.12627004086971283
visibility: 0.9999402165412903
","x: 204.00973510742188
y: 200.56610107421875
z: -0.07103220373392105
visibility: 0.9996981024742126
","x: 208.04161071777344
y: 216.39431762695312
z: -0.18188054859638214
visibility: 0.9999694228172302
","x: 203.61776733398438
y: 214.22708129882812
z: -0.16657745838165283
visibility: 0.9999263882637024
","x: 228.36471557617188
y: 254.23179626464844
z: -0.10321401059627533
visibility: 0.9999902248382568
","x: 188.6501922607422
y: 251.53790283203125
z: 0.054783761501312256
visibility: 0.999837338924408
","x: 240.8141632080078
y: 313.06195068359375
z: -0.102065309882164
visibility: 0.9966686964035034
","x: 181.82594299316406
y: 309.98779296875
z: 0.0960312932729721
visibility: 0.7230042815208435
","x: 244.2761993408203
y: 366.0115051269531
z: -0.1996900737285614
visibility: 0.9884726405143738
","x: 169.46365356445312
y: 346.9721984863281
z: -0.0486086830496788
visibility: 0.8626508712768555
","x: 247.76393127441406
y: 381.0154724121094
z: -0.23048940300941467
visibility: 0.9751906394958496
","x: 160.60800170898438
y: 354.5321350097656
z: -0.07706097513437271
visibility: 0.8386654257774353
","x: 245.10203552246094
y: 381.3836669921875
z: -0.26210328936576843
visibility: 0.976239025592804
","x: 159.37359619140625
y: 349.4365234375
z: -0.11248581111431122
visibility: 0.845893919467926
","x: 243.42596435546875
y: 377.76361083984375
z: -0.2139202356338501
visibility: 0.9675127863883972
","x: 163.10018920898438
y: 347.4505310058594
z: -0.06767506897449493
visibility: 0.8282783031463623
","x: 207.6803741455078
y: 374.21002197265625
z: -0.06113775447010994
visibility: 0.9996592402458191
","x: 187.096923828125
y: 369.41656494140625
z: 0.06107950210571289
visibility: 0.9994794726371765
","x: 197.59906005859375
y: 459.04180908203125
z: -0.09301654249429703
visibility: 0.9906179308891296
","x: 183.33560180664062
y: 458.2510070800781
z: 0.050922758877277374
visibility: 0.9455198645591736
","x: 218.23875427246094
y: 537.6710815429688
z: 0.05621282383799553
visibility: 0.9942075610160828
","x: 191.02149963378906
y: 538.0343017578125
z: 0.1909874826669693
visibility: 0.9792777299880981
","x: 224.6855926513672
y: 548.4447631835938
z: 0.06555434316396713
visibility: 0.9065039157867432
","x: 196.70191955566406
y: 549.835693359375
z: 0.19777441024780273
visibility: 0.9506137371063232
","x: 203.81182861328125
y: 562.8353271484375
z: -0.04486847668886185
visibility: 0.9904117584228516
","x: 180.76905822753906
y: 567.0467529296875
z: 0.10220913589000702
visibility: 0.9811556935310364
",,,,,,,,,,,,,,,,,,,,,,,,,,,,,,,,,,,,,,,,,,
23,"x: 206.0609893798828
y: 210.55532836914062
z: -0.25140440464019775
visibility: 0.9999719858169556
","x: 209.6290740966797
y: 203.9677276611328
z: -0.24098022282123566
visibility: 0.9999206066131592
","x: 211.1844940185547
y: 204.63819885253906
z: -0.24102647602558136
visibility: 0.9999302625656128
","x: 212.7979736328125
y: 205.4532012939453
z: -0.2410597801208496
visibility: 0.9999298453330994
","x: 205.49977111816406
y: 201.1739501953125
z: -0.23450405895709991
visibility: 0.999906599521637
","x: 204.1366424560547
y: 199.88491821289062
z: -0.23449170589447021
visibility: 0.999888002872467
","x: 202.92910766601562
y: 198.858642578125
z: -0.23448891937732697
visibility: 0.9998747110366821
","x: 215.49586486816406
y: 209.85818481445312
z: -0.15269695222377777
visibility: 0.999943733215332
","x: 201.93942260742188
y: 202.49050903320312
z: -0.11942581832408905
visibility: 0.9997151494026184
","x: 208.03631591796875
y: 219.24673461914062
z: -0.21600894629955292
visibility: 0.9999718070030212
","x: 203.2969970703125
y: 217.04443359375
z: -0.20684686303138733
visibility: 0.999932050704956
","x: 227.0760498046875
y: 257.1529846191406
z: -0.10959883779287338
visibility: 0.999990701675415
","x: 185.42222595214844
y: 253.1177978515625
z: -0.013621076941490173
visibility: 0.9998499155044556
","x: 234.35382080078125
y: 323.66766357421875
z: -0.08849084377288818
visibility: 0.9967448115348816
","x: 178.75331115722656
y: 311.79718017578125
z: 0.01568029075860977
visibility: 0.7301551699638367
","x: 244.08033752441406
y: 379.5878601074219
z: -0.17618778347969055
visibility: 0.9885962009429932
","x: 168.62173461914062
y: 346.93072509765625
z: -0.12093935161828995
visibility: 0.8713777661323547
","x: 247.41290283203125
y: 394.2877502441406
z: -0.20181146264076233
visibility: 0.9755061268806458
","x: 161.934814453125
y: 357.1682434082031
z: -0.1507687121629715
visibility: 0.8482266068458557
","x: 245.8289337158203
y: 395.24114990234375
z: -0.23744237422943115
visibility: 0.9766623377799988
","x: 162.1785888671875
y: 353.123291015625
z: -0.18971697986125946
visibility: 0.8554266095161438
","x: 244.18115234375
y: 391.7965087890625
z: -0.1921285092830658
visibility: 0.968495786190033
","x: 164.97518920898438
y: 349.96319580078125
z: -0.141455739736557
visibility: 0.8386732339859009
","x: 208.3662872314453
y: 375.80255126953125
z: -0.05171806737780571
visibility: 0.9996708631515503
","x: 186.35302734375
y: 372.30828857421875
z: 0.0515708327293396
visibility: 0.9995091557502747
","x: 202.59210205078125
y: 463.0389099121094
z: -0.06329460442066193
visibility: 0.9913445115089417
","x: 184.1892547607422
y: 460.1684875488281
z: 0.050502412021160126
visibility: 0.9500571489334106
","x: 219.3490447998047
y: 536.892822265625
z: 0.1298188418149948
visibility: 0.9944681525230408
","x: 192.13584899902344
y: 539.2500610351562
z: 0.21876470744609833
visibility: 0.9808204174041748
","x: 224.29318237304688
y: 547.7301025390625
z: 0.14168837666511536
visibility: 0.9033030867576599
","x: 196.49017333984375
y: 550.9449462890625
z: 0.22879135608673096
visibility: 0.9523950815200806
","x: 206.6292266845703
y: 562.7979736328125
z: 0.025623872876167297
visibility: 0.9908292889595032
","x: 179.48472595214844
y: 567.77392578125
z: 0.1284431666135788
visibility: 0.9824026823043823
",,,,,,,,,,,,,,,,,,,,,,,,,,,,,,,,,,,,,,,,,,
24,"x: 207.1372833251953
y: 210.94847106933594
z: -0.2719559967517853
visibility: 0.9999736547470093
","x: 210.67523193359375
y: 204.1837921142578
z: -0.26129692792892456
visibility: 0.9999223947525024
","x: 212.14340209960938
y: 204.7787322998047
z: -0.2613314986228943
visibility: 0.9999319314956665
","x: 213.56863403320312
y: 205.526611328125
z: -0.2613515853881836
visibility: 0.9999312162399292
","x: 206.30397033691406
y: 201.76353454589844
z: -0.25772660970687866
visibility: 0.9999085664749146
","x: 204.89859008789062
y: 200.6578369140625
z: -0.25772741436958313
visibility: 0.9998915195465088
","x: 203.6377716064453
y: 199.75074768066406
z: -0.25774410367012024
visibility: 0.9998785257339478
","x: 215.75411987304688
y: 209.7902069091797
z: -0.16897651553153992
visibility: 0.9999443888664246
","x: 202.2139434814453
y: 202.94842529296875
z: -0.14809571206569672
visibility: 0.9997242093086243
","x: 209.11724853515625
y: 219.44151306152344
z: -0.23423829674720764
visibility: 0.9999735951423645
","x: 203.4007568359375
y: 217.2229766845703
z: -0.22865064442157745
visibility: 0.9999366402626038
","x: 228.4822998046875
y: 256.7398376464844
z: -0.1102801114320755
visibility: 0.9999911189079285
","x: 185.5044708251953
y: 253.0416717529297
z: -0.048091962933540344
visibility: 0.9998616576194763
","x: 233.9463348388672
y: 324.1470642089844
z: -0.0714123398065567
visibility: 0.9967978596687317
","x: 176.61886596679688
y: 312.3290100097656
z: 0.009023421443998814
visibility: 0.7504246234893799
","x: 240.81564331054688
y: 379.989990234375
z: -0.16367207467556
visibility: 0.9889312386512756
","x: 166.5688018798828
y: 351.5517578125
z: -0.11565820127725601
visibility: 0.881816029548645
","x: 245.20506286621094
y: 395.26068115234375
z: -0.19031140208244324
visibility: 0.9762281179428101
","x: 161.25833129882812
y: 364.65582275390625
z: -0.13770553469657898
visibility: 0.8594880700111389
","x: 244.92037963867188
y: 395.42034912109375
z: -0.22728534042835236
visibility: 0.9774113297462463
","x: 162.8443603515625
y: 362.44573974609375
z: -0.17393210530281067
visibility: 0.8664289712905884
","x: 242.80007934570312
y: 391.376708984375
z: -0.17998866736888885
visibility: 0.9697237610816956
","x: 165.29898071289062
y: 358.11517333984375
z: -0.1357523500919342
visibility: 0.8508985638618469
","x: 211.18698120117188
y: 375.7365417480469
z: -0.04080001264810562
visibility: 0.9996695518493652
","x: 188.2923126220703
y: 372.822509765625
z: 0.040679238736629486
visibility: 0.9995200634002686
","x: 208.56427001953125
y: 465.0323486328125
z: -0.048062071204185486
visibility: 0.9919474124908447
","x: 186.74705505371094
y: 462.59356689453125
z: 0.05071912333369255
visibility: 0.953940212726593
","x: 220.2726287841797
y: 537.922119140625
z: 0.1167280450463295
visibility: 0.9945438504219055
","x: 193.07452392578125
y: 540.505615234375
z: 0.20736651122570038
visibility: 0.9819440841674805
","x: 225.2916717529297
y: 548.2100830078125
z: 0.12441448867321014
visibility: 0.8913017511367798
","x: 196.33929443359375
y: 551.4074096679688
z: 0.2155335694551468
visibility: 0.9517483115196228
","x: 214.86981201171875
y: 565.0803833007812
z: -0.004566382151097059
visibility: 0.9908155202865601
","x: 180.06407165527344
y: 567.795166015625
z: 0.10994688421487808
visibility: 0.983222484588623
",,,,,,,,,,,,,,,,,,,,,,,,,,,,,,,,,,,,,,,,,,
25,"x: 209.04339599609375
y: 207.375732421875
z: -0.30944347381591797
visibility: 0.999975323677063
","x: 212.5311279296875
y: 200.68511962890625
z: -0.2978578209877014
visibility: 0.9999265670776367
","x: 214.04525756835938
y: 201.264892578125
z: -0.2978972792625427
visibility: 0.9999352693557739
","x: 215.5191192626953
y: 201.96707153320312
z: -0.29790183901786804
visibility: 0.9999345541000366
","x: 207.91880798339844
y: 198.81045532226562
z: -0.2938569188117981
visibility: 0.9999141693115234
","x: 206.43276977539062
y: 198.09144592285156
z: -0.2938619554042816
visibility: 0.9998980760574341
","x: 205.0140380859375
y: 197.49696350097656
z: -0.29385748505592346
visibility: 0.9998859167098999
","x: 217.68142700195312
y: 205.8167266845703
z: -0.19931279122829437
visibility: 0.999945878982544
","x: 203.34414672851562
y: 200.33399963378906
z: -0.1768171489238739
visibility: 0.999740481376648
","x: 211.4622344970703
y: 216.04278564453125
z: -0.2698943316936493
visibility: 0.999975323677063
","x: 205.6632843017578
y: 214.48818969726562
z: -0.26374655961990356
visibility: 0.9999415278434753
","x: 231.3063507080078
y: 255.0267791748047
z: -0.1389860063791275
visibility: 0.9999911785125732
","x: 187.8037109375
y: 250.34605407714844
z: -0.06817664206027985
visibility: 0.9998718500137329
","x: 236.98902893066406
y: 318.00738525390625
z: -0.11574801057577133
visibility: 0.9967824816703796
","x: 175.78054809570312
y: 311.363037109375
z: -0.0001875393936643377
visibility: 0.7702348828315735
","x: 236.52000427246094
y: 366.76470947265625
z: -0.2376703917980194
visibility: 0.9886648058891296
","x: 164.188720703125
y: 356.6627502441406
z: -0.10886788368225098
visibility: 0.8897274136543274
","x: 235.4615020751953
y: 384.54486083984375
z: -0.2756917476654053
visibility: 0.9754377007484436
","x: 159.0407257080078
y: 372.2588806152344
z: -0.13699281215667725
visibility: 0.8669607639312744
","x: 232.51113891601562
y: 378.5401611328125
z: -0.3078745901584625
visibility: 0.9766547083854675
","x: 160.70668029785156
y: 371.67596435546875
z: -0.1780475378036499
visibility: 0.8738974928855896
","x: 232.13340759277344
y: 371.65936279296875
z: -0.2519811689853668
visibility: 0.9686376452445984
","x: 162.7046356201172
y: 366.6572570800781
z: -0.12856337428092957
visibility: 0.8593196272850037
","x: 213.4555206298828
y: 375.34063720703125
z: -0.031354811042547226
visibility: 0.9996632933616638
","x: 192.00634765625
y: 372.53912353515625
z: 0.03132019564509392
visibility: 0.9995326399803162
","x: 223.81361389160156
y: 463.75531005859375
z: -0.03658842295408249
visibility: 0.9925130605697632
","x: 190.26039123535156
y: 461.6365051269531
z: 0.05354825779795647
visibility: 0.9578380584716797
","x: 232.85366821289062
y: 542.421630859375
z: 0.08241543918848038
visibility: 0.9947974681854248
","x: 193.83279418945312
y: 541.12109375
z: 0.1997261345386505
visibility: 0.9832285642623901
","x: 232.6596221923828
y: 551.8034057617188
z: 0.08540195971727371
visibility: 0.8911632299423218
","x: 197.27084350585938
y: 552.2747192382812
z: 0.2062511444091797
visibility: 0.9516640901565552
","x: 230.03846740722656
y: 567.2861938476562
z: -0.04159589856863022
visibility: 0.9910646677017212
","x: 180.5624237060547
y: 567.1402587890625
z: 0.09462355822324753
visibility: 0.9840064644813538
",,,,,,,,,,,,,,,,,,,,,,,,,,,,,,,,,,,,,,,,,,
26,"x: 209.2518768310547
y: 205.72998046875
z: -0.29817357659339905
visibility: 0.9999769330024719
","x: 213.0364990234375
y: 198.45660400390625
z: -0.2858012914657593
visibility: 0.9999310970306396
","x: 214.54747009277344
y: 198.9276885986328
z: -0.2858334481716156
visibility: 0.9999386668205261
","x: 215.97694396972656
y: 199.46859741210938
z: -0.28583115339279175
visibility: 0.9999380707740784
","x: 208.23753356933594
y: 196.90045166015625
z: -0.28057149052619934
visibility: 0.9999204277992249
","x: 206.99505615234375
y: 196.33786010742188
z: -0.28056636452674866
visibility: 0.999905526638031
","x: 205.80548095703125
y: 195.86248779296875
z: -0.2805599868297577
visibility: 0.9998944997787476
","x: 218.23692321777344
y: 203.01519775390625
z: -0.18861980736255646
visibility: 0.9999471306800842
","x: 204.77557373046875
y: 198.67103576660156
z: -0.1607300043106079
visibility: 0.9997597336769104
","x: 211.60992431640625
y: 214.26100158691406
z: -0.25985997915267944
visibility: 0.9999769330024719
","x: 206.15867614746094
y: 213.0478515625
z: -0.2521078586578369
visibility: 0.999946117401123
","x: 235.4204864501953
y: 252.45108032226562
z: -0.13325715065002441
visibility: 0.9999906420707703
","x: 190.3672332763672
y: 249.74118041992188
z: -0.05497177317738533
visibility: 0.9998812675476074
","x: 249.39913940429688
y: 307.932861328125
z: -0.12960205972194672
visibility: 0.996764600276947
","x: 177.68017578125
y: 310.14501953125
z: 0.008868183940649033
visibility: 0.7898781895637512
","x: 237.52317810058594
y: 343.4754638671875
z: -0.27083781361579895
visibility: 0.9884719848632812
","x: 165.6249542236328
y: 355.3921813964844
z: -0.10418388992547989
visibility: 0.8980987668037415
","x: 236.28440856933594
y: 356.1390686035156
z: -0.31259840726852417
visibility: 0.9746362566947937
","x: 160.63885498046875
y: 370.2300720214844
z: -0.13407786190509796
visibility: 0.8753198385238647
","x: 232.98678588867188
y: 349.3990783691406
z: -0.3385695815086365
visibility: 0.9758511781692505
","x: 162.23048400878906
y: 368.6678771972656
z: -0.17421142756938934
visibility: 0.8820525407791138
","x: 232.93087768554688
y: 345.141845703125
z: -0.2828921675682068
visibility: 0.9672402739524841
","x: 164.2555389404297
y: 363.61126708984375
z: -0.12337498366832733
visibility: 0.8683145642280579
","x: 226.53060913085938
y: 373.8768005371094
z: -0.02757447026669979
visibility: 0.9996531009674072
","x: 200.77796936035156
y: 372.337158203125
z: 0.027580182999372482
visibility: 0.9995488524436951
","x: 234.501953125
y: 462.811279296875
z: -0.04278465732932091
visibility: 0.9929948449134827
","x: 194.05967712402344
y: 461.2409973144531
z: 0.035963207483291626
visibility: 0.9614888429641724
","x: 236.058837890625
y: 544.496337890625
z: 0.0691928043961525
visibility: 0.9949522018432617
","x: 194.5379180908203
y: 541.2689819335938
z: 0.15507006645202637
visibility: 0.984462559223175
","x: 234.1622772216797
y: 554.4859008789062
z: 0.07235182821750641
visibility: 0.8924016952514648
","x: 198.1720733642578
y: 552.6375732421875
z: 0.15786714851856232
visibility: 0.9517871737480164
","x: 233.78189086914062
y: 568.1235961914062
z: -0.05940353870391846
visibility: 0.991034746170044
","x: 180.2916259765625
y: 566.5068359375
z: 0.03558807820081711
visibility: 0.9846395254135132
",,,,,,,,,,,,,,,,,,,,,,,,,,,,,,,,,,,,,,,,,,
27,"x: 214.85009765625
y: 206.42483520507812
z: -0.3290112614631653
visibility: 0.9999786615371704
","x: 217.67578125
y: 199.30294799804688
z: -0.31634166836738586
visibility: 0.9999356269836426
","x: 219.2738037109375
y: 199.7554168701172
z: -0.31633344292640686
visibility: 0.9999421834945679
","x: 220.7183837890625
y: 200.24606323242188
z: -0.3162994086742401
visibility: 0.9999414086341858
","x: 213.1461639404297
y: 197.2928466796875
z: -0.3118925094604492
visibility: 0.9999266266822815
","x: 211.7169952392578
y: 196.56378173828125
z: -0.31192460656166077
visibility: 0.9999131560325623
","x: 210.26123046875
y: 196.6285858154297
z: -0.3119428753852844
visibility: 0.9999033212661743
","x: 223.3775634765625
y: 203.71853637695312
z: -0.21556079387664795
visibility: 0.9999487400054932
","x: 208.9119415283203
y: 199.98297119140625
z: -0.19126982986927032
visibility: 0.9997798800468445
","x: 217.6239013671875
y: 214.8875732421875
z: -0.28920701146125793
visibility: 0.9999786615371704
","x: 212.40403747558594
y: 213.29461669921875
z: -0.2823960483074188
visibility: 0.9999508261680603
","x: 243.05723571777344
y: 253.0387725830078
z: -0.14433084428310394
visibility: 0.9999905824661255
","x: 195.15802001953125
y: 250.0489501953125
z: -0.08510345965623856
visibility: 0.9998917579650879
","x: 256.4956970214844
y: 309.3822326660156
z: -0.1272798776626587
visibility: 0.9968187808990479
","x: 179.7007598876953
y: 311.17474365234375
z: -0.02340221405029297
visibility: 0.8096722364425659
","x: 248.1058807373047
y: 349.1600036621094
z: -0.2642635405063629
visibility: 0.9886809587478638
","x: 169.5249481201172
y: 359.25909423828125
z: -0.13957439363002777
visibility: 0.907406747341156
","x: 245.7991180419922
y: 362.03350830078125
z: -0.3039648234844208
visibility: 0.9748085141181946
","x: 164.95635986328125
y: 374.9992370605469
z: -0.1737697571516037
visibility: 0.885790228843689
","x: 242.4196014404297
y: 357.9139404296875
z: -0.3344574570655823
visibility: 0.975999116897583
","x: 165.89456176757812
y: 373.9267578125
z: -0.2132052630186081
visibility: 0.8920336961746216
","x: 242.77365112304688
y: 353.59027099609375
z: -0.27821463346481323
visibility: 0.9673977494239807
","x: 167.93826293945312
y: 369.0024108886719
z: -0.1578783094882965
visibility: 0.8792920112609863
","x: 234.7483367919922
y: 373.8809509277344
z: -0.025736484676599503
visibility: 0.9996592402458191
","x: 209.19859313964844
y: 374.2929382324219
z: 0.025704335421323776
visibility: 0.9995760321617126
","x: 240.0234832763672
y: 462.79644775390625
z: -0.0489010214805603
visibility: 0.993528425693512
","x: 197.67193603515625
y: 465.7874755859375
z: 0.035405125468969345
visibility: 0.9649708867073059
","x: 238.3673858642578
y: 543.9442138671875
z: 0.10214652121067047
visibility: 0.9951629638671875
","x: 195.3363800048828
y: 541.6194458007812
z: 0.17654770612716675
visibility: 0.9857107400894165
","x: 237.99273681640625
y: 554.3629760742188
z: 0.10794275999069214
visibility: 0.891485869884491
","x: 199.5971221923828
y: 552.9705200195312
z: 0.18264159560203552
visibility: 0.952631950378418
","x: 234.42405700683594
y: 568.041259765625
z: -0.03571564704179764
visibility: 0.9912604093551636
","x: 181.47396850585938
y: 566.4186401367188
z: 0.05510113388299942
visibility: 0.9856095910072327
",,,,,,,,,,,,,,,,,,,,,,,,,,,,,,,,,,,,,,,,,,
28,"x: 219.54312133789062
y: 207.1603240966797
z: -0.31733089685440063
visibility: 0.9999805092811584
","x: 222.16876220703125
y: 199.87612915039062
z: -0.3041750192642212
visibility: 0.9999405741691589
","x: 223.69046020507812
y: 200.2655029296875
z: -0.3041631281375885
visibility: 0.9999462962150574
","x: 225.21702575683594
y: 200.70803833007812
z: -0.30413129925727844
visibility: 0.9999452829360962
","x: 217.6551055908203
y: 198.08441162109375
z: -0.30125969648361206
visibility: 0.9999327659606934
","x: 216.19900512695312
y: 197.3056182861328
z: -0.30129188299179077
visibility: 0.9999207854270935
","x: 214.62144470214844
y: 197.19949340820312
z: -0.30130475759506226
visibility: 0.9999119639396667
","x: 227.9429168701172
y: 204.1600799560547
z: -0.2004632204771042
visibility: 0.9999502897262573
","x: 213.20574951171875
y: 200.22610473632812
z: -0.1845519095659256
visibility: 0.9997996091842651
","x: 222.38636779785156
y: 215.39730834960938
z: -0.27606695890426636
visibility: 0.9999803900718689
","x: 217.27569580078125
y: 214.00938415527344
z: -0.27177658677101135
visibility: 0.9999553561210632
","x: 245.6124725341797
y: 252.8001708984375
z: -0.12659062445163727
visibility: 0.9999907612800598
","x: 198.9356231689453
y: 250.1046142578125
z: -0.0847889631986618
visibility: 0.999901533126831
","x: 260.43353271484375
y: 306.91015625
z: -0.08519435673952103
visibility: 0.9967379570007324
","x: 185.61166381835938
y: 312.829833984375
z: -0.028605202212929726
visibility: 0.8278110027313232
","x: 261.26287841796875
y: 351.3012390136719
z: -0.226455420255661
visibility: 0.9887310862541199
","x: 176.1410369873047
y: 362.8472900390625
z: -0.14408418536186218
visibility: 0.915898859500885
","x: 260.5242614746094
y: 364.35601806640625
z: -0.2640007734298706
visibility: 0.9746789932250977
","x: 171.94773864746094
y: 378.6780090332031
z: -0.17879147827625275
visibility: 0.8954555988311768
","x: 256.67010498046875
y: 360.90289306640625
z: -0.3085879683494568
visibility: 0.9759557247161865
","x: 174.35345458984375
y: 378.3033752441406
z: -0.21540610492229462
visibility: 0.9012342691421509
","x: 256.18865966796875
y: 356.4444580078125
z: -0.2461567223072052
visibility: 0.9674777388572693
","x: 176.09756469726562
y: 373.54754638671875
z: -0.16100645065307617
visibility: 0.8893258571624756
","x: 237.47509765625
y: 373.87261962890625
z: -0.015126493759453297
visibility: 0.9996814727783203
","x: 212.1586151123047
