uscmakers/ReverseChoreography/data/5_fool_around_yas.csv
,NOSE,LEFT_EYE_INNER,LEFT_EYE,LEFT_EYE_OUTER,RIGHT_EYE_INNER,RIGHT_EYE,RIGHT_EYE_OUTER,LEFT_EAR,RIGHT_EAR,MOUTH_LEFT,MOUTH_RIGHT,LEFT_SHOULDER,RIGHT_SHOULDER,LEFT_ELBOW,RIGHT_ELBOW,LEFT_WRIST,RIGHT_WRIST,LEFT_PINKY,RIGHT_PINKY,LEFT_INDEX,RIGHT_INDEX,LEFT_THUMB,RIGHT_THUMB,LEFT_HIP,RIGHT_HIP,LEFT_KNEE,RIGHT_KNEE,LEFT_ANKLE,RIGHT_ANKLE,LEFT_HEEL,RIGHT_HEEL,LEFT_FOOT_INDEX,RIGHT_FOOT_INDEX,WRIST,THUMB_CPC,THUMB_MCP,THUMB_IP,THUMB_TIP,INDEX_FINGER_MCP,INDEX_FINGER_PIP,INDEX_FINGER_DIP,INDEX_FINGER_TIP,MIDDLE_FINGER_MCP,MIDDLE_FINGER_PIP,MIDDLE_FINGER_DIP,MIDDLE_FINGER_TIP,RING_FINGER_PIP,RING_FINGER_DIP,RING_FINGER_TIP,RING_FINGER_MCP,PINKY_MCP,PINKY_PIP,PINKY_DIP,PINKY_TIP,WRIST2,THUMB_CPC2,THUMB_MCP2,THUMB_IP2,THUMB_TIP2,INDEX_FINGER_MCP2,INDEX_FINGER_PIP2,INDEX_FINGER_DIP2,INDEX_FINGER_TIP2,MIDDLE_FINGER_MCP2,MIDDLE_FINGER_PIP2,MIDDLE_FINGER_DIP2,MIDDLE_FINGER_TIP2,RING_FINGER_PIP2,RING_FINGER_DIP2,RING_FINGER_TIP2,RING_FINGER_MCP2,PINKY_MCP2,PINKY_PIP2,PINKY_DIP2,PINKY_TIP2
0,"x: 204.45176696777344
y: 224.14605712890625
z: -0.31967881321907043
visibility: 0.9999170303344727
","x: 205.8870849609375
y: 215.1899871826172
z: -0.3148132562637329
visibility: 0.9997290968894958
","x: 207.19789123535156
y: 214.11175537109375
z: -0.314800888299942
visibility: 0.9997033476829529
","x: 208.65631103515625
y: 213.0479736328125
z: -0.3148118853569031
visibility: 0.9996693134307861
","x: 202.8244171142578
y: 216.4529571533203
z: -0.3063693344593048
visibility: 0.9997660517692566
","x: 201.9859619140625
y: 216.23870849609375
z: -0.30643144249916077
visibility: 0.9997461438179016
","x: 201.1322479248047
y: 216.02450561523438
z: -0.3064911663532257
visibility: 0.9997521042823792
","x: 213.37155151367188
y: 212.4591064453125
z: -0.22359898686408997
visibility: 0.9994797110557556
","x: 202.408935546875
y: 215.44883728027344
z: -0.1864963173866272
visibility: 0.9994658827781677
","x: 208.07261657714844
y: 229.04188537597656
z: -0.2804526388645172
visibility: 0.9998149275779724
","x: 204.07667541503906
y: 230.49224853515625
z: -0.27006012201309204
visibility: 0.9998242259025574
","x: 236.2067108154297
y: 252.087890625
z: -0.13794025778770447
visibility: 0.9998337030410767
","x: 193.46571350097656
y: 253.4571990966797
z: -0.09185847640037537
visibility: 0.9999299049377441
","x: 242.2237548828125
y: 313.76513671875
z: -0.11328266561031342
visibility: 0.9830342531204224
","x: 185.65487670898438
y: 303.2116394042969
z: -0.1276274174451828
visibility: 0.9486593008041382
","x: 240.19837951660156
y: 365.5789489746094
z: -0.19704878330230713
visibility: 0.9624102115631104
","x: 194.1690673828125
y: 335.5946044921875
z: -0.3193422257900238
visibility: 0.9671710133552551
","x: 241.77572631835938
y: 384.24005126953125
z: -0.22951290011405945
visibility: 0.9300154447555542
","x: 196.204345703125
y: 348.5046691894531
z: -0.359402596950531
visibility: 0.948713481426239
","x: 238.207763671875
y: 382.12774658203125
z: -0.2568158209323883
visibility: 0.9327511787414551
","x: 199.80775451660156
y: 343.2950439453125
z: -0.3805525600910187
visibility: 0.948958158493042
","x: 236.511962890625
y: 376.4835205078125
z: -0.20827415585517883
visibility: 0.9111988544464111
","x: 200.25050354003906
y: 338.7674560546875
z: -0.33101412653923035
visibility: 0.9321762919425964
","x: 227.90408325195312
y: 368.1473083496094
z: -0.022381296381354332
visibility: 0.9992378950119019
","x: 203.98681640625
y: 367.3834228515625
z: 0.02233687788248062
visibility: 0.9995860457420349
","x: 228.67007446289062
y: 451.2802429199219
z: -0.030934015288949013
visibility: 0.9901373386383057
","x: 203.6670379638672
y: 453.2838439941406
z: 0.03185875341296196
visibility: 0.9923261404037476
","x: 232.17164611816406
y: 537.4373779296875
z: 0.0645836740732193
visibility: 0.9925766587257385
","x: 207.30694580078125
y: 537.344482421875
z: 0.13710013031959534
visibility: 0.9954440593719482
","x: 229.552490234375
y: 548.3885498046875
z: 0.06549583375453949
visibility: 0.9461429119110107
","x: 212.1308135986328
y: 548.6976928710938
z: 0.1404295563697815
visibility: 0.9598566889762878
","x: 238.2891387939453
y: 563.0045166015625
z: -0.05424009636044502
visibility: 0.9890579581260681
","x: 193.4192657470703
y: 557.884033203125
z: 0.02957465872168541
visibility: 0.9918177127838135
",,,,,,,,,,,,,,,,,,,,,,,,,,,,,,,,,,,,,,,,,,
1,"x: 204.45068359375
y: 223.36361694335938
z: -0.31451287865638733
visibility: 0.9999160766601562
","x: 205.900634765625
y: 214.0853729248047
z: -0.30886539816856384
visibility: 0.9997307062149048
","x: 207.23387145996094
y: 213.29400634765625
z: -0.3088715970516205
visibility: 0.9997128844261169
","x: 208.69866943359375
y: 212.5460968017578
z: -0.3089022934436798
visibility: 0.9996780753135681
","x: 202.5340576171875
y: 215.21859741210938
z: -0.3007218837738037
visibility: 0.9997639656066895
","x: 201.39358520507812
y: 215.17486572265625
z: -0.3007916510105133
visibility: 0.9997463822364807
","x: 200.1855926513672
y: 215.1231689453125
z: -0.30081719160079956
visibility: 0.9997427463531494
","x: 213.1372528076172
y: 212.46173095703125
z: -0.21832790970802307
visibility: 0.9995145797729492
","x: 199.9931640625
y: 215.30792236328125
z: -0.18228097259998322
visibility: 0.9994297623634338
","x: 208.0370330810547
y: 228.62725830078125
z: -0.275905579328537
visibility: 0.999814510345459
","x: 203.69586181640625
y: 229.8776092529297
z: -0.26588329672813416
visibility: 0.9998067617416382
","x: 233.1451416015625
y: 252.4073944091797
z: -0.15822303295135498
visibility: 0.9998401999473572
","x: 191.5929718017578
y: 253.41769409179688
z: -0.07082990556955338
visibility: 0.9998851418495178
","x: 235.68179321289062
y: 318.0722961425781
z: -0.1496860831975937
visibility: 0.9840969443321228
","x: 183.0244598388672
y: 310.852294921875
z: -0.1692839413881302
visibility: 0.9502227902412415
","x: 224.69833374023438
y: 370.25048828125
z: -0.198009192943573
visibility: 0.964188814163208
","x: 193.8347625732422
y: 287.23980712890625
z: -0.39839237928390503
visibility: 0.9683405160903931
","x: 222.69296264648438
y: 387.28350830078125
z: -0.22740180790424347
visibility: 0.9322439432144165
","x: 198.00746154785156
y: 281.7544250488281
z: -0.4400085508823395
visibility: 0.9495672583580017
","x: 217.256103515625
y: 384.7749328613281
z: -0.24975541234016418
visibility: 0.9346727728843689
","x: 199.80625915527344
y: 273.96868896484375
z: -0.4378398060798645
visibility: 0.9495004415512085
","x: 217.1414337158203
y: 379.36395263671875
z: -0.207598015666008
visibility: 0.9135197401046753
","x: 199.6763153076172
y: 275.65472412109375
z: -0.4025324881076813
visibility: 0.9320095181465149
","x: 227.03952026367188
y: 367.30950927734375
z: -0.034966517239809036
visibility: 0.999198317527771
","x: 203.54061889648438
y: 367.69451904296875
z: 0.034990355372428894
visibility: 0.999529242515564
","x: 228.82408142089844
y: 451.25555419921875
z: -0.08635349571704865
visibility: 0.989800214767456
","x: 204.29592895507812
y: 453.6822814941406
z: 0.03795851022005081
visibility: 0.9903377294540405
","x: 233.53599548339844
y: 537.1915283203125
z: -0.003818181809037924
visibility: 0.9917662739753723
","x: 207.31626892089844
y: 537.4725952148438
z: 0.1314195990562439
visibility: 0.9941532015800476
","x: 232.75592041015625
y: 549.4849243164062
z: -0.004065386950969696
visibility: 0.941267192363739
","x: 212.0233154296875
y: 550.24755859375
z: 0.13309147953987122
visibility: 0.956164538860321
","x: 231.54476928710938
y: 559.203369140625
z: -0.1228695884346962
visibility: 0.9878706932067871
","x: 192.36782836914062
y: 557.8765258789062
z: 0.028246691450476646
visibility: 0.9895577430725098
","x: 194.75936889648438
y: 277.5762939453125
z: 0.0
","x: 195.73367309570312
y: 269.4879455566406
z: 0.0002216215361841023
","x: 198.12823486328125
y: 262.8777160644531
z: -0.000675826333463192
","x: 200.2133026123047
y: 257.564208984375
z: -0.001850087195634842
","x: 201.41415405273438
y: 253.0998992919922
z: -0.0029974770732223988
","x: 203.32044982910156
y: 264.87786865234375
z: -0.0019704396836459637
","x: 207.55722045898438
y: 260.39166259765625
z: -0.0035785899963229895
","x: 210.22262573242188
y: 257.8695068359375
z: -0.004220013972371817
","x: 212.33734130859375
y: 256.05377197265625
z: -0.004666924010962248
","x: 204.41928100585938
y: 269.232421875
z: -0.003788387170061469
","x: 209.4735870361328
y: 266.3545227050781
z: -0.005272446665912867
","x: 212.5647735595703
y: 265.1565856933594
z: -0.005630300845950842
","x: 214.97691345214844
y: 264.37420654296875
z: -0.006090493407100439
","x: 204.77154541015625
y: 273.8761901855469
z: -0.005584810394793749
","x: 209.61080932617188
y: 272.4393310546875
z: -0.007517513353377581
","x: 212.50172424316406
y: 271.78424072265625
z: -0.008179196156561375
","x: 214.6682586669922
y: 271.1368408203125
z: -0.00867061410099268
","x: 204.37451171875
y: 278.543701171875
z: -0.007406952325254679
","x: 208.27120971679688
y: 279.2544860839844
z: -0.009384199976921082
","x: 210.7884979248047
y: 279.9268798828125
z: -0.010093506425619125
","x: 212.8453369140625
y: 280.3822326660156
z: -0.01050630584359169
",,,,,,,,,,,,,,,,,,,,,
2,"x: 204.45068359375
y: 223.36361694335938
z: -0.31451287865638733
visibility: 0.9999160766601562
","x: 205.900634765625
y: 214.0853729248047
z: -0.30886539816856384
visibility: 0.9997307062149048
","x: 207.23387145996094
y: 213.29400634765625
z: -0.3088715970516205
visibility: 0.9997128844261169
","x: 208.69866943359375
y: 212.5460968017578
z: -0.3089022934436798
visibility: 0.9996780753135681
","x: 202.5340576171875
y: 215.21859741210938
z: -0.3007218837738037
visibility: 0.9997639656066895
","x: 201.39358520507812
y: 215.17486572265625
z: -0.3007916510105133
visibility: 0.9997463822364807
","x: 200.1855926513672
y: 215.1231689453125
z: -0.30081719160079956
visibility: 0.9997427463531494
","x: 213.1372528076172
y: 212.46173095703125
z: -0.21832790970802307
visibility: 0.9995145797729492
","x: 199.9931640625
y: 215.30792236328125
z: -0.18228097259998322
visibility: 0.9994297623634338
","x: 208.0370330810547
y: 228.62725830078125
z: -0.275905579328537
visibility: 0.999814510345459
","x: 203.69586181640625
y: 229.8776092529297
z: -0.26588329672813416
visibility: 0.9998067617416382
","x: 233.1451416015625
y: 252.4073944091797
z: -0.15822303295135498
visibility: 0.9998401999473572
","x: 191.5929718017578
y: 253.41769409179688
z: -0.07082990556955338
visibility: 0.9998851418495178
","x: 235.68179321289062
y: 318.0722961425781
z: -0.1496860831975937
visibility: 0.9840969443321228
","x: 183.0244598388672
y: 310.852294921875
z: -0.1692839413881302
visibility: 0.9502227902412415
","x: 224.69833374023438
y: 370.25048828125
z: -0.198009192943573
visibility: 0.964188814163208
","x: 193.8347625732422
y: 287.23980712890625
z: -0.39839237928390503
visibility: 0.9683405160903931
","x: 222.69296264648438
y: 387.28350830078125
z: -0.22740180790424347
visibility: 0.9322439432144165
","x: 198.00746154785156
y: 281.7544250488281
z: -0.4400085508823395
visibility: 0.9495672583580017
","x: 217.256103515625
y: 384.7749328613281
z: -0.24975541234016418
visibility: 0.9346727728843689
","x: 199.80625915527344
y: 273.96868896484375
z: -0.4378398060798645
visibility: 0.9495004415512085
","x: 217.1414337158203
y: 379.36395263671875
z: -0.207598015666008
visibility: 0.9135197401046753
","x: 199.6763153076172
y: 275.65472412109375
z: -0.4025324881076813
visibility: 0.9320095181465149
","x: 227.03952026367188
y: 367.30950927734375
z: -0.034966517239809036
visibility: 0.999198317527771
","x: 203.54061889648438
y: 367.69451904296875
z: 0.034990355372428894
visibility: 0.999529242515564
","x: 228.82408142089844
y: 451.25555419921875
z: -0.08635349571704865
visibility: 0.989800214767456
","x: 204.29592895507812
y: 453.6822814941406
z: 0.03795851022005081
visibility: 0.9903377294540405
","x: 233.53599548339844
y: 537.1915283203125
z: -0.003818181809037924
visibility: 0.9917662739753723
","x: 207.31626892089844
y: 537.4725952148438
z: 0.1314195990562439
visibility: 0.9941532015800476
","x: 232.75592041015625
y: 549.4849243164062
z: -0.004065386950969696
visibility: 0.941267192363739
","x: 212.0233154296875
y: 550.24755859375
z: 0.13309147953987122
visibility: 0.956164538860321
","x: 231.54476928710938
y: 559.203369140625
z: -0.1228695884346962
visibility: 0.9878706932067871
","x: 192.36782836914062
y: 557.8765258789062
z: 0.028246691450476646
visibility: 0.9895577430725098
","x: 194.75936889648438
y: 277.5762939453125
z: 0.0
","x: 195.73367309570312
y: 269.4879455566406
z: 0.0002216215361841023
","x: 198.12823486328125
y: 262.8777160644531
z: -0.000675826333463192
","x: 200.2133026123047
y: 257.564208984375
z: -0.001850087195634842
","x: 201.41415405273438
y: 253.0998992919922
z: -0.0029974770732223988
","x: 203.32044982910156
y: 264.87786865234375
z: -0.0019704396836459637
","x: 207.55722045898438
y: 260.39166259765625
z: -0.0035785899963229895
","x: 210.22262573242188
y: 257.8695068359375
z: -0.004220013972371817
","x: 212.33734130859375
y: 256.05377197265625
z: -0.004666924010962248
","x: 204.41928100585938
y: 269.232421875
z: -0.003788387170061469
","x: 209.4735870361328
y: 266.3545227050781
z: -0.005272446665912867
","x: 212.5647735595703
y: 265.1565856933594
z: -0.005630300845950842
","x: 214.97691345214844
y: 264.37420654296875
z: -0.006090493407100439
","x: 204.77154541015625
y: 273.8761901855469
z: -0.005584810394793749
","x: 209.61080932617188
y: 272.4393310546875
z: -0.007517513353377581
","x: 212.50172424316406
y: 271.78424072265625
z: -0.008179196156561375
","x: 214.6682586669922
y: 271.1368408203125
z: -0.00867061410099268
","x: 204.37451171875
y: 278.543701171875
z: -0.007406952325254679
","x: 208.27120971679688
y: 279.2544860839844
z: -0.009384199976921082
","x: 210.7884979248047
y: 279.9268798828125
z: -0.010093506425619125
","x: 212.8453369140625
y: 280.3822326660156
z: -0.01050630584359169
",,,,,,,,,,,,,,,,,,,,,
3,"x: 208.18336486816406
y: 219.2115936279297
z: -0.3024536371231079
visibility: 0.9999134540557861
","x: 210.8643035888672
y: 210.17947387695312
z: -0.29306405782699585
visibility: 0.9997284412384033
","x: 212.2919464111328
y: 209.97671508789062
z: -0.2930568754673004
visibility: 0.9997169375419617
","x: 213.71173095703125
y: 209.9121856689453
z: -0.29308003187179565
visibility: 0.9996809363365173
","x: 206.7938995361328
y: 210.48883056640625
z: -0.28761133551597595
visibility: 0.9997633695602417
","x: 205.35853576660156
y: 210.37533569335938
z: -0.2876982092857361
visibility: 0.9997496008872986
","x: 203.9550323486328
y: 210.31402587890625
z: -0.2877281904220581
visibility: 0.9997430443763733
","x: 216.46421813964844
y: 212.16427612304688
z: -0.1948290914297104
visibility: 0.9995394945144653
","x: 202.61070251464844
y: 212.29437255859375
z: -0.17164868116378784
visibility: 0.9994188547134399
","x: 211.38963317871094
y: 225.62684631347656
z: -0.26193636655807495
visibility: 0.9998022317886353
","x: 205.89366149902344
y: 225.53749084472656
z: -0.2556566596031189
visibility: 0.999786913394928
","x: 233.2434539794922
y: 252.31658935546875
z: -0.15283897519111633
visibility: 0.9998359084129333
","x: 192.04501342773438
y: 251.68092346191406
z: -0.06503256410360336
visibility: 0.9998562932014465
","x: 236.7297821044922
y: 318.23345947265625
z: -0.1545182764530182
visibility: 0.984907865524292
","x: 183.28494262695312
y: 311.6717834472656
z: -0.17905151844024658
visibility: 0.9531600475311279
","x: 221.0779266357422
y: 367.6361389160156
z: -0.200154110789299
visibility: 0.9648694396018982
","x: 198.1511688232422
y: 278.2488708496094
z: -0.394051194190979
visibility: 0.9700024127960205
","x: 217.59872436523438
y: 382.1267395019531
z: -0.22791147232055664
visibility: 0.932094156742096
","x: 204.57565307617188
y: 271.8439636230469
z: -0.43688449263572693
visibility: 0.9512317776679993
","x: 212.0214385986328
y: 377.7780456542969
z: -0.24760720133781433
visibility: 0.934083104133606
","x: 205.36981201171875
y: 265.0174560546875
z: -0.43140870332717896
visibility: 0.9509319067001343
","x: 212.25741577148438
y: 373.1512451171875
z: -0.20757842063903809
visibility: 0.9125959873199463
","x: 204.144287109375
y: 266.4189453125
z: -0.3966258764266968
visibility: 0.9330957531929016
","x: 228.2042694091797
y: 365.19830322265625
z: -0.03912132605910301
visibility: 0.9991766810417175
","x: 204.72247314453125
y: 367.66912841796875
z: 0.039132650941610336
visibility: 0.9995023608207703
","x: 230.13006591796875
y: 449.750732421875
z: -0.09944330155849457
visibility: 0.9895394444465637
","x: 205.95156860351562
y: 453.9654846191406
z: 0.031653404235839844
visibility: 0.9881696701049805
","x: 234.8855438232422
y: 536.8352661132812
z: -0.019328396767377853
visibility: 0.9911617040634155
","x: 207.4874725341797
y: 538.1470947265625
z: 0.10517676919698715
visibility: 0.9930687546730042
","x: 234.0587615966797
y: 550.115234375
z: -0.019587967544794083
visibility: 0.9373027086257935
","x: 212.083740234375
y: 551.8764038085938
z: 0.10528242588043213
visibility: 0.9527387619018555
","x: 230.5913543701172
y: 558.1343994140625
z: -0.13862226903438568
visibility: 0.9872897267341614
","x: 192.0453338623047
y: 557.8563842773438
z: -0.00028081369237042964
visibility: 0.9879589080810547
","x: 199.96397399902344
y: 273.3671875
z: 0.0
","x: 200.6472930908203
y: 265.68115234375
z: -0.0011883934494107962
","x: 203.0196990966797
y: 259.39862060546875
z: -0.0026190374046564102
","x: 205.35174560546875
y: 254.9615478515625
z: -0.0040907785296440125
","x: 206.67605590820312
y: 251.1813201904297
z: -0.005530586466193199
","x: 208.37277221679688
y: 262.49853515625
z: -0.003336254507303238
","x: 212.86654663085938
y: 257.66436767578125
z: -0.005484777502715588
","x: 215.4990997314453
y: 254.92889404296875
z: -0.006433840841054916
","x: 217.53753662109375
y: 252.94273376464844
z: -0.007087463978677988
","x: 209.64224243164062
y: 266.8482666015625
z: -0.0046457331627607346
","x: 214.9613037109375
y: 263.6809997558594
z: -0.0065859658643603325
","x: 218.20794677734375
y: 262.3302001953125
z: -0.007295422255992889
","x: 220.64430236816406
y: 261.5412902832031
z: -0.008027777075767517
","x: 209.94871520996094
y: 271.0082092285156
z: -0.006058388389647007
","x: 214.89622497558594
y: 269.29754638671875
z: -0.008543980307877064
","x: 218.07557678222656
y: 268.6529541015625
z: -0.009764252230525017
","x: 220.44776916503906
y: 268.126953125
z: -0.010610255412757397
","x: 209.3404541015625
y: 275.0090637207031
z: -0.007590653840452433
","x: 213.17117309570312
y: 275.85931396484375
z: -0.010036648251116276
","x: 215.75167846679688
y: 276.7386474609375
z: -0.011197471059858799
","x: 217.80149841308594
y: 277.4112854003906
z: -0.011917893774807453
",,,,,,,,,,,,,,,,,,,,,
4,"x: 208.18336486816406
y: 219.2115936279297
z: -0.3024536371231079
visibility: 0.9999134540557861
","x: 210.8643035888672
y: 210.17947387695312
z: -0.29306405782699585
visibility: 0.9997284412384033
","x: 212.2919464111328
y: 209.97671508789062
z: -0.2930568754673004
visibility: 0.9997169375419617
","x: 213.71173095703125
y: 209.9121856689453
z: -0.29308003187179565
visibility: 0.9996809363365173
","x: 206.7938995361328
y: 210.48883056640625
z: -0.28761133551597595
visibility: 0.9997633695602417
","x: 205.35853576660156
y: 210.37533569335938
z: -0.2876982092857361
visibility: 0.9997496008872986
","x: 203.9550323486328
y: 210.31402587890625
z: -0.2877281904220581
visibility: 0.9997430443763733
","x: 216.46421813964844
y: 212.16427612304688
z: -0.1948290914297104
visibility: 0.9995394945144653
","x: 202.61070251464844
y: 212.29437255859375
z: -0.17164868116378784
visibility: 0.9994188547134399
","x: 211.38963317871094
y: 225.62684631347656
z: -0.26193636655807495
visibility: 0.9998022317886353
","x: 205.89366149902344
y: 225.53749084472656
z: -0.2556566596031189
visibility: 0.999786913394928
","x: 233.2434539794922
y: 252.31658935546875
z: -0.15283897519111633
visibility: 0.9998359084129333
","x: 192.04501342773438
y: 251.68092346191406
z: -0.06503256410360336
visibility: 0.9998562932014465
","x: 236.7297821044922
y: 318.23345947265625
z: -0.1545182764530182
visibility: 0.984907865524292
","x: 183.28494262695312
y: 311.6717834472656
z: -0.17905151844024658
visibility: 0.9531600475311279
","x: 221.0779266357422
y: 367.6361389160156
z: -0.200154110789299
visibility: 0.9648694396018982
","x: 198.1511688232422
y: 278.2488708496094
z: -0.394051194190979
visibility: 0.9700024127960205
","x: 217.59872436523438
y: 382.1267395019531
z: -0.22791147232055664
visibility: 0.932094156742096
","x: 204.57565307617188
y: 271.8439636230469
z: -0.43688449263572693
visibility: 0.9512317776679993
","x: 212.0214385986328
y: 377.7780456542969
z: -0.24760720133781433
visibility: 0.934083104133606
","x: 205.36981201171875
y: 265.0174560546875
z: -0.43140870332717896
visibility: 0.9509319067001343
","x: 212.25741577148438
y: 373.1512451171875
z: -0.20757842063903809
visibility: 0.9125959873199463
","x: 204.144287109375
y: 266.4189453125
z: -0.3966258764266968
visibility: 0.9330957531929016
","x: 228.2042694091797
y: 365.19830322265625
z: -0.03912132605910301
visibility: 0.9991766810417175
","x: 204.72247314453125
y: 367.66912841796875
z: 0.039132650941610336
visibility: 0.9995023608207703
","x: 230.13006591796875
y: 449.750732421875
z: -0.09944330155849457
visibility: 0.9895394444465637
","x: 205.95156860351562
y: 453.9654846191406
z: 0.031653404235839844
visibility: 0.9881696701049805
","x: 234.8855438232422
y: 536.8352661132812
z: -0.019328396767377853
visibility: 0.9911617040634155
","x: 207.4874725341797
y: 538.1470947265625
z: 0.10517676919698715
visibility: 0.9930687546730042
","x: 234.0587615966797
y: 550.115234375
z: -0.019587967544794083
visibility: 0.9373027086257935
","x: 212.083740234375
y: 551.8764038085938
z: 0.10528242588043213
visibility: 0.9527387619018555
","x: 230.5913543701172
y: 558.1343994140625
z: -0.13862226903438568
visibility: 0.9872897267341614
","x: 192.0453338623047
y: 557.8563842773438
z: -0.00028081369237042964
visibility: 0.9879589080810547
","x: 199.96397399902344
y: 273.3671875
z: 0.0
","x: 200.6472930908203
y: 265.68115234375
z: -0.0011883934494107962
","x: 203.0196990966797
y: 259.39862060546875
z: -0.0026190374046564102
","x: 205.35174560546875
y: 254.9615478515625
z: -0.0040907785296440125
","x: 206.67605590820312
y: 251.1813201904297
z: -0.005530586466193199
","x: 208.37277221679688
y: 262.49853515625
z: -0.003336254507303238
","x: 212.86654663085938
y: 257.66436767578125
z: -0.005484777502715588
","x: 215.4990997314453
y: 254.92889404296875
z: -0.006433840841054916
","x: 217.53753662109375
y: 252.94273376464844
z: -0.007087463978677988
","x: 209.64224243164062
y: 266.8482666015625
z: -0.0046457331627607346
","x: 214.9613037109375
y: 263.6809997558594
z: -0.0065859658643603325
","x: 218.20794677734375
y: 262.3302001953125
z: -0.007295422255992889
","x: 220.64430236816406
y: 261.5412902832031
z: -0.008027777075767517
","x: 209.94871520996094
y: 271.0082092285156
z: -0.006058388389647007
","x: 214.89622497558594
y: 269.29754638671875
z: -0.008543980307877064
","x: 218.07557678222656
y: 268.6529541015625
z: -0.009764252230525017
","x: 220.44776916503906
y: 268.126953125
z: -0.010610255412757397
","x: 209.3404541015625
y: 275.0090637207031
z: -0.007590653840452433
","x: 213.17117309570312
y: 275.85931396484375
z: -0.010036648251116276
","x: 215.75167846679688
y: 276.7386474609375
z: -0.011197471059858799
","x: 217.80149841308594
y: 277.4112854003906
z: -0.011917893774807453
",,,,,,,,,,,,,,,,,,,,,
5,"x: 217.49496459960938
y: 216.9116973876953
z: -0.2456424981355667
visibility: 0.9999164342880249
","x: 220.48377990722656
y: 208.21066284179688
z: -0.2350737303495407
visibility: 0.9997432827949524
","x: 221.9132080078125
y: 208.40354919433594
z: -0.23508307337760925
visibility: 0.9997342824935913
","x: 223.35186767578125
y: 208.70339965820312
z: -0.23510117828845978
visibility: 0.9996989369392395
","x: 216.31092834472656
y: 207.47999572753906
z: -0.2292887419462204
visibility: 0.9997776746749878
","x: 214.8318328857422
y: 207.04856872558594
z: -0.22935235500335693
visibility: 0.9997662305831909
","x: 213.13937377929688
y: 206.68067932128906
z: -0.22936439514160156
visibility: 0.9997601509094238
","x: 225.2857208251953
y: 211.68997192382812
z: -0.13880157470703125
visibility: 0.9995760917663574
","x: 210.0153350830078
y: 208.8722381591797
z: -0.11400799453258514
visibility: 0.9994553923606873
","x: 219.58897399902344
y: 224.09262084960938
z: -0.20611968636512756
visibility: 0.9998056888580322
","x: 214.5673828125
y: 223.648193359375
z: -0.19943459331989288
visibility: 0.9997910857200623
","x: 237.44558715820312
y: 251.85906982421875
z: -0.11007677018642426
visibility: 0.9998355507850647
","x: 198.47950744628906
y: 251.12539672851562
z: -0.005583547987043858
visibility: 0.9998401999473572
","x: 238.41868591308594
y: 318.0392761230469
z: -0.12531495094299316
visibility: 0.9853156805038452
","x: 189.2035675048828
y: 314.9844970703125
z: -0.12860462069511414
visibility: 0.9547522068023682
","x: 221.33935546875
y: 357.56207275390625
z: -0.16068419814109802
visibility: 0.9640588760375977
","x: 203.74172973632812
y: 278.4347229003906
z: -0.37260347604751587
visibility: 0.9715104699134827
","x: 217.69900512695312
y: 371.71075439453125
z: -0.18594056367874146
visibility: 0.9294384717941284
","x: 210.1365509033203
y: 272.48956298828125
z: -0.41054409742355347
visibility: 0.9529154300689697
","x: 212.40940856933594
y: 363.4429931640625
z: -0.19810624420642853
visibility: 0.9307669997215271
","x: 210.97828674316406
y: 265.08349609375
z: -0.39973077178001404
visibility: 0.9523931741714478
","x: 213.18594360351562
y: 358.6146240234375
z: -0.1637972593307495
visibility: 0.9082164168357849
","x: 209.4836883544922
y: 266.7077941894531
z: -0.38368698954582214
visibility: 0.9342759251594543
","x: 229.37591552734375
y: 363.3563232421875
z: -0.04722319543361664
visibility: 0.9991952776908875
","x: 206.905029296875
y: 365.2941589355469
z: 0.047252096235752106
visibility: 0.9994982481002808
","x: 230.53651428222656
y: 447.1287841796875
z: -0.11520396173000336
visibility: 0.9892681837081909
","x: 206.3987274169922
y: 453.3680419921875
z: 0.012630896642804146
visibility: 0.9860476851463318
","x: 235.56007385253906
y: 536.8074340820312
z: -0.041488178074359894
visibility: 0.9907317161560059
","x: 207.63485717773438
y: 538.16357421875
z: 0.07170026004314423
visibility: 0.9920915961265564
","x: 235.419189453125
y: 550.67822265625
z: -0.04252772778272629
visibility: 0.9330375790596008
","x: 212.19140625
y: 552.2921142578125
z: 0.07038157433271408
visibility: 0.9505466818809509
","x: 229.45240783691406
y: 558.087890625
z: -0.16307716071605682
visibility: 0.9867386817932129
","x: 191.7073211669922
y: 557.8168334960938
z: -0.03736257553100586
visibility: 0.9865548610687256
","x: 205.33876037597656
y: 270.6878662109375
z: 0.0
","x: 206.50466918945312
y: 263.488525390625
z: -0.00100492755882442
","x: 209.13868713378906
y: 257.5482482910156
z: -0.002398584969341755
","x: 211.49258422851562
y: 253.50384521484375
z: -0.004111916292458773
","x: 212.88006591796875
y: 249.55093383789062
z: -0.005880377255380154
","x: 214.46632385253906
y: 260.03546142578125
z: -0.0024398735258728266
","x: 218.71322631835938
y: 255.8961181640625
z: -0.004901831969618797
","x: 221.29913330078125
y: 253.69537353515625
z: -0.006313240621238947
","x: 223.51217651367188
y: 252.0448455810547
z: -0.007324816659092903
","x: 215.4069366455078
y: 264.3302001953125
z: -0.004280467517673969
","x: 220.48207092285156
y: 261.697509765625
z: -0.006663968320935965
","x: 223.65921020507812
y: 260.5627136230469
z: -0.007897844538092613
","x: 226.3019256591797
y: 259.7848205566406
z: -0.008952457457780838
","x: 215.51158142089844
y: 268.7752685546875
z: -0.0063475631177425385
","x: 220.43643188476562
y: 267.3918151855469
z: -0.009130910970270634
","x: 223.4958038330078
y: 266.7232360839844
z: -0.010490549728274345
","x: 225.92933654785156
y: 266.12017822265625
z: -0.011441938579082489
","x: 214.84336853027344
y: 273.434814453125
z: -0.008589468896389008
","x: 218.72401428222656
y: 274.0274353027344
z: -0.011156665161252022
","x: 221.20721435546875
y: 274.5235595703125
z: -0.012305812910199165
","x: 223.30435180664062
y: 274.872314453125
z: -0.013072343543171883
",,,,,,,,,,,,,,,,,,,,,
6,"x: 217.49496459960938
y: 216.9116973876953
z: -0.2456424981355667
visibility: 0.9999164342880249
","x: 220.48377990722656
y: 208.21066284179688
z: -0.2350737303495407
visibility: 0.9997432827949524
","x: 221.9132080078125
y: 208.40354919433594
z: -0.23508307337760925
visibility: 0.9997342824935913
","x: 223.35186767578125
y: 208.70339965820312
z: -0.23510117828845978
visibility: 0.9996989369392395
","x: 216.31092834472656
y: 207.47999572753906
z: -0.2292887419462204
visibility: 0.9997776746749878
","x: 214.8318328857422
y: 207.04856872558594
z: -0.22935235500335693
visibility: 0.9997662305831909
","x: 213.13937377929688
y: 206.68067932128906
z: -0.22936439514160156
visibility: 0.9997601509094238
","x: 225.2857208251953
y: 211.68997192382812
z: -0.13880157470703125
visibility: 0.9995760917663574
","x: 210.0153350830078
y: 208.8722381591797
z: -0.11400799453258514
visibility: 0.9994553923606873
","x: 219.58897399902344
y: 224.09262084960938
z: -0.20611968636512756
visibility: 0.9998056888580322
","x: 214.5673828125
y: 223.648193359375
z: -0.19943459331989288
visibility: 0.9997910857200623
","x: 237.44558715820312
y: 251.85906982421875
z: -0.11007677018642426
visibility: 0.9998355507850647
","x: 198.47950744628906
y: 251.12539672851562
z: -0.005583547987043858
visibility: 0.9998401999473572
","x: 238.41868591308594
y: 318.0392761230469
z: -0.12531495094299316
visibility: 0.9853156805038452
","x: 189.2035675048828
y: 314.9844970703125
z: -0.12860462069511414
visibility: 0.9547522068023682
","x: 221.33935546875
y: 357.56207275390625
z: -0.16068419814109802
visibility: 0.9640588760375977
","x: 203.74172973632812
y: 278.4347229003906
z: -0.37260347604751587
visibility: 0.9715104699134827
","x: 217.69900512695312
y: 371.71075439453125
z: -0.18594056367874146
visibility: 0.9294384717941284
","x: 210.1365509033203
y: 272.48956298828125
z: -0.41054409742355347
visibility: 0.9529154300689697
","x: 212.40940856933594
y: 363.4429931640625
z: -0.19810624420642853
visibility: 0.9307669997215271
","x: 210.97828674316406
y: 265.08349609375
z: -0.39973077178001404
visibility: 0.9523931741714478
","x: 213.18594360351562
y: 358.6146240234375
z: -0.1637972593307495
visibility: 0.9082164168357849
","x: 209.4836883544922
y: 266.7077941894531
z: -0.38368698954582214
visibility: 0.9342759251594543
","x: 229.37591552734375
y: 363.3563232421875
z: -0.04722319543361664
visibility: 0.9991952776908875
","x: 206.905029296875
y: 365.2941589355469
z: 0.047252096235752106
visibility: 0.9994982481002808
","x: 230.53651428222656
y: 447.1287841796875
z: -0.11520396173000336
visibility: 0.9892681837081909
","x: 206.3987274169922
y: 453.3680419921875
z: 0.012630896642804146
visibility: 0.9860476851463318
","x: 235.56007385253906
y: 536.8074340820312
z: -0.041488178074359894
visibility: 0.9907317161560059
","x: 207.63485717773438
y: 538.16357421875
z: 0.07170026004314423
visibility: 0.9920915961265564
","x: 235.419189453125
y: 550.67822265625
z: -0.04252772778272629
visibility: 0.9330375790596008
","x: 212.19140625
y: 552.2921142578125
z: 0.07038157433271408
visibility: 0.9505466818809509
","x: 229.45240783691406
y: 558.087890625
z: -0.16307716071605682
visibility: 0.9867386817932129
","x: 191.7073211669922
y: 557.8168334960938
z: -0.03736257553100586
visibility: 0.9865548610687256
","x: 205.33876037597656
y: 270.6878662109375
z: 0.0
","x: 206.50466918945312
y: 263.488525390625
z: -0.00100492755882442
","x: 209.13868713378906
y: 257.5482482910156
z: -0.002398584969341755
","x: 211.49258422851562
y: 253.50384521484375
z: -0.004111916292458773
","x: 212.88006591796875
y: 249.55093383789062
z: -0.005880377255380154
","x: 214.46632385253906
y: 260.03546142578125
z: -0.0024398735258728266
","x: 218.71322631835938
y: 255.8961181640625
z: -0.004901831969618797
","x: 221.29913330078125
y: 253.69537353515625
z: -0.006313240621238947
","x: 223.51217651367188
y: 252.0448455810547
z: -0.007324816659092903
","x: 215.4069366455078
y: 264.3302001953125
z: -0.004280467517673969
","x: 220.48207092285156
y: 261.697509765625
z: -0.006663968320935965
","x: 223.65921020507812
y: 260.5627136230469
z: -0.007897844538092613
","x: 226.3019256591797
y: 259.7848205566406
z: -0.008952457457780838
","x: 215.51158142089844
y: 268.7752685546875
z: -0.0063475631177425385
","x: 220.43643188476562
y: 267.3918151855469
z: -0.009130910970270634
","x: 223.4958038330078
y: 266.7232360839844
z: -0.010490549728274345
","x: 225.92933654785156
y: 266.12017822265625
z: -0.011441938579082489
","x: 214.84336853027344
y: 273.434814453125
z: -0.008589468896389008
","x: 218.72401428222656
y: 274.0274353027344
z: -0.011156665161252022
","x: 221.20721435546875
y: 274.5235595703125
z: -0.012305812910199165
","x: 223.30435180664062
y: 274.872314453125
z: -0.013072343543171883
",,,,,,,,,,,,,,,,,,,,,
7,"x: 223.26626586914062
y: 214.08607482910156
z: -0.22860929369926453
visibility: 0.9999125003814697
","x: 226.0719451904297
y: 206.37728881835938
z: -0.21741783618927002
visibility: 0.999739408493042
","x: 227.48831176757812
y: 206.97018432617188
z: -0.21742406487464905
visibility: 0.9997353553771973
","x: 228.8651580810547
y: 207.57669067382812
z: -0.2174239456653595
visibility: 0.9996973276138306
","x: 221.90011596679688
y: 204.635009765625
z: -0.21182386577129364
visibility: 0.999776303768158
","x: 220.3828125
y: 204.06553649902344
z: -0.21187475323677063
visibility: 0.999768078327179
","x: 218.84495544433594
y: 203.56727600097656
z: -0.21189162135124207
visibility: 0.9997624754905701
","x: 231.10043334960938
y: 211.55792236328125
z: -0.12589874863624573
visibility: 0.9995959997177124
","x: 216.5532684326172
y: 206.89111328125
z: -0.10113324224948883
visibility: 0.9994540810585022
","x: 225.47943115234375
y: 222.06739807128906
z: -0.19198644161224365
visibility: 0.9997954368591309
","x: 220.48252868652344
y: 221.27841186523438
z: -0.18522068858146667
visibility: 0.9997797608375549
","x: 242.83375549316406
y: 252.20785522460938
z: -0.1062609925866127
visibility: 0.9998324513435364
","x: 203.20526123046875
y: 251.1572265625
z: -0.00045890104956924915
visibility: 0.9997950792312622
","x: 243.16700744628906
y: 318.1986389160156
z: -0.12630219757556915
visibility: 0.9861062169075012
","x: 193.5853271484375
y: 315.76861572265625
z: -0.11951253563165665
visibility: 0.95686274766922
","x: 223.19198608398438
y: 358.946044921875
z: -0.17399683594703674
visibility: 0.9653518795967102
","x: 208.81629943847656
y: 275.0813903808594
z: -0.3424622416496277
visibility: 0.9731050133705139
","x: 219.88174438476562
y: 374.3162536621094
z: -0.20203082263469696
visibility: 0.9310352802276611
","x: 214.73007202148438
y: 269.53118896484375
z: -0.38358592987060547
visibility: 0.9546550512313843
","x: 214.66763305664062
y: 368.2764892578125
z: -0.2178524285554886
visibility: 0.9318946003913879
","x: 215.9065704345703
y: 263.99603271484375
z: -0.36879128217697144
visibility: 0.9539065957069397
","x: 215.28378295898438
y: 363.1105041503906
z: -0.17978397011756897
visibility: 0.9096368551254272
","x: 214.67710876464844
y: 265.7680969238281
z: -0.34246692061424255
visibility: 0.9357171058654785
","x: 231.45797729492188
y: 363.4687805175781
z: -0.04839467629790306
visibility: 0.9991804361343384
","x: 208.4497833251953
y: 365.3879089355469
z: 0.04839682951569557
visibility: 0.9994555711746216
","x: 230.90614318847656
y: 447.4061584472656
z: -0.10580019652843475
visibility: 0.9894906282424927
","x: 206.31057739257812
y: 453.3732604980469
z: 0.021122224628925323
visibility: 0.9846971035003662
","x: 235.9479217529297
y: 536.8082275390625
z: -0.029084548354148865
visibility: 0.9907211661338806
","x: 207.80191040039062
y: 538.1475219726562
z: 0.09158475697040558
visibility: 0.9912576675415039
","x: 236.1452178955078
y: 550.84326171875
z: -0.030003035441040993
visibility: 0.9285911917686462
","x: 212.4468231201172
y: 552.3493041992188
z: 0.09098388254642487
visibility: 0.9482467174530029
","x: 228.52200317382812
y: 558.3587036132812
z: -0.1503417044878006
visibility: 0.9866222143173218
","x: 191.64883422851562
y: 557.8154907226562
z: -0.01399449072778225
visibility: 0.9853781461715698
","x: 207.63462829589844
y: 273.65106201171875
z: 0.0
","x: 209.6207733154297
y: 265.3612976074219
z: -6.19596178808024e-08
","x: 212.6604461669922
y: 259.2159118652344
z: -0.0008404526743106544
","x: 215.34300231933594
y: 254.70529174804688
z: -0.00204454199410975
","x: 217.04733276367188
y: 250.7433319091797
z: -0.003277346258983016
","x: 217.15829467773438
y: 262.4195556640625
z: -0.0009800035040825605
","x: 221.3392791748047
y: 258.509521484375
z: -0.0029209048952907324
","x: 224.3883056640625
y: 256.2247009277344
z: -0.004500346723943949
","x: 227.1453094482422
y: 254.344970703125
z: -0.0056268442422151566
","x: 218.2169189453125
y: 266.4761962890625
z: -0.00280182296410203
","x: 222.97381591796875
y: 264.4931945800781
z: -0.00458076735958457
","x: 226.6126251220703
y: 263.2830505371094
z: -0.006192071363329887
","x: 229.71539306640625
y: 262.16314697265625
z: -0.0076408362947404385
","x: 218.5623321533203
y: 270.4732666015625
z: -0.004728598054498434
","x: 223.17318725585938
y: 269.3445739746094
z: -0.006653517484664917
","x: 226.47268676757812
y: 268.7464599609375
z: -0.008211905136704445
","x: 229.21730041503906
y: 268.11083984375
z: -0.009497440420091152
","x: 218.2025146484375
y: 274.43585205078125
z: -0.006734304130077362
","x: 221.85467529296875
y: 275.2722473144531
z: -0.008346784859895706
","x: 224.40208435058594
y: 276.19866943359375
z: -0.00922410748898983
","x: 226.6437225341797
y: 276.85772705078125
z: -0.009972352534532547
",,,,,,,,,,,,,,,,,,,,,
8,"x: 223.26626586914062
y: 214.08607482910156
z: -0.22860929369926453
visibility: 0.9999125003814697
","x: 226.0719451904297
y: 206.37728881835938
z: -0.21741783618927002
visibility: 0.999739408493042
","x: 227.48831176757812
y: 206.97018432617188
z: -0.21742406487464905
visibility: 0.9997353553771973
","x: 228.8651580810547
y: 207.57669067382812
z: -0.2174239456653595
visibility: 0.9996973276138306
","x: 221.90011596679688
y: 204.635009765625
z: -0.21182386577129364
visibility: 0.999776303768158
","x: 220.3828125
y: 204.06553649902344
z: -0.21187475323677063
visibility: 0.999768078327179
","x: 218.84495544433594
y: 203.56727600097656
z: -0.21189162135124207
visibility: 0.9997624754905701
","x: 231.10043334960938
y: 211.55792236328125
z: -0.12589874863624573
visibility: 0.9995959997177124
","x: 216.5532684326172
y: 206.89111328125
z: -0.10113324224948883
visibility: 0.9994540810585022
","x: 225.47943115234375
y: 222.06739807128906
z: -0.19198644161224365
visibility: 0.9997954368591309
","x: 220.48252868652344
y: 221.27841186523438
z: -0.18522068858146667
visibility: 0.9997797608375549
","x: 242.83375549316406
y: 252.20785522460938
z: -0.1062609925866127
visibility: 0.9998324513435364
","x: 203.20526123046875
y: 251.1572265625
z: -0.00045890104956924915
visibility: 0.9997950792312622
","x: 243.16700744628906
y: 318.1986389160156
z: -0.12630219757556915
visibility: 0.9861062169075012
","x: 193.5853271484375
y: 315.76861572265625
z: -0.11951253563165665
visibility: 0.95686274766922
","x: 223.19198608398438
y: 358.946044921875
z: -0.17399683594703674
visibility: 0.9653518795967102
","x: 208.81629943847656
y: 275.0813903808594
z: -0.3424622416496277
visibility: 0.9731050133705139
","x: 219.88174438476562
y: 374.3162536621094
z: -0.20203082263469696
visibility: 0.9310352802276611
","x: 214.73007202148438
y: 269.53118896484375
z: -0.38358592987060547
visibility: 0.9546550512313843
","x: 214.66763305664062
y: 368.2764892578125
z: -0.2178524285554886
visibility: 0.9318946003913879
","x: 215.9065704345703
y: 263.99603271484375
z: -0.36879128217697144
visibility: 0.9539065957069397
","x: 215.28378295898438
y: 363.1105041503906
z: -0.17978397011756897
visibility: 0.9096368551254272
","x: 214.67710876464844
y: 265.7680969238281
z: -0.34246692061424255
visibility: 0.9357171058654785
","x: 231.45797729492188
y: 363.4687805175781
z: -0.04839467629790306
visibility: 0.9991804361343384
","x: 208.4497833251953
y: 365.3879089355469
z: 0.04839682951569557
visibility: 0.9994555711746216
","x: 230.90614318847656
y: 447.4061584472656
z: -0.10580019652843475
visibility: 0.9894906282424927
","x: 206.31057739257812
y: 453.3732604980469
z: 0.021122224628925323
visibility: 0.9846971035003662
","x: 235.9479217529297
y: 536.8082275390625
z: -0.029084548354148865
visibility: 0.9907211661338806
","x: 207.80191040039062
y: 538.1475219726562
z: 0.09158475697040558
visibility: 0.9912576675415039
","x: 236.1452178955078
y: 550.84326171875
z: -0.030003035441040993
visibility: 0.9285911917686462
","x: 212.4468231201172
y: 552.3493041992188
z: 0.09098388254642487
visibility: 0.9482467174530029
","x: 228.52200317382812
y: 558.3587036132812
z: -0.1503417044878006
visibility: 0.9866222143173218
","x: 191.64883422851562
y: 557.8154907226562
z: -0.01399449072778225
visibility: 0.9853781461715698
","x: 207.63462829589844
y: 273.65106201171875
z: 0.0
","x: 209.6207733154297
y: 265.3612976074219
z: -6.19596178808024e-08
","x: 212.6604461669922
y: 259.2159118652344
z: -0.0008404526743106544
","x: 215.34300231933594
y: 254.70529174804688
z: -0.00204454199410975
","x: 217.04733276367188
y: 250.7433319091797
z: -0.003277346258983016
","x: 217.15829467773438
y: 262.4195556640625
z: -0.0009800035040825605
","x: 221.3392791748047
y: 258.509521484375
z: -0.0029209048952907324
","x: 224.3883056640625
y: 256.2247009277344
z: -0.004500346723943949
","x: 227.1453094482422
y: 254.344970703125
z: -0.0056268442422151566
","x: 218.2169189453125
y: 266.4761962890625
z: -0.00280182296410203
","x: 222.97381591796875
y: 264.4931945800781
z: -0.00458076735958457
","x: 226.6126251220703
y: 263.2830505371094
z: -0.006192071363329887
","x: 229.71539306640625
y: 262.16314697265625
z: -0.0076408362947404385
","x: 218.5623321533203
y: 270.4732666015625
z: -0.004728598054498434
","x: 223.17318725585938
y: 269.3445739746094
z: -0.006653517484664917
","x: 226.47268676757812
y: 268.7464599609375
z: -0.008211905136704445
","x: 229.21730041503906
y: 268.11083984375
z: -0.009497440420091152
","x: 218.2025146484375
y: 274.43585205078125
z: -0.006734304130077362
","x: 221.85467529296875
y: 275.2722473144531
z: -0.008346784859895706
","x: 224.40208435058594
y: 276.19866943359375
z: -0.00922410748898983
","x: 226.6437225341797
y: 276.85772705078125
z: -0.009972352534532547
",,,,,,,,,,,,,,,,,,,,,
9,"x: 226.416015625
y: 213.77291870117188
z: -0.21564912796020508
visibility: 0.9999027848243713
","x: 229.53680419921875
y: 205.65524291992188
z: -0.20697006583213806
visibility: 0.9997162222862244
","x: 231.01931762695312
y: 206.21060180664062
z: -0.2070039063692093
visibility: 0.9997207522392273
","x: 232.47308349609375
y: 206.8289031982422
z: -0.20700979232788086
visibility: 0.9996759295463562
","x: 225.3529052734375
y: 204.41265869140625
z: -0.19823527336120605
visibility: 0.9997524619102478
","x: 223.96365356445312
y: 204.06564331054688
z: -0.19826072454452515
visibility: 0.9997463822364807
","x: 222.7374267578125
y: 203.77699279785156
z: -0.19827914237976074
visibility: 0.999737560749054
","x: 235.4996337890625
y: 211.25238037109375
z: -0.12499654293060303
visibility: 0.9996036887168884
","x: 222.1146240234375
y: 206.796630859375
z: -0.08439187705516815
visibility: 0.9993815422058105
","x: 228.82247924804688
y: 221.85064697265625
z: -0.18258996307849884
visibility: 0.99977707862854
","x: 224.18276977539062
y: 221.21295166015625
z: -0.17114967107772827
visibility: 0.9997481107711792
","x: 248.21839904785156
y: 252.9629669189453
z: -0.10369829833507538
visibility: 0.9998233914375305
","x: 210.29258728027344
y: 251.91494750976562
z: 0.015295000746846199
visibility: 0.9997048377990723
","x: 247.31549072265625
y: 319.5703430175781
z: -0.12289121001958847
visibility: 0.9866040349006653
","x: 199.18788146972656
y: 314.9855651855469
z: -0.09646077454090118
visibility: 0.9566361904144287
","x: 232.07313537597656
y: 369.8037414550781
z: -0.17225489020347595
visibility: 0.9663134217262268
","x: 212.72499084472656
y: 275.46185302734375
z: -0.32841530442237854
visibility: 0.9743574261665344
","x: 229.2871856689453
y: 386.6825866699219
z: -0.1985844373703003
visibility: 0.9323307275772095
","x: 218.60733032226562
y: 269.87841796875
z: -0.37087348103523254
visibility: 0.9561627507209778
","x: 222.46189880371094
y: 381.32330322265625
z: -0.2162363976240158
visibility: 0.9327502846717834
","x: 219.4423828125
y: 263.59967041015625
z: -0.362026572227478
visibility: 0.955235481262207
","x: 222.88681030273438
y: 375.1534729003906
z: -0.17817941308021545
visibility: 0.911134660243988
","x: 218.31103515625
y: 265.2044372558594
z: -0.33029285073280334
visibility: 0.9372096061706543
","x: 234.3058319091797
y: 369.5945739746094
z: -0.04799146205186844
visibility: 0.9991031289100647
","x: 212.26646423339844
y: 367.7619934082031
z: 0.047996602952480316
visibility: 0.9993798732757568
","x: 234.0723876953125
y: 450.34051513671875
z: -0.08647685497999191
visibility: 0.9895807504653931
","x: 206.1999053955078
y: 453.59332275390625
z: 0.039849571883678436
visibility: 0.9843918681144714
","x: 235.97378540039062
y: 536.3740844726562
z: 0.02491619624197483
visibility: 0.9901841282844543
","x: 208.02462768554688
y: 537.8526611328125
z: 0.1159537211060524
visibility: 0.9906157851219177
","x: 236.21742248535156
y: 548.98779296875
z: 0.026499714702367783
visibility: 0.919438362121582
","x: 212.52159118652344
y: 551.2199096679688
z: 0.11615204811096191
visibility: 0.9469102621078491
","x: 228.1990509033203
y: 559.4902954101562
z: -0.09064836800098419
visibility: 0.985586404800415
","x: 190.84854125976562
y: 557.814453125
z: 0.017388474196195602
visibility: 0.9843284487724304
","x: 213.25621032714844
y: 271.86395263671875
z: 0.0
","x: 214.61729431152344
y: 264.67962646484375
z: -0.00015015093958936632
","x: 217.22952270507812
y: 259.2671203613281
z: -0.0013924946542829275
","x: 219.63955688476562
y: 255.55618286132812
z: -0.0028855260461568832
","x: 221.09027099609375
y: 251.94094848632812
z: -0.00446974067017436
","x: 221.45494079589844
y: 261.84991455078125
z: -0.003202761523425579
","x: 225.90672302246094
y: 258.15631103515625
z: -0.0054170130752027035
","x: 228.8336639404297
y: 256.1125183105469
z: -0.0065650297328829765
","x: 231.17510986328125
y: 254.6749267578125
z: -0.0073818666860461235
","x: 222.22523498535156
y: 266.2143249511719
z: -0.0050591519102454185
","x: 227.3104248046875
y: 263.8586120605469
z: -0.00722657423466444
","x: 230.5709228515625
y: 262.78350830078125
z: -0.008042994886636734
","x: 233.1400909423828
y: 262.1432189941406
z: -0.008810145780444145
","x: 222.3183135986328
y: 270.7719421386719
z: -0.006864867638796568
","x: 227.0879364013672
y: 269.480712890625
z: -0.009299153462052345
","x: 230.06663513183594
y: 268.8923034667969
z: -0.010227453894913197
","x: 232.3180389404297
y: 268.46435546875
z: -0.010919817723333836
","x: 221.72544860839844
y: 275.31719970703125
z: -0.008692678064107895
","x: 225.31991577148438
y: 276.04827880859375
z: -0.010926974005997181
","x: 227.62498474121094
y: 276.7767028808594
z: -0.011697358451783657
","x: 229.49398803710938
y: 277.4641418457031
z: -0.012208840809762478
",,,,,,,,,,,,,,,,,,,,,
10,"x: 226.416015625
y: 213.77291870117188
z: -0.21564912796020508
visibility: 0.9999027848243713
","x: 229.53680419921875
y: 205.65524291992188
z: -0.20697006583213806
visibility: 0.9997162222862244
","x: 231.01931762695312
y: 206.21060180664062
z: -0.2070039063692093
visibility: 0.9997207522392273
","x: 232.47308349609375
y: 206.8289031982422
z: -0.20700979232788086
visibility: 0.9996759295463562
","x: 225.3529052734375
y: 204.41265869140625
z: -0.19823527336120605
visibility: 0.9997524619102478
","x: 223.96365356445312
y: 204.06564331054688
z: -0.19826072454452515
visibility: 0.9997463822364807
","x: 222.7374267578125
y: 203.77699279785156
z: -0.19827914237976074
visibility: 0.999737560749054
","x: 235.4996337890625
y: 211.25238037109375
z: -0.12499654293060303
visibility: 0.9996036887168884
","x: 222.1146240234375
y: 206.796630859375
z: -0.08439187705516815
visibility: 0.9993815422058105
","x: 228.82247924804688
y: 221.85064697265625
z: -0.18258996307849884
visibility: 0.99977707862854
","x: 224.18276977539062
y: 221.21295166015625
z: -0.17114967107772827
visibility: 0.9997481107711792
","x: 248.21839904785156
y: 252.9629669189453
z: -0.10369829833507538
visibility: 0.9998233914375305
","x: 210.29258728027344
y: 251.91494750976562
z: 0.015295000746846199
visibility: 0.9997048377990723
","x: 247.31549072265625
y: 319.5703430175781
z: -0.12289121001958847
visibility: 0.9866040349006653
","x: 199.18788146972656
y: 314.9855651855469
z: -0.09646077454090118
visibility: 0.9566361904144287
","x: 232.07313537597656
y: 369.8037414550781
z: -0.17225489020347595
visibility: 0.9663134217262268
","x: 212.72499084472656
y: 275.46185302734375
z: -0.32841530442237854
visibility: 0.9743574261665344
","x: 229.2871856689453
y: 386.6825866699219
z: -0.1985844373703003
visibility: 0.9323307275772095
","x: 218.60733032226562
y: 269.87841796875
z: -0.37087348103523254
visibility: 0.9561627507209778
","x: 222.46189880371094
y: 381.32330322265625
z: -0.2162363976240158
visibility: 0.9327502846717834
","x: 219.4423828125
y: 263.59967041015625
z: -0.362026572227478
visibility: 0.955235481262207
","x: 222.88681030273438
y: 375.1534729003906
z: -0.17817941308021545
visibility: 0.911134660243988
","x: 218.31103515625
y: 265.2044372558594
z: -0.33029285073280334
visibility: 0.9372096061706543
","x: 234.3058319091797
y: 369.5945739746094
z: -0.04799146205186844
visibility: 0.9991031289100647
","x: 212.26646423339844
y: 367.7619934082031
z: 0.047996602952480316
visibility: 0.9993798732757568
","x: 234.0723876953125
y: 450.34051513671875
z: -0.08647685497999191
visibility: 0.9895807504653931
","x: 206.1999053955078
y: 453.59332275390625
z: 0.039849571883678436
visibility: 0.9843918681144714
","x: 235.97378540039062
y: 536.3740844726562
z: 0.02491619624197483
visibility: 0.9901841282844543
","x: 208.02462768554688
y: 537.8526611328125
z: 0.1159537211060524
visibility: 0.9906157851219177
","x: 236.21742248535156
y: 548.98779296875
z: 0.026499714702367783
visibility: 0.919438362121582
","x: 212.52159118652344
y: 551.2199096679688
z: 0.11615204811096191
visibility: 0.9469102621078491
","x: 228.1990509033203
y: 559.4902954101562
z: -0.09064836800098419
visibility: 0.985586404800415
","x: 190.84854125976562
y: 557.814453125
z: 0.017388474196195602
visibility: 0.9843284487724304
","x: 213.25621032714844
y: 271.86395263671875
z: 0.0
","x: 214.61729431152344
y: 264.67962646484375
z: -0.00015015093958936632
","x: 217.22952270507812
y: 259.2671203613281
z: -0.0013924946542829275
","x: 219.63955688476562
y: 255.55618286132812
z: -0.0028855260461568832
","x: 221.09027099609375
y: 251.94094848632812
z: -0.00446974067017436
","x: 221.45494079589844
y: 261.84991455078125
z: -0.003202761523425579
","x: 225.90672302246094
y: 258.15631103515625
z: -0.0054170130752027035
","x: 228.8336639404297
y: 256.1125183105469
z: -0.0065650297328829765
","x: 231.17510986328125
y: 254.6749267578125
z: -0.0073818666860461235
","x: 222.22523498535156
y: 266.2143249511719
z: -0.0050591519102454185
","x: 227.3104248046875
y: 263.8586120605469
z: -0.00722657423466444
","x: 230.5709228515625
y: 262.78350830078125
z: -0.008042994886636734
","x: 233.1400909423828
y: 262.1432189941406
z: -0.008810145780444145
","x: 222.3183135986328
y: 270.7719421386719
z: -0.006864867638796568
","x: 227.0879364013672
y: 269.480712890625
z: -0.009299153462052345
","x: 230.06663513183594
y: 268.8923034667969
z: -0.010227453894913197
","x: 232.3180389404297
y: 268.46435546875
z: -0.010919817723333836
","x: 221.72544860839844
y: 275.31719970703125
z: -0.008692678064107895
","x: 225.31991577148438
y: 276.04827880859375
z: -0.010926974005997181
","x: 227.62498474121094
y: 276.7767028808594
z: -0.011697358451783657
","x: 229.49398803710938
y: 277.4641418457031
z: -0.012208840809762478
",,,,,,,,,,,,,,,,,,,,,
11,"x: 228.93740844726562
y: 213.65904235839844
z: -0.2411353886127472
visibility: 0.9999077320098877
","x: 232.15771484375
y: 204.870361328125
z: -0.23188766837120056
visibility: 0.9997284412384033
","x: 233.637451171875
y: 205.14703369140625
z: -0.23190894722938538
visibility: 0.9997349381446838
","x: 235.11802673339844
y: 205.60121154785156
z: -0.23190216720104218
visibility: 0.999690592288971
","x: 228.02520751953125
y: 204.38922119140625
z: -0.2243628203868866
visibility: 0.9997616410255432
","x: 226.56472778320312
y: 204.23394775390625
z: -0.2243872880935669
visibility: 0.9997564554214478
","x: 225.20957946777344
y: 204.1072998046875
z: -0.22441013157367706
visibility: 0.9997451901435852
","x: 238.1041717529297
y: 210.129638671875
z: -0.1433958113193512
visibility: 0.999630868434906
","x: 224.28099060058594
y: 206.6971435546875
z: -0.10876341164112091
visibility: 0.9993970394134521
","x: 231.45428466796875
y: 221.484619140625
z: -0.20520420372486115
visibility: 0.9997870326042175
","x: 226.57077026367188
y: 221.0609130859375
z: -0.19549569487571716
visibility: 0.9997528195381165
","x: 251.41787719726562
y: 253.16705322265625
z: -0.10414835065603256
visibility: 0.999825656414032
","x: 213.6844940185547
y: 251.67764282226562
z: -0.013921692967414856
visibility: 0.999676525592804
","x: 254.34915161132812
y: 321.91583251953125
z: -0.10149939358234406
visibility: 0.9874333143234253
","x: 202.53329467773438
y: 312.4148864746094
z: -0.12098748981952667
visibility: 0.9578306674957275
","x: 251.36935424804688
y: 379.75164794921875
z: -0.14823400974273682
visibility: 0.9688555002212524
","x: 214.65914916992188
y: 276.2861328125
z: -0.36695975065231323
visibility: 0.9764376878738403
","x: 251.79519653320312
y: 397.3031921386719
z: -0.167867511510849
visibility: 0.9369407892227173
","x: 220.76365661621094
y: 270.80206298828125
z: -0.40978607535362244
visibility: 0.9595117568969727
","x: 247.58351135253906
y: 395.4119873046875
z: -0.19206978380680084
visibility: 0.937279462814331
","x: 221.32113647460938
y: 263.11370849609375
z: -0.4066283106803894
visibility: 0.9586195945739746
","x: 246.20484924316406
y: 389.6458435058594
z: -0.15652474761009216
visibility: 0.9172200560569763
","x: 220.10586547851562
y: 264.25213623046875
z: -0.3712194561958313
visibility: 0.9417383670806885
","x: 238.8981170654297
y: 372.2913818359375
z: -0.045073430985212326
visibility: 0.9990803003311157
","x: 216.22032165527344
y: 368.743896484375
z: 0.04506504163146019
visibility: 0.9993724822998047
","x: 237.654296875
y: 452.0352783203125
z: -0.0759783387184143
visibility: 0.9896668791770935
","x: 206.9090576171875
y: 452.1348876953125
z: 0.011240506544709206
visibility: 0.9848189353942871
","x: 235.90928649902344
y: 536.3275756835938
z: 0.039123352617025375
visibility: 0.9898493885993958
","x: 209.09237670898438
y: 537.2008666992188
z: 0.1016935482621193
visibility: 0.9907216429710388
","x: 235.82098388671875
y: 548.9962158203125
z: 0.04074632003903389
visibility: 0.9163709282875061
","x: 214.6083984375
y: 551.3287963867188
z: 0.10357310622930527
visibility: 0.9484421014785767
","x: 229.0960235595703
y: 559.072998046875
z: -0.07400889694690704
visibility: 0.9851853251457214
","x: 190.93240356445312
y: 555.04443359375
z: 0.003320706309750676
visibility: 0.9845536947250366
","x: 214.46641540527344
y: 272.71563720703125
z: 0.0
","x: 215.98941040039062
y: 265.26153564453125
z: -0.00036040047416463494
","x: 218.72645568847656
y: 259.4342041015625
z: -0.0014643428148701787
","x: 221.26466369628906
y: 255.3291473388672
z: -0.0028474554419517517
","x: 222.8926239013672
y: 251.53982543945312
z: -0.004301516804844141
","x: 222.7996063232422
y: 262.2051086425781
z: -0.0023688245564699173
","x: 227.01593017578125
y: 258.4510498046875
z: -0.004558104556053877
","x: 229.6572723388672
y: 256.1044616699219
z: -0.005860872566699982
","x: 231.87322998046875
y: 254.25112915039062
z: -0.00676629226654768
","x: 223.5406036376953
y: 266.57427978515625
z: -0.004176272079348564
","x: 228.18873596191406
y: 264.31805419921875
z: -0.006316268350929022
","x: 231.15960693359375
y: 263.1028747558594
z: -0.007379001472145319
","x: 233.64999389648438
y: 262.09881591796875
z: -0.008298021741211414
","x: 223.6037139892578
y: 271.06219482421875
z: -0.006065781693905592
","x: 227.99269104003906
y: 270.009521484375
z: -0.008376202546060085
","x: 230.83013916015625
y: 269.4143371582031
z: -0.009397787041962147
","x: 233.14268493652344
y: 268.71533203125
z: -0.010185959748923779
","x: 222.985107421875
y: 275.5025939941406
z: -0.008036961778998375
","x: 226.4486541748047
y: 276.38720703125
z: -0.010050918906927109
","x: 228.7682647705078
y: 277.2760314941406
z: -0.010778744705021381
","x: 230.75685119628906
y: 277.89068603515625
z: -0.011307667940855026
",,,,,,,,,,,,,,,,,,,,,
12,"x: 228.93740844726562
y: 213.65904235839844
z: -0.2411353886127472
visibility: 0.9999077320098877
","x: 232.15771484375
y: 204.870361328125
z: -0.23188766837120056
visibility: 0.9997284412384033
","x: 233.637451171875
y: 205.14703369140625
z: -0.23190894722938538
visibility: 0.9997349381446838
","x: 235.11802673339844
y: 205.60121154785156
z: -0.23190216720104218
visibility: 0.999690592288971
","x: 228.02520751953125
y: 204.38922119140625
z: -0.2243628203868866
visibility: 0.9997616410255432
","x: 226.56472778320312
y: 204.23394775390625
z: -0.2243872880935669
visibility: 0.9997564554214478
","x: 225.20957946777344
y: 204.1072998046875
z: -0.22441013157367706
visibility: 0.9997451901435852
","x: 238.1041717529297
y: 210.129638671875
z: -0.1433958113193512
visibility: 0.999630868434906
","x: 224.28099060058594
y: 206.6971435546875
z: -0.10876341164112091
visibility: 0.9993970394134521
","x: 231.45428466796875
y: 221.484619140625
z: -0.20520420372486115
visibility: 0.9997870326042175
","x: 226.57077026367188
y: 221.0609130859375
z: -0.19549569487571716
visibility: 0.9997528195381165
","x: 251.41787719726562
y: 253.16705322265625
z: -0.10414835065603256
visibility: 0.999825656414032
","x: 213.6844940185547
y: 251.67764282226562
z: -0.013921692967414856
visibility: 0.999676525592804
","x: 254.34915161132812
y: 321.91583251953125
z: -0.10149939358234406
visibility: 0.9874333143234253
","x: 202.53329467773438
y: 312.4148864746094
z: -0.12098748981952667
visibility: 0.9578306674957275
","x: 251.36935424804688
y: 379.75164794921875
z: -0.14823400974273682
visibility: 0.9688555002212524
","x: 214.65914916992188
y: 276.2861328125
z: -0.36695975065231323
visibility: 0.9764376878738403
","x: 251.79519653320312
y: 397.3031921386719
z: -0.167867511510849
visibility: 0.9369407892227173
","x: 220.76365661621094
y: 270.80206298828125
z: -0.40978607535362244
visibility: 0.9595117568969727
","x: 247.58351135253906
y: 395.4119873046875
z: -0.19206978380680084
visibility: 0.937279462814331
","x: 221.32113647460938
y: 263.11370849609375
z: -0.4066283106803894
visibility: 0.9586195945739746
","x: 246.20484924316406
y: 389.6458435058594
z: -0.15652474761009216
visibility: 0.9172200560569763
","x: 220.10586547851562
y: 264.25213623046875
z: -0.3712194561958313
visibility: 0.9417383670806885
","x: 238.8981170654297
y: 372.2913818359375
z: -0.045073430985212326
visibility: 0.9990803003311157
","x: 216.22032165527344
y: 368.743896484375
z: 0.04506504163146019
visibility: 0.9993724822998047
","x: 237.654296875
y: 452.0352783203125
z: -0.0759783387184143
visibility: 0.9896668791770935
","x: 206.9090576171875
y: 452.1348876953125
z: 0.011240506544709206
visibility: 0.9848189353942871
","x: 235.90928649902344
y: 536.3275756835938
z: 0.039123352617025375
visibility: 0.9898493885993958
","x: 209.09237670898438
y: 537.2008666992188
z: 0.1016935482621193
visibility: 0.9907216429710388
","x: 235.82098388671875
y: 548.9962158203125
z: 0.04074632003903389
visibility: 0.9163709282875061
","x: 214.6083984375
y: 551.3287963867188
z: 0.10357310622930527
visibility: 0.9484421014785767
","x: 229.0960235595703
y: 559.072998046875
z: -0.07400889694690704
visibility: 0.9851853251457214
","x: 190.93240356445312
y: 555.04443359375
z: 0.003320706309750676
visibility: 0.9845536947250366
","x: 214.46641540527344
y: 272.71563720703125
z: 0.0
","x: 215.98941040039062
y: 265.26153564453125
z: -0.00036040047416463494
","x: 218.72645568847656
y: 259.4342041015625
z: -0.0014643428148701787
","x: 221.26466369628906
y: 255.3291473388672
z: -0.0028474554419517517
","x: 222.8926239013672
y: 251.53982543945312
z: -0.004301516804844141
","x: 222.7996063232422
y: 262.2051086425781
z: -0.0023688245564699173
","x: 227.01593017578125
y: 258.4510498046875
z: -0.004558104556053877
","x: 229.6572723388672
y: 256.1044616699219
z: -0.005860872566699982
","x: 231.87322998046875
y: 254.25112915039062
z: -0.00676629226654768
","x: 223.5406036376953
y: 266.57427978515625
z: -0.004176272079348564
","x: 228.18873596191406
y: 264.31805419921875
z: -0.006316268350929022
","x: 231.15960693359375
y: 263.1028747558594
z: -0.007379001472145319
","x: 233.64999389648438
y: 262.09881591796875
z: -0.008298021741211414
","x: 223.6037139892578
y: 271.06219482421875
z: -0.006065781693905592
","x: 227.99269104003906
y: 270.009521484375
z: -0.008376202546060085
","x: 230.83013916015625
y: 269.4143371582031
z: -0.009397787041962147
","x: 233.14268493652344
y: 268.71533203125
z: -0.010185959748923779
","x: 222.985107421875
y: 275.5025939941406
z: -0.008036961778998375
","x: 226.4486541748047
y: 276.38720703125
z: -0.010050918906927109
","x: 228.7682647705078
y: 277.2760314941406
z: -0.010778744705021381
","x: 230.75685119628906
y: 277.89068603515625
z: -0.011307667940855026
",,,,,,,,,,,,,,,,,,,,,
13,"x: 229.0733642578125
y: 212.07907104492188
z: -0.24987487494945526
visibility: 0.9999157786369324
","x: 232.61428833007812
y: 203.57666015625
z: -0.2367282211780548
visibility: 0.9997512102127075
","x: 234.1256103515625
y: 203.8195037841797
z: -0.2366885244846344
visibility: 0.9997577667236328
","x: 235.59681701660156
y: 204.21139526367188
z: -0.23671451210975647
visibility: 0.9997164607048035
","x: 228.20411682128906
y: 203.04840087890625
z: -0.22979696094989777
visibility: 0.9997814893722534
","x: 226.74856567382812
y: 202.89373779296875
z: -0.2297171652317047
visibility: 0.9997771978378296
","x: 225.4962158203125
y: 202.7646484375
z: -0.22964195907115936
visibility: 0.9997658729553223
","x: 238.36795043945312
y: 209.02406311035156
z: -0.155862957239151
visibility: 0.9996640086174011
","x: 224.9190673828125
y: 205.22775268554688
z: -0.1198170930147171
visibility: 0.9994450807571411
","x: 231.85671997070312
y: 220.38250732421875
z: -0.20950481295585632
visibility: 0.9998043179512024
","x: 226.63165283203125
y: 219.7277069091797
z: -0.2083105742931366
visibility: 0.9997707605361938
","x: 251.7592010498047
y: 253.33627319335938
z: -0.1100691556930542
visibility: 0.9998340010643005
","x: 214.32435607910156
y: 251.72354125976562
z: -0.021101463586091995
visibility: 0.9996738433837891
","x: 258.1026611328125
y: 322.55657958984375
z: -0.08448707312345505
visibility: 0.9881991147994995
","x: 203.1451416015625
y: 312.21807861328125
z: -0.15405461192131042
visibility: 0.9581021666526794
","x: 262.63128662109375
y: 380.76348876953125
z: -0.12354634702205658
visibility: 0.9711269736289978
","x: 213.76414489746094
y: 279.47332763671875
z: -0.4026811122894287
visibility: 0.978108286857605
","x: 265.5141906738281
y: 397.73944091796875
z: -0.13781572878360748
visibility: 0.9409649968147278
","x: 219.64474487304688
y: 273.2297058105469
z: -0.44449034333229065
visibility: 0.9621360301971436
","x: 262.599853515625
y: 397.41796875
z: -0.1678905338048935
visibility: 0.9413567781448364
","x: 220.83323669433594
y: 264.5113830566406
z: -0.4435102343559265
visibility: 0.9612566232681274
","x: 260.9939270019531
y: 391.8125
z: -0.13410136103630066
visibility: 0.9228116869926453
","x: 219.7243194580078
y: 266.06256103515625
z: -0.40772151947021484
visibility: 0.9451681971549988
","x: 242.4398193359375
y: 372.0374755859375
z: -0.04350421950221062
visibility: 0.9990696310997009
","x: 219.2822723388672
y: 369.20001220703125
z: 0.04349455237388611
visibility: 0.9993777871131897
","x: 240.3121337890625
y: 452.6009826660156
z: -0.05237790197134018
visibility: 0.9896752834320068
","x: 213.14735412597656
y: 452.17913818359375
z: 0.0160731989890337
visibility: 0.9848576188087463
","x: 236.73690795898438
y: 536.2256469726562
z: 0.06629125773906708
visibility: 0.9893773794174194
","x: 211.33831787109375
y: 537.1782836914062
z: 0.11494956910610199
visibility: 0.9908174276351929
","x: 236.04995727539062
y: 549.005615234375
z: 0.06864731013774872
visibility: 0.9129775762557983
","x: 216.24911499023438
y: 551.884033203125
z: 0.11834190040826797
visibility: 0.9496132731437683
","x: 229.6638946533203
y: 558.607666015625
z: -0.04542321711778641
visibility: 0.98480623960495
","x: 191.05508422851562
y: 553.88720703125
z: 0.015842309221625328
visibility: 0.9848425388336182
","x: 214.2525634765625
y: 274.3837890625
z: 0.0
","x: 215.52671813964844
y: 266.8771057128906
z: -0.00038217497058212757
","x: 218.27688598632812
y: 260.7432861328125
z: -0.0016341315349563956
","x: 220.7464599609375
y: 256.2845458984375
z: -0.002994853537529707
","x: 222.26856994628906
y: 252.26136779785156
z: -0.004371118266135454
","x: 222.05039978027344
y: 263.47674560546875
z: -0.0034995838068425655
","x: 226.54661560058594
y: 259.4593505859375
z: -0.005453519057482481
","x: 229.32553100585938
y: 256.9034423828125
z: -0.006285460665822029
","x: 231.4918212890625
y: 254.97406005859375
z: -0.006831980310380459
","x: 222.78005981445312
y: 268.04327392578125
z: -0.004936555400490761
","x: 227.656982421875
y: 265.6634216308594
z: -0.006848849356174469
","x: 230.68051147460938
y: 264.41607666015625
z: -0.007385877892374992
","x: 232.94943237304688
y: 263.7153015136719
z: -0.007888225838541985
","x: 222.9116973876953
y: 272.78271484375
z: -0.006288290023803711
","x: 227.47067260742188
y: 271.5223693847656
z: -0.008476628921926022
","x: 230.24830627441406
y: 270.7864685058594
z: -0.009150901809334755
","x: 232.3191680908203
y: 270.1556701660156
z: -0.009614899754524231
","x: 222.49826049804688
y: 277.364990234375
z: -0.007655413821339607
","x: 226.1422882080078
y: 278.01171875
z: -0.009648241102695465
","x: 228.42523193359375
y: 278.69793701171875
z: -0.01027480885386467
","x: 230.26690673828125
y: 279.2895202636719
z: -0.010651275515556335
",,,,,,,,,,,,,,,,,,,,,
14,"x: 229.0733642578125
y: 212.07907104492188
z: -0.24987487494945526
visibility: 0.9999157786369324
","x: 232.61428833007812
y: 203.57666015625
z: -0.2367282211780548
visibility: 0.9997512102127075
","x: 234.1256103515625
y: 203.8195037841797
z: -0.2366885244846344
visibility: 0.9997577667236328
","x: 235.59681701660156
y: 204.21139526367188
z: -0.23671451210975647
visibility: 0.9997164607048035
","x: 228.20411682128906
y: 203.04840087890625
z: -0.22979696094989777
visibility: 0.9997814893722534
","x: 226.74856567382812
y: 202.89373779296875
z: -0.2297171652317047
visibility: 0.9997771978378296
","x: 225.4962158203125
y: 202.7646484375
z: -0.22964195907115936
visibility: 0.9997658729553223
","x: 238.36795043945312
y: 209.02406311035156
z: -0.155862957239151
visibility: 0.9996640086174011
","x: 224.9190673828125
y: 205.22775268554688
z: -0.1198170930147171
visibility: 0.9994450807571411
","x: 231.85671997070312
y: 220.38250732421875
z: -0.20950481295585632
visibility: 0.9998043179512024
","x: 226.63165283203125
y: 219.7277069091797
z: -0.2083105742931366
visibility: 0.9997707605361938
","x: 251.7592010498047
y: 253.33627319335938
z: -0.1100691556930542
visibility: 0.9998340010643005
","x: 214.32435607910156
y: 251.72354125976562
z: -0.021101463586091995
visibility: 0.9996738433837891
","x: 258.1026611328125
y: 322.55657958984375
z: -0.08448707312345505
visibility: 0.9881991147994995
","x: 203.1451416015625
y: 312.21807861328125
z: -0.15405461192131042
visibility: 0.9581021666526794
","x: 262.63128662109375
y: 380.76348876953125
z: -0.12354634702205658
visibility: 0.9711269736289978
","x: 213.76414489746094
y: 279.47332763671875
z: -0.4026811122894287
visibility: 0.978108286857605
","x: 265.5141906738281
y: 397.73944091796875
z: -0.13781572878360748
visibility: 0.9409649968147278
","x: 219.64474487304688
y: 273.2297058105469
z: -0.44449034333229065
visibility: 0.9621360301971436
","x: 262.599853515625
y: 397.41796875
z: -0.1678905338048935
visibility: 0.9413567781448364
","x: 220.83323669433594
y: 264.5113830566406
z: -0.4435102343559265
visibility: 0.9612566232681274
","x: 260.9939270019531
y: 391.8125
z: -0.13410136103630066
visibility: 0.9228116869926453
","x: 219.7243194580078
y: 266.06256103515625
z: -0.40772151947021484
visibility: 0.9451681971549988
","x: 242.4398193359375
y: 372.0374755859375
z: -0.04350421950221062
visibility: 0.9990696310997009
","x: 219.2822723388672
y: 369.20001220703125
z: 0.04349455237388611
visibility: 0.9993777871131897
","x: 240.3121337890625
y: 452.6009826660156
z: -0.05237790197134018
visibility: 0.9896752834320068
","x: 213.14735412597656
y: 452.17913818359375
z: 0.0160731989890337
visibility: 0.9848576188087463
","x: 236.73690795898438
y: 536.2256469726562
z: 0.06629125773906708
visibility: 0.9893773794174194
","x: 211.33831787109375
y: 537.1782836914062
z: 0.11494956910610199
visibility: 0.9908174276351929
","x: 236.04995727539062
y: 549.005615234375
z: 0.06864731013774872
visibility: 0.9129775762557983
","x: 216.24911499023438
y: 551.884033203125
z: 0.11834190040826797
visibility: 0.9496132731437683
","x: 229.6638946533203
y: 558.607666015625
z: -0.04542321711778641
visibility: 0.98480623960495
","x: 191.05508422851562
y: 553.88720703125
z: 0.015842309221625328
visibility: 0.9848425388336182
","x: 214.2525634765625
y: 274.3837890625
z: 0.0
","x: 215.52671813964844
y: 266.8771057128906
z: -0.00038217497058212757
","x: 218.27688598632812
y: 260.7432861328125
z: -0.0016341315349563956
","x: 220.7464599609375
y: 256.2845458984375
z: -0.002994853537529707
","x: 222.26856994628906
y: 252.26136779785156
z: -0.004371118266135454
","x: 222.05039978027344
y: 263.47674560546875
z: -0.0034995838068425655
","x: 226.54661560058594
y: 259.4593505859375
z: -0.005453519057482481
","x: 229.32553100585938
y: 256.9034423828125
z: -0.006285460665822029
","x: 231.4918212890625
y: 254.97406005859375
z: -0.006831980310380459
","x: 222.78005981445312
y: 268.04327392578125
z: -0.004936555400490761
","x: 227.656982421875
y: 265.6634216308594
z: -0.006848849356174469
","x: 230.68051147460938
y: 264.41607666015625
z: -0.007385877892374992
","x: 232.94943237304688
y: 263.7153015136719
z: -0.007888225838541985
","x: 222.9116973876953
y: 272.78271484375
z: -0.006288290023803711
","x: 227.47067260742188
y: 271.5223693847656
z: -0.008476628921926022
","x: 230.24830627441406
y: 270.7864685058594
z: -0.009150901809334755
","x: 232.3191680908203
y: 270.1556701660156
z: -0.009614899754524231
","x: 222.49826049804688
y: 277.364990234375
z: -0.007655413821339607
","x: 226.1422882080078
y: 278.01171875
z: -0.009648241102695465
","x: 228.42523193359375
y: 278.69793701171875
z: -0.01027480885386467
","x: 230.26690673828125
y: 279.2895202636719
z: -0.010651275515556335
",,,,,,,,,,,,,,,,,,,,,
15,"x: 228.26194763183594
y: 212.6300048828125
z: -0.2135925590991974
visibility: 0.9999212622642517
","x: 231.6211700439453
y: 204.22959899902344
z: -0.2022843360900879
visibility: 0.9997631311416626
","x: 233.0390625
y: 204.371337890625
z: -0.20229633152484894
visibility: 0.9997705817222595
","x: 234.4182891845703
y: 204.64932250976562
z: -0.20227599143981934
visibility: 0.9997291564941406
","x: 227.81895446777344
y: 203.8253173828125
z: -0.1974678933620453
visibility: 0.9997915625572205
","x: 226.7687225341797
y: 203.6466827392578
z: -0.19746676087379456
visibility: 0.9997890591621399
","x: 225.81759643554688
y: 203.48712158203125
z: -0.19747823476791382
visibility: 0.9997766017913818
","x: 237.3084259033203
y: 209.05538940429688
z: -0.11143903434276581
visibility: 0.9996853470802307
","x: 225.80462646484375
y: 205.79959106445312
z: -0.08974498510360718
visibility: 0.9994681477546692
","x: 231.1114044189453
y: 220.6654052734375
z: -0.1764131337404251
visibility: 0.9998145699501038
","x: 226.3975830078125
y: 220.03695678710938
z: -0.1712663471698761
visibility: 0.9997801184654236
","x: 250.39476013183594
y: 253.85028076171875
z: -0.06335638463497162
visibility: 0.9998429417610168
","x: 214.9481201171875
y: 252.15162658691406
z: -0.0020851297304034233
visibility: 0.9996785521507263
","x: 259.0450744628906
y: 322.771728515625
z: -0.02845289744436741
visibility: 0.9886772036552429
","x: 202.93804931640625
y: 312.16107177734375
z: -0.12200339883565903
visibility: 0.9591018557548523
","x: 267.03857421875
y: 379.22308349609375
z: -0.06975486129522324
visibility: 0.973151683807373
","x: 212.54513549804688
y: 281.07666015625
z: -0.36614540219306946
visibility: 0.9797363877296448
","x: 271.1224670410156
y: 395.83203125
z: -0.08262138068675995
visibility: 0.9447036981582642
","x: 218.47694396972656
y: 275.54595947265625
z: -0.4028779864311218
visibility: 0.964720606803894
","x: 267.9927062988281
y: 395.69952392578125
z: -0.11286409199237823
visibility: 0.9451471567153931
","x: 219.78897094726562
y: 267.3536071777344
z: -0.4019063115119934
visibility: 0.9638628363609314
","x: 266.14068603515625
y: 390.33636474609375
z: -0.0808212012052536
visibility: 0.9280372262001038
","x: 218.70013427734375
y: 268.5149230957031
z: -0.3709382116794586
visibility: 0.9486420154571533
","x: 242.71176147460938
y: 374.0711669921875
z: -0.04049157723784447
visibility: 0.9990732073783875
","x: 220.16571044921875
y: 371.15789794921875
z: 0.040478818118572235
visibility: 0.9993833303451538
","x: 242.4542999267578
y: 454.459716796875
z: -0.03276582807302475
visibility: 0.9899277687072754
","x: 218.016845703125
y: 453.45086669921875
z: 0.03018239513039589
visibility: 0.985280454158783
","x: 238.0334930419922
y: 535.9899291992188
z: 0.0878715068101883
visibility: 0.9891005158424377
","x: 213.04257202148438
y: 537.2025146484375
z: 0.13559578359127045
visibility: 0.9910275340080261
","x: 236.36434936523438
y: 548.691162109375
z: 0.09054617583751678
visibility: 0.9071873426437378
","x: 216.97265625
y: 551.890625
z: 0.1387341320514679
visibility: 0.950575053691864
","x: 229.90460205078125
y: 558.6267700195312
z: -0.022934701293706894
visibility: 0.9845885634422302
","x: 192.57583618164062
y: 553.8749389648438
z: 0.03647913783788681
visibility: 0.9853127598762512
","x: 213.56600952148438
y: 275.2937316894531
z: 0.0
","x: 214.7662811279297
y: 267.97784423828125
z: -0.0002577346167527139
","x: 217.47227478027344
y: 262.13677978515625
z: -0.0013642902486026287
","x: 219.86642456054688
y: 257.75347900390625
z: -0.0025915163569152355
","x: 221.3841552734375
y: 253.8179931640625
z: -0.0038237152621150017
","x: 221.46495056152344
y: 265.1163024902344
z: -0.0031023477204144
","x: 225.7196807861328
y: 260.809814453125
z: -0.005034811794757843
","x: 228.4038543701172
y: 258.22613525390625
z: -0.005788453388959169
","x: 230.4483642578125
y: 256.25439453125
z: -0.006258787587285042
","x: 222.23268127441406
y: 269.8959045410156
z: -0.004623553715646267
","x: 227.0161895751953
y: 267.80450439453125
z: -0.006400964222848415
","x: 229.9363555908203
y: 266.6539001464844
z: -0.006675133481621742
","x: 232.13705444335938
y: 265.8565673828125
z: -0.007004257757216692
","x: 222.24974060058594
y: 274.72723388671875
z: -0.006119521334767342
","x: 226.69754028320312
y: 273.7704162597656
z: -0.008259180933237076
","x: 229.47999572753906
y: 273.1733703613281
z: -0.008742460049688816
","x: 231.5713653564453
y: 272.599609375
z: -0.009070949628949165
","x: 221.5955047607422
y: 279.3473205566406
z: -0.007647291757166386
","x: 225.04107666015625
y: 280.1944274902344
z: -0.0097654415294528
","x: 227.26210021972656
y: 280.7926940917969
z: -0.010402115061879158
","x: 229.06820678710938
y: 281.2398986816406
z: -0.010727218352258205
",,,,,,,,,,,,,,,,,,,,,
16,"x: 228.26194763183594
y: 212.6300048828125
z: -0.2135925590991974
visibility: 0.9999212622642517
","x: 231.6211700439453
y: 204.22959899902344
z: -0.2022843360900879
visibility: 0.9997631311416626
","x: 233.0390625
y: 204.371337890625
z: -0.20229633152484894
visibility: 0.9997705817222595
","x: 234.4182891845703
y: 204.64932250976562
z: -0.20227599143981934
visibility: 0.9997291564941406
","x: 227.81895446777344
y: 203.8253173828125
z: -0.1974678933620453
visibility: 0.9997915625572205
","x: 226.7687225341797
y: 203.6466827392578
z: -0.19746676087379456
visibility: 0.9997890591621399
","x: 225.81759643554688
y: 203.48712158203125
z: -0.19747823476791382
visibility: 0.9997766017913818
","x: 237.3084259033203
y: 209.05538940429688
z: -0.11143903434276581
visibility: 0.9996853470802307
","x: 225.80462646484375
y: 205.79959106445312
z: -0.08974498510360718
visibility: 0.9994681477546692
","x: 231.1114044189453
y: 220.6654052734375
z: -0.1764131337404251
visibility: 0.9998145699501038
","x: 226.3975830078125
y: 220.03695678710938
z: -0.1712663471698761
visibility: 0.9997801184654236
","x: 250.39476013183594
y: 253.85028076171875
z: -0.06335638463497162
visibility: 0.9998429417610168
","x: 214.9481201171875
y: 252.15162658691406
z: -0.0020851297304034233
visibility: 0.9996785521507263
","x: 259.0450744628906
y: 322.771728515625
z: -0.02845289744436741
visibility: 0.9886772036552429
","x: 202.93804931640625
y: 312.16107177734375
z: -0.12200339883565903
visibility: 0.9591018557548523
","x: 267.03857421875
y: 379.22308349609375
z: -0.06975486129522324
visibility: 0.973151683807373
","x: 212.54513549804688
y: 281.07666015625
z: -0.36614540219306946
visibility: 0.9797363877296448
","x: 271.1224670410156
y: 395.83203125
z: -0.08262138068675995
visibility: 0.9447036981582642
","x: 218.47694396972656
y: 275.54595947265625
z: -0.4028779864311218
visibility: 0.964720606803894
","x: 267.9927062988281
y: 395.69952392578125
z: -0.11286409199237823
visibility: 0.9451471567153931
","x: 219.78897094726562
y: 267.3536071777344
z: -0.4019063115119934
visibility: 0.9638628363609314
","x: 266.14068603515625
y: 390.33636474609375
z: -0.0808212012052536
visibility: 0.9280372262001038
","x: 218.70013427734375
y: 268.5149230957031
z: -0.3709382116794586
visibility: 0.9486420154571533
","x: 242.71176147460938
y: 374.0711669921875
z: -0.04049157723784447
visibility: 0.9990732073783875
","x: 220.16571044921875
y: 371.15789794921875
z: 0.040478818118572235
visibility: 0.9993833303451538
","x: 242.4542999267578
y: 454.459716796875
z: -0.03276582807302475
visibility: 0.9899277687072754
","x: 218.016845703125
y: 453.45086669921875
z: 0.03018239513039589
visibility: 0.985280454158783
","x: 238.0334930419922
y: 535.9899291992188
z: 0.0878715068101883
visibility: 0.9891005158424377
","x: 213.04257202148438
y: 537.2025146484375
z: 0.13559578359127045
visibility: 0.9910275340080261
","x: 236.36434936523438
y: 548.691162109375
z: 0.09054617583751678
visibility: 0.9071873426437378
","x: 216.97265625
y: 551.890625
z: 0.1387341320514679
visibility: 0.950575053691864
","x: 229.90460205078125
y: 558.6267700195312
z: -0.022934701293706894
visibility: 0.9845885634422302
","x: 192.57583618164062
y: 553.8749389648438
z: 0.03647913783788681
visibility: 0.9853127598762512
","x: 213.56600952148438
y: 275.2937316894531
z: 0.0
","x: 214.7662811279297
y: 267.97784423828125
z: -0.0002577346167527139
","x: 217.47227478027344
y: 262.13677978515625
z: -0.0013642902486026287
","x: 219.86642456054688
y: 257.75347900390625
z: -0.0025915163569152355
","x: 221.3841552734375
y: 253.8179931640625
z: -0.0038237152621150017
","x: 221.46495056152344
y: 265.1163024902344
z: -0.0031023477204144
","x: 225.7196807861328
y: 260.809814453125
z: -0.005034811794757843
","x: 228.4038543701172
y: 258.22613525390625
z: -0.005788453388959169
","x: 230.4483642578125
y: 256.25439453125
z: -0.006258787587285042
","x: 222.23268127441406
y: 269.8959045410156
z: -0.004623553715646267
","x: 227.0161895751953
y: 267.80450439453125
z: -0.006400964222848415
","x: 229.9363555908203
y: 266.6539001464844
z: -0.006675133481621742
","x: 232.13705444335938
y: 265.8565673828125
z: -0.007004257757216692
","x: 222.24974060058594
y: 274.72723388671875
z: -0.006119521334767342
","x: 226.69754028320312
y: 273.7704162597656
z: -0.008259180933237076
","x: 229.47999572753906
y: 273.1733703613281
z: -0.008742460049688816
","x: 231.5713653564453
y: 272.599609375
z: -0.009070949628949165
","x: 221.5955047607422
y: 279.3473205566406
z: -0.007647291757166386
","x: 225.04107666015625
y: 280.1944274902344
z: -0.0097654415294528
","x: 227.26210021972656
y: 280.7926940917969
z: -0.010402115061879158
","x: 229.06820678710938
y: 281.2398986816406
z: -0.010727218352258205
",,,,,,,,,,,,,,,,,,,,,
17,"x: 227.46995544433594
y: 213.11834716796875
z: -0.19954466819763184
visibility: 0.9999264478683472
","x: 231.01470947265625
y: 204.64500427246094
z: -0.18942667543888092
visibility: 0.999774694442749
","x: 232.46495056152344
y: 204.67990112304688
z: -0.18943621218204498
visibility: 0.999782919883728
","x: 233.83453369140625
y: 204.82244873046875
z: -0.1894138604402542
visibility: 0.9997414350509644
","x: 227.42877197265625
y: 204.35299682617188
z: -0.1844705045223236
visibility: 0.9998023509979248
","x: 226.43368530273438
y: 204.1599884033203
z: -0.1844903975725174
visibility: 0.9998016357421875
","x: 225.52261352539062
y: 203.98141479492188
z: -0.18450266122817993
visibility: 0.9997885227203369
","x: 236.64024353027344
y: 209.79022216796875
z: -0.09997953474521637
visibility: 0.9997058510780334
","x: 225.77679443359375
y: 206.0340118408203
z: -0.07844620943069458
visibility: 0.9994939565658569
","x: 230.18409729003906
y: 220.9151611328125
z: -0.16312876343727112
visibility: 0.9998236894607544
","x: 225.4951171875
y: 220.42562866210938
z: -0.15731963515281677
visibility: 0.9997889995574951
","x: 249.94534301757812
y: 254.788818359375
z: -0.05717458575963974
visibility: 0.999852180480957
","x: 214.16537475585938
y: 252.156982421875
z: 0.010007301345467567
visibility: 0.9996895790100098
","x: 259.5090637207031
y: 322.3656921386719
z: -0.02643137238919735
visibility: 0.9893327951431274
","x: 202.48675537109375
y: 311.9817199707031
z: -0.1072777733206749
visibility: 0.9601312875747681
","x: 267.471923828125
y: 378.18963623046875
z: -0.06388761103153229
visibility: 0.9749889373779297
","x: 211.59515380859375
y: 281.77227783203125
z: -0.339566171169281
visibility: 0.981177568435669
","x: 271.5511779785156
y: 394.434814453125
z: -0.07656195759773254
visibility: 0.9479554295539856
","x: 217.08580017089844
y: 277.500244140625
z: -0.3760043978691101
visibility: 0.9669637680053711
","x: 268.8748779296875
y: 394.25946044921875
z: -0.10568416118621826
visibility: 0.948456346988678
","x: 218.39901733398438
y: 269.2745056152344
z: -0.37503695487976074
visibility: 0.9661330580711365
","x: 267.0273742675781
y: 389.1308288574219
z: -0.07437250018119812
visibility: 0.9326496720314026
","x: 217.46363830566406
y: 270.14569091796875
z: -0.3439541161060333
visibility: 0.9516746401786804
","x: 242.63394165039062
y: 375.0116271972656
z: -0.04064032435417175
visibility: 0.999075710773468
","x: 221.0764617919922
y: 372.98663330078125
z: 0.04061862453818321
visibility: 0.9993902444839478
","x: 242.30572509765625
y: 455.52423095703125
z: -0.04247020184993744
visibility: 0.9901884198188782
","x: 219.1664581298828
y: 454.4897766113281
z: 0.039902880787849426
visibility: 0.9852607846260071
","x: 239.02413940429688
y: 535.9186401367188
z: 0.06781892478466034
visibility: 0.9889019727706909
","x: 213.4189910888672
y: 537.300048828125
z: 0.1324627697467804
visibility: 0.9911671876907349
","x: 237.01197814941406
y: 548.6887817382812
z: 0.06998835504055023
visibility: 0.9034546613693237
","x: 217.3096466064453
y: 551.8680419921875
z: 0.13443677127361298
visibility: 0.9515691995620728
","x: 230.1256561279297
y: 557.8117065429688
z: -0.0381508469581604
visibility: 0.9846020936965942
","x: 193.53228759765625
y: 553.2291259765625
z: 0.03593524545431137
visibility: 0.985693633556366
","x: 212.6605682373047
y: 276.4149475097656
z: 0.0
","x: 213.50791931152344
y: 268.84307861328125
z: -0.0007695689564570785
","x: 216.13986206054688
y: 262.747802734375
z: -0.0020827811677008867
","x: 218.65664672851562
y: 258.3645324707031
z: -0.003424333408474922
","x: 220.40603637695312
y: 254.78472900390625
z: -0.004781829193234444
","x: 220.33480834960938
y: 266.3304138183594
z: -0.0035136647056788206
","x: 224.57041931152344
y: 262.15814208984375
z: -0.005606845486909151
","x: 227.16981506347656
y: 259.52264404296875
z: -0.006508073303848505
","x: 229.25527954101562
y: 257.5289001464844
z: -0.007093269843608141
","x: 221.13369750976562
y: 271.10400390625
z: -0.004799738526344299
","x: 225.86456298828125
y: 269.02459716796875
z: -0.006830649450421333
","x: 228.78182983398438
y: 267.906494140625
z: -0.007394218817353249
","x: 231.0448455810547
y: 267.1948547363281
z: -0.007897627539932728
","x: 221.17002868652344
y: 275.8729248046875
z: -0.006097340956330299
","x: 225.56459045410156
y: 274.98272705078125
z: -0.008588106371462345
","x: 228.2572021484375
y: 274.3429870605469
z: -0.009440322406589985
","x: 230.31130981445312
y: 273.7339172363281
z: -0.009947499260306358
","x: 220.5516815185547
y: 280.40643310546875
z: -0.0074448361992836
","x: 223.95660400390625
y: 281.59649658203125
z: -0.009860256686806679
","x: 226.2354736328125
y: 282.4638671875
z: -0.010775956325232983
","x: 228.1215362548828
y: 283.12200927734375
z: -0.011259694583714008
",,,,,,,,,,,,,,,,,,,,,
18,"x: 227.46995544433594
y: 213.11834716796875
z: -0.19954466819763184
visibility: 0.9999264478683472
","x: 231.01470947265625
y: 204.64500427246094
z: -0.18942667543888092
visibility: 0.999774694442749
","x: 232.46495056152344
y: 204.67990112304688
z: -0.18943621218204498
visibility: 0.999782919883728
","x: 233.83453369140625
y: 204.82244873046875
z: -0.1894138604402542
visibility: 0.9997414350509644
","x: 227.42877197265625
y: 204.35299682617188
z: -0.1844705045223236
visibility: 0.9998023509979248
","x: 226.43368530273438
y: 204.1599884033203
z: -0.1844903975725174
visibility: 0.9998016357421875
","x: 225.52261352539062
y: 203.98141479492188
z: -0.18450266122817993
visibility: 0.9997885227203369
","x: 236.64024353027344
y: 209.79022216796875
z: -0.09997953474521637
visibility: 0.9997058510780334
","x: 225.77679443359375
y: 206.0340118408203
z: -0.07844620943069458
visibility: 0.9994939565658569
","x: 230.18409729003906
y: 220.9151611328125
z: -0.16312876343727112
visibility: 0.9998236894607544
","x: 225.4951171875
y: 220.42562866210938
z: -0.15731963515281677
visibility: 0.9997889995574951
","x: 249.94534301757812
y: 254.788818359375
z: -0.05717458575963974
visibility: 0.999852180480957
","x: 214.16537475585938
y: 252.156982421875
z: 0.010007301345467567
visibility: 0.9996895790100098
","x: 259.5090637207031
y: 322.3656921386719
z: -0.02643137238919735
visibility: 0.9893327951431274
","x: 202.48675537109375
y: 311.9817199707031
z: -0.1072777733206749
visibility: 0.9601312875747681
","x: 267.471923828125
y: 378.18963623046875
z: -0.06388761103153229
visibility: 0.9749889373779297
","x: 211.59515380859375
y: 281.77227783203125
z: -0.339566171169281
visibility: 0.981177568435669
","x: 271.5511779785156
y: 394.434814453125
z: -0.07656195759773254
visibility: 0.9479554295539856
","x: 217.08580017089844
y: 277.500244140625
z: -0.3760043978691101
visibility: 0.9669637680053711
","x: 268.8748779296875
y: 394.25946044921875
z: -0.10568416118621826
visibility: 0.948456346988678
","x: 218.39901733398438
y: 269.2745056152344
z: -0.37503695487976074
visibility: 0.9661330580711365
","x: 267.0273742675781
y: 389.1308288574219
z: -0.07437250018119812
visibility: 0.9326496720314026
","x: 217.46363830566406
y: 270.14569091796875
z: -0.3439541161060333
visibility: 0.9516746401786804
","x: 242.63394165039062
y: 375.0116271972656
z: -0.04064032435417175
visibility: 0.999075710773468
","x: 221.0764617919922
y: 372.98663330078125
z: 0.04061862453818321
visibility: 0.9993902444839478
","x: 242.30572509765625
y: 455.52423095703125
z: -0.04247020184993744
visibility: 0.9901884198188782
","x: 219.1664581298828
y: 454.4897766113281
z: 0.039902880787849426
visibility: 0.9852607846260071
","x: 239.02413940429688
y: 535.9186401367188
z: 0.06781892478466034
visibility: 0.9889019727706909
","x: 213.4189910888672
y: 537.300048828125
z: 0.1324627697467804
visibility: 0.9911671876907349
","x: 237.01197814941406
y: 548.6887817382812
z: 0.06998835504055023
visibility: 0.9034546613693237
","x: 217.3096466064453
y: 551.8680419921875
z: 0.13443677127361298
visibility: 0.9515691995620728
","x: 230.1256561279297
y: 557.8117065429688
z: -0.0381508469581604
visibility: 0.9846020936965942
","x: 193.53228759765625
y: 553.2291259765625
z: 0.03593524545431137
visibility: 0.985693633556366
","x: 212.6605682373047
y: 276.4149475097656
z: 0.0
","x: 213.50791931152344
y: 268.84307861328125
z: -0.0007695689564570785
","x: 216.13986206054688
y: 262.747802734375
z: -0.0020827811677008867
","x: 218.65664672851562
y: 258.3645324707031
z: -0.003424333408474922
","x: 220.40603637695312
y: 254.78472900390625
z: -0.004781829193234444
","x: 220.33480834960938
y: 266.3304138183594
z: -0.0035136647056788206
","x: 224.57041931152344
y: 262.15814208984375
z: -0.005606845486909151
","x: 227.16981506347656
y: 259.52264404296875
z: -0.006508073303848505
","x: 229.25527954101562
y: 257.5289001464844
z: -0.007093269843608141
","x: 221.13369750976562
y: 271.10400390625
z: -0.004799738526344299
","x: 225.86456298828125
y: 269.02459716796875
z: -0.006830649450421333
","x: 228.78182983398438
y: 267.906494140625
z: -0.007394218817353249
","x: 231.0448455810547
y: 267.1948547363281
z: -0.007897627539932728
","x: 221.17002868652344
y: 275.8729248046875
z: -0.006097340956330299
","x: 225.56459045410156
y: 274.98272705078125
z: -0.008588106371462345
","x: 228.2572021484375
y: 274.3429870605469
z: -0.009440322406589985
","x: 230.31130981445312
y: 273.7339172363281
z: -0.009947499260306358
","x: 220.5516815185547
y: 280.40643310546875
z: -0.0074448361992836
","x: 223.95660400390625
y: 281.59649658203125
z: -0.009860256686806679
","x: 226.2354736328125
y: 282.4638671875
z: -0.010775956325232983
","x: 228.1215362548828
y: 283.12200927734375
z: -0.011259694583714008
",,,,,,,,,,,,,,,,,,,,,
19,"x: 226.86001586914062
y: 213.2789306640625
z: -0.17183253169059753
visibility: 0.9999261498451233
","x: 230.09693908691406
y: 204.79774475097656
z: -0.16222000122070312
visibility: 0.9997732639312744
","x: 231.42494201660156
y: 205.00042724609375
z: -0.16224175691604614
visibility: 0.9997830390930176
","x: 232.775146484375
y: 205.327880859375
z: -0.16224516928195953
visibility: 0.9997410178184509
","x: 226.8711395263672
y: 204.532958984375
z: -0.15629197657108307
visibility: 0.9998018741607666
","x: 225.96697998046875
y: 204.3755340576172
z: -0.15632276237010956
visibility: 0.9998020529747009
","x: 225.15142822265625
y: 204.21226501464844
z: -0.15632781386375427
visibility: 0.999788224697113
","x: 235.7549591064453
y: 210.7715606689453
z: -0.07298831641674042
visibility: 0.9997180104255676
","x: 225.41738891601562
y: 206.53343200683594
z: -0.04751516133546829
visibility: 0.9994843006134033
","x: 229.53761291503906
y: 221.06118774414062
z: -0.13540975749492645
visibility: 0.9998201727867126
","x: 225.00180053710938
y: 220.65032958984375
z: -0.1284179389476776
visibility: 0.9997803568840027
","x: 249.2721710205078
y: 254.87118530273438
z: -0.04216421768069267
visibility: 0.9998544454574585
","x: 213.29928588867188
y: 252.20399475097656
z: 0.043228600174188614
visibility: 0.999671459197998
","x: 257.4273376464844
y: 321.1123046875
z: -0.028713786974549294
visibility: 0.9896818399429321
","x: 202.3438720703125
y: 311.8551940917969
z: -0.07777173817157745
visibility: 0.9581741094589233
","x: 258.77337646484375
y: 376.6897888183594
z: -0.0566752664744854
visibility: 0.9759495258331299
","x: 211.5201416015625
y: 279.9496154785156
z: -0.30795109272003174
visibility: 0.9812241792678833
","x: 260.78240966796875
y: 391.88677978515625
z: -0.07160180062055588
visibility: 0.9492540955543518
","x: 217.42327880859375
y: 274.43927001953125
z: -0.3460434675216675
visibility: 0.9666913747787476
","x: 257.2733154296875
y: 391.0450439453125
z: -0.0952623039484024
visibility: 0.9497044086456299
","x: 218.55430603027344
y: 265.8746337890625
z: -0.3433111011981964
visibility: 0.9657267928123474
","x: 255.89596557617188
y: 386.8861389160156
z: -0.06428486853837967
visibility: 0.9344244599342346
","x: 217.51707458496094
y: 266.9272155761719
z: -0.3120550513267517
visibility: 0.9507822394371033
","x: 241.34556579589844
y: 374.7021789550781
z: -0.04041667655110359
visibility: 0.9990193247795105
","x: 219.69577026367188
y: 373.1124267578125
z: 0.040404245257377625
visibility: 0.9993773102760315
","x: 241.71144104003906
y: 455.6280822753906
z: -0.04522497206926346
visibility: 0.990205705165863
","x: 217.88238525390625
y: 454.7063903808594
z: 0.012690506875514984
visibility: 0.9853256344795227
","x: 239.1653594970703
y: 535.25439453125
z: 0.0608992874622345
visibility: 0.9883362650871277
","x: 213.5120849609375
y: 537.427978515625
z: 0.0827326774597168
visibility: 0.9913337826728821
","x: 236.75074768066406
y: 548.40966796875
z: 0.06231015920639038
visibility: 0.901184618473053
","x: 217.54330444335938
y: 552.2767333984375
z: 0.08175018429756165
visibility: 0.9526109099388123
","x: 230.46560668945312
y: 556.91162109375
z: -0.05024120956659317
visibility: 0.9840605854988098
","x: 193.4790802001953
y: 553.3483276367188
z: -0.020824093371629715
visibility: 0.9858856797218323
","x: 211.6650848388672
y: 274.1403503417969
z: 0.0
","x: 212.99331665039062
y: 266.7103271484375
z: -0.00023010984295979142
","x: 215.97232055664062
y: 260.72796630859375
z: -0.00139606895390898
","x: 218.61709594726562
y: 256.4854431152344
z: -0.002718055620789528
","x: 220.26766967773438
y: 252.75244140625
z: -0.0041082859970629215
","x: 219.4665069580078
y: 263.5228271484375
z: -0.0034878060687333345
","x: 223.72052001953125
y: 259.8683776855469
z: -0.005537440534681082
","x: 226.5257568359375
y: 257.5318603515625
z: -0.006446974352002144
","x: 228.788818359375
y: 255.733154296875
z: -0.007086292840540409
","x: 220.1702423095703
y: 268.1605529785156
z: -0.005054704379290342
","x: 224.7235565185547
y: 266.0238952636719
z: -0.0070683336816728115
","x: 227.6645050048828
y: 264.7598876953125
z: -0.007646719925105572
","x: 229.96368408203125
y: 263.83978271484375
z: -0.008203842677175999
","x: 220.19583129882812
y: 273.00946044921875
z: -0.006542835850268602
","x: 224.4878692626953
y: 272.1908874511719
z: -0.008882051333785057
","x: 227.2637481689453
y: 271.71728515625
z: -0.009652532637119293
","x: 229.35342407226562
y: 271.2428894042969
z: -0.010179417207837105
","x: 219.5806884765625
y: 277.7491455078125
z: -0.008031555451452732
","x: 222.9718017578125
y: 278.69146728515625
z: -0.010214774869382381
","x: 225.16665649414062
y: 279.4753112792969
z: -0.01096948143094778
","x: 227.0012664794922
y: 280.04833984375
z: -0.011431763879954815
",,,,,,,,,,,,,,,,,,,,,
20,"x: 226.86001586914062
y: 213.2789306640625
z: -0.17183253169059753
visibility: 0.9999261498451233
","x: 230.09693908691406
y: 204.79774475097656
z: -0.16222000122070312
visibility: 0.9997732639312744
","x: 231.42494201660156
y: 205.00042724609375
z: -0.16224175691604614
visibility: 0.9997830390930176
","x: 232.775146484375
y: 205.327880859375
z: -0.16224516928195953
visibility: 0.9997410178184509
","x: 226.8711395263672
y: 204.532958984375
z: -0.15629197657108307
visibility: 0.9998018741607666
","x: 225.96697998046875
y: 204.3755340576172
z: -0.15632276237010956
visibility: 0.9998020529747009
","x: 225.15142822265625
y: 204.21226501464844
z: -0.15632781386375427
visibility: 0.999788224697113
","x: 235.7549591064453
y: 210.7715606689453
z: -0.07298831641674042
visibility: 0.9997180104255676
","x: 225.41738891601562
y: 206.53343200683594
z: -0.04751516133546829
visibility: 0.9994843006134033
","x: 229.53761291503906
y: 221.06118774414062
z: -0.13540975749492645
visibility: 0.9998201727867126
","x: 225.00180053710938
y: 220.65032958984375
z: -0.1284179389476776
visibility: 0.9997803568840027
","x: 249.2721710205078
y: 254.87118530273438
z: -0.04216421768069267
visibility: 0.9998544454574585
","x: 213.29928588867188
y: 252.20399475097656
z: 0.043228600174188614
visibility: 0.999671459197998
","x: 257.4273376464844
y: 321.1123046875
z: -0.028713786974549294
visibility: 0.9896818399429321
","x: 202.3438720703125
y: 311.8551940917969
z: -0.07777173817157745
visibility: 0.9581741094589233
","x: 258.77337646484375
y: 376.6897888183594
z: -0.0566752664744854
visibility: 0.9759495258331299
","x: 211.5201416015625
y: 279.9496154785156
z: -0.30795109272003174
visibility: 0.9812241792678833
","x: 260.78240966796875
y: 391.88677978515625
z: -0.07160180062055588
visibility: 0.9492540955543518
","x: 217.42327880859375
y: 274.43927001953125
z: -0.3460434675216675
visibility: 0.9666913747787476
","x: 257.2733154296875
y: 391.0450439453125
z: -0.0952623039484024
visibility: 0.9497044086456299
","x: 218.55430603027344
y: 265.8746337890625
z: -0.3433111011981964
visibility: 0.9657267928123474
","x: 255.89596557617188
y: 386.8861389160156
z: -0.06428486853837967
visibility: 0.9344244599342346
","x: 217.51707458496094
y: 266.9272155761719
z: -0.3120550513267517
visibility: 0.9507822394371033
","x: 241.34556579589844
y: 374.7021789550781
z: -0.04041667655110359
visibility: 0.9990193247795105
","x: 219.69577026367188
y: 373.1124267578125
z: 0.040404245257377625
visibility: 0.9993773102760315
","x: 241.71144104003906
y: 455.6280822753906
z: -0.04522497206926346
visibility: 0.990205705165863
","x: 217.88238525390625
y: 454.7063903808594
z: 0.012690506875514984
visibility: 0.9853256344795227
","x: 239.1653594970703
y: 535.25439453125
z: 0.0608992874622345
visibility: 0.9883362650871277
","x: 213.5120849609375
y: 537.427978515625
z: 0.0827326774597168
visibility: 0.9913337826728821
","x: 236.75074768066406
y: 548.40966796875
z: 0.06231015920639038
visibility: 0.901184618473053
","x: 217.54330444335938
y: 552.2767333984375
z: 0.08175018429756165
visibility: 0.9526109099388123
","x: 230.46560668945312
y: 556.91162109375
z: -0.05024120956659317
visibility: 0.9840605854988098
","x: 193.4790802001953
y: 553.3483276367188
z: -0.020824093371629715
visibility: 0.9858856797218323
","x: 211.6650848388672
y: 274.1403503417969
z: 0.0
","x: 212.99331665039062
y: 266.7103271484375
z: -0.00023010984295979142
","x: 215.97232055664062
y: 260.72796630859375
z: -0.00139606895390898
","x: 218.61709594726562
y: 256.4854431152344
z: -0.002718055620789528
","x: 220.26766967773438
y: 252.75244140625
z: -0.0041082859970629215
","x: 219.4665069580078
y: 263.5228271484375
z: -0.0034878060687333345
","x: 223.72052001953125
y: 259.8683776855469
z: -0.005537440534681082
","x: 226.5257568359375
y: 257.5318603515625
z: -0.006446974352002144
","x: 228.788818359375
y: 255.733154296875
z: -0.007086292840540409
","x: 220.1702423095703
y: 268.1605529785156
z: -0.005054704379290342
","x: 224.7235565185547
y: 266.0238952636719
z: -0.0070683336816728115
","x: 227.6645050048828
y: 264.7598876953125
z: -0.007646719925105572
","x: 229.96368408203125
y: 263.83978271484375
z: -0.008203842677175999
","x: 220.19583129882812
y: 273.00946044921875
z: -0.006542835850268602
","x: 224.4878692626953
y: 272.1908874511719
z: -0.008882051333785057
","x: 227.2637481689453
y: 271.71728515625
z: -0.009652532637119293
","x: 229.35342407226562
y: 271.2428894042969
z: -0.010179417207837105
","x: 219.5806884765625
y: 277.7491455078125
z: -0.008031555451452732
","x: 222.9718017578125
y: 278.69146728515625
z: -0.010214774869382381
