uscmakers/ReverseChoreography/data/5_get_up_excision.csv
,NOSE,LEFT_EYE_INNER,LEFT_EYE,LEFT_EYE_OUTER,RIGHT_EYE_INNER,RIGHT_EYE,RIGHT_EYE_OUTER,LEFT_EAR,RIGHT_EAR,MOUTH_LEFT,MOUTH_RIGHT,LEFT_SHOULDER,RIGHT_SHOULDER,LEFT_ELBOW,RIGHT_ELBOW,LEFT_WRIST,RIGHT_WRIST,LEFT_PINKY,RIGHT_PINKY,LEFT_INDEX,RIGHT_INDEX,LEFT_THUMB,RIGHT_THUMB,LEFT_HIP,RIGHT_HIP,LEFT_KNEE,RIGHT_KNEE,LEFT_ANKLE,RIGHT_ANKLE,LEFT_HEEL,RIGHT_HEEL,LEFT_FOOT_INDEX,RIGHT_FOOT_INDEX,WRIST2,THUMB_CPC2,THUMB_MCP2,THUMB_IP2,THUMB_TIP2,INDEX_FINGER_MCP2,INDEX_FINGER_PIP2,INDEX_FINGER_DIP2,INDEX_FINGER_TIP2,MIDDLE_FINGER_MCP2,MIDDLE_FINGER_PIP2,MIDDLE_FINGER_DIP2,MIDDLE_FINGER_TIP2,RING_FINGER_PIP2,RING_FINGER_DIP2,RING_FINGER_TIP2,RING_FINGER_MCP2,PINKY_MCP2,PINKY_PIP2,PINKY_DIP2,PINKY_TIP2,WRIST,THUMB_CPC,THUMB_MCP,THUMB_IP,THUMB_TIP,INDEX_FINGER_MCP,INDEX_FINGER_PIP,INDEX_FINGER_DIP,INDEX_FINGER_TIP,MIDDLE_FINGER_MCP,MIDDLE_FINGER_PIP,MIDDLE_FINGER_DIP,MIDDLE_FINGER_TIP,RING_FINGER_PIP,RING_FINGER_DIP,RING_FINGER_TIP,RING_FINGER_MCP,PINKY_MCP,PINKY_PIP,PINKY_DIP,PINKY_TIP
0,"x: 198.39382934570312
y: 219.70501708984375
z: -0.31475767493247986
visibility: 0.9999974966049194
","x: 201.50314331054688
y: 212.433837890625
z: -0.30157971382141113
visibility: 0.9999953508377075
","x: 202.83572387695312
y: 212.55157470703125
z: -0.3016454577445984
visibility: 0.999995231628418
","x: 203.90884399414062
y: 212.79319763183594
z: -0.30169761180877686
visibility: 0.9999947547912598
","x: 196.4187469482422
y: 211.37078857421875
z: -0.29845109581947327
visibility: 0.9999932050704956
","x: 194.499755859375
y: 210.54542541503906
z: -0.2984788715839386
visibility: 0.9999915361404419
","x: 192.70909118652344
y: 209.7209930419922
z: -0.29844480752944946
visibility: 0.9999905824661255
","x: 205.5268096923828
y: 215.12139892578125
z: -0.1802094578742981
visibility: 0.9999973773956299
","x: 189.89697265625
y: 211.30215454101562
z: -0.16331873834133148
visibility: 0.9999864101409912
","x: 200.9528045654297
y: 226.45504760742188
z: -0.265246719121933
visibility: 0.9999988079071045
","x: 193.9903564453125
y: 225.67721557617188
z: -0.2610253095626831
visibility: 0.9999973773956299
","x: 218.46551513671875
y: 255.15501403808594
z: -0.10629246383905411
visibility: 0.9999969005584717
","x: 175.06954956054688
y: 253.19627380371094
z: -0.02196180261671543
visibility: 0.9999597072601318
","x: 228.59262084960938
y: 312.7763671875
z: -0.17772743105888367
visibility: 0.9986134767532349
","x: 167.977783203125
y: 310.22161865234375
z: -0.045869506895542145
visibility: 0.9493317008018494
","x: 204.91415405273438
y: 308.58599853515625
z: -0.3950219750404358
visibility: 0.9967842102050781
","x: 156.64208984375
y: 301.0061950683594
z: -0.3095799684524536
visibility: 0.9850581884384155
","x: 198.40969848632812
y: 309.98504638671875
z: -0.4446447491645813
visibility: 0.9906524419784546
","x: 151.96707153320312
y: 297.18682861328125
z: -0.3567162752151489
visibility: 0.9768849611282349
","x: 196.41915893554688
y: 302.32379150390625
z: -0.45194703340530396
visibility: 0.9905023574829102
","x: 151.43125915527344
y: 287.5462646484375
z: -0.3832346498966217
visibility: 0.9786683917045593
","x: 198.28121948242188
y: 301.0265808105469
z: -0.40005987882614136
visibility: 0.9821741580963135
","x: 153.65191650390625
y: 288.29229736328125
z: -0.32660943269729614
visibility: 0.9702760577201843
","x: 203.92369079589844
y: 374.30584716796875
z: -0.027998577803373337
visibility: 0.9997356534004211
","x: 178.17393493652344
y: 371.916015625
z: 0.027954066172242165
visibility: 0.9997062087059021
","x: 209.04942321777344
y: 460.2444763183594
z: -0.03766045719385147
visibility: 0.9993033409118652
","x: 174.56056213378906
y: 457.1943664550781
z: 0.020028071478009224
visibility: 0.9986193180084229
","x: 222.10203552246094
y: 534.9295654296875
z: 0.15893173217773438
visibility: 0.9987932443618774
","x: 175.40676879882812
y: 537.939697265625
z: 0.2010543793439865
visibility: 0.9986773133277893
","x: 224.27935791015625
y: 544.4799194335938
z: 0.16982455551624298
visibility: 0.941030740737915
","x: 178.6739959716797
y: 551.8707275390625
z: 0.2112002819776535
visibility: 0.9764963984489441
","x: 217.9376983642578
y: 561.0325927734375
z: 0.02274898998439312
visibility: 0.9973702430725098
","x: 168.30584716796875
y: 562.2742309570312
z: 0.07779597491025925
visibility: 0.9972701668739319
","x: 202.51927185058594
y: 307.8317565917969
z: 0.0
","x: 200.5402374267578
y: 302.4144287109375
z: -0.0009102124604396522
","x: 197.15032958984375
y: 299.03155517578125
z: -0.003490478964522481
","x: 194.08782958984375
y: 298.8160705566406
z: -0.006504086311906576
","x: 191.87615966796875
y: 300.64874267578125
z: -0.009051266126334667
","x: 195.5657196044922
y: 300.1268005371094
z: -0.006897776387631893
","x: 190.19744873046875
y: 300.9675598144531
z: -0.011533724144101143
","x: 191.95555114746094
y: 301.7159729003906
z: -0.012367870658636093
","x: 194.20199584960938
y: 302.1321716308594
z: -0.012228659354150295
","x: 196.20603942871094
y: 303.68023681640625
z: -0.008859746158123016
","x: 191.52755737304688
y: 305.08355712890625
z: -0.01330193318426609
","x: 193.8292694091797
y: 304.77734375
z: -0.012284144759178162
","x: 195.7377471923828
y: 304.2804260253906
z: -0.01087881252169609
","x: 196.7903289794922
y: 307.6515808105469
z: -0.01096393447369337
","x: 192.89862060546875
y: 308.23382568359375
z: -0.014577377587556839
","x: 195.0693359375
y: 307.56854248046875
z: -0.011975418776273727
","x: 196.99038696289062
y: 307.0723876953125
z: -0.009765557944774628
","x: 197.409912109375
y: 311.6863708496094
z: -0.013189852237701416
","x: 193.98870849609375
y: 311.321044921875
z: -0.015154003165662289
","x: 195.51002502441406
y: 310.7361755371094
z: -0.013276695273816586
","x: 197.43751525878906
y: 310.7815246582031
z: -0.011507788673043251
",,,,,,,,,,,,,,,,,,,,,
1,"x: 198.39382934570312
y: 219.70501708984375
z: -0.31475767493247986
visibility: 0.9999974966049194
","x: 201.50314331054688
y: 212.433837890625
z: -0.30157971382141113
visibility: 0.9999953508377075
","x: 202.83572387695312
y: 212.55157470703125
z: -0.3016454577445984
visibility: 0.999995231628418
","x: 203.90884399414062
y: 212.79319763183594
z: -0.30169761180877686
visibility: 0.9999947547912598
","x: 196.4187469482422
y: 211.37078857421875
z: -0.29845109581947327
visibility: 0.9999932050704956
","x: 194.499755859375
y: 210.54542541503906
z: -0.2984788715839386
visibility: 0.9999915361404419
","x: 192.70909118652344
y: 209.7209930419922
z: -0.29844480752944946
visibility: 0.9999905824661255
","x: 205.5268096923828
y: 215.12139892578125
z: -0.1802094578742981
visibility: 0.9999973773956299
","x: 189.89697265625
y: 211.30215454101562
z: -0.16331873834133148
visibility: 0.9999864101409912
","x: 200.9528045654297
y: 226.45504760742188
z: -0.265246719121933
visibility: 0.9999988079071045
","x: 193.9903564453125
y: 225.67721557617188
z: -0.2610253095626831
visibility: 0.9999973773956299
","x: 218.46551513671875
y: 255.15501403808594
z: -0.10629246383905411
visibility: 0.9999969005584717
","x: 175.06954956054688
y: 253.19627380371094
z: -0.02196180261671543
visibility: 0.9999597072601318
","x: 228.59262084960938
y: 312.7763671875
z: -0.17772743105888367
visibility: 0.9986134767532349
","x: 167.977783203125
y: 310.22161865234375
z: -0.045869506895542145
visibility: 0.9493317008018494
","x: 204.91415405273438
y: 308.58599853515625
z: -0.3950219750404358
visibility: 0.9967842102050781
","x: 156.64208984375
y: 301.0061950683594
z: -0.3095799684524536
visibility: 0.9850581884384155
","x: 198.40969848632812
y: 309.98504638671875
z: -0.4446447491645813
visibility: 0.9906524419784546
","x: 151.96707153320312
y: 297.18682861328125
z: -0.3567162752151489
visibility: 0.9768849611282349
","x: 196.41915893554688
y: 302.32379150390625
z: -0.45194703340530396
visibility: 0.9905023574829102
","x: 151.43125915527344
y: 287.5462646484375
z: -0.3832346498966217
visibility: 0.9786683917045593
","x: 198.28121948242188
y: 301.0265808105469
z: -0.40005987882614136
visibility: 0.9821741580963135
","x: 153.65191650390625
y: 288.29229736328125
z: -0.32660943269729614
visibility: 0.9702760577201843
","x: 203.92369079589844
y: 374.30584716796875
z: -0.027998577803373337
visibility: 0.9997356534004211
","x: 178.17393493652344
y: 371.916015625
z: 0.027954066172242165
visibility: 0.9997062087059021
","x: 209.04942321777344
y: 460.2444763183594
z: -0.03766045719385147
visibility: 0.9993033409118652
","x: 174.56056213378906
y: 457.1943664550781
z: 0.020028071478009224
visibility: 0.9986193180084229
","x: 222.10203552246094
y: 534.9295654296875
z: 0.15893173217773438
visibility: 0.9987932443618774
","x: 175.40676879882812
y: 537.939697265625
z: 0.2010543793439865
visibility: 0.9986773133277893
","x: 224.27935791015625
y: 544.4799194335938
z: 0.16982455551624298
visibility: 0.941030740737915
","x: 178.6739959716797
y: 551.8707275390625
z: 0.2112002819776535
visibility: 0.9764963984489441
","x: 217.9376983642578
y: 561.0325927734375
z: 0.02274898998439312
visibility: 0.9973702430725098
","x: 168.30584716796875
y: 562.2742309570312
z: 0.07779597491025925
visibility: 0.9972701668739319
","x: 202.51927185058594
y: 307.8317565917969
z: 0.0
","x: 200.5402374267578
y: 302.4144287109375
z: -0.0009102124604396522
","x: 197.15032958984375
y: 299.03155517578125
z: -0.003490478964522481
","x: 194.08782958984375
y: 298.8160705566406
z: -0.006504086311906576
","x: 191.87615966796875
y: 300.64874267578125
z: -0.009051266126334667
","x: 195.5657196044922
y: 300.1268005371094
z: -0.006897776387631893
","x: 190.19744873046875
y: 300.9675598144531
z: -0.011533724144101143
","x: 191.95555114746094
y: 301.7159729003906
z: -0.012367870658636093
","x: 194.20199584960938
y: 302.1321716308594
z: -0.012228659354150295
","x: 196.20603942871094
y: 303.68023681640625
z: -0.008859746158123016
","x: 191.52755737304688
y: 305.08355712890625
z: -0.01330193318426609
","x: 193.8292694091797
y: 304.77734375
z: -0.012284144759178162
","x: 195.7377471923828
y: 304.2804260253906
z: -0.01087881252169609
","x: 196.7903289794922
y: 307.6515808105469
z: -0.01096393447369337
","x: 192.89862060546875
y: 308.23382568359375
z: -0.014577377587556839
","x: 195.0693359375
y: 307.56854248046875
z: -0.011975418776273727
","x: 196.99038696289062
y: 307.0723876953125
z: -0.009765557944774628
","x: 197.409912109375
y: 311.6863708496094
z: -0.013189852237701416
","x: 193.98870849609375
y: 311.321044921875
z: -0.015154003165662289
","x: 195.51002502441406
y: 310.7361755371094
z: -0.013276695273816586
","x: 197.43751525878906
y: 310.7815246582031
z: -0.011507788673043251
",,,,,,,,,,,,,,,,,,,,,
2,"x: 179.2478485107422
y: 219.4076385498047
z: -0.23673634231090546
visibility: 0.9999967217445374
","x: 180.80873107910156
y: 212.245849609375
z: -0.22111964225769043
visibility: 0.9999924302101135
","x: 182.0731201171875
y: 212.2885284423828
z: -0.22118933498859406
visibility: 0.9999921321868896
","x: 183.2924041748047
y: 212.3990478515625
z: -0.2212105691432953
visibility: 0.9999911785125732
","x: 176.7099151611328
y: 211.34310913085938
z: -0.22187931835651398
visibility: 0.9999900460243225
","x: 175.07550048828125
y: 210.551025390625
z: -0.2218756228685379
visibility: 0.9999883770942688
","x: 173.55935668945312
y: 209.81024169921875
z: -0.22185437381267548
visibility: 0.9999876022338867
","x: 184.42843627929688
y: 214.67495727539062
z: -0.10820180177688599
visibility: 0.9999932646751404
","x: 171.39544677734375
y: 211.7166290283203
z: -0.10943979024887085
visibility: 0.999980628490448
","x: 180.89231872558594
y: 226.26097106933594
z: -0.19193121790885925
visibility: 0.9999976754188538
","x: 175.6629180908203
y: 225.62130737304688
z: -0.19266965985298157
visibility: 0.9999963045120239
","x: 199.82772827148438
y: 254.26199340820312
z: -0.04046005755662918
visibility: 0.9999960660934448
","x: 155.48867797851562
y: 257.45697021484375
z: -0.01369670033454895
visibility: 0.9999591708183289
","x: 207.17013549804688
y: 310.94091796875
z: -0.02566717192530632
visibility: 0.9966736435890198
","x: 152.29774475097656
y: 313.18475341796875
z: -0.0444832406938076
visibility: 0.9513490200042725
","x: 207.5342254638672
y: 343.2548828125
z: -0.18021389842033386
visibility: 0.9939889311790466
","x: 146.81224060058594
y: 319.796630859375
z: -0.2692951560020447
visibility: 0.9854973554611206
","x: 208.936279296875
y: 356.3321533203125
z: -0.22056707739830017
visibility: 0.9862387776374817
","x: 144.17529296875
y: 322.59588623046875
z: -0.3176482319831848
visibility: 0.9775519371032715
","x: 207.65794372558594
y: 354.3213195800781
z: -0.2530535161495209
visibility: 0.9865328669548035
","x: 144.30459594726562
y: 316.48382568359375
z: -0.3447614312171936
visibility: 0.9793253540992737
","x: 206.4380645751953
y: 350.16802978515625
z: -0.19690650701522827
visibility: 0.977874755859375
","x: 145.81594848632812
y: 315.7818603515625
z: -0.2858318090438843
visibility: 0.9712847471237183
","x: 193.97731018066406
y: 372.86260986328125
z: -0.0203915573656559
visibility: 0.9997190833091736
","x: 171.14979553222656
y: 372.91448974609375
z: 0.020346825942397118
visibility: 0.9996881484985352
","x: 204.3779296875
y: 458.28778076171875
z: -0.028140639886260033
visibility: 0.9992801547050476
","x: 172.27720642089844
y: 460.4197692871094
z: 0.021616673097014427
visibility: 0.9984171390533447
","x: 219.18968200683594
y: 533.7514038085938
z: 0.16142335534095764
visibility: 0.9987122416496277
","x: 175.39645385742188
y: 538.7894897460938
z: 0.19966694712638855
visibility: 0.9985025525093079
","x: 219.53004455566406
y: 542.8135375976562
z: 0.17183394730091095
visibility: 0.9381719827651978
","x: 178.72120666503906
y: 550.9924926757812
z: 0.2098391354084015
visibility: 0.9737626910209656
","x: 217.97511291503906
y: 560.1212768554688
z: 0.029775241389870644
visibility: 0.997249186038971
","x: 169.0169219970703
y: 563.7029418945312
z: 0.07830944657325745
visibility: 0.997037947177887
",,,,,,,,,,,,,,,,,,,,,,,,,,,,,,,,,,,,,,,,,,
3,"x: 181.953125
y: 208.39857482910156
z: -0.23668579757213593
visibility: 0.9999963641166687
","x: 183.79855346679688
y: 202.2413330078125
z: -0.21890142560005188
visibility: 0.9999914169311523
","x: 185.01466369628906
y: 202.64639282226562
z: -0.2189321219921112
visibility: 0.9999910593032837
","x: 186.14476013183594
y: 203.0805206298828
z: -0.2189273089170456
visibility: 0.9999901652336121
","x: 179.813232421875
y: 201.25123596191406
z: -0.21808962523937225
visibility: 0.9999892711639404
","x: 178.2626495361328
y: 200.98822021484375
z: -0.21809720993041992
visibility: 0.9999875426292419
","x: 176.72756958007812
y: 200.7835235595703
z: -0.21807625889778137
visibility: 0.9999868273735046
","x: 186.8481903076172
y: 207.0626983642578
z: -0.10750265419483185
visibility: 0.9999912977218628
","x: 173.60391235351562
y: 204.46240234375
z: -0.10450025647878647
visibility: 0.9999781250953674
","x: 183.541259765625
y: 216.9091033935547
z: -0.19483348727226257
visibility: 0.9999971389770508
","x: 178.4447784423828
y: 216.349609375
z: -0.1942814141511917
visibility: 0.9999959468841553
","x: 201.80133056640625
y: 252.07537841796875
z: -0.06232559680938721
visibility: 0.999995231628418
","x: 156.9142608642578
y: 256.33709716796875
z: -0.014852210879325867
visibility: 0.9999589920043945
","x: 210.5260467529297
y: 306.7840270996094
z: -0.08912776410579681
visibility: 0.9963241219520569
","x: 149.18368530273438
y: 305.59930419921875
z: -0.051011037081480026
visibility: 0.9531917572021484
","x: 206.6539306640625
y: 344.1659851074219
z: -0.25076180696487427
visibility: 0.9935268759727478
","x: 146.8014373779297
y: 338.0511779785156
z: -0.2622104287147522
visibility: 0.9841994643211365
","x: 206.10154724121094
y: 358.3199768066406
z: -0.2975962162017822
visibility: 0.9854331016540527
","x: 144.71754455566406
y: 350.81689453125
z: -0.3110964894294739
visibility: 0.9754733443260193
","x: 204.93609619140625
y: 353.6990051269531
z: -0.32385486364364624
visibility: 0.9857778549194336
","x: 145.77415466308594
y: 349.30059814453125
z: -0.3377302289009094
visibility: 0.9773779511451721
","x: 205.59402465820312
y: 349.0030517578125
z: -0.26390987634658813
visibility: 0.9768505692481995
","x: 147.58184814453125
y: 345.0697021484375
z: -0.27829480171203613
visibility: 0.9691191911697388
","x: 194.70474243164062
y: 368.781494140625
z: -0.01765890046954155
visibility: 0.9997320771217346
","x: 170.26092529296875
y: 371.0080261230469
z: 0.017620814964175224
visibility: 0.9997071623802185
","x: 205.04736328125
y: 455.56109619140625
z: -0.0037429616786539555
visibility: 0.9992277026176453
","x: 171.5641326904297
y: 459.43701171875
z: 0.02404898777604103
visibility: 0.998337984085083
","x: 216.84356689453125
y: 535.1405639648438
z: 0.12397545576095581
visibility: 0.9986996054649353
","x: 175.29232788085938
y: 538.8635864257812
z: 0.16508439183235168
visibility: 0.9984557032585144
","x: 215.0818328857422
y: 544.6871337890625
z: 0.12675891816616058
visibility: 0.9388207793235779
","x: 178.72669982910156
y: 550.441162109375
z: 0.16976198554039001
visibility: 0.971620500087738
","x: 218.24404907226562
y: 560.2655639648438
z: -0.014269420877099037
visibility: 0.9972206354141235
","x: 168.96437072753906
y: 563.6876831054688
z: 0.04402651637792587
visibility: 0.9969236850738525
",,,,,,,,,,,,,,,,,,,,,,"x: 145.66751098632812
y: 340.53131103515625
z: 0.0
","x: 148.88046264648438
y: 346.07965087890625
z: -0.0013598408550024033
","x: 150.40469360351562
y: 353.7152404785156
z: -0.0024709636345505714
","x: 150.3669891357422
y: 360.107177734375
z: -0.003910367377102375
","x: 149.78451538085938
y: 364.74627685546875
z: -0.004634374752640724
","x: 146.36404418945312
y: 360.0765686035156
z: 0.000168124315678142
","x: 146.89865112304688
y: 366.9007568359375
z: -0.001815586700104177
","x: 147.72366333007812
y: 365.22540283203125
z: -0.0022122822701931
","x: 147.54563903808594
y: 362.927734375
z: -0.002016404177993536
","x: 143.9940185546875
y: 359.3349914550781
z: -0.0005159861175343394
","x: 144.5537109375
y: 365.5482482910156
z: -0.002261224901303649
","x: 145.52191162109375
y: 364.4118957519531
z: -0.0022201440297067165
","x: 145.48008728027344
y: 362.79473876953125
z: -0.001771350740455091
","x: 141.89266967773438
y: 357.7892761230469
z: -0.0017072102054953575
","x: 142.52015686035156
y: 363.7260437011719
z: -0.003369624726474285
","x: 143.45884704589844
y: 362.79815673828125
z: -0.0024715662002563477
","x: 143.4533233642578
y: 361.4840393066406
z: -0.0014497892698273063
","x: 139.9121551513672
y: 355.72381591796875
z: -0.0032398775219917297
","x: 140.4294891357422
y: 361.4791259765625
z: -0.004021493252366781
","x: 141.3581085205078
y: 361.812255859375
z: -0.00330727850086987
","x: 141.59971618652344
y: 361.34527587890625
z: -0.002431322820484638
"
4,"x: 181.953125
y: 208.39857482910156
z: -0.23668579757213593
visibility: 0.9999963641166687
","x: 183.79855346679688
y: 202.2413330078125
z: -0.21890142560005188
visibility: 0.9999914169311523
","x: 185.01466369628906
y: 202.64639282226562
z: -0.2189321219921112
visibility: 0.9999910593032837
","x: 186.14476013183594
y: 203.0805206298828
z: -0.2189273089170456
visibility: 0.9999901652336121
","x: 179.813232421875
y: 201.25123596191406
z: -0.21808962523937225
visibility: 0.9999892711639404
","x: 178.2626495361328
y: 200.98822021484375
z: -0.21809720993041992
visibility: 0.9999875426292419
","x: 176.72756958007812
y: 200.7835235595703
z: -0.21807625889778137
visibility: 0.9999868273735046
","x: 186.8481903076172
y: 207.0626983642578
z: -0.10750265419483185
visibility: 0.9999912977218628
","x: 173.60391235351562
y: 204.46240234375
z: -0.10450025647878647
visibility: 0.9999781250953674
","x: 183.541259765625
y: 216.9091033935547
z: -0.19483348727226257
visibility: 0.9999971389770508
","x: 178.4447784423828
y: 216.349609375
z: -0.1942814141511917
visibility: 0.9999959468841553
","x: 201.80133056640625
y: 252.07537841796875
z: -0.06232559680938721
visibility: 0.999995231628418
","x: 156.9142608642578
y: 256.33709716796875
z: -0.014852210879325867
visibility: 0.9999589920043945
","x: 210.5260467529297
y: 306.7840270996094
z: -0.08912776410579681
visibility: 0.9963241219520569
","x: 149.18368530273438
y: 305.59930419921875
z: -0.051011037081480026
visibility: 0.9531917572021484
","x: 206.6539306640625
y: 344.1659851074219
z: -0.25076180696487427
visibility: 0.9935268759727478
","x: 146.8014373779297
y: 338.0511779785156
z: -0.2622104287147522
visibility: 0.9841994643211365
","x: 206.10154724121094
y: 358.3199768066406
z: -0.2975962162017822
visibility: 0.9854331016540527
","x: 144.71754455566406
y: 350.81689453125
z: -0.3110964894294739
visibility: 0.9754733443260193
","x: 204.93609619140625
y: 353.6990051269531
z: -0.32385486364364624
visibility: 0.9857778549194336
","x: 145.77415466308594
y: 349.30059814453125
z: -0.3377302289009094
visibility: 0.9773779511451721
","x: 205.59402465820312
y: 349.0030517578125
z: -0.26390987634658813
visibility: 0.9768505692481995
","x: 147.58184814453125
y: 345.0697021484375
z: -0.27829480171203613
visibility: 0.9691191911697388
","x: 194.70474243164062
y: 368.781494140625
z: -0.01765890046954155
visibility: 0.9997320771217346
","x: 170.26092529296875
y: 371.0080261230469
z: 0.017620814964175224
visibility: 0.9997071623802185
","x: 205.04736328125
y: 455.56109619140625
z: -0.0037429616786539555
visibility: 0.9992277026176453
","x: 171.5641326904297
y: 459.43701171875
z: 0.02404898777604103
visibility: 0.998337984085083
","x: 216.84356689453125
y: 535.1405639648438
z: 0.12397545576095581
visibility: 0.9986996054649353
","x: 175.29232788085938
y: 538.8635864257812
z: 0.16508439183235168
visibility: 0.9984557032585144
","x: 215.0818328857422
y: 544.6871337890625
z: 0.12675891816616058
visibility: 0.9388207793235779
","x: 178.72669982910156
y: 550.441162109375
z: 0.16976198554039001
visibility: 0.971620500087738
","x: 218.24404907226562
y: 560.2655639648438
z: -0.014269420877099037
visibility: 0.9972206354141235
","x: 168.96437072753906
y: 563.6876831054688
z: 0.04402651637792587
visibility: 0.9969236850738525
",,,,,,,,,,,,,,,,,,,,,,"x: 145.66751098632812
y: 340.53131103515625
z: 0.0
","x: 148.88046264648438
y: 346.07965087890625
z: -0.0013598408550024033
","x: 150.40469360351562
y: 353.7152404785156
z: -0.0024709636345505714
","x: 150.3669891357422
y: 360.107177734375
z: -0.003910367377102375
","x: 149.78451538085938
y: 364.74627685546875
z: -0.004634374752640724
","x: 146.36404418945312
y: 360.0765686035156
z: 0.000168124315678142
","x: 146.89865112304688
y: 366.9007568359375
z: -0.001815586700104177
","x: 147.72366333007812
y: 365.22540283203125
z: -0.0022122822701931
","x: 147.54563903808594
y: 362.927734375
z: -0.002016404177993536
","x: 143.9940185546875
y: 359.3349914550781
z: -0.0005159861175343394
","x: 144.5537109375
y: 365.5482482910156
z: -0.002261224901303649
","x: 145.52191162109375
y: 364.4118957519531
z: -0.0022201440297067165
","x: 145.48008728027344
y: 362.79473876953125
z: -0.001771350740455091
","x: 141.89266967773438
y: 357.7892761230469
z: -0.0017072102054953575
","x: 142.52015686035156
y: 363.7260437011719
z: -0.003369624726474285
","x: 143.45884704589844
y: 362.79815673828125
z: -0.0024715662002563477
","x: 143.4533233642578
y: 361.4840393066406
z: -0.0014497892698273063
","x: 139.9121551513672
y: 355.72381591796875
z: -0.0032398775219917297
","x: 140.4294891357422
y: 361.4791259765625
z: -0.004021493252366781
","x: 141.3581085205078
y: 361.812255859375
z: -0.00330727850086987
","x: 141.59971618652344
y: 361.34527587890625
z: -0.002431322820484638
"
5,"x: 185.3121795654297
y: 208.3238067626953
z: -0.34595850110054016
visibility: 0.9999939203262329
","x: 187.50596618652344
y: 201.6820526123047
z: -0.3318992853164673
visibility: 0.9999836683273315
","x: 188.81192016601562
y: 201.96607971191406
z: -0.3319213092327118
visibility: 0.9999830722808838
","x: 190.0725860595703
y: 202.29676818847656
z: -0.33193570375442505
visibility: 0.9999820590019226
","x: 183.3543243408203
y: 200.94810485839844
z: -0.33212918043136597
visibility: 0.9999819993972778
","x: 181.76104736328125
y: 200.6776580810547
z: -0.33215516805648804
visibility: 0.9999796748161316
","x: 180.2090606689453
y: 200.43394470214844
z: -0.3321630358695984
visibility: 0.9999789595603943
","x: 191.54978942871094
y: 206.29342651367188
z: -0.2182115763425827
visibility: 0.9999758005142212
","x: 177.45977783203125
y: 203.64910888671875
z: -0.21841630339622498
visibility: 0.9999648928642273
","x: 187.2245635986328
y: 216.22377014160156
z: -0.30124449729919434
visibility: 0.9999945759773254
","x: 181.89035034179688
y: 215.779052734375
z: -0.3015758991241455
visibility: 0.9999937415122986
","x: 205.206298828125
y: 250.096923828125
z: -0.14252164959907532
visibility: 0.9999938607215881
","x: 161.0619659423828
y: 252.4845733642578
z: -0.10996641963720322
visibility: 0.9999598860740662
","x: 213.72207641601562
y: 302.7654724121094
z: -0.16293874382972717
visibility: 0.9961470365524292
","x: 150.3440399169922
y: 305.9980163574219
z: -0.062296539545059204
visibility: 0.9569064974784851
","x: 206.87184143066406
y: 335.2915954589844
z: -0.33129143714904785
visibility: 0.9929535388946533
","x: 147.19473266601562
y: 351.626708984375
z: -0.17643100023269653
visibility: 0.9837782979011536
","x: 204.83335876464844
y: 345.1303405761719
z: -0.37805888056755066
visibility: 0.9838976860046387
","x: 145.12301635742188
y: 369.3209228515625
z: -0.21121247112751007
visibility: 0.973637580871582
","x: 203.26779174804688
y: 337.9996032714844
z: -0.40864652395248413
visibility: 0.9842498898506165
","x: 146.51417541503906
y: 367.5711669921875
z: -0.24495668709278107
visibility: 0.9756255745887756
","x: 204.15066528320312
y: 334.59991455078125
z: -0.3469991981983185
visibility: 0.9744908213615417
","x: 148.44325256347656
y: 360.6541442871094
z: -0.19205328822135925
visibility: 0.9670336246490479
","x: 196.13079833984375
y: 367.5689697265625
z: -0.010301127098500729
visibility: 0.9997294545173645
","x: 171.65333557128906
y: 370.0119323730469
z: 0.010249058715999126
visibility: 0.9997138977050781
","x: 205.82290649414062
y: 454.5899963378906
z: 0.007821807637810707
visibility: 0.9991183280944824
","x: 171.70574951171875
y: 459.014404296875
z: 0.027692457661032677
visibility: 0.9982831478118896
","x: 215.9856719970703
y: 535.95751953125
z: 0.12918581068515778
visibility: 0.9986377954483032
","x: 175.1695556640625
y: 538.856689453125
z: 0.16878776252269745
visibility: 0.9983817934989929
","x: 213.6509246826172
y: 546.002685546875
z: 0.13279034197330475
visibility: 0.9396722912788391
","x: 178.7252197265625
y: 549.678466796875
z: 0.17380236089229584
visibility: 0.9686927795410156
","x: 218.9531707763672
y: 560.444580078125
z: -0.00823250226676464
visibility: 0.9971073269844055
","x: 169.0016326904297
y: 563.6702880859375
z: 0.04584754630923271
visibility: 0.9967735409736633
",,,,,,,,,,,,,,,,,,,,,,,,,,,,,,,,,,,,,,,,,,
6,"x: 188.7240447998047
y: 208.93739318847656
z: -0.3248444199562073
visibility: 0.999991238117218
","x: 190.6008758544922
y: 202.05960083007812
z: -0.3110053539276123
visibility: 0.9999756813049316
","x: 192.19937133789062
y: 202.40469360351562
z: -0.31104907393455505
visibility: 0.9999741315841675
","x: 193.7580108642578
y: 202.79443359375
z: -0.31107085943222046
visibility: 0.9999725818634033
","x: 186.10647583007812
y: 201.09300231933594
z: -0.3101940453052521
visibility: 0.9999739527702332
","x: 184.53744506835938
y: 200.73056030273438
z: -0.31020253896713257
visibility: 0.999970018863678
","x: 182.98741149902344
y: 200.40316772460938
z: -0.3102026581764221
visibility: 0.9999696016311646
","x: 195.56210327148438
y: 206.62391662597656
z: -0.19772186875343323
visibility: 0.9999557733535767
","x: 181.59060668945312
y: 203.12777709960938
z: -0.19333262741565704
visibility: 0.9999501705169678
","x: 190.98544311523438
y: 216.65142822265625
z: -0.27969837188720703
visibility: 0.9999914765357971
","x: 186.29910278320312
y: 215.98837280273438
z: -0.278615266084671
visibility: 0.9999911785125732
","x: 208.62628173828125
y: 250.0693359375
z: -0.12670837342739105
visibility: 0.9999916553497314
","x: 164.1996307373047
y: 251.2694549560547
z: -0.07931403070688248
visibility: 0.9999613761901855
","x: 216.5921630859375
y: 304.0945739746094
z: -0.1769847571849823
visibility: 0.9951328635215759
","x: 153.982421875
y: 307.90826416015625
z: -0.01306239329278469
visibility: 0.9601299166679382
","x: 207.8655242919922
y: 324.55853271484375
z: -0.3930146098136902
visibility: 0.9922798275947571
","x: 147.34483337402344
y: 359.9120788574219
z: -0.10357238352298737
visibility: 0.9841198921203613
","x: 204.6592254638672
y: 328.7022705078125
z: -0.44098740816116333
visibility: 0.9826695919036865
","x: 144.96937561035156
y: 376.9067687988281
z: -0.1296798288822174
visibility: 0.9735268950462341
","x: 202.6871337890625
y: 318.9788513183594
z: -0.4586123824119568
visibility: 0.9830622673034668
","x: 146.48484802246094
y: 376.6184997558594
z: -0.1659601330757141
visibility: 0.9755589962005615
","x: 203.5111083984375
y: 316.88861083984375
z: -0.4038642346858978
visibility: 0.9724310636520386
","x: 148.2433624267578
y: 371.2572021484375
z: -0.11964955180883408
visibility: 0.9671132564544678
","x: 201.60626220703125
y: 368.15008544921875
z: -0.006140347570180893
visibility: 0.9997254610061646
","x: 175.9264373779297
y: 369.8152160644531
z: 0.006065490655601025
visibility: 0.9997180104255676
","x: 209.824951171875
y: 454.9421691894531
z: -0.0035257008858025074
visibility: 0.9989677667617798
","x: 173.4509735107422
y: 458.9598388671875
z: 0.017213810235261917
visibility: 0.9982359409332275
","x: 215.7282257080078
y: 536.5477905273438
z: 0.13201862573623657
visibility: 0.9984809756278992
","x: 175.16696166992188
y: 538.5669555664062
z: 0.1671954244375229
visibility: 0.9982470273971558
","x: 212.8394775390625
y: 546.6859130859375
z: 0.137712299823761
visibility: 0.9400896430015564
","x: 178.71588134765625
y: 548.8306884765625
z: 0.17374321818351746
visibility: 0.9651138186454773
","x: 220.22669982910156
y: 560.6644287109375
z: -0.00021489278879016638
visibility: 0.9967851638793945
","x: 169.0624542236328
y: 563.4724731445312
z: 0.046525876969099045
visibility: 0.9964853525161743
",,,,,,,,,,,,,,,,,,,,,,,,,,,,,,,,,,,,,,,,,,
7,"x: 197.72166442871094
y: 209.82354736328125
z: -0.2740197777748108
visibility: 0.9999912977218628
","x: 199.71987915039062
y: 202.91847229003906
z: -0.2581443190574646
visibility: 0.999975323677063
","x: 201.2105255126953
y: 203.27093505859375
z: -0.2581682503223419
visibility: 0.9999735951423645
","x: 202.55996704101562
y: 203.66111755371094
z: -0.2581499218940735
visibility: 0.9999719858169556
","x: 195.2464141845703
y: 201.49940490722656
z: -0.2559252381324768
visibility: 0.9999736547470093
","x: 193.71929931640625
y: 200.8876953125
z: -0.2558977007865906
visibility: 0.9999696016311646
","x: 192.2721405029297
y: 201.06939697265625
z: -0.25590988993644714
visibility: 0.9999693036079407
","x: 204.78457641601562
y: 206.70462036132812
z: -0.1499883085489273
visibility: 0.9999510645866394
","x: 190.76585388183594
y: 205.4403839111328
z: -0.14005188643932343
visibility: 0.9999487996101379
","x: 200.5975341796875
y: 217.5173797607422
z: -0.23306739330291748
visibility: 0.9999909996986389
","x: 195.46620178222656
y: 216.572998046875
z: -0.23032419383525848
visibility: 0.9999908804893494
","x: 218.7676239013672
y: 253.28895568847656
z: -0.09317854791879654
visibility: 0.9999892711639404
","x: 175.34005737304688
y: 251.61138916015625
z: -0.04444335401058197
visibility: 0.999963104724884
","x: 225.7449188232422
y: 311.41864013671875
z: -0.17571397125720978
visibility: 0.9949424266815186
","x: 163.15818786621094
y: 310.09600830078125
z: 0.019311556592583656
visibility: 0.962890088558197
","x: 210.8085479736328
y: 309.3207092285156
z: -0.4044225215911865
visibility: 0.992631196975708
","x: 152.39881896972656
y: 362.9144592285156
z: -0.07712116837501526
visibility: 0.9845006465911865
","x: 207.01087951660156
y: 305.6461181640625
z: -0.4542917311191559
visibility: 0.9833335876464844
","x: 148.59841918945312
y: 377.9112548828125
z: -0.10203812271356583
visibility: 0.9735091328620911
","x: 206.5561065673828
y: 295.9734191894531
z: -0.4620945453643799
visibility: 0.9837044477462769
","x: 149.84536743164062
y: 377.52239990234375
z: -0.1367911547422409
visibility: 0.9755243062973022
","x: 207.3210906982422
y: 296.9378967285156
z: -0.41202324628829956
visibility: 0.9732574224472046
","x: 151.7718048095703
y: 372.5856018066406
z: -0.09283654391765594
visibility: 0.9672150611877441
","x: 211.48228454589844
y: 368.93389892578125
z: -0.00638072844594717
visibility: 0.999731183052063
","x: 186.73121643066406
y: 370.37176513671875
z: 0.006275665946304798
visibility: 0.9997302293777466
","x: 214.16366577148438
y: 455.1005554199219
z: -0.008976728655397892
visibility: 0.9988610148429871
","x: 181.73635864257812
y: 458.23138427734375
z: 0.011420228518545628
visibility: 0.9982443451881409
","x: 215.89134216308594
y: 537.3802490234375
z: 0.1339021772146225
visibility: 0.9983578324317932
","x: 176.06033325195312
y: 538.1956787109375
z: 0.16312769055366516
visibility: 0.9981793165206909
","x: 213.17105102539062
y: 548.0932006835938
z: 0.1408092975616455
visibility: 0.9409489035606384
","x: 179.37286376953125
y: 548.0716552734375
z: 0.16979990899562836
visibility: 0.9625347256660461
","x: 220.5041046142578
y: 560.6994018554688
z: 7.229719631141052e-05
visibility: 0.9965851306915283
","x: 169.07269287109375
y: 563.088623046875
z: 0.04343865066766739
visibility: 0.9963374137878418
","x: 213.6980743408203
y: 305.5186462402344
z: 0.0
","x: 209.70494079589844
y: 301.24072265625
z: -5.600440999842249e-05
","x: 206.83993530273438
y: 295.7041015625
z: -0.002690018154680729
","x: 204.7994384765625
y: 291.9422607421875
z: -0.005703562870621681
","x: 203.37994384765625
y: 288.8182678222656
z: -0.008034931495785713
","x: 210.54762268066406
y: 286.66619873046875
z: -0.004528745077550411
","x: 204.78392028808594
y: 290.9895324707031
z: -0.008647720329463482
","x: 205.4360809326172
y: 295.32269287109375
z: -0.009992239996790886
","x: 206.84596252441406
y: 296.4075012207031
z: -0.010634874925017357
","x: 211.94102478027344
y: 288.6176452636719
z: -0.007433479651808739
","x: 206.00315856933594
y: 294.44866943359375
z: -0.011641927994787693
","x: 206.66427612304688
y: 298.05377197265625
z: -0.01117880642414093
","x: 207.96356201171875
y: 298.52703857421875
z: -0.010895348154008389
","x: 212.94065856933594
y: 292.2004699707031
z: -0.010454239323735237
","x: 207.33645629882812
y: 297.7351989746094
z: -0.013625823892652988
","x: 207.95596313476562
y: 300.70086669921875
z: -0.011518137529492378
","x: 209.31361389160156
y: 300.6991882324219
z: -0.010150139220058918
","x: 213.56454467773438
y: 296.6182861328125
z: -0.013591508381068707
","x: 209.2155303955078
y: 300.84375
z: -0.015168430283665657
","x: 209.50489807128906
y: 302.90545654296875
z: -0.01363822165876627
","x: 210.7498016357422
y: 302.7185363769531
z: -0.012587293051183224
",,,,,,,,,,,,,,,,,,,,,
8,"x: 197.72166442871094
y: 209.82354736328125
z: -0.2740197777748108
visibility: 0.9999912977218628
","x: 199.71987915039062
y: 202.91847229003906
z: -0.2581443190574646
visibility: 0.999975323677063
","x: 201.2105255126953
y: 203.27093505859375
z: -0.2581682503223419
visibility: 0.9999735951423645
","x: 202.55996704101562
y: 203.66111755371094
z: -0.2581499218940735
visibility: 0.9999719858169556
","x: 195.2464141845703
y: 201.49940490722656
z: -0.2559252381324768
visibility: 0.9999736547470093
","x: 193.71929931640625
y: 200.8876953125
z: -0.2558977007865906
visibility: 0.9999696016311646
","x: 192.2721405029297
y: 201.06939697265625
z: -0.25590988993644714
visibility: 0.9999693036079407
","x: 204.78457641601562
y: 206.70462036132812
z: -0.1499883085489273
visibility: 0.9999510645866394
","x: 190.76585388183594
y: 205.4403839111328
z: -0.14005188643932343
visibility: 0.9999487996101379
","x: 200.5975341796875
y: 217.5173797607422
z: -0.23306739330291748
visibility: 0.9999909996986389
","x: 195.46620178222656
y: 216.572998046875
z: -0.23032419383525848
visibility: 0.9999908804893494
","x: 218.7676239013672
y: 253.28895568847656
z: -0.09317854791879654
visibility: 0.9999892711639404
","x: 175.34005737304688
y: 251.61138916015625
z: -0.04444335401058197
visibility: 0.999963104724884
","x: 225.7449188232422
y: 311.41864013671875
z: -0.17571397125720978
visibility: 0.9949424266815186
","x: 163.15818786621094
y: 310.09600830078125
z: 0.019311556592583656
visibility: 0.962890088558197
","x: 210.8085479736328
y: 309.3207092285156
z: -0.4044225215911865
visibility: 0.992631196975708
","x: 152.39881896972656
y: 362.9144592285156
z: -0.07712116837501526
visibility: 0.9845006465911865
","x: 207.01087951660156
y: 305.6461181640625
z: -0.4542917311191559
visibility: 0.9833335876464844
","x: 148.59841918945312
y: 377.9112548828125
z: -0.10203812271356583
visibility: 0.9735091328620911
","x: 206.5561065673828
y: 295.9734191894531
z: -0.4620945453643799
visibility: 0.9837044477462769
","x: 149.84536743164062
y: 377.52239990234375
z: -0.1367911547422409
visibility: 0.9755243062973022
","x: 207.3210906982422
y: 296.9378967285156
z: -0.41202324628829956
visibility: 0.9732574224472046
","x: 151.7718048095703
y: 372.5856018066406
z: -0.09283654391765594
visibility: 0.9672150611877441
","x: 211.48228454589844
y: 368.93389892578125
z: -0.00638072844594717
visibility: 0.999731183052063
","x: 186.73121643066406
y: 370.37176513671875
z: 0.006275665946304798
visibility: 0.9997302293777466
","x: 214.16366577148438
y: 455.1005554199219
z: -0.008976728655397892
visibility: 0.9988610148429871
","x: 181.73635864257812
y: 458.23138427734375
z: 0.011420228518545628
visibility: 0.9982443451881409
","x: 215.89134216308594
y: 537.3802490234375
z: 0.1339021772146225
visibility: 0.9983578324317932
","x: 176.06033325195312
y: 538.1956787109375
z: 0.16312769055366516
visibility: 0.9981793165206909
","x: 213.17105102539062
y: 548.0932006835938
z: 0.1408092975616455
visibility: 0.9409489035606384
","x: 179.37286376953125
y: 548.0716552734375
z: 0.16979990899562836
visibility: 0.9625347256660461
","x: 220.5041046142578
y: 560.6994018554688
z: 7.229719631141052e-05
visibility: 0.9965851306915283
","x: 169.07269287109375
y: 563.088623046875
z: 0.04343865066766739
visibility: 0.9963374137878418
","x: 213.6980743408203
y: 305.5186462402344
z: 0.0
","x: 209.70494079589844
y: 301.24072265625
z: -5.600440999842249e-05
","x: 206.83993530273438
y: 295.7041015625
z: -0.002690018154680729
","x: 204.7994384765625
y: 291.9422607421875
z: -0.005703562870621681
","x: 203.37994384765625
y: 288.8182678222656
z: -0.008034931495785713
","x: 210.54762268066406
y: 286.66619873046875
z: -0.004528745077550411
","x: 204.78392028808594
y: 290.9895324707031
z: -0.008647720329463482
","x: 205.4360809326172
y: 295.32269287109375
z: -0.009992239996790886
","x: 206.84596252441406
y: 296.4075012207031
z: -0.010634874925017357
","x: 211.94102478027344
y: 288.6176452636719
z: -0.007433479651808739
","x: 206.00315856933594
y: 294.44866943359375
z: -0.011641927994787693
","x: 206.66427612304688
y: 298.05377197265625
z: -0.01117880642414093
","x: 207.96356201171875
y: 298.52703857421875
z: -0.010895348154008389
","x: 212.94065856933594
y: 292.2004699707031
z: -0.010454239323735237
","x: 207.33645629882812
y: 297.7351989746094
z: -0.013625823892652988
","x: 207.95596313476562
y: 300.70086669921875
z: -0.011518137529492378
","x: 209.31361389160156
y: 300.6991882324219
z: -0.010150139220058918
","x: 213.56454467773438
y: 296.6182861328125
z: -0.013591508381068707
","x: 209.2155303955078
y: 300.84375
z: -0.015168430283665657
","x: 209.50489807128906
y: 302.90545654296875
z: -0.01363822165876627
","x: 210.7498016357422
y: 302.7185363769531
z: -0.012587293051183224
",,,,,,,,,,,,,,,,,,,,,
9,"x: 204.8444061279297
y: 214.94464111328125
z: -0.2834162712097168
visibility: 0.9999914169311523
","x: 207.2025604248047
y: 208.16429138183594
z: -0.2683442234992981
visibility: 0.999975323677063
","x: 208.5022430419922
y: 208.5731201171875
z: -0.268375962972641
visibility: 0.9999735355377197
","x: 209.6554412841797
y: 209.0662841796875
z: -0.26837772130966187
visibility: 0.9999719262123108
","x: 202.6593017578125
y: 206.9011688232422
z: -0.26626643538475037
visibility: 0.9999733567237854
","x: 201.0373077392578
y: 206.39158630371094
z: -0.266254723072052
visibility: 0.9999693036079407
","x: 199.49635314941406
y: 206.307861328125
z: -0.2662569284439087
visibility: 0.9999691247940063
","x: 211.3736572265625
y: 212.42234802246094
z: -0.15654604136943817
visibility: 0.9999493360519409
","x: 197.2232666015625
y: 210.33033752441406
z: -0.14697468280792236
visibility: 0.9999482035636902
","x: 207.44691467285156
y: 222.6966552734375
z: -0.24008116126060486
visibility: 0.9999909996986389
","x: 201.897216796875
y: 221.9310760498047
z: -0.23757752776145935
visibility: 0.9999909400939941
","x: 225.34268188476562
y: 259.0292663574219
z: -0.09466694295406342
visibility: 0.9999885559082031
","x: 180.98367309570312
y: 256.22308349609375
z: -0.044791899621486664
visibility: 0.999964714050293
","x: 234.14154052734375
y: 318.4915466308594
z: -0.19036388397216797
visibility: 0.9949434995651245
","x: 169.2357940673828
y: 314.90985107421875
z: 0.008682139217853546
visibility: 0.9654386043548584
","x: 215.1877899169922
y: 306.2010498046875
z: -0.42369022965431213
visibility: 0.9930041432380676
","x: 157.350341796875
y: 365.2896728515625
z: -0.0932110920548439
visibility: 0.9848544597625732
","x: 210.95977783203125
y: 301.08807373046875
z: -0.4753866195678711
visibility: 0.9840221405029297
","x: 152.67880249023438
y: 380.33209228515625
z: -0.1198139563202858
visibility: 0.9734634757041931
","x: 210.39541625976562
y: 292.105224609375
z: -0.4799545705318451
visibility: 0.9843615889549255
","x: 153.48780822753906
y: 380.107421875
z: -0.15418796241283417
visibility: 0.9754719138145447
","x: 211.20704650878906
y: 293.3287353515625
z: -0.43016546964645386
visibility: 0.9741614460945129
","x: 155.60462951660156
y: 375.90234375
z: -0.10890483856201172
visibility: 0.9672872424125671
","x: 216.81011962890625
y: 373.099365234375
z: -0.00778262410312891
visibility: 0.999743640422821
","x: 192.7774200439453
y: 373.2374572753906
z: 0.007692743092775345
visibility: 0.9997427463531494
","x: 216.93658447265625
y: 457.9683837890625
z: -0.02476399391889572
visibility: 0.9987176656723022
","x: 188.4583282470703
y: 460.59271240234375
z: 0.008341304957866669
visibility: 0.9981728792190552
","x: 216.01968383789062
y: 537.382568359375
z: 0.16062772274017334
visibility: 0.9980978965759277
","x: 177.3752899169922
y: 538.06005859375
z: 0.18562987446784973
visibility: 0.998015820980072
","x: 213.04298400878906
y: 547.9473876953125
z: 0.17351415753364563
visibility: 0.9400482773780823
","x: 180.15481567382812
y: 547.6978149414062
z: 0.19665448367595673
visibility: 0.95929354429245
","x: 219.92990112304688
y: 560.8648681640625
z: 0.04577145725488663
visibility: 0.9961832165718079
","x: 169.24630737304688
y: 562.288330078125
z: 0.07304827868938446
visibility: 0.996052622795105
","x: 214.46206665039062
y: 306.49371337890625
z: 0.0
","x: 210.9205322265625
y: 302.1728820800781
z: -0.00026720165624283254
","x: 208.14414978027344
y: 297.02655029296875
z: -0.002559852786362171
","x: 206.33099365234375
y: 293.43994140625
z: -0.005140579771250486
","x: 205.42068481445312
y: 290.9205017089844
z: -0.007058558985590935
","x: 211.9654998779297
y: 288.40887451171875
z: -0.003691706107929349
","x: 207.360107421875
y: 290.1195068359375
z: -0.0074153016321361065
","x: 207.365966796875
y: 294.3691711425781
z: -0.008586614392697811
","x: 208.4405975341797
y: 295.5314025878906
z: -0.009088298305869102
","x: 213.6548614501953
y: 289.92364501953125
z: -0.0060450052842497826
","x: 208.68759155273438
y: 292.9659729003906
z: -0.009735967963933945
","x: 208.72018432617188
y: 296.9840087890625
z: -0.009286176413297653
","x: 209.80947875976562
y: 297.8619689941406
z: -0.008896310813724995
","x: 214.78677368164062
y: 292.9074401855469
z: -0.008588115684688091
","x: 210.10777282714844
y: 296.15557861328125
z: -0.0114645566791296
","x: 210.16871643066406
y: 299.67840576171875
z: -0.009727219119668007
","x: 211.2138671875
y: 300.28594970703125
z: -0.008471728302538395
","x: 215.48324584960938
y: 296.642822265625
z: -0.011250180192291737
","x: 211.7354278564453
y: 299.38385009765625
z: -0.012678727507591248
","x: 211.63380432128906
y: 302.170166015625
z: -0.011409344151616096
","x: 212.59768676757812
y: 302.6663513183594
z: -0.01044036727398634
",,,,,,,,,,,,,,,,,,,,,
10,"x: 204.8444061279297
y: 214.94464111328125
z: -0.2834162712097168
visibility: 0.9999914169311523
","x: 207.2025604248047
y: 208.16429138183594
z: -0.2683442234992981
visibility: 0.999975323677063
","x: 208.5022430419922
y: 208.5731201171875
z: -0.268375962972641
visibility: 0.9999735355377197
","x: 209.6554412841797
y: 209.0662841796875
z: -0.26837772130966187
visibility: 0.9999719262123108
","x: 202.6593017578125
y: 206.9011688232422
z: -0.26626643538475037
visibility: 0.9999733567237854
","x: 201.0373077392578
y: 206.39158630371094
z: -0.266254723072052
visibility: 0.9999693036079407
","x: 199.49635314941406
y: 206.307861328125
z: -0.2662569284439087
visibility: 0.9999691247940063
","x: 211.3736572265625
y: 212.42234802246094
z: -0.15654604136943817
visibility: 0.9999493360519409
","x: 197.2232666015625
y: 210.33033752441406
z: -0.14697468280792236
visibility: 0.9999482035636902
","x: 207.44691467285156
y: 222.6966552734375
z: -0.24008116126060486
visibility: 0.9999909996986389
","x: 201.897216796875
y: 221.9310760498047
z: -0.23757752776145935
visibility: 0.9999909400939941
","x: 225.34268188476562
y: 259.0292663574219
z: -0.09466694295406342
visibility: 0.9999885559082031
","x: 180.98367309570312
y: 256.22308349609375
z: -0.044791899621486664
visibility: 0.999964714050293
","x: 234.14154052734375
y: 318.4915466308594
z: -0.19036388397216797
visibility: 0.9949434995651245
","x: 169.2357940673828
y: 314.90985107421875
z: 0.008682139217853546
visibility: 0.9654386043548584
","x: 215.1877899169922
y: 306.2010498046875
z: -0.42369022965431213
visibility: 0.9930041432380676
","x: 157.350341796875
y: 365.2896728515625
z: -0.0932110920548439
visibility: 0.9848544597625732
","x: 210.95977783203125
y: 301.08807373046875
z: -0.4753866195678711
visibility: 0.9840221405029297
","x: 152.67880249023438
y: 380.33209228515625
z: -0.1198139563202858
visibility: 0.9734634757041931
","x: 210.39541625976562
y: 292.105224609375
z: -0.4799545705318451
visibility: 0.9843615889549255
","x: 153.48780822753906
y: 380.107421875
z: -0.15418796241283417
visibility: 0.9754719138145447
","x: 211.20704650878906
y: 293.3287353515625
z: -0.43016546964645386
visibility: 0.9741614460945129
","x: 155.60462951660156
y: 375.90234375
z: -0.10890483856201172
visibility: 0.9672872424125671
","x: 216.81011962890625
y: 373.099365234375
z: -0.00778262410312891
visibility: 0.999743640422821
","x: 192.7774200439453
y: 373.2374572753906
z: 0.007692743092775345
visibility: 0.9997427463531494
","x: 216.93658447265625
y: 457.9683837890625
z: -0.02476399391889572
visibility: 0.9987176656723022
","x: 188.4583282470703
y: 460.59271240234375
z: 0.008341304957866669
visibility: 0.9981728792190552
","x: 216.01968383789062
y: 537.382568359375
z: 0.16062772274017334
visibility: 0.9980978965759277
","x: 177.3752899169922
y: 538.06005859375
z: 0.18562987446784973
visibility: 0.998015820980072
","x: 213.04298400878906
y: 547.9473876953125
z: 0.17351415753364563
visibility: 0.9400482773780823
","x: 180.15481567382812
y: 547.6978149414062
z: 0.19665448367595673
visibility: 0.95929354429245
","x: 219.92990112304688
y: 560.8648681640625
z: 0.04577145725488663
visibility: 0.9961832165718079
","x: 169.24630737304688
y: 562.288330078125
z: 0.07304827868938446
visibility: 0.996052622795105
","x: 214.46206665039062
y: 306.49371337890625
z: 0.0
","x: 210.9205322265625
y: 302.1728820800781
z: -0.00026720165624283254
","x: 208.14414978027344
y: 297.02655029296875
z: -0.002559852786362171
","x: 206.33099365234375
y: 293.43994140625
z: -0.005140579771250486
","x: 205.42068481445312
y: 290.9205017089844
z: -0.007058558985590935
","x: 211.9654998779297
y: 288.40887451171875
z: -0.003691706107929349
","x: 207.360107421875
y: 290.1195068359375
z: -0.0074153016321361065
","x: 207.365966796875
y: 294.3691711425781
z: -0.008586614392697811
","x: 208.4405975341797
y: 295.5314025878906
z: -0.009088298305869102
","x: 213.6548614501953
y: 289.92364501953125
z: -0.0060450052842497826
","x: 208.68759155273438
y: 292.9659729003906
z: -0.009735967963933945
","x: 208.72018432617188
y: 296.9840087890625
z: -0.009286176413297653
","x: 209.80947875976562
y: 297.8619689941406
z: -0.008896310813724995
","x: 214.78677368164062
y: 292.9074401855469
z: -0.008588115684688091
","x: 210.10777282714844
y: 296.15557861328125
z: -0.0114645566791296
","x: 210.16871643066406
y: 299.67840576171875
z: -0.009727219119668007
","x: 211.2138671875
y: 300.28594970703125
z: -0.008471728302538395
","x: 215.48324584960938
y: 296.642822265625
z: -0.011250180192291737
","x: 211.7354278564453
y: 299.38385009765625
z: -0.012678727507591248
","x: 211.63380432128906
y: 302.170166015625
z: -0.011409344151616096
","x: 212.59768676757812
y: 302.6663513183594
z: -0.01044036727398634
",,,,,,,,,,,,,,,,,,,,,
11,"x: 208.595458984375
y: 217.44981384277344
z: -0.31522834300994873
visibility: 0.9999898672103882
","x: 210.5243377685547
y: 210.52520751953125
z: -0.29938024282455444
visibility: 0.9999709725379944
","x: 211.81137084960938
y: 210.76962280273438
z: -0.2994094789028168
visibility: 0.9999686479568481
","x: 213.1073455810547
y: 211.1526641845703
z: -0.2994259297847748
visibility: 0.9999669790267944
","x: 205.95852661132812
y: 209.9708251953125
z: -0.2987620532512665
visibility: 0.9999685883522034
","x: 204.2483367919922
y: 209.79498291015625
z: -0.29878079891204834
visibility: 0.99996417760849
","x: 202.7607421875
y: 209.87185668945312
z: -0.298810213804245
visibility: 0.9999642372131348
","x: 214.79476928710938
y: 215.35870361328125
z: -0.18562738597393036
visibility: 0.9999318718910217
","x: 201.04214477539062
y: 214.3623046875
z: -0.18340006470680237
visibility: 0.9999399781227112
","x: 211.31231689453125
y: 225.357421875
z: -0.2718219459056854
visibility: 0.9999892711639404
","x: 205.59848022460938
y: 225.595458984375
z: -0.2712059020996094
visibility: 0.9999896287918091
","x: 228.89256286621094
y: 264.184326171875
z: -0.11682166904211044
visibility: 0.9999863505363464
","x: 184.92092895507812
y: 260.06402587890625
z: -0.08365550637245178
visibility: 0.9999658465385437
","x: 236.61949157714844
y: 324.048583984375
z: -0.19265884160995483
visibility: 0.9943627119064331
","x: 172.9311065673828
y: 320.82025146484375
z: -0.017617197707295418
visibility: 0.9681914448738098
","x: 217.8153533935547
y: 313.47430419921875
z: -0.4184381067752838
visibility: 0.9929645657539368
","x: 160.06381225585938
y: 369.94464111328125
z: -0.12608543038368225
visibility: 0.9852540493011475
","x: 212.833984375
y: 304.6111755371094
z: -0.4701606333255768
visibility: 0.983925461769104
","x: 155.8016357421875
y: 384.47021484375
z: -0.15476632118225098
visibility: 0.9735429883003235
","x: 212.2966766357422
y: 296.492431640625
z: -0.4803265631198883
visibility: 0.9842912554740906
","x: 156.54745483398438
y: 385.19586181640625
z: -0.1894136369228363
visibility: 0.975550651550293
","x: 213.32110595703125
y: 295.12274169921875
z: -0.4268702566623688
visibility: 0.9738892912864685
","x: 158.3847198486328
y: 381.68890380859375
z: -0.14174410700798035
visibility: 0.9675031900405884
","x: 220.6641845703125
y: 378.0601806640625
z: 0.0020384385716170073
visibility: 0.9997482895851135
","x: 196.3634490966797
y: 377.64349365234375
z: -0.0021369452588260174
visibility: 0.9997524619102478
","x: 220.6003875732422
y: 462.84564208984375
z: -0.020525256171822548
visibility: 0.9984152913093567
","x: 193.8832550048828
y: 463.1167907714844
z: -0.018563980236649513
visibility: 0.9980066418647766
","x: 216.098876953125
y: 538.0234375
z: 0.18522901833057404
visibility: 0.9975606799125671
","x: 178.70668029785156
y: 537.8828735351562
z: 0.18826839327812195
visibility: 0.9974929094314575
","x: 212.2747039794922
y: 548.54150390625
z: 0.19924260675907135
visibility: 0.938561737537384
","x: 180.6590118408203
y: 546.9872436523438
z: 0.20184588432312012
visibility: 0.9481115341186523
","x: 219.9736328125
y: 561.1570434570312
z: 0.07812200486660004
visibility: 0.9953195452690125
","x: 170.91912841796875
y: 560.883056640625
z: 0.0784427672624588
visibility: 0.9951974749565125
",,,,,,,,,,,,,,,,,,,,,,,,,,,,,,,,,,,,,,,,,,
12,"x: 209.8082733154297
y: 218.46990966796875
z: -0.3202456831932068
visibility: 0.9999900460243225
","x: 212.1276092529297
y: 211.29635620117188
z: -0.30688947439193726
visibility: 0.9999707937240601
","x: 213.52523803710938
y: 211.5723876953125
z: -0.3068922460079193
visibility: 0.9999682307243347
","x: 214.91726684570312
y: 211.946044921875
z: -0.3068687617778778
visibility: 0.9999663829803467
","x: 207.93515014648438
y: 210.57025146484375
z: -0.3066491484642029
visibility: 0.9999688267707825
","x: 206.46685791015625
y: 210.32012939453125
z: -0.3066902458667755
visibility: 0.999964714050293
","x: 205.04090881347656
y: 210.26223754882812
z: -0.3067156672477722
visibility: 0.9999650120735168
","x: 216.83837890625
y: 215.74713134765625
z: -0.19555088877677917
visibility: 0.9999293088912964
","x: 203.70867919921875
y: 213.93141174316406
z: -0.1958789825439453
visibility: 0.9999396800994873
","x: 212.14036560058594
y: 225.8119354248047
z: -0.27619919180870056
visibility: 0.9999880790710449
","x: 207.13307189941406
y: 225.94512939453125
z: -0.276283323764801
visibility: 0.999988853931427
","x: 231.43377685546875
y: 262.49066162109375
z: -0.11334957182407379
visibility: 0.9999833106994629
","x: 187.88150024414062
y: 259.9461975097656
z: -0.09728862345218658
visibility: 0.9999668002128601
","x: 237.64324951171875
y: 321.517822265625
z: -0.07167738676071167
visibility: 0.9927576780319214
","x: 177.96884155273438
y: 317.8734130859375
z: -0.049678072333335876
visibility: 0.9701305627822876
","x: 230.93373107910156
y: 352.70562744140625
z: -0.1918078511953354
visibility: 0.9901723861694336
","x: 168.57159423828125
y: 358.72381591796875
z: -0.1421884000301361
visibility: 0.9852061867713928
","x: 229.47360229492188
y: 366.8705749511719
z: -0.22560863196849823
visibility: 0.9787027835845947
","x: 164.9500274658203
y: 370.5177307128906
z: -0.16219022870063782
visibility: 0.973199188709259
","x: 227.24143981933594
y: 361.4126892089844
z: -0.2590133547782898
visibility: 0.9794012308120728
","x: 166.73861694335938
y: 369.2120056152344
z: -0.2207614630460739
visibility: 0.9752870202064514
","x: 227.110107421875
y: 356.12255859375
z: -0.20711466670036316
visibility: 0.9679385423660278
","x: 168.30284118652344
y: 365.5122375488281
z: -0.16245129704475403
visibility: 0.9673779606819153
","x: 220.65768432617188
y: 376.8494873046875
z: 0.0002107660548062995
visibility: 0.9997398257255554
","x: 196.70079040527344
y: 374.501953125
z: -0.00029292042017914355
visibility: 0.9997541308403015
","x: 221.5199432373047
y: 461.1727600097656
z: -0.009091386571526527
visibility: 0.9981433153152466
","x: 194.40142822265625
y: 459.89031982421875
z: -0.007183699402958155
visibility: 0.9978103637695312
","x: 216.26144409179688
y: 538.0819091796875
z: 0.1264597773551941
visibility: 0.9973788261413574
","x: 184.32545471191406
y: 536.3533935546875
z: 0.1363736093044281
visibility: 0.9973317980766296
","x: 212.9676055908203
y: 548.5123291015625
z: 0.1302209496498108
visibility: 0.9387001395225525
","x: 187.5102996826172
y: 545.7556762695312
z: 0.14151106774806976
visibility: 0.9453364014625549
","x: 219.9469757080078
y: 561.1544189453125
z: 0.003547427710145712
visibility: 0.995112419128418
","x: 176.0966033935547
y: 559.2767944335938
z: 0.015647683292627335
visibility: 0.9950199127197266
",,,,,,,,,,,,,,,,,,,,,,"x: 169.78985595703125
y: 350.8988952636719
z: 0.0
","x: 172.20440673828125
y: 353.4150695800781
z: -0.00529529619961977
","x: 173.32046508789062
y: 358.8192138671875
z: -0.008670905604958534
","x: 172.6776123046875
y: 364.35540771484375
z: -0.011788525618612766
","x: 171.57688903808594
y: 368.77227783203125
z: -0.014697110280394554
","x: 168.85496520996094
y: 367.5329895019531
z: -0.005616658832877874
","x: 166.96861267089844
y: 373.92974853515625
z: -0.009408604353666306
","x: 165.27806091308594
y: 375.3431396484375
z: -0.011849734000861645
","x: 163.91659545898438
y: 374.99163818359375
z: -0.013253800570964813
","x: 166.36746215820312
y: 367.0799560546875
z: -0.0052242036908864975
","x: 163.899169921875
y: 373.1969909667969
z: -0.009262621402740479
","x: 161.53807067871094
y: 373.531005859375
z: -0.011725472286343575
","x: 159.70062255859375
y: 372.23773193359375
z: -0.013118232600390911
","x: 164.35031127929688
y: 365.4601745605469
z: -0.0054102404974401
","x: 161.57838439941406
y: 370.66900634765625
z: -0.009502177126705647
","x: 159.0906219482422
y: 370.306884765625
z: -0.011601008474826813
","x: 157.27438354492188
y: 368.4547119140625
z: -0.01260059792548418
","x: 162.7266082763672
y: 362.849609375
z: -0.00608188146725297
","x: 160.1389617919922
y: 366.294921875
z: -0.00924778264015913
","x: 158.1646728515625
y: 366.30792236328125
z: -0.010875423438847065
","x: 156.69500732421875
y: 365.30328369140625
z: -0.011705555953085423
"
13,"x: 209.8082733154297
y: 218.46990966796875
z: -0.3202456831932068
visibility: 0.9999900460243225
","x: 212.1276092529297
y: 211.29635620117188
z: -0.30688947439193726
visibility: 0.9999707937240601
","x: 213.52523803710938
y: 211.5723876953125
z: -0.3068922460079193
visibility: 0.9999682307243347
","x: 214.91726684570312
y: 211.946044921875
z: -0.3068687617778778
visibility: 0.9999663829803467
","x: 207.93515014648438
y: 210.57025146484375
z: -0.3066491484642029
visibility: 0.9999688267707825
","x: 206.46685791015625
y: 210.32012939453125
z: -0.3066902458667755
visibility: 0.999964714050293
","x: 205.04090881347656
y: 210.26223754882812
z: -0.3067156672477722
visibility: 0.9999650120735168
","x: 216.83837890625
y: 215.74713134765625
z: -0.19555088877677917
visibility: 0.9999293088912964
","x: 203.70867919921875
y: 213.93141174316406
z: -0.1958789825439453
visibility: 0.9999396800994873
","x: 212.14036560058594
y: 225.8119354248047
z: -0.27619919180870056
visibility: 0.9999880790710449
","x: 207.13307189941406
y: 225.94512939453125
z: -0.276283323764801
visibility: 0.999988853931427
","x: 231.43377685546875
y: 262.49066162109375
z: -0.11334957182407379
visibility: 0.9999833106994629
","x: 187.88150024414062
y: 259.9461975097656
z: -0.09728862345218658
visibility: 0.9999668002128601
","x: 237.64324951171875
y: 321.517822265625
z: -0.07167738676071167
visibility: 0.9927576780319214
","x: 177.96884155273438
y: 317.8734130859375
z: -0.049678072333335876
visibility: 0.9701305627822876
","x: 230.93373107910156
y: 352.70562744140625
z: -0.1918078511953354
visibility: 0.9901723861694336
","x: 168.57159423828125
y: 358.72381591796875
z: -0.1421884000301361
visibility: 0.9852061867713928
","x: 229.47360229492188
y: 366.8705749511719
z: -0.22560863196849823
visibility: 0.9787027835845947
","x: 164.9500274658203
y: 370.5177307128906
z: -0.16219022870063782
visibility: 0.973199188709259
","x: 227.24143981933594
y: 361.4126892089844
z: -0.2590133547782898
visibility: 0.9794012308120728
","x: 166.73861694335938
y: 369.2120056152344
z: -0.2207614630460739
visibility: 0.9752870202064514
","x: 227.110107421875
y: 356.12255859375
z: -0.20711466670036316
visibility: 0.9679385423660278
","x: 168.30284118652344
y: 365.5122375488281
z: -0.16245129704475403
visibility: 0.9673779606819153
","x: 220.65768432617188
y: 376.8494873046875
z: 0.0002107660548062995
visibility: 0.9997398257255554
","x: 196.70079040527344
y: 374.501953125
z: -0.00029292042017914355
visibility: 0.9997541308403015
","x: 221.5199432373047
y: 461.1727600097656
z: -0.009091386571526527
visibility: 0.9981433153152466
","x: 194.40142822265625
y: 459.89031982421875
z: -0.007183699402958155
visibility: 0.9978103637695312
","x: 216.26144409179688
y: 538.0819091796875
z: 0.1264597773551941
visibility: 0.9973788261413574
","x: 184.32545471191406
y: 536.3533935546875
z: 0.1363736093044281
visibility: 0.9973317980766296
","x: 212.9676055908203
y: 548.5123291015625
z: 0.1302209496498108
visibility: 0.9387001395225525
","x: 187.5102996826172
y: 545.7556762695312
z: 0.14151106774806976
visibility: 0.9453364014625549
","x: 219.9469757080078
y: 561.1544189453125
z: 0.003547427710145712
visibility: 0.995112419128418
","x: 176.0966033935547
y: 559.2767944335938
z: 0.015647683292627335
visibility: 0.9950199127197266
",,,,,,,,,,,,,,,,,,,,,,"x: 169.78985595703125
y: 350.8988952636719
z: 0.0
","x: 172.20440673828125
y: 353.4150695800781
z: -0.00529529619961977
","x: 173.32046508789062
y: 358.8192138671875
z: -0.008670905604958534
","x: 172.6776123046875
y: 364.35540771484375
z: -0.011788525618612766
","x: 171.57688903808594
y: 368.77227783203125
z: -0.014697110280394554
","x: 168.85496520996094
y: 367.5329895019531
z: -0.005616658832877874
","x: 166.96861267089844
y: 373.92974853515625
z: -0.009408604353666306
","x: 165.27806091308594
y: 375.3431396484375
z: -0.011849734000861645
","x: 163.91659545898438
y: 374.99163818359375
z: -0.013253800570964813
","x: 166.36746215820312
y: 367.0799560546875
z: -0.0052242036908864975
","x: 163.899169921875
y: 373.1969909667969
z: -0.009262621402740479
","x: 161.53807067871094
y: 373.531005859375
z: -0.011725472286343575
","x: 159.70062255859375
y: 372.23773193359375
z: -0.013118232600390911
","x: 164.35031127929688
y: 365.4601745605469
z: -0.0054102404974401
","x: 161.57838439941406
y: 370.66900634765625
z: -0.009502177126705647
","x: 159.0906219482422
y: 370.306884765625
z: -0.011601008474826813
","x: 157.27438354492188
y: 368.4547119140625
z: -0.01260059792548418
","x: 162.7266082763672
y: 362.849609375
z: -0.00608188146725297
","x: 160.1389617919922
y: 366.294921875
z: -0.00924778264015913
","x: 158.1646728515625
y: 366.30792236328125
z: -0.010875423438847065
","x: 156.69500732421875
y: 365.30328369140625
z: -0.011705555953085423
"
14,"x: 211.03541564941406
y: 218.37327575683594
z: -0.31920763850212097
visibility: 0.9999904036521912
","x: 213.6690673828125
y: 211.13128662109375
z: -0.30671507120132446
visibility: 0.9999719858169556
","x: 215.15792846679688
y: 211.39517211914062
z: -0.3067252039909363
visibility: 0.9999693036079407
","x: 216.5804901123047
y: 211.75753784179688
z: -0.30671602487564087
visibility: 0.9999674558639526
","x: 209.3909912109375
y: 210.46499633789062
z: -0.3053584098815918
visibility: 0.9999703168869019
","x: 207.90618896484375
y: 210.25540161132812
z: -0.30539920926094055
visibility: 0.9999664425849915
","x: 206.3874053955078
y: 209.96217346191406
z: -0.3053969442844391
visibility: 0.9999667406082153
","x: 218.6546630859375
y: 215.5632781982422
z: -0.19265584647655487
visibility: 0.9999334812164307
","x: 204.4861602783203
y: 212.1005401611328
z: -0.18768128752708435
visibility: 0.9999426007270813
","x: 213.22036743164062
y: 225.63088989257812
z: -0.27361932396888733
visibility: 0.9999884366989136
","x: 208.2425079345703
y: 225.7343292236328
z: -0.2724143862724304
visibility: 0.9999890923500061
","x: 233.49266052246094
y: 260.6990661621094
z: -0.10628680139780045
visibility: 0.9999828338623047
","x: 188.632080078125
y: 253.85867309570312
z: -0.08631934225559235
visibility: 0.9999659657478333
","x: 245.31838989257812
y: 311.4432373046875
z: -0.07429086416959763
visibility: 0.9924921989440918
","x: 178.14498901367188
y: 299.01898193359375
z: -0.1272156536579132
visibility: 0.9700484275817871
","x: 240.13739013671875
y: 347.5023193359375
z: -0.20070497691631317
visibility: 0.9886057376861572
","x: 176.55856323242188
y: 325.1881103515625
z: -0.3675156831741333
visibility: 0.9840628504753113
","x: 237.32318115234375
y: 360.0256652832031
z: -0.23616941273212433
visibility: 0.97551429271698
","x: 175.69931030273438
y: 334.3789978027344
z: -0.41735950112342834
visibility: 0.9717192053794861
","x: 234.84475708007812
y: 354.8219299316406
z: -0.2667708992958069
visibility: 0.9763585329055786
","x: 177.3488006591797
y: 330.1363525390625
z: -0.44286924600601196
visibility: 0.9738351702690125
","x: 234.99623107910156
y: 350.5486755371094
z: -0.21432845294475555
visibility: 0.9641880989074707
","x: 178.27503967285156
y: 326.7887878417969
z: -0.3831661343574524
visibility: 0.9654786586761475
","x: 219.94654846191406
y: 374.29150390625
z: -0.0023283392656594515
visibility: 0.9997484683990479
","x: 195.49595642089844
y: 369.9303894042969
z: 0.002249698620289564
visibility: 0.9997608661651611
","x: 220.68997192382812
y: 458.76324462890625
z: -0.007552086375653744
visibility: 0.9981266260147095
","x: 191.13238525390625
y: 458.0044250488281
z: 0.009946012869477272
visibility: 0.9978137612342834
","x: 216.38638305664062
y: 537.8521118164062
z: 0.1353696882724762
visibility: 0.9974085092544556
","x: 185.31210327148438
y: 530.5899658203125
z: 0.14758753776550293
visibility: 0.9974004030227661
","x: 213.24391174316406
y: 548.361572265625
z: 0.14136472344398499
visibility: 0.9402788281440735
","x: 189.6998748779297
y: 540.525146484375
z: 0.1488969922065735
visibility: 0.9470184445381165
","x: 219.8351287841797
y: 560.9373779296875
z: 0.009550589136779308
visibility: 0.9952085018157959
","x: 176.0387420654297
y: 555.1325073242188
z: 0.03928665071725845
visibility: 0.995193362236023
",,,,,,,,,,,,,,,,,,,,,,,,,,,,,,,,,,,,,,,,,,
15,"x: 210.40481567382812
y: 218.30178833007812
z: -0.2847091555595398
visibility: 0.9999905228614807
","x: 213.11512756347656
y: 211.02481079101562
z: -0.26986125111579895
visibility: 0.999972403049469
","x: 214.3622589111328
y: 211.27952575683594
z: -0.26988163590431213
visibility: 0.9999695420265198
","x: 215.74261474609375
y: 211.6344451904297
z: -0.2698810398578644
visibility: 0.9999676942825317
","x: 208.8655242919922
y: 210.3538360595703
z: -0.2691629230976105
visibility: 0.9999710321426392
","x: 207.25515747070312
y: 209.96044921875
z: -0.26919278502464294
visibility: 0.9999673962593079
","x: 205.5893096923828
y: 209.4732666015625
z: -0.26915356516838074
visibility: 0.9999675154685974
","x: 217.98907470703125
y: 215.48605346679688
z: -0.15279218554496765
visibility: 0.9999365210533142
","x: 203.56869506835938
y: 211.30841064453125
z: -0.15050992369651794
visibility: 0.9999434351921082
","x: 212.73326110839844
y: 225.50100708007812
z: -0.23881885409355164
visibility: 0.999988317489624
","x: 207.04563903808594
y: 225.62106323242188
z: -0.23830421268939972
visibility: 0.9999886751174927
","x: 233.10195922851562
y: 258.20599365234375
z: -0.06516943126916885
visibility: 0.9999827146530151
","x: 188.33750915527344
y: 248.97122192382812
z: -0.06554112583398819
visibility: 0.999959409236908
","x: 249.9922332763672
y: 298.35711669921875
z: -0.05690373107790947
visibility: 0.9928877353668213
","x: 175.34486389160156
y: 294.0676574707031
z: -0.13863317668437958
visibility: 0.9714882969856262
","x: 250.07337951660156
y: 340.2538757324219
z: -0.19604535400867462
visibility: 0.9889270067214966
","x: 175.43753051757812
y: 292.6163330078125
z: -0.39794236421585083
visibility: 0.9840044379234314
","x: 248.1087646484375
y: 351.40924072265625
z: -0.23044152557849884
visibility: 0.9756065011024475
","x: 175.31166076660156
y: 295.6988220214844
z: -0.4499497413635254
visibility: 0.9710448980331421
","x: 245.27203369140625
y: 346.9111633300781
z: -0.25953805446624756
visibility: 0.9765259027481079
","x: 176.4144287109375
y: 289.3664245605469
z: -0.46431654691696167
visibility: 0.9730105400085449
","x: 245.2397003173828
y: 342.66278076171875
z: -0.20944683253765106
visibility: 0.9647166728973389
","x: 176.87693786621094
y: 288.3135681152344
z: -0.40984731912612915
visibility: 0.9642025828361511
","x: 219.12295532226562
y: 372.9547119140625
z: -0.0021688106935471296
visibility: 0.9997541904449463
","x: 194.67274475097656
y: 368.66650390625
z: 0.0021252084989100695
visibility: 0.999762773513794
","x: 220.5726318359375
y: 457.6873779296875
z: 0.00013543762906920165
visibility: 0.9981245994567871
","x: 189.73062133789062
y: 456.4544372558594
z: 0.005732315592467785
visibility: 0.997868001461029
","x: 216.67446899414062
y: 537.5262451171875
z: 0.13693302869796753
visibility: 0.9974103569984436
","x: 183.12831115722656
y: 528.7421875
z: 0.1462371051311493
visibility: 0.9974898099899292
","x: 213.52088928222656
y: 547.9708251953125
z: 0.1459542065858841
visibility: 0.9414302110671997
","x: 186.88504028320312
y: 538.825439453125
z: 0.1515233814716339
visibility: 0.9482225775718689
","x: 219.85821533203125
y: 560.4677734375
z: 0.01303314883261919
visibility: 0.995235025882721
","x: 172.13467407226562
y: 554.2744140625
z: 0.026859592646360397
visibility: 0.9953492283821106
",,,,,,,,,,,,,,,,,,,,,,,,,,,,,,,,,,,,,,,,,,
16,"x: 208.33103942871094
y: 220.45663452148438
z: -0.2849245071411133
visibility: 0.9999905228614807
","x: 211.218994140625
y: 213.17355346679688
z: -0.2698426842689514
visibility: 0.999972403049469
","x: 212.62257385253906
y: 213.37261962890625
z: -0.26986855268478394
visibility: 0.9999692440032959
","x: 213.9959716796875
y: 213.57205200195312
z: -0.26988136768341064
visibility: 0.9999673366546631
","x: 206.64073181152344
y: 212.22694396972656
z: -0.2688746750354767
visibility: 0.999971330165863
","x: 204.97833251953125
y: 211.61019897460938
z: -0.26890048384666443
visibility: 0.9999677538871765
","x: 203.33859252929688
y: 210.98944091796875
z: -0.26884034276008606
visibility: 0.999967634677887
","x: 215.9784393310547
y: 216.14462280273438
z: -0.15201856195926666
visibility: 0.9999390840530396
","x: 201.32891845703125
y: 212.05609130859375
z: -0.14875096082687378
visibility: 0.9999436140060425
","x: 210.72116088867188
y: 227.24298095703125
z: -0.23886843025684357
visibility: 0.9999879002571106
","x: 204.86892700195312
y: 226.63031005859375
z: -0.23803913593292236
visibility: 0.9999881386756897
","x: 230.9654998779297
y: 256.74114990234375
z: -0.06829983741044998
visibility: 0.9999827146530151
","x: 185.80636596679688
y: 248.991455078125
z: -0.06105891987681389
visibility: 0.9999503493309021
","x: 250.54498291015625
y: 290.80908203125
z: -0.0823565274477005
visibility: 0.9934030175209045
","x: 162.4121856689453
y: 281.5123596191406
z: -0.1611832231283188
visibility: 0.9739048480987549
","x: 255.78732299804688
y: 336.9305114746094
z: -0.23513838648796082
visibility: 0.989668071269989
","x: 165.99237060546875
y: 269.4443054199219
z: -0.42009082436561584
visibility: 0.9848976731300354
","x: 255.89695739746094
y: 346.333740234375
z: -0.27145475149154663
visibility: 0.9767745733261108
","x: 163.73187255859375
y: 267.06243896484375
z: -0.4717470109462738
visibility: 0.9717839360237122
","x: 251.22064208984375
y: 343.1637878417969
z: -0.2994229197502136
visibility: 0.9776931405067444
","x: 169.75433349609375
y: 264.6667785644531
z: -0.4780291020870209
visibility: 0.9735317230224609
","x: 250.53219604492188
y: 339.2400817871094
z: -0.24853292107582092
visibility: 0.9665969014167786
","x: 170.8223876953125
y: 266.9698791503906
z: -0.4288620948791504
visibility: 0.964805543422699
","x: 217.58807373046875
y: 372.7393798828125
z: -0.002272234298288822
visibility: 0.9997599124908447
","x: 192.86256408691406
y: 368.86114501953125
z: 0.0022387674544006586
visibility: 0.9997642636299133
","x: 220.16506958007812
y: 457.7235412597656
z: -0.003623775439336896
visibility: 0.9981531500816345
","x: 185.78048706054688
y: 456.5296936035156
z: 0.008475312031805515
visibility: 0.9979331493377686
","x: 216.70516967773438
y: 537.166748046875
z: 0.14948144555091858
visibility: 0.9973817467689514
","x: 180.5185089111328
y: 529.5787353515625
z: 0.156618133187294
visibility: 0.9975799918174744
","x: 213.59994506835938
y: 547.4166259765625
z: 0.1578647792339325
visibility: 0.9427369832992554
","x: 184.27313232421875
y: 539.6500854492188
z: 0.16355176270008087
visibility: 0.9498224258422852
","x: 219.84799194335938
y: 559.70166015625
z: 0.0305164847522974
visibility: 0.9952329993247986
","x: 168.6300506591797
y: 554.6967163085938
z: 0.03716769069433212
visibility: 0.9955114126205444
",,,,,,,,,,,,,,,,,,,,,,,,,,,,,,,,,,,,,,,,,,
17,"x: 207.04156494140625
y: 220.6866455078125
z: -0.2548104524612427
visibility: 0.999990701675415
","x: 210.6507568359375
y: 213.47967529296875
z: -0.23909194767475128
visibility: 0.9999727606773376
","x: 212.11712646484375
y: 213.6599884033203
z: -0.23912020027637482
visibility: 0.9999693036079407
","x: 213.53309631347656
y: 213.83697509765625
z: -0.23915092647075653
visibility: 0.9999678134918213
","x: 206.3487548828125
y: 212.34075927734375
z: -0.23793832957744598
visibility: 0.9999719262123108
","x: 204.60482788085938
y: 211.64920043945312
z: -0.23795297741889954
visibility: 0.9999681711196899
","x: 202.582275390625
y: 210.9862060546875
z: -0.2378757894039154
visibility: 0.9999679327011108
","x: 215.41160583496094
y: 216.14022827148438
z: -0.12222374975681305
visibility: 0.9999421238899231
","x: 200.3753662109375
y: 212.04917907714844
z: -0.11889932304620743
visibility: 0.9999435544013977
","x: 209.26063537597656
y: 227.2148895263672
z: -0.20968008041381836
visibility: 0.9999875426292419
","x: 204.0132293701172
y: 226.644287109375
z: -0.20890691876411438
visibility: 0.9999876022338867
","x: 230.6144256591797
y: 256.62542724609375
z: -0.04314012825489044
visibility: 0.9999830722808838
","x: 184.43896484375
y: 247.7294158935547
z: -0.03683316707611084
visibility: 0.9999428987503052
","x: 247.96697998046875
y: 285.6405944824219
z: -0.04874352738261223
visibility: 0.9939088821411133
","x: 156.19586181640625
y: 272.0917053222656
z: -0.14980986714363098
visibility: 0.9760844111442566
","x: 254.3819580078125
y: 332.5999450683594
z: -0.17487843334674835
visibility: 0.9903717041015625
","x: 155.79757690429688
y: 265.390380859375
z: -0.4044988751411438
visibility: 0.9854081869125366
","x: 255.222412109375
y: 344.15692138671875
z: -0.20675554871559143
visibility: 0.9778478741645813
","x: 153.36135864257812
y: 264.71209716796875
z: -0.45555830001831055
visibility: 0.9714263677597046
","x: 250.56427001953125
y: 339.59759521484375
z: -0.2347290962934494
visibility: 0.978783130645752
","x: 162.21051025390625
y: 260.8171691894531
z: -0.46191707253456116
visibility: 0.9729970097541809
","x: 249.66221618652344
y: 336.0332946777344
z: -0.18788793683052063
visibility: 0.9683471918106079
","x: 163.8319091796875
y: 262.5272521972656
z: -0.4140665531158447
visibility: 0.9643049836158752
","x: 212.50794982910156
y: 371.94989013671875
z: -0.0016310466453433037
visibility: 0.9997640252113342
","x: 187.19287109375
y: 368.5639953613281
z: 0.0016217445954680443
visibility: 0.9997611045837402
","x: 217.10362243652344
y: 456.6533203125
z: -0.0037636663764715195
visibility: 0.9980809092521667
","x: 180.55043029785156
y: 455.8456726074219
z: 0.005898687057197094
visibility: 0.9978800415992737
","x: 216.56234741210938
y: 536.796630859375
z: 0.1083296686410904
visibility: 0.9972359538078308
","x: 178.75271606445312
y: 529.0745849609375
z: 0.13242784142494202
visibility: 0.9975329637527466
","x: 213.25259399414062
y: 547.1448364257812
z: 0.11136487871408463
visibility: 0.942588210105896
","x: 182.75233459472656
y: 539.3746337890625
z: 0.137078195810318
visibility: 0.9496705532073975
","x: 219.88966369628906
y: 559.1622314453125
z: -0.020658913999795914
visibility: 0.9950725436210632
","x: 167.51515197753906
y: 554.532470703125
z: 0.013780616223812103
visibility: 0.9954739212989807
",,,,,,,,,,,,,,,,,,,,,,,,,,,,,,,,,,,,,,,,,,
18,"x: 202.01123046875
y: 222.1076202392578
z: -0.2948416471481323
visibility: 0.9999902844429016
","x: 205.40748596191406
y: 214.94174194335938
z: -0.27728429436683655
visibility: 0.9999722242355347
","x: 206.79196166992188
y: 215.200439453125
z: -0.27730393409729004
visibility: 0.9999688267707825
","x: 208.26687622070312
y: 215.418212890625
z: -0.27736520767211914
visibility: 0.9999672174453735
","x: 201.6473846435547
y: 213.15565490722656
z: -0.27656182646751404
visibility: 0.999971330165863
","x: 200.21511840820312
y: 212.1639404296875
z: -0.27658113837242126
visibility: 0.9999672174453735
","x: 198.61973571777344
y: 211.24041748046875
z: -0.27649328112602234
visibility: 0.9999662637710571
","x: 209.9398956298828
y: 217.48008728027344
z: -0.14051173627376556
visibility: 0.9999434351921082
","x: 196.12124633789062
y: 212.25491333007812
z: -0.14298412203788757
visibility: 0.9999425411224365
","x: 203.45870971679688
y: 228.98049926757812
z: -0.24364857375621796
visibility: 0.9999867081642151
","x: 199.11447143554688
y: 227.75697326660156
z: -0.24363930523395538
visibility: 0.9999869465827942
","x: 223.09498596191406
y: 257.13067626953125
z: -0.06192861124873161
visibility: 0.9999831318855286
","x: 178.53941345214844
y: 246.87135314941406
z: -0.06700800359249115
visibility: 0.9999350905418396
","x: 245.3198699951172
y: 289.20904541015625
z: -0.11685122549533844
visibility: 0.9943159818649292
","x: 149.43777465820312
y: 270.75592041015625
z: -0.21773609519004822
visibility: 0.9782825112342834
","x: 249.58773803710938
y: 330.37799072265625
z: -0.31177911162376404
visibility: 0.9910216331481934
","x: 162.87835693359375
y: 254.82862854003906
z: -0.47799673676490784
visibility: 0.9863514304161072
","x: 251.14088439941406
y: 342.8638000488281
z: -0.355372816324234
visibility: 0.9790038466453552
","x: 170.09092712402344
y: 250.8226318359375
z: -0.5331507921218872
visibility: 0.9723255634307861
","x: 247.55604553222656
y: 338.0614929199219
z: -0.3839675784111023
visibility: 0.9799450039863586
","x: 175.0667724609375
y: 247.29981994628906
z: -0.5284526944160461
visibility: 0.9736014008522034
","x: 246.48153686523438
y: 334.61492919921875
z: -0.3272172808647156
visibility: 0.9700949192047119
","x: 173.25267028808594
y: 250.76068115234375
z: -0.4819256365299225
visibility: 0.9647612571716309
","x: 203.6880340576172
y: 371.70184326171875
z: -0.0015059176366776228
visibility: 0.9997740983963013
","x: 179.38772583007812
y: 368.1851806640625
z: 0.001527589512988925
visibility: 0.9997660517692566
","x: 210.75018310546875
y: 456.3996887207031
z: -0.025548934936523438
visibility: 0.9980372786521912
","x: 175.63937377929688
y: 455.71337890625
z: 0.018486306071281433
visibility: 0.9978428483009338
","x: 215.1326446533203
y: 536.7274780273438
z: 0.07940588146448135
visibility: 0.9972180724143982
","x: 177.56199645996094
y: 529.26953125
z: 0.15818427503108978
visibility: 0.997477114200592
","x: 211.943115234375
y: 547.1351318359375
z: 0.08139796555042267
visibility: 0.94403475522995
","x: 181.50852966308594
y: 539.552001953125
z: 0.16358837485313416
visibility: 0.9497554302215576
","x: 219.772216796875
y: 559.1148681640625
z: -0.06267106533050537
visibility: 0.9950424432754517
","x: 167.30470275878906
y: 554.4320068359375
z: 0.02628493681550026
visibility: 0.9953638315200806
",,,,,,,,,,,,,,,,,,,,,,,,,,,,,,,,,,,,,,,,,,
19,"x: 197.69737243652344
y: 227.89306640625
z: -0.19592532515525818
visibility: 0.9999909400939941
","x: 200.700439453125
y: 221.01121520996094
z: -0.1790768802165985
visibility: 0.9999740123748779
","x: 202.08370971679688
y: 221.172119140625
z: -0.17912599444389343
visibility: 0.9999709129333496
","x: 203.4525146484375
y: 221.23410034179688
z: -0.17914271354675293
visibility: 0.9999693036079407
","x: 196.64886474609375
y: 219.0626220703125
z: -0.18077826499938965
visibility: 0.9999731183052063
","x: 195.0938720703125
y: 217.86807250976562
z: -0.18075425922870636
visibility: 0.9999690651893616
","x: 193.45010375976562
y: 216.68450927734375
z: -0.18068906664848328
visibility: 0.9999680519104004
","x: 204.2198486328125
y: 221.43026733398438
z: -0.06347815692424774
visibility: 0.9999475479125977
","x: 189.99676513671875
y: 216.14187622070312
z: -0.07279505580663681
visibility: 0.9999457001686096
","x: 198.61801147460938
y: 234.251708984375
z: -0.15097202360630035
visibility: 0.9999873042106628
","x: 194.21951293945312
y: 232.64825439453125
z: -0.1537804901599884
visibility: 0.9999875426292419
","x: 213.4668731689453
y: 261.6914978027344
z: 0.009609159082174301
visibility: 0.9999842047691345
","x: 173.12989807128906
y: 248.52438354492188
z: 0.0014666049974039197
visibility: 0.999938428401947
","x: 224.1204376220703
y: 311.1488037109375
z: -0.0004344120970927179
visibility: 0.9942225813865662
","x: 152.35394287109375
y: 283.47021484375
z: -0.12392836809158325
visibility: 0.9797273278236389
","x: 245.39268493652344
y: 341.00445556640625
z: -0.1727592945098877
visibility: 0.9916298985481262
","x: 161.77960205078125
y: 276.0322265625
z: -0.3785746097564697
visibility: 0.9873635768890381
","x: 245.80941772460938
y: 346.9714660644531
z: -0.20878782868385315
visibility: 0.9803617000579834
","x: 168.85055541992188
y: 273.0693359375
z: -0.4263434410095215
visibility: 0.9741952419281006
","x: 245.09530639648438
y: 343.65460205078125
z: -0.24341163039207458
visibility: 0.9812995195388794
","x: 172.64366149902344
y: 267.6239318847656
z: -0.4392513334751129
visibility: 0.9753491282463074
","x: 243.4040985107422
y: 342.036376953125
z: -0.19075658917427063
visibility: 0.9721479415893555
","x: 169.7224884033203
y: 269.72833251953125
z: -0.38887709379196167
visibility: 0.9669952988624573
","x: 196.5209197998047
y: 373.4310607910156
z: -0.0003993871505372226
visibility: 0.9997763633728027
","x: 173.18215942382812
y: 370.47796630859375
z: 0.00041733458056114614
visibility: 0.9997687339782715
","x: 202.58143615722656
y: 456.4523620605469
z: -0.02460106834769249
visibility: 0.9981245994567871
","x: 171.766845703125
y: 455.91412353515625
z: 0.017107753083109856
visibility: 0.9979002475738525
","x: 213.6254119873047
y: 536.0499267578125
z: 0.09790383279323578
visibility: 0.997309148311615
","x: 176.54171752929688
y: 529.5391235351562
z: 0.16364353895187378
visibility: 0.9975159764289856
","x: 211.4202880859375
y: 546.9738159179688
z: 0.10129915177822113
visibility: 0.945702075958252
","x: 180.7030029296875
y: 539.93115234375
z: 0.1706319898366928
visibility: 0.9508811235427856
","x: 219.01007080078125
y: 559.1394653320312
z: -0.035208337008953094
visibility: 0.9952027201652527
","x: 166.62269592285156
y: 554.6123657226562
z: 0.03982595354318619
visibility: 0.995442807674408
",,,,,,,,,,,,,,,,,,,,,,,,,,,,,,,,,,,,,,,,,,
20,"x: 192.5238800048828
y: 233.8003692626953
z: -0.17184486985206604
visibility: 0.9999911785125732
","x: 195.79269409179688
y: 226.67364501953125
z: -0.15759752690792084
visibility: 0.9999744892120361
","x: 197.39430236816406
y: 226.74452209472656
z: -0.1576775461435318
visibility: 0.9999714493751526
","x: 199.01742553710938
y: 226.7064208984375
z: -0.1577220857143402
visibility: 0.9999698400497437
","x: 191.207275390625
y: 224.9110565185547
z: -0.15820536017417908
visibility: 0.9999729990959167
","x: 189.5614471435547
y: 223.79302978515625
z: -0.15818066895008087
visibility: 0.999968409538269
","x: 187.77955627441406
y: 222.57200622558594
z: -0.15811923146247864
visibility: 0.9999673366546631
","x: 200.41726684570312
y: 225.80194091796875
z: -0.049587227404117584
visibility: 0.9999493956565857
","x: 184.72335815429688
y: 220.7398681640625
z: -0.05367811769247055
visibility: 0.9999442100524902
","x: 193.85064697265625
y: 239.6296844482422
z: -0.12869983911514282
visibility: 0.9999868869781494
","x: 188.87628173828125
y: 238.11880493164062
z: -0.13006378710269928
visibility: 0.9999871253967285
","x: 208.50892639160156
y: 265.3416748046875
z: 0.018780816346406937
visibility: 0.9999850988388062
","x: 169.7008514404297
y: 253.18199157714844
z: 0.024766672402620316
visibility: 0.9999409914016724
","x: 213.9964141845703
y: 317.4537353515625
z: 0.029429668560624123
visibility: 0.9932374954223633
","x: 154.96905517578125
y: 289.0345458984375
z: -0.05255286023020744
visibility: 0.9791074991226196
","x: 232.4207305908203
y: 345.0498962402344
z: -0.10618644952774048
visibility: 0.9917675852775574
","x: 153.00717163085938
y: 290.49029541015625
z: -0.29529866576194763
visibility: 0.9878591299057007
","x: 238.23834228515625
y: 349.779296875
z: -0.13989700376987457
visibility: 0.9808487892150879
","x: 150.25291442871094
y: 280.6881103515625
z: -0.3428371548652649
visibility: 0.9754323363304138
","x: 242.25482177734375
y: 347.0799255371094
z: -0.17341391742229462
visibility: 0.9818871021270752
","x: 151.45326232910156
y: 277.8872985839844
z: -0.36213648319244385
visibility: 0.9765954613685608
","x: 238.5904541015625
y: 345.6224365234375
z: -0.12344376742839813
visibility: 0.9732658863067627
","x: 152.8687744140625
y: 276.9327697753906
z: -0.3099382817745209
visibility: 0.968741238117218
","x: 192.17742919921875
y: 375.124267578125
z: -0.0007840071921236813
visibility: 0.9997696280479431
","x: 170.7163543701172
y: 372.617431640625
z: 0.0007865802617743611
visibility: 0.9997565150260925
","x: 196.15847778320312
y: 456.23162841796875
z: -0.012864562682807446
visibility: 0.9981081485748291
","x: 170.03216552734375
y: 456.3058776855469
z: 0.011025814339518547
visibility: 0.997754693031311
","x: 211.91864013671875
y: 535.7901611328125
z: 0.10365273803472519
visibility: 0.9972482919692993
","x: 175.3351287841797
y: 529.8198852539062
z: 0.15938249230384827
visibility: 0.9973634481430054
","x: 210.06874084472656
y: 546.2946166992188
z: 0.10913356393575668
visibility: 0.9446726441383362
","x: 179.87515258789062
y: 540.1644287109375
z: 0.16734322905540466
visibility: 0.9499397277832031
","x: 218.60824584960938
y: 558.9177856445312
z: -0.0062336609698832035
visibility: 0.9951230883598328
","x: 166.88067626953125
y: 554.8015747070312
z: 0.040166620165109634
visibility: 0.9952037334442139
",,,,,,,,,,,,,,,,,,,,,,"x: 150.94764709472656
y: 281.42877197265625
z: 0.0
","x: 145.8677978515625
y: 278.8534851074219
z: -0.0023039807565510273
","x: 141.96730041503906
y: 271.76995849609375
z: -0.005602250341325998
","x: 140.8766632080078
y: 264.18505859375
z: -0.007891487330198288
","x: 141.13720703125
y: 258.0423889160156
z: -0.00949225202202797
","x: 144.4434051513672
y: 273.47454833984375
z: -0.015526626259088516
","x: 142.7251434326172
y: 258.4736633300781
z: -0.018976368010044098
","x: 143.46221923828125
y: 259.0565185546875
z: -0.016369640827178955
","x: 144.86805725097656
y: 262.2643737792969
z: -0.013512801378965378
","x: 148.00454711914062
y: 270.9111328125
z: -0.015456941910088062
","x: 145.4278106689453
y: 256.213623046875
z: -0.018713071942329407
","x: 145.2068634033203
y: 257.31219482421875
z: -0.013987629674375057
","x: 145.9512176513672
y: 261.5243835449219
z: -0.009788651950657368
","x: 150.8219451904297
y: 267.6136474609375
z: -0.014827711507678032
","x: 148.0926513671875
y: 254.41702270507812
z: -0.017260221764445305
","x: 147.56280517578125
y: 255.86961364746094
z: -0.012324364855885506
","x: 148.06907653808594
y: 259.9188232421875
z: -0.008424933068454266
","x: 153.14402770996094
y: 264.3648376464844
z: -0.01410828996449709
","x: 150.60171508789062
y: 254.31900024414062
z: -0.015827367082238197
","x: 150.27577209472656
y: 255.83326721191406
z: -0.013221469707787037
","x: 150.93759155273438
y: 259.47998046875
z: -0.01060720719397068
"
21,"x: 192.5238800048828
y: 233.8003692626953
z: -0.17184486985206604
visibility: 0.9999911785125732
","x: 195.79269409179688
y: 226.67364501953125
z: -0.15759752690792084
visibility: 0.9999744892120361
","x: 197.39430236816406
y: 226.74452209472656
z: -0.1576775461435318
visibility: 0.9999714493751526
","x: 199.01742553710938
y: 226.7064208984375
z: -0.1577220857143402
visibility: 0.9999698400497437
","x: 191.207275390625
y: 224.9110565185547
z: -0.15820536017417908
visibility: 0.9999729990959167
","x: 189.5614471435547
y: 223.79302978515625
z: -0.15818066895008087
visibility: 0.999968409538269
","x: 187.77955627441406
y: 222.57200622558594
z: -0.15811923146247864
visibility: 0.9999673366546631
","x: 200.41726684570312
y: 225.80194091796875
z: -0.049587227404117584
visibility: 0.9999493956565857
","x: 184.72335815429688
y: 220.7398681640625
z: -0.05367811769247055
visibility: 0.9999442100524902
","x: 193.85064697265625
y: 239.6296844482422
z: -0.12869983911514282
visibility: 0.9999868869781494
","x: 188.87628173828125
y: 238.11880493164062
z: -0.13006378710269928
visibility: 0.9999871253967285
","x: 208.50892639160156
y: 265.3416748046875
z: 0.018780816346406937
visibility: 0.9999850988388062
","x: 169.7008514404297
y: 253.18199157714844
z: 0.024766672402620316
visibility: 0.9999409914016724
","x: 213.9964141845703
y: 317.4537353515625
z: 0.029429668560624123
visibility: 0.9932374954223633
","x: 154.96905517578125
y: 289.0345458984375
z: -0.05255286023020744
visibility: 0.9791074991226196
","x: 232.4207305908203
y: 345.0498962402344
z: -0.10618644952774048
visibility: 0.9917675852775574
","x: 153.00717163085938
y: 290.49029541015625
z: -0.29529866576194763
visibility: 0.9878591299057007
","x: 238.23834228515625
y: 349.779296875
z: -0.13989700376987457
visibility: 0.9808487892150879
","x: 150.25291442871094
y: 280.6881103515625
z: -0.3428371548652649
visibility: 0.9754323363304138
","x: 242.25482177734375
y: 347.0799255371094
z: -0.17341391742229462
visibility: 0.9818871021270752
","x: 151.45326232910156
y: 277.8872985839844
z: -0.36213648319244385
visibility: 0.9765954613685608
","x: 238.5904541015625
y: 345.6224365234375
z: -0.12344376742839813
visibility: 0.9732658863067627
","x: 152.8687744140625
y: 276.9327697753906
z: -0.3099382817745209
visibility: 0.968741238117218
","x: 192.17742919921875
y: 375.124267578125
z: -0.0007840071921236813
visibility: 0.9997696280479431
","x: 170.7163543701172
y: 372.617431640625
z: 0.0007865802617743611
visibility: 0.9997565150260925
","x: 196.15847778320312
y: 456.23162841796875
z: -0.012864562682807446
visibility: 0.9981081485748291
","x: 170.03216552734375
y: 456.3058776855469
z: 0.011025814339518547
visibility: 0.997754693031311
","x: 211.91864013671875
y: 535.7901611328125
z: 0.10365273803472519
visibility: 0.9972482919692993
","x: 175.3351287841797
y: 529.8198852539062
z: 0.15938249230384827
visibility: 0.9973634481430054
","x: 210.06874084472656
y: 546.2946166992188
z: 0.10913356393575668
visibility: 0.9446726441383362
","x: 179.87515258789062
y: 540.1644287109375
z: 0.16734322905540466
visibility: 0.9499397277832031
","x: 218.60824584960938
y: 558.9177856445312
z: -0.0062336609698832035
visibility: 0.9951230883598328
","x: 166.88067626953125
y: 554.8015747070312
z: 0.040166620165109634
visibility: 0.9952037334442139
",,,,,,,,,,,,,,,,,,,,,,"x: 150.94764709472656
y: 281.42877197265625
z: 0.0
","x: 145.8677978515625
y: 278.8534851074219
z: -0.0023039807565510273
","x: 141.96730041503906
y: 271.76995849609375
z: -0.005602250341325998
","x: 140.8766632080078
y: 264.18505859375
z: -0.007891487330198288
","x: 141.13720703125
y: 258.0423889160156
z: -0.00949225202202797
","x: 144.4434051513672
y: 273.47454833984375
z: -0.015526626259088516
","x: 142.7251434326172
y: 258.4736633300781
z: -0.018976368010044098
","x: 143.46221923828125
y: 259.0565185546875
z: -0.016369640827178955
","x: 144.86805725097656
y: 262.2643737792969
z: -0.013512801378965378
","x: 148.00454711914062
y: 270.9111328125
z: -0.015456941910088062
","x: 145.4278106689453
y: 256.213623046875
z: -0.018713071942329407
","x: 145.2068634033203
y: 257.31219482421875
z: -0.013987629674375057
","x: 145.9512176513672
y: 261.5243835449219
z: -0.009788651950657368
","x: 150.8219451904297
y: 267.6136474609375
z: -0.014827711507678032
","x: 148.0926513671875
y: 254.41702270507812
z: -0.017260221764445305
","x: 147.56280517578125
y: 255.86961364746094
z: -0.012324364855885506
","x: 148.06907653808594
y: 259.9188232421875
z: -0.008424933068454266
","x: 153.14402770996094
y: 264.3648376464844
z: -0.01410828996449709
","x: 150.60171508789062
y: 254.31900024414062
z: -0.015827367082238197
","x: 150.27577209472656
y: 255.83326721191406
z: -0.013221469707787037
","x: 150.93759155273438
y: 259.47998046875
z: -0.01060720719397068
"
22,"x: 188.98133850097656
y: 231.48313903808594
z: -0.3086828291416168
visibility: 0.9999909996986389
","x: 192.46234130859375
y: 224.39599609375
z: -0.2925042510032654
visibility: 0.9999744892120361
","x: 193.96954345703125
y: 224.57000732421875
z: -0.29258352518081665
visibility: 0.9999715685844421
","x: 195.4966278076172
y: 224.68777465820312
z: -0.29264193773269653
visibility: 0.9999696016311646
","x: 187.9181365966797
y: 222.5767364501953
z: -0.2960085868835449
visibility: 0.9999730587005615
","x: 186.25543212890625
y: 221.50857543945312
z: -0.29601389169692993
visibility: 0.9999685287475586
","x: 184.54196166992188
y: 220.391845703125
z: -0.2959701418876648
visibility: 0.9999673366546631
","x: 196.84860229492188
y: 224.75665283203125
z: -0.16439618170261383
visibility: 0.9999513030052185
","x: 181.2576141357422
y: 219.45944213867188
z: -0.17949506640434265
visibility: 0.9999464154243469
","x: 190.33837890625
y: 237.9782257080078
z: -0.2575998902320862
visibility: 0.9999873042106628
","x: 185.23497009277344
y: 236.30453491210938
z: -0.26223552227020264
visibility: 0.9999876022338867
","x: 206.9767303466797
y: 264.6316833496094
z: -0.08010823279619217
visibility: 0.9999853372573853
","x: 163.74017333984375
y: 254.36378479003906
z: -0.07661725580692291
visibility: 0.9999439716339111
","x: 215.2255096435547
y: 314.17083740234375
z: -0.1372877061367035
visibility: 0.9921188950538635
","x: 146.74046325683594
y: 295.5124206542969
z: -0.14204099774360657
visibility: 0.9792779088020325
","x: 220.44436645507812
y: 337.0791320800781
z: -0.3870975077152252
visibility: 0.9893660545349121
","x: 145.52304077148438
y: 318.86285400390625
z: -0.3878853917121887
visibility: 0.9869377017021179
","x: 222.67945861816406
y: 344.71612548828125
z: -0.44486552476882935
visibility: 0.977429211139679
","x: 143.91229248046875
y: 324.44268798828125
z: -0.4406862258911133
visibility: 0.9741965532302856
","x: 221.22959899902344
y: 340.4451904296875
z: -0.4715932309627533
visibility: 0.9789508581161499
","x: 146.25025939941406
y: 319.98394775390625
z: -0.46309366822242737
visibility: 0.9755322933197021
","x: 219.25682067871094
y: 337.109130859375
z: -0.4042610228061676
visibility: 0.9695580005645752
","x: 147.4041290283203
y: 317.164794921875
z: -0.40233105421066284
visibility: 0.9673709869384766
","x: 193.32540893554688
y: 372.5335998535156
z: -0.004632466938346624
visibility: 0.9997462034225464
","x: 170.2715301513672
y: 371.7120056152344
z: 0.004668260458856821
visibility: 0.9997347593307495
","x: 195.1743621826172
y: 453.75244140625
z: -0.014852868393063545
visibility: 0.9980718493461609
","x: 169.7070770263672
y: 456.5446472167969
z: 0.020879283547401428
visibility: 0.9974422454833984
","x: 207.23638916015625
y: 532.9524536132812
z: 0.1430816948413849
visibility: 0.9972135424613953
","x: 175.4176788330078
y: 530.4871215820312
z: 0.1799677312374115
visibility: 0.9971871972084045
","x: 205.17420959472656
y: 543.564697265625
z: 0.15165331959724426
visibility: 0.9438335299491882
","x: 179.93572998046875
y: 540.1972045898438
z: 0.1879243552684784
visibility: 0.9500139355659485
","x: 212.7467041015625
y: 556.8320922851562
z: 0.017130320891737938
visibility: 0.9950889348983765
","x: 166.752685546875
y: 554.9425048828125
z: 0.057689011096954346
visibility: 0.9949296712875366
",,,,,,,,,,,,,,,,,,,,,,,,,,,,,,,,,,,,,,,,,,
23,"x: 184.82174682617188
y: 228.19232177734375
z: -0.3645644187927246
visibility: 0.9999909400939941
","x: 188.4381561279297
y: 220.97393798828125
z: -0.3509142994880676
visibility: 0.9999745488166809
","x: 190.15213012695312
y: 221.49136352539062
z: -0.350951224565506
visibility: 0.9999718070030212
","x: 191.6633758544922
y: 221.9920654296875
z: -0.3509994149208069
visibility: 0.999970018863678
","x: 184.16021728515625
y: 219.23406982421875
z: -0.34971076250076294
visibility: 0.9999726414680481
","x: 182.87599182128906
y: 218.41983032226562
z: -0.34972265362739563
visibility: 0.9999676942825317
","x: 181.43394470214844
y: 217.614013671875
z: -0.34969645738601685
visibility: 0.9999663829803467
","x: 194.71707153320312
y: 223.7850341796875
z: -0.23046986758708954
visibility: 0.9999531507492065
","x: 180.1961669921875
y: 218.0326690673828
z: -0.22339896857738495
visibility: 0.9999449849128723
","x: 187.0432586669922
y: 235.17742919921875
z: -0.31612148880958557
visibility: 0.999987781047821
","x: 181.7809600830078
y: 233.85589599609375
z: -0.3144078850746155
visibility: 0.9999878406524658
","x: 206.6575927734375
y: 262.5269470214844
z: -0.14365385472774506
visibility: 0.9999862313270569
","x: 163.2250518798828
y: 253.80697631835938
z: -0.09700863063335419
visibility: 0.9999456405639648
","x: 219.7230224609375
y: 313.3092956542969
z: -0.19351109862327576
visibility: 0.9927061796188354
","x: 143.31243896484375
y: 295.1833801269531
z: -0.07323352247476578
visibility: 0.9800627827644348
","x: 210.0341796875
y: 328.5527038574219
z: -0.398582398891449
visibility: 0.9899538159370422
","x: 129.23406982421875
y: 328.6241149902344
z: -0.20854787528514862
visibility: 0.986272931098938
","x: 205.59719848632812
y: 335.98712158203125
z: -0.4486202597618103
visibility: 0.9781114459037781
","x: 123.27428436279297
y: 338.0157470703125
z: -0.2426721602678299
visibility: 0.9723402261734009
","x: 203.79681396484375
y: 328.18170166015625
z: -0.46239081025123596
visibility: 0.9795023798942566
","x: 125.6492919921875
y: 336.89794921875
z: -0.2774824798107147
visibility: 0.9739584922790527
","x: 204.42855834960938
y: 325.45556640625
z: -0.4072640836238861
visibility: 0.9699952006340027
","x: 129.01278686523438
y: 333.8250427246094
z: -0.2256157100200653
visibility: 0.9659175872802734
","x: 194.23731994628906
y: 367.9676818847656
z: -0.011791730299592018
visibility: 0.9997098445892334
","x: 170.33299255371094
y: 368.7383728027344
z: 0.011782892979681492
visibility: 0.9997055530548096
","x: 198.31993103027344
y: 451.1900634765625
z: -0.014800941571593285
visibility: 0.9980602860450745
","x: 170.3547821044922
y: 455.6640319824219
z: 0.019755054265260696
visibility: 0.9972147941589355
","x: 208.88584899902344
y: 529.6625366210938
z: 0.14593154191970825
visibility: 0.9972392916679382
","x: 175.45643615722656
y: 530.692626953125
z: 0.17729438841342926
visibility: 0.9971257448196411
","x: 206.87701416015625
y: 541.2169189453125
z: 0.15421879291534424
visibility: 0.942559540271759
","x: 179.9713134765625
y: 540.2628173828125
z: 0.18497052788734436
visibility: 0.9501145482063293
","x: 212.39715576171875
y: 554.2677001953125
z: 0.018198084086179733
visibility: 0.9951096177101135
","x: 166.73878479003906
y: 555.029541015625
z: 0.05616527795791626
visibility: 0.9948183298110962
",,,,,,,,,,,,,,,,,,,,,,"x: 128.9383087158203
y: 323.31903076171875
z: 0.0
","x: 131.23663330078125
y: 330.529296875
z: -0.0020006082486361265
","x: 131.1244659423828
y: 338.6037902832031
z: -0.003380351234227419
","x: 129.50115966796875
y: 344.8184814453125
z: -0.004414804745465517
","x: 127.80804443359375
y: 349.3701171875
z: -0.005112114362418652
","x: 125.82687377929688
y: 341.0943298339844
z: -0.002598945749923587
","x: 124.24382781982422
y: 348.5364074707031
z: -0.003541226265951991
","x: 123.87904357910156
y: 352.4869384765625
z: -0.003405479248613119
","x: 123.4393081665039
y: 354.97991943359375
z: -0.00309627503156662
","x: 123.70700073242188
y: 338.7109680175781
z: -0.002415671478956938
","x: 121.75218963623047
y: 345.72216796875
z: -0.003126573981717229
","x: 120.57542419433594
y: 350.171142578125
z: -0.002764435950666666
","x: 119.45268249511719
y: 353.37506103515625
z: -0.002609603339806199
","x: 122.189208984375
y: 335.88037109375
z: -0.002414306625723839
","x: 119.87847137451172
y: 341.9400634765625
z: -0.003597474191337824
","x: 118.34282684326172
y: 345.8900451660156
z: -0.0038330149836838245
","x: 117.10478210449219
y: 348.6373291015625
z: -0.003963580820709467
","x: 121.17475128173828
y: 332.8375244140625
z: -0.002595162484794855
","x: 118.36795806884766
y: 336.19781494140625
z: -0.0038611372001469135
","x: 116.29804229736328
