uscmakers/ReverseChoreography/data/5_good_4_u_olivia_rodrigo.csv
,NOSE,LEFT_EYE_INNER,LEFT_EYE,LEFT_EYE_OUTER,RIGHT_EYE_INNER,RIGHT_EYE,RIGHT_EYE_OUTER,LEFT_EAR,RIGHT_EAR,MOUTH_LEFT,MOUTH_RIGHT,LEFT_SHOULDER,RIGHT_SHOULDER,LEFT_ELBOW,RIGHT_ELBOW,LEFT_WRIST,RIGHT_WRIST,LEFT_PINKY,RIGHT_PINKY,LEFT_INDEX,RIGHT_INDEX,LEFT_THUMB,RIGHT_THUMB,LEFT_HIP,RIGHT_HIP,LEFT_KNEE,RIGHT_KNEE,LEFT_ANKLE,RIGHT_ANKLE,LEFT_HEEL,RIGHT_HEEL,LEFT_FOOT_INDEX,RIGHT_FOOT_INDEX,WRIST2,THUMB_CPC2,THUMB_MCP2,THUMB_IP2,THUMB_TIP2,INDEX_FINGER_MCP2,INDEX_FINGER_PIP2,INDEX_FINGER_DIP2,INDEX_FINGER_TIP2,MIDDLE_FINGER_MCP2,MIDDLE_FINGER_PIP2,MIDDLE_FINGER_DIP2,MIDDLE_FINGER_TIP2,RING_FINGER_PIP2,RING_FINGER_DIP2,RING_FINGER_TIP2,RING_FINGER_MCP2,PINKY_MCP2,PINKY_PIP2,PINKY_DIP2,PINKY_TIP2,WRIST,THUMB_CPC,THUMB_MCP,THUMB_IP,THUMB_TIP,INDEX_FINGER_MCP,INDEX_FINGER_PIP,INDEX_FINGER_DIP,INDEX_FINGER_TIP,MIDDLE_FINGER_MCP,MIDDLE_FINGER_PIP,MIDDLE_FINGER_DIP,MIDDLE_FINGER_TIP,RING_FINGER_PIP,RING_FINGER_DIP,RING_FINGER_TIP,RING_FINGER_MCP,PINKY_MCP,PINKY_PIP,PINKY_DIP,PINKY_TIP
0,"x: 183.77484130859375
y: 249.80557250976562
z: -0.21238696575164795
visibility: 0.9999973773956299
","x: 186.8519287109375
y: 241.6572723388672
z: -0.20509573817253113
visibility: 0.9999915361404419
","x: 188.68930053710938
y: 241.025390625
z: -0.20517107844352722
visibility: 0.9999911785125732
","x: 190.4489288330078
y: 240.30386352539062
z: -0.20519784092903137
visibility: 0.9999892711639404
","x: 182.3866424560547
y: 241.5736083984375
z: -0.20074406266212463
visibility: 0.9999856948852539
","x: 181.15838623046875
y: 240.93666076660156
z: -0.2007337361574173
visibility: 0.9999822378158569
","x: 180.05181884765625
y: 240.18826293945312
z: -0.20073580741882324
visibility: 0.9999796152114868
","x: 193.74888610839844
y: 238.31509399414062
z: -0.10566999018192291
visibility: 0.9999910593032837
","x: 178.74546813964844
y: 238.23123168945312
z: -0.08344463258981705
visibility: 0.9999728202819824
","x: 187.08993530273438
y: 255.4071044921875
z: -0.1698526293039322
visibility: 0.9999980926513672
","x: 181.82083129882812
y: 254.60498046875
z: -0.16383050382137299
visibility: 0.9999963045120239
","x: 208.762939453125
y: 271.7706604003906
z: -0.03539944067597389
visibility: 0.9999985694885254
","x: 166.7812957763672
y: 272.8622131347656
z: 0.0023056664504110813
visibility: 0.9999886751174927
","x: 220.20205688476562
y: 319.5228271484375
z: -0.08533653616905212
visibility: 0.9854700565338135
","x: 157.24606323242188
y: 324.38421630859375
z: -0.05924264341592789
visibility: 0.9524903297424316
","x: 232.5406951904297
y: 343.8697814941406
z: -0.30829736590385437
visibility: 0.9920231103897095
","x: 145.01148986816406
y: 345.2355651855469
z: -0.30413922667503357
visibility: 0.9872790575027466
","x: 238.1526641845703
y: 352.6541748046875
z: -0.3540659248828888
visibility: 0.9889306426048279
","x: 140.90463256835938
y: 354.3022155761719
z: -0.35101163387298584
visibility: 0.9830734729766846
","x: 237.7316436767578
y: 350.6556396484375
z: -0.3854164779186249
visibility: 0.9905332326889038
","x: 141.78866577148438
y: 350.2745361328125
z: -0.3801727890968323
visibility: 0.9850656390190125
","x: 235.47222900390625
y: 347.7717590332031
z: -0.32552993297576904
visibility: 0.9864983558654785
","x: 144.0209503173828
y: 346.3875732421875
z: -0.3225192427635193
visibility: 0.9816015958786011
","x: 195.01666259765625
y: 392.6298828125
z: -0.017864251509308815
visibility: 0.9999514818191528
","x: 170.53897094726562
y: 391.138427734375
z: 0.01775108464062214
visibility: 0.9999017715454102
","x: 196.3463134765625
y: 479.2874450683594
z: -0.06101776286959648
visibility: 0.9988294243812561
","x: 169.34608459472656
y: 480.7691650390625
z: 0.009222929365932941
visibility: 0.9973581433296204
","x: 211.75039672851562
y: 546.5712890625
z: 0.15580107271671295
visibility: 0.9977401494979858
","x: 172.06448364257812
y: 544.8082275390625
z: 0.22984294593334198
visibility: 0.9967072606086731
","x: 212.62449645996094
y: 553.4912109375
z: 0.1713465303182602
visibility: 0.923127293586731
","x: 175.07594299316406
y: 553.8684692382812
z: 0.24665844440460205
visibility: 0.9552971124649048
","x: 210.91552734375
y: 572.18603515625
z: 0.05272659659385681
visibility: 0.996157705783844
","x: 165.9154052734375
y: 569.990234375
z: 0.13959957659244537
visibility: 0.9952757358551025
",,,,,,,,,,,,,,,,,,,,,,,,,,,,,,,,,,,,,,,,,,
1,"x: 183.8463134765625
y: 221.5036163330078
z: -0.35462817549705505
visibility: 0.9999945163726807
","x: 186.92079162597656
y: 211.0326385498047
z: -0.3497038781642914
visibility: 0.9999809265136719
","x: 188.7764434814453
y: 210.11798095703125
z: -0.3497200310230255
visibility: 0.9999819397926331
","x: 190.57872009277344
y: 209.2703857421875
z: -0.3497510254383087
visibility: 0.9999796748161316
","x: 182.49191284179688
y: 212.04107666015625
z: -0.341691792011261
visibility: 0.9999749064445496
","x: 181.29922485351562
y: 211.85690307617188
z: -0.3417201042175293
visibility: 0.9999709129333496
","x: 180.23109436035156
y: 211.7238006591797
z: -0.3417578339576721
visibility: 0.9999684691429138
","x: 194.39382934570312
y: 209.509521484375
z: -0.256259948015213
visibility: 0.999979555606842
","x: 180.19325256347656
y: 211.4277801513672
z: -0.21495649218559265
visibility: 0.9999490976333618
","x: 187.4609832763672
y: 228.4899139404297
z: -0.31386297941207886
visibility: 0.9999955296516418
","x: 182.14744567871094
y: 228.71304321289062
z: -0.3024039566516876
visibility: 0.9999927282333374
","x: 213.14144897460938
y: 252.2642822265625
z: -0.17373834550380707
visibility: 0.9999974966049194
","x: 166.89669799804688
y: 253.36080932617188
z: -0.0905015617609024
visibility: 0.999986469745636
","x: 219.49813842773438
y: 316.8892822265625
z: -0.15386760234832764
visibility: 0.9860904216766357
","x: 157.32614135742188
y: 315.412841796875
z: -0.03226759657263756
visibility: 0.9534128904342651
","x: 207.4477081298828
y: 352.55023193359375
z: -0.2773262858390808
visibility: 0.9898715019226074
","x: 149.28797912597656
y: 351.8844299316406
z: -0.13908550143241882
visibility: 0.9852522015571594
","x: 205.3458709716797
y: 367.39642333984375
z: -0.31480950117111206
visibility: 0.9843039512634277
","x: 146.83493041992188
y: 370.5945129394531
z: -0.1689847707748413
visibility: 0.9788057804107666
","x: 201.6964874267578
y: 362.74713134765625
z: -0.341644823551178
visibility: 0.9859502911567688
","x: 148.83253479003906
y: 368.19903564453125
z: -0.20678158104419708
visibility: 0.9810773730278015
","x: 201.41770935058594
y: 357.455322265625
z: -0.2887107729911804
visibility: 0.9800130724906921
","x: 150.37637329101562
y: 359.36346435546875
z: -0.15628470480442047
visibility: 0.9769622087478638
","x: 197.57176208496094
y: 372.58111572265625
z: -0.0281118955463171
visibility: 0.9999143481254578
","x: 172.24513244628906
y: 372.952392578125
z: 0.028038132935762405
visibility: 0.9998672604560852
","x: 200.97816467285156
y: 464.4781799316406
z: -0.04816429689526558
visibility: 0.9987627863883972
","x: 171.35813903808594
y: 466.76837158203125
z: 0.04788389056921005
visibility: 0.997165858745575
","x: 212.4424285888672
y: 547.0548095703125
z: 0.06915050745010376
visibility: 0.9978147149085999
","x: 172.07144165039062
y: 543.8482666015625
z: 0.19455558061599731
visibility: 0.9966570138931274
","x: 214.69981384277344
y: 558.5902099609375
z: 0.07025440782308578
visibility: 0.9214518666267395
","x: 175.28683471679688
y: 554.1297607421875
z: 0.20107217133045197
visibility: 0.9546960592269897
","x: 208.9775848388672
y: 573.4682006835938
z: -0.0828084796667099
visibility: 0.9961178302764893
","x: 165.67181396484375
y: 568.9759521484375
z: 0.07923338562250137
visibility: 0.9951403737068176
",,,,,,,,,,,,,,,,,,,,,,,,,,,,,,,,,,,,,,,,,,
2,"x: 190.5503387451172
y: 212.17568969726562
z: -0.36782610416412354
visibility: 0.9999943971633911
","x: 193.1245880126953
y: 202.14071655273438
z: -0.3619563579559326
visibility: 0.999979555606842
","x: 194.83200073242188
y: 201.2738037109375
z: -0.36194607615470886
visibility: 0.9999808669090271
","x: 196.52964782714844
y: 200.48251342773438
z: -0.3619568645954132
visibility: 0.9999788403511047
","x: 188.77500915527344
y: 202.53074645996094
z: -0.3571213483810425
visibility: 0.999972939491272
","x: 187.48526000976562
y: 202.06275939941406
z: -0.3571183681488037
visibility: 0.999968945980072
","x: 186.28094482421875
y: 201.64739990234375
z: -0.3571271598339081
visibility: 0.9999657273292542
","x: 200.388916015625
y: 200.399169921875
z: -0.2607450783252716
visibility: 0.9999775886535645
","x: 186.2012481689453
y: 201.42605590820312
z: -0.23585215210914612
visibility: 0.9999401569366455
","x: 194.2189178466797
y: 218.18515014648438
z: -0.3237003982067108
visibility: 0.9999952912330627
","x: 189.51470947265625
y: 218.41116333007812
z: -0.31692880392074585
visibility: 0.9999920725822449
","x: 218.99600219726562
y: 243.7130889892578
z: -0.16577453911304474
visibility: 0.9999975562095642
","x: 172.64187622070312
y: 244.6963653564453
z: -0.10811412334442139
visibility: 0.9999861121177673
","x: 222.41455078125
y: 315.8117370605469
z: -0.1351735144853592
visibility: 0.9871512651443481
","x: 162.9566192626953
y: 310.9249572753906
z: -0.026183277368545532
visibility: 0.9536133408546448
","x: 208.8451385498047
y: 374.3417663574219
z: -0.17986056208610535
visibility: 0.9904078245162964
","x: 152.3925018310547
y: 361.2120056152344
z: -0.11222764104604721
visibility: 0.9832127094268799
","x: 209.60227966308594
y: 394.3960266113281
z: -0.20441551506519318
visibility: 0.9847187995910645
","x: 148.09796142578125
y: 381.8309020996094
z: -0.1365940421819687
visibility: 0.9749031662940979
","x: 215.15867614746094
y: 393.38909912109375
z: -0.24509212374687195
visibility: 0.9863319993019104
","x: 149.67564392089844
y: 380.864501953125
z: -0.18271297216415405
visibility: 0.9776248335838318
","x: 214.19186401367188
y: 388.4390563964844
z: -0.1958843320608139
visibility: 0.9805730581283569
","x: 151.7275848388672
y: 373.82281494140625
z: -0.1327320635318756
visibility: 0.9730372428894043
","x: 207.0850067138672
y: 369.75341796875
z: -0.025981027632951736
visibility: 0.9999139904975891
","x: 180.4095916748047
y: 367.457763671875
z: 0.02589171752333641
visibility: 0.9998640418052673
","x: 210.58255004882812
y: 464.190673828125
z: -0.034216463565826416
visibility: 0.9987532496452332
","x: 175.7366943359375
y: 461.4984130859375
z: 0.045712389051914215
visibility: 0.9971795678138733
","x: 212.8444061279297
y: 548.6608276367188
z: 0.10663285106420517
visibility: 0.99789959192276
","x: 172.62826538085938
y: 541.69287109375
z: 0.20632700622081757
visibility: 0.9967470169067383
","x: 214.6670379638672
y: 561.5225830078125
z: 0.1127244383096695
visibility: 0.9221851825714111
","x: 175.52806091308594
y: 551.7418212890625
z: 0.20918507874011993
visibility: 0.9542883634567261
","x: 209.00306701660156
y: 575.4979858398438
z: -0.03745482116937637
visibility: 0.9962130188941956
","x: 165.66189575195312
y: 567.245849609375
z: 0.10296068340539932
visibility: 0.9952839016914368
",,,,,,,,,,,,,,,,,,,,,,,,,,,,,,,,,,,,,,,,,,
3,"x: 194.38182067871094
y: 211.61285400390625
z: -0.3458540439605713
visibility: 0.9999944567680359
","x: 196.5928192138672
y: 201.46340942382812
z: -0.33966973423957825
visibility: 0.9999790787696838
","x: 198.26898193359375
y: 200.58535766601562
z: -0.3397009074687958
visibility: 0.9999806880950928
","x: 200.03245544433594
y: 199.74966430664062
z: -0.3397369086742401
visibility: 0.9999788999557495
","x: 192.41168212890625
y: 202.1896514892578
z: -0.33102327585220337
visibility: 0.9999725222587585
","x: 191.2283477783203
y: 201.88174438476562
z: -0.33100366592407227
visibility: 0.9999683499336243
","x: 190.1617431640625
y: 201.55731201171875
z: -0.33101144433021545
visibility: 0.9999643564224243
","x: 204.50811767578125
y: 199.73846435546875
z: -0.24620500206947327
visibility: 0.9999777674674988
","x: 191.5782470703125
y: 200.70941162109375
z: -0.203142449259758
visibility: 0.9999358654022217
","x: 198.54214477539062
y: 217.56381225585938
z: -0.30588477849960327
visibility: 0.999995231628418
","x: 194.13330078125
y: 218.29168701171875
z: -0.2936956286430359
visibility: 0.9999914765357971
","x: 224.5172882080078
y: 245.39056396484375
z: -0.17201799154281616
visibility: 0.9999975562095642
","x: 179.3438262939453
y: 245.87274169921875
z: -0.07512075453996658
visibility: 0.9999834895133972
","x: 234.8180389404297
y: 315.8526306152344
z: -0.12244536727666855
visibility: 0.9882970452308655
","x: 167.27334594726562
y: 310.12762451171875
z: 0.0039603919722139835
visibility: 0.94905024766922
","x: 242.09352111816406
y: 378.38848876953125
z: -0.1964302361011505
visibility: 0.9910479187965393
","x: 153.7200164794922
y: 360.9388732910156
z: -0.09127619862556458
visibility: 0.9814140200614929
","x: 243.25619506835938
y: 398.3376770019531
z: -0.22280073165893555
visibility: 0.9854289293289185
","x: 148.14918518066406
y: 379.1535949707031
z: -0.1180054098367691
visibility: 0.9715380668640137
","x: 240.85748291015625
y: 398.04632568359375
z: -0.26558953523635864
visibility: 0.986972451210022
","x: 149.16030883789062
y: 377.75506591796875
z: -0.16372784972190857
visibility: 0.9746442437171936
","x: 239.5873565673828
y: 393.4181213378906
z: -0.21359765529632568
visibility: 0.9815531969070435
","x: 151.70596313476562
y: 370.8062438964844
z: -0.11313365399837494
visibility: 0.9696714282035828
","x: 211.2600860595703
y: 373.25616455078125
z: -0.03413430601358414
visibility: 0.9999129176139832
","x: 185.13751220703125
y: 371.3619384765625
z: 0.03406781703233719
visibility: 0.9998610615730286
","x: 213.4134521484375
y: 466.80291748046875
z: -0.050240326672792435
visibility: 0.9987701177597046
","x: 177.70179748535156
y: 463.66156005859375
z: 0.07610885798931122
visibility: 0.9972718954086304
","x: 213.37600708007812
y: 549.4745483398438
z: 0.09254861623048782
visibility: 0.997989296913147
","x: 180.38853454589844
y: 539.7091064453125
z: 0.28794795274734497
visibility: 0.9969021677970886
","x: 214.96803283691406
y: 562.9417724609375
z: 0.09763900935649872
visibility: 0.9244145750999451
","x: 186.41348266601562
y: 550.2025146484375
z: 0.3005945086479187
visibility: 0.9568086862564087
","x: 209.0953826904297
y: 576.1322631835938
z: -0.051468171179294586
visibility: 0.9963201284408569
","x: 166.56842041015625
y: 566.5604248046875
z: 0.19223558902740479
visibility: 0.9955148696899414
",,,,,,,,,,,,,,,,,,,,,,,,,,,,,,,,,,,,,,,,,,
4,"x: 198.3805389404297
y: 216.14779663085938
z: -0.3132742643356323
visibility: 0.9999937415122986
","x: 201.03794860839844
y: 206.5812530517578
z: -0.30539387464523315
visibility: 0.9999741315841675
","x: 202.6080780029297
y: 205.8572540283203
z: -0.30544060468673706
visibility: 0.999977171421051
","x: 204.18296813964844
y: 205.16595458984375
z: -0.30544963479042053
visibility: 0.9999755620956421
","x: 197.3450469970703
y: 207.2421875
z: -0.32058510184288025
visibility: 0.9999686479568481
","x: 196.40518188476562
y: 206.9837188720703
z: -0.3204934895038605
visibility: 0.9999641180038452
","x: 195.52622985839844
y: 206.69918823242188
z: -0.3205629885196686
visibility: 0.9999586343765259
","x: 209.1254425048828
y: 206.28761291503906
z: -0.20488671958446503
visibility: 0.9999744296073914
","x: 197.625
y: 206.90377807617188
z: -0.16508124768733978
visibility: 0.9999200701713562
","x: 202.4073944091797
y: 222.74095153808594
z: -0.26306626200675964
visibility: 0.9999936819076538
","x: 198.1134490966797
y: 222.6453857421875
z: -0.26175656914711
visibility: 0.9999870657920837
","x: 227.79803466796875
y: 249.99269104003906
z: -0.15670588612556458
visibility: 0.9999973773956299
","x: 185.8612823486328
y: 251.15045166015625
z: -0.026368534192442894
visibility: 0.9999788999557495
","x: 243.30767822265625
y: 315.9486083984375
z: -0.13395175337791443
visibility: 0.9893845319747925
","x: 172.83572387695312
y: 311.26776123046875
z: 0.04479852691292763
visibility: 0.9452183842658997
","x: 257.22491455078125
y: 372.2060546875
z: -0.21491292119026184
visibility: 0.9916532635688782
","x: 154.29859924316406
y: 360.2960510253906
z: -0.057961829006671906
visibility: 0.9809750318527222
","x: 261.6181640625
y: 389.5566101074219
z: -0.2419707030057907
visibility: 0.9860806465148926
","x: 147.61090087890625
y: 376.179931640625
z: -0.08340908586978912
visibility: 0.97007817029953
","x: 258.5473937988281
y: 389.5604248046875
z: -0.28117772936820984
visibility: 0.9875698089599609
","x: 148.27548217773438
y: 373.99761962890625
z: -0.12686625123023987
visibility: 0.9733710885047913
","x: 256.64776611328125
y: 385.01605224609375
z: -0.2314591109752655
visibility: 0.9824663996696472
","x: 150.7771453857422
y: 367.5916748046875
z: -0.08006366342306137
visibility: 0.9682911038398743
","x: 214.53732299804688
y: 375.8253479003906
z: -0.054831136018037796
visibility: 0.9999056458473206
","x: 190.08998107910156
y: 374.24884033203125
z: 0.05480826646089554
visibility: 0.9998498558998108
","x: 213.45675659179688
y: 465.1050109863281
z: -0.11493329703807831
visibility: 0.9987277984619141
","x: 179.66036987304688
y: 462.3280029296875
z: 0.0652635470032692
visibility: 0.9970342516899109
","x: 213.84352111816406
y: 549.9033203125
z: -0.04309326410293579
visibility: 0.9980282187461853
","x: 189.78123474121094
y: 539.985595703125
z: 0.23284979164600372
visibility: 0.9967255592346191
","x: 215.81158447265625
y: 563.9625244140625
z: -0.045247893780469894
visibility: 0.9265856146812439
","x: 195.81158447265625
y: 550.8177490234375
z: 0.23785528540611267
visibility: 0.9582102298736572
","x: 208.4940948486328
y: 575.96533203125
z: -0.18903948366641998
visibility: 0.9963412284851074
","x: 168.21844482421875
y: 564.32568359375
z: 0.15437687933444977
visibility: 0.9953432083129883
",,,,,,,,,,,,,,,,,,,,,,,,,,,,,,,,,,,,,,,,,,
5,"x: 201.18324279785156
y: 214.75277709960938
z: -0.3206234574317932
visibility: 0.9999939203262329
","x: 203.75802612304688
y: 205.33143615722656
z: -0.3144477605819702
visibility: 0.9999741911888123
","x: 205.4168243408203
y: 204.45220947265625
z: -0.3144869804382324
visibility: 0.9999774694442749
","x: 207.06100463867188
y: 203.67819213867188
z: -0.31450048089027405
visibility: 0.9999760389328003
","x: 199.2806854248047
y: 206.41510009765625
z: -0.3062319755554199
visibility: 0.9999681115150452
","x: 198.0860595703125
y: 206.1436767578125
z: -0.3061956763267517
visibility: 0.9999633431434631
","x: 197.01611328125
y: 205.76768493652344
z: -0.3061797618865967
visibility: 0.9999574422836304
","x: 211.22653198242188
y: 204.0998077392578
z: -0.22294478118419647
visibility: 0.999975323677063
","x: 198.07598876953125
y: 205.85394287109375
z: -0.16703903675079346
visibility: 0.9999181628227234
","x: 205.3563690185547
y: 220.59561157226562
z: -0.2808626592159271
visibility: 0.9999938011169434
","x: 200.28823852539062
y: 221.156005859375
z: -0.26592931151390076
visibility: 0.9999866485595703
","x: 231.24221801757812
y: 248.06227111816406
z: -0.15613935887813568
visibility: 0.9999975562095642
","x: 187.5636444091797
y: 251.55870056152344
z: -0.0302661694586277
visibility: 0.9999759793281555
","x: 248.3965606689453
y: 308.9926452636719
z: -0.1362799108028412
visibility: 0.9903790354728699
","x: 174.44552612304688
y: 312.76409912109375
z: 0.04162526875734329
visibility: 0.9411411881446838
","x: 256.1271667480469
y: 369.82366943359375
z: -0.23093068599700928
visibility: 0.9923418760299683
","x: 154.88470458984375
y: 360.1806640625
z: -0.07550261914730072
visibility: 0.9803816676139832
","x: 257.43841552734375
y: 388.4100341796875
z: -0.2680630683898926
visibility: 0.9870157241821289
","x: 148.43386840820312
y: 373.6539306640625
z: -0.10387933254241943
visibility: 0.9686045050621033
","x: 254.03062438964844
y: 386.7536926269531
z: -0.3040521740913391
visibility: 0.9884159564971924
","x: 148.6520233154297
y: 371.1512451171875
z: -0.15002533793449402
visibility: 0.9720936417579651
","x: 252.6001739501953
y: 379.86395263671875
z: -0.24932757019996643
visibility: 0.9836515784263611
","x: 150.93893432617188
y: 366.1096496582031
z: -0.09828618168830872
visibility: 0.9669790267944336
","x: 215.29161071777344
y: 376.42431640625
z: -0.046292468905448914
visibility: 0.9999018311500549
","x: 189.79571533203125
y: 372.6976013183594
z: 0.04623112455010414
visibility: 0.9998422265052795
","x: 215.30374145507812
y: 465.5191345214844
z: -0.10061094909906387
visibility: 0.9986344575881958
","x: 178.21168518066406
y: 456.9609069824219
z: -0.048110559582710266
visibility: 0.9971948266029358
","x: 213.98675537109375
y: 549.822265625
z: 0.054241687059402466
visibility: 0.9980682730674744
","x: 188.61196899414062
y: 537.63916015625
z: 0.14904636144638062
visibility: 0.9968603253364563
","x: 215.7007598876953
y: 563.0128173828125
z: 0.0609310157597065
visibility: 0.9270451664924622
","x: 194.7376251220703
y: 547.8785400390625
z: 0.16114217042922974
visibility: 0.9605737924575806
","x: 208.6029510498047
y: 577.7219848632812
z: -0.08090482652187347
visibility: 0.996346116065979
","x: 170.4505157470703
y: 564.4796142578125
z: 0.0566779300570488
visibility: 0.9955311417579651
",,,,,,,,,,,,,,,,,,,,,,,,,,,,,,,,,,,,,,,,,,
6,"x: 200.58242797851562
y: 210.47483825683594
z: -0.30392420291900635
visibility: 0.9999932050704956
","x: 203.1892547607422
y: 200.9062957763672
z: -0.2981123924255371
visibility: 0.9999710321426392
","x: 204.96388244628906
y: 199.91513061523438
z: -0.29816192388534546
visibility: 0.99997478723526
","x: 206.77381896972656
y: 198.9268798828125
z: -0.2981894612312317
visibility: 0.999973714351654
","x: 198.97439575195312
y: 201.60098266601562
z: -0.2896542549133301
visibility: 0.9999637007713318
","x: 197.9320526123047
y: 201.1068572998047
z: -0.289631187915802
visibility: 0.9999580383300781
","x: 196.97471618652344
y: 200.531494140625
z: -0.2896151840686798
visibility: 0.9999508857727051
","x: 211.31118774414062
y: 197.0018768310547
z: -0.20588934421539307
visibility: 0.9999735951423645
","x: 198.22235107421875
y: 199.1566619873047
z: -0.15854115784168243
visibility: 0.9998984932899475
","x: 204.94247436523438
y: 214.93333435058594
z: -0.2640018165111542
visibility: 0.9999929666519165
","x: 199.4640655517578
y: 216.05404663085938
z: -0.2510698437690735
visibility: 0.9999839067459106
","x: 231.50357055664062
y: 237.39671325683594
z: -0.13455305993556976
visibility: 0.9999974966049194
","x: 187.27459716796875
y: 246.177978515625
z: -0.028286030516028404
visibility: 0.9999712109565735
","x: 246.09266662597656
y: 299.1750183105469
z: -0.09474961459636688
visibility: 0.9912435412406921
","x: 175.61891174316406
y: 309.6712341308594
z: 0.05705571919679642
visibility: 0.9388980865478516
","x: 253.65440368652344
y: 364.0343933105469
z: -0.18445080518722534
visibility: 0.992935299873352
","x: 157.31472778320312
y: 359.5013122558594
z: -0.04908951371908188
visibility: 0.9797456860542297
","x: 255.6754913330078
y: 387.157470703125
z: -0.21388216316699982
visibility: 0.9877748489379883
","x: 151.46990966796875
y: 372.416748046875
z: -0.07526840269565582
visibility: 0.9672769904136658
","x: 251.76400756835938
y: 384.8083801269531
z: -0.2526182234287262
visibility: 0.9890940189361572
","x: 151.08111572265625
y: 369.8699645996094
z: -0.12465211004018784
visibility: 0.9709901213645935
","x: 250.2445831298828
y: 376.4963073730469
z: -0.20072071254253387
visibility: 0.9846187829971313
","x: 152.88180541992188
y: 364.4749755859375
z: -0.07236894965171814
visibility: 0.9657407402992249
","x: 215.93040466308594
y: 371.1660461425781
z: -0.044843073934316635
visibility: 0.999872624874115
","x: 190.3993377685547
y: 366.7403869628906
z: 0.04461565986275673
visibility: 0.9998020529747009
","x: 217.29347229003906
y: 463.82830810546875
z: -0.06625601649284363
visibility: 0.9985526204109192
","x: 181.09625244140625
y: 457.88720703125
z: -0.01088256761431694
visibility: 0.9972042441368103
","x: 214.6058807373047
y: 549.9464111328125
z: 0.06935208290815353
visibility: 0.9979665875434875
","x: 185.18212890625
y: 546.7462158203125
z: 0.1247401237487793
visibility: 0.9969011545181274
","x: 215.55453491210938
y: 562.6038818359375
z: 0.07355742156505585
visibility: 0.9248561859130859
","x: 193.14967346191406
y: 559.3880004882812
z: 0.12771476805210114
visibility: 0.9604983329772949
","x: 208.67881774902344
y: 577.9856567382812
z: -0.06942136585712433
visibility: 0.9960864186286926
","x: 170.29159545898438
y: 570.80322265625
z: 0.002327657537534833
visibility: 0.9955137968063354
",,,,,,,,,,,,,,,,,,,,,,,,,,,,,,,,,,,,,,,,,,
7,"x: 202.20611572265625
y: 207.4840545654297
z: -0.32797881960868835
visibility: 0.9999927282333374
","x: 204.84494018554688
y: 197.4337158203125
z: -0.3207162916660309
visibility: 0.9999690055847168
","x: 206.6185302734375
y: 196.64939880371094
z: -0.3207775950431824
visibility: 0.9999732375144958
","x: 208.3642578125
y: 195.90875244140625
z: -0.32081320881843567
visibility: 0.9999724626541138
","x: 199.85061645507812
y: 198.3242645263672
z: -0.3150726854801178
visibility: 0.9999603033065796
","x: 198.49095153808594
y: 198.059814453125
z: -0.315044105052948
visibility: 0.9999536275863647
","x: 197.3028564453125
y: 197.70651245117188
z: -0.315017431974411
visibility: 0.999944806098938
","x: 211.81594848632812
y: 195.1883087158203
z: -0.21680724620819092
visibility: 0.9999730587005615
","x: 196.82565307617188
y: 197.67391967773438
z: -0.18595293164253235
visibility: 0.9998828172683716
","x: 206.05303955078125
y: 212.8824005126953
z: -0.2831183075904846
visibility: 0.9999924302101135
","x: 199.67111206054688
y: 214.1030731201172
z: -0.274632066488266
visibility: 0.9999823570251465
","x: 229.7208251953125
y: 237.64016723632812
z: -0.1319698542356491
visibility: 0.9999974370002747
","x: 185.00595092773438
y: 243.78048706054688
z: -0.05075817555189133
visibility: 0.999966025352478
","x: 244.79232788085938
y: 299.6380615234375
z: -0.09076552838087082
visibility: 0.9919796586036682
","x: 174.321044921875
y: 308.92694091796875
z: 0.03681212663650513
visibility: 0.9361540675163269
","x: 249.57212829589844
y: 361.962646484375
z: -0.20406734943389893
visibility: 0.9933500289916992
","x: 158.85037231445312
y: 359.23101806640625
z: -0.07549838721752167
visibility: 0.9770785570144653
","x: 251.93252563476562
y: 382.835693359375
z: -0.2355731725692749
visibility: 0.9881576299667358
","x: 153.45907592773438
y: 372.0418701171875
z: -0.10410238802433014
visibility: 0.9632362723350525
","x: 248.59164428710938
y: 380.283935546875
z: -0.27615511417388916
visibility: 0.9894253611564636
","x: 152.92576599121094
y: 369.396240234375
z: -0.15254341065883636
visibility: 0.9675202369689941
","x: 246.9798583984375
y: 373.9544677734375
z: -0.22125014662742615
visibility: 0.9851264953613281
","x: 154.6971435546875
y: 363.3067321777344
z: -0.09837985783815384
visibility: 0.9618064165115356
","x: 214.9031982421875
y: 368.87139892578125
z: -0.031857870519161224
visibility: 0.9998351335525513
","x: 188.7936553955078
y: 366.890869140625
z: 0.03183833882212639
visibility: 0.9997508525848389
","x: 217.84133911132812
y: 462.1356506347656
z: -0.047212064266204834
visibility: 0.9983785152435303
","x: 183.3481903076172
y: 459.9774475097656
z: -0.0017702901968732476
visibility: 0.9971041679382324
","x: 215.3263397216797
y: 549.8578491210938
z: 0.09633464366197586
visibility: 0.9977107644081116
","x: 183.59042358398438
y: 553.425048828125
z: 0.12623681128025055
visibility: 0.9968568086624146
","x: 215.4807586669922
y: 562.3734741210938
z: 0.1000533252954483
visibility: 0.9196203351020813
","x: 190.5507354736328
y: 565.2874145507812
z: 0.1295558512210846
visibility: 0.9591817259788513
","x: 209.0938262939453
y: 578.155517578125
z: -0.05961054563522339
visibility: 0.9956615567207336
","x: 171.12542724609375
y: 580.1373291015625
z: -0.006235503125935793
visibility: 0.9953689575195312
",,,,,,,,,,,,,,,,,,,,,,,,,,,,,,,,,,,,,,,,,,
8,"x: 200.2332000732422
y: 208.1792449951172
z: -0.31393811106681824
visibility: 0.9999921917915344
","x: 203.09872436523438
y: 198.90081787109375
z: -0.30777305364608765
visibility: 0.9999672174453735
","x: 204.93612670898438
y: 198.1393585205078
z: -0.3078373670578003
visibility: 0.9999712109565735
","x: 206.72840881347656
y: 197.3739471435547
z: -0.30787986516952515
visibility: 0.9999707937240601
","x: 198.3585662841797
y: 199.2563018798828
z: -0.30074378848075867
visibility: 0.9999578595161438
","x: 197.03135681152344
y: 198.66705322265625
z: -0.3007212281227112
visibility: 0.9999499320983887
","x: 195.74127197265625
y: 198.0282745361328
z: -0.3006957769393921
visibility: 0.9999409317970276
","x: 210.34759521484375
y: 195.76170349121094
z: -0.20689037442207336
visibility: 0.9999724626541138
","x: 195.3589324951172
y: 196.47677612304688
z: -0.17132356762886047
visibility: 0.9998735189437866
","x: 203.81594848632812
y: 213.41732788085938
z: -0.2702115774154663
visibility: 0.9999921917915344
","x: 197.9374237060547
y: 213.78619384765625
z: -0.26019996404647827
visibility: 0.999981701374054
","x: 228.15431213378906
y: 236.05592346191406
z: -0.12845537066459656
visibility: 0.9999974966049194
","x: 183.1929168701172
y: 239.49435424804688
z: -0.03585396707057953
visibility: 0.9999645352363586
","x: 246.04176330566406
y: 292.10980224609375
z: -0.07824141532182693
visibility: 0.9927052855491638
","x: 172.87481689453125
y: 305.08612060546875
z: 0.060003966093063354
visibility: 0.9362572431564331
","x: 247.58668518066406
y: 347.3750305175781
z: -0.1978641152381897
visibility: 0.9938197731971741
","x: 155.72645568847656
y: 352.1811218261719
z: -0.06143547222018242
visibility: 0.9766076803207397
","x: 249.67764282226562
y: 368.1834411621094
z: -0.23300881683826447
visibility: 0.9887087941169739
","x: 149.40611267089844
y: 368.19140625
z: -0.09295554459095001
visibility: 0.9622535109519958
","x: 243.9974822998047
y: 365.2473449707031
z: -0.2715242803096771
visibility: 0.989896833896637
","x: 150.2109832763672
y: 366.5985107421875
z: -0.14223460853099823
visibility: 0.9666905999183655
","x: 242.69354248046875
y: 359.2139892578125
z: -0.21372683346271515
visibility: 0.9857704043388367
","x: 152.31829833984375
y: 360.28387451171875
z: -0.08473175764083862
visibility: 0.9608119130134583
","x: 212.8975067138672
y: 369.13446044921875
z: -0.030293619260191917
visibility: 0.9998012781143188
","x: 187.06776428222656
y: 367.027099609375
z: 0.030331378802657127
visibility: 0.9997097253799438
","x: 216.0704345703125
y: 463.2850341796875
z: -0.044653333723545074
visibility: 0.9982458353042603
","x: 182.38043212890625
y: 460.1467590332031
z: 0.003146007191389799
visibility: 0.9969481825828552
","x: 215.65060424804688
y: 549.8104248046875
z: 0.106545589864254
visibility: 0.9973961114883423
","x: 182.78880310058594
y: 554.6353759765625
z: 0.14314843714237213
visibility: 0.9967681765556335
","x: 215.5250244140625
y: 562.0628662109375
z: 0.11192649602890015
visibility: 0.915963888168335
","x: 189.25341796875
y: 565.9791259765625
z: 0.14745578169822693
visibility: 0.9584367275238037
","x: 209.525634765625
y: 577.9844970703125
z: -0.03953256458044052
visibility: 0.9950680732727051
","x: 171.1498260498047
y: 582.543212890625
z: 0.013258619233965874
visibility: 0.9951064586639404
",,,,,,,,,,,,,,,,,,,,,,,,,,,,,,,,,,,,,,,,,,
9,"x: 198.9686279296875
y: 204.72512817382812
z: -0.30859503149986267
visibility: 0.9999920725822449
","x: 201.8378143310547
y: 195.7886962890625
z: -0.30125024914741516
visibility: 0.999965488910675
","x: 203.6505126953125
y: 195.44607543945312
z: -0.3013102114200592
visibility: 0.9999697804450989
","x: 205.44122314453125
y: 195.1149139404297
z: -0.3013487160205841
visibility: 0.9999690055847168
","x: 197.19017028808594
y: 195.2586212158203
z: -0.2947312593460083
visibility: 0.9999554753303528
","x: 195.8843994140625
y: 194.4791259765625
z: -0.2947220206260681
visibility: 0.999947726726532
","x: 194.63735961914062
y: 193.72137451171875
z: -0.2947153151035309
visibility: 0.9999384880065918
","x: 209.1199951171875
y: 195.65509033203125
z: -0.20534007251262665
visibility: 0.9999704360961914
","x: 194.473388671875
y: 194.60655212402344
z: -0.16860291361808777
visibility: 0.9998666048049927
","x: 202.60508728027344
y: 210.53976440429688
z: -0.26532524824142456
visibility: 0.9999915957450867
","x: 196.92161560058594
y: 210.40504455566406
z: -0.25687989592552185
visibility: 0.9999807476997375
","x: 227.1829833984375
y: 239.06019592285156
z: -0.1182941347360611
visibility: 0.999997079372406
","x: 181.21055603027344
y: 240.948974609375
z: -0.053827278316020966
visibility: 0.9999638199806213
","x: 240.26853942871094
y: 297.5971374511719
z: -0.06477482616901398
visibility: 0.9931526780128479
","x: 167.943603515625
y: 305.09600830078125
z: 0.02584465965628624
visibility: 0.9380226135253906
","x: 248.50927734375
y: 352.791259765625
z: -0.17473028600215912
visibility: 0.9939072728157043
","x: 144.4864501953125
y: 349.506591796875
z: -0.09787599742412567
visibility: 0.9768090844154358
","x: 253.74647521972656
y: 372.26373291015625
z: -0.2034260481595993
visibility: 0.9884808659553528
","x: 137.57533264160156
y: 364.3870544433594
z: -0.12957540154457092
visibility: 0.9623498320579529
","x: 251.92196655273438
y: 371.3708190917969
z: -0.2459350824356079
visibility: 0.9897351861000061
","x: 137.1357879638672
y: 362.51470947265625
z: -0.1751469522714615
visibility: 0.9668750762939453
","x: 249.47547912597656
y: 365.2564697265625
z: -0.19384917616844177
visibility: 0.9858410954475403
","x: 139.91900634765625
y: 357.3431396484375
z: -0.12010134756565094
visibility: 0.9611750841140747
","x: 209.7578887939453
y: 370.1584167480469
z: -0.02743491530418396
visibility: 0.999781608581543
","x: 183.3182373046875
y: 368.49603271484375
z: 0.027407482266426086
visibility: 0.9996989369392395
","x: 209.33303833007812
y: 470.15081787109375
z: -0.04578930884599686
visibility: 0.9980872869491577
","x: 181.94041442871094
y: 464.1307373046875
z: 0.005575437564402819
visibility: 0.9967882037162781
","x: 215.44639587402344
y: 549.78466796875
z: 0.15655681490898132
visibility: 0.9971209764480591
","x: 182.36769104003906
y: 556.8385009765625
z: 0.15384098887443542
visibility: 0.9966700077056885
","x: 215.4930419921875
y: 561.9573974609375
z: 0.16930262744426727
visibility: 0.9115983843803406
","x: 189.1416015625
y: 567.7369384765625
z: 0.1571538746356964
visibility: 0.9568666815757751
","x: 209.53468322753906
y: 578.2481689453125
z: 0.03680797666311264
visibility: 0.9946883916854858
","x: 171.6819305419922
y: 586.2769775390625
z: 0.0460396483540535
visibility: 0.9949234127998352
",,,,,,,,,,,,,,,,,,,,,,,,,,,,,,,,,,,,,,,,,,
10,"x: 197.42234802246094
y: 206.83106994628906
z: -0.33545583486557007
visibility: 0.9999924302101135
","x: 200.1508026123047
y: 197.44056701660156
z: -0.3256276845932007
visibility: 0.9999661445617676
","x: 201.9739990234375
y: 196.40939331054688
z: -0.3256763219833374
visibility: 0.9999703168869019
","x: 203.69544982910156
y: 195.40158081054688
z: -0.3256992697715759
visibility: 0.9999692440032959
","x: 195.33457946777344
y: 198.24740600585938
z: -0.3217652440071106
visibility: 0.9999564290046692
","x: 193.66542053222656
y: 197.69400024414062
z: -0.3217715620994568
visibility: 0.9999489188194275
","x: 191.9193878173828
y: 197.0771942138672
z: -0.32176658511161804
visibility: 0.9999399781227112
","x: 206.9037322998047
y: 195.9701385498047
z: -0.21801745891571045
visibility: 0.9999706745147705
","x: 190.27960205078125
y: 197.4868621826172
z: -0.19586920738220215
visibility: 0.9998704791069031
","x: 200.17971801757812
y: 212.1998748779297
z: -0.2896007299423218
visibility: 0.9999916553497314
","x: 194.7602081298828
y: 213.0778350830078
z: -0.28387534618377686
visibility: 0.9999813437461853
","x: 222.40882873535156
y: 242.83822631835938
z: -0.1356639415025711
visibility: 0.999997079372406
","x: 175.09547424316406
y: 242.84776306152344
z: -0.07640400528907776
visibility: 0.9999653697013855
","x: 233.33816528320312
y: 304.7558288574219
z: -0.0943463146686554
visibility: 0.9936448931694031
","x: 158.30711364746094
y: 305.9766845703125
z: -0.017396163195371628
visibility: 0.9420614838600159
","x: 243.6348114013672
y: 358.3350830078125
z: -0.21375998854637146
visibility: 0.994027316570282
","x: 132.44696044921875
y: 350.3420715332031
z: -0.13294394314289093
visibility: 0.9781428575515747
","x: 246.43687438964844
y: 377.07257080078125
z: -0.24457533657550812
visibility: 0.9883387088775635
","x: 124.57930755615234
y: 364.48370361328125
z: -0.16388484835624695
visibility: 0.9640486836433411
","x: 244.185302734375
y: 376.2426452636719
z: -0.28285372257232666
visibility: 0.989646315574646
","x: 123.58829498291016
y: 362.4020690917969
z: -0.2119796723127365
visibility: 0.9684383869171143
","x: 242.4899444580078
y: 370.90399169921875
z: -0.2323693484067917
visibility: 0.9859767556190491
","x: 126.75042724609375
y: 357.46405029296875
z: -0.15610480308532715
visibility: 0.9631280303001404
","x: 202.58087158203125
y: 374.41888427734375
z: -0.029966559261083603
visibility: 0.9997802972793579
","x: 176.41583251953125
y: 372.41595458984375
z: 0.029902592301368713
visibility: 0.9997044205665588
","x: 199.008056640625
y: 471.3712158203125
z: -0.04887833073735237
visibility: 0.9979461431503296
","x: 178.99966430664062
y: 469.0033264160156
z: 0.0077417949214577675
visibility: 0.9962756633758545
","x: 214.3516845703125
y: 549.5009155273438
z: 0.18141978979110718
visibility: 0.9968505501747131
","x: 182.03488159179688
y: 556.6370849609375
z: 0.20517079532146454
visibility: 0.9964240193367004
","x: 215.45379638671875
y: 560.7950439453125
z: 0.19837793707847595
visibility: 0.9077277779579163
","x: 188.7177734375
y: 567.7744140625
z: 0.21750995516777039
visibility: 0.956417441368103
","x: 209.16134643554688
y: 577.9730834960938
z: 0.07984784245491028
visibility: 0.9943562150001526
","x: 171.86367797851562
y: 587.1720581054688
z: 0.09964140504598618
visibility: 0.9945993423461914
",,,,,,,,,,,,,,,,,,,,,,,,,,,,,,,,,,,,,,,,,,
11,"x: 193.23211669921875
y: 214.92337036132812
z: -0.35939598083496094
visibility: 0.9999919533729553
","x: 195.57553100585938
y: 206.45140075683594
z: -0.35183700919151306
visibility: 0.9999629259109497
","x: 197.22401428222656
y: 205.70985412597656
z: -0.35187506675720215
visibility: 0.9999672770500183
","x: 198.8745574951172
y: 204.79483032226562
z: -0.35192158818244934
visibility: 0.999965250492096
","x: 191.27720642089844
y: 205.9361114501953
z: -0.34824734926223755
visibility: 0.9999526143074036
","x: 189.72926330566406
y: 205.03802490234375
z: -0.3482559323310852
visibility: 0.9999451041221619
","x: 188.16859436035156
y: 204.01480102539062
z: -0.34826940298080444
visibility: 0.9999356269836426
","x: 201.77938842773438
y: 202.1526336669922
z: -0.24080324172973633
visibility: 0.9999670386314392
","x: 186.82208251953125
y: 201.31735229492188
z: -0.2213056981563568
visibility: 0.9998632073402405
","x: 195.6505584716797
y: 219.3074951171875
z: -0.31114545464515686
visibility: 0.9999910593032837
","x: 190.75938415527344
y: 218.59872436523438
z: -0.3059266209602356
visibility: 0.9999809861183167
","x: 218.73756408691406
y: 245.3913116455078
z: -0.14407238364219666
visibility: 0.9999970197677612
","x: 171.18521118164062
y: 243.49163818359375
z: -0.09719260782003403
visibility: 0.9999671578407288
","x: 227.42996215820312
y: 310.47509765625
z: -0.0941985473036766
visibility: 0.9940255284309387
","x: 154.41294860839844
y: 308.0328674316406
z: -0.0385795496404171
visibility: 0.9461035132408142
","x: 236.32310485839844
y: 362.0077209472656
z: -0.21345627307891846
visibility: 0.9940999746322632
","x: 129.53875732421875
y: 351.86175537109375
z: -0.15702418982982635
visibility: 0.9792729616165161
","x: 237.98194885253906
y: 380.1427917480469
z: -0.2446284294128418
visibility: 0.9880445003509521
","x: 121.50981903076172
y: 365.16552734375
z: -0.1896747350692749
visibility: 0.9654659628868103
","x: 235.46963500976562
y: 379.7270202636719
z: -0.2839365601539612
visibility: 0.989406943321228
","x: 120.69857788085938
y: 362.9687194824219
z: -0.2359524667263031
visibility: 0.969732403755188
","x: 233.77894592285156
y: 374.39263916015625
z: -0.2317686825990677
visibility: 0.9858505725860596
","x: 124.02091217041016
y: 358.4969482421875
z: -0.17938332259655
visibility: 0.9646170735359192
","x: 198.66879272460938
y: 375.4632263183594
z: -0.02591497264802456
visibility: 0.9997712969779968
","x: 172.27041625976562
y: 373.65887451171875
z: 0.025820976123213768
visibility: 0.9997062683105469
","x: 195.94093322753906
y: 471.64630126953125
z: -0.038608115166425705
visibility: 0.9978731870651245
","x: 176.03720092773438
y: 470.5264892578125
z: 0.013962803408503532
visibility: 0.9960944652557373
","x: 211.18382263183594
y: 547.2307739257812
z: 0.23451562225818634
visibility: 0.9964250326156616
","x: 181.90438842773438
y: 556.1112670898438
z: 0.20946986973285675
visibility: 0.9962734580039978
","x: 212.04129028320312
y: 555.3206176757812
z: 0.25608474016189575
visibility: 0.9053832292556763
","x: 187.80902099609375
y: 566.5227661132812
z: 0.2220802754163742
visibility: 0.9551789164543152
","x: 208.90843200683594
y: 577.7802124023438
z: 0.14263318479061127
visibility: 0.9938282370567322
","x: 172.35572814941406
y: 588.3697509765625
z: 0.09790784865617752
visibility: 0.9943549633026123
",,,,,,,,,,,,,,,,,,,,,,,,,,,,,,,,,,,,,,,,,,
12,"x: 190.30760192871094
y: 215.14471435546875
z: -0.3679491877555847
visibility: 0.9999895095825195
","x: 192.81399536132812
y: 206.4713134765625
z: -0.35999375581741333
visibility: 0.9999510645866394
","x: 194.43118286132812
y: 205.77552795410156
z: -0.3600305914878845
visibility: 0.9999557137489319
","x: 196.03343200683594
y: 204.9346160888672
z: -0.36008575558662415
visibility: 0.9999521970748901
","x: 188.57444763183594
y: 206.02352905273438
z: -0.3588515818119049
visibility: 0.9999405741691589
","x: 186.99566650390625
y: 205.17678833007812
z: -0.3588751554489136
visibility: 0.9999327063560486
","x: 185.3920440673828
y: 204.233642578125
z: -0.3588967025279999
visibility: 0.999921977519989
","x: 198.96734619140625
y: 202.7194366455078
z: -0.24628157913684845
visibility: 0.9999527931213379
","x: 183.8428955078125
y: 201.94244384765625
z: -0.23914441466331482
visibility: 0.9998428821563721
","x: 192.390869140625
y: 219.86900329589844
z: -0.3185987174510956
visibility: 0.9999881982803345
","x: 187.8906707763672
y: 219.3026123046875
z: -0.3168658912181854
visibility: 0.999977707862854
","x: 216.5402069091797
y: 245.54220581054688
z: -0.1404484212398529
visibility: 0.9999961256980896
","x: 168.24249267578125
y: 243.8571014404297
z: -0.11745847761631012
visibility: 0.9999678134918213
","x: 220.55914306640625
y: 311.5491943359375
z: -0.06958210468292236
visibility: 0.9939311742782593
","x: 154.900146484375
y: 308.3312683105469
z: -0.05142276734113693
visibility: 0.9493314027786255
","x: 224.22210693359375
y: 368.5910339355469
z: -0.1683477908372879
visibility: 0.9931567907333374
","x: 134.95188903808594
y: 353.9065246582031
z: -0.1590116322040558
visibility: 0.9791871905326843
","x: 226.99668884277344
y: 387.3267822265625
z: -0.19633795320987701
visibility: 0.9855683445930481
","x: 127.49048614501953
y: 367.7442932128906
z: -0.19037792086601257
visibility: 0.9648904800415039
","x: 223.93646240234375
y: 386.28076171875
z: -0.2369234263896942
visibility: 0.9871355295181274
","x: 127.4085922241211
y: 366.74920654296875
z: -0.23502862453460693
visibility: 0.969203770160675
","x: 221.96255493164062
y: 381.84088134765625
z: -0.1859939843416214
visibility: 0.9833466410636902
","x: 130.37013244628906
y: 362.77093505859375
z: -0.1799377202987671
visibility: 0.9640195369720459
","x: 199.5038604736328
y: 374.7738952636719
z: -0.01434497069567442
visibility: 0.9997079372406006
","x: 173.2688751220703
y: 372.36285400390625
z: 0.014311525039374828
visibility: 0.9996756315231323
","x: 198.62562561035156
y: 471.8800354003906
z: -0.016379976645112038
visibility: 0.9975113272666931
","x: 175.7927703857422
y: 470.4904479980469
z: 0.011189819313585758
visibility: 0.9956883192062378
","x: 205.98849487304688
y: 546.7119750976562
z: 0.21364045143127441
visibility: 0.9952856302261353
","x: 181.62269592285156
y: 556.4600219726562
z: 0.18886999785900116
visibility: 0.995661199092865
","x: 204.7998504638672
y: 554.8739013671875
z: 0.22907443344593048
visibility: 0.8993406891822815
","x: 187.0601806640625
y: 566.8900756835938
z: 0.19919568300247192
visibility: 0.9497083425521851
","x: 205.6226348876953
y: 576.695068359375
z: 0.1043756976723671
visibility: 0.9922707676887512
","x: 172.7349853515625
y: 587.9700927734375
z: 0.0635000616312027
visibility: 0.9933602213859558
",,,,,,,,,,,,,,,,,,,,,,,,,,,,,,,,,,,,,,,,,,
13,"x: 190.66615295410156
y: 206.003173828125
z: -0.3535616993904114
visibility: 0.9999882578849792
","x: 193.25042724609375
y: 198.22244262695312
z: -0.3425905108451843
visibility: 0.9999476671218872
","x: 194.97779846191406
y: 198.1573486328125
z: -0.3426366448402405
visibility: 0.9999518394470215
","x: 196.636474609375
y: 198.03382873535156
z: -0.34267348051071167
visibility: 0.9999483823776245
","x: 188.7257080078125
y: 197.58175659179688
z: -0.3404473066329956
visibility: 0.9999375939369202
","x: 187.14871215820312
y: 197.08433532714844
z: -0.3404618799686432
visibility: 0.9999288320541382
","x: 185.55630493164062
y: 196.6238250732422
z: -0.34047937393188477
visibility: 0.9999184012413025
","x: 199.68075561523438
y: 199.4388427734375
z: -0.2313314974308014
visibility: 0.9999462366104126
","x: 183.99465942382812
y: 198.1110382080078
z: -0.2168854922056198
visibility: 0.9998369812965393
","x: 193.24673461914062
y: 212.8370361328125
z: -0.306288480758667
visibility: 0.9999871850013733
","x: 187.930419921875
y: 212.04901123046875
z: -0.3033716380596161
visibility: 0.9999769330024719
","x: 217.00546264648438
y: 244.83843994140625
z: -0.13633126020431519
visibility: 0.9999954700469971
","x: 167.86187744140625
y: 242.00509643554688
z: -0.10118110477924347
visibility: 0.9999676942825317
","x: 224.41104125976562
y: 310.5616149902344
z: -0.11674467474222183
visibility: 0.9941390156745911
","x: 154.88848876953125
y: 307.8634338378906
z: -0.040345098823308945
visibility: 0.9528164863586426
","x: 218.3876953125
y: 346.95172119140625
z: -0.290973037481308
visibility: 0.9932423233985901
","x: 137.24156188964844
y: 354.26715087890625
z: -0.1630384474992752
visibility: 0.9794366955757141
","x: 215.92445373535156
y: 360.05780029296875
z: -0.3365495800971985
visibility: 0.9854268431663513
","x: 130.16622924804688
y: 369.22589111328125
z: -0.19927264750003815
visibility: 0.9649185538291931
","x: 212.6361083984375
y: 353.69122314453125
z: -0.3690190017223358
visibility: 0.9869037866592407
","x: 130.35520935058594
y: 368.4185791015625
z: -0.240923672914505
visibility: 0.969119131565094
","x: 212.52195739746094
y: 349.16571044921875
z: -0.30614742636680603
visibility: 0.9827765226364136
","x: 133.1690673828125
y: 363.8087158203125
z: -0.18273669481277466
visibility: 0.9637667536735535
","x: 200.29685974121094
y: 373.3674621582031
z: -0.007222765125334263
visibility: 0.9996454119682312
","x: 174.50526428222656
y: 371.0951232910156
z: 0.007243156433105469
visibility: 0.9996594190597534
","x: 200.52230834960938
y: 469.808349609375
z: -0.008226994425058365
visibility: 0.9971862435340881
","x: 175.81761169433594
y: 470.14013671875
z: -0.004665495362132788
visibility: 0.9954383373260498
","x: 203.71304321289062
y: 547.31005859375
z: 0.18301810324192047
visibility: 0.9945884943008423
","x: 181.4755401611328
y: 556.4948120117188
z: 0.14765676856040955
visibility: 0.9951884746551514
","x: 200.83895874023438
y: 557.246337890625
z: 0.19573663175106049
visibility: 0.8983587026596069
","x: 186.41094970703125
y: 567.2105712890625
z: 0.15342700481414795
visibility: 0.9432371854782104
","x: 205.97158813476562
y: 575.5013427734375
z: 0.07164700329303741
visibility: 0.9913503527641296
","x: 172.58888244628906
y: 587.01318359375
z: 0.01072249747812748
visibility: 0.9924485087394714
",,,,,,,,,,,,,,,,,,,,,,,,,,,,,,,,,,,,,,,,,,
14,"x: 190.77061462402344
y: 201.80859375
z: -0.34686970710754395
visibility: 0.9999871850013733
","x: 193.35545349121094
y: 193.7303924560547
z: -0.3348897099494934
visibility: 0.9999452233314514
","x: 195.12379455566406
y: 193.71121215820312
z: -0.3349376916885376
visibility: 0.9999487400054932
","x: 196.73043823242188
y: 193.72047424316406
z: -0.33497077226638794
visibility: 0.9999452233314514
","x: 188.8641815185547
y: 193.55731201171875
z: -0.33212584257125854
visibility: 0.9999361038208008
","x: 187.3262176513672
y: 193.4647216796875
z: -0.332148015499115
visibility: 0.9999269843101501
","x: 185.79415893554688
y: 193.46627807617188
z: -0.3321685492992401
visibility: 0.9999173879623413
","x: 200.1061553955078
y: 197.00181579589844
z: -0.22854311764240265
visibility: 0.999941349029541
","x: 184.72601318359375
y: 196.96449279785156
z: -0.20653125643730164
visibility: 0.9998348355293274
","x: 193.53506469726562
y: 209.52806091308594
z: -0.30007851123809814
visibility: 0.9999862313270569
","x: 188.40753173828125
y: 208.76304626464844
z: -0.2963410019874573
visibility: 0.9999762177467346
","x: 217.4769744873047
y: 243.9248809814453
z: -0.13437697291374207
visibility: 0.9999940395355225
","x: 169.2507781982422
y: 241.4005126953125
z: -0.1010793074965477
visibility: 0.9999663829803467
","x: 226.06524658203125
y: 308.5412902832031
z: -0.12567657232284546
visibility: 0.993962824344635
","x: 156.21609497070312
y: 307.7557678222656
z: -0.07274430990219116
visibility: 0.9556070566177368
","x: 220.02108764648438
y: 346.51800537109375
z: -0.29671046137809753
visibility: 0.9926785826683044
","x: 138.41810607910156
y: 354.0259094238281
z: -0.2266675978899002
visibility: 0.9789053201675415
","x: 219.34420776367188
y: 361.8267822265625
z: -0.34312111139297485
visibility: 0.9841979146003723
","x: 131.52273559570312
y: 369.8231201171875
z: -0.27088677883148193
visibility: 0.9638670682907104
","x: 216.33099365234375
y: 356.7066955566406
z: -0.37955766916275024
visibility: 0.9856657981872559
","x: 132.96641540527344
y: 368.35272216796875
z: -0.30975648760795593
visibility: 0.9680387377738953
","x: 215.697509765625
y: 351.6227722167969
z: -0.31406402587890625
visibility: 0.9809836745262146
","x: 135.86871337890625
y: 363.39111328125
z: -0.24652263522148132
visibility: 0.9623888731002808
","x: 203.9129638671875
y: 371.79833984375
z: -0.00609079422429204
visibility: 0.9996147155761719
","x: 175.61245727539062
y: 370.1949462890625
z: 0.006128572393208742
visibility: 0.9996577501296997
","x: 203.2695770263672
y: 468.2266540527344
z: -0.019046738743782043
visibility: 0.996950626373291
","x: 176.6773681640625
y: 469.6695251464844
z: -0.00474818330258131
visibility: 0.9953479766845703
","x: 203.5184783935547
y: 547.6634521484375
z: 0.18124456703662872
visibility: 0.9940328001976013
","x: 181.365234375
y: 556.6751708984375
z: 0.15850067138671875
visibility: 0.9950141310691833
","x: 199.9705810546875
y: 558.74267578125
z: 0.19335392117500305
visibility: 0.8976314663887024
","x: 186.0156707763672
y: 568.0091552734375
z: 0.16568607091903687
visibility: 0.9393815398216248
","x: 206.2378692626953
y: 575.5386962890625
z: 0.05901913717389107
visibility: 0.9907887578010559
","x: 172.48995971679688
y: 587.3231201171875
z: 0.023320864886045456
visibility: 0.9920207858085632
",,,,,,,,,,,,,,,,,,,,,,,,,,,,,,,,,,,,,,,,,,
15,"x: 194.32493591308594
y: 203.08078002929688
z: -0.3523872494697571
visibility: 0.999987781047821
","x: 196.32366943359375
y: 194.66859436035156
z: -0.33831584453582764
visibility: 0.9999483823776245
","x: 197.86712646484375
y: 194.4793701171875
z: -0.33836033940315247
visibility: 0.9999514818191528
","x: 199.24270629882812
y: 194.3384552001953
z: -0.338382750749588
visibility: 0.9999482035636902
","x: 191.995361328125
y: 194.83033752441406
z: -0.33689385652542114
visibility: 0.999940037727356
","x: 190.50599670410156
y: 194.75408935546875
z: -0.33691221475601196
visibility: 0.9999313950538635
","x: 188.9755859375
y: 194.7642364501953
z: -0.3369084596633911
visibility: 0.999922513961792
","x: 201.37692260742188
y: 197.3111114501953
z: -0.22432522475719452
visibility: 0.9999440312385559
","x: 186.1182861328125
y: 197.85096740722656
z: -0.21217255294322968
visibility: 0.9998453855514526
","x: 197.40087890625
y: 210.94705200195312
z: -0.3054026961326599
visibility: 0.9999868273735046
","x: 191.40907287597656
y: 210.22512817382812
z: -0.3031878173351288
visibility: 0.9999775886535645
","x: 218.80711364746094
y: 244.113037109375
z: -0.13913698494434357
visibility: 0.9999938607215881
","x: 169.43003845214844
y: 241.74652099609375
z: -0.10660306364297867
visibility: 0.9999672174453735
","x: 227.29518127441406
y: 306.67236328125
z: -0.14686498045921326
visibility: 0.9941929578781128
","x: 156.53683471679688
y: 309.9461975097656
z: -0.07222909480333328
visibility: 0.9591100215911865
","x: 224.7835693359375
y: 341.64788818359375
z: -0.33406561613082886
visibility: 0.9929652810096741
","x: 139.85614013671875
y: 354.29583740234375
z: -0.21838290989398956
visibility: 0.9798619151115417
","x: 224.3232421875
y: 354.86773681640625
z: -0.3842354416847229
visibility: 0.9846433401107788
","x: 134.49107360839844
y: 370.7229309082031
z: -0.2603308856487274
visibility: 0.9650984406471252
","x: 221.49851989746094
y: 348.384033203125
z: -0.4204692244529724
visibility: 0.9860490560531616
","x: 135.4872589111328
y: 369.0289611816406
z: -0.3006404638290405
visibility: 0.969094455242157
","x: 220.86891174316406
y: 343.6600341796875
z: -0.35220855474472046
visibility: 0.9814006686210632
","x: 137.93238830566406
y: 363.4081726074219
z: -0.23855967819690704
visibility: 0.9635540843009949
","x: 207.82669067382812
y: 372.1165771484375
z: -0.005590325221419334
visibility: 0.999600350856781
","x: 179.32965087890625
y: 370.3744201660156
z: 0.005663230083882809
visibility: 0.999661386013031
","x: 205.8762664794922
y: 467.9222106933594
z: -0.021441925317049026
visibility: 0.9968655705451965
","x: 178.29495239257812
y: 468.9718933105469
z: -0.006941909436136484
visibility: 0.9954357147216797
","x: 203.5203094482422
y: 548.0005493164062
z: 0.18014010787010193
visibility: 0.9938338398933411
","x: 181.2996368408203
y: 556.5369262695312
z: 0.14929898083209991
visibility: 0.9949978590011597
","x: 199.4738006591797
y: 559.4075317382812
z: 0.1884702444076538
visibility: 0.8999602198600769
","x: 185.7892303466797
y: 567.713134765625
z: 0.15505555272102356
visibility: 0.9368952512741089
","x: 206.25677490234375
y: 575.5518188476562
z: 0.04550883546471596
visibility: 0.9906556010246277
","x: 172.4883575439453
y: 587.4827880859375
z: 0.012214697897434235
visibility: 0.9918719530105591
","x: 227.9754180908203
y: 340.19488525390625
z: 0.0
","x: 222.96231079101562
y: 337.4637145996094
z: -0.002856725361198187
","x: 218.73236083984375
y: 340.37451171875
z: -0.005282177124172449
","x: 216.83912658691406
y: 346.603759765625
z: -0.006550641730427742
","x: 215.88218688964844
y: 352.1241455078125
z: -0.007316950708627701
","x: 223.01246643066406
y: 343.70849609375
z: -0.013700790703296661
","x: 217.56085205078125
y: 352.4505920410156
z: -0.015896659344434738
","x: 217.725341796875
y: 349.6282653808594
z: -0.013596097938716412
","x: 219.17041015625
y: 346.2308349609375
z: -0.011348924599587917
","x: 225.36871337890625
y: 347.45111083984375
z: -0.012955841608345509
","x: 219.31842041015625
y: 355.86688232421875
z: -0.0146486796438694
","x: 219.5110321044922
y: 353.0559997558594
z: -0.01093229092657566
","x: 221.28514099121094
y: 349.85626220703125
z: -0.007952793501317501
","x: 226.95509338378906
y: 350.85943603515625
z: -0.011689520440995693
","x: 221.7565155029297
y: 357.65936279296875
z: -0.012823441997170448
","x: 221.65774536132812
y: 355.1702880859375
z: -0.00951649621129036
","x: 222.93800354003906
y: 352.4844055175781
z: -0.007243512663990259
","x: 227.91444396972656
y: 353.810546875
z: -0.010403379797935486
","x: 223.75613403320312
y: 358.8883972167969
z: -0.01174519769847393
","x: 223.5206298828125
y: 356.8864440917969
z: -0.010381769388914108
","x: 224.52935791015625
y: 354.5906982421875
z: -0.009000134654343128
",,,,,,,,,,,,,,,,,,,,,
16,"x: 194.32493591308594
y: 203.08078002929688
z: -0.3523872494697571
visibility: 0.999987781047821
","x: 196.32366943359375
y: 194.66859436035156
z: -0.33831584453582764
visibility: 0.9999483823776245
","x: 197.86712646484375
y: 194.4793701171875
z: -0.33836033940315247
visibility: 0.9999514818191528
","x: 199.24270629882812
y: 194.3384552001953
z: -0.338382750749588
visibility: 0.9999482035636902
","x: 191.995361328125
y: 194.83033752441406
z: -0.33689385652542114
visibility: 0.999940037727356
","x: 190.50599670410156
y: 194.75408935546875
z: -0.33691221475601196
visibility: 0.9999313950538635
","x: 188.9755859375
y: 194.7642364501953
z: -0.3369084596633911
visibility: 0.999922513961792
","x: 201.37692260742188
y: 197.3111114501953
z: -0.22432522475719452
visibility: 0.9999440312385559
","x: 186.1182861328125
y: 197.85096740722656
z: -0.21217255294322968
visibility: 0.9998453855514526
","x: 197.40087890625
y: 210.94705200195312
z: -0.3054026961326599
visibility: 0.9999868273735046
","x: 191.40907287597656
y: 210.22512817382812
z: -0.3031878173351288
visibility: 0.9999775886535645
","x: 218.80711364746094
y: 244.113037109375
z: -0.13913698494434357
visibility: 0.9999938607215881
","x: 169.43003845214844
y: 241.74652099609375
z: -0.10660306364297867
visibility: 0.9999672174453735
","x: 227.29518127441406
y: 306.67236328125
z: -0.14686498045921326
visibility: 0.9941929578781128
","x: 156.53683471679688
y: 309.9461975097656
z: -0.07222909480333328
visibility: 0.9591100215911865
","x: 224.7835693359375
y: 341.64788818359375
z: -0.33406561613082886
visibility: 0.9929652810096741
","x: 139.85614013671875
y: 354.29583740234375
z: -0.21838290989398956
visibility: 0.9798619151115417
","x: 224.3232421875
y: 354.86773681640625
z: -0.3842354416847229
visibility: 0.9846433401107788
","x: 134.49107360839844
y: 370.7229309082031
z: -0.2603308856487274
visibility: 0.9650984406471252
","x: 221.49851989746094
y: 348.384033203125
z: -0.4204692244529724
visibility: 0.9860490560531616
","x: 135.4872589111328
y: 369.0289611816406
z: -0.3006404638290405
visibility: 0.969094455242157
","x: 220.86891174316406
y: 343.6600341796875
z: -0.35220855474472046
visibility: 0.9814006686210632
","x: 137.93238830566406
y: 363.4081726074219
z: -0.23855967819690704
visibility: 0.9635540843009949
","x: 207.82669067382812
y: 372.1165771484375
z: -0.005590325221419334
visibility: 0.999600350856781
","x: 179.32965087890625
y: 370.3744201660156
z: 0.005663230083882809
visibility: 0.999661386013031
","x: 205.8762664794922
y: 467.9222106933594
z: -0.021441925317049026
visibility: 0.9968655705451965
","x: 178.29495239257812
y: 468.9718933105469
z: -0.006941909436136484
visibility: 0.9954357147216797
","x: 203.5203094482422
y: 548.0005493164062
z: 0.18014010787010193
visibility: 0.9938338398933411
","x: 181.2996368408203
y: 556.5369262695312
z: 0.14929898083209991
visibility: 0.9949978590011597
","x: 199.4738006591797
y: 559.4075317382812
z: 0.1884702444076538
visibility: 0.8999602198600769
","x: 185.7892303466797
y: 567.713134765625
z: 0.15505555272102356
visibility: 0.9368952512741089
","x: 206.25677490234375
y: 575.5518188476562
z: 0.04550883546471596
visibility: 0.9906556010246277
","x: 172.4883575439453
y: 587.4827880859375
z: 0.012214697897434235
visibility: 0.9918719530105591
","x: 227.9754180908203
y: 340.19488525390625
z: 0.0
","x: 222.96231079101562
y: 337.4637145996094
z: -0.002856725361198187
","x: 218.73236083984375
y: 340.37451171875
z: -0.005282177124172449
","x: 216.83912658691406
y: 346.603759765625
z: -0.006550641730427742
","x: 215.88218688964844
y: 352.1241455078125
z: -0.007316950708627701
","x: 223.01246643066406
y: 343.70849609375
z: -0.013700790703296661
","x: 217.56085205078125
y: 352.4505920410156
z: -0.015896659344434738
","x: 217.725341796875
y: 349.6282653808594
z: -0.013596097938716412
","x: 219.17041015625
y: 346.2308349609375
z: -0.011348924599587917
","x: 225.36871337890625
y: 347.45111083984375
z: -0.012955841608345509
","x: 219.31842041015625
y: 355.86688232421875
z: -0.0146486796438694
","x: 219.5110321044922
y: 353.0559997558594
z: -0.01093229092657566
","x: 221.28514099121094
y: 349.85626220703125
z: -0.007952793501317501
","x: 226.95509338378906
y: 350.85943603515625
z: -0.011689520440995693
","x: 221.7565155029297
y: 357.65936279296875
z: -0.012823441997170448
","x: 221.65774536132812
y: 355.1702880859375
z: -0.00951649621129036
","x: 222.93800354003906
y: 352.4844055175781
z: -0.007243512663990259
","x: 227.91444396972656
y: 353.810546875
z: -0.010403379797935486
","x: 223.75613403320312
y: 358.8883972167969
z: -0.01174519769847393
","x: 223.5206298828125
y: 356.8864440917969
z: -0.010381769388914108
","x: 224.52935791015625
y: 354.5906982421875
z: -0.009000134654343128
",,,,,,,,,,,,,,,,,,,,,
17,"x: 195.0073699951172
y: 204.7489776611328
z: -0.3474445641040802
visibility: 0.9999883770942688
","x: 197.4583740234375
y: 196.2828826904297
z: -0.32906574010849
visibility: 0.9999513626098633
","x: 199.05014038085938
y: 196.02273559570312
z: -0.32909753918647766
visibility: 0.9999539852142334
","x: 200.53890991210938
y: 195.79115295410156
z: -0.3290904462337494
visibility: 0.9999510049819946
","x: 193.03497314453125
y: 196.3355712890625
z: -0.3274315893650055
visibility: 0.9999437928199768
","x: 191.6616668701172
y: 196.11996459960938
z: -0.3274601399898529
visibility: 0.9999356269836426
","x: 190.28004455566406
y: 195.9694061279297
z: -0.3274507522583008
visibility: 0.9999275207519531
","x: 202.9065704345703
y: 197.6358642578125
z: -0.21381184458732605
visibility: 0.9999464154243469
","x: 187.86834716796875
y: 197.9659423828125
z: -0.2031516581773758
visibility: 0.9998546838760376
","x: 198.45721435546875
y: 211.6798095703125
z: -0.3035256266593933
visibility: 0.9999873638153076
","x: 192.1459197998047
y: 211.1696014404297
z: -0.3024747967720032
visibility: 0.9999787211418152
","x: 220.83477783203125
y: 245.81015014648438
z: -0.13776566088199615
visibility: 0.9999935626983643
","x: 171.3617401123047
y: 246.50643920898438
z: -0.09752120822668076
visibility: 0.9999672770500183
","x: 230.98995971679688
y: 306.78289794921875
z: -0.13585789501667023
visibility: 0.9944606423377991
","x: 159.52835083007812
y: 313.4754638671875
z: -0.06421749293804169
visibility: 0.9618301391601562
","x: 226.78067016601562
y: 344.6374816894531
z: -0.30422887206077576
visibility: 0.9932533502578735
","x: 143.10043334960938
y: 356.4002990722656
z: -0.21845486760139465
visibility: 0.980596125125885
","x: 226.068115234375
y: 358.45697021484375
z: -0.3503454923629761
visibility: 0.9850760698318481
","x: 138.39157104492188
y: 373.20330810546875
z: -0.2610105276107788
visibility: 0.9660971760749817
","x: 222.908447265625
y: 354.0699768066406
z: -0.38546162843704224
visibility: 0.9864084124565125
","x: 138.90805053710938
y: 372.09832763671875
z: -0.30061250925064087
visibility: 0.9699373245239258
","x: 222.4810028076172
y: 349.2060852050781
z: -0.3210994601249695
visibility: 0.9817823767662048
","x: 140.98825073242188
y: 366.4683837890625
z: -0.2387387454509735
visibility: 0.9644775390625
","x: 209.9882354736328
y: 373.7674255371094
z: -0.006316789425909519
visibility: 0.9995929598808289
","x: 182.7879180908203
y: 372.3514099121094
z: 0.006374708376824856
visibility: 0.9996681809425354
","x: 207.82691955566406
y: 467.96832275390625
z: -0.024190494790673256
visibility: 0.9967436194419861
","x: 180.38389587402344
y: 468.96722412109375
z: -0.01955723762512207
visibility: 0.9954971075057983
","x: 203.65155029296875
y: 549.8901977539062
z: 0.1587156057357788
visibility: 0.9935754537582397
","x: 181.4701690673828
y: 556.7347412109375
z: 0.1255291998386383
visibility: 0.9949728846549988
","x: 199.78729248046875
y: 561.5293579101562
z: 0.1662566214799881
visibility: 0.9012874364852905
","x: 185.6133270263672
y: 568.1187744140625
z: 0.13039696216583252
visibility: 0.9344139099121094
","x: 206.439208984375
y: 575.525390625
z: 0.027620425447821617
visibility: 0.9903968572616577
","x: 172.6134033203125
y: 587.4395751953125
z: -0.010232842527329922
visibility: 0.9917192459106445
",,,,,,,,,,,,,,,,,,,,,,,,,,,,,,,,,,,,,,,,,,
18,"x: 196.9476318359375
y: 212.19784545898438
z: -0.3565317988395691
visibility: 0.9999880194664001
","x: 199.55703735351562
y: 203.7887725830078
z: -0.34249183535575867
visibility: 0.999950110912323
","x: 201.15879821777344
y: 203.80609130859375
z: -0.34251925349235535
visibility: 0.9999521374702454
","x: 202.70851135253906
y: 203.81744384765625
z: -0.3425191342830658
visibility: 0.999949038028717
","x: 195.11297607421875
y: 203.24212646484375
z: -0.3406915068626404
visibility: 0.999943733215332
","x: 193.74119567871094
y: 202.92144775390625
z: -0.34073489904403687
visibility: 0.9999355673789978
","x: 192.46624755859375
y: 202.64764404296875
z: -0.34074482321739197
visibility: 0.9999282956123352
","x: 205.32818603515625
y: 205.30311584472656
z: -0.22629833221435547
visibility: 0.9999414086341858
","x: 190.48863220214844
y: 204.60269165039062
z: -0.21676047146320343
visibility: 0.9998571276664734
","x: 200.27545166015625
y: 219.69503784179688
z: -0.31034767627716064
visibility: 0.9999862313270569
","x: 194.28591918945312
y: 219.27523803710938
z: -0.3077618479728699
visibility: 0.9999780654907227
","x: 222.19952392578125
y: 252.1439971923828
z: -0.1400611847639084
visibility: 0.999992847442627
","x: 174.5450897216797
y: 253.3529815673828
z: -0.10955417156219482
visibility: 0.9999678730964661
","x: 233.73204040527344
y: 314.2554016113281
z: -0.13068313896656036
visibility: 0.9945744276046753
","x: 162.98106384277344
y: 319.6798400878906
z: -0.06524279713630676
visibility: 0.9644717574119568
","x: 227.7451629638672
y: 354.3249816894531
z: -0.27154985070228577
visibility: 0.9932367205619812
","x: 148.41127014160156
y: 362.3870849609375
z: -0.20659363269805908
visibility: 0.9812602996826172
","x: 226.06651306152344
y: 368.9101867675781
z: -0.3148285448551178
visibility: 0.9847641587257385
","x: 143.2615966796875
y: 378.9599304199219
z: -0.2466466873884201
visibility: 0.9668785929679871
","x: 223.01052856445312
y: 360.12689208984375
z: -0.3474336564540863
visibility: 0.986052393913269
","x: 143.67933654785156
y: 377.6347351074219
z: -0.2865481972694397
visibility: 0.9705725908279419
","x: 222.90057373046875
y: 354.89520263671875
z: -0.28644710779190063
visibility: 0.9811529517173767
","x: 145.81866455078125
y: 371.9953918457031
z: -0.22648529708385468
visibility: 0.9651007056236267
","x: 211.57757568359375
y: 377.8682861328125
z: -0.005164516624063253
visibility: 0.999583899974823
","x: 184.7183074951172
y: 376.320068359375
z: 0.005208752583712339
visibility: 0.9996775388717651
","x: 208.7443084716797
y: 467.981689453125
z: -0.025871362537145615
visibility: 0.9964743256568909
","x: 182.51856994628906
y: 468.5757751464844
z: -0.055019862949848175
visibility: 0.995511531829834
","x: 203.16847229003906
y: 550.6771240234375
z: 0.143910750746727
visibility: 0.9932042360305786
","x: 183.5157470703125
y: 553.6947021484375
z: 0.10783243179321289
visibility: 0.9948694109916687
","x: 200.16957092285156
y: 561.9751586914062
z: 0.15164192020893097
visibility: 0.9030523300170898
","x: 186.76943969726562
y: 564.889892578125
z: 0.11510206758975983
visibility: 0.933329164981842
","x: 205.81192016601562
y: 574.8116455078125
z: 0.016723114997148514
visibility: 0.9900045394897461
","x: 172.73277282714844
y: 582.1107788085938
z: -0.021556543186306953
visibility: 0.9915928840637207
",,,,,,,,,,,,,,,,,,,,,,"x: 150.0218505859375
y: 370.390625
z: 0.0
","x: 146.12306213378906
y: 372.01800537109375
z: -0.002232892671599984
","x: 142.9849090576172
y: 375.1394958496094
z: -0.0039561414159834385
","x: 141.0843963623047
y: 379.9393310546875
z: -0.006248608697205782
","x: 139.70269775390625
y: 384.4781494140625
z: -0.0078116911463439465
","x: 139.40133666992188
y: 385.2158203125
z: 0.0006697465432807803
","x: 138.3730010986328
y: 391.88140869140625
z: -0.0023751917760819197
","x: 140.58282470703125
y: 391.84954833984375
z: -0.0038595895748585463
","x: 142.65341186523438
y: 389.7445373535156
z: -0.004205815028399229
","x: 141.4321746826172
y: 388.33880615234375
z: -0.000222148941247724
","x: 140.63250732421875
y: 395.6604309082031
z: -0.002751170191913843
","x: 143.00479125976562
y: 395.3858642578125
z: -0.0037028659135103226
","x: 145.01058959960938
y: 392.7208251953125
z: -0.0037336733657866716
","x: 143.78253173828125
y: 389.9372863769531
z: -0.001897502806968987
","x: 143.57174682617188
y: 396.2121276855469
z: -0.004340243525803089
","x: 145.34234619140625
y: 395.20697021484375
z: -0.004330634605139494
","x: 146.74122619628906
y: 392.2441101074219
z: -0.003678129054605961
","x: 146.40248107910156
y: 390.2208251953125
z: -0.0040872846730053425
","x: 146.32437133789062
y: 395.05950927734375
z: -0.00556573923677206
","x: 147.44175720214844
y: 394.2284851074219
z: -0.005166923627257347
","x: 148.32508850097656
y: 391.7648010253906
z: -0.0042892154306173325
"
19,"x: 196.9476318359375
y: 212.19784545898438
z: -0.3565317988395691
visibility: 0.9999880194664001
","x: 199.55703735351562
y: 203.7887725830078
z: -0.34249183535575867
visibility: 0.999950110912323
","x: 201.15879821777344
y: 203.80609130859375
z: -0.34251925349235535
visibility: 0.9999521374702454
","x: 202.70851135253906
y: 203.81744384765625
z: -0.3425191342830658
visibility: 0.999949038028717
","x: 195.11297607421875
y: 203.24212646484375
z: -0.3406915068626404
visibility: 0.999943733215332
","x: 193.74119567871094
y: 202.92144775390625
z: -0.34073489904403687
visibility: 0.9999355673789978
","x: 192.46624755859375
y: 202.64764404296875
z: -0.34074482321739197
visibility: 0.9999282956123352
","x: 205.32818603515625
y: 205.30311584472656
z: -0.22629833221435547
visibility: 0.9999414086341858
","x: 190.48863220214844
y: 204.60269165039062
z: -0.21676047146320343
visibility: 0.9998571276664734
","x: 200.27545166015625
y: 219.69503784179688
z: -0.31034767627716064
visibility: 0.9999862313270569
","x: 194.28591918945312
y: 219.27523803710938
z: -0.3077618479728699
visibility: 0.9999780654907227
","x: 222.19952392578125
y: 252.1439971923828
z: -0.1400611847639084
visibility: 0.999992847442627
","x: 174.5450897216797
y: 253.3529815673828
z: -0.10955417156219482
visibility: 0.9999678730964661
","x: 233.73204040527344
y: 314.2554016113281
z: -0.13068313896656036
visibility: 0.9945744276046753
","x: 162.98106384277344
y: 319.6798400878906
z: -0.06524279713630676
visibility: 0.9644717574119568
","x: 227.7451629638672
y: 354.3249816894531
z: -0.27154985070228577
visibility: 0.9932367205619812
","x: 148.41127014160156
y: 362.3870849609375
z: -0.20659363269805908
visibility: 0.9812602996826172
","x: 226.06651306152344
y: 368.9101867675781
z: -0.3148285448551178
visibility: 0.9847641587257385
","x: 143.2615966796875
y: 378.9599304199219
z: -0.2466466873884201
visibility: 0.9668785929679871
","x: 223.01052856445312
y: 360.12689208984375
z: -0.3474336564540863
visibility: 0.986052393913269
","x: 143.67933654785156
y: 377.6347351074219
z: -0.2865481972694397
visibility: 0.9705725908279419
","x: 222.90057373046875
y: 354.89520263671875
z: -0.28644710779190063
visibility: 0.9811529517173767
","x: 145.81866455078125
y: 371.9953918457031
z: -0.22648529708385468
visibility: 0.9651007056236267
","x: 211.57757568359375
y: 377.8682861328125
z: -0.005164516624063253
visibility: 0.999583899974823
","x: 184.7183074951172
y: 376.320068359375
z: 0.005208752583712339
visibility: 0.9996775388717651
","x: 208.7443084716797
y: 467.981689453125
z: -0.025871362537145615
visibility: 0.9964743256568909
","x: 182.51856994628906
y: 468.5757751464844
z: -0.055019862949848175
visibility: 0.995511531829834
","x: 203.16847229003906
y: 550.6771240234375
z: 0.143910750746727
visibility: 0.9932042360305786
","x: 183.5157470703125
y: 553.6947021484375
z: 0.10783243179321289
visibility: 0.9948694109916687
","x: 200.16957092285156
y: 561.9751586914062
z: 0.15164192020893097
visibility: 0.9030523300170898
","x: 186.76943969726562
y: 564.889892578125
z: 0.11510206758975983
visibility: 0.933329164981842
","x: 205.81192016601562
y: 574.8116455078125
z: 0.016723114997148514
visibility: 0.9900045394897461
","x: 172.73277282714844
y: 582.1107788085938
z: -0.021556543186306953
visibility: 0.9915928840637207
",,,,,,,,,,,,,,,,,,,,,,"x: 150.0218505859375
y: 370.390625
z: 0.0
","x: 146.12306213378906
y: 372.01800537109375
z: -0.002232892671599984
","x: 142.9849090576172
y: 375.1394958496094
z: -0.0039561414159834385
","x: 141.0843963623047
y: 379.9393310546875
z: -0.006248608697205782
","x: 139.70269775390625
y: 384.4781494140625
z: -0.0078116911463439465
","x: 139.40133666992188
y: 385.2158203125
z: 0.0006697465432807803
","x: 138.3730010986328
y: 391.88140869140625
z: -0.0023751917760819197
","x: 140.58282470703125
y: 391.84954833984375
z: -0.0038595895748585463
","x: 142.65341186523438
y: 389.7445373535156
z: -0.004205815028399229
","x: 141.4321746826172
y: 388.33880615234375
z: -0.000222148941247724
","x: 140.63250732421875
y: 395.6604309082031
z: -0.002751170191913843
","x: 143.00479125976562
y: 395.3858642578125
z: -0.0037028659135103226
","x: 145.01058959960938
y: 392.7208251953125
z: -0.0037336733657866716
","x: 143.78253173828125
y: 389.9372863769531
z: -0.001897502806968987
","x: 143.57174682617188
y: 396.2121276855469
z: -0.004340243525803089
","x: 145.34234619140625
y: 395.20697021484375
z: -0.004330634605139494
","x: 146.74122619628906
y: 392.2441101074219
z: -0.003678129054605961
","x: 146.40248107910156
y: 390.2208251953125
z: -0.0040872846730053425
","x: 146.32437133789062
y: 395.05950927734375
z: -0.00556573923677206
","x: 147.44175720214844
y: 394.2284851074219
z: -0.005166923627257347
","x: 148.32508850097656
y: 391.7648010253906
z: -0.0042892154306173325
"
20,"x: 196.6684112548828
y: 213.8420867919922
z: -0.3512219786643982
visibility: 0.9999884366989136
","x: 199.28225708007812
y: 204.90118408203125
z: -0.3374703824520111
visibility: 0.9999518990516663
","x: 200.90365600585938
y: 204.7050323486328
z: -0.33748385310173035
visibility: 0.9999538064002991
","x: 202.47927856445312
y: 204.54322814941406
z: -0.33745619654655457
visibility: 0.9999507069587708
","x: 194.8286590576172
y: 204.80661010742188
z: -0.3332788348197937
visibility: 0.9999457001686096
","x: 193.46749877929688
y: 204.55360412597656
z: -0.3333189785480499
visibility: 0.9999379515647888
","x: 192.1947479248047
y: 204.32440185546875
z: -0.3333287537097931
visibility: 0.9999309778213501
","x: 205.25161743164062
y: 206.54237365722656
z: -0.22393710911273956
visibility: 0.9999421238899231
","x: 190.880859375
y: 206.50865173339844
z: -0.21185776591300964
visibility: 0.9998623132705688
","x: 200.10763549804688
y: 221.69613647460938
z: -0.3082750737667084
visibility: 0.999986469745636
","x: 194.13494873046875
y: 221.43484497070312
z: -0.3053092956542969
visibility: 0.9999783039093018
","x: 222.8532257080078
y: 253.52357482910156
z: -0.14184808731079102
visibility: 0.9999929666519165
","x: 175.74362182617188
y: 254.0819549560547
z: -0.10286029428243637
visibility: 0.9999683499336243
","x: 233.59207153320312
y: 315.210693359375
z: -0.135442316532135
visibility: 0.9947001338005066
","x: 165.03903198242188
y: 320.2274169921875
z: -0.05840892344713211
visibility: 0.966134250164032
","x: 228.2651824951172
y: 354.0081481933594
z: -0.2949778139591217
visibility: 0.9932222366333008
","x: 151.60964965820312
y: 364.0323181152344
z: -0.18587090075016022
visibility: 0.9818177223205566
","x: 226.23577880859375
y: 368.7609558105469
z: -0.33953359723091125
visibility: 0.9846343398094177
","x: 145.80377197265625
y: 380.9488525390625
z: -0.22468355298042297
visibility: 0.9676474928855896
","x: 223.62673950195312
y: 360.0760498046875
z: -0.3710126280784607
visibility: 0.9858774542808533
","x: 146.00843811035156
y: 379.9600524902344
z: -0.2645953893661499
visibility: 0.9711803197860718
","x: 223.550537109375
y: 354.8890380859375
z: -0.3100907504558563
visibility: 0.9808088541030884
","x: 148.33082580566406
y: 373.9105224609375
z: -0.2055317908525467
visibility: 0.9657272696495056
","x: 211.45556640625
y: 377.90643310546875
z: -0.010338902473449707
visibility: 0.9996076226234436
","x: 185.36666870117188
y: 376.66094970703125
z: 0.010330485180020332
visibility: 0.9996906518936157
","x: 209.14700317382812
y: 467.36444091796875
z: -0.040091149508953094
visibility: 0.9964226484298706
","x: 182.76162719726562
y: 468.270263671875
z: 0.019124045968055725
visibility: 0.9954528212547302
","x: 202.85301208496094
y: 550.7380981445312
z: 0.11749323457479477
visibility: 0.9933311939239502
","x: 185.51962280273438
y: 543.0616455078125
z: 0.21628256142139435
visibility: 0.9947335124015808
","x: 200.6925506591797
y: 561.861572265625
z: 0.12458638846874237
visibility: 0.905968427658081
","x: 189.016845703125
y: 553.993408203125
z: 0.2277674376964569
visibility: 0.9337523579597473
","x: 204.82090759277344
y: 574.3525390625
z: -0.011905940249562263
visibility: 0.9901717901229858
","x: 172.70779418945312
y: 569.0823974609375
z: 0.11402009427547455
visibility: 0.9915345907211304
",,,,,,,,,,,,,,,,,,,,,,,,,,,,,,,,,,,,,,,,,,
21,"x: 197.02174377441406
y: 212.11141967773438
z: -0.3478144109249115
visibility: 0.9999880194664001
","x: 199.42044067382812
y: 203.23696899414062
z: -0.335212379693985
visibility: 0.9999496936798096
","x: 200.9959259033203
y: 202.91818237304688
z: -0.33523598313331604
visibility: 0.9999518990516663
","x: 202.47573852539062
y: 202.75250244140625
z: -0.335226446390152
visibility: 0.9999486207962036
","x: 194.87088012695312
y: 203.5889434814453
z: -0.3323119282722473
visibility: 0.9999427199363708
","x: 193.4051971435547
y: 203.4456787109375
z: -0.33232975006103516
visibility: 0.9999348521232605
","x: 192.0306396484375
y: 203.28330993652344
z: -0.3323307931423187
visibility: 0.9999261498451233
","x: 205.16024780273438
y: 205.4859161376953
z: -0.22429433465003967
visibility: 0.9999358057975769
","x: 190.79653930664062
y: 205.9466552734375
z: -0.21745017170906067
visibility: 0.9998489022254944
","x: 200.41241455078125
y: 219.5813751220703
z: -0.3038816750049591
visibility: 0.9999842047691345
","x: 194.27024841308594
y: 219.8216094970703
z: -0.3004329800605774
visibility: 0.9999744296073914
","x: 222.75469970703125
y: 253.11166381835938
z: -0.14103111624717712
visibility: 0.9999921917915344
","x: 175.6149444580078
y: 252.47906494140625
z: -0.10372557491064072
visibility: 0.9999648332595825
","x: 229.920166015625
y: 314.59912109375
z: -0.08971748501062393
visibility: 0.9943410158157349
","x: 166.50538635253906
y: 318.5735168457031
z: -0.044459763914346695
visibility: 0.9635870456695557
","x: 228.5169677734375
y: 364.6209411621094
z: -0.18350756168365479
visibility: 0.992323100566864
","x: 153.4154052734375
y: 362.79193115234375
z: -0.13326767086982727
visibility: 0.9783486127853394
","x: 227.83786010742188
y: 380.97308349609375
z: -0.2109333574771881
visibility: 0.9827123880386353
","x: 147.895751953125
y: 379.4730224609375
z: -0.15874463319778442
visibility: 0.9623297452926636
","x: 224.04359436035156
y: 378.72698974609375
z: -0.2487717568874359
visibility: 0.9841147661209106
","x: 147.6597900390625
y: 378.13165283203125
z: -0.20414189994335175
visibility: 0.9663940072059631
","x: 223.9900360107422
y: 374.63916015625
z: -0.199865460395813
visibility: 0.9788471460342407
","x: 149.7734832763672
y: 372.4103088378906
z: -0.1540929228067398
visibility: 0.9607563614845276
","x: 211.01577758789062
y: 373.987548828125
z: -0.011213019490242004
visibility: 0.9996165037155151
","x: 184.7309112548828
y: 373.3802490234375
z: 0.011178023181855679
visibility: 0.9996866583824158
","x: 209.72354125976562
y: 462.5799865722656
z: -0.008286750875413418
visibility: 0.9962742328643799
","x: 182.37657165527344
y: 461.67657470703125
z: 0.03473598510026932
visibility: 0.9952322244644165
","x: 203.21189880371094
y: 549.2615966796875
z: 0.11520811170339584
visibility: 0.9934901595115662
","x: 184.14112854003906
y: 538.05517578125
z: 0.18990041315555573
visibility: 0.9947039484977722
","x: 200.46603393554688
y: 559.8411865234375
z: 0.1181214302778244
visibility: 0.9087079167366028
","x: 187.4887237548828
y: 550.8178100585938
z: 0.19957971572875977
visibility: 0.9344053268432617
","x: 205.0030517578125
y: 572.437255859375
z: -0.013616202399134636
visibility: 0.990317702293396
","x: 168.52926635742188
y: 562.2247924804688
z: 0.075415700674057
visibility: 0.9915881752967834
",,,,,,,,,,,,,,,,,,,,,,,,,,,,,,,,,,,,,,,,,,
22,"x: 193.94833374023438
y: 211.466064453125
z: -0.2865845859050751
visibility: 0.9999862909317017
","x: 196.75473022460938
y: 202.56837463378906
z: -0.27713802456855774
visibility: 0.9999427795410156
","x: 198.3760528564453
y: 202.20155334472656
z: -0.2772004008293152
visibility: 0.9999459385871887
","x: 199.8632354736328
y: 201.95684814453125
z: -0.27721238136291504
visibility: 0.9999426603317261
","x: 192.1952362060547
y: 203.0089111328125
z: -0.2713584303855896
visibility: 0.9999333024024963
","x: 190.85842895507812
y: 202.86599731445312
z: -0.27135393023490906
visibility: 0.9999239444732666
","x: 189.561767578125
y: 202.69387817382812
z: -0.27134793996810913
visibility: 0.9999122619628906
","x: 203.10169982910156
y: 204.13912963867188
z: -0.18170511722564697
visibility: 0.9999256134033203
","x: 188.8581085205078
y: 204.8209228515625
z: -0.1551380753517151
visibility: 0.9998070597648621
","x: 197.2577667236328
y: 218.44107055664062
z: -0.24754826724529266
visibility: 0.9999807476997375
","x: 191.34930419921875
y: 219.01780700683594
z: -0.2398650199174881
visibility: 0.9999675750732422
","x: 220.8341522216797
y: 251.3447723388672
z: -0.12014245986938477
visibility: 0.9999918341636658
","x: 174.63674926757812
y: 249.77403259277344
z: -0.04666750505566597
visibility: 0.999958336353302
","x: 229.0518035888672
y: 312.59521484375
z: -0.0880739837884903
visibility: 0.9945154786109924
","x: 165.8750457763672
y: 313.11419677734375
z: 0.013505262322723866
visibility: 0.959874153137207
","x: 226.2477264404297
y: 363.69134521484375
z: -0.19415487349033356
visibility: 0.9922427535057068
","x: 151.63975524902344
y: 356.88055419921875
z: -0.09577342122793198
visibility: 0.9759745597839355
","x: 224.95687866210938
y: 379.476806640625
z: -0.2280949354171753
visibility: 0.9824236631393433
","x: 145.93630981445312
y: 372.9320983886719
z: -0.12468880414962769
visibility: 0.958987295627594
","x: 221.61680603027344
y: 376.4312438964844
z: -0.26087620854377747
visibility: 0.9838131666183472
","x: 145.90682983398438
y: 369.6322937011719
z: -0.1676921844482422
visibility: 0.9632847905158997
","x: 221.27874755859375
y: 372.6300048828125
z: -0.20832061767578125
visibility: 0.9784576892852783
","x: 148.1580352783203
y: 363.94512939453125
z: -0.11642204225063324
visibility: 0.9573397636413574
","x: 206.29611206054688
y: 372.2095031738281
z: -0.018380040302872658
visibility: 0.999625563621521
","x: 181.72962951660156
y: 371.005126953125
z: 0.018368344753980637
visibility: 0.9996762871742249
","x: 209.07989501953125
y: 461.8057556152344
z: -0.015424256213009357
visibility: 0.9960724711418152
","x: 182.04080200195312
y: 457.7143859863281
z: 0.034632664173841476
visibility: 0.994927704334259
","x: 203.5188446044922
y: 548.5965576171875
z: 0.0852622464299202
visibility: 0.9936003088951111
","x: 182.7357177734375
y: 538.1385498046875
z: 0.18510472774505615
visibility: 0.9946218729019165
","x: 200.8299560546875
y: 559.3824462890625
z: 0.08661983162164688
visibility: 0.9110164046287537
","x: 186.1606903076172
y: 551.0831298828125
z: 0.1870996206998825
visibility: 0.935004472732544
","x: 205.1446990966797
y: 571.5398559570312
z: -0.042514726519584656
visibility: 0.9902545213699341
","x: 166.9614715576172
y: 561.4345703125
z: 0.06357035040855408
visibility: 0.9914655685424805
",,,,,,,,,,,,,,,,,,,,,,,,,,,,,,,,,,,,,,,,,,
23,"x: 190.76934814453125
y: 211.45755004882812
z: -0.2982054054737091
visibility: 0.9999843239784241
","x: 193.552001953125
y: 202.5841064453125
z: -0.2868843078613281
visibility: 0.9999359250068665
","x: 195.1770782470703
y: 202.26316833496094
z: -0.28694939613342285
visibility: 0.9999396204948425
","x: 196.78665161132812
y: 202.06967163085938
z: -0.28697627782821655
visibility: 0.9999362230300903
","x: 189.1820831298828
y: 202.93695068359375
z: -0.28254610300064087
visibility: 0.9999240636825562
","x: 187.7581024169922
y: 202.732421875
z: -0.2825309634208679
visibility: 0.999912440776825
","x: 186.34756469726562
y: 202.478271484375
z: -0.28251877427101135
visibility: 0.9998977780342102
","x: 199.8962860107422
y: 204.35523986816406
z: -0.18292230367660522
visibility: 0.9999151825904846
","x: 185.3456268310547
y: 204.61724853515625
z: -0.16198348999023438
visibility: 0.9997706413269043
","x: 193.50265502929688
y: 218.47108459472656
z: -0.25602561235427856
visibility: 0.9999772310256958
","x: 188.11019897460938
y: 218.98748779296875
z: -0.25012433528900146
visibility: 0.9999614357948303
","x: 215.4742431640625
y: 250.23617553710938
z: -0.11324714124202728
visibility: 0.9999913573265076
","x: 170.931884765625
y: 249.54429626464844
z: -0.05059130862355232
visibility: 0.9999480843544006
","x: 226.240234375
y: 307.570556640625
z: -0.083799347281456
visibility: 0.9946012496948242
","x: 162.15142822265625
y: 308.6060791015625
z: 0.0027633809950202703
visibility: 0.9563319087028503
","x: 222.04046630859375
y: 359.6246337890625
z: -0.2000492364168167
visibility: 0.9918947219848633
","x: 147.59571838378906
y: 348.3822021484375
z: -0.12268839031457901
visibility: 0.9736591577529907
","x: 220.4408721923828
y: 374.7177429199219
z: -0.23565010726451874
visibility: 0.9814385771751404
","x: 142.03643798828125
y: 362.84112548828125
z: -0.15587341785430908
visibility: 0.955690324306488
","x: 217.46730041503906
y: 372.6244812011719
z: -0.2685479521751404
visibility: 0.9828442931175232
","x: 143.14796447753906
y: 359.4029541015625
z: -0.19803790748119354
visibility: 0.9602445363998413
","x: 217.22079467773438
y: 368.01959228515625
z: -0.21453861892223358
visibility: 0.9771673679351807
","x: 145.3975830078125
y: 354.5697326660156
z: -0.14338082075119019
visibility: 0.9539381265640259
","x: 199.3253631591797
y: 371.5516357421875
z: -0.018515493720769882
visibility: 0.9996315836906433
","x: 175.14036560058594
y: 369.5113830566406
z: 0.0185063686221838
visibility: 0.9996587038040161
","x: 204.8492889404297
y: 462.005615234375
z: -0.011970896273851395
visibility: 0.9960118532180786
","x: 178.53895568847656
y: 456.1587829589844
z: 0.04103487730026245
visibility: 0.9946923851966858
","x: 203.55746459960938
y: 548.3045654296875
z: 0.09880729019641876
visibility: 0.9938072562217712
","x: 182.31553649902344
y: 537.7557983398438
z: 0.1947384476661682
visibility: 0.9945682287216187
","x: 200.94558715820312
y: 559.0897216796875
z: 0.10080007463693619
visibility: 0.912837028503418
","x: 185.79762268066406
y: 550.4215087890625
z: 0.20082466304302216
visibility: 0.935502290725708
","x: 205.24818420410156
y: 571.2427978515625
z: -0.03627117723226547
visibility: 0.9903362989425659
","x: 167.11476135253906
y: 560.9949340820312
z: 0.08039344102144241
visibility: 0.9913968443870544
",,,,,,,,,,,,,,,,,,,,,,,,,,,,,,,,,,,,,,,,,,
24,"x: 183.66656494140625
y: 220.785400390625
z: -0.28516456484794617
visibility: 0.9999772310256958
","x: 186.4601287841797
y: 212.13626098632812
z: -0.2794695198535919
visibility: 0.9999030232429504
","x: 188.12681579589844
y: 211.71353149414062
z: -0.2795296311378479
visibility: 0.9999111294746399
","x: 189.94723510742188
y: 211.2197265625
z: -0.27956119179725647
visibility: 0.9999051690101624
","x: 182.77427673339844
y: 211.72689819335938
z: -0.27236053347587585
visibility: 0.9998787045478821
","x: 181.68035888671875
y: 211.0873260498047
z: -0.2723536491394043
visibility: 0.9998612999916077
","x: 180.58755493164062
y: 210.362548828125
z: -0.27236583828926086
visibility: 0.9998360872268677
","x: 195.1118927001953
y: 210.9818115234375
z: -0.1866060197353363
visibility: 0.9998710751533508
","x: 181.22654724121094
y: 209.58322143554688
z: -0.15372112393379211
visibility: 0.9996339082717896
","x: 186.59259033203125
y: 226.26219177246094
z: -0.24578683078289032
visibility: 0.9999637603759766
","x: 182.3760223388672
y: 226.56874084472656
z: -0.23610790073871613
visibility: 0.9999367594718933
","x: 210.46023559570312
y: 250.87054443359375
z: -0.10864492505788803
visibility: 0.9999899864196777
","x: 168.73899841308594
y: 249.99026489257812
z: -0.04056023806333542
visibility: 0.9999405145645142
","x: 216.05801391601562
y: 311.54974365234375
z: -0.06635928899049759
visibility: 0.9940987825393677
","x: 161.30438232421875
y: 308.9203186035156
z: 0.0017075039213523269
visibility: 0.9525887966156006
","x: 219.88426208496094
y: 361.5766906738281
z: -0.15699070692062378
visibility: 0.9910685420036316
","x: 142.16937255859375
y: 337.9049987792969
z: -0.1321270763874054
visibility: 0.9737693071365356
","x: 221.69078063964844
y: 377.657958984375
z: -0.18306876718997955
visibility: 0.9798094630241394
","x: 134.1364288330078
y: 349.18133544921875
z: -0.16370967030525208
visibility: 0.956204891204834
","x: 218.68267822265625
y: 376.15008544921875
z: -0.21811488270759583
visibility: 0.9813908934593201
","x: 133.54989624023438
y: 345.3830261230469
z: -0.20467865467071533
visibility: 0.9607629179954529
","x: 217.4500732421875
y: 371.3616638183594
z: -0.17220117151737213
visibility: 0.9756616353988647
","x: 136.38153076171875
y: 341.9991455078125
z: -0.15293440222740173
visibility: 0.9545509219169617
","x: 195.98426818847656
y: 371.299072265625
z: -0.020703252404928207
visibility: 0.9996283054351807
","x: 172.898681640625
y: 369.47088623046875
z: 0.020671363919973373
visibility: 0.9996298551559448
","x: 199.4116668701172
y: 461.1523742675781
z: -0.03413775563240051
visibility: 0.9960265755653381
","x: 175.1646728515625
y: 456.79705810546875
z: 0.036617666482925415
visibility: 0.994681715965271
","x: 202.85426330566406
y: 548.0155029296875
z: 0.06333088129758835
visibility: 0.9940782785415649
","x: 181.53480529785156
y: 536.0772094726562
z: 0.19078490138053894
visibility: 0.9945458769798279
","x: 200.36398315429688
y: 558.981689453125
z: 0.06462429463863373
visibility: 0.915037214756012
","x: 185.19459533691406
y: 547.9691772460938
z: 0.1987089365720749
visibility: 0.9362687468528748
","x: 204.5570068359375
y: 571.1455078125
z: -0.07074116170406342
visibility: 0.9906347990036011
","x: 167.3592071533203
y: 559.7709350585938
z: 0.08714190125465393
visibility: 0.9914628267288208
","x: 219.49391174316406
y: 362.4647521972656
z: 0.0
","x: 215.36326599121094
y: 366.4364318847656
z: -0.0022567459382116795
","x: 213.3545379638672
y: 373.19366455078125
z: -0.004079082515090704
","x: 213.19873046875
y: 379.8139953613281
z: -0.005149370059370995
","x: 213.4033660888672
y: 385.2795104980469
z: -0.005757969804108143
","x: 218.16195678710938
y: 375.6293029785156
z: -0.00874937605112791
","x: 217.61056518554688
y: 386.281982421875
z: -0.009743498638272285
","x: 215.6302032470703
y: 386.71453857421875
z: -0.00769159896299243
","x: 214.76072692871094
y: 384.29437255859375
z: -0.005764866713434458
","x: 220.7045440673828
y: 376.45654296875
z: -0.008111105300486088
","x: 219.94622802734375
y: 386.9286804199219
z: -0.008250732906162739
","x: 217.7571563720703
y: 387.56256103515625
z: -0.004964587744325399
","x: 216.91024780273438
y: 385.5557556152344
z: -0.002589252544566989
","x: 222.42022705078125
y: 376.5992736816406
z: -0.007205072324723005
","x: 221.6341094970703
y: 386.15789794921875
z: -0.007681740447878838
","x: 219.54713439941406
y: 386.4710693359375
z: -0.005076327361166477
","x: 218.63250732421875
y: 384.5671081542969
z: -0.0032667089253664017
","x: 223.4690399169922
y: 376.5660095214844
z: -0.006385253742337227
","x: 222.654052734375
y: 384.40325927734375
z: -0.007521257735788822
","x: 221.0101776123047
y: 385.7002258300781
z: -0.006449365988373756
","x: 219.99778747558594
y: 384.6597595214844
z: -0.005187450908124447
",,,,,,,,,,,,,,,,,,,,,
25,"x: 183.66656494140625
y: 220.785400390625
z: -0.28516456484794617
visibility: 0.9999772310256958
","x: 186.4601287841797
y: 212.13626098632812
z: -0.2794695198535919
visibility: 0.9999030232429504
","x: 188.12681579589844
y: 211.71353149414062
z: -0.2795296311378479
visibility: 0.9999111294746399
","x: 189.94723510742188
y: 211.2197265625
z: -0.27956119179725647
visibility: 0.9999051690101624
","x: 182.77427673339844
y: 211.72689819335938
z: -0.27236053347587585
visibility: 0.9998787045478821
","x: 181.68035888671875
y: 211.0873260498047
z: -0.2723536491394043
visibility: 0.9998612999916077
","x: 180.58755493164062
y: 210.362548828125
z: -0.27236583828926086
visibility: 0.9998360872268677
","x: 195.1118927001953
y: 210.9818115234375
z: -0.1866060197353363
visibility: 0.9998710751533508
","x: 181.22654724121094
y: 209.58322143554688
z: -0.15372112393379211
visibility: 0.9996339082717896
","x: 186.59259033203125
y: 226.26219177246094
z: -0.24578683078289032
visibility: 0.9999637603759766
","x: 182.3760223388672
y: 226.56874084472656
z: -0.23610790073871613
visibility: 0.9999367594718933
","x: 210.46023559570312
y: 250.87054443359375
z: -0.10864492505788803
visibility: 0.9999899864196777
","x: 168.73899841308594
y: 249.99026489257812
z: -0.04056023806333542
visibility: 0.9999405145645142
","x: 216.05801391601562
y: 311.54974365234375
z: -0.06635928899049759
visibility: 0.9940987825393677
","x: 161.30438232421875
y: 308.9203186035156
z: 0.0017075039213523269
visibility: 0.9525887966156006
","x: 219.88426208496094
y: 361.5766906738281
z: -0.15699070692062378
visibility: 0.9910685420036316
","x: 142.16937255859375
y: 337.9049987792969
z: -0.1321270763874054
visibility: 0.9737693071365356
","x: 221.69078063964844
y: 377.657958984375
z: -0.18306876718997955
visibility: 0.9798094630241394
","x: 134.1364288330078
y: 349.18133544921875
z: -0.16370967030525208
visibility: 0.956204891204834
","x: 218.68267822265625
y: 376.15008544921875
z: -0.21811488270759583
visibility: 0.9813908934593201
","x: 133.54989624023438
y: 345.3830261230469
z: -0.20467865467071533
visibility: 0.9607629179954529
","x: 217.4500732421875
y: 371.3616638183594
z: -0.17220117151737213
visibility: 0.9756616353988647
","x: 136.38153076171875
y: 341.9991455078125
z: -0.15293440222740173
visibility: 0.9545509219169617
","x: 195.98426818847656
y: 371.299072265625
z: -0.020703252404928207
visibility: 0.9996283054351807
","x: 172.898681640625
y: 369.47088623046875
z: 0.020671363919973373
visibility: 0.9996298551559448
","x: 199.4116668701172
y: 461.1523742675781
z: -0.03413775563240051
visibility: 0.9960265755653381
","x: 175.1646728515625
y: 456.79705810546875
z: 0.036617666482925415
visibility: 0.994681715965271
","x: 202.85426330566406
y: 548.0155029296875
z: 0.06333088129758835
visibility: 0.9940782785415649
","x: 181.53480529785156
y: 536.0772094726562
z: 0.19078490138053894
visibility: 0.9945458769798279
","x: 200.36398315429688
y: 558.981689453125
z: 0.06462429463863373
visibility: 0.915037214756012
","x: 185.19459533691406
y: 547.9691772460938
z: 0.1987089365720749
visibility: 0.9362687468528748
","x: 204.5570068359375
y: 571.1455078125
z: -0.07074116170406342
visibility: 0.9906347990036011
","x: 167.3592071533203
y: 559.7709350585938
z: 0.08714190125465393
visibility: 0.9914628267288208
","x: 219.49391174316406
y: 362.4647521972656
z: 0.0
","x: 215.36326599121094
y: 366.4364318847656
z: -0.0022567459382116795
","x: 213.3545379638672
y: 373.19366455078125
z: -0.004079082515090704
","x: 213.19873046875
y: 379.8139953613281
z: -0.005149370059370995
","x: 213.4033660888672
y: 385.2795104980469
z: -0.005757969804108143
","x: 218.16195678710938
y: 375.6293029785156
z: -0.00874937605112791
","x: 217.61056518554688
y: 386.281982421875
z: -0.009743498638272285
","x: 215.6302032470703
y: 386.71453857421875
z: -0.00769159896299243
","x: 214.76072692871094
y: 384.29437255859375
z: -0.005764866713434458
","x: 220.7045440673828
y: 376.45654296875
z: -0.008111105300486088
","x: 219.94622802734375
y: 386.9286804199219
z: -0.008250732906162739
","x: 217.7571563720703
y: 387.56256103515625
z: -0.004964587744325399
","x: 216.91024780273438
y: 385.5557556152344
z: -0.002589252544566989
","x: 222.42022705078125
y: 376.5992736816406
z: -0.007205072324723005
","x: 221.6341094970703
y: 386.15789794921875
z: -0.007681740447878838
","x: 219.54713439941406
y: 386.4710693359375
z: -0.005076327361166477
","x: 218.63250732421875
y: 384.5671081542969
z: -0.0032667089253664017
","x: 223.4690399169922
y: 376.5660095214844
z: -0.006385253742337227
","x: 222.654052734375
y: 384.40325927734375
z: -0.007521257735788822
","x: 221.0101776123047
y: 385.7002258300781
z: -0.006449365988373756
","x: 219.99778747558594
y: 384.6597595214844
z: -0.005187450908124447
",,,,,,,,,,,,,,,,,,,,,
26,"x: 180.04930114746094
y: 227.6517333984375
z: -0.22336676716804504
visibility: 0.99997878074646
","x: 183.46038818359375
y: 220.1923370361328
z: -0.21145221590995789
visibility: 0.9999105930328369
","x: 185.29481506347656
y: 220.25115966796875
z: -0.21149232983589172
visibility: 0.9999181032180786
","x: 187.3019561767578
y: 220.33230590820312
z: -0.21150560677051544
visibility: 0.9999125003814697
","x: 179.217529296875
y: 219.20687866210938
z: -0.20163853466510773
visibility: 0.999888002872467
","x: 177.96922302246094
y: 218.6054229736328
z: -0.20164254307746887
visibility: 0.9998717904090881
","x: 176.7063751220703
y: 217.959228515625
z: -0.2015690803527832
visibility: 0.999848484992981
","x: 191.55233764648438
y: 221.64404296875
z: -0.11035295575857162
visibility: 0.9998827576637268
","x: 176.59063720703125
y: 217.7574920654297
z: -0.06367749720811844
visibility: 0.9996601939201355
","x: 183.02590942382812
y: 234.10971069335938
z: -0.18276025354862213
visibility: 0.9999663829803467
","x: 178.01419067382812
y: 233.49893188476562
z: -0.169632226228714
visibility: 0.9999402165412903
","x: 203.2347869873047
y: 258.5982971191406
z: -0.0808507651090622
visibility: 0.9999908208847046
","x: 164.66151428222656
y: 256.3993225097656
z: 0.0706038624048233
visibility: 0.9999306797981262
","x: 215.99949645996094
y: 313.2961730957031
z: -0.0753258690237999
visibility: 0.9945988059043884
","x: 160.1139373779297
y: 309.29058837890625
z: 0.003072876948863268
visibility: 0.943260908126831
","x: 214.1649627685547
y: 358.4334716796875
z: -0.19114533066749573
visibility: 0.9917243123054504
","x: 141.39105224609375
y: 303.4075622558594
z: -0.28490179777145386
visibility: 0.9747061133384705
","x: 213.81948852539062
y: 372.68914794921875
z: -0.22306863963603973
visibility: 0.9811223745346069
","x: 133.36752319335938
y: 300.3624267578125
z: -0.33400681614875793
visibility: 0.9581416249275208
","x: 209.5345001220703
y: 371.4026184082031
z: -0.25622251629829407
visibility: 0.9825785160064697
","x: 134.2520294189453
y: 296.7767639160156
z: -0.35851815342903137
visibility: 0.9624101519584656
","x: 208.5391845703125
y: 366.4700622558594
z: -0.2062959223985672
visibility: 0.9770637154579163
","x: 136.69871520996094
y: 296.90777587890625
z: -0.3038734495639801
visibility: 0.9561612606048584
","x: 189.343505859375
y: 372.764892578125
z: -0.062055498361587524
visibility: 0.9996460676193237
","x: 169.3487091064453
y: 373.2102966308594
z: 0.06200976297259331
visibility: 0.9996300935745239
","x: 185.14918518066406
y: 459.3356018066406
z: -0.08045641332864761
visibility: 0.996246874332428
","x: 168.9491424560547
y: 457.62774658203125
z: 0.057465214282274246
visibility: 0.9935934543609619
","x: 202.1778564453125
y: 545.216552734375
z: 0.029024120420217514
visibility: 0.9945134520530701
","x: 180.69395446777344
y: 535.358642578125
z: 0.2164144515991211
visibility: 0.9943598508834839
","x: 203.33755493164062
y: 555.4821166992188
z: 0.031451545655727386
visibility: 0.9187687039375305
","x: 185.2830810546875
y: 546.080322265625
z: 0.22440555691719055
visibility: 0.940253496170044
","x: 194.64971923828125
y: 570.6942138671875
z: -0.10550012439489365
visibility: 0.9913139343261719
","x: 166.57858276367188
y: 560.0806274414062
z: 0.12625329196453094
visibility: 0.9915518164634705
